rpiRobotics/ARM-21-02-F-19-Robot-Motion-Program/data_performance_abb/curve_1/dual_arm/diffevo_pose3/grad_result/real_from_sim/sim_result/dual_iteration_9.csv
timestamp,cmd_num,J1,J2,J3,J4,J5,J6,J1_2,J2_2,J3_2,J4_2,J5_2,J6_2
0.000000000000000000e+00,-1.000000000000000000e+00,-1.942782592773437500e+01,-6.371677398681640625e+00,5.017818450927734375e+01,9.374243927001953125e+01,8.437384033203125000e+01,1.375306091308593750e+02,2.936902046203613281e+00,-3.315499114990234375e+01,-1.848480682373046875e+02,3.627125930786132812e+01,2.116735458374023438e+01,3.320848846435546875e+01
2.000000094994902611e-03,-1.000000000000000000e+00,-1.942782592773437500e+01,-6.371677398681640625e+00,5.017818450927734375e+01,9.374243927001953125e+01,8.437384033203125000e+01,1.375306091308593750e+02,2.936902046203613281e+00,-3.315499114990234375e+01,-1.848480682373046875e+02,3.627125930786132812e+01,2.116735458374023438e+01,3.320848846435546875e+01
4.000000189989805222e-03,-1.000000000000000000e+00,-1.942782592773437500e+01,-6.371677398681640625e+00,5.017818450927734375e+01,9.374243927001953125e+01,8.437384033203125000e+01,1.375306091308593750e+02,2.936902046203613281e+00,-3.315499114990234375e+01,-1.848480682373046875e+02,3.627125930786132812e+01,2.116735458374023438e+01,3.320848846435546875e+01
9.999999776482582092e-03,-1.000000000000000000e+00,-1.942782592773437500e+01,-6.371677398681640625e+00,5.017818450927734375e+01,9.374243927001953125e+01,8.437384033203125000e+01,1.375306091308593750e+02,2.936902046203613281e+00,-3.315499114990234375e+01,-1.848480682373046875e+02,3.627125930786132812e+01,2.116735458374023438e+01,3.320848846435546875e+01
1.200000010430812836e-02,-1.000000000000000000e+00,-1.942782592773437500e+01,-6.371677398681640625e+00,5.017818450927734375e+01,9.374243927001953125e+01,8.437384033203125000e+01,1.375306091308593750e+02,2.936902046203613281e+00,-3.315499114990234375e+01,-1.848480682373046875e+02,3.627125930786132812e+01,2.116735458374023438e+01,3.320848846435546875e+01
1.600000075995922089e-02,-1.000000000000000000e+00,-1.942782592773437500e+01,-6.371677398681640625e+00,5.017818450927734375e+01,9.374243927001953125e+01,8.437384033203125000e+01,1.375306091308593750e+02,2.936902046203613281e+00,-3.315499114990234375e+01,-1.848480682373046875e+02,3.627125930786132812e+01,2.116735458374023438e+01,3.320848846435546875e+01
1.999999955296516418e-02,-1.000000000000000000e+00,-1.942782592773437500e+01,-6.371677398681640625e+00,5.017818450927734375e+01,9.374243927001953125e+01,8.437384033203125000e+01,1.375306091308593750e+02,2.936902046203613281e+00,-3.315499114990234375e+01,-1.848480682373046875e+02,3.627125930786132812e+01,2.116735458374023438e+01,3.320848846435546875e+01
2.400000020861625671e-02,-1.000000000000000000e+00,-1.942782592773437500e+01,-6.371677398681640625e+00,5.017818450927734375e+01,9.374243927001953125e+01,8.437384033203125000e+01,1.375306091308593750e+02,2.936902046203613281e+00,-3.315499114990234375e+01,-1.848480682373046875e+02,3.627125930786132812e+01,2.116735458374023438e+01,3.320848846435546875e+01
2.899999916553497314e-02,2.000000000000000000e+00,-1.942782592773437500e+01,-6.371677398681640625e+00,5.017818450927734375e+01,9.374243927001953125e+01,8.437384033203125000e+01,1.375306091308593750e+02,2.936902046203613281e+00,-3.315499114990234375e+01,-1.848480682373046875e+02,3.627125930786132812e+01,2.116735458374023438e+01,3.320848846435546875e+01
3.500000014901161194e-02,2.000000000000000000e+00,-1.942782592773437500e+01,-6.371677398681640625e+00,5.017818450927734375e+01,9.374243927001953125e+01,8.437384033203125000e+01,1.375306091308593750e+02,2.936902046203613281e+00,-3.315499114990234375e+01,-1.848480682373046875e+02,3.627125930786132812e+01,2.116735458374023438e+01,3.320848846435546875e+01
3.900000080466270447e-02,2.000000000000000000e+00,-1.942782592773437500e+01,-6.371677398681640625e+00,5.017818450927734375e+01,9.374243927001953125e+01,8.437384033203125000e+01,1.375306091308593750e+02,2.936902046203613281e+00,-3.315499114990234375e+01,-1.848480682373046875e+02,3.627125930786132812e+01,2.116735458374023438e+01,3.320848846435546875e+01
4.100000113248825073e-02,2.000000000000000000e+00,-1.942782592773437500e+01,-6.371677398681640625e+00,5.017818450927734375e+01,9.374243927001953125e+01,8.437384033203125000e+01,1.375306091308593750e+02,2.936902046203613281e+00,-3.315499114990234375e+01,-1.848480682373046875e+02,3.627125930786132812e+01,2.116735458374023438e+01,3.320848846435546875e+01
4.600000008940696716e-02,2.000000000000000000e+00,-1.942782592773437500e+01,-6.371677398681640625e+00,5.017818450927734375e+01,9.374243927001953125e+01,8.437384033203125000e+01,1.375306091308593750e+02,2.936902046203613281e+00,-3.315499114990234375e+01,-1.848480682373046875e+02,3.627125930786132812e+01,2.116735458374023438e+01,3.320848846435546875e+01
4.800000041723251343e-02,2.000000000000000000e+00,-1.942782592773437500e+01,-6.371677398681640625e+00,5.017818450927734375e+01,9.374243927001953125e+01,8.437384033203125000e+01,1.375306091308593750e+02,2.936902046203613281e+00,-3.315499114990234375e+01,-1.848480682373046875e+02,3.627125930786132812e+01,2.116735458374023438e+01,3.320848846435546875e+01
5.200000107288360596e-02,2.000000000000000000e+00,-1.942782592773437500e+01,-6.371677398681640625e+00,5.017818450927734375e+01,9.374243927001953125e+01,8.437384033203125000e+01,1.375306091308593750e+02,2.936902046203613281e+00,-3.315499114990234375e+01,-1.848480682373046875e+02,3.627125930786132812e+01,2.116735458374023438e+01,3.320848846435546875e+01
5.600000172853469849e-02,2.000000000000000000e+00,-1.942782592773437500e+01,-6.371677398681640625e+00,5.017818450927734375e+01,9.374243927001953125e+01,8.437384033203125000e+01,1.375306091308593750e+02,2.936902046203613281e+00,-3.315499114990234375e+01,-1.848480682373046875e+02,3.627125930786132812e+01,2.116735458374023438e+01,3.320848846435546875e+01
5.999999865889549255e-02,2.000000000000000000e+00,-1.942782592773437500e+01,-6.371677398681640625e+00,5.017818450927734375e+01,9.374243927001953125e+01,8.437384033203125000e+01,1.375306091308593750e+02,2.936902046203613281e+00,-3.315499114990234375e+01,-1.848480682373046875e+02,3.627125930786132812e+01,2.116735458374023438e+01,3.320848846435546875e+01
6.400000303983688354e-02,2.000000000000000000e+00,-1.942782592773437500e+01,-6.371677398681640625e+00,5.017818450927734375e+01,9.374243927001953125e+01,8.437384033203125000e+01,1.375306091308593750e+02,2.936902046203613281e+00,-3.315499114990234375e+01,-1.848480682373046875e+02,3.627125930786132812e+01,2.116735458374023438e+01,3.320848846435546875e+01
6.800000369548797607e-02,2.000000000000000000e+00,-1.942782592773437500e+01,-6.371677398681640625e+00,5.017818450927734375e+01,9.374243927001953125e+01,8.437384033203125000e+01,1.375306091308593750e+02,2.936902046203613281e+00,-3.315499114990234375e+01,-1.848480682373046875e+02,3.627125930786132812e+01,2.116735458374023438e+01,3.320848846435546875e+01
7.199999690055847168e-02,2.000000000000000000e+00,-1.942789268493652344e+01,-6.371650695800781250e+00,5.017816925048828125e+01,9.374243927001953125e+01,8.437384033203125000e+01,1.375306091308593750e+02,2.936902046203613281e+00,-3.315499114990234375e+01,-1.848480682373046875e+02,3.627125930786132812e+01,2.116735458374023438e+01,3.320848846435546875e+01
7.599999755620956421e-02,2.000000000000000000e+00,-1.942827415466308594e+01,-6.371486663818359375e+00,5.017808532714843750e+01,9.374243927001953125e+01,8.437383270263671875e+01,1.375306091308593750e+02,2.936902046203613281e+00,-3.315499114990234375e+01,-1.848480682373046875e+02,3.627125930786132812e+01,2.116735458374023438e+01,3.320848846435546875e+01
7.999999821186065674e-02,2.000000000000000000e+00,-1.942935371398925781e+01,-6.370975017547607422e+00,5.017780303955078125e+01,9.374245452880859375e+01,8.437380218505859375e+01,1.375305938720703125e+02,2.936902046203613281e+00,-3.315499114990234375e+01,-1.848480682373046875e+02,3.627125930786132812e+01,2.116735458374023438e+01,3.320848846435546875e+01
8.399999886751174927e-02,2.000000000000000000e+00,-1.943150520324707031e+01,-6.369874000549316406e+00,5.017718124389648438e+01,9.374248504638671875e+01,8.437375640869140625e+01,1.375305786132812500e+02,2.936874389648437500e+00,-3.315499114990234375e+01,-1.848480529785156250e+02,3.627125930786132812e+01,2.116735839843750000e+01,3.320848846435546875e+01
8.799999952316284180e-02,2.000000000000000000e+00,-1.943495941162109375e+01,-6.367975711822509766e+00,5.017605590820312500e+01,9.374255371093750000e+01,8.437368011474609375e+01,1.375304870605468750e+02,2.936694145202636719e+00,-3.315498352050781250e+01,-1.848480224609375000e+02,3.627126312255859375e+01,2.116737365722656250e+01,3.320848846435546875e+01
9.200000017881393433e-02,2.000000000000000000e+00,-1.943987083435058594e+01,-6.365104675292968750e+00,5.017423629760742188e+01,9.374269104003906250e+01,8.437357330322265625e+01,1.375303344726562500e+02,2.936099290847778320e+00,-3.315494537353515625e+01,-1.848479461669921875e+02,3.627127075195312500e+01,2.116743469238281250e+01,3.320848083496093750e+01
9.600000083446502686e-02,2.000000000000000000e+00,-1.944639205932617188e+01,-6.361097335815429688e+00,5.017150878906250000e+01,9.374295043945312500e+01,8.437342834472656250e+01,1.375300140380859375e+02,2.934734344482421875e+00,-3.315485382080078125e+01,-1.848477478027343750e+02,3.627128601074218750e+01,2.116759490966796875e+01,3.320846176147460938e+01
1.000000014901161194e-01,2.000000000000000000e+00,-1.945455360412597656e+01,-6.355853557586669922e+00,5.016765975952148438e+01,9.374337005615234375e+01,8.437326812744140625e+01,1.375294799804687500e+02,2.932210206985473633e+00,-3.315467834472656250e+01,-1.848474121093750000e+02,3.627131652832031250e+01,2.116794586181640625e+01,3.320840835571289062e+01
1.040000021457672119e-01,2.000000000000000000e+00,-1.946427345275878906e+01,-6.349350929260253906e+00,5.016247940063476562e+01,9.374401855468750000e+01,8.437309265136718750e+01,1.375286254882812500e+02,2.928096771240234375e+00,-3.315436172485351562e+01,-1.848468780517578125e+02,3.627136993408203125e+01,2.116861343383789062e+01,3.320828628540039062e+01
1.080000028014183044e-01,2.000000000000000000e+00,-1.947556877136230469e+01,-6.341558933258056641e+00,5.015575027465820312e+01,9.374495697021484375e+01,8.437291717529296875e+01,1.375273590087890625e+02,2.921919584274291992e+00,-3.315385055541992188e+01,-1.848461151123046875e+02,3.627143859863281250e+01,2.116977310180664062e+01,3.320805358886718750e+01
1.120000034570693970e-01,2.000000000000000000e+00,-1.948869514465332031e+01,-6.332337856292724609e+00,5.014719390869140625e+01,9.374624633789062500e+01,8.437276458740234375e+01,1.375256195068359375e+02,2.913284540176391602e+00,-3.315307998657226562e+01,-1.848450775146484375e+02,3.627153778076171875e+01,2.117162704467773438e+01,3.320765686035156250e+01
1.159999966621398926e-01,2.000000000000000000e+00,-1.950407218933105469e+01,-6.321449279785156250e+00,5.013649368286132812e+01,9.374794769287109375e+01,8.437261199951171875e+01,1.375232849121093750e+02,2.901968479156494141e+00,-3.315198898315429688e+01,-1.848438262939453125e+02,3.627166366577148438e+01,2.117438316345214844e+01,3.320702743530273438e+01
1.199999973177909851e-01,2.000000000000000000e+00,-1.952206420898437500e+01,-6.308678150177001953e+00,5.012337112426757812e+01,9.375012207031250000e+01,8.437247467041015625e+01,1.375202789306640625e+02,2.887815952301025391e+00,-3.315053176879882812e+01,-1.848423461914062500e+02,3.627181243896484375e+01,2.117824172973632812e+01,3.320611572265625000e+01
1.239999979734420776e-01,2.000000000000000000e+00,-1.954282951354980469e+01,-6.293944358825683594e+00,5.010761642456054688e+01,9.375283050537109375e+01,8.437236785888671875e+01,1.375165252685546875e+02,2.870593547821044922e+00,-3.314865875244140625e+01,-1.848406677246093750e+02,3.627198791503906250e+01,2.118337631225585938e+01,3.320486450195312500e+01
1.280000060796737671e-01,2.000000000000000000e+00,-1.956633758544921875e+01,-6.277295112609863281e+00,5.008913040161132812e+01,9.375609588623046875e+01,8.437229156494140625e+01,1.375119934082031250e+02,2.850015163421630859e+00,-3.314632415771484375e+01,-1.848387603759765625e+02,3.627219009399414062e+01,2.118991279602050781e+01,3.320324325561523438e+01
1.309999972581863403e-01,2.000000000000000000e+00,-1.959248733520507812e+01,-6.258818149566650391e+00,5.006786727905273438e+01,9.375995635986328125e+01,8.437226104736328125e+01,1.375066223144531250e+02,2.825886964797973633e+00,-3.314351654052734375e+01,-1.848366088867187500e+02,3.627243041992187500e+01,2.119791793823242188e+01,3.320124053955078125e+01
1.360000073909759521e-01,2.000000000000000000e+00,-1.962119865417480469e+01,-6.238572120666503906e+00,5.004381179809570312e+01,9.376441192626953125e+01,8.437228393554687500e+01,1.375003967285156250e+02,2.798128128051757812e+00,-3.314022827148437500e+01,-1.848341979980468750e+02,3.627269744873046875e+01,2.120738792419433594e+01,3.319884490966796875e+01
1.389999985694885254e-01,2.000000000000000000e+00,-1.965238571166992188e+01,-6.216614723205566406e+00,5.001702499389648438e+01,9.376946258544921875e+01,8.437236022949218750e+01,1.374933319091796875e+02,2.766707420349121094e+00,-3.313647460937500000e+01,-1.848315124511718750e+02,3.627299880981445312e+01,2.121827507019042969e+01,3.319608688354492188e+01
1.439999938011169434e-01,2.000000000000000000e+00,-1.968594551086425781e+01,-6.193001270294189453e+00,4.998760604858398438e+01,9.377508544921875000e+01,8.437248992919921875e+01,1.374854583740234375e+02,2.731681823730468750e+00,-3.313227462768554688e+01,-1.848285217285156250e+02,3.627333450317382812e+01,2.123047828674316406e+01,3.319298934936523438e+01
1.480000019073486328e-01,2.000000000000000000e+00,-1.972189521789550781e+01,-6.167697429656982422e+00,4.995568466186523438e+01,9.378122711181640625e+01,8.437264251708984375e+01,1.374768524169921875e+02,2.693281888961791992e+00,-3.312767410278320312e+01,-1.848252716064453125e+02,3.627370452880859375e+01,2.124386978149414062e+01,3.318958663940429688e+01
1.519999951124191284e-01,2.000000000000000000e+00,-1.976036453247070312e+01,-6.140578269958496094e+00,4.992137145996093750e+01,9.378784942626953125e+01,8.437282562255859375e+01,1.374675598144531250e+02,2.651918649673461914e+00,-3.312272262573242188e+01,-1.848217468261718750e+02,3.627410125732421875e+01,2.125828552246093750e+01,3.318592834472656250e+01
1.560000032186508179e-01,2.000000000000000000e+00,-1.980142402648925781e+01,-6.111567497253417969e+00,4.988483047485351562e+01,9.379487609863281250e+01,8.437300872802734375e+01,1.374577026367187500e+02,2.608050107955932617e+00,-3.311747741699218750e+01,-1.848180084228515625e+02,3.627452087402343750e+01,2.127356147766113281e+01,3.318204879760742188e+01
1.599999964237213135e-01,2.000000000000000000e+00,-1.984490966796875000e+01,-6.080760002136230469e+00,4.984631347656250000e+01,9.380224609375000000e+01,8.437317657470703125e+01,1.374473876953125000e+02,2.562056779861450195e+00,-3.311199188232421875e+01,-1.848140869140625000e+02,3.627496337890625000e+01,2.128952598571777344e+01,3.317800140380859375e+01
1.640000045299530029e-01,2.000000000000000000e+00,-1.989045715332031250e+01,-6.048388481140136719e+00,4.980613708496093750e+01,9.380990600585937500e+01,8.437334442138671875e+01,1.374366607666015625e+02,2.514254570007324219e+00,-3.310631179809570312e+01,-1.848099670410156250e+02,3.627542114257812500e+01,2.130602073669433594e+01,3.317382431030273438e+01
1.679999977350234985e-01,2.000000000000000000e+00,-1.993768119812011719e+01,-6.014691352844238281e+00,4.976459884643554688e+01,9.381779479980468750e+01,8.437348175048828125e+01,1.374256134033203125e+02,2.464956998825073242e+00,-3.310049438476562500e+01,-1.848056945800781250e+02,3.627589797973632812e+01,2.132289886474609375e+01,3.316955947875976562e+01
1.720000058412551880e-01,2.000000000000000000e+00,-1.998631668090820312e+01,-5.979859828948974609e+00,4.972195816040039062e+01,9.382585144042968750e+01,8.437361145019531250e+01,1.374143524169921875e+02,2.414495468139648438e+00,-3.309456634521484375e+01,-1.848012847900390625e+02,3.627638626098632812e+01,2.134003639221191406e+01,3.316524124145507812e+01
1.759999990463256836e-01,2.000000000000000000e+00,-2.003620910644531250e+01,-5.944056034088134766e+00,4.967844009399414062e+01,9.383403778076171875e+01,8.437372589111328125e+01,1.374029083251953125e+02,2.363165616989135742e+00,-3.308856964111328125e+01,-1.847967529296875000e+02,3.627688217163085938e+01,2.135733604431152344e+01,3.316088485717773438e+01
1.800000071525573730e-01,2.000000000000000000e+00,-2.008724212646484375e+01,-5.907434940338134766e+00,4.963424301147460938e+01,9.384231567382812500e+01,8.437381744384765625e+01,1.373913421630859375e+02,2.311207771301269531e+00,-3.308252334594726562e+01,-1.847921447753906250e+02,3.627739334106445312e+01,2.137472534179687500e+01,3.315651702880859375e+01
1.840000003576278687e-01,2.000000000000000000e+00,-2.013927268981933594e+01,-5.870143890380859375e+00,4.958954238891601562e+01,9.385064697265625000e+01,8.437388610839843750e+01,1.373797149658203125e+02,2.258842945098876953e+00,-3.307645034790039062e+01,-1.847874755859375000e+02,3.627790069580078125e+01,2.139216041564941406e+01,3.315214538574218750e+01
1.879999935626983643e-01,2.000000000000000000e+00,-2.019219398498535156e+01,-5.832303047180175781e+00,4.954447174072265625e+01,9.385901641845703125e+01,8.437393188476562500e+01,1.373680114746093750e+02,2.206272840499877930e+00,-3.307036590576171875e+01,-1.847827758789062500e+02,3.627841567993164062e+01,2.140961265563964844e+01,3.314776992797851562e+01
1.920000016689300537e-01,2.000000000000000000e+00,-2.024591064453125000e+01,-5.794021606445312500e+00,4.949913406372070312e+01,9.386740112304687500e+01,8.437397003173828125e+01,1.373563232421875000e+02,2.153640985488891602e+00,-3.306427764892578125e+01,-1.847780761718750000e+02,3.627893447875976562e+01,2.142706489562988281e+01,3.314339828491210938e+01
1.959999948740005493e-01,2.000000000000000000e+00,-2.030023574829101562e+01,-5.755438804626464844e+00,4.945362854003906250e+01,9.387579345703125000e+01,8.437399291992187500e+01,1.373446197509765625e+02,2.101009845733642578e+00,-3.305818939208984375e+01,-1.847733612060546875e+02,3.627944946289062500e+01,2.144451522827148438e+01,3.313902282714843750e+01
2.000000029802322388e-01,2.000000000000000000e+00,-2.035491180419921875e+01,-5.716701507568359375e+00,4.940804672241210938e+01,9.388418579101562500e+01,8.437400054931640625e+01,1.373329010009765625e+02,2.048390150070190430e+00,-3.305210113525390625e+01,-1.847686614990234375e+02,3.627996444702148438e+01,2.146195983886718750e+01,3.313465118408203125e+01
2.039999961853027344e-01,2.000000000000000000e+00,-2.040970230102539062e+01,-5.677919864654541016e+00,4.936244201660156250e+01,9.389258575439453125e+01,8.437400817871093750e+01,1.373211975097656250e+02,1.995782971382141113e+00,-3.304601669311523438e+01,-1.847639465332031250e+02,3.628047943115234375e+01,2.147940063476562500e+01,3.313027954101562500e+01
2.080000042915344238e-01,2.000000000000000000e+00,-2.046449851989746094e+01,-5.639139175415039062e+00,4.931685256958007812e+01,9.390097045898437500e+01,8.437401580810546875e+01,1.373094940185546875e+02,1.943188190460205078e+00,-3.303993225097656250e+01,-1.847592315673828125e+02,3.628099441528320312e+01,2.149684143066406250e+01,3.312590789794921875e+01
2.119999974966049194e-01,2.000000000000000000e+00,-2.051928329467773438e+01,-5.600367069244384766e+00,4.927126693725585938e+01,9.390936279296875000e+01,8.437403106689453125e+01,1.372978057861328125e+02,1.890605807304382324e+00,-3.303384780883789062e+01,-1.847545318603515625e+02,3.628150939941406250e+01,2.151427268981933594e+01,3.312153625488281250e+01
2.160000056028366089e-01,2.000000000000000000e+00,-2.057405471801757812e+01,-5.561604022979736328e+00,4.922569656372070312e+01,9.391775512695312500e+01,8.437403869628906250e+01,1.372860870361328125e+02,1.838035464286804199e+00,-3.302776718139648438e+01,-1.847498168945312500e+02,3.628202438354492188e+01,2.153170204162597656e+01,3.311716842651367188e+01
2.199999988079071045e-01,2.000000000000000000e+00,-2.062881469726562500e+01,-5.522850036621093750e+00,4.918013381958007812e+01,9.392613220214843750e+01,8.437404632568359375e+01,1.372743988037109375e+02,1.785477757453918457e+00,-3.302168655395507812e+01,-1.847451171875000000e+02,3.628253936767578125e+01,2.154912757873535156e+01,3.311280059814453125e+01
2.240000069141387939e-01,2.000000000000000000e+00,-2.068356132507324219e+01,-5.484105587005615234e+00,4.913458251953125000e+01,9.393451690673828125e+01,8.437405395507812500e+01,1.372627105712890625e+02,1.732932329177856445e+00,-3.301560974121093750e+01,-1.847404174804687500e+02,3.628305435180664062e+01,2.156654930114746094e+01,3.310843658447265625e+01
2.280000001192092896e-01,2.000000000000000000e+00,-2.073829460144042969e+01,-5.445369720458984375e+00,4.908904266357421875e+01,9.394290161132812500e+01,8.437406921386718750e+01,1.372510223388671875e+02,1.680399417877197266e+00,-3.300953292846679688e+01,-1.847357025146484375e+02,3.628356552124023438e+01,2.158396720886230469e+01,3.310407257080078125e+01
2.319999933242797852e-01,2.000000000000000000e+00,-2.079301643371582031e+01,-5.406643390655517578e+00,4.904351043701171875e+01,9.395127868652343750e+01,8.437406921386718750e+01,1.372393341064453125e+02,1.627878785133361816e+00,-3.300345611572265625e+01,-1.847310028076171875e+02,3.628408432006835938e+01,2.160137939453125000e+01,3.309970855712890625e+01
2.360000014305114746e-01,2.000000000000000000e+00,-2.084772491455078125e+01,-5.367926120758056641e+00,4.899799346923828125e+01,9.395966339111328125e+01,8.437407684326171875e+01,1.372276611328125000e+02,1.575370669364929199e+00,-3.299738311767578125e+01,-1.847263031005859375e+02,3.628459930419921875e+01,2.161878776550292969e+01,3.309534454345703125e+01
2.399999946355819702e-01,2.000000000000000000e+00,-2.090242195129394531e+01,-5.329217910766601562e+00,4.895248031616210938e+01,9.396803283691406250e+01,8.437409210205078125e+01,1.372159729003906250e+02,1.522874951362609863e+00,-3.299131011962890625e+01,-1.847216033935546875e+02,3.628511047363281250e+01,2.163619232177734375e+01,3.309098434448242188e+01
2.440000027418136597e-01,2.000000000000000000e+00,-2.095710372924804688e+01,-5.290519237518310547e+00,4.890698623657226562e+01,9.397640991210937500e+01,8.437409973144531250e+01,1.372042999267578125e+02,1.470391511917114258e+00,-3.298523712158203125e+01,-1.847169036865234375e+02,3.628562545776367188e+01,2.165359306335449219e+01,3.308662033081054688e+01
2.479999959468841553e-01,2.000000000000000000e+00,-2.101177215576171875e+01,-5.251829147338867188e+00,4.886149978637695312e+01,9.398478698730468750e+01,8.437410736083984375e+01,1.371926116943359375e+02,1.417920470237731934e+00,-3.297916793823242188e+01,-1.847122039794921875e+02,3.628614044189453125e+01,2.167098999023437500e+01,3.308226013183593750e+01
2.520000040531158447e-01,2.000000000000000000e+00,-2.106642913818359375e+01,-5.213148117065429688e+00,4.881602096557617188e+01,9.399314880371093750e+01,8.437412261962890625e+01,1.371809539794921875e+02,1.365461707115173340e+00,-3.297309875488281250e+01,-1.847075195312500000e+02,3.628665542602539062e+01,2.168838119506835938e+01,3.307790374755859375e+01
2.560000121593475342e-01,2.000000000000000000e+00,-2.112107467651367188e+01,-5.174475669860839844e+00,4.877055740356445312e+01,9.400151824951171875e+01,8.437413024902343750e+01,1.371692810058593750e+02,1.313015460968017578e+00,-3.296703338623046875e+01,-1.847028198242187500e+02,3.628716659545898438e+01,2.170576858520507812e+01,3.307354354858398438e+01
2.599999904632568359e-01,2.000000000000000000e+00,-2.117570495605468750e+01,-5.135813236236572266e+00,4.872510147094726562e+01,9.400988769531250000e+01,8.437413024902343750e+01,1.371576232910156250e+02,1.260581374168395996e+00,-3.296096801757812500e+01,-1.846981201171875000e+02,3.628768157958984375e+01,2.172315406799316406e+01,3.306918716430664062e+01
2.639999985694885254e-01,2.000000000000000000e+00,-2.123032569885253906e+01,-5.097159385681152344e+00,4.867965698242187500e+01,9.401824951171875000e+01,8.437413787841796875e+01,1.371459503173828125e+02,1.208159565925598145e+00,-3.295490646362304688e+01,-1.846934356689453125e+02,3.628819274902343750e+01,2.174053573608398438e+01,3.306483078002929688e+01
2.680000066757202148e-01,2.000000000000000000e+00,-2.128493118286132812e+01,-5.058514595031738281e+00,4.863422393798828125e+01,9.402661132812500000e+01,8.437415313720703125e+01,1.371342926025390625e+02,1.155750036239624023e+00,-3.294884109497070312e+01,-1.846887359619140625e+02,3.628870773315429688e+01,2.175791168212890625e+01,3.306047439575195312e+01
2.720000147819519043e-01,2.000000000000000000e+00,-2.133952522277832031e+01,-5.019878864288330078e+00,4.858880233764648438e+01,9.403497314453125000e+01,8.437416076660156250e+01,1.371226348876953125e+02,1.103352665901184082e+00,-3.294277954101562500e+01,-1.846840515136718750e+02,3.628922271728515625e+01,2.177528190612792969e+01,3.305612182617187500e+01
2.759999930858612061e-01,2.000000000000000000e+00,-2.139410400390625000e+01,-4.981251716613769531e+00,4.854338836669921875e+01,9.404333496093750000e+01,8.437416839599609375e+01,1.371109619140625000e+02,1.050967454910278320e+00,-3.293671798706054688e+01,-1.846793670654296875e+02,3.628973388671875000e+01,2.179265022277832031e+01,3.305176925659179688e+01
2.800000011920928955e-01,2.000000000000000000e+00,-2.144867324829101562e+01,-4.942634105682373047e+00,4.849798583984375000e+01,9.405168914794921875e+01,8.437418365478515625e+01,1.370993194580078125e+02,9.985943436622619629e-01,-3.293066024780273438e+01,-1.846746673583984375e+02,3.629024505615234375e+01,2.181001472473144531e+01,3.304741668701171875e+01
2.840000092983245850e-01,2.000000000000000000e+00,-2.150322723388671875e+01,-4.904025554656982422e+00,4.845259475708007812e+01,9.406003570556640625e+01,8.437419128417968750e+01,1.370876617431640625e+02,9.462335109710693359e-01,-3.292460250854492188e+01,-1.846699829101562500e+02,3.629076004028320312e+01,2.182737350463867188e+01,3.304306411743164062e+01
2.879999876022338867e-01,2.000000000000000000e+00,-2.155776977539062500e+01,-4.865425586700439453e+00,4.840721511840820312e+01,9.406838989257812500e+01,8.437419891357421875e+01,1.370760192871093750e+02,8.938847184181213379e-01,-3.291854858398437500e+01,-1.846652984619140625e+02,3.629127502441406250e+01,2.184473037719726562e+01,3.303871536254882812e+01
2.919999957084655762e-01,2.000000000000000000e+00,-2.161230087280273438e+01,-4.826834678649902344e+00,4.836184310913085938e+01,9.407674407958984375e+01,8.437419891357421875e+01,1.370643768310546875e+02,8.415480852127075195e-01,-3.291249465942382812e+01,-1.846606140136718750e+02,3.629178619384765625e+01,2.186208152770996094e+01,3.303436660766601562e+01
2.960000038146972656e-01,2.000000000000000000e+00,-2.166681671142578125e+01,-4.788252353668212891e+00,4.831648254394531250e+01,9.408509063720703125e+01,8.437421417236328125e+01,1.370527343750000000e+02,7.892234921455383301e-01,-3.290644073486328125e+01,-1.846559295654296875e+02,3.629230117797851562e+01,2.187943077087402344e+01,3.303002166748046875e+01
3.000000119209289551e-01,2.000000000000000000e+00,-2.172131919860839844e+01,-4.749679565429687500e+00,4.827113342285156250e+01,9.409343719482421875e+01,8.437422180175781250e+01,1.370410919189453125e+02,7.369109988212585449e-01,-3.290039062500000000e+01,-1.846512603759765625e+02,3.629281234741210938e+01,2.189677429199218750e+01,3.302567291259765625e+01
3.039999902248382568e-01,2.000000000000000000e+00,-2.177581214904785156e+01,-4.711115360260009766e+00,4.822579574584960938e+01,9.410178375244140625e+01,8.437422943115234375e+01,1.370294494628906250e+02,6.846105456352233887e-01,-3.289433670043945312e+01,-1.846465759277343750e+02,3.629332351684570312e+01,2.191411399841308594e+01,3.302132415771484375e+01
3.079999983310699463e-01,2.000000000000000000e+00,-2.183028984069824219e+01,-4.672560214996337891e+00,4.818046569824218750e+01,9.411012268066406250e+01,8.437424468994140625e+01,1.370178222656250000e+02,6.323222517967224121e-01,-3.288829040527343750e+01,-1.846418914794921875e+02,3.629383468627929688e+01,2.193144989013671875e+01,3.301698303222656250e+01
3.120000064373016357e-01,2.000000000000000000e+00,-2.188475799560546875e+01,-4.634014129638671875e+00,4.813514709472656250e+01,9.411846160888671875e+01,8.437425231933593750e+01,1.370061950683593750e+02,5.800459980964660645e-01,-3.288224029541015625e+01,-1.846372070312500000e+02,3.629434967041015625e+01,2.194878196716308594e+01,3.301263809204101562e+01
3.160000145435333252e-01,2.000000000000000000e+00,-2.193921089172363281e+01,-4.595476627349853516e+00,4.808983993530273438e+01,9.412680053710937500e+01,8.437425994873046875e+01,1.369945526123046875e+02,5.277817845344543457e-01,-3.287619781494140625e+01,-1.846325225830078125e+02,3.629486083984375000e+01,2.196610832214355469e+01,3.300829696655273438e+01
3.199999928474426270e-01,2.000000000000000000e+00,-2.199365425109863281e+01,-4.556948184967041016e+00,4.804454421997070312e+01,9.413514709472656250e+01,8.437425994873046875e+01,1.369829254150390625e+02,4.755296707153320312e-01,-3.287015151977539062e+01,-1.846278533935546875e+02,3.629537200927734375e+01,2.198343276977539062e+01,3.300395202636718750e+01
3.240000009536743164e-01,2.000000000000000000e+00,-2.204808235168457031e+01,-4.518428325653076172e+00,4.799925613403320312e+01,9.414347839355468750e+01,8.437427520751953125e+01,1.369712982177734375e+02,4.232896268367767334e-01,-3.286411285400390625e+01,-1.846231689453125000e+02,3.629588317871093750e+01,2.200075340270996094e+01,3.299961090087890625e+01
3.280000090599060059e-01,2.000000000000000000e+00,-2.210249710083007812e+01,-4.479917526245117188e+00,4.795397949218750000e+01,9.415180969238281250e+01,8.437428283691406250e+01,1.369596862792968750e+02,3.710616230964660645e-01,-3.285807037353515625e+01,-1.846184997558593750e+02,3.629639434814453125e+01,2.201807022094726562e+01,3.299526977539062500e+01
3.319999873638153076e-01,2.000000000000000000e+00,-2.215690231323242188e+01,-4.441415786743164062e+00,4.790871810913085938e+01,9.416014099121093750e+01,8.437429046630859375e+01,1.369480743408203125e+02,3.188456296920776367e-01,-3.285202789306640625e+01,-1.846138305664062500e+02,3.629690551757812500e+01,2.203538131713867188e+01,3.299093246459960938e+01
3.359999954700469971e-01,2.000000000000000000e+00,-2.221129417419433594e+01,-4.402923107147216797e+00,4.786346054077148438e+01,9.416846466064453125e+01,8.437430572509765625e+01,1.369364624023437500e+02,2.666417658329010010e-01,-3.284598922729492188e+01,-1.846091613769531250e+02,3.629742050170898438e+01,2.205269050598144531e+01,3.298659515380859375e+01
3.400000035762786865e-01,2.000000000000000000e+00,-2.226567268371582031e+01,-4.364439010620117188e+00,4.781821823120117188e+01,9.417680358886718750e+01,8.437431335449218750e+01,1.369248504638671875e+02,2.144498974084854126e-01,-3.283995437622070312e+01,-1.846044769287109375e+02,3.629792785644531250e+01,2.206999206542968750e+01,3.298226165771484375e+01
3.440000116825103760e-01,2.000000000000000000e+00,-2.232003784179687500e+01,-4.325963973999023438e+00,4.777297973632812500e+01,9.418512725830078125e+01,8.437432098388671875e+01,1.369132385253906250e+02,1.622700840234756470e-01,-3.283391571044921875e+01,-1.845998077392578125e+02,3.629843902587890625e+01,2.208729362487792969e+01,3.297792434692382812e+01
3.479999899864196777e-01,2.000000000000000000e+00,-2.237439155578613281e+01,-4.287497520446777344e+00,4.772775650024414062e+01,9.419344329833984375e+01,8.437432861328125000e+01,1.369016265869140625e+02,1.101023256778717041e-01,-3.282788085937500000e+01,-1.845951385498046875e+02,3.629895019531250000e+01,2.210458946228027344e+01,3.297359085083007812e+01
3.519999980926513672e-01,2.000000000000000000e+00,-2.242873382568359375e+01,-4.249040126800537109e+00,4.768254089355468750e+01,9.420177459716796875e+01,8.437433624267578125e+01,1.368900146484375000e+02,5.794659256935119629e-02,-3.282184600830078125e+01,-1.845904693603515625e+02,3.629946136474609375e+01,2.212188148498535156e+01,3.296925354003906250e+01
3.560000061988830566e-01,2.000000000000000000e+00,-2.248306083679199219e+01,-4.210591316223144531e+00,4.763734054565429688e+01,9.421009063720703125e+01,8.437434387207031250e+01,1.368784179687500000e+02,5.802892148494720459e-03,-3.281581497192382812e+01,-1.845858154296875000e+02,3.629997253417968750e+01,2.213916969299316406e+01,3.296492004394531250e+01
3.600000143051147461e-01,2.000000000000000000e+00,-2.253737640380859375e+01,-4.172152042388916016e+00,4.759214782714843750e+01,9.421840667724609375e+01,8.437435150146484375e+01,1.368668212890625000e+02,-4.632877558469772339e-02,-3.280978393554687500e+01,-1.845811309814453125e+02,3.630048370361328125e+01,2.215645217895507812e+01,3.296058654785156250e+01
3.639999926090240479e-01,2.000000000000000000e+00,-2.259167861938476562e+01,-4.133720874786376953e+00,4.754696655273437500e+01,9.422672271728515625e+01,8.437436676025390625e+01,1.368552246093750000e+02,-9.844842553138732910e-02,-3.280375671386718750e+01,-1.845764617919921875e+02,3.630099487304687500e+01,2.217373275756835938e+01,3.295625686645507812e+01
3.680000007152557373e-01,2.000000000000000000e+00,-2.264597129821777344e+01,-4.095299243927001953e+00,4.750179290771484375e+01,9.423503875732421875e+01,8.437437438964843750e+01,1.368436126708984375e+02,-1.505560427904129028e-01,-3.279772949218750000e+01,-1.845718078613281250e+02,3.630150222778320312e+01,2.219100761413574219e+01,3.295192718505859375e+01
3.720000088214874268e-01,2.000000000000000000e+00,-2.270024871826171875e+01,-4.056886196136474609e+00,4.745663070678710938e+01,9.424334716796875000e+01,8.437438201904296875e+01,1.368320312500000000e+02,-2.026516497135162354e-01,-3.279170227050781250e+01,-1.845671539306640625e+02,3.630201721191406250e+01,2.220828056335449219e+01,3.294760131835937500e+01
3.759999871253967285e-01,2.000000000000000000e+00,-2.275451469421386719e+01,-4.018481731414794922e+00,4.741147994995117188e+01,9.425166320800781250e+01,8.437438964843750000e+01,1.368204345703125000e+02,-2.547352313995361328e-01,-3.278567504882812500e+01,-1.845624847412109375e+02,3.630252456665039062e+01,2.222554779052734375e+01,3.294327163696289062e+01
3.799999952316284180e-01,2.000000000000000000e+00,-2.280876731872558594e+01,-3.980086088180541992e+00,4.736633682250976562e+01,9.425996398925781250e+01,8.437439727783203125e+01,1.368088531494140625e+02,-3.068068325519561768e-01,-3.277965164184570312e+01,-1.845578155517578125e+02,3.630303573608398438e+01,2.224281311035156250e+01,3.293894577026367188e+01
3.840000033378601074e-01,2.000000000000000000e+00,-2.286300849914550781e+01,-3.941699743270874023e+00,4.732120895385742188e+01,9.426827239990234375e+01,8.437440490722656250e+01,1.367972717285156250e+02,-3.588664233684539795e-01,-3.277363204956054688e+01,-1.845531616210937500e+02,3.630354690551757812e+01,2.226007270812988281e+01,3.293461990356445312e+01
3.880000114440917969e-01,2.000000000000000000e+00,-2.291723632812500000e+01,-3.903322219848632812e+00,4.727609252929687500e+01,9.427657318115234375e+01,8.437441253662109375e+01,1.367856903076171875e+02,-4.109139740467071533e-01,-3.276761245727539062e+01,-1.845485076904296875e+02,3.630405426025390625e+01,2.227732849121093750e+01,3.293029403686523438e+01
3.919999897480010986e-01,2.000000000000000000e+00,-2.297145271301269531e+01,-3.864953517913818359e+00,4.723097991943359375e+01,9.428488159179687500e+01,8.437442779541015625e+01,1.367741088867187500e+02,-4.629495441913604736e-01,-3.276158905029296875e+01,-1.845438385009765625e+02,3.630456542968750000e+01,2.229458045959472656e+01,3.292596817016601562e+01
3.959999978542327881e-01,2.000000000000000000e+00,-2.302565574645996094e+01,-3.826593399047851562e+00,4.718588256835937500e+01,9.429318237304687500e+01,8.437443542480468750e+01,1.367625274658203125e+02,-5.149731636047363281e-01,-3.275557327270507812e+01,-1.845391845703125000e+02,3.630507659912109375e+01,2.231182861328125000e+01,3.292164611816406250e+01
4.000000059604644775e-01,2.000000000000000000e+00,-2.307984733581542969e+01,-3.788242340087890625e+00,4.714079284667968750e+01,9.430147552490234375e+01,8.437444305419921875e+01,1.367509613037109375e+02,-5.669847130775451660e-01,-3.274955368041992188e+01,-1.845345306396484375e+02,3.630558395385742188e+01,2.232907295227050781e+01,3.291732406616210938e+01
4.040000140666961670e-01,2.000000000000000000e+00,-2.313402557373046875e+01,-3.749899864196777344e+00,4.709571456909179688e+01,9.430977630615234375e+01,8.437445068359375000e+01,1.367393951416015625e+02,-6.189843416213989258e-01,-3.274354171752929688e+01,-1.845298767089843750e+02,3.630609130859375000e+01,2.234631347656250000e+01,3.291300582885742188e+01
4.079999923706054688e-01,2.000000000000000000e+00,-2.318819046020507812e+01,-3.711566209793090820e+00,4.705064773559570312e+01,9.431806945800781250e+01,8.437445831298828125e+01,1.367278137207031250e+02,-6.709719896316528320e-01,-3.273752593994140625e+01,-1.845252227783203125e+02,3.630660247802734375e+01,2.236354827880859375e+01,3.290868377685546875e+01
4.120000004768371582e-01,2.000000000000000000e+00,-2.324234390258789062e+01,-3.673241615295410156e+00,4.700558853149414062e+01,9.432636260986328125e+01,8.437446594238281250e+01,1.367162628173828125e+02,-7.229475975036621094e-01,-3.273151397705078125e+01,-1.845205688476562500e+02,3.630710983276367188e+01,2.238078117370605469e+01,3.290436553955078125e+01
4.160000085830688477e-01,2.000000000000000000e+00,-2.329648399353027344e+01,-3.634926080703735352e+00,4.696054458618164062e+01,9.433465576171875000e+01,8.437447357177734375e+01,1.367046966552734375e+02,-7.749112844467163086e-01,-3.272550201416015625e+01,-1.845159301757812500e+02,3.630762100219726562e+01,2.239801025390625000e+01,3.290004730224609375e+01
4.199999868869781494e-01,2.000000000000000000e+00,-2.335061454772949219e+01,-3.596618890762329102e+00,4.691550445556640625e+01,9.434294891357421875e+01,8.437448120117187500e+01,1.366931304931640625e+02,-8.268629908561706543e-01,-3.271949386596679688e+01,-1.845112609863281250e+02,3.630812835693359375e+01,2.241523551940917969e+01,3.289573287963867188e+01
4.239999949932098389e-01,2.000000000000000000e+00,-2.340472984313964844e+01,-3.558320760726928711e+00,4.687047958374023438e+01,9.435122680664062500e+01,8.437449645996093750e+01,1.366815795898437500e+02,-8.788026571273803711e-01,-3.271348571777343750e+01,-1.845066223144531250e+02,3.630863571166992188e+01,2.243245506286621094e+01,3.289141464233398438e+01
4.280000030994415283e-01,2.000000000000000000e+00,-2.345883369445800781e+01,-3.520031452178955078e+00,4.682546234130859375e+01,9.435951232910156250e+01,8.437450408935546875e+01,1.366700286865234375e+02,-9.307304620742797852e-01,-3.270747756958007812e+01,-1.845019836425781250e+02,3.630914688110351562e+01,2.244967079162597656e+01,3.288709640502929688e+01
4.320000112056732178e-01,2.000000000000000000e+00,-2.351292228698730469e+01,-3.481750965118408203e+00,4.678045654296875000e+01,9.436779785156250000e+01,8.437451171875000000e+01,1.366584777832031250e+02,-9.826462268829345703e-01,-3.270146942138671875e+01,-1.844973144531250000e+02,3.630965423583984375e+01,2.246688270568847656e+01,3.288278579711914062e+01
4.359999895095825195e-01,2.000000000000000000e+00,-2.356700325012207031e+01,-3.443479299545288086e+00,4.673546218872070312e+01,9.437607574462890625e+01,8.437451934814453125e+01,1.366469268798828125e+02,-1.034550070762634277e+00,-3.269546890258789062e+01,-1.844926757812500000e+02,3.631016540527343750e+01,2.248409080505371094e+01,3.287847137451171875e+01
4.399999976158142090e-01,2.000000000000000000e+00,-2.362106895446777344e+01,-3.405216217041015625e+00,4.669047546386718750e+01,9.438435363769531250e+01,8.437452697753906250e+01,1.366353759765625000e+02,-1.086441993713378906e+00,-3.268946838378906250e+01,-1.844880218505859375e+02,3.631067276000976562e+01,2.250129699707031250e+01,3.287416076660156250e+01
4.440000057220458984e-01,2.000000000000000000e+00,-2.367512130737304688e+01,-3.366962194442749023e+00,4.664550399780273438e+01,9.439263153076171875e+01,8.437453460693359375e+01,1.366238403320312500e+02,-1.138321876525878906e+00,-3.268346405029296875e+01,-1.844833831787109375e+02,3.631118011474609375e+01,2.251849746704101562e+01,3.286985015869140625e+01
4.480000138282775879e-01,2.000000000000000000e+00,-2.372916412353515625e+01,-3.328716993331909180e+00,4.660053634643554688e+01,9.440090942382812500e+01,8.437454223632812500e+01,1.366122894287109375e+02,-1.190189957618713379e+00,-3.267746353149414062e+01,-1.844787445068359375e+02,3.631169128417968750e+01,2.253569412231445312e+01,3.286553955078125000e+01
4.519999921321868896e-01,2.000000000000000000e+00,-2.378319168090820312e+01,-3.290480613708496094e+00,4.655558395385742188e+01,9.440918731689453125e+01,8.437455749511718750e+01,1.366007690429687500e+02,-1.242045998573303223e+00,-3.267146682739257812e+01,-1.844740905761718750e+02,3.631219482421875000e+01,2.255288505554199219e+01,3.286123275756835938e+01
4.560000002384185791e-01,2.000000000000000000e+00,-2.383720779418945312e+01,-3.252252817153930664e+00,4.651064300537109375e+01,9.441745758056640625e+01,8.437456512451171875e+01,1.365892181396484375e+02,-1.293890118598937988e+00,-3.266547012329101562e+01,-1.844694671630859375e+02,3.631270599365234375e+01,2.257007598876953125e+01,3.285692214965820312e+01
4.600000083446502686e-01,2.000000000000000000e+00,-2.389121055603027344e+01,-3.214033842086791992e+00,4.646570968627929688e+01,9.442572784423828125e+01,8.437457275390625000e+01,1.365776977539062500e+02,-1.345722317695617676e+00,-3.265947341918945312e+01,-1.844648132324218750e+02,3.631321334838867188e+01,2.258725929260253906e+01,3.285261535644531250e+01
4.639999866485595703e-01,2.000000000000000000e+00,-2.394520378112792969e+01,-3.175823926925659180e+00,4.642078781127929688e+01,9.443399810791015625e+01,8.437458038330078125e+01,1.365661621093750000e+02,-1.397542476654052734e+00,-3.265347671508789062e+01,-1.844601745605468750e+02,3.631372070312500000e+01,2.260443878173828125e+01,3.284830856323242188e+01
4.679999947547912598e-01,2.000000000000000000e+00,-2.399918365478515625e+01,-3.137622594833374023e+00,4.637587356567382812e+01,9.444226074218750000e+01,8.437458801269531250e+01,1.365546417236328125e+02,-1.449350953102111816e+00,-3.264748382568359375e+01,-1.844555511474609375e+02,3.631422805786132812e+01,2.262161827087402344e+01,3.284400177001953125e+01
4.720000028610229492e-01,2.000000000000000000e+00,-2.405314826965332031e+01,-3.099430084228515625e+00,4.633097076416015625e+01,9.445053100585937500e+01,8.437459564208984375e+01,1.365431060791015625e+02,-1.501147270202636719e+00,-3.264149093627929688e+01,-1.844509124755859375e+02,3.631473541259765625e+01,2.263879013061523438e+01,3.283969879150390625e+01
4.760000109672546387e-01,2.000000000000000000e+00,-2.410710334777832031e+01,-3.061246395111083984e+00,4.628607940673828125e+01,9.445879364013671875e+01,8.437460327148437500e+01,1.365315856933593750e+02,-1.552931785583496094e+00,-3.263550186157226562e+01,-1.844462738037109375e+02,3.631524276733398438e+01,2.265595817565917969e+01,3.283539581298828125e+01
4.799999892711639404e-01,2.000000000000000000e+00,-2.416104507446289062e+01,-3.023071527481079102e+00,4.624119567871093750e+01,9.446704864501953125e+01,8.437461853027343750e+01,1.365200653076171875e+02,-1.604704260826110840e+00,-3.262951278686523438e+01,-1.844416351318359375e+02,3.631575012207031250e+01,2.267312431335449219e+01,3.283109283447265625e+01
4.839999973773956299e-01,2.000000000000000000e+00,-2.421497344970703125e+01,-2.984905481338500977e+00,4.619632720947265625e+01,9.447531127929687500e+01,8.437462615966796875e+01,1.365085449218750000e+02,-1.656464934349060059e+00,-3.262352371215820312e+01,-1.844370117187500000e+02,3.631625747680664062e+01,2.269028472900390625e+01,3.282679367065429688e+01
4.880000054836273193e-01,2.000000000000000000e+00,-2.426889228820800781e+01,-2.946748018264770508e+00,4.615146636962890625e+01,9.448356628417968750e+01,8.437463378906250000e+01,1.364970245361328125e+02,-1.708213686943054199e+00,-3.261753845214843750e+01,-1.844323730468750000e+02,3.631676483154296875e+01,2.270744132995605469e+01,3.282249450683593750e+01
4.920000135898590088e-01,2.000000000000000000e+00,-2.432279586791992188e+01,-2.908599615097045898e+00,4.610661697387695312e+01,9.449182128906250000e+01,8.437464141845703125e+01,1.364855346679687500e+02,-1.759950518608093262e+00,-3.261155319213867188e+01,-1.844277496337890625e+02,3.631727218627929688e+01,2.272459411621093750e+01,3.281819534301757812e+01
4.959999918937683105e-01,2.000000000000000000e+00,-2.437668800354003906e+01,-2.870459556579589844e+00,4.606177520751953125e+01,9.450007629394531250e+01,8.437464904785156250e+01,1.364740142822265625e+02,-1.811675429344177246e+00,-3.260557174682617188e+01,-1.844231109619140625e+02,3.631777572631835938e+01,2.274174308776855469e+01,3.281389617919921875e+01
5.000000000000000000e-01,2.000000000000000000e+00,-2.443056678771972656e+01,-2.832328557968139648e+00,4.601694488525390625e+01,9.450832366943359375e+01,8.437465667724609375e+01,1.364625091552734375e+02,-1.863388538360595703e+00,-3.259958648681640625e+01,-1.844184875488281250e+02,3.631828308105468750e+01,2.275888824462890625e+01,3.280960083007812500e+01
5.040000081062316895e-01,2.000000000000000000e+00,-2.448443603515625000e+01,-2.794206380844116211e+00,4.597212600708007812e+01,9.451657867431640625e+01,8.437466430664062500e+01,1.364510040283203125e+02,-1.915089607238769531e+00,-3.259360885620117188e+01,-1.844138488769531250e+02,3.631879043579101562e+01,2.277602958679199219e+01,3.280530166625976562e+01
5.080000162124633789e-01,2.000000000000000000e+00,-2.453829193115234375e+01,-2.756093025207519531e+00,4.592731475830078125e+01,9.452481842041015625e+01,8.437467956542968750e+01,1.364394989013671875e+02,-1.966778993606567383e+00,-3.258762741088867188e+01,-1.844092254638671875e+02,3.631929397583007812e+01,2.279316711425781250e+01,3.280100631713867188e+01
5.120000243186950684e-01,2.000000000000000000e+00,-2.459213447570800781e+01,-2.717988252639770508e+00,4.588251876831054688e+01,9.453306579589843750e+01,8.437468719482421875e+01,1.364280090332031250e+02,-2.018456459045410156e+00,-3.258164978027343750e+01,-1.844046020507812500e+02,3.631980133056640625e+01,2.281029891967773438e+01,3.279671478271484375e+01
5.159999728202819824e-01,2.000000000000000000e+00,-2.464596366882324219e+01,-2.679892301559448242e+00,4.583772659301757812e+01,9.454130554199218750e+01,8.437469482421875000e+01,1.364165039062500000e+02,-2.070122003555297852e+00,-3.257567214965820312e+01,-1.843999786376953125e+02,3.632030868530273438e+01,2.282743072509765625e+01,3.279242324829101562e+01
5.199999809265136719e-01,2.000000000000000000e+00,-2.469978332519531250e+01,-2.641804933547973633e+00,4.579295349121093750e+01,9.454955291748046875e+01,8.437470245361328125e+01,1.364050140380859375e+02,-2.121775388717651367e+00,-3.256969833374023438e+01,-1.843953552246093750e+02,3.632081604003906250e+01,2.284455490112304688e+01,3.278812789916992188e+01
5.239999890327453613e-01,2.000000000000000000e+00,-2.475358772277832031e+01,-2.603726625442504883e+00,4.574818420410156250e+01,9.455778503417968750e+01,8.437471771240234375e+01,1.363935241699218750e+02,-2.173417329788208008e+00,-3.256372451782226562e+01,-1.843907318115234375e+02,3.632131958007812500e+01,2.286167716979980469e+01,3.278384017944335938e+01
5.279999971389770508e-01,2.000000000000000000e+00,-2.480738067626953125e+01,-2.565656900405883789e+00,4.570342636108398438e+01,9.456602478027343750e+01,8.437471771240234375e+01,1.363820343017578125e+02,-2.225047111511230469e+00,-3.255775451660156250e+01,-1.843861083984375000e+02,3.632182693481445312e+01,2.287879371643066406e+01,3.277954483032226562e+01
5.320000052452087402e-01,2.000000000000000000e+00,-2.486116218566894531e+01,-2.527595758438110352e+00,4.565867614746093750e+01,9.457426452636718750e+01,8.437472534179687500e+01,1.363705444335937500e+02,-2.276665210723876953e+00,-3.255178070068359375e+01,-1.843814849853515625e+02,3.632233047485351562e+01,2.289590835571289062e+01,3.277525711059570312e+01
5.360000133514404297e-01,2.000000000000000000e+00,-2.491493034362792969e+01,-2.489543676376342773e+00,4.561394119262695312e+01,9.458250427246093750e+01,8.437473297119140625e+01,1.363590698242187500e+02,-2.328271389007568359e+00,-3.254581069946289062e+01,-1.843768615722656250e+02,3.632283782958984375e+01,2.291301727294921875e+01,3.277097320556640625e+01
5.400000214576721191e-01,2.000000000000000000e+00,-2.496868705749511719e+01,-2.451500177383422852e+00,4.556921386718750000e+01,9.459072875976562500e+01,8.437474822998046875e+01,1.363475799560546875e+02,-2.379865646362304688e+00,-3.253984069824218750e+01,-1.843722381591796875e+02,3.632334136962890625e+01,2.293012428283691406e+01,3.276668167114257812e+01
5.440000295639038086e-01,2.000000000000000000e+00,-2.502243041992187500e+01,-2.413465499877929688e+00,4.552449798583984375e+01,9.459896087646484375e+01,8.437475585937500000e+01,1.363361053466796875e+02,-2.431448221206665039e+00,-3.253387451171875000e+01,-1.843676300048828125e+02,3.632384872436523438e+01,2.294722557067871094e+01,3.276239776611328125e+01
5.479999780654907227e-01,2.000000000000000000e+00,-2.507616233825683594e+01,-2.375439405441284180e+00,4.547979354858398438e+01,9.460718536376953125e+01,8.437476348876953125e+01,1.363246307373046875e+02,-2.483018636703491211e+00,-3.252790832519531250e+01,-1.843630065917968750e+02,3.632435226440429688e+01,2.296432304382324219e+01,3.275811004638671875e+01
5.519999861717224121e-01,2.000000000000000000e+00,-2.512988090515136719e+01,-2.337422132492065430e+00,4.543509674072265625e+01,9.461541748046875000e+01,8.437477111816406250e+01,1.363131561279296875e+02,-2.534577369689941406e+00,-3.252194595336914062e+01,-1.843583984375000000e+02,3.632485961914062500e+01,2.298141860961914062e+01,3.275382614135742188e+01
5.559999942779541016e-01,2.000000000000000000e+00,-2.518358993530273438e+01,-2.299413681030273438e+00,4.539040756225585938e+01,9.462364196777343750e+01,8.437478637695312500e+01,1.363016815185546875e+02,-2.586124420166015625e+00,-3.251598358154296875e+01,-1.843537902832031250e+02,3.632536315917968750e+01,2.299850654602050781e+01,3.274954605102539062e+01
5.600000023841857910e-01,2.000000000000000000e+00,-2.523728370666503906e+01,-2.261414051055908203e+00,4.534573364257812500e+01,9.463185882568359375e+01,8.437478637695312500e+01,1.362902221679687500e+02,-2.637659549713134766e+00,-3.251002120971679688e+01,-1.843491668701171875e+02,3.632587051391601562e+01,2.301559257507324219e+01,3.274526214599609375e+01
5.640000104904174805e-01,2.000000000000000000e+00,-2.529096412658691406e+01,-2.223422765731811523e+00,4.530107116699218750e+01,9.464007568359375000e+01,8.437479400634765625e+01,1.362787628173828125e+02,-2.689182519912719727e+00,-3.250406265258789062e+01,-1.843445587158203125e+02,3.632637023925781250e+01,2.303267478942871094e+01,3.274097824096679688e+01
5.680000185966491699e-01,2.000000000000000000e+00,-2.534463500976562500e+01,-2.185440540313720703e+00,4.525641250610351562e+01,9.464830017089843750e+01,8.437480926513671875e+01,1.362673034667968750e+02,-2.740694046020507812e+00,-3.249810028076171875e+01,-1.843399505615234375e+02,3.632687759399414062e+01,2.304975509643554688e+01,3.273670196533203125e+01
5.720000267028808594e-01,2.000000000000000000e+00,-2.539829254150390625e+01,-2.147466897964477539e+00,4.521176910400390625e+01,9.465651702880859375e+01,8.437481689453125000e+01,1.362558441162109375e+02,-2.792193412780761719e+00,-3.249214553833007812e+01,-1.843353271484375000e+02,3.632738113403320312e+01,2.306682777404785156e+01,3.273242187500000000e+01
5.759999752044677734e-01,2.000000000000000000e+00,-2.545193672180175781e+01,-2.109502077102661133e+00,4.516713333129882812e+01,9.466473388671875000e+01,8.437482452392578125e+01,1.362443847656250000e+02,-2.843681335449218750e+00,-3.248619079589843750e+01,-1.843307342529296875e+02,3.632788848876953125e+01,2.308390045166015625e+01,3.272814178466796875e+01
5.799999833106994629e-01,2.000000000000000000e+00,-2.550557136535644531e+01,-2.071545839309692383e+00,4.512251281738281250e+01,9.467294311523437500e+01,8.437483215332031250e+01,1.362329254150390625e+02,-2.895157337188720703e+00,-3.248023605346679688e+01,-1.843261260986328125e+02,3.632838821411132812e+01,2.310096549987792969e+01,3.272386169433593750e+01
5.839999914169311523e-01,2.000000000000000000e+00,-2.555919075012207031e+01,-2.033598423004150391e+00,4.507789611816406250e+01,9.468115234375000000e+01,8.437484741210937500e+01,1.362214813232421875e+02,-2.946621417999267578e+00,-3.247428131103515625e+01,-1.843215026855468750e+02,3.632889556884765625e+01,2.311802864074707031e+01,3.271958923339843750e+01
5.879999995231628418e-01,2.000000000000000000e+00,-2.561280059814453125e+01,-1.995659470558166504e+00,4.503329086303710938e+01,9.468936920166015625e+01,8.437484741210937500e+01,1.362100219726562500e+02,-2.998073816299438477e+00,-3.246833038330078125e+01,-1.843169097900390625e+02,3.632939910888671875e+01,2.313508796691894531e+01,3.271531295776367188e+01
5.920000076293945312e-01,2.000000000000000000e+00,-2.566639518737792969e+01,-1.957729458808898926e+00,4.498869705200195312e+01,9.469757843017578125e+01,8.437485504150390625e+01,1.361985931396484375e+02,-3.049514055252075195e+00,-3.246237564086914062e+01,-1.843123016357421875e+02,3.632990264892578125e+01,2.315214157104492188e+01,3.271104049682617188e+01
5.960000157356262207e-01,2.000000000000000000e+00,-2.571997833251953125e+01,-1.919808268547058105e+00,4.494411468505859375e+01,9.470578002929687500e+01,8.437486267089843750e+01,1.361871490478515625e+02,-3.100942850112915039e+00,-3.245642852783203125e+01,-1.843076934814453125e+02,3.633041000366210938e+01,2.316919136047363281e+01,3.270676422119140625e+01
6.000000238418579102e-01,2.000000000000000000e+00,-2.577355194091796875e+01,-1.881895780563354492e+00,4.489954376220703125e+01,9.471398162841796875e+01,8.437487792968750000e+01,1.361756896972656250e+02,-3.152359724044799805e+00,-3.245048141479492188e+01,-1.843031005859375000e+02,3.633090972900390625e+01,2.318624114990234375e+01,3.270249176025390625e+01
6.039999723434448242e-01,2.000000000000000000e+00,-2.582711029052734375e+01,-1.843992114067077637e+00,4.485498046875000000e+01,9.472218322753906250e+01,8.437488555908203125e+01,1.361642608642578125e+02,-3.203764677047729492e+00,-3.244453430175781250e+01,-1.842984924316406250e+02,3.633141326904296875e+01,2.320328330993652344e+01,3.269821929931640625e+01
6.079999804496765137e-01,2.000000000000000000e+00,-2.588065719604492188e+01,-1.806096673011779785e+00,4.481042480468750000e+01,9.473038482666015625e+01,8.437489318847656250e+01,1.361528320312500000e+02,-3.255157947540283203e+00,-3.243859100341796875e+01,-1.842938842773437500e+02,3.633191680908203125e+01,2.322032356262207031e+01,3.269395065307617188e+01
6.119999885559082031e-01,2.000000000000000000e+00,-2.593419265747070312e+01,-1.768209934234619141e+00,4.476588439941406250e+01,9.473858642578125000e+01,8.437490081787109375e+01,1.361413879394531250e+02,-3.306539535522460938e+00,-3.243264389038085938e+01,-1.842892913818359375e+02,3.633242034912109375e+01,2.323735809326171875e+01,3.268968200683593750e+01
6.159999966621398926e-01,2.000000000000000000e+00,-2.598771476745605469e+01,-1.730331778526306152e+00,4.472135162353515625e+01,9.474678039550781250e+01,8.437491607666015625e+01,1.361299591064453125e+02,-3.357909440994262695e+00,-3.242670440673828125e+01,-1.842846984863281250e+02,3.633292388916015625e+01,2.325438880920410156e+01,3.268541336059570312e+01
6.200000047683715820e-01,2.000000000000000000e+00,-2.604122543334960938e+01,-1.692462205886840820e+00,4.467683029174804688e+01,9.475497436523437500e+01,8.437491607666015625e+01,1.361185455322265625e+02,-3.409267425537109375e+00,-3.242076492309570312e+01,-1.842801055908203125e+02,3.633342742919921875e+01,2.327141571044921875e+01,3.268114471435546875e+01
6.240000128746032715e-01,2.000000000000000000e+00,-2.609472274780273438e+01,-1.654601335525512695e+00,4.463232040405273438e+01,9.476316833496093750e+01,8.437492370605468750e+01,1.361071014404296875e+02,-3.460613727569580078e+00,-3.241482162475585938e+01,-1.842754974365234375e+02,3.633393096923828125e+01,2.328844070434570312e+01,3.267687988281250000e+01
6.280000209808349609e-01,2.000000000000000000e+00,-2.614821052551269531e+01,-1.616749167442321777e+00,4.458781814575195312e+01,9.477135467529296875e+01,8.437493896484375000e+01,1.360956878662109375e+02,-3.511948347091674805e+00,-3.240888214111328125e+01,-1.842709045410156250e+02,3.633443069458007812e+01,2.330546188354492188e+01,3.267261505126953125e+01
6.320000290870666504e-01,2.000000000000000000e+00,-2.620168304443359375e+01,-1.578905463218688965e+00,4.454332351684570312e+01,9.477954101562500000e+01,8.437494659423828125e+01,1.360842742919921875e+02,-3.563271522521972656e+00,-3.240294647216796875e+01,-1.842663116455078125e+02,3.633493804931640625e+01,2.332247924804687500e+01,3.266834640502929688e+01
6.359999775886535645e-01,2.000000000000000000e+00,-2.625514411926269531e+01,-1.541070461273193359e+00,4.449884414672851562e+01,9.478773498535156250e+01,8.437495422363281250e+01,1.360728454589843750e+02,-3.614582777023315430e+00,-3.239701080322265625e+01,-1.842617187500000000e+02,3.633543777465820312e+01,2.333949089050292969e+01,3.266408538818359375e+01
6.399999856948852539e-01,2.000000000000000000e+00,-2.630859375000000000e+01,-1.503243923187255859e+00,4.445437240600585938e+01,9.479591369628906250e+01,8.437496185302734375e+01,1.360614471435546875e+02,-3.665882587432861328e+00,-3.239107513427734375e+01,-1.842571258544921875e+02,3.633594131469726562e+01,2.335650062561035156e+01,3.265982055664062500e+01
6.439999938011169434e-01,2.000000000000000000e+00,-2.636203193664550781e+01,-1.465426087379455566e+00,4.440990829467773438e+01,9.480410003662109375e+01,8.437497711181640625e+01,1.360500183105468750e+02,-3.717170953750610352e+00,-3.238514328002929688e+01,-1.842525329589843750e+02,3.633644104003906250e+01,2.337350463867187500e+01,3.265555953979492188e+01
6.480000019073486328e-01,2.000000000000000000e+00,-2.641545867919921875e+01,-1.427616715431213379e+00,4.436545562744140625e+01,9.481227874755859375e+01,8.437497711181640625e+01,1.360386199951171875e+02,-3.768447160720825195e+00,-3.237921142578125000e+01,-1.842479400634765625e+02,3.633694458007812500e+01,2.339050483703613281e+01,3.265129852294921875e+01
6.520000100135803223e-01,2.000000000000000000e+00,-2.646887207031250000e+01,-1.389815807342529297e+00,4.432101440429687500e+01,9.482046508789062500e+01,8.437498474121093750e+01,1.360272064208984375e+02,-3.819712400436401367e+00,-3.237328338623046875e+01,-1.842433624267578125e+02,3.633744812011718750e+01,2.340750312805175781e+01,3.264703750610351562e+01
6.560000181198120117e-01,2.000000000000000000e+00,-2.652227401733398438e+01,-1.352023482322692871e+00,4.427658462524414062e+01,9.482864379882812500e+01,8.437499237060546875e+01,1.360158081054687500e+02,-3.870965719223022461e+00,-3.236735153198242188e+01,-1.842387695312500000e+02,3.633794784545898438e+01,2.342449378967285156e+01,3.264278030395507812e+01
6.600000262260437012e-01,2.000000000000000000e+00,-2.657566261291503906e+01,-1.314239621162414551e+00,4.423216247558593750e+01,9.483681488037109375e+01,8.437500762939453125e+01,1.360044097900390625e+02,-3.922208070755004883e+00,-3.236142730712890625e+01,-1.842341766357421875e+02,3.633845138549804688e+01,2.344148445129394531e+01,3.263852310180664062e+01
6.639999747276306152e-01,2.000000000000000000e+00,-2.662903976440429688e+01,-1.276464343070983887e+00,4.418775177001953125e+01,9.484499359130859375e+01,8.437501525878906250e+01,1.359929962158203125e+02,-3.973438262939453125e+00,-3.235549926757812500e+01,-1.842295989990234375e+02,3.633895111083984375e+01,2.345846939086914062e+01,3.263426589965820312e+01
6.679999828338623047e-01,2.000000000000000000e+00,-2.668240547180175781e+01,-1.238697409629821777e+00,4.414334869384765625e+01,9.485315704345703125e+01,8.437502288818359375e+01,1.359816131591796875e+02,-4.024657249450683594e+00,-3.234957122802734375e+01,-1.842250061035156250e+02,3.633945465087890625e+01,2.347545051574707031e+01,3.263000869750976562e+01
6.719999909400939941e-01,2.000000000000000000e+00,-2.673575782775878906e+01,-1.200938940048217773e+00,4.409896087646484375e+01,9.486132812500000000e+01,8.437503051757812500e+01,1.359702148437500000e+02,-4.075865268707275391e+00,-3.234365081787109375e+01,-1.842204284667968750e+02,3.633995819091796875e+01,2.349242782592773438e+01,3.262575531005859375e+01
6.759999990463256836e-01,2.000000000000000000e+00,-2.678910064697265625e+01,-1.163189053535461426e+00,4.405457687377929688e+01,9.486949920654296875e+01,8.437504577636718750e+01,1.359588165283203125e+02,-4.127061367034912109e+00,-3.233773040771484375e+01,-1.842158508300781250e+02,3.634045791625976562e+01,2.350940132141113281e+01,3.262149810791015625e+01
6.800000071525573730e-01,2.000000000000000000e+00,-2.684242820739746094e+01,-1.125447511672973633e+00,4.401020431518554688e+01,9.487767028808593750e+01,8.437504577636718750e+01,1.359474334716796875e+02,-4.178246021270751953e+00,-3.233180618286132812e+01,-1.842112579345703125e+02,3.634096145629882812e+01,2.352637100219726562e+01,3.261724853515625000e+01
6.840000152587890625e-01,2.000000000000000000e+00,-2.689574623107910156e+01,-1.087714433670043945e+00,4.396584320068359375e+01,9.488582611083984375e+01,8.437505340576171875e+01,1.359360504150390625e+02,-4.229419231414794922e+00,-3.232588958740234375e+01,-1.842066802978515625e+02,3.634146118164062500e+01,2.354333877563476562e+01,3.261299514770507812e+01
6.880000233650207520e-01,2.000000000000000000e+00,-2.694905281066894531e+01,-1.049989819526672363e+00,4.392148971557617188e+01,9.489399719238281250e+01,8.437506103515625000e+01,1.359246520996093750e+02,-4.280580997467041016e+00,-3.231996917724609375e+01,-1.842021026611328125e+02,3.634196090698242188e+01,2.356030082702636719e+01,3.260874557495117188e+01
6.919999718666076660e-01,2.000000000000000000e+00,-2.700234603881835938e+01,-1.012273669242858887e+00,4.387714767456054688e+01,9.490215301513671875e+01,8.437507629394531250e+01,1.359132843017578125e+02,-4.331731796264648438e+00,-3.231405258178710938e+01,-1.841975250244140625e+02,3.634246444702148438e+01,2.357725906372070312e+01,3.260449218750000000e+01
6.959999799728393555e-01,2.000000000000000000e+00,-2.705562782287597656e+01,-9.745657444000244141e-01,4.383281326293945312e+01,9.491031646728515625e+01,8.437508392333984375e+01,1.359019012451171875e+02,-4.382871150970458984e+00,-3.230813598632812500e+01,-1.841929473876953125e+02,3.634296417236328125e+01,2.359421348571777344e+01,3.260024261474609375e+01
6.999999880790710449e-01,2.000000000000000000e+00,-2.710889816284179688e+01,-9.368664026260375977e-01,4.378849411010742188e+01,9.491847229003906250e+01,8.437509155273437500e+01,1.358905181884765625e+02,-4.433998584747314453e+00,-3.230222320556640625e+01,-1.841883544921875000e+02,3.634346389770507812e+01,2.361116600036621094e+01,3.259599685668945312e+01
7.039999961853027344e-01,2.000000000000000000e+00,-2.716215705871582031e+01,-8.991755247116088867e-01,4.374418258666992188e+01,9.492662811279296875e+01,8.437509918212890625e+01,1.358791503906250000e+02,-4.485114574432373047e+00,-3.229630661010742188e+01,-1.841837921142578125e+02,3.634396743774414062e+01,2.362811279296875000e+01,3.259174728393554688e+01
7.080000042915344238e-01,2.000000000000000000e+00,-2.721540069580078125e+01,-8.614929318428039551e-01,4.369987869262695312e+01,9.493478393554687500e+01,8.437510681152343750e+01,1.358677825927734375e+02,-4.536219596862792969e+00,-3.229039764404296875e+01,-1.841792297363281250e+02,3.634446716308593750e+01,2.364505577087402344e+01,3.258750152587890625e+01
7.120000123977661133e-01,2.000000000000000000e+00,-2.726863670349121094e+01,-8.238188624382019043e-01,4.365558624267578125e+01,9.494293975830078125e+01,8.437511444091796875e+01,1.358564147949218750e+02,-4.587312698364257812e+00,-3.228448867797851562e+01,-1.841746520996093750e+02,3.634496688842773438e+01,2.366199493408203125e+01,3.258325576782226562e+01
7.160000205039978027e-01,2.000000000000000000e+00,-2.732185745239257812e+01,-7.861531376838684082e-01,4.361130523681640625e+01,9.495108795166015625e+01,8.437512207031250000e+01,1.358450469970703125e+02,-4.638394832611083984e+00,-3.227857589721679688e+01,-1.841700744628906250e+02,3.634547042846679688e+01,2.367893028259277344e+01,3.257901000976562500e+01
7.200000286102294922e-01,2.000000000000000000e+00,-2.737506866455078125e+01,-7.484958171844482422e-01,4.356703186035156250e+01,9.495923614501953125e+01,8.437512969970703125e+01,1.358336791992187500e+02,-4.689465522766113281e+00,-3.227266693115234375e+01,-1.841654968261718750e+02,3.634596633911132812e+01,2.369586372375488281e+01,3.257476806640625000e+01
7.239999771118164062e-01,2.000000000000000000e+00,-2.742826843261718750e+01,-7.108469009399414062e-01,4.352276992797851562e+01,9.496738433837890625e+01,8.437514495849609375e+01,1.358223266601562500e+02,-4.740524291992187500e+00,-3.226676177978515625e+01,-1.841609344482421875e+02,3.634646987915039062e+01,2.371279144287109375e+01,3.257052230834960938e+01
7.279999852180480957e-01,2.000000000000000000e+00,-2.748145484924316406e+01,-6.732064485549926758e-01,4.347851562500000000e+01,9.497552490234375000e+01,8.437515258789062500e+01,1.358109588623046875e+02,-4.791572093963623047e+00,-3.226086044311523438e+01,-1.841563568115234375e+02,3.634696960449218750e+01,2.372971725463867188e+01,3.256628036499023438e+01
7.319999933242797852e-01,2.000000000000000000e+00,-2.753462982177734375e+01,-6.355743408203125000e-01,4.343427276611328125e+01,9.498367309570312500e+01,8.437516021728515625e+01,1.357996063232421875e+02,-4.842608451843261719e+00,-3.225495529174804688e+01,-1.841517944335937500e+02,3.634746551513671875e+01,2.374663734436035156e+01,3.256204223632812500e+01
7.360000014305114746e-01,2.000000000000000000e+00,-2.758779144287109375e+01,-5.979506373405456543e-01,4.339003753662109375e+01,9.499180603027343750e+01,8.437516784667968750e+01,1.357882537841796875e+02,-4.893633365631103516e+00,-3.224905395507812500e+01,-1.841472167968750000e+02,3.634796905517578125e+01,2.376355552673339844e+01,3.255780029296875000e+01
7.400000095367431641e-01,2.000000000000000000e+00,-2.764094352722167969e+01,-5.603353381156921387e-01,4.334581375122070312e+01,9.499994659423828125e+01,8.437517547607421875e+01,1.357769012451171875e+02,-4.944647312164306641e+00,-3.224315261840820312e+01,-1.841426544189453125e+02,3.634846878051757812e+01,2.378046798706054688e+01,3.255356216430664062e+01
7.440000176429748535e-01,2.000000000000000000e+00,-2.769408226013183594e+01,-5.227284431457519531e-01,4.330160140991210938e+01,9.500808715820312500e+01,8.437518310546875000e+01,1.357655639648437500e+02,-4.995649337768554688e+00,-3.223725128173828125e+01,-1.841380920410156250e+02,3.634896469116210938e+01,2.379737663269042969e+01,3.254932403564453125e+01
7.480000257492065430e-01,2.000000000000000000e+00,-2.774720954895019531e+01,-4.851298928260803223e-01,4.325739669799804688e+01,9.501622772216796875e+01,8.437519073486328125e+01,1.357542114257812500e+02,-5.046640396118164062e+00,-3.223135375976562500e+01,-1.841335296630859375e+02,3.634946823120117188e+01,2.381428337097167969e+01,3.254508590698242188e+01
7.519999742507934570e-01,2.000000000000000000e+00,-2.780032539367675781e+01,-4.475397169589996338e-01,4.321320343017578125e+01,9.502436065673828125e+01,8.437520599365234375e+01,1.357428741455078125e+02,-5.097619533538818359e+00,-3.222545623779296875e+01,-1.841289672851562500e+02,3.634996795654296875e+01,2.383118438720703125e+01,3.254085159301757812e+01
7.559999823570251465e-01,2.000000000000000000e+00,-2.785342979431152344e+01,-4.099579453468322754e-01,4.316901779174804688e+01,9.503248596191406250e+01,8.437521362304687500e+01,1.357315216064453125e+02,-5.148587703704833984e+00,-3.221955871582031250e+01,-1.841244049072265625e+02,3.635046386718750000e+01,2.384808349609375000e+01,3.253661727905273438e+01
7.599999904632568359e-01,2.000000000000000000e+00,-2.790652084350585938e+01,-3.723845481872558594e-01,4.312484359741210938e+01,9.504061889648437500e+01,8.437522125244140625e+01,1.357201843261718750e+02,-5.199544906616210938e+00,-3.221366119384765625e+01,-1.841198425292968750e+02,3.635096359252929688e+01,2.386497688293457031e+01,3.253238296508789062e+01
7.639999985694885254e-01,2.000000000000000000e+00,-2.795960235595703125e+01,-3.348195254802703857e-01,4.308068084716796875e+01,9.504875183105468750e+01,8.437522888183593750e+01,1.357088470458984375e+02,-5.250489711761474609e+00,-3.220777130126953125e+01,-1.841152801513671875e+02,3.635146331787109375e+01,2.388186836242675781e+01,3.252814865112304688e+01
7.680000066757202148e-01,2.000000000000000000e+00,-2.801266860961914062e+01,-2.972628772258758545e-01,4.303652572631835938e+01,9.505686950683593750e+01,8.437523651123046875e+01,1.356975097656250000e+02,-5.301424026489257812e+00,-3.220188140869140625e+01,-1.841107177734375000e+02,3.635195922851562500e+01,2.389875602722167969e+01,3.252391815185546875e+01
7.720000147819519043e-01,2.000000000000000000e+00,-2.806572532653808594e+01,-2.597146034240722656e-01,4.299238204956054688e+01,9.506500244140625000e+01,8.437524414062500000e+01,1.356861877441406250e+02,-5.352346897125244141e+00,-3.219598770141601562e+01,-1.841061706542968750e+02,3.635246276855468750e+01,2.391563796997070312e+01,3.251968383789062500e+01
7.760000228881835938e-01,2.000000000000000000e+00,-2.811877059936523438e+01,-2.221747040748596191e-01,4.294824600219726562e+01,9.507312011718750000e+01,8.437525177001953125e+01,1.356748657226562500e+02,-5.403258323669433594e+00,-3.219009780883789062e+01,-1.841016082763671875e+02,3.635296249389648438e+01,2.393251609802246094e+01,3.251545333862304688e+01
7.799999713897705078e-01,2.000000000000000000e+00,-2.817180252075195312e+01,-1.846431642770767212e-01,4.290412139892578125e+01,9.508123779296875000e+01,8.437525939941406250e+01,1.356635437011718750e+02,-5.454157829284667969e+00,-3.218421173095703125e+01,-1.840970458984375000e+02,3.635345840454101562e+01,2.394939231872558594e+01,3.251122665405273438e+01
7.839999794960021973e-01,2.000000000000000000e+00,-2.822482299804687500e+01,-1.471199691295623779e-01,4.286000823974609375e+01,9.508936309814453125e+01,8.437527465820312500e+01,1.356522216796875000e+02,-5.505046844482421875e+00,-3.217832183837890625e+01,-1.840924987792968750e+02,3.635395812988281250e+01,2.396626472473144531e+01,3.250699615478515625e+01
7.879999876022338867e-01,2.000000000000000000e+00,-2.827783203125000000e+01,-1.096051409840583801e-01,4.281590270996093750e+01,9.509748077392578125e+01,8.437528228759765625e+01,1.356408996582031250e+02,-5.555923938751220703e+00,-3.217243957519531250e+01,-1.840879364013671875e+02,3.635445785522460938e+01,2.398313331604003906e+01,3.250276565551757812e+01
7.919999957084655762e-01,2.000000000000000000e+00,-2.833082962036132812e+01,-7.209866493940353394e-02,4.277180480957031250e+01,9.510559844970703125e+01,8.437528991699218750e+01,1.356295623779296875e+02,-5.606790065765380859e+00,-3.216655349731445312e+01,-1.840833740234375000e+02,3.635495376586914062e+01,2.399999809265136719e+01,3.249854278564453125e+01
7.960000038146972656e-01,2.000000000000000000e+00,-2.838381576538085938e+01,-3.460053727030754089e-02,4.272772216796875000e+01,9.511370849609375000e+01,8.437529754638671875e+01,1.356182556152343750e+02,-5.657644748687744141e+00,-3.216067123413085938e+01,-1.840788269042968750e+02,3.635544967651367188e+01,2.401685714721679688e+01,3.249431610107421875e+01
8.000000119209289551e-01,2.000000000000000000e+00,-2.843678855895996094e+01,2.889239927753806114e-03,4.268364715576171875e+01,9.512181854248046875e+01,8.437530517578125000e+01,1.356069488525390625e+02,-5.708487987518310547e+00,-3.215478897094726562e+01,-1.840742797851562500e+02,3.635594940185546875e+01,2.403371429443359375e+01,3.249008941650390625e+01
8.040000200271606445e-01,2.000000000000000000e+00,-2.848974990844726562e+01,4.037066921591758728e-02,4.263957595825195312e+01,9.512993621826171875e+01,8.437531280517578125e+01,1.355956420898437500e+02,-5.759320259094238281e+00,-3.214890670776367188e+01,-1.840697326660156250e+02,3.635644912719726562e+01,2.405056762695312500e+01,3.248586654663085938e+01
8.080000281333923340e-01,2.000000000000000000e+00,-2.854270172119140625e+01,7.784376293420791626e-02,4.259552383422851562e+01,9.513803863525390625e+01,8.437532043457031250e+01,1.355843200683593750e+02,-5.810140609741210938e+00,-3.214303207397460938e+01,-1.840651855468750000e+02,3.635694885253906250e+01,2.406741714477539062e+01,3.248164367675781250e+01
8.119999766349792480e-01,2.000000000000000000e+00,-2.859563827514648438e+01,1.153085082769393921e-01,4.255147552490234375e+01,9.514614868164062500e+01,8.437532806396484375e+01,1.355730133056640625e+02,-5.860950469970703125e+00,-3.213715362548828125e+01,-1.840606384277343750e+02,3.635744094848632812e+01,2.408426284790039062e+01,3.247742462158203125e+01
8.159999847412109375e-01,2.000000000000000000e+00,-2.864856719970703125e+01,1.527649164199829102e-01,4.250743865966796875e+01,9.515425872802734375e+01,8.437534332275390625e+01,1.355617218017578125e+02,-5.911748409271240234e+00,-3.213127517700195312e+01,-1.840560913085937500e+02,3.635794067382812500e+01,2.410110473632812500e+01,3.247320175170898438e+01
8.199999928474426270e-01,2.000000000000000000e+00,-2.870147895812988281e+01,1.902130097150802612e-01,4.246341323852539062e+01,9.516235351562500000e+01,8.437535095214843750e+01,1.355504150390625000e+02,-5.962534904479980469e+00,-3.212540054321289062e+01,-1.840515441894531250e+02,3.635844039916992188e+01,2.411794281005859375e+01,3.246898269653320312e+01
8.240000009536743164e-01,2.000000000000000000e+00,-2.875438308715820312e+01,2.276527732610702515e-01,4.241939544677734375e+01,9.517045593261718750e+01,8.437535858154296875e+01,1.355391235351562500e+02,-6.013310432434082031e+00,-3.211952972412109375e+01,-1.840469970703125000e+02,3.635893630981445312e+01,2.413477706909179688e+01,3.246475982666015625e+01
8.280000090599060059e-01,2.000000000000000000e+00,-2.880727577209472656e+01,2.650841772556304932e-01,4.237538909912109375e+01,9.517855834960937500e+01,8.437536621093750000e+01,1.355278320312500000e+02,-6.064074516296386719e+00,-3.211365509033203125e+01,-1.840424499511718750e+02,3.635943222045898438e+01,2.415160751342773438e+01,3.246054458618164062e+01
8.320000171661376953e-01,2.000000000000000000e+00,-2.886015510559082031e+01,3.025072813034057617e-01,4.233139038085937500e+01,9.518666076660156250e+01,8.437537384033203125e+01,1.355165252685546875e+02,-6.114827632904052734e+00,-3.210778427124023438e+01,-1.840379028320312500e+02,3.635993194580078125e+01,2.416843414306640625e+01,3.245632553100585938e+01
8.360000252723693848e-01,2.000000000000000000e+00,-2.891302108764648438e+01,3.399220705032348633e-01,4.228740310668945312e+01,9.519475555419921875e+01,8.437538146972656250e+01,1.355052490234375000e+02,-6.165569782257080078e+00,-3.210191345214843750e+01,-1.840333557128906250e+02,3.636042785644531250e+01,2.418525695800781250e+01,3.245211029052734375e+01
8.399999737739562988e-01,2.000000000000000000e+00,-2.896587944030761719e+01,3.773285150527954102e-01,4.224342727661132812e+01,9.520284271240234375e+01,8.437538909912109375e+01,1.354939422607421875e+02,-6.216299533843994141e+00,-3.209604644775390625e+01,-1.840288238525390625e+02,3.636092758178710938e+01,2.420207786560058594e+01,3.244789505004882812e+01
8.439999818801879883e-01,2.000000000000000000e+00,-2.901872062683105469e+01,4.147266745567321777e-01,4.219945526123046875e+01,9.521093750000000000e+01,8.437539672851562500e+01,1.354826660156250000e+02,-6.267018795013427734e+00,-3.209017944335937500e+01,-1.840242919921875000e+02,3.636141967773437500e+01,2.421889114379882812e+01,3.244367980957031250e+01
8.479999899864196777e-01,2.000000000000000000e+00,-2.907155609130859375e+01,4.521164894104003906e-01,4.215549850463867188e+01,9.521902465820312500e+01,8.437541198730468750e+01,1.354713745117187500e+02,-6.317726612091064453e+00,-3.208431243896484375e+01,-1.840197448730468750e+02,3.636191940307617188e+01,2.423570442199707031e+01,3.243946456909179688e+01
8.519999980926513672e-01,2.000000000000000000e+00,-2.912437438964843750e+01,4.894979894161224365e-01,4.211154937744140625e+01,9.522711944580078125e+01,8.437541961669921875e+01,1.354601135253906250e+02,-6.368422985076904297e+00,-3.207844924926757812e+01,-1.840151977539062500e+02,3.636241531372070312e+01,2.425251388549804688e+01,3.243525314331054688e+01
8.560000061988830566e-01,2.000000000000000000e+00,-2.917718505859375000e+01,5.268712043762207031e-01,4.206761169433593750e+01,9.523520660400390625e+01,8.437542724609375000e+01,1.354488220214843750e+02,-6.419108390808105469e+00,-3.207258605957031250e+01,-1.840106658935546875e+02,3.636291503906250000e+01,2.426931762695312500e+01,3.243104171752929688e+01
8.600000143051147461e-01,2.000000000000000000e+00,-2.922998237609863281e+01,5.642361044883728027e-01,4.202368164062500000e+01,9.524328613281250000e+01,8.437543487548828125e+01,1.354375610351562500e+02,-6.469782352447509766e+00,-3.206672286987304688e+01,-1.840061340332031250e+02,3.636340713500976562e+01,2.428611755371093750e+01,3.242683410644531250e+01
8.640000224113464355e-01,2.000000000000000000e+00,-2.928276634216308594e+01,6.015927195549011230e-01,4.197976303100585938e+01,9.525137329101562500e+01,8.437544250488281250e+01,1.354262695312500000e+02,-6.520445346832275391e+00,-3.206086349487304688e+01,-1.840016021728515625e+02,3.636390304565429688e+01,2.430291557312011719e+01,3.242262268066406250e+01
8.679999709129333496e-01,2.000000000000000000e+00,-2.933554077148437500e+01,6.389410495758056641e-01,4.193585205078125000e+01,9.525945281982421875e+01,8.437545013427734375e+01,1.354150085449218750e+02,-6.571096897125244141e+00,-3.205500411987304688e+01,-1.839970550537109375e+02,3.636439895629882812e+01,2.431970596313476562e+01,3.241841125488281250e+01
8.719999790191650391e-01,2.000000000000000000e+00,-2.938830375671386719e+01,6.762810349464416504e-01,4.189195251464843750e+01,9.526753234863281250e+01,8.437545776367187500e+01,1.354037322998046875e+02,-6.621737003326416016e+00,-3.204914855957031250e+01,-1.839925231933593750e+02,3.636489868164062500e+01,2.433649635314941406e+01,3.241420364379882812e+01
8.759999871253967285e-01,2.000000000000000000e+00,-2.944105339050292969e+01,7.136127948760986328e-01,4.184806442260742188e+01,9.527561187744140625e+01,8.437546539306640625e+01,1.353924713134765625e+02,-6.672365665435791016e+00,-3.204328918457031250e+01,-1.839879913330078125e+02,3.636539077758789062e+01,2.435328292846679688e+01,3.240999603271484375e+01
8.799999952316284180e-01,2.000000000000000000e+00,-2.949379158020019531e+01,7.509362101554870605e-01,4.180418395996093750e+01,9.528369140625000000e+01,8.437547302246093750e+01,1.353812103271484375e+02,-6.722983360290527344e+00,-3.203743362426757812e+01,-1.839834747314453125e+02,3.636588668823242188e+01,2.437006378173828125e+01,3.240579223632812500e+01
8.840000033378601074e-01,2.000000000000000000e+00,-2.954651832580566406e+01,7.882513403892517090e-01,4.176031494140625000e+01,9.529176330566406250e+01,8.437548828125000000e+01,1.353699493408203125e+02,-6.773590087890625000e+00,-3.203157806396484375e+01,-1.839789276123046875e+02,3.636638259887695312e+01,2.438684272766113281e+01,3.240158462524414062e+01
8.880000114440917969e-01,2.000000000000000000e+00,-2.959923362731933594e+01,8.255581855773925781e-01,4.171644973754882812e+01,9.529983520507812500e+01,8.437549591064453125e+01,1.353587036132812500e+02,-6.824185371398925781e+00,-3.202572631835937500e+01,-1.839744110107421875e+02,3.636687850952148438e+01,2.440361785888671875e+01,3.239738082885742188e+01
8.920000195503234863e-01,2.000000000000000000e+00,-2.965193748474121094e+01,8.628568053245544434e-01,4.167259979248046875e+01,9.530790710449218750e+01,8.437550354003906250e+01,1.353474426269531250e+02,-6.874769687652587891e+00,-3.201987457275390625e+01,-1.839698791503906250e+02,3.636737823486328125e+01,2.442038917541503906e+01,3.239318084716796875e+01
8.960000276565551758e-01,2.000000000000000000e+00,-2.970462989807128906e+01,9.001471400260925293e-01,4.162876129150390625e+01,9.531597137451171875e+01,8.437550354003906250e+01,1.353361816406250000e+02,-6.925342559814453125e+00,-3.201402664184570312e+01,-1.839653625488281250e+02,3.636787033081054688e+01,2.443715476989746094e+01,3.238897705078125000e+01
8.999999761581420898e-01,2.000000000000000000e+00,-2.975731086730957031e+01,9.374290704727172852e-01,4.158492660522460938e+01,9.532404327392578125e+01,8.437551879882812500e+01,1.353249359130859375e+02,-6.975903511047363281e+00,-3.200817489624023438e+01,-1.839608154296875000e+02,3.636836624145507812e+01,2.445391845703125000e+01,3.238477706909179688e+01
9.039999842643737793e-01,2.000000000000000000e+00,-2.980997848510742188e+01,9.747028946876525879e-01,4.154110336303710938e+01,9.533210754394531250e+01,8.437552642822265625e+01,1.353136901855468750e+02,-7.026454448699951172e+00,-3.200233078002929688e+01,-1.839562988281250000e+02,3.636886215209960938e+01,2.447067832946777344e+01,3.238057327270507812e+01
9.079999923706054688e-01,2.000000000000000000e+00,-2.986263656616210938e+01,1.011968255043029785e+00,4.149729156494140625e+01,9.534017181396484375e+01,8.437553405761718750e+01,1.353024444580078125e+02,-7.076993465423583984e+00,-3.199648284912109375e+01,-1.839517822265625000e+02,3.636935806274414062e+01,2.448743438720703125e+01,3.237637329101562500e+01
9.120000004768371582e-01,2.000000000000000000e+00,-2.991527938842773438e+01,1.049225568771362305e+00,4.145349121093750000e+01,9.534823608398437500e+01,8.437554168701171875e+01,1.352911987304687500e+02,-7.127521038055419922e+00,-3.199063682556152344e+01,-1.839472503662109375e+02,3.636985397338867188e+01,2.450418663024902344e+01,3.237217712402343750e+01
9.160000085830688477e-01,2.000000000000000000e+00,-2.996791267395019531e+01,1.086474537849426270e+00,4.140969848632812500e+01,9.535629272460937500e+01,8.437555694580078125e+01,1.352799530029296875e+02,-7.178038120269775391e+00,-3.198479270935058594e+01,-1.839427337646484375e+02,3.637034606933593750e+01,2.452093696594238281e+01,3.236798095703125000e+01
9.200000166893005371e-01,2.000000000000000000e+00,-3.002053642272949219e+01,1.123715162277221680e+00,4.136591339111328125e+01,9.536434936523437500e+01,8.437556457519531250e+01,1.352687225341796875e+02,-7.228543758392333984e+00,-3.197894859313964844e+01,-1.839382171630859375e+02,3.637083816528320312e+01,2.453767967224121094e+01,3.236378097534179688e+01
9.240000247955322266e-01,2.000000000000000000e+00,-3.007314491271972656e+01,1.160947680473327637e+00,4.132214355468750000e+01,9.537241363525390625e+01,8.437556457519531250e+01,1.352574920654296875e+02,-7.279037475585937500e+00,-3.197311019897460938e+01,-1.839336853027343750e+02,3.637133407592773438e+01,2.455442047119140625e+01,3.235958480834960938e+01
9.279999732971191406e-01,2.000000000000000000e+00,-3.012574577331542969e+01,1.198171854019165039e+00,4.127837753295898438e+01,9.538046264648437500e+01,8.437557220458984375e+01,1.352462615966796875e+02,-7.329521179199218750e+00,-3.196726989746093750e+01,-1.839291687011718750e+02,3.637182998657226562e+01,2.457115936279296875e+01,3.235539245605468750e+01
9.319999814033508301e-01,2.000000000000000000e+00,-3.017833137512207031e+01,1.235387802124023438e+00,4.123462295532226562e+01,9.538851928710937500e+01,8.437558746337890625e+01,1.352350311279296875e+02,-7.379992961883544922e+00,-3.196142959594726562e+01,-1.839246520996093750e+02,3.637232589721679688e+01,2.458789253234863281e+01,3.235120010375976562e+01
9.359999895095825195e-01,2.000000000000000000e+00,-3.023090553283691406e+01,1.272595524787902832e+00,4.119087982177734375e+01,9.539656829833984375e+01,8.437559509277343750e+01,1.352238006591796875e+02,-7.430453777313232422e+00,-3.195559310913085938e+01,-1.839201354980468750e+02,3.637282180786132812e+01,2.460462379455566406e+01,3.234700393676757812e+01
9.399999976158142090e-01,2.000000000000000000e+00,-3.028346824645996094e+01,1.309795022010803223e+00,4.114714813232421875e+01,9.540461730957031250e+01,8.437560272216796875e+01,1.352125701904296875e+02,-7.480903148651123047e+00,-3.194975662231445312e+01,-1.839156188964843750e+02,3.637331390380859375e+01,2.462134933471679688e+01,3.234281158447265625e+01
9.440000057220458984e-01,2.000000000000000000e+00,-3.033601951599121094e+01,1.346986055374145508e+00,4.110342025756835938e+01,9.541265869140625000e+01,8.437561035156250000e+01,1.352013397216796875e+02,-7.531341552734375000e+00,-3.194392395019531250e+01,-1.839111175537109375e+02,3.637380599975585938e+01,2.463807106018066406e+01,3.233861923217773438e+01
9.480000138282775879e-01,2.000000000000000000e+00,-3.038856124877929688e+01,1.384169101715087891e+00,4.105970764160156250e+01,9.542070770263671875e+01,8.437562561035156250e+01,1.351901245117187500e+02,-7.581768989562988281e+00,-3.193808746337890625e+01,-1.839065856933593750e+02,3.637430191040039062e+01,2.465479087829589844e+01,3.233443069458007812e+01
9.520000219345092773e-01,2.000000000000000000e+00,-3.044108772277832031e+01,1.421343803405761719e+00,4.101599884033203125e+01,9.542875671386718750e+01,8.437563323974609375e+01,1.351789093017578125e+02,-7.632184982299804688e+00,-3.193225860595703125e+01,-1.839020843505859375e+02,3.637479400634765625e+01,2.467150497436523438e+01,3.233023834228515625e+01
9.559999704360961914e-01,2.000000000000000000e+00,-3.049360466003417969e+01,1.458510279655456543e+00,4.097230529785156250e+01,9.543679046630859375e+01,8.437563323974609375e+01,1.351676940917968750e+02,-7.682590007781982422e+00,-3.192642593383789062e+01,-1.838975524902343750e+02,3.637528991699218750e+01,2.468821525573730469e+01,3.232605361938476562e+01
9.599999785423278809e-01,2.000000000000000000e+00,-3.054611206054687500e+01,1.495668530464172363e+00,4.092861938476562500e+01,9.544483947753906250e+01,8.437564086914062500e+01,1.351564788818359375e+02,-7.732984066009521484e+00,-3.192059516906738281e+01,-1.838930511474609375e+02,3.637578201293945312e+01,2.470492362976074219e+01,3.232186508178710938e+01
9.639999866485595703e-01,2.000000000000000000e+00,-3.059860610961914062e+01,1.532818555831909180e+00,4.088494110107421875e+01,9.545288085937500000e+01,8.437565612792968750e+01,1.351452636718750000e+02,-7.783366203308105469e+00,-3.191477012634277344e+01,-1.838885498046875000e+02,3.637627792358398438e+01,2.472163009643554688e+01,3.231768035888671875e+01
9.679999947547912598e-01,2.000000000000000000e+00,-3.065108489990234375e+01,1.569960355758666992e+00,4.084127426147460938e+01,9.546090698242187500e+01,8.437566375732421875e+01,1.351340637207031250e+02,-7.833737850189208984e+00,-3.190893936157226562e+01,-1.838840332031250000e+02,3.637677001953125000e+01,2.473832893371582031e+01,3.231349182128906250e+01
9.720000028610229492e-01,2.000000000000000000e+00,-3.070355796813964844e+01,1.607094049453735352e+00,4.079761886596679688e+01,9.546894836425781250e+01,8.437567138671875000e+01,1.351228485107421875e+02,-7.884097576141357422e+00,-3.190311813354492188e+01,-1.838795318603515625e+02,3.637726211547851562e+01,2.475502586364746094e+01,3.230930709838867188e+01
9.760000109672546387e-01,2.000000000000000000e+00,-3.075601387023925781e+01,1.644219398498535156e+00,4.075397109985351562e+01,9.547698211669921875e+01,8.437567901611328125e+01,1.351116485595703125e+02,-7.934447288513183594e+00,-3.189729118347167969e+01,-1.838750152587890625e+02,3.637775421142578125e+01,2.477171897888183594e+01,3.230512619018554688e+01
9.800000190734863281e-01,2.000000000000000000e+00,-3.080846405029296875e+01,1.681336522102355957e+00,4.071033096313476562e+01,9.548501586914062500e+01,8.437569427490234375e+01,1.351004486083984375e+02,-7.984785079956054688e+00,-3.189146804809570312e+01,-1.838705139160156250e+02,3.637825012207031250e+01,2.478840827941894531e+01,3.230094146728515625e+01
9.840000271797180176e-01,2.000000000000000000e+00,-3.086089897155761719e+01,1.718445420265197754e+00,4.066670608520507812e+01,9.549304199218750000e+01,8.437569427490234375e+01,1.350892639160156250e+02,-8.035111427307128906e+00,-3.188564491271972656e+01,-1.838659973144531250e+02,3.637874221801757812e+01,2.480509185791015625e+01,3.229675674438476562e+01
9.879999756813049316e-01,2.000000000000000000e+00,-3.091332435607910156e+01,1.755546092987060547e+00,4.062308502197265625e+01,9.550107574462890625e+01,8.437570190429687500e+01,1.350780639648437500e+02,-8.085428237915039062e+00,-3.187982559204101562e+01,-1.838615112304687500e+02,3.637923431396484375e+01,2.482177543640136719e+01,3.229257965087890625e+01
9.919999837875366211e-01,2.000000000000000000e+00,-3.096573448181152344e+01,1.792638659477233887e+00,4.057947540283203125e+01,9.550909423828125000e+01,8.437570953369140625e+01,1.350668640136718750e+02,-8.135731697082519531e+00,-3.187400627136230469e+01,-1.838569946289062500e+02,3.637973022460937500e+01,2.483845329284667969e+01,3.228839874267578125e+01
9.959999918937683105e-01,2.000000000000000000e+00,-3.101813697814941406e+01,1.829723000526428223e+00,4.053587722778320312e+01,9.551712036132812500e+01,8.437571716308593750e+01,1.350556640625000000e+02,-8.186025619506835938e+00,-3.186818695068359375e+01,-1.838524932861328125e+02,3.638022232055664062e+01,2.485512733459472656e+01,3.228421783447265625e+01
1.000000000000000000e+00,2.000000000000000000e+00,-3.107052421569824219e+01,1.866799116134643555e+00,4.049229049682617188e+01,9.552513885498046875e+01,8.437573242187500000e+01,1.350444793701171875e+02,-8.236307144165039062e+00,-3.186237144470214844e+01,-1.838479919433593750e+02,3.638071441650390625e+01,2.487179756164550781e+01,3.228004074096679688e+01
1.003999948501586914e+00,2.000000000000000000e+00,-3.112290191650390625e+01,1.903867006301879883e+00,4.044870758056640625e+01,9.553316497802734375e+01,8.437574005126953125e+01,1.350333099365234375e+02,-8.286579132080078125e+00,-3.185655593872070312e+01,-1.838434906005859375e+02,3.638120269775390625e+01,2.488846588134765625e+01,3.227586364746093750e+01
1.008000016212463379e+00,2.000000000000000000e+00,-3.117526817321777344e+01,1.940926790237426758e+00,4.040513992309570312e+01,9.554118347167968750e+01,8.437574768066406250e+01,1.350221252441406250e+02,-8.336839675903320312e+00,-3.185074424743652344e+01,-1.838390045166015625e+02,3.638169479370117188e+01,2.490512847900390625e+01,3.227168655395507812e+01
1.011999964714050293e+00,2.000000000000000000e+00,-3.122762107849121094e+01,1.977978229522705078e+00,4.036157989501953125e+01,9.554920196533203125e+01,8.437575531005859375e+01,1.350109252929687500e+02,-8.387087821960449219e+00,-3.184493064880371094e+01,-1.838345031738281250e+02,3.638219070434570312e+01,2.492178916931152344e+01,3.226750946044921875e+01
1.016000032424926758e+00,2.000000000000000000e+00,-3.127996444702148438e+01,2.015021800994873047e+00,4.031802749633789062e+01,9.555721282958984375e+01,8.437576293945312500e+01,1.349997558593750000e+02,-8.437325477600097656e+00,-3.183911895751953125e+01,-1.838300018310546875e+02,3.638268280029296875e+01,2.493844413757324219e+01,3.226333618164062500e+01
1.019999980926513672e+00,2.000000000000000000e+00,-3.133229827880859375e+01,2.052056789398193359e+00,4.027448272705078125e+01,9.556523132324218750e+01,8.437577056884765625e+01,1.349885864257812500e+02,-8.487552642822265625e+00,-3.183330917358398438e+01,-1.838255004882812500e+02,3.638317489624023438e+01,2.495509719848632812e+01,3.225916671752929688e+01
1.024000048637390137e+00,2.000000000000000000e+00,-3.138461685180664062e+01,2.089083909988403320e+00,4.023095321655273438e+01,9.557324218750000000e+01,8.437577819824218750e+01,1.349774017333984375e+02,-8.537768363952636719e+00,-3.182749938964843750e+01,-1.838209991455078125e+02,3.638366699218750000e+01,2.497174644470214844e+01,3.225499343872070312e+01
1.026999950408935547e+00,2.000000000000000000e+00,-3.143692588806152344e+01,2.126102685928344727e+00,4.018743133544921875e+01,9.558125305175781250e+01,8.437578582763671875e+01,1.349662322998046875e+02,-8.587972640991210938e+00,-3.182169151306152344e+01,-1.838165130615234375e+02,3.638415908813476562e+01,2.498838996887207031e+01,3.225082015991210938e+01
1.031999945640563965e+00,2.000000000000000000e+00,-3.148922157287597656e+01,2.163113117218017578e+00,4.014391708374023438e+01,9.558926391601562500e+01,8.437580108642578125e+01,1.349550781250000000e+02,-8.638166427612304688e+00,-3.181588554382324219e+01,-1.838120117187500000e+02,3.638465118408203125e+01,2.500503349304199219e+01,3.224664688110351562e+01
1.036000013351440430e+00,2.000000000000000000e+00,-3.154150581359863281e+01,2.200115680694580078e+00,4.010041809082031250e+01,9.559726715087890625e+01,8.437580871582031250e+01,1.349438934326171875e+02,-8.688348770141601562e+00,-3.181007957458496094e+01,-1.838075408935546875e+02,3.638514328002929688e+01,2.502167129516601562e+01,3.224247741699218750e+01
1.039999961853027344e+00,2.000000000000000000e+00,-3.159377861022949219e+01,2.237109899520874023e+00,4.005692291259765625e+01,9.560527038574218750e+01,8.437581634521484375e+01,1.349327392578125000e+02,-8.738520622253417969e+00,-3.180427742004394531e+01,-1.838030395507812500e+02,3.638563537597656250e+01,2.503830337524414062e+01,3.223830795288085938e+01
1.044000029563903809e+00,2.000000000000000000e+00,-3.164604187011718750e+01,2.274096012115478516e+00,4.001343917846679688e+01,9.561328125000000000e+01,8.437582397460937500e+01,1.349215850830078125e+02,-8.788680076599121094e+00,-3.179847526550292969e+01,-1.837985534667968750e+02,3.638612747192382812e+01,2.505493354797363281e+01,3.223414230346679688e+01
1.047999978065490723e+00,2.000000000000000000e+00,-3.169829368591308594e+01,2.311074018478393555e+00,3.996996307373046875e+01,9.562127685546875000e+01,8.437583160400390625e+01,1.349104156494140625e+02,-8.838829040527343750e+00,-3.179267311096191406e+01,-1.837940673828125000e+02,3.638661575317382812e+01,2.507155990600585938e+01,3.222997665405273438e+01
1.052000045776367188e+00,2.000000000000000000e+00,-3.175053024291992188e+01,2.348043680191040039e+00,3.992649841308593750e+01,9.562927246093750000e+01,8.437583923339843750e+01,1.348992767333984375e+02,-8.888967514038085938e+00,-3.178687477111816406e+01,-1.837895812988281250e+02,3.638710403442382812e+01,2.508818244934082031e+01,3.222581100463867188e+01
1.054999947547912598e+00,2.000000000000000000e+00,-3.180275726318359375e+01,2.385005235671997070e+00,3.988304519653320312e+01,9.563727569580078125e+01,8.437584686279296875e+01,1.348881072998046875e+02,-8.939094543457031250e+00,-3.178107643127441406e+01,-1.837850799560546875e+02,3.638759613037109375e+01,2.510480308532714844e+01,3.222164154052734375e+01
1.059999942779541016e+00,2.000000000000000000e+00,-3.185497474670410156e+01,2.421958684921264648e+00,3.983959960937500000e+01,9.564527130126953125e+01,8.437585449218750000e+01,1.348769683837890625e+02,-8.989210128784179688e+00,-3.177527618408203125e+01,-1.837805938720703125e+02,3.638808822631835938e+01,2.512141990661621094e+01,3.221747970581054688e+01
1.064000010490417480e+00,2.000000000000000000e+00,-3.190717697143554688e+01,2.458904027938842773e+00,3.979616546630859375e+01,9.565326690673828125e+01,8.437586212158203125e+01,1.348658142089843750e+02,-9.039316177368164062e+00,-3.176948165893554688e+01,-1.837761230468750000e+02,3.638857650756835938e+01,2.513803100585937500e+01,3.221331405639648438e+01
1.067999958992004395e+00,2.000000000000000000e+00,-3.195937156677246094e+01,2.495841026306152344e+00,3.975273895263671875e+01,9.566126251220703125e+01,8.437587738037109375e+01,1.348546752929687500e+02,-9.089408874511718750e+00,-3.176368522644042969e+01,-1.837716217041015625e+02,3.638906860351562500e+01,2.515464019775390625e+01,3.220915603637695312e+01
1.072000026702880859e+00,2.000000000000000000e+00,-3.201155471801757812e+01,2.532770156860351562e+00,3.970932006835937500e+01,9.566925048828125000e+01,8.437588500976562500e+01,1.348435211181640625e+02,-9.139492034912109375e+00,-3.175789451599121094e+01,-1.837671508789062500e+02,3.638956069946289062e+01,2.517124366760253906e+01,3.220499038696289062e+01
1.075999975204467773e+00,2.000000000000000000e+00,-3.206372070312500000e+01,2.569690942764282227e+00,3.966591262817382812e+01,9.567723846435546875e+01,8.437589263916015625e+01,1.348323822021484375e+02,-9.189563751220703125e+00,-3.175210189819335938e+01,-1.837626647949218750e+02,3.639004898071289062e+01,2.518784523010253906e+01,3.220083236694335938e+01
1.080000042915344238e+00,2.000000000000000000e+00,-3.211588287353515625e+01,2.606603622436523438e+00,3.962252044677734375e+01,9.568522644042968750e+01,8.437589263916015625e+01,1.348212432861328125e+02,-9.239624977111816406e+00,-3.174630928039550781e+01,-1.837581787109375000e+02,3.639054107666015625e+01,2.520444107055664062e+01,3.219667053222656250e+01
1.083999991416931152e+00,2.000000000000000000e+00,-3.216802597045898438e+01,2.643508195877075195e+00,3.957912826538085938e+01,9.569321441650390625e+01,8.437590789794921875e+01,1.348101043701171875e+02,-9.289673805236816406e+00,-3.174052047729492188e+01,-1.837537078857421875e+02,3.639103317260742188e+01,2.522103500366210938e+01,3.219251251220703125e+01
1.088000059127807617e+00,2.000000000000000000e+00,-3.222016143798828125e+01,2.680404663085937500e+00,3.953575134277343750e+01,9.570119476318359375e+01,8.437591552734375000e+01,1.347989807128906250e+02,-9.339713096618652344e+00,-3.173473358154296875e+01,-1.837492218017578125e+02,3.639152145385742188e+01,2.523762702941894531e+01,3.218835449218750000e+01
1.090999960899353027e+00,2.000000000000000000e+00,-3.227228546142578125e+01,2.717292785644531250e+00,3.949238204956054688e+01,9.570918273925781250e+01,8.437592315673828125e+01,1.347878417968750000e+02,-9.389739990234375000e+00,-3.172894477844238281e+01,-1.837447357177734375e+02,3.639201354980468750e+01,2.525421142578125000e+01,3.218419647216796875e+01
1.095999956130981445e+00,2.000000000000000000e+00,-3.232439804077148438e+01,2.754173040390014648e+00,3.944902420043945312e+01,9.571715545654296875e+01,8.437593078613281250e+01,1.347767028808593750e+02,-9.439757347106933594e+00,-3.172315979003906250e+01,-1.837402801513671875e+02,3.639250183105468750e+01,2.527079582214355469e+01,3.218004226684570312e+01
1.100000023841857910e+00,2.000000000000000000e+00,-3.237649536132812500e+01,2.791044950485229492e+00,3.940567398071289062e+01,9.572513580322265625e+01,8.437594604492187500e+01,1.347655944824218750e+02,-9.489762306213378906e+00,-3.171737289428710938e+01,-1.837357940673828125e+02,3.639299392700195312e+01,2.528737449645996094e+01,3.217588424682617188e+01
1.103999972343444824e+00,2.000000000000000000e+00,-3.242858886718750000e+01,2.827908992767333984e+00,3.936233139038085938e+01,9.573311614990234375e+01,8.437595367431640625e+01,1.347544555664062500e+02,-9.539756774902343750e+00,-3.171159172058105469e+01,-1.837313079833984375e+02,3.639348220825195312e+01,2.530394935607910156e+01,3.217173004150390625e+01
1.108000040054321289e+00,2.000000000000000000e+00,-3.248066329956054688e+01,2.864764690399169922e+00,3.931900024414062500e+01,9.574108886718750000e+01,8.437595367431640625e+01,1.347433319091796875e+02,-9.589739799499511719e+00,-3.170580673217773438e+01,-1.837268524169921875e+02,3.639397048950195312e+01,2.532052040100097656e+01,3.216757965087890625e+01
1.111999988555908203e+00,2.000000000000000000e+00,-3.253273010253906250e+01,2.901612281799316406e+00,3.927568054199218750e+01,9.574906158447265625e+01,8.437596130371093750e+01,1.347322235107421875e+02,-9.639713287353515625e+00,-3.170002937316894531e+01,-1.837223663330078125e+02,3.639446258544921875e+01,2.533708953857421875e+01,3.216342544555664062e+01
1.116000056266784668e+00,2.000000000000000000e+00,-3.258478546142578125e+01,2.938451528549194336e+00,3.923237228393554688e+01,9.575703430175781250e+01,8.437596893310546875e+01,1.347210998535156250e+02,-9.689674377441406250e+00,-3.169424629211425781e+01,-1.837178955078125000e+02,3.639495086669921875e+01,2.535365486145019531e+01,3.215927505493164062e+01
