rpiRobotics/ARM-21-02-F-19-Robot-Motion-Program/data_performance_abb/curve_1/dual_arm/diffevo_pose3/grad_result/real_from_sim/sim_result/dual_iteration_4.csv
timestamp,cmd_num,J1,J2,J3,J4,J5,J6,J1_2,J2_2,J3_2,J4_2,J5_2,J6_2
0.000000000000000000e+00,-1.000000000000000000e+00,-1.950270080566406250e+01,-5.597745895385742188e+00,5.050156021118164062e+01,9.463220214843750000e+01,8.545595550537109375e+01,1.355934906005859375e+02,2.811461210250854492e+00,-3.304811477661132812e+01,-1.849477386474609375e+02,3.599848937988281250e+01,2.110325431823730469e+01,3.341813659667968750e+01
2.000000094994902611e-03,-1.000000000000000000e+00,-1.950270080566406250e+01,-5.597745895385742188e+00,5.050156021118164062e+01,9.463220214843750000e+01,8.545595550537109375e+01,1.355934906005859375e+02,2.811461210250854492e+00,-3.304811477661132812e+01,-1.849477386474609375e+02,3.599848937988281250e+01,2.110325431823730469e+01,3.341813659667968750e+01
6.000000052154064178e-03,-1.000000000000000000e+00,-1.950270080566406250e+01,-5.597745895385742188e+00,5.050156021118164062e+01,9.463220214843750000e+01,8.545595550537109375e+01,1.355934906005859375e+02,2.811461210250854492e+00,-3.304811477661132812e+01,-1.849477386474609375e+02,3.599848937988281250e+01,2.110325431823730469e+01,3.341813659667968750e+01
8.000000379979610443e-03,-1.000000000000000000e+00,-1.950270080566406250e+01,-5.597745895385742188e+00,5.050156021118164062e+01,9.463220214843750000e+01,8.545595550537109375e+01,1.355934906005859375e+02,2.811461210250854492e+00,-3.304811477661132812e+01,-1.849477386474609375e+02,3.599848937988281250e+01,2.110325431823730469e+01,3.341813659667968750e+01
1.099999994039535522e-02,-1.000000000000000000e+00,-1.950270080566406250e+01,-5.597745895385742188e+00,5.050156021118164062e+01,9.463220214843750000e+01,8.545595550537109375e+01,1.355934906005859375e+02,2.811461210250854492e+00,-3.304811477661132812e+01,-1.849477386474609375e+02,3.599848937988281250e+01,2.110325431823730469e+01,3.341813659667968750e+01
1.600000075995922089e-02,-1.000000000000000000e+00,-1.950270080566406250e+01,-5.597745895385742188e+00,5.050156021118164062e+01,9.463220214843750000e+01,8.545595550537109375e+01,1.355934906005859375e+02,2.811461210250854492e+00,-3.304811477661132812e+01,-1.849477386474609375e+02,3.599848937988281250e+01,2.110325431823730469e+01,3.341813659667968750e+01
1.999999955296516418e-02,-1.000000000000000000e+00,-1.950270080566406250e+01,-5.597745895385742188e+00,5.050156021118164062e+01,9.463220214843750000e+01,8.545595550537109375e+01,1.355934906005859375e+02,2.811461210250854492e+00,-3.304811477661132812e+01,-1.849477386474609375e+02,3.599848937988281250e+01,2.110325431823730469e+01,3.341813659667968750e+01
2.400000020861625671e-02,-1.000000000000000000e+00,-1.950270080566406250e+01,-5.597745895385742188e+00,5.050156021118164062e+01,9.463220214843750000e+01,8.545595550537109375e+01,1.355934906005859375e+02,2.811461210250854492e+00,-3.304811477661132812e+01,-1.849477386474609375e+02,3.599848937988281250e+01,2.110325431823730469e+01,3.341813659667968750e+01
2.800000086426734924e-02,-1.000000000000000000e+00,-1.950270080566406250e+01,-5.597745895385742188e+00,5.050156021118164062e+01,9.463220214843750000e+01,8.545595550537109375e+01,1.355934906005859375e+02,2.811461210250854492e+00,-3.304811477661132812e+01,-1.849477386474609375e+02,3.599848937988281250e+01,2.110325431823730469e+01,3.341813659667968750e+01
3.200000151991844177e-02,2.000000000000000000e+00,-1.950270080566406250e+01,-5.597745895385742188e+00,5.050156021118164062e+01,9.463220214843750000e+01,8.545595550537109375e+01,1.355934906005859375e+02,2.811461210250854492e+00,-3.304811477661132812e+01,-1.849477386474609375e+02,3.599848937988281250e+01,2.110325431823730469e+01,3.341813659667968750e+01
3.599999845027923584e-02,2.000000000000000000e+00,-1.950270080566406250e+01,-5.597745895385742188e+00,5.050156021118164062e+01,9.463220214843750000e+01,8.545595550537109375e+01,1.355934906005859375e+02,2.811461210250854492e+00,-3.304811477661132812e+01,-1.849477386474609375e+02,3.599848937988281250e+01,2.110325431823730469e+01,3.341813659667968750e+01
4.199999943375587463e-02,2.000000000000000000e+00,-1.950270080566406250e+01,-5.597745895385742188e+00,5.050156021118164062e+01,9.463220214843750000e+01,8.545595550537109375e+01,1.355934906005859375e+02,2.811461210250854492e+00,-3.304811477661132812e+01,-1.849477386474609375e+02,3.599848937988281250e+01,2.110325431823730469e+01,3.341813659667968750e+01
4.399999976158142090e-02,2.000000000000000000e+00,-1.950270080566406250e+01,-5.597745895385742188e+00,5.050156021118164062e+01,9.463220214843750000e+01,8.545595550537109375e+01,1.355934906005859375e+02,2.811461210250854492e+00,-3.304811477661132812e+01,-1.849477386474609375e+02,3.599848937988281250e+01,2.110325431823730469e+01,3.341813659667968750e+01
4.800000041723251343e-02,2.000000000000000000e+00,-1.950270080566406250e+01,-5.597745895385742188e+00,5.050156021118164062e+01,9.463220214843750000e+01,8.545595550537109375e+01,1.355934906005859375e+02,2.811461210250854492e+00,-3.304811477661132812e+01,-1.849477386474609375e+02,3.599848937988281250e+01,2.110325431823730469e+01,3.341813659667968750e+01
5.200000107288360596e-02,2.000000000000000000e+00,-1.950270080566406250e+01,-5.597745895385742188e+00,5.050156021118164062e+01,9.463220214843750000e+01,8.545595550537109375e+01,1.355934906005859375e+02,2.811461210250854492e+00,-3.304811477661132812e+01,-1.849477386474609375e+02,3.599848937988281250e+01,2.110325431823730469e+01,3.341813659667968750e+01
5.600000172853469849e-02,2.000000000000000000e+00,-1.950270080566406250e+01,-5.597745895385742188e+00,5.050156021118164062e+01,9.463220214843750000e+01,8.545595550537109375e+01,1.355934906005859375e+02,2.811461210250854492e+00,-3.304811477661132812e+01,-1.849477386474609375e+02,3.599848937988281250e+01,2.110325431823730469e+01,3.341813659667968750e+01
5.999999865889549255e-02,2.000000000000000000e+00,-1.950270080566406250e+01,-5.597745895385742188e+00,5.050156021118164062e+01,9.463220214843750000e+01,8.545595550537109375e+01,1.355934906005859375e+02,2.811461210250854492e+00,-3.304811477661132812e+01,-1.849477386474609375e+02,3.599848937988281250e+01,2.110325431823730469e+01,3.341813659667968750e+01
6.400000303983688354e-02,2.000000000000000000e+00,-1.950270080566406250e+01,-5.597745895385742188e+00,5.050156021118164062e+01,9.463220214843750000e+01,8.545595550537109375e+01,1.355934906005859375e+02,2.811461210250854492e+00,-3.304811477661132812e+01,-1.849477386474609375e+02,3.599848937988281250e+01,2.110325431823730469e+01,3.341813659667968750e+01
6.800000369548797607e-02,2.000000000000000000e+00,-1.950270080566406250e+01,-5.597745895385742188e+00,5.050156021118164062e+01,9.463220214843750000e+01,8.545595550537109375e+01,1.355934906005859375e+02,2.811461210250854492e+00,-3.304811477661132812e+01,-1.849477386474609375e+02,3.599848937988281250e+01,2.110325431823730469e+01,3.341813659667968750e+01
7.199999690055847168e-02,2.000000000000000000e+00,-1.950270080566406250e+01,-5.597745895385742188e+00,5.050156021118164062e+01,9.463220214843750000e+01,8.545595550537109375e+01,1.355934906005859375e+02,2.811461210250854492e+00,-3.304811477661132812e+01,-1.849477386474609375e+02,3.599848937988281250e+01,2.110325431823730469e+01,3.341813659667968750e+01
7.599999755620956421e-02,2.000000000000000000e+00,-1.950276756286621094e+01,-5.597721099853515625e+00,5.050154495239257812e+01,9.463220214843750000e+01,8.545595550537109375e+01,1.355934906005859375e+02,2.811461210250854492e+00,-3.304811477661132812e+01,-1.849477386474609375e+02,3.599848937988281250e+01,2.110325431823730469e+01,3.341813659667968750e+01
7.999999821186065674e-02,2.000000000000000000e+00,-1.950314521789550781e+01,-5.597566127777099609e+00,5.050145721435546875e+01,9.463220214843750000e+01,8.545594787597656250e+01,1.355934906005859375e+02,2.811461210250854492e+00,-3.304811477661132812e+01,-1.849477386474609375e+02,3.599848937988281250e+01,2.110325431823730469e+01,3.341813659667968750e+01
8.399999886751174927e-02,2.000000000000000000e+00,-1.950422477722167969e+01,-5.597084522247314453e+00,5.050117492675781250e+01,9.463221740722656250e+01,8.545592498779296875e+01,1.355934906005859375e+02,2.811461210250854492e+00,-3.304811477661132812e+01,-1.849477386474609375e+02,3.599848937988281250e+01,2.110325431823730469e+01,3.341813659667968750e+01
8.799999952316284180e-02,2.000000000000000000e+00,-1.950636863708496094e+01,-5.596045970916748047e+00,5.050055313110351562e+01,9.463224792480468750e+01,8.545587158203125000e+01,1.355934600830078125e+02,2.811434268951416016e+00,-3.304811477661132812e+01,-1.849477386474609375e+02,3.599848937988281250e+01,2.110325622558593750e+01,3.341813659667968750e+01
9.200000017881393433e-02,2.000000000000000000e+00,-1.950979995727539062e+01,-5.594255447387695312e+00,5.049940872192382812e+01,9.463230895996093750e+01,8.545578765869140625e+01,1.355934143066406250e+02,2.811257123947143555e+00,-3.304810714721679688e+01,-1.849477081298828125e+02,3.599849319458007812e+01,2.110327339172363281e+01,3.341813659667968750e+01
9.600000083446502686e-02,2.000000000000000000e+00,-1.951468276977539062e+01,-5.591545581817626953e+00,5.049757766723632812e+01,9.463242340087890625e+01,8.545565032958984375e+01,1.355932922363281250e+02,2.810672283172607422e+00,-3.304807281494140625e+01,-1.849476165771484375e+02,3.599850082397460938e+01,2.110333251953125000e+01,3.341812515258789062e+01
1.000000014901161194e-01,2.000000000000000000e+00,-1.952115821838378906e+01,-5.587760448455810547e+00,5.049483108520507812e+01,9.463262939453125000e+01,8.545545959472656250e+01,1.355930938720703125e+02,2.809330701828002930e+00,-3.304798889160156250e+01,-1.849474334716796875e+02,3.599852752685546875e+01,2.110349273681640625e+01,3.341810226440429688e+01
1.040000021457672119e-01,2.000000000000000000e+00,-1.952925872802734375e+01,-5.582802295684814453e+00,5.049095153808593750e+01,9.463296508789062500e+01,8.545520019531250000e+01,1.355927429199218750e+02,2.806849718093872070e+00,-3.304782485961914062e+01,-1.849470825195312500e+02,3.599857330322265625e+01,2.110384368896484375e+01,3.341803359985351562e+01
1.080000028014183044e-01,2.000000000000000000e+00,-1.953890800476074219e+01,-5.576645374298095703e+00,5.048573303222656250e+01,9.463349151611328125e+01,8.545487976074218750e+01,1.355921630859375000e+02,2.802806138992309570e+00,-3.304752731323242188e+01,-1.849465332031250000e+02,3.599866104125976562e+01,2.110451507568359375e+01,3.341788101196289062e+01
1.120000034570693970e-01,2.000000000000000000e+00,-1.955012512207031250e+01,-5.569254398345947266e+00,5.047895050048828125e+01,9.463423156738281250e+01,8.545447540283203125e+01,1.355913391113281250e+02,2.796732902526855469e+00,-3.304705047607421875e+01,-1.849457397460937500e+02,3.599880218505859375e+01,2.110568237304687500e+01,3.341759109497070312e+01
1.159999966621398926e-01,2.000000000000000000e+00,-1.956316566467285156e+01,-5.560493946075439453e+00,5.047032928466796875e+01,9.463525390625000000e+01,8.545398712158203125e+01,1.355901641845703125e+02,2.788241147994995117e+00,-3.304632186889648438e+01,-1.849447021484375000e+02,3.599901962280273438e+01,2.110755157470703125e+01,3.341709899902343750e+01
1.199999973177909851e-01,2.000000000000000000e+00,-1.957845497131347656e+01,-5.550134658813476562e+00,5.045953750610351562e+01,9.463661193847656250e+01,8.545339202880859375e+01,1.355886230468750000e+02,2.777107954025268555e+00,-3.304529571533203125e+01,-1.849434051513671875e+02,3.599933624267578125e+01,2.111033248901367188e+01,3.341632461547851562e+01
1.239999979734420776e-01,2.000000000000000000e+00,-1.959635162353515625e+01,-5.537971019744873047e+00,5.044630050659179688e+01,9.463832855224609375e+01,8.545268249511718750e+01,1.355866394042968750e+02,2.763175487518310547e+00,-3.304391860961914062e+01,-1.849418334960937500e+02,3.599976348876953125e+01,2.111423110961914062e+01,3.341519546508789062e+01
1.280000060796737671e-01,2.000000000000000000e+00,-1.961701202392578125e+01,-5.523926258087158203e+00,5.043040466308593750e+01,9.464046478271484375e+01,8.545185852050781250e+01,1.355841522216796875e+02,2.746209383010864258e+00,-3.304214859008789062e+01,-1.849400634765625000e+02,3.600031661987304688e+01,2.111942481994628906e+01,3.341364288330078125e+01
1.309999972581863403e-01,2.000000000000000000e+00,-1.964040946960449219e+01,-5.508043289184570312e+00,5.041174697875976562e+01,9.464304351806640625e+01,8.545089721679687500e+01,1.355811309814453125e+02,2.725923538208007812e+00,-3.303993988037109375e+01,-1.849380187988281250e+02,3.600100708007812500e+01,2.112604331970214844e+01,3.341163635253906250e+01
1.360000073909759521e-01,2.000000000000000000e+00,-1.966644287109375000e+01,-5.490404605865478516e+00,5.039028549194335938e+01,9.464608001708984375e+01,8.544982910156250000e+01,1.355775604248046875e+02,2.702122449874877930e+00,-3.303728103637695312e+01,-1.849356994628906250e+02,3.600185012817382812e+01,2.113415336608886719e+01,3.340914916992187500e+01
1.389999985694885254e-01,2.000000000000000000e+00,-1.969503593444824219e+01,-5.471063137054443359e+00,5.036600112915039062e+01,9.464959716796875000e+01,8.544863128662109375e+01,1.355734252929687500e+02,2.674723386764526367e+00,-3.303416061401367188e+01,-1.849330902099609375e+02,3.600283813476562500e+01,2.114375686645507812e+01,3.340618515014648438e+01
1.439999938011169434e-01,2.000000000000000000e+00,-1.972609901428222656e+01,-5.450072765350341797e+00,5.033894729614257812e+01,9.465357208251953125e+01,8.544732666015625000e+01,1.355687255859375000e+02,2.643696784973144531e+00,-3.303060150146484375e+01,-1.849301605224609375e+02,3.600397491455078125e+01,2.115480422973632812e+01,3.340276336669921875e+01
1.480000019073486328e-01,2.000000000000000000e+00,-1.975954055786132812e+01,-5.427484512329101562e+00,5.030922698974609375e+01,9.465800476074218750e+01,8.544590759277343750e+01,1.355634918212890625e+02,2.609099626541137695e+00,-3.302661514282226562e+01,-1.849269256591796875e+02,3.600524520874023438e+01,2.116719627380371094e+01,3.339891433715820312e+01
1.519999951124191284e-01,2.000000000000000000e+00,-1.979537391662597656e+01,-5.403265953063964844e+00,5.027696990966796875e+01,9.466284179687500000e+01,8.544437408447265625e+01,1.355577545166015625e+02,2.571159124374389648e+00,-3.302224349975585938e+01,-1.849233703613281250e+02,3.600664138793945312e+01,2.118080329895019531e+01,3.339469528198242188e+01
1.560000032186508179e-01,2.000000000000000000e+00,-1.983373069763183594e+01,-5.377303123474121094e+00,5.024228286743164062e+01,9.466806030273437500e+01,8.544273376464843750e+01,1.355515747070312500e+02,2.530279397964477539e+00,-3.301753616333007812e+01,-1.849195404052734375e+02,3.600814056396484375e+01,2.119546318054199219e+01,3.339014434814453125e+01
1.599999964237213135e-01,2.000000000000000000e+00,-1.987467575073242188e+01,-5.349527359008789062e+00,5.020533370971679688e+01,9.467359924316406250e+01,8.544097900390625000e+01,1.355450286865234375e+02,2.486911535263061523e+00,-3.301255035400390625e+01,-1.849154815673828125e+02,3.600973510742187500e+01,2.121100234985351562e+01,3.338532257080078125e+01
1.640000045299530029e-01,2.000000000000000000e+00,-1.991804313659667969e+01,-5.320034503936767578e+00,5.016637802124023438e+01,9.467942047119140625e+01,8.543913269042968750e+01,1.355381317138671875e+02,2.441430330276489258e+00,-3.300733184814453125e+01,-1.849111938476562500e+02,3.601140213012695312e+01,2.122725105285644531e+01,3.338028335571289062e+01
1.679999977350234985e-01,2.000000000000000000e+00,-1.996346282958984375e+01,-5.289044857025146484e+00,5.012573242187500000e+01,9.468546295166015625e+01,8.543718719482421875e+01,1.355309753417968750e+02,2.394145250320434570e+00,-3.300193405151367188e+01,-1.849067382812500000e+02,3.601312255859375000e+01,2.124404335021972656e+01,3.337508392333984375e+01
1.720000058412551880e-01,2.000000000000000000e+00,-2.001055335998535156e+01,-5.256788253784179688e+00,5.008369827270507812e+01,9.469169616699218750e+01,8.543516540527343750e+01,1.355236358642578125e+02,2.345365762710571289e+00,-3.299639129638671875e+01,-1.849020843505859375e+02,3.601489257812500000e+01,2.126123237609863281e+01,3.336977386474609375e+01
1.759999990463256836e-01,2.000000000000000000e+00,-2.005905532836914062e+01,-5.223446369171142578e+00,5.004054641723632812e+01,9.469805908203125000e+01,8.543308258056640625e+01,1.355161132812500000e+02,2.295420646667480469e+00,-3.299075317382812500e+01,-1.848973083496093750e+02,3.601668930053710938e+01,2.127868461608886719e+01,3.336439132690429688e+01
1.800000071525573730e-01,2.000000000000000000e+00,-2.010881233215332031e+01,-5.189171314239501953e+00,4.999649429321289062e+01,9.470452880859375000e+01,8.543095397949218750e+01,1.355084838867187500e+02,2.244606256484985352e+00,-3.298504257202148438e+01,-1.848924102783203125e+02,3.601850891113281250e+01,2.129630279541015625e+01,3.335896682739257812e+01
1.840000003576278687e-01,2.000000000000000000e+00,-2.015971755981445312e+01,-5.154110908508300781e+00,4.995174789428710938e+01,9.471107482910156250e+01,8.542877960205078125e+01,1.355007629394531250e+02,2.193162441253662109e+00,-3.297929382324218750e+01,-1.848874206542968750e+02,3.602033996582031250e+01,2.131401443481445312e+01,3.335352325439453125e+01
1.879999935626983643e-01,2.000000000000000000e+00,-2.021162986755371094e+01,-5.118405342102050781e+00,4.990649032592773438e+01,9.471766662597656250e+01,8.542656707763671875e+01,1.354930114746093750e+02,2.141311168670654297e+00,-3.297351455688476562e+01,-1.848823699951171875e+02,3.602217483520507812e+01,2.133177185058593750e+01,3.334807968139648438e+01
1.920000016689300537e-01,2.000000000000000000e+00,-2.026444053649902344e+01,-5.082170009613037109e+00,4.986084365844726562e+01,9.472428131103515625e+01,8.542433929443359375e+01,1.354851989746093750e+02,2.089254617691040039e+00,-3.296772003173828125e+01,-1.848772888183593750e+02,3.602402114868164062e+01,2.134954643249511719e+01,3.334262847900390625e+01
1.959999948740005493e-01,2.000000000000000000e+00,-2.031805229187011719e+01,-5.045512199401855469e+00,4.981492614746093750e+01,9.473091888427734375e+01,8.542208099365234375e+01,1.354774017333984375e+02,2.037136077880859375e+00,-3.296192550659179688e+01,-1.848721923828125000e+02,3.602585983276367188e+01,2.136732101440429688e+01,3.333717727661132812e+01
2.000000029802322388e-01,2.000000000000000000e+00,-2.037228393554687500e+01,-5.008563518524169922e+00,4.976883697509765625e+01,9.473755645751953125e+01,8.541981506347656250e+01,1.354695892333984375e+02,1.985017776489257812e+00,-3.295613098144531250e+01,-1.848671112060546875e+02,3.602770233154296875e+01,2.138509368896484375e+01,3.333172607421875000e+01
2.039999961853027344e-01,2.000000000000000000e+00,-2.042686653137207031e+01,-4.971467494964599609e+00,4.972266769409179688e+01,9.474420166015625000e+01,8.541753387451171875e+01,1.354617767333984375e+02,1.932911276817321777e+00,-3.295034027099609375e+01,-1.848620147705078125e+02,3.602954483032226562e+01,2.140286064147949219e+01,3.332627868652343750e+01
2.080000042915344238e-01,2.000000000000000000e+00,-2.048156738281250000e+01,-4.934328556060791016e+00,4.967648315429687500e+01,9.475084686279296875e+01,8.541526031494140625e+01,1.354539642333984375e+02,1.880816578865051270e+00,-3.294454574584960938e+01,-1.848569183349609375e+02,3.603138732910156250e+01,2.142062568664550781e+01,3.332083511352539062e+01
2.119999974966049194e-01,2.000000000000000000e+00,-2.053627395629882812e+01,-4.897190570831298828e+00,4.963029861450195312e+01,9.475748443603515625e+01,8.541297912597656250e+01,1.354461669921875000e+02,1.828734040260314941e+00,-3.293875503540039062e+01,-1.848518218994140625e+02,3.603322601318359375e+01,2.143838691711425781e+01,3.331538772583007812e+01
2.160000056028366089e-01,2.000000000000000000e+00,-2.059096908569335938e+01,-4.860060691833496094e+00,4.958412933349609375e+01,9.476412200927734375e+01,8.541070556640625000e+01,1.354383544921875000e+02,1.776663541793823242e+00,-3.293296813964843750e+01,-1.848467407226562500e+02,3.603506851196289062e+01,2.145614051818847656e+01,3.330994415283203125e+01
2.199999988079071045e-01,2.000000000000000000e+00,-2.064565277099609375e+01,-4.822939872741699219e+00,4.953796768188476562e+01,9.477075958251953125e+01,8.540842437744140625e+01,1.354305572509765625e+02,1.724605202674865723e+00,-3.292718124389648438e+01,-1.848416442871093750e+02,3.603690719604492188e+01,2.147389221191406250e+01,3.330450439453125000e+01
2.240000069141387939e-01,2.000000000000000000e+00,-2.070032310485839844e+01,-4.785827159881591797e+00,4.949182128906250000e+01,9.477739715576171875e+01,8.540615081787109375e+01,1.354227447509765625e+02,1.672558784484863281e+00,-3.292139434814453125e+01,-1.848365631103515625e+02,3.603874588012695312e+01,2.149164199829101562e+01,3.329906463623046875e+01
2.280000001192092896e-01,2.000000000000000000e+00,-2.075498008728027344e+01,-4.748723030090332031e+00,4.944568252563476562e+01,9.478403472900390625e+01,8.540386962890625000e+01,1.354149475097656250e+02,1.620524644851684570e+00,-3.291560745239257812e+01,-1.848314819335937500e+02,3.604058456420898438e+01,2.150938415527343750e+01,3.329362487792968750e+01
2.319999933242797852e-01,2.000000000000000000e+00,-2.080962562561035156e+01,-4.711627483367919922e+00,4.939955520629882812e+01,9.479066467285156250e+01,8.540159606933593750e+01,1.354071502685546875e+02,1.568502426147460938e+00,-3.290982437133789062e+01,-1.848263854980468750e+02,3.604242324829101562e+01,2.152712440490722656e+01,3.328818511962890625e+01
2.360000014305114746e-01,2.000000000000000000e+00,-2.086425781250000000e+01,-4.674541473388671875e+00,4.935343933105468750e+01,9.479729461669921875e+01,8.539931488037109375e+01,1.353993530273437500e+02,1.516492486000061035e+00,-3.290404129028320312e+01,-1.848213043212890625e+02,3.604426574707031250e+01,2.154485893249511719e+01,3.328274536132812500e+01
2.399999946355819702e-01,2.000000000000000000e+00,-2.091887664794921875e+01,-4.637463092803955078e+00,4.930733489990234375e+01,9.480392456054687500e+01,8.539704132080078125e+01,1.353915557861328125e+02,1.464494705200195312e+00,-3.289826202392578125e+01,-1.848162231445312500e+02,3.604610061645507812e+01,2.156258964538574219e+01,3.327730941772460938e+01
2.440000027418136597e-01,2.000000000000000000e+00,-2.097348403930664062e+01,-4.600394248962402344e+00,4.926123809814453125e+01,9.481055450439453125e+01,8.539476776123046875e+01,1.353837585449218750e+02,1.412508964538574219e+00,-3.289247894287109375e+01,-1.848111419677734375e+02,3.604793930053710938e+01,2.158031654357910156e+01,3.327187728881835938e+01
2.479999959468841553e-01,2.000000000000000000e+00,-2.102807807922363281e+01,-4.563333034515380859e+00,4.921515274047851562e+01,9.481717681884765625e+01,8.539249420166015625e+01,1.353759765625000000e+02,1.360535264015197754e+00,-3.288670349121093750e+01,-1.848060607910156250e+02,3.604977798461914062e+01,2.159803962707519531e+01,3.326644515991210938e+01
2.520000040531158447e-01,2.000000000000000000e+00,-2.108266067504882812e+01,-4.526280879974365234e+00,4.916908264160156250e+01,9.482380676269531250e+01,8.539022064208984375e+01,1.353681793212890625e+02,1.308573722839355469e+00,-3.288092803955078125e+01,-1.848009948730468750e+02,3.605160903930664062e+01,2.161575698852539062e+01,3.326101303100585938e+01
2.560000121593475342e-01,2.000000000000000000e+00,-2.113722991943359375e+01,-4.489237308502197266e+00,4.912301635742187500e+01,9.483042907714843750e+01,8.538794708251953125e+01,1.353603973388671875e+02,1.256624341011047363e+00,-3.287515258789062500e+01,-1.847959136962890625e+02,3.605344772338867188e+01,2.163347244262695312e+01,3.325558090209960938e+01
2.599999904632568359e-01,2.000000000000000000e+00,-2.119178581237792969e+01,-4.452202320098876953e+00,4.907696151733398438e+01,9.483705139160156250e+01,8.538568115234375000e+01,1.353526000976562500e+02,1.204686760902404785e+00,-3.286937713623046875e+01,-1.847908172607421875e+02,3.605528640747070312e+01,2.165118217468261719e+01,3.325014877319335938e+01
2.639999985694885254e-01,2.000000000000000000e+00,-2.124633026123046875e+01,-4.415175437927246094e+00,4.903092193603515625e+01,9.484367370605468750e+01,8.538339996337890625e+01,1.353448333740234375e+02,1.152761340141296387e+00,-3.286360168457031250e+01,-1.847857513427734375e+02,3.605711746215820312e+01,2.166888999938964844e+01,3.324472427368164062e+01
2.680000066757202148e-01,2.000000000000000000e+00,-2.130086135864257812e+01,-4.378157615661621094e+00,4.898488998413085938e+01,9.485028839111328125e+01,8.538113403320312500e+01,1.353370513916015625e+02,1.100847959518432617e+00,-3.285783004760742188e+01,-1.847806701660156250e+02,3.605895233154296875e+01,2.168659210205078125e+01,3.323929595947265625e+01
2.720000147819519043e-01,2.000000000000000000e+00,-2.135538101196289062e+01,-4.341147899627685547e+00,4.893886947631835938e+01,9.485691070556640625e+01,8.537886047363281250e+01,1.353292541503906250e+02,1.048946380615234375e+00,-3.285206222534179688e+01,-1.847756042480468750e+02,3.606079101562500000e+01,2.170428848266601562e+01,3.323387145996093750e+01
2.759999930858612061e-01,2.000000000000000000e+00,-2.140988731384277344e+01,-4.304147243499755859e+00,4.889286041259765625e+01,9.486352539062500000e+01,8.537659454345703125e+01,1.353214874267578125e+02,9.970569610595703125e-01,-3.284629058837890625e+01,-1.847705383300781250e+02,3.606262588500976562e+01,2.172198486328125000e+01,3.322844696044921875e+01
2.800000011920928955e-01,2.000000000000000000e+00,-2.146438026428222656e+01,-4.267154216766357422e+00,4.884685897827148438e+01,9.487014007568359375e+01,8.537432861328125000e+01,1.353137054443359375e+02,9.451792836189270020e-01,-3.284052276611328125e+01,-1.847654571533203125e+02,3.606445693969726562e+01,2.173967361450195312e+01,3.322302246093750000e+01
2.840000092983245850e-01,2.000000000000000000e+00,-2.151886367797851562e+01,-4.230170726776123047e+00,4.880087280273437500e+01,9.487675476074218750e+01,8.537205505371093750e+01,1.353059234619140625e+02,8.933136463165283203e-01,-3.283475875854492188e+01,-1.847603912353515625e+02,3.606628799438476562e+01,2.175736045837402344e+01,3.321760177612304688e+01
2.879999876022338867e-01,2.000000000000000000e+00,-2.157332992553710938e+01,-4.193194866180419922e+00,4.875489044189453125e+01,9.488336181640625000e+01,8.536978149414062500e+01,1.352981567382812500e+02,8.414597511291503906e-01,-3.282899475097656250e+01,-1.847553253173828125e+02,3.606812286376953125e+01,2.177504158020019531e+01,3.321218109130859375e+01
2.919999957084655762e-01,2.000000000000000000e+00,-2.162778663635253906e+01,-4.156228065490722656e+00,4.870892333984375000e+01,9.488997650146484375e+01,8.536751556396484375e+01,1.352903747558593750e+02,7.896177172660827637e-01,-3.282323074340820312e+01,-1.847502593994140625e+02,3.606995773315429688e+01,2.179271888732910156e+01,3.320676040649414062e+01
2.960000038146972656e-01,2.000000000000000000e+00,-2.168222999572753906e+01,-4.119269847869873047e+00,4.866296768188476562e+01,9.489658355712890625e+01,8.536524963378906250e+01,1.352826232910156250e+02,7.377875447273254395e-01,-3.281746673583984375e+01,-1.847451782226562500e+02,3.607178497314453125e+01,2.181039237976074219e+01,3.320133972167968750e+01
3.000000119209289551e-01,2.000000000000000000e+00,-2.173666191101074219e+01,-4.082319736480712891e+00,4.861701965332031250e+01,9.490319061279296875e+01,8.536298370361328125e+01,1.352748413085937500e+02,6.859691143035888672e-01,-3.281170654296875000e+01,-1.847401275634765625e+02,3.607361602783203125e+01,2.182806396484375000e+01,3.319592666625976562e+01
3.039999902248382568e-01,2.000000000000000000e+00,-2.179108047485351562e+01,-4.045377731323242188e+00,4.857108306884765625e+01,9.490979766845703125e+01,8.536071014404296875e+01,1.352670745849609375e+02,6.341626048088073730e-01,-3.280594635009765625e+01,-1.847350616455078125e+02,3.607544708251953125e+01,2.184572792053222656e+01,3.319050979614257812e+01
3.079999983310699463e-01,2.000000000000000000e+00,-2.184548568725585938e+01,-4.008444786071777344e+00,4.852515792846679688e+01,9.491640472412109375e+01,8.535845184326171875e+01,1.352593231201171875e+02,5.823677778244018555e-01,-3.280018615722656250e+01,-1.847299957275390625e+02,3.607728195190429688e+01,2.186339187622070312e+01,3.318509292602539062e+01
3.120000064373016357e-01,2.000000000000000000e+00,-2.189987945556640625e+01,-3.971519947052001953e+00,4.847924041748046875e+01,9.492300415039062500e+01,8.535618591308593750e+01,1.352515563964843750e+02,5.305848121643066406e-01,-3.279442977905273438e+01,-1.847249450683593750e+02,3.607910919189453125e+01,2.188104820251464844e+01,3.317967987060546875e+01
3.160000145435333252e-01,2.000000000000000000e+00,-2.195426177978515625e+01,-3.934603452682495117e+00,4.843333816528320312e+01,9.492960357666015625e+01,8.535391998291015625e+01,1.352437896728515625e+02,4.788136482238769531e-01,-3.278867340087890625e+01,-1.847198791503906250e+02,3.608094024658203125e+01,2.189870262145996094e+01,3.317426681518554688e+01
3.199999928474426270e-01,2.000000000000000000e+00,-2.200863265991210938e+01,-3.897695302963256836e+00,4.838744354248046875e+01,9.493620300292968750e+01,8.535165405273437500e+01,1.352360229492187500e+02,4.270542562007904053e-01,-3.278292083740234375e+01,-1.847148132324218750e+02,3.608277130126953125e+01,2.191635322570800781e+01,3.316885757446289062e+01
3.240000009536743164e-01,2.000000000000000000e+00,-2.206298828125000000e+01,-3.860795736312866211e+00,4.834156036376953125e+01,9.494280242919921875e+01,8.534938812255859375e+01,1.352282867431640625e+02,3.753066658973693848e-01,-3.277716827392578125e+01,-1.847097625732421875e+02,3.608459854125976562e+01,2.193399810791015625e+01,3.316344833374023438e+01
3.280000090599060059e-01,2.000000000000000000e+00,-2.211733245849609375e+01,-3.823904514312744141e+00,4.829568481445312500e+01,9.494939422607421875e+01,8.534712982177734375e+01,1.352205200195312500e+02,3.235708475112915039e-01,-3.277141571044921875e+01,-1.847047119140625000e+02,3.608642578125000000e+01,2.195163917541503906e+01,3.315803909301757812e+01
3.319999873638153076e-01,2.000000000000000000e+00,-2.217166328430175781e+01,-3.787021875381469727e+00,4.824982452392578125e+01,9.495599365234375000e+01,8.534486389160156250e+01,1.352127685546875000e+02,2.718468308448791504e-01,-3.276566314697265625e+01,-1.846996612548828125e+02,3.608825302124023438e+01,2.196927642822265625e+01,3.315263366699218750e+01
3.359999954700469971e-01,2.000000000000000000e+00,-2.222598457336425781e+01,-3.750147342681884766e+00,4.820396804809570312e+01,9.496258544921875000e+01,8.534259796142578125e+01,1.352050170898437500e+02,2.201346009969711304e-01,-3.275991821289062500e+01,-1.846945953369140625e+02,3.609008407592773438e+01,2.198690986633300781e+01,3.314722442626953125e+01
3.400000035762786865e-01,2.000000000000000000e+00,-2.228029060363769531e+01,-3.713281393051147461e+00,4.815812683105468750e+01,9.496917724609375000e+01,8.534033966064453125e+01,1.351972503662109375e+02,1.684341281652450562e-01,-3.275416946411132812e+01,-1.846895446777343750e+02,3.609191131591796875e+01,2.200454139709472656e+01,3.314181900024414062e+01
3.440000116825103760e-01,2.000000000000000000e+00,-2.233458518981933594e+01,-3.676424026489257812e+00,4.811229324340820312e+01,9.497576904296875000e+01,8.533808135986328125e+01,1.351895141601562500e+02,1.167454496026039124e-01,-3.274842071533203125e+01,-1.846844940185546875e+02,3.609373855590820312e+01,2.202216529846191406e+01,3.313641738891601562e+01
3.479999899864196777e-01,2.000000000000000000e+00,-2.238886833190917969e+01,-3.639574766159057617e+00,4.806647491455078125e+01,9.498236083984375000e+01,8.533581542968750000e+01,1.351817626953125000e+02,6.506852060556411743e-02,-3.274267578125000000e+01,-1.846794433593750000e+02,3.609556198120117188e+01,2.203978729248046875e+01,3.313101577758789062e+01
3.519999980926513672e-01,2.000000000000000000e+00,-2.244313812255859375e+01,-3.602734088897705078e+00,4.802066421508789062e+01,9.498894500732421875e+01,8.533355712890625000e+01,1.351740264892578125e+02,1.340336259454488754e-02,-3.273693466186523438e+01,-1.846743774414062500e+02,3.609738922119140625e+01,2.205740547180175781e+01,3.312561416625976562e+01
3.560000061988830566e-01,2.000000000000000000e+00,-2.249739646911621094e+01,-3.565901517868041992e+00,4.797486495971679688e+01,9.499553680419921875e+01,8.533129882812500000e+01,1.351662750244140625e+02,-3.825003281235694885e-02,-3.273118972778320312e+01,-1.846693420410156250e+02,3.609921646118164062e+01,2.207501792907714844e+01,3.312021255493164062e+01
3.600000143051147461e-01,2.000000000000000000e+00,-2.255164146423339844e+01,-3.529077529907226562e+00,4.792906951904296875e+01,9.500212097167968750e+01,8.532904052734375000e+01,1.351585235595703125e+02,-8.989166468381881714e-02,-3.272544860839843750e+01,-1.846642913818359375e+02,3.610103988647460938e+01,2.209262847900390625e+01,3.311481857299804688e+01
3.639999926090240479e-01,2.000000000000000000e+00,-2.260587310791015625e+01,-3.492261886596679688e+00,4.788328933715820312e+01,9.500869750976562500e+01,8.532678222656250000e+01,1.351508026123046875e+02,-1.415215432643890381e-01,-3.271970748901367188e+01,-1.846592407226562500e+02,3.610286712646484375e+01,2.211023521423339844e+01,3.310941696166992188e+01
3.680000007152557373e-01,2.000000000000000000e+00,-2.266009521484375000e+01,-3.455454587936401367e+00,4.783752059936523438e+01,9.501528167724609375e+01,8.532452392578125000e+01,1.351430511474609375e+02,-1.931396871805191040e-01,-3.271397018432617188e+01,-1.846542053222656250e+02,3.610469055175781250e+01,2.212783622741699219e+01,3.310402297973632812e+01
3.720000088214874268e-01,2.000000000000000000e+00,-2.271430397033691406e+01,-3.418655633926391602e+00,4.779176330566406250e+01,9.502185821533203125e+01,8.532226562500000000e+01,1.351353149414062500e+02,-2.447460591793060303e-01,-3.270823287963867188e+01,-1.846491546630859375e+02,3.610651397705078125e+01,2.214543342590332031e+01,3.309862518310546875e+01
3.759999871253967285e-01,2.000000000000000000e+00,-2.276849937438964844e+01,-3.381865024566650391e+00,4.774601364135742188e+01,9.502843475341796875e+01,8.532000732421875000e+01,1.351275939941406250e+02,-2.963407039642333984e-01,-3.270249557495117188e+01,-1.846441192626953125e+02,3.610833740234375000e+01,2.216302680969238281e+01,3.309323501586914062e+01
3.799999952316284180e-01,2.000000000000000000e+00,-2.282268333435058594e+01,-3.345082998275756836e+00,4.770027542114257812e+01,9.503501129150390625e+01,8.531774902343750000e+01,1.351198577880859375e+02,-3.479236066341400146e-01,-3.269676208496093750e+01,-1.846390686035156250e+02,3.611016082763671875e+01,2.218061637878417969e+01,3.308784103393554688e+01
3.840000033378601074e-01,2.000000000000000000e+00,-2.287685394287109375e+01,-3.308309316635131836e+00,4.765454864501953125e+01,9.504158782958984375e+01,8.531549072265625000e+01,1.351121215820312500e+02,-3.994947671890258789e-01,-3.269102859497070312e+01,-1.846340332031250000e+02,3.611198425292968750e+01,2.219820213317871094e+01,3.308244705200195312e+01
3.880000114440917969e-01,2.000000000000000000e+00,-2.293101310729980469e+01,-3.271543979644775391e+00,4.760883331298828125e+01,9.504817199707031250e+01,8.531324005126953125e+01,1.351044006347656250e+02,-4.510541856288909912e-01,-3.268529510498046875e+01,-1.846289978027343750e+02,3.611380767822265625e+01,2.221578216552734375e+01,3.307706069946289062e+01
3.919999897480010986e-01,2.000000000000000000e+00,-2.298516082763671875e+01,-3.234786748886108398e+00,4.756312561035156250e+01,9.505474090576171875e+01,8.531098175048828125e+01,1.350966644287109375e+02,-5.026018619537353516e-01,-3.267956161499023438e+01,-1.846239471435546875e+02,3.611563110351562500e+01,2.223336029052734375e+01,3.307167053222656250e+01
3.959999978542327881e-01,2.000000000000000000e+00,-2.303929519653320312e+01,-3.198038101196289062e+00,4.751742935180664062e+01,9.506130981445312500e+01,8.530873107910156250e+01,1.350889434814453125e+02,-5.541378259658813477e-01,-3.267383193969726562e+01,-1.846189270019531250e+02,3.611745071411132812e+01,2.225093460083007812e+01,3.306628036499023438e+01
4.000000059604644775e-01,2.000000000000000000e+00,-2.309341812133789062e+01,-3.161297798156738281e+00,4.747174072265625000e+01,9.506787872314453125e+01,8.530647277832031250e+01,1.350812072753906250e+02,-6.056621074676513672e-01,-3.266810607910156250e+01,-1.846138763427734375e+02,3.611927032470703125e+01,2.226850318908691406e+01,3.306089401245117188e+01
4.040000140666961670e-01,2.000000000000000000e+00,-2.314752578735351562e+01,-3.124565839767456055e+00,4.742606735229492188e+01,9.507444763183593750e+01,8.530422210693359375e+01,1.350735015869140625e+02,-6.571745872497558594e-01,-3.266237640380859375e+01,-1.846088409423828125e+02,3.612108993530273438e+01,2.228606986999511719e+01,3.305551147460937500e+01
4.079999923706054688e-01,2.000000000000000000e+00,-2.320162582397460938e+01,-3.087842226028442383e+00,4.738040161132812500e+01,9.508101654052734375e+01,8.530196380615234375e+01,1.350657806396484375e+02,-7.086754441261291504e-01,-3.265665054321289062e+01,-1.846038208007812500e+02,3.612290954589843750e+01,2.230363082885742188e+01,3.305012893676757812e+01
4.120000004768371582e-01,2.000000000000000000e+00,-2.325571060180664062e+01,-3.051126956939697266e+00,4.733474731445312500e+01,9.508757781982421875e+01,8.529971313476562500e+01,1.350580596923828125e+02,-7.601644992828369141e-01,-3.265092849731445312e+01,-1.845987701416015625e+02,3.612472915649414062e+01,2.232118797302246094e+01,3.304474258422851562e+01
4.160000085830688477e-01,2.000000000000000000e+00,-2.330978393554687500e+01,-3.014420032501220703e+00,4.728910064697265625e+01,9.509414672851562500e+01,8.529746246337890625e+01,1.350503387451171875e+02,-8.116419315338134766e-01,-3.264520263671875000e+01,-1.845937500000000000e+02,3.612655258178710938e+01,2.233874130249023438e+01,3.303936386108398438e+01
4.199999868869781494e-01,2.000000000000000000e+00,-2.336384391784667969e+01,-2.977721452713012695e+00,4.724346923828125000e+01,9.510070800781250000e+01,8.529521179199218750e+01,1.350426177978515625e+02,-8.631075620651245117e-01,-3.263948440551757812e+01,-1.845887145996093750e+02,3.612837219238281250e+01,2.235629272460937500e+01,3.303398132324218750e+01
4.239999949932098389e-01,2.000000000000000000e+00,-2.341789054870605469e+01,-2.941031217575073242e+00,4.719784545898437500e+01,9.510726165771484375e+01,8.529296112060546875e+01,1.350348968505859375e+02,-9.145615696907043457e-01,-3.263376235961914062e+01,-1.845836944580078125e+02,3.613018798828125000e+01,2.237383651733398438e+01,3.302860260009765625e+01
4.280000030994415283e-01,2.000000000000000000e+00,-2.347192764282226562e+01,-2.904349327087402344e+00,4.715223312377929688e+01,9.511383056640625000e+01,8.529071044921875000e+01,1.350272064208984375e+02,-9.660038948059082031e-01,-3.262804412841796875e+01,-1.845786590576171875e+02,3.613200759887695312e+01,2.239137840270996094e+01,3.302322387695312500e+01
4.320000112056732178e-01,2.000000000000000000e+00,-2.352595138549804688e+01,-2.867675781250000000e+00,4.710662841796875000e+01,9.512038421630859375e+01,8.528845977783203125e+01,1.350194854736328125e+02,-1.017434477806091309e+00,-3.262232589721679688e+01,-1.845736389160156250e+02,3.613382720947265625e+01,2.240891647338867188e+01,3.301784896850585938e+01
4.359999895095825195e-01,2.000000000000000000e+00,-2.357996368408203125e+01,-2.831010580062866211e+00,4.706103515625000000e+01,9.512694549560546875e+01,8.528620910644531250e+01,1.350117797851562500e+02,-1.068853378295898438e+00,-3.261660766601562500e+01,-1.845686187744140625e+02,3.613564300537109375e+01,2.242645072937011719e+01,3.301247406005859375e+01
4.399999976158142090e-01,2.000000000000000000e+00,-2.363396263122558594e+01,-2.794353723526000977e+00,4.701545333862304688e+01,9.513349151611328125e+01,8.528396606445312500e+01,1.350040740966796875e+02,-1.120260477066040039e+00,-3.261089324951171875e+01,-1.845635833740234375e+02,3.613745880126953125e+01,2.244397926330566406e+01,3.300709915161132812e+01
4.440000057220458984e-01,2.000000000000000000e+00,-2.368794822692871094e+01,-2.757705211639404297e+00,4.696987915039062500e+01,9.514004516601562500e+01,8.528170776367187500e+01,1.349963684082031250e+02,-1.171656131744384766e+00,-3.260517883300781250e+01,-1.845585632324218750e+02,3.613927459716796875e+01,2.246150588989257812e+01,3.300172424316406250e+01
4.480000138282775879e-01,2.000000000000000000e+00,-2.374192428588867188e+01,-2.721065044403076172e+00,4.692432022094726562e+01,9.514659881591796875e+01,8.527946472167968750e+01,1.349886627197265625e+02,-1.223039984703063965e+00,-3.259946441650390625e+01,-1.845535278320312500e+02,3.614109420776367188e+01,2.247902679443359375e+01,3.299635314941406250e+01
4.519999921321868896e-01,2.000000000000000000e+00,-2.379588508605957031e+01,-2.684432983398437500e+00,4.687876892089843750e+01,9.515315246582031250e+01,8.527721405029296875e+01,1.349809570312500000e+02,-1.274412155151367188e+00,-3.259375381469726562e+01,-1.845485229492187500e+02,3.614291000366210938e+01,2.249654388427734375e+01,3.299098587036132812e+01
4.560000002384185791e-01,2.000000000000000000e+00,-2.384983634948730469e+01,-2.647809505462646484e+00,4.683322906494140625e+01,9.515969848632812500e+01,8.527497100830078125e+01,1.349732513427734375e+02,-1.325772643089294434e+00,-3.258804702758789062e+01,-1.845434875488281250e+02,3.614472198486328125e+01,2.251405906677246094e+01,3.298561477661132812e+01
4.600000083446502686e-01,2.000000000000000000e+00,-2.390377426147460938e+01,-2.611194133758544922e+00,4.678769683837890625e+01,9.516624450683593750e+01,8.527272033691406250e+01,1.349655609130859375e+02,-1.377121448516845703e+00,-3.258233642578125000e+01,-1.845384826660156250e+02,3.614654159545898438e+01,2.253156852722167969e+01,3.298024749755859375e+01
4.639999866485595703e-01,2.000000000000000000e+00,-2.395770072937011719e+01,-2.574587345123291016e+00,4.674217987060546875e+01,9.517279052734375000e+01,8.527046966552734375e+01,1.349578704833984375e+02,-1.428458571434020996e+00,-3.257662963867187500e+01,-1.845334625244140625e+02,3.614835357666015625e+01,2.254907417297363281e+01,3.297488021850585938e+01
4.679999947547912598e-01,2.000000000000000000e+00,-2.401161193847656250e+01,-2.537988662719726562e+00,4.669666671752929688e+01,9.517933654785156250e+01,8.526823425292968750e+01,1.349501647949218750e+02,-1.479784131050109863e+00,-3.257092285156250000e+01,-1.845284423828125000e+02,3.615016555786132812e+01,2.256657600402832031e+01,3.296951293945312500e+01
4.720000028610229492e-01,2.000000000000000000e+00,-2.406551361083984375e+01,-2.501398324966430664e+00,4.665116500854492188e+01,9.518588256835937500e+01,8.526598358154296875e+01,1.349424743652343750e+02,-1.531097888946533203e+00,-3.256521987915039062e+01,-1.845234222412109375e+02,3.615198135375976562e+01,2.258407402038574219e+01,3.296414947509765625e+01
4.760000109672546387e-01,2.000000000000000000e+00,-2.411940383911132812e+01,-2.464816331863403320e+00,4.660567855834960938e+01,9.519241333007812500e+01,8.526374053955078125e+01,1.349347839355468750e+02,-1.582400083541870117e+00,-3.255951690673828125e+01,-1.845184020996093750e+02,3.615379333496093750e+01,2.260156822204589844e+01,3.295878982543945312e+01
4.799999892711639404e-01,2.000000000000000000e+00,-2.417327880859375000e+01,-2.428242683410644531e+00,4.656019973754882812e+01,9.519895935058593750e+01,8.526149749755859375e+01,1.349270935058593750e+02,-1.633690714836120605e+00,-3.255381393432617188e+01,-1.845133972167968750e+02,3.615560531616210938e+01,2.261905860900878906e+01,3.295342636108398438e+01
4.839999973773956299e-01,2.000000000000000000e+00,-2.422714424133300781e+01,-2.391677379608154297e+00,4.651472854614257812e+01,9.520549774169921875e+01,8.525925445556640625e+01,1.349194183349609375e+02,-1.684969544410705566e+00,-3.254811096191406250e+01,-1.845083770751953125e+02,3.615742111206054688e+01,2.263654327392578125e+01,3.294806289672851562e+01
4.880000054836273193e-01,2.000000000000000000e+00,-2.428099441528320312e+01,-2.355120420455932617e+00,4.646927261352539062e+01,9.521202850341796875e+01,8.525701141357421875e+01,1.349117279052734375e+02,-1.736236810684204102e+00,-3.254240798950195312e+01,-1.845033721923828125e+02,3.615922927856445312e+01,2.265402412414550781e+01,3.294270324707031250e+01
4.920000135898590088e-01,2.000000000000000000e+00,-2.433483505249023438e+01,-2.318571567535400391e+00,4.642382431030273438e+01,9.521856689453125000e+01,8.525476837158203125e+01,1.349040374755859375e+02,-1.787492394447326660e+00,-3.253671264648437500e+01,-1.844983673095703125e+02,3.616104507446289062e+01,2.267150306701660156e+01,3.293734359741210938e+01
4.959999918937683105e-01,2.000000000000000000e+00,-2.438866233825683594e+01,-2.282031059265136719e+00,4.637838745117187500e+01,9.522509765625000000e+01,8.525252532958984375e+01,1.348963623046875000e+02,-1.838736414909362793e+00,-3.253101730346679688e+01,-1.844933624267578125e+02,3.616285324096679688e+01,2.268897628784179688e+01,3.293199157714843750e+01
5.000000000000000000e-01,2.000000000000000000e+00,-2.444248008728027344e+01,-2.245498895645141602e+00,4.633296203613281250e+01,9.523163604736328125e+01,8.525028228759765625e+01,1.348886871337890625e+02,-1.889968633651733398e+00,-3.252532196044921875e+01,-1.844883422851562500e+02,3.616466522216796875e+01,2.270644760131835938e+01,3.292663574218750000e+01
5.040000081062316895e-01,2.000000000000000000e+00,-2.449628257751464844e+01,-2.208975076675415039e+00,4.628754425048828125e+01,9.523816680908203125e+01,8.524803924560546875e+01,1.348810119628906250e+02,-1.941189289093017578e+00,-3.251962280273437500e+01,-1.844833374023437500e+02,3.616647720336914062e+01,2.272391319274902344e+01,3.292127990722656250e+01
5.080000162124633789e-01,2.000000000000000000e+00,-2.455007362365722656e+01,-2.172459363937377930e+00,4.624213790893554688e+01,9.524469757080078125e+01,8.524580383300781250e+01,1.348733367919921875e+02,-1.992398381233215332e+00,-3.251393127441406250e+01,-1.844783477783203125e+02,3.616828536987304688e+01,2.274137496948242188e+01,3.291592407226562500e+01
5.120000243186950684e-01,2.000000000000000000e+00,-2.460385322570800781e+01,-2.135952234268188477e+00,4.619673919677734375e+01,9.525122070312500000e+01,8.524356079101562500e+01,1.348656463623046875e+02,-2.043595790863037109e+00,-3.250823974609375000e+01,-1.844733276367187500e+02,3.617009735107421875e+01,2.275883293151855469e+01,3.291057205200195312e+01
5.159999728202819824e-01,2.000000000000000000e+00,-2.465761756896972656e+01,-2.099453210830688477e+00,4.615135192871093750e+01,9.525774383544921875e+01,8.524132537841796875e+01,1.348579711914062500e+02,-2.094781637191772461e+00,-3.250254821777343750e+01,-1.844683380126953125e+02,3.617190551757812500e+01,2.277628707885742188e+01,3.290522384643554688e+01
5.199999809265136719e-01,2.000000000000000000e+00,-2.471137428283691406e+01,-2.062962293624877930e+00,4.610597610473632812e+01,9.526427459716796875e+01,8.523908996582031250e+01,1.348503112792968750e+02,-2.145956039428710938e+00,-3.249686050415039062e+01,-1.844633331298828125e+02,3.617371368408203125e+01,2.279373741149902344e+01,3.289987182617187500e+01
5.239999890327453613e-01,2.000000000000000000e+00,-2.476511573791503906e+01,-2.026479721069335938e+00,4.606061553955078125e+01,9.527079772949218750e+01,8.523684692382812500e+01,1.348426361083984375e+02,-2.197118520736694336e+00,-3.249116897583007812e+01,-1.844583282470703125e+02,3.617552185058593750e+01,2.281118392944335938e+01,3.289452362060546875e+01
5.279999971389770508e-01,2.000000000000000000e+00,-2.481884765625000000e+01,-1.990005731582641602e+00,4.601525878906250000e+01,9.527732086181640625e+01,8.523461151123046875e+01,1.348349761962890625e+02,-2.248269557952880859e+00,-3.248548126220703125e+01,-1.844533386230468750e+02,3.617733001708984375e+01,2.282862472534179688e+01,3.288917541503906250e+01
5.320000052452087402e-01,2.000000000000000000e+00,-2.487256431579589844e+01,-1.953539729118347168e+00,4.596991348266601562e+01,9.528383636474609375e+01,8.523237609863281250e+01,1.348273010253906250e+02,-2.299408912658691406e+00,-3.247979736328125000e+01,-1.844483337402343750e+02,3.617913818359375000e+01,2.284606361389160156e+01,3.288383102416992188e+01
5.360000133514404297e-01,2.000000000000000000e+00,-2.492626953125000000e+01,-1.917082190513610840e+00,4.592457580566406250e+01,9.529035949707031250e+01,8.523013305664062500e+01,1.348196258544921875e+02,-2.350536584854125977e+00,-3.247411346435546875e+01,-1.844433288574218750e+02,3.618094253540039062e+01,2.286349868774414062e+01,3.287848663330078125e+01
5.400000214576721191e-01,2.000000000000000000e+00,-2.497996330261230469e+01,-1.880632638931274414e+00,4.587925720214843750e+01,9.529687500000000000e+01,8.522789764404296875e+01,1.348119659423828125e+02,-2.401652812957763672e+00,-3.246843338012695312e+01,-1.844383392333984375e+02,3.618275070190429688e+01,2.288092994689941406e+01,3.287314224243164062e+01
5.440000295639038086e-01,2.000000000000000000e+00,-2.503364562988281250e+01,-1.844191670417785645e+00,4.583394241333007812e+01,9.530339050292968750e+01,8.522566223144531250e+01,1.348043212890625000e+02,-2.452757358551025391e+00,-3.246274948120117188e+01,-1.844333496093750000e+02,3.618455505371093750e+01,2.289835548400878906e+01,3.286779785156250000e+01
5.479999780654907227e-01,2.000000000000000000e+00,-2.508731460571289062e+01,-1.807758808135986328e+00,4.578863525390625000e+01,9.530990600585937500e+01,8.522342681884765625e+01,1.347966461181640625e+02,-2.503850460052490234e+00,-3.245706939697265625e+01,-1.844283447265625000e+02,3.618636322021484375e+01,2.291577911376953125e+01,3.286245727539062500e+01
5.519999861717224121e-01,2.000000000000000000e+00,-2.514097213745117188e+01,-1.771334290504455566e+00,4.574334335327148438e+01,9.531642150878906250e+01,8.522119140625000000e+01,1.347889862060546875e+02,-2.554931879043579102e+00,-3.245138931274414062e+01,-1.844233551025390625e+02,3.618817138671875000e+01,2.293319702148437500e+01,3.285711669921875000e+01
5.559999942779541016e-01,2.000000000000000000e+00,-2.519461631774902344e+01,-1.734917879104614258e+00,4.569805908203125000e+01,9.532293701171875000e+01,8.521896362304687500e+01,1.347813415527343750e+02,-2.606001615524291992e+00,-3.244570922851562500e+01,-1.844183654785156250e+02,3.618997192382812500e+01,2.295061111450195312e+01,3.285177993774414062e+01
5.600000023841857910e-01,2.000000000000000000e+00,-2.524824905395507812e+01,-1.698509931564331055e+00,4.565278625488281250e+01,9.532944488525390625e+01,8.521672821044921875e+01,1.347736968994140625e+02,-2.657059907913208008e+00,-3.244003677368164062e+01,-1.844133758544921875e+02,3.619178009033203125e+01,2.296802330017089844e+01,3.284644317626953125e+01
5.640000104904174805e-01,2.000000000000000000e+00,-2.530187034606933594e+01,-1.662110090255737305e+00,4.560752487182617188e+01,9.533595275878906250e+01,8.521449279785156250e+01,1.347660217285156250e+02,-2.708106756210327148e+00,-3.243436050415039062e+01,-1.844083862304687500e+02,3.619358444213867188e+01,2.298542976379394531e+01,3.284110260009765625e+01
5.680000185966491699e-01,2.000000000000000000e+00,-2.535548019409179688e+01,-1.625718593597412109e+00,4.556227493286132812e+01,9.534245300292968750e+01,8.521225738525390625e+01,1.347583770751953125e+02,-2.759141921997070312e+00,-3.242868804931640625e+01,-1.844033966064453125e+02,3.619538497924804688e+01,2.300283241271972656e+01,3.283576965332031250e+01
5.720000267028808594e-01,2.000000000000000000e+00,-2.540907669067382812e+01,-1.589335203170776367e+00,4.551702880859375000e+01,9.534896087646484375e+01,8.521002960205078125e+01,1.347507324218750000e+02,-2.810165166854858398e+00,-3.242301559448242188e+01,-1.843984069824218750e+02,3.619718933105468750e+01,2.302023315429687500e+01,3.283043670654296875e+01
5.759999752044677734e-01,2.000000000000000000e+00,-2.546265792846679688e+01,-1.552960157394409180e+00,4.547179794311523438e+01,9.535546875000000000e+01,8.520779418945312500e+01,1.347430725097656250e+02,-2.861177206039428711e+00,-3.241734313964843750e+01,-1.843934173583984375e+02,3.619899368286132812e+01,2.303762817382812500e+01,3.282509994506835938e+01
5.799999833106994629e-01,2.000000000000000000e+00,-2.551623153686523438e+01,-1.516593337059020996e+00,4.542657852172851562e+01,9.536196899414062500e+01,8.520556640625000000e+01,1.347354431152343750e+02,-2.912177562713623047e+00,-3.241167449951171875e+01,-1.843884277343750000e+02,3.620079421997070312e+01,2.305502128601074219e+01,3.281977081298828125e+01
5.839999914169311523e-01,2.000000000000000000e+00,-2.556979179382324219e+01,-1.480234742164611816e+00,4.538136672973632812e+01,9.536846923828125000e+01,8.520333099365234375e+01,1.347277984619140625e+02,-2.963166475296020508e+00,-3.240600204467773438e+01,-1.843834533691406250e+02,3.620259857177734375e+01,2.307240867614746094e+01,3.281443786621093750e+01
5.879999995231628418e-01,2.000000000000000000e+00,-2.562333869934082031e+01,-1.443884491920471191e+00,4.533616256713867188e+01,9.537496948242187500e+01,8.520110321044921875e+01,1.347201538085937500e+02,-3.014143705368041992e+00,-3.240033340454101562e+01,-1.843784790039062500e+02,3.620439910888671875e+01,2.308979034423828125e+01,3.280911254882812500e+01
5.920000076293945312e-01,2.000000000000000000e+00,-2.567687606811523438e+01,-1.407542347908020020e+00,4.529097366333007812e+01,9.538146972656250000e+01,8.519887542724609375e+01,1.347125091552734375e+02,-3.065109491348266602e+00,-3.239466857910156250e+01,-1.843734893798828125e+02,3.620619964599609375e+01,2.310717010498046875e+01,3.280378341674804688e+01
5.960000157356262207e-01,2.000000000000000000e+00,-2.573039817810058594e+01,-1.371208548545837402e+00,4.524579238891601562e+01,9.538796234130859375e+01,8.519664764404296875e+01,1.347048645019531250e+02,-3.116063594818115234e+00,-3.238900375366210938e+01,-1.843685150146484375e+02,3.620800018310546875e+01,2.312454414367675781e+01,3.279845428466796875e+01
6.000000238418579102e-01,2.000000000000000000e+00,-2.578390884399414062e+01,-1.334882974624633789e+00,4.520062255859375000e+01,9.539446258544921875e+01,8.519441223144531250e+01,1.346972351074218750e+02,-3.167006254196166992e+00,-3.238334274291992188e+01,-1.843635253906250000e+02,3.620980453491210938e+01,2.314191818237304688e+01,3.279313278198242188e+01
6.039999723434448242e-01,2.000000000000000000e+00,-2.583740806579589844e+01,-1.298565745353698730e+00,4.515546417236328125e+01,9.540095520019531250e+01,8.519218444824218750e+01,1.346895904541015625e+02,-3.217937469482421875e+00,-3.237767791748046875e+01,-1.843585510253906250e+02,3.621160507202148438e+01,2.315928459167480469e+01,3.278780364990234375e+01
6.079999804496765137e-01,2.000000000000000000e+00,-2.589089584350585938e+01,-1.262256741523742676e+00,4.511031341552734375e+01,9.540744781494140625e+01,8.518995666503906250e+01,1.346819763183593750e+02,-3.268856763839721680e+00,-3.237201690673828125e+01,-1.843535766601562500e+02,3.621340560913085938e+01,2.317664718627929688e+01,3.278248214721679688e+01
6.119999885559082031e-01,2.000000000000000000e+00,-2.594437217712402344e+01,-1.225955843925476074e+00,4.506517028808593750e+01,9.541394042968750000e+01,8.518772888183593750e+01,1.346743316650390625e+02,-3.319765090942382812e+00,-3.236635971069335938e+01,-1.843486022949218750e+02,3.621520233154296875e+01,2.319400596618652344e+01,3.277716064453125000e+01
6.159999966621398926e-01,2.000000000000000000e+00,-2.599783515930175781e+01,-1.189663052558898926e+00,4.502004241943359375e+01,9.542042541503906250e+01,8.518550872802734375e+01,1.346667022705078125e+02,-3.370661497116088867e+00,-3.236069869995117188e+01,-1.843436279296875000e+02,3.621699905395507812e+01,2.321136093139648438e+01,3.277183914184570312e+01
6.200000047683715820e-01,2.000000000000000000e+00,-2.605128669738769531e+01,-1.153378367424011230e+00,4.497492599487304688e+01,9.542691802978515625e+01,8.518328094482421875e+01,1.346590728759765625e+02,-3.421546459197998047e+00,-3.235504150390625000e+01,-1.843386535644531250e+02,3.621879959106445312e+01,2.322871398925781250e+01,3.276652145385742188e+01
6.240000128746032715e-01,2.000000000000000000e+00,-2.610472488403320312e+01,-1.117101907730102539e+00,4.492981338500976562e+01,9.543340301513671875e+01,8.518105316162109375e+01,1.346514587402343750e+02,-3.472419977188110352e+00,-3.234938430786132812e+01,-1.843336791992187500e+02,3.622060012817382812e+01,2.324606132507324219e+01,3.276119995117187500e+01
6.280000209808349609e-01,2.000000000000000000e+00,-2.615815353393554688e+01,-1.080833554267883301e+00,4.488471603393554688e+01,9.543988800048828125e+01,8.517882537841796875e+01,1.346438140869140625e+02,-3.523282051086425781e+00,-3.234373092651367188e+01,-1.843287048339843750e+02,3.622239685058593750e+01,2.326340675354003906e+01,3.275588226318359375e+01
6.320000290870666504e-01,2.000000000000000000e+00,-2.621156692504882812e+01,-1.044573426246643066e+00,4.483962631225585938e+01,9.544636535644531250e+01,8.517660522460937500e+01,1.346361999511718750e+02,-3.574132680892944336e+00,-3.233807754516601562e+01,-1.843237304687500000e+02,3.622419357299804688e+01,2.328074455261230469e+01,3.275056838989257812e+01
6.359999775886535645e-01,2.000000000000000000e+00,-2.626497077941894531e+01,-1.008321404457092285e+00,4.479454803466796875e+01,9.545285034179687500e+01,8.517437744140625000e+01,1.346285705566406250e+02,-3.624971866607666016e+00,-3.233242416381835938e+01,-1.843187561035156250e+02,3.622599029541015625e+01,2.329808044433593750e+01,3.274525451660156250e+01
6.399999856948852539e-01,2.000000000000000000e+00,-2.631836128234863281e+01,-9.720775485038757324e-01,4.474948120117187500e+01,9.545933532714843750e+01,8.517214965820312500e+01,1.346209716796875000e+02,-3.675799608230590820e+00,-3.232677459716796875e+01,-1.843137969970703125e+02,3.622778320312500000e+01,2.331541252136230469e+01,3.273994064331054688e+01
6.439999938011169434e-01,2.000000000000000000e+00,-2.637174034118652344e+01,-9.358417987823486328e-01,4.470442199707031250e+01,9.546581268310546875e+01,8.516992950439453125e+01,1.346133422851562500e+02,-3.726615667343139648e+00,-3.232112503051757812e+01,-1.843088378906250000e+02,3.622957992553710938e+01,2.333274078369140625e+01,3.273462677001953125e+01
6.480000019073486328e-01,2.000000000000000000e+00,-2.642510795593261719e+01,-8.996141552925109863e-01,4.465937423706054688e+01,9.547229003906250000e+01,8.516770935058593750e+01,1.346057281494140625e+02,-3.777420759201049805e+00,-3.231547546386718750e+01,-1.843038635253906250e+02,3.623137664794921875e+01,2.335006523132324219e+01,3.272931671142578125e+01
6.520000100135803223e-01,2.000000000000000000e+00,-2.647846412658691406e+01,-8.633946180343627930e-01,4.461433410644531250e+01,9.547877502441406250e+01,8.516548919677734375e+01,1.345981140136718750e+02,-3.828214406967163086e+00,-3.230982589721679688e+01,-1.842989044189453125e+02,3.623317337036132812e+01,2.336738586425781250e+01,3.272400665283203125e+01
6.560000181198120117e-01,2.000000000000000000e+00,-2.653180694580078125e+01,-8.271831274032592773e-01,4.456930541992187500e+01,9.548523712158203125e+01,8.516326904296875000e+01,1.345904998779296875e+02,-3.878996849060058594e+00,-3.230418395996093750e+01,-1.842939453125000000e+02,3.623496627807617188e+01,2.338470077514648438e+01,3.271870040893554688e+01
6.600000262260437012e-01,2.000000000000000000e+00,-2.658513832092285156e+01,-7.909797430038452148e-01,4.452428436279296875e+01,9.549171447753906250e+01,8.516104888916015625e+01,1.345828857421875000e+02,-3.929767847061157227e+00,-3.229853820800781250e+01,-1.842889709472656250e+02,3.623676300048828125e+01,2.340201377868652344e+01,3.271339035034179688e+01
6.639999747276306152e-01,2.000000000000000000e+00,-2.663845825195312500e+01,-7.547842860221862793e-01,4.447927856445312500e+01,9.549819183349609375e+01,8.515882110595703125e+01,1.345752716064453125e+02,-3.980527639389038086e+00,-3.229289627075195312e+01,-1.842840118408203125e+02,3.623855590820312500e+01,2.341932296752929688e+01,3.270808410644531250e+01
6.679999828338623047e-01,2.000000000000000000e+00,-2.669176483154296875e+01,-7.185969948768615723e-01,4.443428039550781250e+01,9.550466156005859375e+01,8.515660095214843750e+01,1.345676727294921875e+02,-4.031275749206542969e+00,-3.228725433349609375e+01,-1.842790527343750000e+02,3.624035263061523438e+01,2.343662834167480469e+01,3.270277786254882812e+01
6.719999909400939941e-01,2.000000000000000000e+00,-2.674505996704101562e+01,-6.824176907539367676e-01,4.438929367065429688e+01,9.551112365722656250e+01,8.515438079833984375e+01,1.345600738525390625e+02,-4.082013607025146484e+00,-3.228161239624023438e+01,-1.842740936279296875e+02,3.624214553833007812e+01,2.345392990112304688e+01,3.269747543334960938e+01
6.759999990463256836e-01,2.000000000000000000e+00,-2.679834556579589844e+01,-6.462464332580566406e-01,4.434431457519531250e+01,9.551759338378906250e+01,8.515216064453125000e+01,1.345524597167968750e+02,-4.132739543914794922e+00,-3.227597427368164062e+01,-1.842691345214843750e+02,3.624393844604492188e+01,2.347122573852539062e+01,3.269217300415039062e+01
6.800000071525573730e-01,2.000000000000000000e+00,-2.685161781311035156e+01,-6.100831627845764160e-01,4.429934692382812500e+01,9.552406311035156250e+01,8.514994812011718750e+01,1.345448455810546875e+02,-4.183454036712646484e+00,-3.227033615112304688e+01,-1.842641754150390625e+02,3.624573135375976562e+01,2.348851966857910156e+01,3.268687057495117188e+01
6.840000152587890625e-01,2.000000000000000000e+00,-2.690487861633300781e+01,-5.739278793334960938e-01,4.425438690185546875e+01,9.553053283691406250e+01,8.514772796630859375e+01,1.345372619628906250e+02,-4.234158039093017578e+00,-3.226469802856445312e+01,-1.842592163085937500e+02,3.624752044677734375e+01,2.350581169128417969e+01,3.268157196044921875e+01
6.880000233650207520e-01,2.000000000000000000e+00,-2.695812606811523438e+01,-5.377805829048156738e-01,4.420943832397460938e+01,9.553699493408203125e+01,8.514550781250000000e+01,1.345296630859375000e+02,-4.284850597381591797e+00,-3.225906372070312500e+01,-1.842542724609375000e+02,3.624931335449218750e+01,2.352309608459472656e+01,3.267626953125000000e+01
6.919999718666076660e-01,2.000000000000000000e+00,-2.701136398315429688e+01,-5.016412734985351562e-01,4.416449737548828125e+01,9.554345703125000000e+01,8.514329528808593750e+01,1.345220642089843750e+02,-4.335531711578369141e+00,-3.225342559814453125e+01,-1.842493133544921875e+02,3.625110626220703125e+01,2.354037857055664062e+01,3.267097091674804688e+01
6.959999799728393555e-01,2.000000000000000000e+00,-2.706458854675292969e+01,-4.655098915100097656e-01,4.411957168579101562e+01,9.554991149902343750e+01,8.514107513427734375e+01,1.345144500732421875e+02,-4.386201858520507812e+00,-3.224779129028320312e+01,-1.842443695068359375e+02,3.625289535522460938e+01,2.355765724182128906e+01,3.266567230224609375e+01
6.999999880790710449e-01,2.000000000000000000e+00,-2.711780166625976562e+01,-4.293865561485290527e-01,4.407464981079101562e+01,9.555637359619140625e+01,8.513885498046875000e+01,1.345068817138671875e+02,-4.436861038208007812e+00,-3.224216079711914062e+01,-1.842394104003906250e+02,3.625468444824218750e+01,2.357493019104003906e+01,3.266037750244140625e+01
7.039999961853027344e-01,2.000000000000000000e+00,-2.717100334167480469e+01,-3.932711184024810791e-01,4.402974319458007812e+01,9.556282806396484375e+01,8.513664245605468750e+01,1.344992828369140625e+02,-4.487509250640869141e+00,-3.223653030395507812e+01,-1.842344665527343750e+02,3.625647354125976562e+01,2.359220123291015625e+01,3.265508270263671875e+01
7.080000042915344238e-01,2.000000000000000000e+00,-2.722419357299804688e+01,-3.571636676788330078e-01,4.398484420776367188e+01,9.556928253173828125e+01,8.513442993164062500e+01,1.344916839599609375e+02,-4.538145542144775391e+00,-3.223089981079101562e+01,-1.842295074462890625e+02,3.625826644897460938e+01,2.360947036743164062e+01,3.264979171752929688e+01
7.120000123977661133e-01,2.000000000000000000e+00,-2.727737236022949219e+01,-3.210641741752624512e-01,4.393995666503906250e+01,9.557573699951171875e+01,8.513220977783203125e+01,1.344840850830078125e+02,-4.588771343231201172e+00,-3.222527313232421875e+01,-1.842245635986328125e+02,3.626005554199218750e+01,2.362673187255859375e+01,3.264449691772460938e+01
7.160000205039978027e-01,2.000000000000000000e+00,-2.733053779602050781e+01,-2.849726378917694092e-01,4.389507675170898438e+01,9.558219146728515625e+01,8.512999725341796875e+01,1.344765014648437500e+02,-4.639385700225830078e+00,-3.221964645385742188e+01,-1.842196197509765625e+02,3.626184463500976562e+01,2.364399147033691406e+01,3.263920593261718750e+01
7.200000286102294922e-01,2.000000000000000000e+00,-2.738369369506835938e+01,-2.488890588283538818e-01,4.385020828247070312e+01,9.558864593505859375e+01,8.512778472900390625e+01,1.344689331054687500e+02,-4.689988613128662109e+00,-3.221401596069335938e+01,-1.842146759033203125e+02,3.626363372802734375e+01,2.366124534606933594e+01,3.263391494750976562e+01
7.239999771118164062e-01,2.000000000000000000e+00,-2.743683624267578125e+01,-2.128134220838546753e-01,4.380534744262695312e+01,9.559509277343750000e+01,8.512557220458984375e+01,1.344613342285156250e+02,-4.740580558776855469e+00,-3.220839309692382812e+01,-1.842097320556640625e+02,3.626542282104492188e+01,2.367849922180175781e+01,3.262862777709960938e+01
7.279999852180480957e-01,2.000000000000000000e+00,-2.748996734619140625e+01,-1.767457425594329834e-01,4.376049804687500000e+01,9.560154724121093750e+01,8.512335968017578125e+01,1.344537506103515625e+02,-4.791161537170410156e+00,-3.220277023315429688e+01,-1.842047882080078125e+02,3.626720809936523438e+01,2.369574737548828125e+01,3.262334060668945312e+01
7.319999933242797852e-01,2.000000000000000000e+00,-2.754308700561523438e+01,-1.406859904527664185e-01,4.371565628051757812e+01,9.560800170898437500e+01,8.512114715576171875e+01,1.344461669921875000e+02,-4.841731548309326172e+00,-3.219714736938476562e+01,-1.841998291015625000e+02,3.626899719238281250e+01,2.371298980712890625e+01,3.261805343627929688e+01
7.360000014305114746e-01,2.000000000000000000e+00,-2.759619522094726562e+01,-1.046341955661773682e-01,4.367082595825195312e+01,9.561444091796875000e+01,8.511893463134765625e+01,1.344385986328125000e+02,-4.892290115356445312e+00,-3.219152832031250000e+01,-1.841948852539062500e+02,3.627078247070312500e+01,2.373023033142089844e+01,3.261276626586914062e+01
7.400000095367431641e-01,2.000000000000000000e+00,-2.764929008483886719e+01,-6.859034299850463867e-02,4.362600708007812500e+01,9.562088775634765625e+01,8.511672210693359375e+01,1.344310150146484375e+02,-4.942837715148925781e+00,-3.218590927124023438e+01,-1.841899566650390625e+02,3.627257156372070312e+01,2.374746704101562500e+01,3.260748291015625000e+01
7.440000176429748535e-01,2.000000000000000000e+00,-2.770237541198730469e+01,-3.255442529916763306e-02,4.358119583129882812e+01,9.562732696533203125e+01,8.511450958251953125e+01,1.344234313964843750e+02,-4.993373870849609375e+00,-3.218029022216796875e+01,-1.841850128173828125e+02,3.627435684204101562e+01,2.376469993591308594e+01,3.260219955444335938e+01
7.480000257492065430e-01,2.000000000000000000e+00,-2.775544929504394531e+01,3.473554505035281181e-03,4.353639984130859375e+01,9.563377380371093750e+01,8.511229705810546875e+01,1.344158630371093750e+02,-5.043899059295654297e+00,-3.217467117309570312e+01,-1.841800842285156250e+02,3.627614212036132812e+01,2.378192901611328125e+01,3.259691619873046875e+01
7.519999742507934570e-01,2.000000000000000000e+00,-2.780850982666015625e+01,3.949360549449920654e-02,4.349160385131835938e+01,9.564021301269531250e+01,8.511009216308593750e+01,1.344082946777343750e+02,-5.094413280487060547e+00,-3.216905593872070312e+01,-1.841751403808593750e+02,3.627792739868164062e+01,2.379915428161621094e+01,3.259163665771484375e+01
7.559999823570251465e-01,2.000000000000000000e+00,-2.786155891418457031e+01,7.550571858882904053e-02,4.344682693481445312e+01,9.564665222167968750e+01,8.510787963867187500e+01,1.344007263183593750e+02,-5.144916057586669922e+00,-3.216344070434570312e+01,-1.841702117919921875e+02,3.627971267700195312e+01,2.381637382507324219e+01,3.258635711669921875e+01
7.599999904632568359e-01,2.000000000000000000e+00,-2.791459846496582031e+01,1.115099191665649414e-01,4.340205383300781250e+01,9.565309143066406250e+01,8.510567474365234375e+01,1.343931579589843750e+02,-5.195407867431640625e+00,-3.215782928466796875e+01,-1.841652679443359375e+02,3.628149795532226562e+01,2.383359146118164062e+01,3.258107757568359375e+01
7.639999985694885254e-01,2.000000000000000000e+00,-2.796762466430664062e+01,1.475061774253845215e-01,4.335729217529296875e+01,9.565952301025390625e+01,8.510346221923828125e+01,1.343855895996093750e+02,-5.245888710021972656e+00,-3.215221405029296875e+01,-1.841603240966796875e+02,3.628327941894531250e+01,2.385080528259277344e+01,3.257580184936523438e+01
7.680000066757202148e-01,2.000000000000000000e+00,-2.802063751220703125e+01,1.834945231676101685e-01,4.331254196166992188e+01,9.566596221923828125e+01,8.510125732421875000e+01,1.343780212402343750e+02,-5.296358585357666016e+00,-3.214660263061523438e+01,-1.841553955078125000e+02,3.628506469726562500e+01,2.386801528930664062e+01,3.257052612304687500e+01
7.720000147819519043e-01,2.000000000000000000e+00,-2.807364082336425781e+01,2.194749712944030762e-01,4.326779937744140625e+01,9.567239379882812500e+01,8.509905242919921875e+01,1.343704528808593750e+02,-5.346817016601562500e+00,-3.214099502563476562e+01,-1.841504669189453125e+02,3.628684997558593750e+01,2.388522148132324219e+01,3.256525039672851562e+01
7.760000228881835938e-01,2.000000000000000000e+00,-2.812663078308105469e+01,2.554474771022796631e-01,4.322306823730468750e+01,9.567882537841796875e+01,8.509683990478515625e+01,1.343628997802734375e+02,-5.397264003753662109e+00,-3.213538360595703125e+01,-1.841455383300781250e+02,3.628863143920898438e+01,2.390242576599121094e+01,3.255997848510742188e+01
7.799999713897705078e-01,2.000000000000000000e+00,-2.817961120605468750e+01,2.914120852947235107e-01,4.317834854125976562e+01,9.568526458740234375e+01,8.509463500976562500e+01,1.343553314208984375e+02,-5.447700500488281250e+00,-3.212977600097656250e+01,-1.841406097412109375e+02,3.629041290283203125e+01,2.391962242126464844e+01,3.255470275878906250e+01
7.839999794960021973e-01,2.000000000000000000e+00,-2.823257827758789062e+01,3.273687660694122314e-01,4.313364028930664062e+01,9.569168853759765625e+01,8.509243011474609375e+01,1.343477783203125000e+02,-5.498126029968261719e+00,-3.212417221069335938e+01,-1.841356811523437500e+02,3.629219818115234375e+01,2.393681907653808594e+01,3.254943466186523438e+01
7.879999876022338867e-01,2.000000000000000000e+00,-2.828553581237792969e+01,3.633175492286682129e-01,4.308893585205078125e+01,9.569811248779296875e+01,8.509022521972656250e+01,1.343402252197265625e+02,-5.548540115356445312e+00,-3.211856460571289062e+01,-1.841307525634765625e+02,3.629397964477539062e+01,2.395400810241699219e+01,3.254416275024414062e+01
7.919999957084655762e-01,2.000000000000000000e+00,-2.833847999572753906e+01,3.992584049701690674e-01,4.304424667358398438e+01,9.570454406738281250e+01,8.508802032470703125e+01,1.343326721191406250e+02,-5.598943233489990234e+00,-3.211296463012695312e+01,-1.841258239746093750e+02,3.629575729370117188e+01,2.397119712829589844e+01,3.253889083862304688e+01
7.960000038146972656e-01,2.000000000000000000e+00,-2.839141082763671875e+01,4.351913630962371826e-01,4.299956130981445312e+01,9.571096801757812500e+01,8.508581542968750000e+01,1.343251037597656250e+02,-5.649334907531738281e+00,-3.210736083984375000e+01,-1.841209106445312500e+02,3.629754257202148438e+01,2.398837852478027344e+01,3.253362655639648438e+01
8.000000119209289551e-01,2.000000000000000000e+00,-2.844433403015136719e+01,4.711164534091949463e-01,4.295489120483398438e+01,9.571739196777343750e+01,8.508360290527343750e+01,1.343175506591796875e+02,-5.699716091156005859e+00,-3.210176086425781250e+01,-1.841159820556640625e+02,3.629932022094726562e+01,2.400555992126464844e+01,3.252835845947265625e+01
8.040000200271606445e-01,2.000000000000000000e+00,-2.849724388122558594e+01,5.070335865020751953e-01,4.291022872924804688e+01,9.572380828857421875e+01,8.508140563964843750e+01,1.343099975585937500e+02,-5.750085830688476562e+00,-3.209615707397460938e+01,-1.841110534667968750e+02,3.630110168457031250e+01,2.402273559570312500e+01,3.252309417724609375e+01
8.080000281333923340e-01,2.000000000000000000e+00,-2.855014228820800781e+01,5.429428815841674805e-01,4.286557388305664062e+01,9.573023986816406250e+01,8.507920074462890625e+01,1.343024444580078125e+02,-5.800444126129150391e+00,-3.209056091308593750e+01,-1.841061248779296875e+02,3.630288314819335938e+01,2.403990554809570312e+01,3.251782608032226562e+01
8.119999766349792480e-01,2.000000000000000000e+00,-2.860302734375000000e+01,5.788443088531494141e-01,4.282093048095703125e+01,9.573664855957031250e+01,8.507700347900390625e+01,1.342949066162109375e+02,-5.850792407989501953e+00,-3.208496475219726562e+01,-1.841012115478515625e+02,3.630466079711914062e+01,2.405707550048828125e+01,3.251256561279296875e+01
8.159999847412109375e-01,2.000000000000000000e+00,-2.865590095520019531e+01,6.147378087043762207e-01,4.277630233764648438e+01,9.574307250976562500e+01,8.507479858398437500e+01,1.342873535156250000e+02,-5.901128768920898438e+00,-3.207936859130859375e+01,-1.840962829589843750e+02,3.630644226074218750e+01,2.407423973083496094e+01,3.250730133056640625e+01
8.199999928474426270e-01,2.000000000000000000e+00,-2.870876502990722656e+01,6.506233811378479004e-01,4.273167419433593750e+01,9.574949645996093750e+01,8.507259368896484375e+01,1.342798156738281250e+02,-5.951454162597656250e+00,-3.207377243041992188e+01,-1.840913696289062500e+02,3.630821990966796875e+01,2.409140014648437500e+01,3.250204467773437500e+01
8.240000009536743164e-01,2.000000000000000000e+00,-2.876161575317382812e+01,6.865011453628540039e-01,4.268706512451171875e+01,9.575590515136718750e+01,8.507039642333984375e+01,1.342722778320312500e+02,-6.001769065856933594e+00,-3.206818008422851562e+01,-1.840864562988281250e+02,3.631000137329101562e+01,2.410855865478515625e+01,3.249678039550781250e+01
8.280000090599060059e-01,2.000000000000000000e+00,-2.881445884704589844e+01,7.223709821701049805e-01,4.264245986938476562e+01,9.576232147216796875e+01,8.506819152832031250e+01,1.342647247314453125e+02,-6.052072525024414062e+00,-3.206258392333984375e+01,-1.840815429687500000e+02,3.631177520751953125e+01,2.412571144104003906e+01,3.249152374267578125e+01
8.320000171661376953e-01,2.000000000000000000e+00,-2.886728668212890625e+01,7.582328915596008301e-01,4.259786605834960938e+01,9.576873016357421875e+01,8.506599426269531250e+01,1.342571868896484375e+02,-6.102364540100097656e+00,-3.205699539184570312e+01,-1.840766143798828125e+02,3.631355667114257812e+01,2.414286041259765625e+01,3.248626708984375000e+01
8.360000252723693848e-01,2.000000000000000000e+00,-2.892010116577148438e+01,7.940870523452758789e-01,4.255327987670898438e+01,9.577513885498046875e+01,8.506378936767578125e+01,1.342496490478515625e+02,-6.152646064758300781e+00,-3.205140304565429688e+01,-1.840717010498046875e+02,3.631533050537109375e+01,2.416000747680664062e+01,3.248101043701171875e+01
8.399999737739562988e-01,2.000000000000000000e+00,-2.897290420532226562e+01,8.299332261085510254e-01,4.250870895385742188e+01,9.578155517578125000e+01,8.506159210205078125e+01,1.342421112060546875e+02,-6.202916145324707031e+00,-3.204581451416015625e+01,-1.840668029785156250e+02,3.631710815429687500e+01,2.417714881896972656e+01,3.247575378417968750e+01
8.439999818801879883e-01,2.000000000000000000e+00,-2.902569770812988281e+01,8.657715916633605957e-01,4.246414566040039062e+01,9.578796386718750000e+01,8.505939483642578125e+01,1.342345886230468750e+02,-6.253175258636474609e+00,-3.204022598266601562e+01,-1.840618743896484375e+02,3.631888580322265625e+01,2.419428634643554688e+01,3.247049713134765625e+01
8.479999899864196777e-01,2.000000000000000000e+00,-2.907848167419433594e+01,9.016020298004150391e-01,4.241958618164062500e+01,9.579436492919921875e+01,8.505718994140625000e+01,1.342270355224609375e+02,-6.303423881530761719e+00,-3.203464126586914062e+01,-1.840569610595703125e+02,3.632066345214843750e+01,2.421142005920410156e+01,3.246524429321289062e+01
8.519999980926513672e-01,2.000000000000000000e+00,-2.913125228881835938e+01,9.374247193336486816e-01,4.237504577636718750e+01,9.580077362060546875e+01,8.505500030517578125e+01,1.342195129394531250e+02,-6.353661060333251953e+00,-3.202905654907226562e+01,-1.840520629882812500e+02,3.632243728637695312e+01,2.422855186462402344e+01,3.245999145507812500e+01
8.560000061988830566e-01,2.000000000000000000e+00,-2.918401145935058594e+01,9.732394218444824219e-01,4.233050918579101562e+01,9.580717468261718750e+01,8.505280303955078125e+01,1.342119903564453125e+02,-6.403887271881103516e+00,-3.202347183227539062e+01,-1.840471496582031250e+02,3.632421112060546875e+01,2.424567794799804688e+01,3.245474243164062500e+01
8.600000143051147461e-01,2.000000000000000000e+00,-2.923675918579101562e+01,1.009046435356140137e+00,4.228598022460937500e+01,9.581358337402343750e+01,8.505060577392578125e+01,1.342044677734375000e+02,-6.454102516174316406e+00,-3.201788711547851562e+01,-1.840422363281250000e+02,3.632598495483398438e+01,2.426280021667480469e+01,3.244949340820312500e+01
8.640000224113464355e-01,2.000000000000000000e+00,-2.928949356079101562e+01,1.044845342636108398e+00,4.224146652221679688e+01,9.581997680664062500e+01,8.504840850830078125e+01,1.341969299316406250e+02,-6.504306316375732422e+00,-3.201231002807617188e+01,-1.840373382568359375e+02,3.632776260375976562e+01,2.427992057800292969e+01,3.244424438476562500e+01
8.679999709129333496e-01,2.000000000000000000e+00,-2.934221649169921875e+01,1.080636620521545410e+00,4.219696044921875000e+01,9.582637786865234375e+01,8.504621124267578125e+01,1.341894073486328125e+02,-6.554499149322509766e+00,-3.200672912597656250e+01,-1.840324249267578125e+02,3.632953262329101562e+01,2.429703521728515625e+01,3.243899536132812500e+01
8.719999790191650391e-01,2.000000000000000000e+00,-2.939492797851562500e+01,1.116419792175292969e+00,4.215246582031250000e+01,9.583277893066406250e+01,8.504402160644531250e+01,1.341818847656250000e+02,-6.604681491851806641e+00,-3.200114822387695312e+01,-1.840275268554687500e+02,3.633131027221679688e+01,2.431414794921875000e+01,3.243375015258789062e+01
8.759999871253967285e-01,2.000000000000000000e+00,-2.944762992858886719e+01,1.152195334434509277e+00,4.210797882080078125e+01,9.583917236328125000e+01,8.504181671142578125e+01,1.341743621826171875e+02,-6.654852867126464844e+00,-3.199557113647460938e+01,-1.840226135253906250e+02,3.633308410644531250e+01,2.433125686645507812e+01,3.242850875854492188e+01
8.799999952316284180e-01,2.000000000000000000e+00,-2.950031852722167969e+01,1.187963008880615234e+00,4.206350326538085938e+01,9.584557342529296875e+01,8.503962707519531250e+01,1.341668395996093750e+02,-6.705012798309326172e+00,-3.198999404907226562e+01,-1.840177154541015625e+02,3.633485412597656250e+01,2.434836196899414062e+01,3.242326354980468750e+01
8.840000033378601074e-01,2.000000000000000000e+00,-2.955299568176269531e+01,1.223722696304321289e+00,4.201903533935546875e+01,9.585196685791015625e+01,8.503743743896484375e+01,1.341593322753906250e+02,-6.755161762237548828e+00,-3.198441696166992188e+01,-1.840128173828125000e+02,3.633662796020507812e+01,2.436546134948730469e+01,3.241802215576171875e+01
8.880000114440917969e-01,2.000000000000000000e+00,-2.960566329956054688e+01,1.259474754333496094e+00,4.197457885742187500e+01,9.585836029052734375e+01,8.503524017333984375e+01,1.341518096923828125e+02,-6.805300235748291016e+00,-3.197884368896484375e+01,-1.840079040527343750e+02,3.633839797973632812e+01,2.438255882263183594e+01,3.241278076171875000e+01
8.920000195503234863e-01,2.000000000000000000e+00,-2.965831756591796875e+01,1.295218825340270996e+00,4.193013381958007812e+01,9.586475372314453125e+01,8.503305053710937500e+01,1.341443023681640625e+02,-6.855427265167236328e+00,-3.197327041625976562e+01,-1.840030212402343750e+02,3.634017181396484375e+01,2.439965057373046875e+01,3.240753936767578125e+01
8.960000276565551758e-01,2.000000000000000000e+00,-2.971096038818359375e+01,1.330955147743225098e+00,4.188569641113281250e+01,9.587113952636718750e+01,8.503085327148437500e+01,1.341367950439453125e+02,-6.905543327331542969e+00,-3.196769714355468750e+01,-1.839981079101562500e+02,3.634194183349609375e+01,2.441674041748046875e+01,3.240230178833007812e+01
8.999999761581420898e-01,2.000000000000000000e+00,-2.976359176635742188e+01,1.366683483123779297e+00,4.184126281738281250e+01,9.587753295898437500e+01,8.502866363525390625e+01,1.341292724609375000e+02,-6.955648422241210938e+00,-3.196212577819824219e+01,-1.839932250976562500e+02,3.634371185302734375e+01,2.443382644653320312e+01,3.239706420898437500e+01
9.039999842643737793e-01,2.000000000000000000e+00,-2.981621360778808594e+01,1.402404069900512695e+00,4.179684829711914062e+01,9.588391876220703125e+01,8.502647399902343750e+01,1.341217651367187500e+02,-7.005742549896240234e+00,-3.195655632019042969e+01,-1.839883117675781250e+02,3.634548187255859375e+01,2.445090866088867188e+01,3.239182281494140625e+01
9.079999923706054688e-01,2.000000000000000000e+00,-2.986882019042968750e+01,1.438116908073425293e+00,4.175244140625000000e+01,9.589030456542968750e+01,8.502427673339843750e+01,1.341142425537109375e+02,-7.055825233459472656e+00,-3.195099067687988281e+01,-1.839834289550781250e+02,3.634725570678710938e+01,2.446798706054687500e+01,3.238658905029296875e+01
9.120000004768371582e-01,2.000000000000000000e+00,-2.992141914367675781e+01,1.473821878433227539e+00,4.170804214477539062e+01,9.589668273925781250e+01,8.502208709716796875e+01,1.341067504882812500e+02,-7.105897903442382812e+00,-3.194542312622070312e+01,-1.839785308837890625e+02,3.634902572631835938e+01,2.448505973815917969e+01,3.238135528564453125e+01
9.160000085830688477e-01,2.000000000000000000e+00,-2.997400283813476562e+01,1.509518980979919434e+00,4.166365051269531250e+01,9.590306854248046875e+01,8.501989746093750000e+01,1.340992431640625000e+02,-7.155959129333496094e+00,-3.193985748291015625e+01,-1.839736328125000000e+02,3.635079193115234375e+01,2.450213050842285156e+01,3.237612152099609375e+01
9.200000166893005371e-01,2.000000000000000000e+00,-3.002657699584960938e+01,1.545208334922790527e+00,4.161927413940429688e+01,9.590944671630859375e+01,8.501770782470703125e+01,1.340917358398437500e+02,-7.206009387969970703e+00,-3.193429374694824219e+01,-1.839687500000000000e+02,3.635256195068359375e+01,2.451919746398925781e+01,3.237088775634765625e+01
9.240000247955322266e-01,2.000000000000000000e+00,-3.007913970947265625e+01,1.580889940261840820e+00,4.157490539550781250e+01,9.591582489013671875e+01,8.501551818847656250e+01,1.340842437744140625e+02,-7.256049156188964844e+00,-3.192873001098632812e+01,-1.839638519287109375e+02,3.635433197021484375e+01,2.453626060485839844e+01,3.236565780639648438e+01
9.279999732971191406e-01,2.000000000000000000e+00,-3.013169097900390625e+01,1.616563558578491211e+00,4.153054428100585938e+01,9.592221069335937500e+01,8.501332855224609375e+01,1.340767364501953125e+02,-7.306076526641845703e+00,-3.192316818237304688e+01,-1.839589691162109375e+02,3.635610198974609375e+01,2.455332183837890625e+01,3.236042785644531250e+01
9.319999814033508301e-01,2.000000000000000000e+00,-3.018423271179199219e+01,1.652229428291320801e+00,4.148619461059570312e+01,9.592858886718750000e+01,8.501114654541015625e+01,1.340692443847656250e+02,-7.356094360351562500e+00,-3.191760826110839844e+01,-1.839540710449218750e+02,3.635786819458007812e+01,2.457037544250488281e+01,3.235520172119140625e+01
9.359999895095825195e-01,2.000000000000000000e+00,-3.023675918579101562e+01,1.687887430191040039e+00,4.144185256958007812e+01,9.593496704101562500e+01,8.500894927978515625e+01,1.340617370605468750e+02,-7.406100749969482422e+00,-3.191204833984375000e+01,-1.839491882324218750e+02,3.635963439941406250e+01,2.458742713928222656e+01,3.234997177124023438e+01
9.399999976158142090e-01,2.000000000000000000e+00,-3.028927421569824219e+01,1.723537802696228027e+00,4.139752578735351562e+01,9.594133758544921875e+01,8.500676727294921875e+01,1.340542602539062500e+02,-7.456095695495605469e+00,-3.190648841857910156e+01,-1.839443054199218750e+02,3.636140441894531250e+01,2.460447692871093750e+01,3.234474182128906250e+01
9.440000057220458984e-01,2.000000000000000000e+00,-3.034177970886230469e+01,1.759180188179016113e+00,4.135320281982421875e+01,9.594770812988281250e+01,8.500457763671875000e+01,1.340467529296875000e+02,-7.506081104278564453e+00,-3.190093231201171875e+01,-1.839394073486328125e+02,3.636317062377929688e+01,2.462152099609375000e+01,3.233951950073242188e+01
9.480000138282775879e-01,2.000000000000000000e+00,-3.039427375793457031e+01,1.794814944267272949e+00,4.130889129638671875e+01,9.595408630371093750e+01,8.500239562988281250e+01,1.340392608642578125e+02,-7.556054115295410156e+00,-3.189537620544433594e+01,-1.839345397949218750e+02,3.636493682861328125e+01,2.463856124877929688e+01,3.233429336547851562e+01
9.520000219345092773e-01,2.000000000000000000e+00,-3.044675445556640625e+01,1.830441594123840332e+00,4.126458740234375000e+01,9.596044921875000000e+01,8.500020599365234375e+01,1.340317687988281250e+02,-7.606016635894775391e+00,-3.188982200622558594e+01,-1.839296417236328125e+02,3.636669921875000000e+01,2.465559768676757812e+01,3.232907104492187500e+01
9.559999704360961914e-01,2.000000000000000000e+00,-3.049922561645507812e+01,1.866060853004455566e+00,4.122029876708984375e+01,9.596681976318359375e+01,8.499802398681640625e+01,1.340242767333984375e+02,-7.655968666076660156e+00,-3.188426589965820312e+01,-1.839247741699218750e+02,3.636846542358398438e+01,2.467263221740722656e+01,3.232384872436523438e+01
9.599999785423278809e-01,2.000000000000000000e+00,-3.055168151855468750e+01,1.901672005653381348e+00,4.117601776123046875e+01,9.597319030761718750e+01,8.499583435058593750e+01,1.340167999267578125e+02,-7.705909252166748047e+00,-3.187871551513671875e+01,-1.839198760986328125e+02,3.637023162841796875e+01,2.468966293334960938e+01,3.231863021850585938e+01
9.639999866485595703e-01,2.000000000000000000e+00,-3.060413169860839844e+01,1.937275648117065430e+00,4.113174438476562500e+01,9.597955322265625000e+01,8.499365234375000000e+01,1.340093078613281250e+02,-7.755839347839355469e+00,-3.187316322326660156e+01,-1.839150085449218750e+02,3.637199783325195312e+01,2.470668792724609375e+01,3.231341171264648438e+01
9.679999947547912598e-01,2.000000000000000000e+00,-3.065656661987304688e+01,1.972871184349060059e+00,4.108748245239257812e+01,9.598591613769531250e+01,8.499147033691406250e+01,1.340018310546875000e+02,-7.805757999420166016e+00,-3.186761474609375000e+01,-1.839101257324218750e+02,3.637376022338867188e+01,2.472371101379394531e+01,3.230819320678710938e+01
9.720000028610229492e-01,2.000000000000000000e+00,-3.070899200439453125e+01,2.008459091186523438e+00,4.104322814941406250e+01,9.599228668212890625e+01,8.498928833007812500e+01,1.339943542480468750e+02,-7.855666160583496094e+00,-3.186206436157226562e+01,-1.839052429199218750e+02,3.637552642822265625e+01,2.474072837829589844e+01,3.230297470092773438e+01
9.760000109672546387e-01,2.000000000000000000e+00,-3.076140403747558594e+01,2.044039249420166016e+00,4.099898529052734375e+01,9.599864196777343750e+01,8.498709869384765625e+01,1.339868621826171875e+02,-7.905563354492187500e+00,-3.185651779174804688e+01,-1.839003753662109375e+02,3.637728881835937500e+01,2.475774383544921875e+01,3.229775619506835938e+01
9.800000190734863281e-01,2.000000000000000000e+00,-3.081380844116210938e+01,2.079611539840698242e+00,4.095475006103515625e+01,9.600501251220703125e+01,8.498492431640625000e+01,1.339794006347656250e+02,-7.955450057983398438e+00,-3.185097312927246094e+01,-1.838954925537109375e+02,3.637905120849609375e+01,2.477475357055664062e+01,3.229254150390625000e+01
9.840000271797180176e-01,2.000000000000000000e+00,-3.086619567871093750e+01,2.115176200866699219e+00,4.091053009033203125e+01,9.601136779785156250e+01,8.498273468017578125e+01,1.339719085693359375e+02,-8.005325317382812500e+00,-3.184542655944824219e+01,-1.838906250000000000e+02,3.638081359863281250e+01,2.479176139831542969e+01,3.228733062744140625e+01
9.879999756813049316e-01,2.000000000000000000e+00,-3.091857719421386719e+01,2.150732994079589844e+00,4.086631393432617188e+01,9.601773071289062500e+01,8.498056030273437500e+01,1.339644317626953125e+02,-8.055190086364746094e+00,-3.183988380432128906e+01,-1.838857421875000000e+02,3.638257598876953125e+01,2.480876541137695312e+01,3.228211593627929688e+01
9.919999837875366211e-01,2.000000000000000000e+00,-3.097094345092773438e+01,2.186281919479370117e+00,4.082210922241210938e+01,9.602407836914062500e+01,8.497837066650390625e+01,1.339569702148437500e+02,-8.105043411254882812e+00,-3.183434104919433594e+01,-1.838808746337890625e+02,3.638433837890625000e+01,2.482576370239257812e+01,3.227690124511718750e+01
9.959999918937683105e-01,2.000000000000000000e+00,-3.102329635620117188e+01,2.221823215484619141e+00,4.077791213989257812e+01,9.603044128417968750e+01,8.497619628906250000e+01,1.339494934082031250e+02,-8.154885292053222656e+00,-3.182879829406738281e+01,-1.838760070800781250e+02,3.638610076904296875e+01,2.484276008605957031e+01,3.227169036865234375e+01
1.000000000000000000e+00,2.000000000000000000e+00,-3.107564353942871094e+01,2.257356643676757812e+00,4.073373031616210938e+01,9.603678894042968750e+01,8.497401428222656250e+01,1.339420166015625000e+02,-8.204716682434082031e+00,-3.182325935363769531e+01,-1.838711242675781250e+02,3.638786315917968750e+01,2.485975265502929688e+01,3.226648330688476562e+01
1.003999948501586914e+00,2.000000000000000000e+00,-3.112797546386718750e+01,2.292882442474365234e+00,4.068955230712890625e+01,9.604314422607421875e+01,8.497183990478515625e+01,1.339345397949218750e+02,-8.254538536071777344e+00,-3.181771850585937500e+01,-1.838662567138671875e+02,3.638962173461914062e+01,2.487674140930175781e+01,3.226127624511718750e+01
1.008000016212463379e+00,2.000000000000000000e+00,-3.118029594421386719e+01,2.328400373458862305e+00,4.064538574218750000e+01,9.604949188232421875e+01,8.496965789794921875e+01,1.339270935058593750e+02,-8.304347991943359375e+00,-3.181218338012695312e+01,-1.838614044189453125e+02,3.639138412475585938e+01,2.489372634887695312e+01,3.225606918334960938e+01
1.011999964714050293e+00,2.000000000000000000e+00,-3.123260879516601562e+01,2.363910675048828125e+00,4.060123062133789062e+01,9.605583953857421875e+01,8.496747589111328125e+01,1.339196166992187500e+02,-8.354146957397460938e+00,-3.180664443969726562e+01,-1.838565216064453125e+02,3.639314270019531250e+01,2.491070747375488281e+01,3.225086212158203125e+01
1.016000032424926758e+00,2.000000000000000000e+00,-3.128490638732910156e+01,2.399413108825683594e+00,4.055708312988281250e+01,9.606219482421875000e+01,8.496530151367187500e+01,1.339121551513671875e+02,-8.403934478759765625e+00,-3.180110931396484375e+01,-1.838516540527343750e+02,3.639490127563476562e+01,2.492768669128417969e+01,3.224565887451171875e+01
1.019999980926513672e+00,2.000000000000000000e+00,-3.133719253540039062e+01,2.434907913208007812e+00,4.051294708251953125e+01,9.606853485107421875e+01,8.496311950683593750e+01,1.339046936035156250e+02,-8.453712463378906250e+00,-3.179557609558105469e+01,-1.838468017578125000e+02,3.639666366577148438e+01,2.494465827941894531e+01,3.224045181274414062e+01
1.024000048637390137e+00,2.000000000000000000e+00,-3.138946914672851562e+01,2.470394611358642578e+00,4.046881866455078125e+01,9.607488250732421875e+01,8.496094512939453125e+01,1.338972320556640625e+02,-8.503479003906250000e+00,-3.179004287719726562e+01,-1.838419342041015625e+02,3.639842224121093750e+01,2.496162986755371094e+01,3.223524856567382812e+01
1.026999950408935547e+00,2.000000000000000000e+00,-3.144173431396484375e+01,2.505873918533325195e+00,4.042470169067382812e+01,9.608123016357421875e+01,8.495876312255859375e+01,1.338897705078125000e+02,-8.553234100341796875e+00,-3.178451156616210938e+01,-1.838370666503906250e+02,3.640018081665039062e+01,2.497859573364257812e+01,3.223004913330078125e+01
1.031999945640563965e+00,2.000000000000000000e+00,-3.149398612976074219e+01,2.541345357894897461e+00,4.038059234619140625e+01,9.608757019042968750e+01,8.495658874511718750e+01,1.338823089599609375e+02,-8.602979660034179688e+00,-3.177898216247558594e+01,-1.838322143554687500e+02,3.640193939208984375e+01,2.499555969238281250e+01,3.222484970092773438e+01
1.036000013351440430e+00,2.000000000000000000e+00,-3.154622650146484375e+01,2.576809167861938477e+00,4.033649444580078125e+01,9.609391021728515625e+01,8.495441436767578125e+01,1.338748626708984375e+02,-8.652713775634765625e+00,-3.177345275878906250e+01,-1.838273468017578125e+02,3.640369796752929688e+01,2.501251792907714844e+01,3.221965026855468750e+01
1.039999961853027344e+00,2.000000000000000000e+00,-3.159845733642578125e+01,2.612265110015869141e+00,4.029240798950195312e+01,9.610025024414062500e+01,8.495223999023437500e+01,1.338674011230468750e+02,-8.702436447143554688e+00,-3.176792335510253906e+01,-1.838224792480468750e+02,3.640545654296875000e+01,2.502947235107421875e+01,3.221445083618164062e+01
1.044000029563903809e+00,2.000000000000000000e+00,-3.165067672729492188e+01,2.647713184356689453e+00,4.024832534790039062e+01,9.610659027099609375e+01,8.495006561279296875e+01,1.338599548339843750e+02,-8.752148628234863281e+00,-3.176239585876464844e+01,-1.838176116943359375e+02,3.640721130371093750e+01,2.504642486572265625e+01,3.220925140380859375e+01
1.047999978065490723e+00,2.000000000000000000e+00,-3.170288276672363281e+01,2.683153867721557617e+00,4.020425796508789062e+01,9.611293029785156250e+01,8.494789123535156250e+01,1.338525085449218750e+02,-8.801849365234375000e+00,-3.175686836242675781e+01,-1.838127746582031250e+02,3.640896987915039062e+01,2.506337356567382812e+01,3.220405960083007812e+01
1.052000045776367188e+00,2.000000000000000000e+00,-3.175507926940917969e+01,2.718586444854736328e+00,4.016019439697265625e+01,9.611926269531250000e+01,8.494571685791015625e+01,1.338450622558593750e+02,-8.851540565490722656e+00,-3.175134658813476562e+01,-1.838079071044921875e+02,3.641072463989257812e+01,2.508031654357910156e+01,3.219886398315429688e+01
1.054999947547912598e+00,2.000000000000000000e+00,-3.180726623535156250e+01,2.754011631011962891e+00,4.011614608764648438e+01,9.612559509277343750e+01,8.494354248046875000e+01,1.338376007080078125e+02,-8.901219367980957031e+00,-3.174582099914550781e+01,-1.838030548095703125e+02,3.641247940063476562e+01,2.509725761413574219e+01,3.219366836547851562e+01
1.059999942779541016e+00,2.000000000000000000e+00,-3.185943794250488281e+01,2.789428949356079102e+00,4.007210540771484375e+01,9.613192749023437500e+01,8.494136810302734375e+01,1.338301544189453125e+02,-8.950888633728027344e+00,-3.174030303955078125e+01,-1.837981872558593750e+02,3.641423416137695312e+01,2.511419486999511719e+01,3.218848037719726562e+01
1.064000010490417480e+00,2.000000000000000000e+00,-3.191160011291503906e+01,2.824838638305664062e+00,4.002807617187500000e+01,9.613825988769531250e+01,8.493919372558593750e+01,1.338227081298828125e+02,-9.000546455383300781e+00,-3.173478126525878906e+01,-1.837933502197265625e+02,3.641598892211914062e+01,2.513112831115722656e+01,3.218328475952148438e+01
1.067999958992004395e+00,2.000000000000000000e+00,-3.196374893188476562e+01,2.860240459442138672e+00,3.998405075073242188e+01,9.614459228515625000e+01,8.493702697753906250e+01,1.338152770996093750e+02,-9.050193786621093750e+00,-3.172926139831542969e+01,-1.837884979248046875e+02,3.641774749755859375e+01,2.514805603027343750e+01,3.217809677124023438e+01
1.072000026702880859e+00,2.000000000000000000e+00,-3.201589202880859375e+01,2.895634651184082031e+00,3.994004058837890625e+01,9.615092468261718750e+01,8.493485260009765625e+01,1.338078308105468750e+02,-9.099830627441406250e+00,-3.172374343872070312e+01,-1.837836456298828125e+02,3.641950225830078125e+01,2.516498184204101562e+01,3.217290496826171875e+01
1.075999975204467773e+00,2.000000000000000000e+00,-3.206801605224609375e+01,2.931020975112915039e+00,3.989603805541992188e+01,9.615724945068359375e+01,8.493267822265625000e+01,1.338003845214843750e+02,-9.149455070495605469e+00,-3.171822357177734375e+01,-1.837787933349609375e+02,3.642125320434570312e+01,2.518190574645996094e+01,3.216771697998046875e+01
1.080000042915344238e+00,2.000000000000000000e+00,-3.212013244628906250e+01,2.966399908065795898e+00,3.985204315185546875e+01,9.616357421875000000e+01,8.493051147460937500e+01,1.337929534912109375e+02,-9.199070930480957031e+00,-3.171270942687988281e+01,-1.837739410400390625e+02,3.642300796508789062e+01,2.519882392883300781e+01,3.216253280639648438e+01
1.083999991416931152e+00,2.000000000000000000e+00,-3.217223739624023438e+01,3.001770734786987305e+00,3.980805969238281250e+01,9.616989898681640625e+01,8.492834472656250000e+01,1.337855072021484375e+02,-9.248673439025878906e+00,-3.170719337463378906e+01,-1.837691040039062500e+02,3.642475891113281250e+01,2.521573638916015625e+01,3.215734863281250000e+01
1.088000059127807617e+00,2.000000000000000000e+00,-3.222433090209960938e+01,3.037134170532226562e+00,3.976408767700195312e+01,9.617622375488281250e+01,8.492617034912109375e+01,1.337780761718750000e+02,-9.298267364501953125e+00,-3.170168113708496094e+01,-1.837642517089843750e+02,3.642651748657226562e+01,2.523264884948730469e+01,3.215216445922851562e+01
1.090999960899353027e+00,2.000000000000000000e+00,-3.227641296386718750e+01,3.072489738464355469e+00,3.972012329101562500e+01,9.618254852294921875e+01,8.492400360107421875e+01,1.337706451416015625e+02,-9.347848892211914062e+00,-3.169616889953613281e+01,-1.837593994140625000e+02,3.642826843261718750e+01,2.524955749511718750e+01,3.214698028564453125e+01
1.095999956130981445e+00,2.000000000000000000e+00,-3.232848358154296875e+01,3.107837677001953125e+00,3.967617034912109375e+01,9.618886566162109375e+01,8.492182922363281250e+01,1.337632141113281250e+02,-9.397420883178710938e+00,-3.169065666198730469e+01,-1.837545471191406250e+02,3.643001937866210938e+01,2.526646041870117188e+01,3.214179992675781250e+01
1.100000023841857910e+00,2.000000000000000000e+00,-3.238054275512695312e+01,3.143177747726440430e+00,3.963222503662109375e+01,9.619518280029296875e+01,8.491967010498046875e+01,1.337557830810546875e+02,-9.446981430053710938e+00,-3.168514633178710938e+01,-1.837497100830078125e+02,3.643177032470703125e+01,2.528335952758789062e+01,3.213661575317382812e+01
1.103999972343444824e+00,2.000000000000000000e+00,-3.243259429931640625e+01,3.178510427474975586e+00,3.958828735351562500e+01,9.620149993896484375e+01,8.491749572753906250e+01,1.337483520507812500e+02,-9.496531486511230469e+00,-3.167963600158691406e+01,-1.837448577880859375e+02,3.643352508544921875e+01,2.530025482177734375e+01,3.213143539428710938e+01
1.108000040054321289e+00,2.000000000000000000e+00,-3.248463058471679688e+01,3.213835239410400391e+00,3.954436111450195312e+01,9.620781707763671875e+01,8.491532897949218750e+01,1.337409362792968750e+02,-9.546070098876953125e+00,-3.167412757873535156e+01,-1.837400207519531250e+02,3.643527221679687500e+01,2.531714820861816406e+01,3.212625503540039062e+01
1.111999988555908203e+00,2.000000000000000000e+00,-3.253665542602539062e+01,3.249152183532714844e+00,3.950044631958007812e+01,9.621412658691406250e+01,8.491316223144531250e+01,1.337335052490234375e+02,-9.595599174499511719e+00,-3.166862297058105469e+01,-1.837351837158203125e+02,3.643702316284179688e+01,2.533403778076171875e+01,3.212107849121093750e+01
1.116000056266784668e+00,2.000000000000000000e+00,-3.258866882324218750e+01,3.284461736679077148e+00,3.945653915405273438e+01,9.622045135498046875e+01,8.491100311279296875e+01,1.337260894775390625e+02,-9.645115852355957031e+00,-3.166311836242675781e+01,-1.837303466796875000e+02,3.643877410888671875e+01,2.535092163085937500e+01,3.211590194702148438e+01
