rpiRobotics/ARM-21-02-F-19-Robot-Motion-Program/data_performance_abb/curve_1/dual_arm/diffevo_pose3/grad_result/real_from_sim/sim_result/dual_iteration_0.csv
timestamp,cmd_num,J1,J2,J3,J4,J5,J6,J1_2,J2_2,J3_2,J4_2,J5_2,J6_2
0.000000000000000000e+00,-1.000000000000000000e+00,-1.945952224731445312e+01,-5.905121803283691406e+00,5.036112213134765625e+01,9.427388763427734375e+01,8.498884582519531250e+01,1.363905944824218750e+02,2.854487657546997070e+00,-3.311227035522460938e+01,-1.848427124023437500e+02,3.615838241577148438e+01,2.109020614624023438e+01,3.327513122558593750e+01
2.000000094994902611e-03,-1.000000000000000000e+00,-1.945952224731445312e+01,-5.905121803283691406e+00,5.036112213134765625e+01,9.427388763427734375e+01,8.498884582519531250e+01,1.363905944824218750e+02,2.854487657546997070e+00,-3.311227035522460938e+01,-1.848427124023437500e+02,3.615838241577148438e+01,2.109020614624023438e+01,3.327513122558593750e+01
4.000000189989805222e-03,-1.000000000000000000e+00,-1.945952224731445312e+01,-5.905121803283691406e+00,5.036112213134765625e+01,9.427388763427734375e+01,8.498884582519531250e+01,1.363905944824218750e+02,2.854487657546997070e+00,-3.311227035522460938e+01,-1.848427124023437500e+02,3.615838241577148438e+01,2.109020614624023438e+01,3.327513122558593750e+01
9.999999776482582092e-03,-1.000000000000000000e+00,-1.945952224731445312e+01,-5.905121803283691406e+00,5.036112213134765625e+01,9.427388763427734375e+01,8.498884582519531250e+01,1.363905944824218750e+02,2.854487657546997070e+00,-3.311227035522460938e+01,-1.848427124023437500e+02,3.615838241577148438e+01,2.109020614624023438e+01,3.327513122558593750e+01
1.200000010430812836e-02,-1.000000000000000000e+00,-1.945952224731445312e+01,-5.905121803283691406e+00,5.036112213134765625e+01,9.427388763427734375e+01,8.498884582519531250e+01,1.363905944824218750e+02,2.854487657546997070e+00,-3.311227035522460938e+01,-1.848427124023437500e+02,3.615838241577148438e+01,2.109020614624023438e+01,3.327513122558593750e+01
1.600000075995922089e-02,-1.000000000000000000e+00,-1.945952224731445312e+01,-5.905121803283691406e+00,5.036112213134765625e+01,9.427388763427734375e+01,8.498884582519531250e+01,1.363905944824218750e+02,2.854487657546997070e+00,-3.311227035522460938e+01,-1.848427124023437500e+02,3.615838241577148438e+01,2.109020614624023438e+01,3.327513122558593750e+01
1.999999955296516418e-02,-1.000000000000000000e+00,-1.945952224731445312e+01,-5.905121803283691406e+00,5.036112213134765625e+01,9.427388763427734375e+01,8.498884582519531250e+01,1.363905944824218750e+02,2.854487657546997070e+00,-3.311227035522460938e+01,-1.848427124023437500e+02,3.615838241577148438e+01,2.109020614624023438e+01,3.327513122558593750e+01
2.400000020861625671e-02,-1.000000000000000000e+00,-1.945952224731445312e+01,-5.905121803283691406e+00,5.036112213134765625e+01,9.427388763427734375e+01,8.498884582519531250e+01,1.363905944824218750e+02,2.854487657546997070e+00,-3.311227035522460938e+01,-1.848427124023437500e+02,3.615838241577148438e+01,2.109020614624023438e+01,3.327513122558593750e+01
2.899999916553497314e-02,2.000000000000000000e+00,-1.945952224731445312e+01,-5.905121803283691406e+00,5.036112213134765625e+01,9.427388763427734375e+01,8.498884582519531250e+01,1.363905944824218750e+02,2.854487657546997070e+00,-3.311227035522460938e+01,-1.848427124023437500e+02,3.615838241577148438e+01,2.109020614624023438e+01,3.327513122558593750e+01
3.500000014901161194e-02,2.000000000000000000e+00,-1.945952224731445312e+01,-5.905121803283691406e+00,5.036112213134765625e+01,9.427388763427734375e+01,8.498884582519531250e+01,1.363905944824218750e+02,2.854487657546997070e+00,-3.311227035522460938e+01,-1.848427124023437500e+02,3.615838241577148438e+01,2.109020614624023438e+01,3.327513122558593750e+01
3.900000080466270447e-02,2.000000000000000000e+00,-1.945952224731445312e+01,-5.905121803283691406e+00,5.036112213134765625e+01,9.427388763427734375e+01,8.498884582519531250e+01,1.363905944824218750e+02,2.854487657546997070e+00,-3.311227035522460938e+01,-1.848427124023437500e+02,3.615838241577148438e+01,2.109020614624023438e+01,3.327513122558593750e+01
4.100000113248825073e-02,2.000000000000000000e+00,-1.945952224731445312e+01,-5.905121803283691406e+00,5.036112213134765625e+01,9.427388763427734375e+01,8.498884582519531250e+01,1.363905944824218750e+02,2.854487657546997070e+00,-3.311227035522460938e+01,-1.848427124023437500e+02,3.615838241577148438e+01,2.109020614624023438e+01,3.327513122558593750e+01
4.600000008940696716e-02,2.000000000000000000e+00,-1.945952224731445312e+01,-5.905121803283691406e+00,5.036112213134765625e+01,9.427388763427734375e+01,8.498884582519531250e+01,1.363905944824218750e+02,2.854487657546997070e+00,-3.311227035522460938e+01,-1.848427124023437500e+02,3.615838241577148438e+01,2.109020614624023438e+01,3.327513122558593750e+01
4.800000041723251343e-02,2.000000000000000000e+00,-1.945952224731445312e+01,-5.905121803283691406e+00,5.036112213134765625e+01,9.427388763427734375e+01,8.498884582519531250e+01,1.363905944824218750e+02,2.854487657546997070e+00,-3.311227035522460938e+01,-1.848427124023437500e+02,3.615838241577148438e+01,2.109020614624023438e+01,3.327513122558593750e+01
5.200000107288360596e-02,2.000000000000000000e+00,-1.945952224731445312e+01,-5.905121803283691406e+00,5.036112213134765625e+01,9.427388763427734375e+01,8.498884582519531250e+01,1.363905944824218750e+02,2.854487657546997070e+00,-3.311227035522460938e+01,-1.848427124023437500e+02,3.615838241577148438e+01,2.109020614624023438e+01,3.327513122558593750e+01
5.600000172853469849e-02,2.000000000000000000e+00,-1.945952224731445312e+01,-5.905121803283691406e+00,5.036112213134765625e+01,9.427388763427734375e+01,8.498884582519531250e+01,1.363905944824218750e+02,2.854487657546997070e+00,-3.311227035522460938e+01,-1.848427124023437500e+02,3.615838241577148438e+01,2.109020614624023438e+01,3.327513122558593750e+01
5.999999865889549255e-02,2.000000000000000000e+00,-1.945952224731445312e+01,-5.905121803283691406e+00,5.036112213134765625e+01,9.427388763427734375e+01,8.498884582519531250e+01,1.363905944824218750e+02,2.854487657546997070e+00,-3.311227035522460938e+01,-1.848427124023437500e+02,3.615838241577148438e+01,2.109020614624023438e+01,3.327513122558593750e+01
6.400000303983688354e-02,2.000000000000000000e+00,-1.945952224731445312e+01,-5.905121803283691406e+00,5.036112213134765625e+01,9.427388763427734375e+01,8.498884582519531250e+01,1.363905944824218750e+02,2.854487657546997070e+00,-3.311227035522460938e+01,-1.848427124023437500e+02,3.615838241577148438e+01,2.109020614624023438e+01,3.327513122558593750e+01
6.800000369548797607e-02,2.000000000000000000e+00,-1.945952224731445312e+01,-5.905121803283691406e+00,5.036112213134765625e+01,9.427388763427734375e+01,8.498884582519531250e+01,1.363905944824218750e+02,2.854487657546997070e+00,-3.311227035522460938e+01,-1.848427124023437500e+02,3.615838241577148438e+01,2.109020614624023438e+01,3.327513122558593750e+01
7.199999690055847168e-02,2.000000000000000000e+00,-1.945958900451660156e+01,-5.905096054077148438e+00,5.036111068725585938e+01,9.427388763427734375e+01,8.498884582519531250e+01,1.363905944824218750e+02,2.854487657546997070e+00,-3.311227035522460938e+01,-1.848427124023437500e+02,3.615838241577148438e+01,2.109020614624023438e+01,3.327513122558593750e+01
7.599999755620956421e-02,2.000000000000000000e+00,-1.945996856689453125e+01,-5.904938220977783203e+00,5.036101913452148438e+01,9.427388763427734375e+01,8.498883819580078125e+01,1.363905944824218750e+02,2.854487657546997070e+00,-3.311227035522460938e+01,-1.848427124023437500e+02,3.615838241577148438e+01,2.109020614624023438e+01,3.327513122558593750e+01
7.999999821186065674e-02,2.000000000000000000e+00,-1.946104812622070312e+01,-5.904447078704833984e+00,5.036074447631835938e+01,9.427389526367187500e+01,8.498880767822265625e+01,1.363905944824218750e+02,2.854487657546997070e+00,-3.311227035522460938e+01,-1.848427124023437500e+02,3.615838241577148438e+01,2.109020614624023438e+01,3.327513122558593750e+01
8.399999886751174927e-02,2.000000000000000000e+00,-1.946319198608398438e+01,-5.903388977050781250e+00,5.036012268066406250e+01,9.427392578125000000e+01,8.498876190185546875e+01,1.363905792236328125e+02,2.854460716247558594e+00,-3.311227035522460938e+01,-1.848427124023437500e+02,3.615838241577148438e+01,2.109020805358886719e+01,3.327513122558593750e+01
8.799999952316284180e-02,2.000000000000000000e+00,-1.946663093566894531e+01,-5.901564598083496094e+00,5.035899353027343750e+01,9.427398681640625000e+01,8.498867797851562500e+01,1.363905029296875000e+02,2.854284048080444336e+00,-3.311225891113281250e+01,-1.848426818847656250e+02,3.615838623046875000e+01,2.109022331237792969e+01,3.327513122558593750e+01
9.200000017881393433e-02,2.000000000000000000e+00,-1.947152137756347656e+01,-5.898804187774658203e+00,5.035717010498046875e+01,9.427411651611328125e+01,8.498855590820312500e+01,1.363903808593750000e+02,2.853700876235961914e+00,-3.311222457885742188e+01,-1.848425903320312500e+02,3.615839767456054688e+01,2.109028625488281250e+01,3.327511978149414062e+01
9.600000083446502686e-02,2.000000000000000000e+00,-1.947801017761230469e+01,-5.894950389862060547e+00,5.035444641113281250e+01,9.427435302734375000e+01,8.498838806152343750e+01,1.363901214599609375e+02,2.852362394332885742e+00,-3.311214447021484375e+01,-1.848424072265625000e+02,3.615842437744140625e+01,2.109044647216796875e+01,3.327509307861328125e+01
1.000000014901161194e-01,2.000000000000000000e+00,-1.948613166809082031e+01,-5.889903545379638672e+00,5.035059738159179688e+01,9.427472686767578125e+01,8.498816680908203125e+01,1.363896789550781250e+02,2.849888086318969727e+00,-3.311197280883789062e+01,-1.848420562744140625e+02,3.615847778320312500e+01,2.109080123901367188e+01,3.327502059936523438e+01
1.040000021457672119e-01,2.000000000000000000e+00,-1.949580383300781250e+01,-5.883639335632324219e+00,5.034542465209960938e+01,9.427530670166015625e+01,8.498789215087890625e+01,1.363889923095703125e+02,2.845855951309204102e+00,-3.311167144775390625e+01,-1.848415069580078125e+02,3.615858078002929688e+01,2.109148025512695312e+01,3.327485656738281250e+01
1.080000028014183044e-01,2.000000000000000000e+00,-1.950704765319824219e+01,-5.876124382019042969e+00,5.033869552612304688e+01,9.427613067626953125e+01,8.498757934570312500e+01,1.363879852294921875e+02,2.839800596237182617e+00,-3.311118698120117188e+01,-1.848407287597656250e+02,3.615875244140625000e+01,2.109266281127929688e+01,3.327454376220703125e+01
1.120000034570693970e-01,2.000000000000000000e+00,-1.952012062072753906e+01,-5.867222309112548828e+00,5.033014297485351562e+01,9.427728271484375000e+01,8.498722076416015625e+01,1.363865509033203125e+02,2.831335783004760742e+00,-3.311045074462890625e+01,-1.848396759033203125e+02,3.615902328491210938e+01,2.109455490112304688e+01,3.327400970458984375e+01
1.159999966621398926e-01,2.000000000000000000e+00,-1.953544425964355469e+01,-5.856700420379638672e+00,5.031945037841796875e+01,9.427879333496093750e+01,8.498680114746093750e+01,1.363846588134765625e+02,2.820240736007690430e+00,-3.310940933227539062e+01,-1.848383789062500000e+02,3.615941238403320312e+01,2.109737396240234375e+01,3.327317428588867188e+01
1.199999973177909851e-01,2.000000000000000000e+00,-1.955338287353515625e+01,-5.844350337982177734e+00,5.030632019042968750e+01,9.428073120117187500e+01,8.498632049560546875e+01,1.363822326660156250e+02,2.806360721588134766e+00,-3.310802078247070312e+01,-1.848368377685546875e+02,3.615995025634765625e+01,2.110132598876953125e+01,3.327195358276367188e+01
1.239999979734420776e-01,2.000000000000000000e+00,-1.957409095764160156e+01,-5.830094814300537109e+00,5.029056549072265625e+01,9.428312683105468750e+01,8.498576354980468750e+01,1.363791961669921875e+02,2.789463043212890625e+00,-3.310622787475585938e+01,-1.848350524902343750e+02,3.616065597534179688e+01,2.110659599304199219e+01,3.327027893066406250e+01
1.280000060796737671e-01,2.000000000000000000e+00,-1.959754180908203125e+01,-5.813978672027587891e+00,5.027207565307617188e+01,9.428601837158203125e+01,8.498514556884765625e+01,1.363755187988281250e+02,2.769264221191406250e+00,-3.310400009155273438e+01,-1.848330230712890625e+02,3.616155624389648438e+01,2.111330986022949219e+01,3.326810836791992188e+01
1.309999972581863403e-01,2.000000000000000000e+00,-1.962363052368164062e+01,-5.796085357666015625e+00,5.025079345703125000e+01,9.428943634033203125e+01,8.498448181152343750e+01,1.363711700439453125e+02,2.745570898056030273e+00,-3.310131835937500000e+01,-1.848307342529296875e+02,3.616264343261718750e+01,2.112153816223144531e+01,3.326542663574218750e+01
1.360000073909759521e-01,2.000000000000000000e+00,-1.965228462219238281e+01,-5.776470184326171875e+00,5.022673034667968750e+01,9.429338836669921875e+01,8.498376464843750000e+01,1.363661193847656250e+02,2.718301296234130859e+00,-3.309817504882812500e+01,-1.848281250000000000e+02,3.616393280029296875e+01,2.113127899169921875e+01,3.326222229003906250e+01
1.389999985694885254e-01,2.000000000000000000e+00,-1.968341445922851562e+01,-5.755188465118408203e+00,5.019992065429687500e+01,9.429785919189453125e+01,8.498299407958984375e+01,1.363603973388671875e+02,2.687425374984741211e+00,-3.309458160400390625e+01,-1.848252258300781250e+02,3.616540908813476562e+01,2.114248275756835938e+01,3.325852584838867188e+01
1.439999938011169434e-01,2.000000000000000000e+00,-1.971692657470703125e+01,-5.732291221618652344e+00,5.017047119140625000e+01,9.430284118652343750e+01,8.498217010498046875e+01,1.363540039062500000e+02,2.652998924255371094e+00,-3.309056091308593750e+01,-1.848220062255859375e+02,3.616706466674804688e+01,2.115505218505859375e+01,3.325437545776367188e+01
1.480000019073486328e-01,2.000000000000000000e+00,-1.975283241271972656e+01,-5.707746505737304688e+00,5.013851165771484375e+01,9.430828857421875000e+01,8.498130035400390625e+01,1.363470153808593750e+02,2.615248203277587891e+00,-3.308615875244140625e+01,-1.848184814453125000e+02,3.616887664794921875e+01,2.116884803771972656e+01,3.324981689453125000e+01
1.519999951124191284e-01,2.000000000000000000e+00,-1.979126167297363281e+01,-5.681435585021972656e+00,5.010414505004882812e+01,9.431415557861328125e+01,8.498036193847656250e+01,1.363394775390625000e+02,2.574575901031494141e+00,-3.308141708374023438e+01,-1.848146820068359375e+02,3.617083358764648438e+01,2.118371009826660156e+01,3.324490737915039062e+01
1.560000032186508179e-01,2.000000000000000000e+00,-1.983228492736816406e+01,-5.653287887573242188e+00,5.006754302978515625e+01,9.432038879394531250e+01,8.497935485839843750e+01,1.363314819335937500e+02,2.531430482864379883e+00,-3.307638931274414062e+01,-1.848106384277343750e+02,3.617290878295898438e+01,2.119946289062500000e+01,3.323970413208007812e+01
1.599999964237213135e-01,2.000000000000000000e+00,-1.987573242187500000e+01,-5.623397827148437500e+00,5.002894973754882812e+01,9.432692718505859375e+01,8.497828674316406250e+01,1.363230895996093750e+02,2.486185550689697266e+00,-3.307113265991210938e+01,-1.848064117431640625e+02,3.617507553100585938e+01,2.121593093872070312e+01,3.323426818847656250e+01
1.640000045299530029e-01,2.000000000000000000e+00,-1.992123985290527344e+01,-5.591989994049072266e+00,4.998868942260742188e+01,9.433372497558593750e+01,8.497715759277343750e+01,1.363143920898437500e+02,2.439149141311645508e+00,-3.306568908691406250e+01,-1.848019714355468750e+02,3.617731857299804688e+01,2.123295021057128906e+01,3.322866058349609375e+01
1.679999977350234985e-01,2.000000000000000000e+00,-1.996842193603515625e+01,-5.559297084808349609e+00,4.994705581665039062e+01,9.434072113037109375e+01,8.497598266601562500e+01,1.363054199218750000e+02,2.390629291534423828e+00,-3.306010818481445312e+01,-1.847973632812500000e+02,3.617961883544921875e+01,2.125036811828613281e+01,3.322293090820312500e+01
1.720000058412551880e-01,2.000000000000000000e+00,-2.001701354980468750e+01,-5.525503635406494141e+00,4.990430831909179688e+01,9.434787750244140625e+01,8.497476196289062500e+01,1.362962646484375000e+02,2.340952157974243164e+00,-3.305442428588867188e+01,-1.847926177978515625e+02,3.618194961547851562e+01,2.126805305480957031e+01,3.321712112426757812e+01
1.759999990463256836e-01,2.000000000000000000e+00,-2.006686592102050781e+01,-5.490764141082763672e+00,4.986068344116210938e+01,9.435514068603515625e+01,8.497349548339843750e+01,1.362869567871093750e+02,2.290412187576293945e+00,-3.304867172241210938e+01,-1.847877502441406250e+02,3.618431091308593750e+01,2.128590583801269531e+01,3.321127700805664062e+01
1.800000071525573730e-01,2.000000000000000000e+00,-2.011786079406738281e+01,-5.455228328704833984e+00,4.981636810302734375e+01,9.436249542236328125e+01,8.497220611572265625e+01,1.362775421142578125e+02,2.239247560501098633e+00,-3.304286956787109375e+01,-1.847827911376953125e+02,3.618668365478515625e+01,2.130385208129882812e+01,3.320540618896484375e+01
1.840000003576278687e-01,2.000000000000000000e+00,-2.016986465454101562e+01,-5.419038772583007812e+00,4.977153778076171875e+01,9.436989593505859375e+01,8.497087860107421875e+01,1.362680969238281250e+02,2.187677621841430664e+00,-3.303704833984375000e+01,-1.847777862548828125e+02,3.618906402587890625e+01,2.132184219360351562e+01,3.319952774047851562e+01
1.879999935626983643e-01,2.000000000000000000e+00,-2.022276496887207031e+01,-5.382312297821044922e+00,4.972633743286132812e+01,9.437733459472656250e+01,8.496953582763671875e+01,1.362586059570312500e+02,2.135904312133789062e+00,-3.303121185302734375e+01,-1.847727355957031250e+02,3.619144821166992188e+01,2.133985137939453125e+01,3.319364929199218750e+01
1.920000016689300537e-01,2.000000000000000000e+00,-2.027646446228027344e+01,-5.345156669616699219e+00,4.968085861206054688e+01,9.438478851318359375e+01,8.496816253662109375e+01,1.362490844726562500e+02,2.084069252014160156e+00,-3.302537155151367188e+01,-1.847676849365234375e+02,3.619383239746093750e+01,2.135786247253417969e+01,3.318777084350585938e+01
1.959999948740005493e-01,2.000000000000000000e+00,-2.033078193664550781e+01,-5.307706832885742188e+00,4.963521575927734375e+01,9.439224243164062500e+01,8.496678161621093750e+01,1.362395629882812500e+02,2.032234668731689453e+00,-3.301953125000000000e+01,-1.847626342773437500e+02,3.619622039794921875e+01,2.137586784362792969e+01,3.318189239501953125e+01
2.000000029802322388e-01,2.000000000000000000e+00,-2.038545036315917969e+01,-5.270106792449951172e+00,4.958949661254882812e+01,9.439970397949218750e+01,8.496539306640625000e+01,1.362300567626953125e+02,1.980411410331726074e+00,-3.301369094848632812e+01,-1.847575683593750000e+02,3.619860458374023438e+01,2.139387130737304688e+01,3.317601394653320312e+01
2.039999961853027344e-01,2.000000000000000000e+00,-2.044023513793945312e+01,-5.232463359832763672e+00,4.954375457763671875e+01,9.440716552734375000e+01,8.496400451660156250e+01,1.362205352783203125e+02,1.928600430488586426e+00,-3.300785446166992188e+01,-1.847525177001953125e+02,3.620098495483398438e+01,2.141186904907226562e+01,3.317014312744140625e+01
2.080000042915344238e-01,2.000000000000000000e+00,-2.049502754211425781e+01,-5.194821357727050781e+00,4.949802017211914062e+01,9.441461944580078125e+01,8.496261596679687500e+01,1.362110137939453125e+02,1.876801371574401855e+00,-3.300201797485351562e+01,-1.847474670410156250e+02,3.620336914062500000e+01,2.142986297607421875e+01,3.316426849365234375e+01
2.119999974966049194e-01,2.000000000000000000e+00,-2.054980850219726562e+01,-5.157186985015869141e+00,4.945229721069335938e+01,9.442207336425781250e+01,8.496121978759765625e+01,1.362015075683593750e+02,1.825014352798461914e+00,-3.299618530273437500e+01,-1.847424163818359375e+02,3.620574951171875000e+01,2.144785308837890625e+01,3.315839767456054688e+01
2.160000056028366089e-01,2.000000000000000000e+00,-2.060457611083984375e+01,-5.119562149047851562e+00,4.940658187866210938e+01,9.442952728271484375e+01,8.495983123779296875e+01,1.361919860839843750e+02,1.773239374160766602e+00,-3.299035263061523438e+01,-1.847373504638671875e+02,3.620813369750976562e+01,2.146583938598632812e+01,3.315252685546875000e+01
2.199999988079071045e-01,2.000000000000000000e+00,-2.065933227539062500e+01,-5.081944942474365234e+00,4.936088180541992188e+01,9.443697357177734375e+01,8.495844268798828125e+01,1.361824798583984375e+02,1.721476435661315918e+00,-3.298451995849609375e+01,-1.847322998046875000e+02,3.621051406860351562e+01,2.148381996154785156e+01,3.314665603637695312e+01
2.240000069141387939e-01,2.000000000000000000e+00,-2.071407127380371094e+01,-5.044337272644042969e+00,4.931518936157226562e+01,9.444442749023437500e+01,8.495705413818359375e+01,1.361729736328125000e+02,1.669725656509399414e+00,-3.297869110107421875e+01,-1.847272644042968750e+02,3.621289443969726562e+01,2.150179862976074219e+01,3.314078903198242188e+01
2.280000001192092896e-01,2.000000000000000000e+00,-2.076880264282226562e+01,-5.006738662719726562e+00,4.926950836181640625e+01,9.445188140869140625e+01,8.495566558837890625e+01,1.361634674072265625e+02,1.617987036705017090e+00,-3.297286224365234375e+01,-1.847222137451171875e+02,3.621527481079101562e+01,2.151977157592773438e+01,3.313492202758789062e+01
2.319999933242797852e-01,2.000000000000000000e+00,-2.082351875305175781e+01,-4.969148159027099609e+00,4.922383880615234375e+01,9.445932769775390625e+01,8.495427703857421875e+01,1.361539764404296875e+02,1.566260457038879395e+00,-3.296703720092773438e+01,-1.847171630859375000e+02,3.621765518188476562e+01,2.153774070739746094e+01,3.312905883789062500e+01
2.360000014305114746e-01,2.000000000000000000e+00,-2.087822341918945312e+01,-4.931567192077636719e+00,4.917818069458007812e+01,9.446676635742187500e+01,8.495288848876953125e+01,1.361444854736328125e+02,1.514546036720275879e+00,-3.296120452880859375e+01,-1.847121276855468750e+02,3.622003555297851562e+01,2.155570411682128906e+01,3.312319564819335938e+01
2.399999946355819702e-01,2.000000000000000000e+00,-2.093291473388671875e+01,-4.893994331359863281e+00,4.913253021240234375e+01,9.447421264648437500e+01,8.495149993896484375e+01,1.361349792480468750e+02,1.462843656539916992e+00,-3.295538330078125000e+01,-1.847070770263671875e+02,3.622241592407226562e+01,2.157366752624511719e+01,3.311733245849609375e+01
2.440000027418136597e-01,2.000000000000000000e+00,-2.098759460449218750e+01,-4.856431007385253906e+00,4.908689117431640625e+01,9.448165130615234375e+01,8.495011138916015625e+01,1.361254730224609375e+02,1.411153435707092285e+00,-3.294956207275390625e+01,-1.847020263671875000e+02,3.622479248046875000e+01,2.159162139892578125e+01,3.311146926879882812e+01
2.479999959468841553e-01,2.000000000000000000e+00,-2.104225921630859375e+01,-4.818875789642333984e+00,4.904126358032226562e+01,9.448909759521484375e+01,8.494872283935546875e+01,1.361159820556640625e+02,1.359475255012512207e+00,-3.294373703002929688e+01,-1.846969909667968750e+02,3.622716903686523438e+01,2.160957527160644531e+01,3.310561370849609375e+01
2.520000040531158447e-01,2.000000000000000000e+00,-2.109691238403320312e+01,-4.781329154968261719e+00,4.899564361572265625e+01,9.449653625488281250e+01,8.494733428955078125e+01,1.361065063476562500e+02,1.307809114456176758e+00,-3.293791580200195312e+01,-1.846919555664062500e+02,3.622954559326171875e+01,2.162752342224121094e+01,3.309975433349609375e+01
2.560000121593475342e-01,2.000000000000000000e+00,-2.115155410766601562e+01,-4.743792057037353516e+00,4.895003890991210938e+01,9.450396728515625000e+01,8.494595336914062500e+01,1.360970153808593750e+02,1.256154894828796387e+00,-3.293209457397460938e+01,-1.846869049072265625e+02,3.623192214965820312e+01,2.164546585083007812e+01,3.309389495849609375e+01
2.599999904632568359e-01,2.000000000000000000e+00,-2.120618247985839844e+01,-4.706262588500976562e+00,4.890444183349609375e+01,9.451140594482421875e+01,8.494456481933593750e+01,1.360875244140625000e+02,1.204512834548950195e+00,-3.292628097534179688e+01,-1.846818695068359375e+02,3.623430252075195312e+01,2.166340446472167969e+01,3.308804321289062500e+01
2.639999985694885254e-01,2.000000000000000000e+00,-2.126079750061035156e+01,-4.668742656707763672e+00,4.885885620117187500e+01,9.451883697509765625e+01,8.494317626953125000e+01,1.360780487060546875e+02,1.152882695198059082e+00,-3.292045974731445312e+01,-1.846768493652343750e+02,3.623667526245117188e+01,2.168134117126464844e+01,3.308218765258789062e+01
2.680000066757202148e-01,2.000000000000000000e+00,-2.131540107727050781e+01,-4.631230831146240234e+00,4.881328201293945312e+01,9.452626800537109375e+01,8.494178771972656250e+01,1.360685729980468750e+02,1.101264595985412598e+00,-3.291464614868164062e+01,-1.846717987060546875e+02,3.623905181884765625e+01,2.169927215576171875e+01,3.307633590698242188e+01
2.720000147819519043e-01,2.000000000000000000e+00,-2.136999130249023438e+01,-4.593728065490722656e+00,4.876771926879882812e+01,9.453369903564453125e+01,8.494040679931640625e+01,1.360590972900390625e+02,1.049658417701721191e+00,-3.290883255004882812e+01,-1.846667633056640625e+02,3.624142456054687500e+01,2.171719932556152344e+01,3.307048416137695312e+01
2.759999930858612061e-01,2.000000000000000000e+00,-2.142456626892089844e+01,-4.556233406066894531e+00,4.872216415405273438e+01,9.454112243652343750e+01,8.493901824951171875e+01,1.360496063232421875e+02,9.980639815330505371e-01,-3.290301895141601562e+01,-1.846617279052734375e+02,3.624379730224609375e+01,2.173512268066406250e+01,3.306463623046875000e+01
2.800000011920928955e-01,2.000000000000000000e+00,-2.147913169860839844e+01,-4.518748283386230469e+00,4.867662048339843750e+01,9.454855346679687500e+01,8.493763732910156250e+01,1.360401306152343750e+02,9.464815258979797363e-01,-3.289720535278320312e+01,-1.846567077636718750e+02,3.624617004394531250e+01,2.175304031372070312e+01,3.305878448486328125e+01
2.840000092983245850e-01,2.000000000000000000e+00,-2.153368377685546875e+01,-4.481270790100097656e+00,4.863108825683593750e+01,9.455597686767578125e+01,8.493624877929687500e+01,1.360306701660156250e+02,8.949109315872192383e-01,-3.289139938354492188e+01,-1.846516723632812500e+02,3.624854660034179688e+01,2.177095603942871094e+01,3.305294036865234375e+01
2.879999876022338867e-01,2.000000000000000000e+00,-2.158822441101074219e+01,-4.443802833557128906e+00,4.858556747436523438e+01,9.456339263916015625e+01,8.493486785888671875e+01,1.360211944580078125e+02,8.433521389961242676e-01,-3.288558959960937500e+01,-1.846466369628906250e+02,3.625091552734375000e+01,2.178886795043945312e+01,3.304709243774414062e+01
2.919999957084655762e-01,2.000000000000000000e+00,-2.164274978637695312e+01,-4.406342983245849609e+00,4.854005432128906250e+01,9.457082366943359375e+01,8.493347930908203125e+01,1.360117340087890625e+02,7.918051481246948242e-01,-3.287978363037109375e+01,-1.846416168212890625e+02,3.625328826904296875e+01,2.180677223205566406e+01,3.304124832153320312e+01
2.960000038146972656e-01,2.000000000000000000e+00,-2.169726562500000000e+01,-4.368892192840576172e+00,4.849455261230468750e+01,9.457823944091796875e+01,8.493209838867187500e+01,1.360022583007812500e+02,7.402700185775756836e-01,-3.287397766113281250e+01,-1.846365814208984375e+02,3.625565719604492188e+01,2.182467651367187500e+01,3.303540420532226562e+01
3.000000119209289551e-01,2.000000000000000000e+00,-2.175176811218261719e+01,-4.331449508666992188e+00,4.844906234741210938e+01,9.458565521240234375e+01,8.493070983886718750e+01,1.359927978515625000e+02,6.887466311454772949e-01,-3.286817169189453125e+01,-1.846315612792968750e+02,3.625802993774414062e+01,2.184257507324218750e+01,3.302956390380859375e+01
3.039999902248382568e-01,2.000000000000000000e+00,-2.180625724792480469e+01,-4.294015407562255859e+00,4.840357971191406250e+01,9.459307098388671875e+01,8.492932891845703125e+01,1.359833374023437500e+02,6.372350454330444336e-01,-3.286236953735351562e+01,-1.846265258789062500e+02,3.626039886474609375e+01,2.186046791076660156e+01,3.302372360229492188e+01
3.079999983310699463e-01,2.000000000000000000e+00,-2.186073493957519531e+01,-4.256590366363525391e+00,4.835811233520507812e+01,9.460048675537109375e+01,8.492794799804687500e+01,1.359738769531250000e+02,5.857352614402770996e-01,-3.285656738281250000e+01,-1.846215057373046875e+02,3.626276779174804688e+01,2.187835884094238281e+01,3.301788330078125000e+01
3.120000064373016357e-01,2.000000000000000000e+00,-2.191519927978515625e+01,-4.219173431396484375e+00,4.831264877319335938e+01,9.460790252685546875e+01,8.492656707763671875e+01,1.359644165039062500e+02,5.342472195625305176e-01,-3.285076522827148438e+01,-1.846164855957031250e+02,3.626514053344726562e+01,2.189624404907226562e+01,3.301204681396484375e+01
3.160000145435333252e-01,2.000000000000000000e+00,-2.196965026855468750e+01,-4.181765079498291016e+00,4.826720046997070312e+01,9.461531066894531250e+01,8.492518615722656250e+01,1.359549560546875000e+02,4.827710092067718506e-01,-3.284496688842773438e+01,-1.846114654541015625e+02,3.626750564575195312e+01,2.191412544250488281e+01,3.300621032714843750e+01
3.199999928474426270e-01,2.000000000000000000e+00,-2.202408981323242188e+01,-4.144365310668945312e+00,4.822176361083984375e+01,9.462271881103515625e+01,8.492379760742187500e+01,1.359455108642578125e+02,4.313065707683563232e-01,-3.283916854858398438e+01,-1.846064300537109375e+02,3.626987075805664062e+01,2.193200492858886719e+01,3.300037384033203125e+01
3.240000009536743164e-01,2.000000000000000000e+00,-2.207851600646972656e+01,-4.106974601745605469e+00,4.817633438110351562e+01,9.463012695312500000e+01,8.492241668701171875e+01,1.359360504150390625e+02,3.798539042472839355e-01,-3.283337020874023438e+01,-1.846014251708984375e+02,3.627224349975585938e+01,2.194987869262695312e+01,3.299454116821289062e+01
3.280000090599060059e-01,2.000000000000000000e+00,-2.213293075561523438e+01,-4.069591522216796875e+00,4.813091659545898438e+01,9.463753509521484375e+01,8.492104339599609375e+01,1.359266052246093750e+02,3.284130096435546875e-01,-3.282757568359375000e+01,-1.845964050292968750e+02,3.627460861206054688e+01,2.196774864196777344e+01,3.298870849609375000e+01
3.319999873638153076e-01,2.000000000000000000e+00,-2.218733406066894531e+01,-4.032217502593994141e+00,4.808551025390625000e+01,9.464493560791015625e+01,8.491966247558593750e+01,1.359171600341796875e+02,2.769838571548461914e-01,-3.282178115844726562e+01,-1.845913848876953125e+02,3.627697372436523438e+01,2.198561477661132812e+01,3.298287963867187500e+01
3.359999954700469971e-01,2.000000000000000000e+00,-2.224172401428222656e+01,-3.994852304458618164e+00,4.804011154174804688e+01,9.465233612060546875e+01,8.491828155517578125e+01,1.359077148437500000e+02,2.255664914846420288e-01,-3.281599044799804688e+01,-1.845863647460937500e+02,3.627933883666992188e+01,2.200347518920898438e+01,3.297704315185546875e+01
3.400000035762786865e-01,2.000000000000000000e+00,-2.229610061645507812e+01,-3.957495212554931641e+00,4.799472427368164062e+01,9.465974426269531250e+01,8.491690063476562500e+01,1.358982849121093750e+02,1.741608828306198120e-01,-3.281019592285156250e+01,-1.845813598632812500e+02,3.628170394897460938e+01,2.202133178710937500e+01,3.297121810913085938e+01
3.440000116825103760e-01,2.000000000000000000e+00,-2.235046577453613281e+01,-3.920146942138671875e+00,4.794934463500976562e+01,9.466713714599609375e+01,8.491551971435546875e+01,1.358888397216796875e+02,1.227670386433601379e-01,-3.280440902709960938e+01,-1.845763397216796875e+02,3.628406906127929688e+01,2.203918647766113281e+01,3.296538925170898438e+01
3.479999899864196777e-01,2.000000000000000000e+00,-2.240481948852539062e+01,-3.882807254791259766e+00,4.790398025512695312e+01,9.467453765869140625e+01,8.491413879394531250e+01,1.358794097900390625e+02,7.138494402170181274e-02,-3.279861831665039062e+01,-1.845713348388671875e+02,3.628643035888671875e+01,2.205703544616699219e+01,3.295956802368164062e+01
3.519999980926513672e-01,2.000000000000000000e+00,-2.245915794372558594e+01,-3.845475912094116211e+00,4.785862350463867188e+01,9.468193817138671875e+01,8.491276550292968750e+01,1.358699645996093750e+02,2.001459524035453796e-02,-3.279283142089843750e+01,-1.845663146972656250e+02,3.628879547119140625e+01,2.207488059997558594e+01,3.295373916625976562e+01
3.560000061988830566e-01,2.000000000000000000e+00,-2.251348495483398438e+01,-3.808152914047241211e+00,4.781327819824218750e+01,9.468932342529296875e+01,8.491138458251953125e+01,1.358605194091796875e+02,-3.134400397539138794e-02,-3.278704452514648438e+01,-1.845613098144531250e+02,3.629116058349609375e+01,2.209272193908691406e+01,3.294791793823242188e+01
3.600000143051147461e-01,2.000000000000000000e+00,-2.256780052185058594e+01,-3.770838737487792969e+00,4.776794433593750000e+01,9.469671630859375000e+01,8.491000366210937500e+01,1.358511047363281250e+02,-8.269085735082626343e-02,-3.278126144409179688e+01,-1.845563049316406250e+02,3.629352188110351562e+01,2.211055946350097656e+01,3.294209671020507812e+01
3.639999926090240479e-01,2.000000000000000000e+00,-2.262210464477539062e+01,-3.733532905578613281e+00,4.772262191772460938e+01,9.470410919189453125e+01,8.490862274169921875e+01,1.358416748046875000e+02,-1.340259760618209839e-01,-3.277547454833984375e+01,-1.845512847900390625e+02,3.629588699340820312e+01,2.212839317321777344e+01,3.293627548217773438e+01
3.680000007152557373e-01,2.000000000000000000e+00,-2.267639350891113281e+01,-3.696235895156860352e+00,4.767730712890625000e+01,9.471149444580078125e+01,8.490724182128906250e+01,1.358322448730468750e+02,-1.853493452072143555e-01,-3.276969528198242188e+01,-1.845462799072265625e+02,3.629824447631835938e+01,2.214622116088867188e+01,3.293045806884765625e+01
3.720000088214874268e-01,2.000000000000000000e+00,-2.273067092895507812e+01,-3.658947229385375977e+00,4.763199996948242188e+01,9.471888732910156250e+01,8.490586853027343750e+01,1.358228149414062500e+02,-2.366610169410705566e-01,-3.276391220092773438e+01,-1.845412750244140625e+02,3.630060577392578125e+01,2.216404533386230469e+01,3.292463684082031250e+01
3.759999871253967285e-01,2.000000000000000000e+00,-2.278493690490722656e+01,-3.621667385101318359e+00,4.758670806884765625e+01,9.472627258300781250e+01,8.490448760986328125e+01,1.358134002685546875e+02,-2.879609465599060059e-01,-3.275813293457031250e+01,-1.845362701416015625e+02,3.630296325683593750e+01,2.218186569213867188e+01,3.291881942749023438e+01
3.799999952316284180e-01,2.000000000000000000e+00,-2.283918952941894531e+01,-3.584395408630371094e+00,4.754142379760742188e+01,9.473365020751953125e+01,8.490311431884765625e+01,1.358039703369140625e+02,-3.392491340637207031e-01,-3.275235748291015625e+01,-1.845312652587890625e+02,3.630532455444335938e+01,2.219968223571777344e+01,3.291300582885742188e+01
3.840000033378601074e-01,2.000000000000000000e+00,-2.289343261718750000e+01,-3.547132492065429688e+00,4.749615097045898438e+01,9.474103546142578125e+01,8.490174102783203125e+01,1.357945556640625000e+02,-3.905256092548370361e-01,-3.274657821655273438e+01,-1.845262603759765625e+02,3.630768585205078125e+01,2.221749496459960938e+01,3.290719223022460938e+01
3.880000114440917969e-01,2.000000000000000000e+00,-2.294766044616699219e+01,-3.509877920150756836e+00,4.745088958740234375e+01,9.474842071533203125e+01,8.490036010742187500e+01,1.357851409912109375e+02,-4.417903423309326172e-01,-3.274080276489257812e+01,-1.845212707519531250e+02,3.631004333496093750e+01,2.223530387878417969e+01,3.290137863159179688e+01
3.919999897480010986e-01,2.000000000000000000e+00,-2.300187492370605469e+01,-3.472631692886352539e+00,4.740563583374023438e+01,9.475579833984375000e+01,8.489898681640625000e+01,1.357757263183593750e+02,-4.930433928966522217e-01,-3.273502731323242188e+01,-1.845162658691406250e+02,3.631240081787109375e+01,2.225310897827148438e+01,3.289556884765625000e+01
3.959999978542327881e-01,2.000000000000000000e+00,-2.305607986450195312e+01,-3.435394048690795898e+00,4.736039352416992188e+01,9.476317596435546875e+01,8.489760589599609375e+01,1.357663116455078125e+02,-5.442847013473510742e-01,-3.272925567626953125e+01,-1.845112609863281250e+02,3.631476211547851562e+01,2.227091026306152344e+01,3.288975906372070312e+01
4.000000059604644775e-01,2.000000000000000000e+00,-2.311026954650878906e+01,-3.398165225982666016e+00,4.731516265869140625e+01,9.477054595947265625e+01,8.489623260498046875e+01,1.357569122314453125e+02,-5.955143570899963379e-01,-3.272348403930664062e+01,-1.845062713623046875e+02,3.631711578369140625e+01,2.228870582580566406e+01,3.288394927978515625e+01
4.040000140666961670e-01,2.000000000000000000e+00,-2.316444778442382812e+01,-3.360944747924804688e+00,4.726993942260742188e+01,9.477791595458984375e+01,8.489485931396484375e+01,1.357474975585937500e+02,-6.467322707176208496e-01,-3.271771240234375000e+01,-1.845012664794921875e+02,3.631947326660156250e+01,2.230649757385253906e+01,3.287814331054687500e+01
4.079999923706054688e-01,2.000000000000000000e+00,-2.321861457824707031e+01,-3.323732614517211914e+00,4.722473144531250000e+01,9.478529357910156250e+01,8.489347839355468750e+01,1.357380828857421875e+02,-6.979385018348693848e-01,-3.271194458007812500e+01,-1.844962768554687500e+02,3.632183074951171875e+01,2.232428550720214844e+01,3.287233734130859375e+01
4.120000004768371582e-01,2.000000000000000000e+00,-2.327276802062988281e+01,-3.286529064178466797e+00,4.717952728271484375e+01,9.479266357421875000e+01,8.489210510253906250e+01,1.357286834716796875e+02,-7.491330504417419434e-01,-3.270617675781250000e+01,-1.844912872314453125e+02,3.632418441772460938e+01,2.234206962585449219e+01,3.286653137207031250e+01
4.160000085830688477e-01,2.000000000000000000e+00,-2.332691192626953125e+01,-3.249334096908569336e+00,4.713434219360351562e+01,9.480002593994140625e+01,8.489073181152343750e+01,1.357192840576171875e+02,-8.003158569335937500e-01,-3.270041275024414062e+01,-1.844862976074218750e+02,3.632653808593750000e+01,2.235984992980957031e+01,3.286072921752929688e+01
4.199999868869781494e-01,2.000000000000000000e+00,-2.338104057312011719e+01,-3.212147474288940430e+00,4.708915710449218750e+01,9.480739593505859375e+01,8.488935852050781250e+01,1.357098846435546875e+02,-8.514869809150695801e-01,-3.269464874267578125e+01,-1.844812927246093750e+02,3.632889175415039062e+01,2.237762641906738281e+01,3.285492706298828125e+01
4.239999949932098389e-01,2.000000000000000000e+00,-2.343515586853027344e+01,-3.174969434738159180e+00,4.704399108886718750e+01,9.481475830078125000e+01,8.488799285888671875e+01,1.357004852294921875e+02,-9.026464223861694336e-01,-3.268888092041015625e+01,-1.844763031005859375e+02,3.633124542236328125e+01,2.239539909362792969e+01,3.284912490844726562e+01
4.280000030994415283e-01,2.000000000000000000e+00,-2.348926162719726562e+01,-3.137799739837646484e+00,4.699882888793945312e+01,9.482212066650390625e+01,8.488661956787109375e+01,1.356911010742187500e+02,-9.537941813468933105e-01,-3.268312072753906250e+01,-1.844713287353515625e+02,3.633359909057617188e+01,2.241316604614257812e+01,3.284332656860351562e+01
4.320000112056732178e-01,2.000000000000000000e+00,-2.354335403442382812e+01,-3.100638628005981445e+00,4.695368194580078125e+01,9.482949066162109375e+01,8.488524627685546875e+01,1.356817169189453125e+02,-1.004930377006530762e+00,-3.267736053466796875e+01,-1.844663238525390625e+02,3.633595275878906250e+01,2.243093109130859375e+01,3.283752822875976562e+01
4.359999895095825195e-01,2.000000000000000000e+00,-2.359743309020996094e+01,-3.063486099243164062e+00,4.690854263305664062e+01,9.483685302734375000e+01,8.488387298583984375e+01,1.356723175048828125e+02,-1.056054711341857910e+00,-3.267160034179687500e+01,-1.844613342285156250e+02,3.633830261230468750e+01,2.244868850708007812e+01,3.283173370361328125e+01
4.399999976158142090e-01,2.000000000000000000e+00,-2.365150070190429688e+01,-3.026341915130615234e+00,4.686341476440429688e+01,9.484420776367187500e+01,8.488249969482421875e+01,1.356629333496093750e+02,-1.107167482376098633e+00,-3.266584014892578125e+01,-1.844563446044921875e+02,3.634065628051757812e+01,2.246644592285156250e+01,3.282593917846679688e+01
4.440000057220458984e-01,2.000000000000000000e+00,-2.370555686950683594e+01,-2.989206552505493164e+00,4.681829452514648438e+01,9.485156250000000000e+01,8.488112640380859375e+01,1.356535491943359375e+02,-1.158268451690673828e+00,-3.266008377075195312e+01,-1.844513702392578125e+02,3.634300613403320312e+01,2.248419761657714844e+01,3.282014083862304688e+01
4.480000138282775879e-01,2.000000000000000000e+00,-2.375959968566894531e+01,-2.952079296112060547e+00,4.677318572998046875e+01,9.485891723632812500e+01,8.487975311279296875e+01,1.356441497802734375e+02,-1.209357976913452148e+00,-3.265432739257812500e+01,-1.844463806152343750e+02,3.634535598754882812e+01,2.250194358825683594e+01,3.281435012817382812e+01
4.519999921321868896e-01,2.000000000000000000e+00,-2.381362915039062500e+01,-2.914960622787475586e+00,4.672809219360351562e+01,9.486627197265625000e+01,8.487837982177734375e+01,1.356347656250000000e+02,-1.260435819625854492e+00,-3.264857482910156250e+01,-1.844414062500000000e+02,3.634770965576171875e+01,2.251968955993652344e+01,3.280855941772460938e+01
4.560000002384185791e-01,2.000000000000000000e+00,-2.386764717102050781e+01,-2.877850294113159180e+00,4.668300247192382812e+01,9.487362670898437500e+01,8.487700653076171875e+01,1.356253814697265625e+02,-1.311501860618591309e+00,-3.264281845092773438e+01,-1.844364166259765625e+02,3.635005950927734375e+01,2.253742790222167969e+01,3.280276870727539062e+01
4.600000083446502686e-01,2.000000000000000000e+00,-2.392165374755859375e+01,-2.840748786926269531e+00,4.663792419433593750e+01,9.488097381591796875e+01,8.487564086914062500e+01,1.356160125732421875e+02,-1.362556219100952148e+00,-3.263706970214843750e+01,-1.844314270019531250e+02,3.635240554809570312e+01,2.255516242980957031e+01,3.279698181152343750e+01
4.639999866485595703e-01,2.000000000000000000e+00,-2.397564697265625000e+01,-2.803655147552490234e+00,4.659286117553710938e+01,9.488832092285156250e+01,8.487426757812500000e+01,1.356066436767578125e+02,-1.413599133491516113e+00,-3.263131713867187500e+01,-1.844264678955078125e+02,3.635475540161132812e+01,2.257289505004882812e+01,3.279119110107421875e+01
4.679999947547912598e-01,2.000000000000000000e+00,-2.402962875366210938e+01,-2.766570568084716797e+00,4.654780197143554688e+01,9.489566802978515625e+01,8.487290191650390625e+01,1.355972595214843750e+02,-1.464630246162414551e+00,-3.262556838989257812e+01,-1.844214782714843750e+02,3.635710144042968750e+01,2.259062194824218750e+01,3.278540802001953125e+01
4.720000028610229492e-01,2.000000000000000000e+00,-2.408359718322753906e+01,-2.729494094848632812e+00,4.650275421142578125e+01,9.490301513671875000e+01,8.487152862548828125e+01,1.355878906250000000e+02,-1.515649676322937012e+00,-3.261981964111328125e+01,-1.844165039062500000e+02,3.635945129394531250e+01,2.260834503173828125e+01,3.277962112426757812e+01
4.760000109672546387e-01,2.000000000000000000e+00,-2.413755416870117188e+01,-2.692426204681396484e+00,4.645772171020507812e+01,9.491035461425781250e+01,8.487015533447265625e+01,1.355785369873046875e+02,-1.566657543182373047e+00,-3.261407470703125000e+01,-1.844115295410156250e+02,3.636179733276367188e+01,2.262606430053710938e+01,3.277384185791015625e+01
4.799999892711639404e-01,2.000000000000000000e+00,-2.419149780273437500e+01,-2.655366659164428711e+00,4.641269302368164062e+01,9.491770172119140625e+01,8.486878967285156250e+01,1.355691680908203125e+02,-1.617653846740722656e+00,-3.260832595825195312e+01,-1.844065399169921875e+02,3.636414337158203125e+01,2.264377975463867188e+01,3.276805877685546875e+01
4.839999973773956299e-01,2.000000000000000000e+00,-2.424542999267578125e+01,-2.618315696716308594e+00,4.636767959594726562e+01,9.492504119873046875e+01,8.486742401123046875e+01,1.355597839355468750e+02,-1.668638467788696289e+00,-3.260258483886718750e+01,-1.844015655517578125e+02,3.636648941040039062e+01,2.266149139404296875e+01,3.276227569580078125e+01
4.880000054836273193e-01,2.000000000000000000e+00,-2.429934883117675781e+01,-2.581273317337036133e+00,4.632267379760742188e+01,9.493238067626953125e+01,8.486605072021484375e+01,1.355504302978515625e+02,-1.719611406326293945e+00,-3.259684371948242188e+01,-1.843966064453125000e+02,3.636883544921875000e+01,2.267919731140136719e+01,3.275649642944335938e+01
4.920000135898590088e-01,2.000000000000000000e+00,-2.435325622558593750e+01,-2.544239044189453125e+00,4.627767562866210938e+01,9.493971252441406250e+01,8.486468505859375000e+01,1.355410766601562500e+02,-1.770572781562805176e+00,-3.259110260009765625e+01,-1.843916320800781250e+02,3.637117767333984375e+01,2.269690132141113281e+01,3.275072097778320312e+01
4.959999918937683105e-01,2.000000000000000000e+00,-2.440715217590332031e+01,-2.507213592529296875e+00,4.623269271850585938e+01,9.494704437255859375e+01,8.486331939697265625e+01,1.355317230224609375e+02,-1.821522474288940430e+00,-3.258536148071289062e+01,-1.843866729736328125e+02,3.637352371215820312e+01,2.271459960937500000e+01,3.274494171142578125e+01
5.000000000000000000e-01,2.000000000000000000e+00,-2.446103477478027344e+01,-2.470196247100830078e+00,4.618772125244140625e+01,9.495438385009765625e+01,8.486194610595703125e+01,1.355223541259765625e+02,-1.872460484504699707e+00,-3.257962036132812500e+01,-1.843816986083984375e+02,3.637586593627929688e+01,2.273229598999023438e+01,3.273916625976562500e+01
5.040000081062316895e-01,2.000000000000000000e+00,-2.451490592956542969e+01,-2.433187484741210938e+00,4.614275741577148438e+01,9.496171569824218750e+01,8.486058044433593750e+01,1.355130004882812500e+02,-1.923387050628662109e+00,-3.257388305664062500e+01,-1.843767242431640625e+02,3.637820816040039062e+01,2.274998664855957031e+01,3.273339080810546875e+01
5.080000162124633789e-01,2.000000000000000000e+00,-2.456876373291015625e+01,-2.396187305450439453e+00,4.609780120849609375e+01,9.496904754638671875e+01,8.485921478271484375e+01,1.355036468505859375e+02,-1.974302053451538086e+00,-3.256814956665039062e+01,-1.843717498779296875e+02,3.638055038452148438e+01,2.276767349243164062e+01,3.272761917114257812e+01
5.120000243186950684e-01,2.000000000000000000e+00,-2.462261009216308594e+01,-2.359195232391357422e+00,4.605286026000976562e+01,9.497637939453125000e+01,8.485784912109375000e+01,1.354943084716796875e+02,-2.025205373764038086e+00,-3.256241226196289062e+01,-1.843667907714843750e+02,3.638289642333984375e+01,2.278535652160644531e+01,3.272184753417968750e+01
5.159999728202819824e-01,2.000000000000000000e+00,-2.467644500732421875e+01,-2.322211742401123047e+00,4.600792694091796875e+01,9.498369598388671875e+01,8.485648345947265625e+01,1.354849548339843750e+02,-2.076097011566162109e+00,-3.255668258666992188e+01,-1.843618164062500000e+02,3.638523483276367188e+01,2.280303573608398438e+01,3.271607589721679688e+01
5.199999809265136719e-01,2.000000000000000000e+00,-2.473026657104492188e+01,-2.285236835479736328e+00,4.596300506591796875e+01,9.499102783203125000e+01,8.485511779785156250e+01,1.354756011962890625e+02,-2.126976966857910156e+00,-3.255094528198242188e+01,-1.843568572998046875e+02,3.638757705688476562e+01,2.282071113586425781e+01,3.271030807495117188e+01
5.239999890327453613e-01,2.000000000000000000e+00,-2.478407669067382812e+01,-2.248270034790039062e+00,4.591808700561523438e+01,9.499835205078125000e+01,8.485375213623046875e+01,1.354662628173828125e+02,-2.177845478057861328e+00,-3.254521560668945312e+01,-1.843518981933593750e+02,3.638991546630859375e+01,2.283838272094726562e+01,3.270454025268554688e+01
5.279999971389770508e-01,2.000000000000000000e+00,-2.483787155151367188e+01,-2.211312055587768555e+00,4.587318801879882812e+01,9.500566864013671875e+01,8.485238647460937500e+01,1.354569244384765625e+02,-2.228702545166015625e+00,-3.253948593139648438e+01,-1.843469390869140625e+02,3.639225387573242188e+01,2.285604858398437500e+01,3.269877624511718750e+01
5.320000052452087402e-01,2.000000000000000000e+00,-2.489165687561035156e+01,-2.174362182617187500e+00,4.582829666137695312e+01,9.501299285888671875e+01,8.485102081298828125e+01,1.354475860595703125e+02,-2.279547691345214844e+00,-3.253376007080078125e+01,-1.843419647216796875e+02,3.639459609985351562e+01,2.287371063232421875e+01,3.269300842285156250e+01
5.360000133514404297e-01,2.000000000000000000e+00,-2.494542884826660156e+01,-2.137420892715454102e+00,4.578340911865234375e+01,9.502030944824218750e+01,8.484965515136718750e+01,1.354382476806640625e+02,-2.330381393432617188e+00,-3.252803039550781250e+01,-1.843370208740234375e+02,3.639693450927734375e+01,2.289137077331542969e+01,3.268724822998046875e+01
5.400000214576721191e-01,2.000000000000000000e+00,-2.499918937683105469e+01,-2.100487947463989258e+00,4.573854064941406250e+01,9.502762603759765625e+01,8.484828186035156250e+01,1.354289093017578125e+02,-2.381203651428222656e+00,-3.252230453491210938e+01,-1.843320617675781250e+02,3.639927291870117188e+01,2.290902519226074219e+01,3.268148040771484375e+01
5.440000295639038086e-01,2.000000000000000000e+00,-2.505293846130371094e+01,-2.063563346862792969e+00,4.569367980957031250e+01,9.503494262695312500e+01,8.484692382812500000e+01,1.354195861816406250e+02,-2.432014226913452148e+00,-3.251658248901367188e+01,-1.843271026611328125e+02,3.640161132812500000e+01,2.292667579650878906e+01,3.267572021484375000e+01
5.479999780654907227e-01,2.000000000000000000e+00,-2.510667419433593750e+01,-2.026647329330444336e+00,4.564883041381835938e+01,9.504225158691406250e+01,8.484555816650390625e+01,1.354102478027343750e+02,-2.482813119888305664e+00,-3.251085662841796875e+01,-1.843221435546875000e+02,3.640394592285156250e+01,2.294432258605957031e+01,3.266996383666992188e+01
5.519999861717224121e-01,2.000000000000000000e+00,-2.516039657592773438e+01,-1.989739537239074707e+00,4.560398483276367188e+01,9.504956054687500000e+01,8.484419250488281250e+01,1.354009246826171875e+02,-2.533600568771362305e+00,-3.250513839721679688e+01,-1.843171997070312500e+02,3.640628433227539062e+01,2.296196746826171875e+01,3.266420364379882812e+01
5.559999942779541016e-01,2.000000000000000000e+00,-2.521410751342773438e+01,-1.952840328216552734e+00,4.555915451049804688e+01,9.505687713623046875e+01,8.484283447265625000e+01,1.353915863037109375e+02,-2.584376573562622070e+00,-3.249941635131835938e+01,-1.843122406005859375e+02,3.640862274169921875e+01,2.297960662841796875e+01,3.265844726562500000e+01
5.600000023841857910e-01,2.000000000000000000e+00,-2.526780891418457031e+01,-1.915949463844299316e+00,4.551433563232421875e+01,9.506418609619140625e+01,8.484146881103515625e+01,1.353822784423828125e+02,-2.635140895843505859e+00,-3.249369812011718750e+01,-1.843072814941406250e+02,3.641095733642578125e+01,2.299724197387695312e+01,3.265269470214843750e+01
5.640000104904174805e-01,2.000000000000000000e+00,-2.532149314880371094e+01,-1.879066824913024902e+00,4.546952438354492188e+01,9.507148742675781250e+01,8.484011077880859375e+01,1.353729400634765625e+02,-2.685893297195434570e+00,-3.248797988891601562e+01,-1.843023223876953125e+02,3.641328811645507812e+01,2.301487350463867188e+01,3.264693832397460938e+01
5.680000185966491699e-01,2.000000000000000000e+00,-2.537516975402832031e+01,-1.842192769050598145e+00,4.542472457885742188e+01,9.507879638671875000e+01,8.483874511718750000e+01,1.353636322021484375e+02,-2.736634731292724609e+00,-3.248226165771484375e+01,-1.842973785400390625e+02,3.641562652587890625e+01,2.303250122070312500e+01,3.264118576049804688e+01
5.720000267028808594e-01,2.000000000000000000e+00,-2.542883300781250000e+01,-1.805327057838439941e+00,4.537993621826171875e+01,9.508609771728515625e+01,8.483738708496093750e+01,1.353543090820312500e+02,-2.787364244461059570e+00,-3.247654724121093750e+01,-1.842924346923828125e+02,3.641795730590820312e+01,2.305012321472167969e+01,3.263543319702148438e+01
5.759999752044677734e-01,2.000000000000000000e+00,-2.548248100280761719e+01,-1.768469691276550293e+00,4.533515167236328125e+01,9.509339904785156250e+01,8.483602905273437500e+01,1.353450012207031250e+02,-2.838082313537597656e+00,-3.247083282470703125e+01,-1.842874908447265625e+02,3.642029190063476562e+01,2.306774330139160156e+01,3.262968063354492188e+01
5.799999833106994629e-01,2.000000000000000000e+00,-2.553612136840820312e+01,-1.731620788574218750e+00,4.529038238525390625e+01,9.510070037841796875e+01,8.483465576171875000e+01,1.353356781005859375e+02,-2.888788938522338867e+00,-3.246511840820312500e+01,-1.842825317382812500e+02,3.642262649536132812e+01,2.308535575866699219e+01,3.262393188476562500e+01
5.839999914169311523e-01,2.000000000000000000e+00,-2.558974647521972656e+01,-1.694780349731445312e+00,4.524562072753906250e+01,9.510800170898437500e+01,8.483329772949218750e+01,1.353263549804687500e+02,-2.939483880996704102e+00,-3.245940780639648438e+01,-1.842775878906250000e+02,3.642495727539062500e+01,2.310296821594238281e+01,3.261818313598632812e+01
5.879999995231628418e-01,2.000000000000000000e+00,-2.564336013793945312e+01,-1.657948136329650879e+00,4.520087432861328125e+01,9.511529541015625000e+01,8.483193969726562500e+01,1.353170623779296875e+02,-2.990167140960693359e+00,-3.245369720458984375e+01,-1.842726440429687500e+02,3.642729187011718750e+01,2.312057495117187500e+01,3.261243820190429688e+01
5.920000076293945312e-01,2.000000000000000000e+00,-2.569696235656738281e+01,-1.621124386787414551e+00,4.515613555908203125e+01,9.512258911132812500e+01,8.483057403564453125e+01,1.353077545166015625e+02,-3.040839195251464844e+00,-3.244799041748046875e+01,-1.842677154541015625e+02,3.642961883544921875e+01,2.313817787170410156e+01,3.260669326782226562e+01
5.960000157356262207e-01,2.000000000000000000e+00,-2.575055122375488281e+01,-1.584308981895446777e+00,4.511140441894531250e+01,9.512988281250000000e+01,8.482921600341796875e+01,1.352984466552734375e+02,-3.091499567031860352e+00,-3.244228363037109375e+01,-1.842627716064453125e+02,3.643195343017578125e+01,2.315577507019042969e+01,3.260094833374023438e+01
6.000000238418579102e-01,2.000000000000000000e+00,-2.580412673950195312e+01,-1.547502160072326660e+00,4.506668853759765625e+01,9.513717651367187500e+01,8.482785797119140625e+01,1.352891387939453125e+02,-3.142148256301879883e+00,-3.243657684326171875e+01,-1.842578277587890625e+02,3.643428039550781250e+01,2.317337036132812500e+01,3.259520721435546875e+01
6.039999723434448242e-01,2.000000000000000000e+00,-2.585769271850585938e+01,-1.510703563690185547e+00,4.502197647094726562e+01,9.514447021484375000e+01,8.482649993896484375e+01,1.352798461914062500e+02,-3.192785739898681641e+00,-3.243087387084960938e+01,-1.842528839111328125e+02,3.643661117553710938e+01,2.319096183776855469e+01,3.258946228027343750e+01
6.079999804496765137e-01,2.000000000000000000e+00,-2.591124534606933594e+01,-1.473913431167602539e+00,4.497727966308593750e+01,9.515175628662109375e+01,8.482513427734375000e+01,1.352705383300781250e+02,-3.243411540985107422e+00,-3.242517089843750000e+01,-1.842479400634765625e+02,3.643894195556640625e+01,2.320854759216308594e+01,3.258372497558593750e+01
6.119999885559082031e-01,2.000000000000000000e+00,-2.596478652954101562e+01,-1.437131524085998535e+00,4.493259048461914062e+01,9.515904235839843750e+01,8.482377624511718750e+01,1.352612457275390625e+02,-3.294025897979736328e+00,-3.241946411132812500e+01,-1.842429962158203125e+02,3.644126892089843750e+01,2.322612953186035156e+01,3.257798385620117188e+01
6.159999966621398926e-01,2.000000000000000000e+00,-2.601831436157226562e+01,-1.400357723236083984e+00,4.488791275024414062e+01,9.516632080078125000e+01,8.482241821289062500e+01,1.352519531250000000e+02,-3.344628572463989258e+00,-3.241376495361328125e+01,-1.842380676269531250e+02,3.644359970092773438e+01,2.324370765686035156e+01,3.257224655151367188e+01
6.200000047683715820e-01,2.000000000000000000e+00,-2.607183074951171875e+01,-1.363592267036437988e+00,4.484324645996093750e+01,9.517361450195312500e+01,8.482106018066406250e+01,1.352426605224609375e+02,-3.395220041275024414e+00,-3.240806579589843750e+01,-1.842331390380859375e+02,3.644592285156250000e+01,2.326128387451171875e+01,3.256651306152343750e+01
6.240000128746032715e-01,2.000000000000000000e+00,-2.612533569335937500e+01,-1.326835274696350098e+00,4.479858779907226562e+01,9.518089294433593750e+01,8.481970977783203125e+01,1.352333831787109375e+02,-3.445799827575683594e+00,-3.240236663818359375e+01,-1.842282104492187500e+02,3.644825363159179688e+01,2.327885437011718750e+01,3.256077575683593750e+01
6.280000209808349609e-01,2.000000000000000000e+00,-2.617882728576660156e+01,-1.290086507797241211e+00,4.475393676757812500e+01,9.518817138671875000e+01,8.481835174560546875e+01,1.352240905761718750e+02,-3.496368408203125000e+00,-3.239667129516601562e+01,-1.842232666015625000e+02,3.645058059692382812e+01,2.329641914367675781e+01,3.255504226684570312e+01
6.320000290870666504e-01,2.000000000000000000e+00,-2.623230743408203125e+01,-1.253345966339111328e+00,4.470930099487304688e+01,9.519544982910156250e+01,8.481698608398437500e+01,1.352147979736328125e+02,-3.546925067901611328e+00,-3.239097213745117188e+01,-1.842183380126953125e+02,3.645290374755859375e+01,2.331398391723632812e+01,3.254931259155273438e+01
6.359999775886535645e-01,2.000000000000000000e+00,-2.628577613830566406e+01,-1.216613769531250000e+00,4.466467285156250000e+01,9.520272827148437500e+01,8.481562805175781250e+01,1.352055053710937500e+02,-3.597470998764038086e+00,-3.238528060913085938e+01,-1.842133941650390625e+02,3.645523071289062500e+01,2.333154296875000000e+01,3.254357910156250000e+01
6.399999856948852539e-01,2.000000000000000000e+00,-2.633923339843750000e+01,-1.179889917373657227e+00,4.462005615234375000e+01,9.521000671386718750e+01,8.481427764892578125e+01,1.351962280273437500e+02,-3.648005247116088867e+00,-3.237958526611328125e+01,-1.842084655761718750e+02,3.645755767822265625e+01,2.334909629821777344e+01,3.253784942626953125e+01
6.439999938011169434e-01,2.000000000000000000e+00,-2.639267539978027344e+01,-1.143174171447753906e+00,4.457544708251953125e+01,9.521727752685546875e+01,8.481291961669921875e+01,1.351869506835937500e+02,-3.698528289794921875e+00,-3.237389373779296875e+01,-1.842035522460937500e+02,3.645988082885742188e+01,2.336664772033691406e+01,3.253212356567382812e+01
6.480000019073486328e-01,2.000000000000000000e+00,-2.644610786437988281e+01,-1.106466770172119141e+00,4.453084945678710938e+01,9.522454833984375000e+01,8.481156921386718750e+01,1.351776733398437500e+02,-3.749039649963378906e+00,-3.236820220947265625e+01,-1.841986236572265625e+02,3.646220397949218750e+01,2.338419532775878906e+01,3.252639770507812500e+01
6.520000100135803223e-01,2.000000000000000000e+00,-2.649952888488769531e+01,-1.069767475128173828e+00,4.448626327514648438e+01,9.523181915283203125e+01,8.481020355224609375e+01,1.351683959960937500e+02,-3.799540042877197266e+00,-3.236251068115234375e+01,-1.841936950683593750e+02,3.646452713012695312e+01,2.340173530578613281e+01,3.252066802978515625e+01
6.560000181198120117e-01,2.000000000000000000e+00,-2.655293846130371094e+01,-1.033076524734497070e+00,4.444168472290039062e+01,9.523908996582031250e+01,8.480885314941406250e+01,1.351591186523437500e+02,-3.850029230117797852e+00,-3.235682678222656250e+01,-1.841887664794921875e+02,3.646685028076171875e+01,2.341927528381347656e+01,3.251494598388671875e+01
6.600000262260437012e-01,2.000000000000000000e+00,-2.660633468627929688e+01,-9.963935613632202148e-01,4.439711380004882812e+01,9.524635314941406250e+01,8.480749511718750000e+01,1.351498565673828125e+02,-3.900506734848022461e+00,-3.235113906860351562e+01,-1.841838378906250000e+02,3.646917343139648438e+01,2.343681144714355469e+01,3.250922012329101562e+01
6.639999747276306152e-01,2.000000000000000000e+00,-2.665971946716308594e+01,-9.597189426422119141e-01,4.435255813598632812e+01,9.525362396240234375e+01,8.480614471435546875e+01,1.351405792236328125e+02,-3.950973272323608398e+00,-3.234545516967773438e+01,-1.841789245605468750e+02,3.647149276733398438e+01,2.345434188842773438e+01,3.250349807739257812e+01
6.679999828338623047e-01,2.000000000000000000e+00,-2.671309089660644531e+01,-9.230524897575378418e-01,4.430801010131835938e+01,9.526087951660156250e+01,8.480478668212890625e+01,1.351313171386718750e+02,-4.001428604125976562e+00,-3.233976745605468750e+01,-1.841739959716796875e+02,3.647381591796875000e+01,2.347187042236328125e+01,3.249777603149414062e+01
6.719999909400939941e-01,2.000000000000000000e+00,-2.676645088195800781e+01,-8.863941431045532227e-01,4.426347351074218750e+01,9.526814270019531250e+01,8.480342864990234375e+01,1.351220397949218750e+02,-4.051872730255126953e+00,-3.233408355712890625e+01,-1.841690673828125000e+02,3.647613906860351562e+01,2.348939323425292969e+01,3.249205780029296875e+01
6.759999990463256836e-01,2.000000000000000000e+00,-2.681979942321777344e+01,-8.497440218925476074e-01,4.421894073486328125e+01,9.527540588378906250e+01,8.480207824707031250e+01,1.351127777099609375e+02,-4.102305889129638672e+00,-3.232840347290039062e+01,-1.841641540527343750e+02,3.647845458984375000e+01,2.350691223144531250e+01,3.248633956909179688e+01
6.800000071525573730e-01,2.000000000000000000e+00,-2.687313652038574219e+01,-8.131019473075866699e-01,4.417442321777343750e+01,9.528266143798828125e+01,8.480072784423828125e+01,1.351035156250000000e+02,-4.152727603912353516e+00,-3.232272338867187500e+01,-1.841592407226562500e+02,3.648077774047851562e+01,2.352442932128906250e+01,3.248062515258789062e+01
6.840000152587890625e-01,2.000000000000000000e+00,-2.692646217346191406e+01,-7.764680385589599609e-01,4.412991714477539062e+01,9.528992462158203125e+01,8.479936981201171875e+01,1.350942535400390625e+02,-4.203138351440429688e+00,-3.231704330444335938e+01,-1.841543121337890625e+02,3.648309707641601562e+01,2.354193878173828125e+01,3.247490692138671875e+01
6.880000233650207520e-01,2.000000000000000000e+00,-2.697977447509765625e+01,-7.398422360420227051e-01,4.408541870117187500e+01,9.529718017578125000e+01,8.479801177978515625e+01,1.350850067138671875e+02,-4.253538131713867188e+00,-3.231136322021484375e+01,-1.841493988037109375e+02,3.648541641235351562e+01,2.355944824218750000e+01,3.246919250488281250e+01
6.919999718666076660e-01,2.000000000000000000e+00,-2.703307533264160156e+01,-7.032245397567749023e-01,4.404092788696289062e+01,9.530442810058593750e+01,8.479666137695312500e+01,1.350757446289062500e+02,-4.303925991058349609e+00,-3.230568695068359375e+01,-1.841444854736328125e+02,3.648773193359375000e+01,2.357695198059082031e+01,3.246347808837890625e+01
6.959999799728393555e-01,2.000000000000000000e+00,-2.708636474609375000e+01,-6.666150093078613281e-01,4.399644851684570312e+01,9.531168365478515625e+01,8.479531097412109375e+01,1.350664978027343750e+02,-4.354303359985351562e+00,-3.230001449584960938e+01,-1.841395721435546875e+02,3.649005126953125000e+01,2.359445190429687500e+01,3.245777130126953125e+01
6.999999880790710449e-01,2.000000000000000000e+00,-2.713964462280273438e+01,-6.300135254859924316e-01,4.395198059082031250e+01,9.531893920898437500e+01,8.479396057128906250e+01,1.350572509765625000e+02,-4.404669284820556641e+00,-3.229434204101562500e+01,-1.841346588134765625e+02,3.649237060546875000e+01,2.361194801330566406e+01,3.245205688476562500e+01
7.039999961853027344e-01,2.000000000000000000e+00,-2.719290924072265625e+01,-5.934202075004577637e-01,4.390752029418945312e+01,9.532618713378906250e+01,8.479260253906250000e+01,1.350479888916015625e+02,-4.455024242401123047e+00,-3.228866577148437500e+01,-1.841297454833984375e+02,3.649468612670898438e+01,2.362944030761718750e+01,3.244635009765625000e+01
7.080000042915344238e-01,2.000000000000000000e+00,-2.724616432189941406e+01,-5.568349361419677734e-01,4.386307144165039062e+01,9.533343505859375000e+01,8.479125213623046875e+01,1.350387573242187500e+02,-4.505367755889892578e+00,-3.228299713134765625e+01,-1.841248321533203125e+02,3.649700164794921875e+01,2.364692878723144531e+01,3.244063949584960938e+01
7.120000123977661133e-01,2.000000000000000000e+00,-2.729940605163574219e+01,-5.202577710151672363e-01,4.381863021850585938e+01,9.534067535400390625e+01,8.478990936279296875e+01,1.350295104980468750e+02,-4.555700302124023438e+00,-3.227732467651367188e+01,-1.841199188232421875e+02,3.649931716918945312e+01,2.366441535949707031e+01,3.243493270874023438e+01
7.160000205039978027e-01,2.000000000000000000e+00,-2.735263633728027344e+01,-4.836886525154113770e-01,4.377420043945312500e+01,9.534792327880859375e+01,8.478855895996093750e+01,1.350202636718750000e+02,-4.606021881103515625e+00,-3.227165222167968750e+01,-1.841150207519531250e+02,3.650163269042968750e+01,2.368189430236816406e+01,3.242922592163085938e+01
7.200000286102294922e-01,2.000000000000000000e+00,-2.740585517883300781e+01,-4.471277296543121338e-01,4.372978210449218750e+01,9.535516357421875000e+01,8.478720092773437500e+01,1.350110321044921875e+02,-4.656332015991210938e+00,-3.226598358154296875e+01,-1.841101074218750000e+02,3.650394821166992188e+01,2.369937133789062500e+01,3.242352294921875000e+01
7.239999771118164062e-01,2.000000000000000000e+00,-2.745906257629394531e+01,-4.105748534202575684e-01,4.368537139892578125e+01,9.536240386962890625e+01,8.478585052490234375e+01,1.350017852783203125e+02,-4.706631183624267578e+00,-3.226031875610351562e+01,-1.841051940917968750e+02,3.650626373291015625e+01,2.371684455871582031e+01,3.241781997680664062e+01
7.279999852180480957e-01,2.000000000000000000e+00,-2.751225852966308594e+01,-3.740300536155700684e-01,4.364097213745117188e+01,9.536964416503906250e+01,8.478450775146484375e+01,1.349925384521484375e+02,-4.756918907165527344e+00,-3.225465393066406250e+01,-1.841002960205078125e+02,3.650857543945312500e+01,2.373431587219238281e+01,3.241212081909179688e+01
7.319999933242797852e-01,2.000000000000000000e+00,-2.756544113159179688e+01,-3.374933302402496338e-01,4.359658050537109375e+01,9.537688446044921875e+01,8.478314971923828125e+01,1.349833068847656250e+02,-4.807196140289306641e+00,-3.224899291992187500e+01,-1.840953826904296875e+02,3.651089096069335938e+01,2.375177955627441406e+01,3.240641784667968750e+01
7.360000014305114746e-01,2.000000000000000000e+00,-2.761861228942871094e+01,-3.009647130966186523e-01,4.355220031738281250e+01,9.538412475585937500e+01,8.478179931640625000e+01,1.349740753173828125e+02,-4.857461929321289062e+00,-3.224332427978515625e+01,-1.840904846191406250e+02,3.651320266723632812e+01,2.376924133300781250e+01,3.240071868896484375e+01
7.400000095367431641e-01,2.000000000000000000e+00,-2.767177200317382812e+01,-2.644441723823547363e-01,4.350783157348632812e+01,9.539135742187500000e+01,8.478045654296875000e+01,1.349648590087890625e+02,-4.907716274261474609e+00,-3.223766326904296875e+01,-1.840855865478515625e+02,3.651551437377929688e+01,2.378669929504394531e+01,3.239501953125000000e+01
7.440000176429748535e-01,2.000000000000000000e+00,-2.772492218017578125e+01,-2.279316931962966919e-01,4.346347045898437500e+01,9.539859008789062500e+01,8.477910614013671875e+01,1.349556121826171875e+02,-4.957960128784179688e+00,-3.223200607299804688e+01,-1.840806732177734375e+02,3.651782608032226562e+01,2.380415153503417969e+01,3.238932418823242188e+01
7.480000257492065430e-01,2.000000000000000000e+00,-2.777805709838867188e+01,-1.914273053407669067e-01,4.341911697387695312e+01,9.540582275390625000e+01,8.477775573730468750e+01,1.349463958740234375e+02,-5.008192062377929688e+00,-3.222634506225585938e+01,-1.840757751464843750e+02,3.652013397216796875e+01,2.382160377502441406e+01,3.238362884521484375e+01
7.519999742507934570e-01,2.000000000000000000e+00,-2.783118247985839844e+01,-1.549309790134429932e-01,4.337477493286132812e+01,9.541304779052734375e+01,8.477640533447265625e+01,1.349371643066406250e+02,-5.058413982391357422e+00,-3.222068786621093750e+01,-1.840708770751953125e+02,3.652244567871093750e+01,2.383904838562011719e+01,3.237793350219726562e+01
7.559999823570251465e-01,2.000000000000000000e+00,-2.788429450988769531e+01,-1.184427216649055481e-01,4.333044433593750000e+01,9.542028045654296875e+01,8.477506256103515625e+01,1.349279479980468750e+02,-5.108623981475830078e+00,-3.221503067016601562e+01,-1.840659790039062500e+02,3.652475357055664062e+01,2.385648918151855469e+01,3.237224197387695312e+01
7.599999904632568359e-01,2.000000000000000000e+00,-2.793739700317382812e+01,-8.196253329515457153e-02,4.328612136840820312e+01,9.542751312255859375e+01,8.477371215820312500e+01,1.349187164306640625e+02,-5.158822536468505859e+00,-3.220937728881835938e+01,-1.840610809326171875e+02,3.652706527709960938e+01,2.387392997741699219e+01,3.236655044555664062e+01
7.639999985694885254e-01,2.000000000000000000e+00,-2.799048614501953125e+01,-4.549040645360946655e-02,4.324181365966796875e+01,9.543473052978515625e+01,8.477236175537109375e+01,1.349095001220703125e+02,-5.209011077880859375e+00,-3.220372009277343750e+01,-1.840561828613281250e+02,3.652937698364257812e+01,2.389136314392089844e+01,3.236085891723632812e+01
7.680000066757202148e-01,2.000000000000000000e+00,-2.804356384277343750e+01,-9.026343934237957001e-03,4.319750976562500000e+01,9.544195556640625000e+01,8.477101898193359375e+01,1.349002990722656250e+02,-5.259187698364257812e+00,-3.219807052612304688e+01,-1.840513000488281250e+02,3.653168487548828125e+01,2.390879440307617188e+01,3.235517120361328125e+01
7.720000147819519043e-01,2.000000000000000000e+00,-2.809662818908691406e+01,2.742966450750827789e-02,4.315321731567382812e+01,9.544917297363281250e+01,8.476966857910156250e+01,1.348910675048828125e+02,-5.309353828430175781e+00,-3.219241714477539062e+01,-1.840464019775390625e+02,3.653399276733398438e+01,2.392622184753417969e+01,3.234947967529296875e+01
7.760000228881835938e-01,2.000000000000000000e+00,-2.814968490600585938e+01,6.387761980295181274e-02,4.310893249511718750e+01,9.545640563964843750e+01,8.476832580566406250e+01,1.348818664550781250e+02,-5.359508514404296875e+00,-3.218676376342773438e+01,-1.840415039062500000e+02,3.653629684448242188e+01,2.394364356994628906e+01,3.234379577636718750e+01
7.799999713897705078e-01,2.000000000000000000e+00,-2.820272636413574219e+01,1.003175154328346252e-01,4.306465911865234375e+01,9.546362304687500000e+01,8.476697540283203125e+01,1.348726501464843750e+02,-5.409652233123779297e+00,-3.218111801147460938e+01,-1.840366058349609375e+02,3.653860473632812500e+01,2.396106338500976562e+01,3.233810806274414062e+01
7.839999794960021973e-01,2.000000000000000000e+00,-2.825575637817382812e+01,1.367493718862533569e-01,4.302039718627929688e+01,9.547083282470703125e+01,8.476563262939453125e+01,1.348634338378906250e+02,-5.459784984588623047e+00,-3.217546844482421875e+01,-1.840317230224609375e+02,3.654091262817382812e+01,2.397847938537597656e+01,3.233242416381835938e+01
7.879999876022338867e-01,2.000000000000000000e+00,-2.830877685546875000e+01,1.731731742620468140e-01,4.297614669799804688e+01,9.547805786132812500e+01,8.476428985595703125e+01,1.348542327880859375e+02,-5.509905815124511719e+00,-3.216982269287109375e+01,-1.840268249511718750e+02,3.654321670532226562e+01,2.399588966369628906e+01,3.232674407958984375e+01
7.919999957084655762e-01,2.000000000000000000e+00,-2.836178398132324219e+01,2.095889449119567871e-01,4.293190002441406250e+01,9.548526763916015625e+01,8.476293945312500000e+01,1.348450317382812500e+02,-5.560016632080078125e+00,-3.216417312622070312e+01,-1.840219573974609375e+02,3.654552459716796875e+01,2.401329803466796875e+01,3.232106018066406250e+01
7.960000038146972656e-01,2.000000000000000000e+00,-2.841477966308593750e+01,2.459966540336608887e-01,4.288766860961914062e+01,9.549247741699218750e+01,8.476159667968750000e+01,1.348358306884765625e+02,-5.610116004943847656e+00,-3.215853118896484375e+01,-1.840170593261718750e+02,3.654782867431640625e+01,2.403070068359375000e+01,3.231538009643554688e+01
8.000000119209289551e-01,2.000000000000000000e+00,-2.846776199340820312e+01,2.823963463306427002e-01,4.284344100952148438e+01,9.549969482421875000e+01,8.476025390625000000e+01,1.348266448974609375e+02,-5.660204410552978516e+00,-3.215288543701171875e+01,-1.840121765136718750e+02,3.655013275146484375e+01,2.404810142517089844e+01,3.230970001220703125e+01
8.040000200271606445e-01,2.000000000000000000e+00,-2.852073669433593750e+01,3.187879920005798340e-01,4.279922866821289062e+01,9.550689697265625000e+01,8.475890350341796875e+01,1.348174285888671875e+02,-5.710281372070312500e+00,-3.214724349975585938e+01,-1.840072784423828125e+02,3.655243682861328125e+01,2.406549644470214844e+01,3.230402374267578125e+01
8.080000281333923340e-01,2.000000000000000000e+00,-2.857369613647460938e+01,3.551715910434722900e-01,4.275502395629882812e+01,9.551410675048828125e+01,8.475756072998046875e+01,1.348082427978515625e+02,-5.760347843170166016e+00,-3.214160537719726562e+01,-1.840023956298828125e+02,3.655474090576171875e+01,2.408288955688476562e+01,3.229834747314453125e+01
8.119999766349792480e-01,2.000000000000000000e+00,-2.862664413452148438e+01,3.915472030639648438e-01,4.271083068847656250e+01,9.552130889892578125e+01,8.475621795654296875e+01,1.347990417480468750e+02,-5.810403347015380859e+00,-3.213596343994140625e+01,-1.839975128173828125e+02,3.655704498291015625e+01,2.410027694702148438e+01,3.229267120361328125e+01
8.159999847412109375e-01,2.000000000000000000e+00,-2.867958259582519531e+01,4.279147386550903320e-01,4.266664505004882812e+01,9.552851867675781250e+01,8.475487518310546875e+01,1.347898559570312500e+02,-5.860446929931640625e+00,-3.213032531738281250e+01,-1.839926300048828125e+02,3.655934524536132812e+01,2.411766052246093750e+01,3.228699874877929688e+01
8.199999928474426270e-01,2.000000000000000000e+00,-2.873250579833984375e+01,4.642742574214935303e-01,4.262246704101562500e+01,9.553572082519531250e+01,8.475353240966796875e+01,1.347806549072265625e+02,-5.910480022430419922e+00,-3.212469100952148438e+01,-1.839877624511718750e+02,3.656164932250976562e+01,2.413504219055175781e+01,3.228132629394531250e+01
8.240000009536743164e-01,2.000000000000000000e+00,-2.878542327880859375e+01,5.006257891654968262e-01,4.257830429077148438e+01,9.554292297363281250e+01,8.475218200683593750e+01,1.347714843750000000e+02,-5.960502147674560547e+00,-3.211905670166015625e+01,-1.839828643798828125e+02,3.656394958496093750e+01,2.415242004394531250e+01,3.227565383911132812e+01
8.280000090599060059e-01,2.000000000000000000e+00,-2.883832168579101562e+01,5.369693040847778320e-01,4.253414535522460938e+01,9.555011749267578125e+01,8.475084686279296875e+01,1.347622833251953125e+02,-6.010513305664062500e+00,-3.211342239379882812e+01,-1.839779968261718750e+02,3.656624984741210938e+01,2.416979217529296875e+01,3.226998519897460938e+01
8.320000171661376953e-01,2.000000000000000000e+00,-2.889121627807617188e+01,5.733047723770141602e-01,4.249000167846679688e+01,9.555731964111328125e+01,8.474950408935546875e+01,1.347530975341796875e+02,-6.060513019561767578e+00,-3.210778808593750000e+01,-1.839731140136718750e+02,3.656855010986328125e+01,2.418716239929199219e+01,3.226431655883789062e+01
8.360000252723693848e-01,2.000000000000000000e+00,-2.894409179687500000e+01,6.096321940422058105e-01,4.244586563110351562e+01,9.556451416015625000e+01,8.474816131591796875e+01,1.347439270019531250e+02,-6.110502243041992188e+00,-3.210215759277343750e+01,-1.839682312011718750e+02,3.657085037231445312e+01,2.420452690124511719e+01,3.225864410400390625e+01
8.399999737739562988e-01,2.000000000000000000e+00,-2.899695968627929688e+01,6.459516882896423340e-01,4.240174102783203125e+01,9.557170867919921875e+01,8.474681854248046875e+01,1.347347412109375000e+02,-6.160480022430419922e+00,-3.209652709960937500e+01,-1.839633636474609375e+02,3.657315063476562500e+01,2.422188758850097656e+01,3.225297927856445312e+01
8.439999818801879883e-01,2.000000000000000000e+00,-2.904981613159179688e+01,6.822631955146789551e-01,4.235762405395507812e+01,9.557891082763671875e+01,8.474547576904296875e+01,1.347255706787109375e+02,-6.210446834564208984e+00,-3.209089660644531250e+01,-1.839584808349609375e+02,3.657544708251953125e+01,2.423924446105957031e+01,3.224731445312500000e+01
8.479999899864196777e-01,2.000000000000000000e+00,-2.910265731811523438e+01,7.185665965080261230e-01,4.231351470947265625e+01,9.558609771728515625e+01,8.474413299560546875e+01,1.347163848876953125e+02,-6.260402679443359375e+00,-3.208526992797851562e+01,-1.839536285400390625e+02,3.657774734497070312e+01,2.425659942626953125e+01,3.224164962768554688e+01
8.519999980926513672e-01,2.000000000000000000e+00,-2.915549278259277344e+01,7.548620700836181641e-01,4.226941680908203125e+01,9.559328460693359375e+01,8.474279022216796875e+01,1.347072143554687500e+02,-6.310347557067871094e+00,-3.207964324951171875e+01,-1.839487457275390625e+02,3.658004379272460938e+01,2.427394866943359375e+01,3.223598480224609375e+01
8.560000061988830566e-01,2.000000000000000000e+00,-2.920831108093261719e+01,7.911494374275207520e-01,4.222533035278320312e+01,9.560047912597656250e+01,8.474145507812500000e+01,1.346980438232421875e+02,-6.360281467437744141e+00,-3.207401657104492188e+01,-1.839438629150390625e+02,3.658234405517578125e+01,2.429129600524902344e+01,3.223032379150390625e+01
8.600000143051147461e-01,2.000000000000000000e+00,-2.926112174987792969e+01,8.274289369583129883e-01,4.218125152587890625e+01,9.560766601562500000e+01,8.474011230468750000e+01,1.346888732910156250e+02,-6.410204410552978516e+00,-3.206838989257812500e+01,-1.839390106201171875e+02,3.658463668823242188e+01,2.430863761901855469e+01,3.222466659545898438e+01
8.640000224113464355e-01,2.000000000000000000e+00,-2.931391906738281250e+01,8.637003898620605469e-01,4.213718414306640625e+01,9.561485290527343750e+01,8.473876953125000000e+01,1.346797027587890625e+02,-6.460115909576416016e+00,-3.206277084350585938e+01,-1.839341278076171875e+02,3.658693695068359375e+01,2.432597732543945312e+01,3.221900558471679688e+01
8.679999709129333496e-01,2.000000000000000000e+00,-2.936670303344726562e+01,8.999638557434082031e-01,4.209312438964843750e+01,9.562203216552734375e+01,8.473743438720703125e+01,1.346705474853515625e+02,-6.510016918182373047e+00,-3.205714797973632812e+01,-1.839292602539062500e+02,3.658923339843750000e+01,2.434331130981445312e+01,3.221334838867187500e+01
8.719999790191650391e-01,2.000000000000000000e+00,-2.941947937011718750e+01,9.362192749977111816e-01,4.204907608032226562e+01,9.562921142578125000e+01,8.473609161376953125e+01,1.346613769531250000e+02,-6.559906482696533203e+00,-3.205152893066406250e+01,-1.839244079589843750e+02,3.659152603149414062e+01,2.436064147949218750e+01,3.220768737792968750e+01
8.759999871253967285e-01,2.000000000000000000e+00,-2.947223854064941406e+01,9.724667668342590332e-01,4.200503921508789062e+01,9.563639831542968750e+01,8.473475646972656250e+01,1.346522064208984375e+02,-6.609786033630371094e+00,-3.204590606689453125e+01,-1.839195251464843750e+02,3.659382247924804688e+01,2.437796974182128906e+01,3.220203399658203125e+01
8.799999952316284180e-01,2.000000000000000000e+00,-2.952499198913574219e+01,1.008706212043762207e+00,4.196100997924804688e+01,9.564357757568359375e+01,8.473341369628906250e+01,1.346430511474609375e+02,-6.659653663635253906e+00,-3.204028701782226562e+01,-1.839146575927734375e+02,3.659611511230468750e+01,2.439529228210449219e+01,3.219638061523437500e+01
8.840000033378601074e-01,2.000000000000000000e+00,-2.957773208618164062e+01,1.044937849044799805e+00,4.191698837280273438e+01,9.565075683593750000e+01,8.473207855224609375e+01,1.346339111328125000e+02,-6.709510326385498047e+00,-3.203467178344726562e+01,-1.839098052978515625e+02,3.659841156005859375e+01,2.441261291503906250e+01,3.219073104858398438e+01
8.880000114440917969e-01,2.000000000000000000e+00,-2.963045692443847656e+01,1.081161379814147949e+00,4.187297821044921875e+01,9.565792846679687500e+01,8.473073577880859375e+01,1.346247406005859375e+02,-6.759356498718261719e+00,-3.202905654907226562e+01,-1.839049377441406250e+02,3.660070419311523438e+01,2.442992782592773438e+01,3.218507766723632812e+01
8.920000195503234863e-01,2.000000000000000000e+00,-2.968317222595214844e+01,1.117376923561096191e+00,4.182897567749023438e+01,9.566510772705078125e+01,8.472940063476562500e+01,1.346155853271484375e+02,-6.809191703796386719e+00,-3.202344131469726562e+01,-1.839000701904296875e+02,3.660299301147460938e+01,2.444724082946777344e+01,3.217942428588867188e+01
8.960000276565551758e-01,2.000000000000000000e+00,-2.973587799072265625e+01,1.153584480285644531e+00,4.178498840332031250e+01,9.567227935791015625e+01,8.472805786132812500e+01,1.346064300537109375e+02,-6.859014987945556641e+00,-3.201782608032226562e+01,-1.838952178955078125e+02,3.660528945922851562e+01,2.446454811096191406e+01,3.217377853393554688e+01
8.999999761581420898e-01,2.000000000000000000e+00,-2.978857231140136719e+01,1.189784169197082520e+00,4.174100875854492188e+01,9.567945098876953125e+01,8.472672271728515625e+01,1.345972747802734375e+02,-6.908828258514404297e+00,-3.201221466064453125e+01,-1.838903656005859375e+02,3.660758209228515625e+01,2.448185157775878906e+01,3.216812896728515625e+01
9.039999842643737793e-01,2.000000000000000000e+00,-2.984125328063964844e+01,1.225975871086120605e+00,4.169703674316406250e+01,9.568662261962890625e+01,8.472538757324218750e+01,1.345881347656250000e+02,-6.958630561828613281e+00,-3.200660324096679688e+01,-1.838854980468750000e+02,3.660987091064453125e+01,2.449915313720703125e+01,3.216248321533203125e+01
9.079999923706054688e-01,2.000000000000000000e+00,-2.989392089843750000e+01,1.262159585952758789e+00,4.165307617187500000e+01,9.569378662109375000e+01,8.472405242919921875e+01,1.345789947509765625e+02,-7.008421897888183594e+00,-3.200099563598632812e+01,-1.838806457519531250e+02,3.661215972900390625e+01,2.451644897460937500e+01,3.215683746337890625e+01
9.120000004768371582e-01,2.000000000000000000e+00,-2.994657897949218750e+01,1.298335194587707520e+00,4.160912322998046875e+01,9.570095062255859375e+01,8.472270965576171875e+01,1.345698547363281250e+02,-7.058201789855957031e+00,-3.199538612365722656e+01,-1.838757781982421875e+02,3.661445236206054688e+01,2.453374290466308594e+01,3.215119171142578125e+01
9.160000085830688477e-01,2.000000000000000000e+00,-2.999922561645507812e+01,1.334503054618835449e+00,4.156518173217773438e+01,9.570811462402343750e+01,8.472138214111328125e+01,1.345607147216796875e+02,-7.107970714569091797e+00,-3.198978233337402344e+01,-1.838709411621093750e+02,3.661674499511718750e+01,2.455103111267089844e+01,3.214554977416992188e+01
9.200000166893005371e-01,2.000000000000000000e+00,-3.005185890197753906e+01,1.370662808418273926e+00,4.152124786376953125e+01,9.571527862548828125e+01,8.472003936767578125e+01,1.345515747070312500e+02,-7.157729148864746094e+00,-3.198417472839355469e+01,-1.838660736083984375e+02,3.661902999877929688e+01,2.456831550598144531e+01,3.213990783691406250e+01
9.240000247955322266e-01,2.000000000000000000e+00,-3.010448265075683594e+01,1.406814694404602051e+00,4.147732543945312500e+01,9.572244262695312500e+01,8.471871185302734375e+01,1.345424346923828125e+02,-7.207476139068603516e+00,-3.197857093811035156e+01,-1.838612213134765625e+02,3.662131881713867188e+01,2.458559799194335938e+01,3.213426971435546875e+01
9.279999732971191406e-01,2.000000000000000000e+00,-3.015709495544433594e+01,1.442958712577819824e+00,4.143341064453125000e+01,9.572960662841796875e+01,8.471736907958984375e+01,1.345332946777343750e+02,-7.257212638854980469e+00,-3.197296714782714844e+01,-1.838563690185546875e+02,3.662360763549804688e+01,2.460287475585937500e+01,3.212862777709960938e+01
9.319999814033508301e-01,2.000000000000000000e+00,-3.020969390869140625e+01,1.479094624519348145e+00,4.138950729370117188e+01,9.573676300048828125e+01,8.471604156494140625e+01,1.345241546630859375e+02,-7.306938171386718750e+00,-3.196736526489257812e+01,-1.838515167236328125e+02,3.662589645385742188e+01,2.462014961242675781e+01,3.212298965454101562e+01
9.359999895095825195e-01,2.000000000000000000e+00,-3.026228332519531250e+01,1.515222668647766113e+00,4.134561538696289062e+01,9.574391937255859375e+01,8.471469879150390625e+01,1.345150299072265625e+02,-7.356652736663818359e+00,-3.196176528930664062e+01,-1.838466796875000000e+02,3.662818527221679688e+01,2.463741874694824219e+01,3.211735153198242188e+01
9.399999976158142090e-01,2.000000000000000000e+00,-3.031486320495605469e+01,1.551342844963073730e+00,4.130173110961914062e+01,9.575107574462890625e+01,8.471337127685546875e+01,1.345059051513671875e+02,-7.406356811523437500e+00,-3.195616340637207031e+01,-1.838418273925781250e+02,3.663047027587890625e+01,2.465468406677246094e+01,3.211171722412109375e+01
9.440000057220458984e-01,2.000000000000000000e+00,-3.036742782592773438e+01,1.587454915046691895e+00,4.125785446166992188e+01,9.575823211669921875e+01,8.471202850341796875e+01,1.344967803955078125e+02,-7.456048965454101562e+00,-3.195056724548339844e+01,-1.838369750976562500e+02,3.663275527954101562e+01,2.467194747924804688e+01,3.210608291625976562e+01
9.480000138282775879e-01,2.000000000000000000e+00,-3.041997909545898438e+01,1.623559117317199707e+00,4.121398925781250000e+01,9.576538085937500000e+01,8.471070098876953125e+01,1.344876556396484375e+02,-7.505730628967285156e+00,-3.194496917724609375e+01,-1.838321228027343750e+02,3.663504028320312500e+01,2.468920707702636719e+01,3.210045242309570312e+01
9.520000219345092773e-01,2.000000000000000000e+00,-3.047252464294433594e+01,1.659655451774597168e+00,4.117013549804687500e+01,9.577252960205078125e+01,8.470936584472656250e+01,1.344785308837890625e+02,-7.555401802062988281e+00,-3.193937110900878906e+01,-1.838272705078125000e+02,3.663732528686523438e+01,2.470646095275878906e+01,3.209482192993164062e+01
9.559999704360961914e-01,2.000000000000000000e+00,-3.052505493164062500e+01,1.695743799209594727e+00,4.112628555297851562e+01,9.577968597412109375e+01,8.470803070068359375e+01,1.344694061279296875e+02,-7.605061531066894531e+00,-3.193377876281738281e+01,-1.838224334716796875e+02,3.663961029052734375e+01,2.472371292114257812e+01,3.208918762207031250e+01
9.599999785423278809e-01,2.000000000000000000e+00,-3.057757186889648438e+01,1.731824159622192383e+00,4.108245086669921875e+01,9.578683471679687500e+01,8.470669555664062500e+01,1.344602813720703125e+02,-7.654710292816162109e+00,-3.192818450927734375e+01,-1.838175964355468750e+02,3.664189529418945312e+01,2.474095916748046875e+01,3.208355712890625000e+01
9.639999866485595703e-01,2.000000000000000000e+00,-3.063007926940917969e+01,1.767896652221679688e+00,4.103862380981445312e+01,9.579397583007812500e+01,8.470536041259765625e+01,1.344511718750000000e+02,-7.704348564147949219e+00,-3.192259025573730469e+01,-1.838127593994140625e+02,3.664418029785156250e+01,2.475820350646972656e+01,3.207793045043945312e+01
9.679999947547912598e-01,2.000000000000000000e+00,-3.068257522583007812e+01,1.803961157798767090e+00,4.099480819702148438e+01,9.580112457275390625e+01,8.470403289794921875e+01,1.344420623779296875e+02,-7.753975868225097656e+00,-3.191699981689453125e+01,-1.838079071044921875e+02,3.664646530151367188e+01,2.477544212341308594e+01,3.207230377197265625e+01
9.720000028610229492e-01,2.000000000000000000e+00,-3.073506355285644531e+01,1.840018033981323242e+00,4.095100021362304688e+01,9.580826568603515625e+01,8.470269775390625000e+01,1.344329376220703125e+02,-7.803591728210449219e+00,-3.191140937805175781e+01,-1.838030700683593750e+02,3.664874649047851562e+01,2.479267883300781250e+01,3.206668090820312500e+01
9.760000109672546387e-01,2.000000000000000000e+00,-3.078753471374511719e+01,1.876066684722900391e+00,4.090720367431640625e+01,9.581540679931640625e+01,8.470137023925781250e+01,1.344238281250000000e+02,-7.853197097778320312e+00,-3.190582275390625000e+01,-1.837982177734375000e+02,3.665102767944335938e+01,2.480990982055664062e+01,3.206105422973632812e+01
9.800000190734863281e-01,2.000000000000000000e+00,-3.083999443054199219e+01,1.912107467651367188e+00,4.086341857910156250e+01,9.582254791259765625e+01,8.470003509521484375e+01,1.344147186279296875e+02,-7.902791976928710938e+00,-3.190023422241210938e+01,-1.837933807373046875e+02,3.665330886840820312e+01,2.482713890075683594e+01,3.205543136596679688e+01
9.840000271797180176e-01,2.000000000000000000e+00,-3.089244651794433594e+01,1.948140263557434082e+00,4.081963729858398438e+01,9.582968902587890625e+01,8.469870758056640625e+01,1.344056091308593750e+02,-7.952374935150146484e+00,-3.189464759826660156e+01,-1.837885437011718750e+02,3.665559005737304688e+01,2.484436225891113281e+01,3.204980850219726562e+01
9.879999756813049316e-01,2.000000000000000000e+00,-3.094488525390625000e+01,1.984165549278259277e+00,4.077586746215820312e+01,9.583682250976562500e+01,8.469737243652343750e+01,1.343964996337890625e+02,-8.001948356628417969e+00,-3.188906478881835938e+01,-1.837837066650390625e+02,3.665787124633789062e+01,2.486158370971679688e+01,3.204418945312500000e+01
9.919999837875366211e-01,2.000000000000000000e+00,-3.099731063842773438e+01,2.020182609558105469e+00,4.073210906982421875e+01,9.584395599365234375e+01,8.469604492187500000e+01,1.343874053955078125e+02,-8.051509857177734375e+00,-3.188348007202148438e+01,-1.837788848876953125e+02,3.666015243530273438e+01,2.487880134582519531e+01,3.203857040405273438e+01
9.959999918937683105e-01,2.000000000000000000e+00,-3.104972648620605469e+01,2.056191682815551758e+00,4.068835830688476562e+01,9.585108947753906250e+01,8.469471740722656250e+01,1.343783111572265625e+02,-8.101059913635253906e+00,-3.187789726257324219e+01,-1.837740478515625000e+02,3.666242980957031250e+01,2.489601325988769531e+01,3.203294754028320312e+01
1.000000000000000000e+00,2.000000000000000000e+00,-3.110213088989257812e+01,2.092193126678466797e+00,4.064462280273437500e+01,9.585822296142578125e+01,8.469338226318359375e+01,1.343692016601562500e+02,-8.150600433349609375e+00,-3.187231636047363281e+01,-1.837692260742187500e+02,3.666471099853515625e+01,2.491322326660156250e+01,3.202733612060546875e+01
1.003999948501586914e+00,2.000000000000000000e+00,-3.115452575683593750e+01,2.128186464309692383e+00,4.060089111328125000e+01,9.586535644531250000e+01,8.469205474853515625e+01,1.343601074218750000e+02,-8.200129508972167969e+00,-3.186673545837402344e+01,-1.837643890380859375e+02,3.666698837280273438e+01,2.493042945861816406e+01,3.202171707153320312e+01
1.008000016212463379e+00,2.000000000000000000e+00,-3.120690536499023438e+01,2.164171934127807617e+00,4.055716705322265625e+01,9.587248229980468750e+01,8.469072723388671875e+01,1.343510131835937500e+02,-8.249649047851562500e+00,-3.186115646362304688e+01,-1.837595520019531250e+02,3.666926956176757812e+01,2.494763183593750000e+01,3.201610183715820312e+01
1.011999964714050293e+00,2.000000000000000000e+00,-3.125927352905273438e+01,2.200149536132812500e+00,4.051345825195312500e+01,9.587960815429687500e+01,8.468939208984375000e+01,1.343419189453125000e+02,-8.299156188964843750e+00,-3.185557937622070312e+01,-1.837547302246093750e+02,3.667154693603515625e+01,2.496482849121093750e+01,3.201049041748046875e+01
1.016000032424926758e+00,2.000000000000000000e+00,-3.131163406372070312e+01,2.236119270324707031e+00,4.046975708007812500e+01,9.588673400878906250e+01,8.468807220458984375e+01,1.343328247070312500e+02,-8.348651885986328125e+00,-3.185000228881835938e+01,-1.837498931884765625e+02,3.667382431030273438e+01,2.498202323913574219e+01,3.200487518310546875e+01
1.019999980926513672e+00,2.000000000000000000e+00,-3.136397933959960938e+01,2.272081136703491211e+00,4.042606735229492188e+01,9.589385223388671875e+01,8.468673706054687500e+01,1.343237304687500000e+02,-8.398138999938964844e+00,-3.184442901611328125e+01,-1.837450714111328125e+02,3.667610168457031250e+01,2.499921417236328125e+01,3.199926567077636719e+01
1.024000048637390137e+00,2.000000000000000000e+00,-3.141631698608398438e+01,2.308034896850585938e+00,4.038238525390625000e+01,9.590097808837890625e+01,8.468540954589843750e+01,1.343146514892578125e+02,-8.447612762451171875e+00,-3.183885574340820312e+01,-1.837402343750000000e+02,3.667837524414062500e+01,2.501640129089355469e+01,3.199365806579589844e+01
1.026999950408935547e+00,2.000000000000000000e+00,-3.146863937377929688e+01,2.343981027603149414e+00,4.033870697021484375e+01,9.590810394287109375e+01,8.468408203125000000e+01,1.343055572509765625e+02,-8.497076988220214844e+00,-3.183328247070312500e+01,-1.837354125976562500e+02,3.668065261840820312e+01,2.503358268737792969e+01,3.198804664611816406e+01
1.031999945640563965e+00,2.000000000000000000e+00,-3.152095031738281250e+01,2.379919290542602539e+00,4.029504776000976562e+01,9.591522216796875000e+01,8.468275451660156250e+01,1.342964782714843750e+02,-8.546530723571777344e+00,-3.182770919799804688e+01,-1.837305908203125000e+02,3.668292999267578125e+01,2.505076217651367188e+01,3.198244285583496094e+01
1.036000013351440430e+00,2.000000000000000000e+00,-3.157324981689453125e+01,2.415849685668945312e+00,4.025139236450195312e+01,9.592234039306640625e+01,8.468142700195312500e+01,1.342873992919921875e+02,-8.595973014831542969e+00,-3.182213783264160156e+01,-1.837257690429687500e+02,3.668520355224609375e+01,2.506793785095214844e+01,3.197683525085449219e+01
1.039999961853027344e+00,2.000000000000000000e+00,-3.162554168701171875e+01,2.451771974563598633e+00,4.020774841308593750e+01,9.592945098876953125e+01,8.468009948730468750e+01,1.342783050537109375e+02,-8.645403861999511719e+00,-3.181657218933105469e+01,-1.837209472656250000e+02,3.668747711181640625e+01,2.508510971069335938e+01,3.197123146057128906e+01
1.044000029563903809e+00,2.000000000000000000e+00,-3.167781639099121094e+01,2.487686634063720703e+00,4.016411590576171875e+01,9.593656921386718750e+01,8.467877197265625000e+01,1.342692413330078125e+02,-8.694826126098632812e+00,-3.181100273132324219e+01,-1.837161254882812500e+02,3.668975067138671875e+01,2.510227775573730469e+01,3.196562767028808594e+01
1.047999978065490723e+00,2.000000000000000000e+00,-3.173008537292480469e+01,2.523593425750732422e+00,4.012048721313476562e+01,9.594367980957031250e+01,8.467745208740234375e+01,1.342601623535156250e+02,-8.744235038757324219e+00,-3.180543518066406250e+01,-1.837113037109375000e+02,3.669202423095703125e+01,2.511944198608398438e+01,3.196002578735351562e+01
1.052000045776367188e+00,2.000000000000000000e+00,-3.178233909606933594e+01,2.559492111206054688e+00,4.007687377929687500e+01,9.595079803466796875e+01,8.467611694335937500e+01,1.342510833740234375e+02,-8.793634414672851562e+00,-3.179987144470214844e+01,-1.837064819335937500e+02,3.669429779052734375e+01,2.513660240173339844e+01,3.195442581176757812e+01
1.054999947547912598e+00,2.000000000000000000e+00,-3.183458328247070312e+01,2.595383167266845703e+00,4.003326416015625000e+01,9.595790863037109375e+01,8.467478942871093750e+01,1.342420196533203125e+02,-8.843023300170898438e+00,-3.179430580139160156e+01,-1.837016754150390625e+02,3.669656753540039062e+01,2.515375900268554688e+01,3.194882583618164062e+01
1.059999942779541016e+00,2.000000000000000000e+00,-3.188681411743164062e+01,2.631266355514526367e+00,3.998967361450195312e+01,9.596501159667968750e+01,8.467346954345703125e+01,1.342329406738281250e+02,-8.892399787902832031e+00,-3.178874206542968750e+01,-1.836968536376953125e+02,3.669883728027343750e+01,2.517091178894042969e+01,3.194322776794433594e+01
1.064000010490417480e+00,2.000000000000000000e+00,-3.193903350830078125e+01,2.667141437530517578e+00,3.994608688354492188e+01,9.597212219238281250e+01,8.467214202880859375e+01,1.342238922119140625e+02,-8.941766738891601562e+00,-3.178318214416503906e+01,-1.836920318603515625e+02,3.670111083984375000e+01,2.518806076049804688e+01,3.193762969970703125e+01
1.067999958992004395e+00,2.000000000000000000e+00,-3.199124336242675781e+01,2.703008890151977539e+00,3.990250778198242188e+01,9.597922515869140625e+01,8.467081451416015625e+01,1.342148132324218750e+02,-8.991123199462890625e+00,-3.177762222290039062e+01,-1.836872100830078125e+02,3.670338058471679688e+01,2.520520591735839844e+01,3.193203353881835938e+01
1.072000026702880859e+00,2.000000000000000000e+00,-3.204344177246093750e+01,2.738868474960327148e+00,3.985894012451171875e+01,9.598632812500000000e+01,8.466949462890625000e+01,1.342057495117187500e+02,-9.040467262268066406e+00,-3.177206230163574219e+01,-1.836823883056640625e+02,3.670565032958984375e+01,2.522234916687011719e+01,3.192643928527832031e+01
1.075999975204467773e+00,2.000000000000000000e+00,-3.209563064575195312e+01,2.774720191955566406e+00,3.981538009643554688e+01,9.599343109130859375e+01,8.466816711425781250e+01,1.341966857910156250e+02,-9.089801788330078125e+00,-3.176650238037109375e+01,-1.836775817871093750e+02,3.670792388916015625e+01,2.523948478698730469e+01,3.192084503173828125e+01
1.080000042915344238e+00,2.000000000000000000e+00,-3.214780044555664062e+01,2.810564279556274414e+00,3.977183151245117188e+01,9.600053405761718750e+01,8.466683959960937500e+01,1.341876373291015625e+02,-9.139124870300292969e+00,-3.176094627380371094e+01,-1.836727752685546875e+02,3.671018981933593750e+01,2.525662040710449219e+01,3.191525077819824219e+01
1.083999991416931152e+00,2.000000000000000000e+00,-3.219996643066406250e+01,2.846400022506713867e+00,3.972829437255859375e+01,9.600762939453125000e+01,8.466551971435546875e+01,1.341785736083984375e+02,-9.188438415527343750e+00,-3.175539016723632812e+01,-1.836679687500000000e+02,3.671246337890625000e+01,2.527375030517578125e+01,3.190966033935546875e+01
1.088000059127807617e+00,2.000000000000000000e+00,-3.225212097167968750e+01,2.882228136062622070e+00,3.968476104736328125e+01,9.601473236083984375e+01,8.466419982910156250e+01,1.341695251464843750e+02,-9.237739562988281250e+00,-3.174983787536621094e+01,-1.836631622314453125e+02,3.671472930908203125e+01,2.529087829589843750e+01,3.190406990051269531e+01
1.090999960899353027e+00,2.000000000000000000e+00,-3.230425643920898438e+01,2.918048620223999023e+00,3.964124298095703125e+01,9.602182769775390625e+01,8.466287231445312500e+01,1.341604614257812500e+02,-9.287031173706054688e+00,-3.174428558349609375e+01,-1.836583557128906250e+02,3.671699523925781250e+01,2.530800056457519531e+01,3.189848327636718750e+01
1.095999956130981445e+00,2.000000000000000000e+00,-3.235638809204101562e+01,2.953861236572265625e+00,3.959773254394531250e+01,9.602892303466796875e+01,8.466154479980468750e+01,1.341514129638671875e+02,-9.336311340332031250e+00,-3.173873138427734375e+01,-1.836535491943359375e+02,3.671926498413085938e+01,2.532511901855468750e+01,3.189289283752441406e+01
1.100000023841857910e+00,2.000000000000000000e+00,-3.240850830078125000e+01,2.989665746688842773e+00,3.955422973632812500e+01,9.603601837158203125e+01,8.466022491455078125e+01,1.341423645019531250e+02,-9.385581016540527344e+00,-3.173318290710449219e+01,-1.836487426757812500e+02,3.672153091430664062e+01,2.534223556518554688e+01,3.188730812072753906e+01
1.103999972343444824e+00,2.000000000000000000e+00,-3.246061325073242188e+01,3.025462627410888672e+00,3.951073837280273438e+01,9.604310607910156250e+01,8.465890502929687500e+01,1.341333160400390625e+02,-9.434839248657226562e+00,-3.172763252258300781e+01,-1.836439208984375000e+02,3.672379684448242188e+01,2.535934638977050781e+01,3.188172149658203125e+01
1.108000040054321289e+00,2.000000000000000000e+00,-3.251270675659179688e+01,3.061251878738403320e+00,3.946725845336914062e+01,9.605020141601562500e+01,8.465757751464843750e+01,1.341242675781250000e+02,-9.484086990356445312e+00,-3.172208404541015625e+01,-1.836391143798828125e+02,3.672606277465820312e+01,2.537645530700683594e+01,3.187613868713378906e+01
1.111999988555908203e+00,2.000000000000000000e+00,-3.256479263305664062e+01,3.097033023834228516e+00,3.942378234863281250e+01,9.605728912353515625e+01,8.465626525878906250e+01,1.341152191162109375e+02,-9.533324241638183594e+00,-3.171653747558593750e+01,-1.836343231201171875e+02,3.672832870483398438e+01,2.539355850219726562e+01,3.187055778503417969e+01
1.116000056266784668e+00,2.000000000000000000e+00,-3.261686706542968750e+01,3.132806301116943359e+00,3.938032531738281250e+01,9.606436920166015625e+01,8.465493774414062500e+01,1.341061859130859375e+02,-9.582551002502441406e+00,-3.171099090576171875e+01,-1.836295166015625000e+02,3.673059082031250000e+01,2.541065788269042969e+01,3.186497497558593750e+01
