rpiRobotics/ARM-21-02-F-19-Robot-Motion-Program/data_performance_abb/curve_1/dual_arm/diffevo_pose3/grad_result/real_from_sim/sim_result/dual_iteration_6.csv
timestamp,cmd_num,J1,J2,J3,J4,J5,J6,J1_2,J2_2,J3_2,J4_2,J5_2,J6_2
0.000000000000000000e+00,-1.000000000000000000e+00,-1.944741439819335938e+01,-6.064604282379150391e+00,5.035420227050781250e+01,9.416293334960937500e+01,8.486763000488281250e+01,1.366524963378906250e+02,2.962221622467041016e+00,-3.314238739013671875e+01,-1.848907012939453125e+02,3.628247070312500000e+01,2.120338249206542969e+01,3.321319198608398438e+01
2.000000094994902611e-03,-1.000000000000000000e+00,-1.944741439819335938e+01,-6.064604282379150391e+00,5.035420227050781250e+01,9.416293334960937500e+01,8.486763000488281250e+01,1.366524963378906250e+02,2.962221622467041016e+00,-3.314238739013671875e+01,-1.848907012939453125e+02,3.628247070312500000e+01,2.120338249206542969e+01,3.321319198608398438e+01
6.000000052154064178e-03,-1.000000000000000000e+00,-1.944741439819335938e+01,-6.064604282379150391e+00,5.035420227050781250e+01,9.416293334960937500e+01,8.486763000488281250e+01,1.366524963378906250e+02,2.962221622467041016e+00,-3.314238739013671875e+01,-1.848907012939453125e+02,3.628247070312500000e+01,2.120338249206542969e+01,3.321319198608398438e+01
8.000000379979610443e-03,-1.000000000000000000e+00,-1.944741439819335938e+01,-6.064604282379150391e+00,5.035420227050781250e+01,9.416293334960937500e+01,8.486763000488281250e+01,1.366524963378906250e+02,2.962221622467041016e+00,-3.314238739013671875e+01,-1.848907012939453125e+02,3.628247070312500000e+01,2.120338249206542969e+01,3.321319198608398438e+01
1.099999994039535522e-02,-1.000000000000000000e+00,-1.944741439819335938e+01,-6.064604282379150391e+00,5.035420227050781250e+01,9.416293334960937500e+01,8.486763000488281250e+01,1.366524963378906250e+02,2.962221622467041016e+00,-3.314238739013671875e+01,-1.848907012939453125e+02,3.628247070312500000e+01,2.120338249206542969e+01,3.321319198608398438e+01
1.600000075995922089e-02,-1.000000000000000000e+00,-1.944741439819335938e+01,-6.064604282379150391e+00,5.035420227050781250e+01,9.416293334960937500e+01,8.486763000488281250e+01,1.366524963378906250e+02,2.962221622467041016e+00,-3.314238739013671875e+01,-1.848907012939453125e+02,3.628247070312500000e+01,2.120338249206542969e+01,3.321319198608398438e+01
1.999999955296516418e-02,-1.000000000000000000e+00,-1.944741439819335938e+01,-6.064604282379150391e+00,5.035420227050781250e+01,9.416293334960937500e+01,8.486763000488281250e+01,1.366524963378906250e+02,2.962221622467041016e+00,-3.314238739013671875e+01,-1.848907012939453125e+02,3.628247070312500000e+01,2.120338249206542969e+01,3.321319198608398438e+01
2.400000020861625671e-02,-1.000000000000000000e+00,-1.944741439819335938e+01,-6.064604282379150391e+00,5.035420227050781250e+01,9.416293334960937500e+01,8.486763000488281250e+01,1.366524963378906250e+02,2.962221622467041016e+00,-3.314238739013671875e+01,-1.848907012939453125e+02,3.628247070312500000e+01,2.120338249206542969e+01,3.321319198608398438e+01
2.800000086426734924e-02,2.000000000000000000e+00,-1.944741439819335938e+01,-6.064604282379150391e+00,5.035420227050781250e+01,9.416293334960937500e+01,8.486763000488281250e+01,1.366524963378906250e+02,2.962221622467041016e+00,-3.314238739013671875e+01,-1.848907012939453125e+02,3.628247070312500000e+01,2.120338249206542969e+01,3.321319198608398438e+01
3.400000184774398804e-02,2.000000000000000000e+00,-1.944741439819335938e+01,-6.064604282379150391e+00,5.035420227050781250e+01,9.416293334960937500e+01,8.486763000488281250e+01,1.366524963378906250e+02,2.962221622467041016e+00,-3.314238739013671875e+01,-1.848907012939453125e+02,3.628247070312500000e+01,2.120338249206542969e+01,3.321319198608398438e+01
3.700000047683715820e-02,2.000000000000000000e+00,-1.944741439819335938e+01,-6.064604282379150391e+00,5.035420227050781250e+01,9.416293334960937500e+01,8.486763000488281250e+01,1.366524963378906250e+02,2.962221622467041016e+00,-3.314238739013671875e+01,-1.848907012939453125e+02,3.628247070312500000e+01,2.120338249206542969e+01,3.321319198608398438e+01
3.999999910593032837e-02,2.000000000000000000e+00,-1.944741439819335938e+01,-6.064604282379150391e+00,5.035420227050781250e+01,9.416293334960937500e+01,8.486763000488281250e+01,1.366524963378906250e+02,2.962221622467041016e+00,-3.314238739013671875e+01,-1.848907012939453125e+02,3.628247070312500000e+01,2.120338249206542969e+01,3.321319198608398438e+01
4.600000008940696716e-02,2.000000000000000000e+00,-1.944741439819335938e+01,-6.064604282379150391e+00,5.035420227050781250e+01,9.416293334960937500e+01,8.486763000488281250e+01,1.366524963378906250e+02,2.962221622467041016e+00,-3.314238739013671875e+01,-1.848907012939453125e+02,3.628247070312500000e+01,2.120338249206542969e+01,3.321319198608398438e+01
4.800000041723251343e-02,2.000000000000000000e+00,-1.944741439819335938e+01,-6.064604282379150391e+00,5.035420227050781250e+01,9.416293334960937500e+01,8.486763000488281250e+01,1.366524963378906250e+02,2.962221622467041016e+00,-3.314238739013671875e+01,-1.848907012939453125e+02,3.628247070312500000e+01,2.120338249206542969e+01,3.321319198608398438e+01
5.200000107288360596e-02,2.000000000000000000e+00,-1.944741439819335938e+01,-6.064604282379150391e+00,5.035420227050781250e+01,9.416293334960937500e+01,8.486763000488281250e+01,1.366524963378906250e+02,2.962221622467041016e+00,-3.314238739013671875e+01,-1.848907012939453125e+02,3.628247070312500000e+01,2.120338249206542969e+01,3.321319198608398438e+01
5.600000172853469849e-02,2.000000000000000000e+00,-1.944741439819335938e+01,-6.064604282379150391e+00,5.035420227050781250e+01,9.416293334960937500e+01,8.486763000488281250e+01,1.366524963378906250e+02,2.962221622467041016e+00,-3.314238739013671875e+01,-1.848907012939453125e+02,3.628247070312500000e+01,2.120338249206542969e+01,3.321319198608398438e+01
5.999999865889549255e-02,2.000000000000000000e+00,-1.944741439819335938e+01,-6.064604282379150391e+00,5.035420227050781250e+01,9.416293334960937500e+01,8.486763000488281250e+01,1.366524963378906250e+02,2.962221622467041016e+00,-3.314238739013671875e+01,-1.848907012939453125e+02,3.628247070312500000e+01,2.120338249206542969e+01,3.321319198608398438e+01
6.400000303983688354e-02,2.000000000000000000e+00,-1.944741439819335938e+01,-6.064604282379150391e+00,5.035420227050781250e+01,9.416293334960937500e+01,8.486763000488281250e+01,1.366524963378906250e+02,2.962221622467041016e+00,-3.314238739013671875e+01,-1.848907012939453125e+02,3.628247070312500000e+01,2.120338249206542969e+01,3.321319198608398438e+01
6.800000369548797607e-02,2.000000000000000000e+00,-1.944748115539550781e+01,-6.064578533172607422e+00,5.035418701171875000e+01,9.416294097900390625e+01,8.486763000488281250e+01,1.366524963378906250e+02,2.962221622467041016e+00,-3.314238739013671875e+01,-1.848907012939453125e+02,3.628247070312500000e+01,2.120338249206542969e+01,3.321319198608398438e+01
7.199999690055847168e-02,2.000000000000000000e+00,-1.944786071777343750e+01,-6.064418315887451172e+00,5.035409927368164062e+01,9.416294097900390625e+01,8.486762237548828125e+01,1.366524963378906250e+02,2.962221622467041016e+00,-3.314238739013671875e+01,-1.848907012939453125e+02,3.628247070312500000e+01,2.120338249206542969e+01,3.321319198608398438e+01
7.599999755620956421e-02,2.000000000000000000e+00,-1.944894218444824219e+01,-6.063919544219970703e+00,5.035382080078125000e+01,9.416294860839843750e+01,8.486759185791015625e+01,1.366524810791015625e+02,2.962221622467041016e+00,-3.314238739013671875e+01,-1.848907012939453125e+02,3.628247070312500000e+01,2.120338249206542969e+01,3.321319198608398438e+01
7.999999821186065674e-02,2.000000000000000000e+00,-1.945108985900878906e+01,-6.062845706939697266e+00,5.035319519042968750e+01,9.416298675537109375e+01,8.486754608154296875e+01,1.366524505615234375e+02,2.962194442749023438e+00,-3.314238739013671875e+01,-1.848907012939453125e+02,3.628247070312500000e+01,2.120338439941406250e+01,3.321319198608398438e+01
8.399999886751174927e-02,2.000000000000000000e+00,-1.945453453063964844e+01,-6.060993671417236328e+00,5.035206222534179688e+01,9.416304779052734375e+01,8.486746215820312500e+01,1.366524047851562500e+02,2.962015390396118164e+00,-3.314237594604492188e+01,-1.848906707763671875e+02,3.628247451782226562e+01,2.120340156555175781e+01,3.321319198608398438e+01
8.799999952316284180e-02,2.000000000000000000e+00,-1.945943260192871094e+01,-6.058192253112792969e+00,5.035023498535156250e+01,9.416317749023437500e+01,8.486734008789062500e+01,1.366522521972656250e+02,2.961424589157104492e+00,-3.314234161376953125e+01,-1.848905792236328125e+02,3.628248214721679688e+01,2.120346260070800781e+01,3.321318435668945312e+01
9.200000017881393433e-02,2.000000000000000000e+00,-1.946593666076660156e+01,-6.054280757904052734e+00,5.034749984741210938e+01,9.416341400146484375e+01,8.486717987060546875e+01,1.366519927978515625e+02,2.960068941116333008e+00,-3.314225769042968750e+01,-1.848903961181640625e+02,3.628250122070312500e+01,2.120362281799316406e+01,3.321316146850585938e+01
9.600000083446502686e-02,2.000000000000000000e+00,-1.947407150268554688e+01,-6.049160003662109375e+00,5.034363555908203125e+01,9.416379547119140625e+01,8.486697387695312500e+01,1.366515350341796875e+02,2.957562446594238281e+00,-3.314207839965820312e+01,-1.848900451660156250e+02,3.628254318237304688e+01,2.120397186279296875e+01,3.321310043334960938e+01
1.000000014901161194e-01,2.000000000000000000e+00,-1.948376464843750000e+01,-6.042806148529052734e+00,5.033843994140625000e+01,9.416438293457031250e+01,8.486672973632812500e+01,1.366508026123046875e+02,2.953477382659912109e+00,-3.314177322387695312e+01,-1.848894958496093750e+02,3.628261184692382812e+01,2.120464134216308594e+01,3.321296310424804688e+01
1.040000021457672119e-01,2.000000000000000000e+00,-1.949502754211425781e+01,-6.035187244415283203e+00,5.033168411254882812e+01,9.416522979736328125e+01,8.486644744873046875e+01,1.366497344970703125e+02,2.947341918945312500e+00,-3.314126968383789062e+01,-1.848887176513671875e+02,3.628271484375000000e+01,2.120580291748046875e+01,3.321269989013671875e+01
1.080000028014183044e-01,2.000000000000000000e+00,-1.950811767578125000e+01,-6.026165485382080078e+00,5.032309722900390625e+01,9.416639709472656250e+01,8.486612701416015625e+01,1.366482543945312500e+02,2.938764810562133789e+00,-3.314051055908203125e+01,-1.848876800537109375e+02,3.628287124633789062e+01,2.120765686035156250e+01,3.321225357055664062e+01
1.120000034570693970e-01,2.000000000000000000e+00,-1.952345657348632812e+01,-6.015506267547607422e+00,5.031235885620117188e+01,9.416794586181640625e+01,8.486576843261718750e+01,1.366462707519531250e+02,2.927522897720336914e+00,-3.313943862915039062e+01,-1.848863983154296875e+02,3.628308105468750000e+01,2.121041870117187500e+01,3.321154785156250000e+01
1.159999966621398926e-01,2.000000000000000000e+00,-1.954141044616699219e+01,-6.002998352050781250e+00,5.029917907714843750e+01,9.416990661621093750e+01,8.486536407470703125e+01,1.366437072753906250e+02,2.913459777832031250e+00,-3.313800430297851562e+01,-1.848848571777343750e+02,3.628336334228515625e+01,2.121428298950195312e+01,3.321052551269531250e+01
1.199999973177909851e-01,2.000000000000000000e+00,-1.956213569641113281e+01,-5.988563060760498047e+00,5.028336334228515625e+01,9.417235565185546875e+01,8.486491394042968750e+01,1.366405334472656250e+02,2.896341562271118164e+00,-3.313616180419921875e+01,-1.848831329345703125e+02,3.628371810913085938e+01,2.121942710876464844e+01,3.320912170410156250e+01
1.239999979734420776e-01,2.000000000000000000e+00,-1.958559608459472656e+01,-5.972246646881103516e+00,5.026480102539062500e+01,9.417530822753906250e+01,8.486443328857421875e+01,1.366366729736328125e+02,2.875882625579833984e+00,-3.313386917114257812e+01,-1.848811340332031250e+02,3.628415298461914062e+01,2.122597885131835938e+01,3.320730209350585938e+01
1.280000060796737671e-01,2.000000000000000000e+00,-1.961170005798339844e+01,-5.954132556915283203e+00,5.024344635009765625e+01,9.417878723144531250e+01,8.486391448974609375e+01,1.366321105957031250e+02,2.851888418197631836e+00,-3.313110733032226562e+01,-1.848788757324218750e+02,3.628467559814453125e+01,2.123400306701660156e+01,3.320504379272460938e+01
1.309999972581863403e-01,2.000000000000000000e+00,-1.964036560058593750e+01,-5.934278488159179688e+00,5.021929168701171875e+01,9.418280792236328125e+01,8.486336517333984375e+01,1.366268310546875000e+02,2.824277877807617188e+00,-3.312787628173828125e+01,-1.848763580322265625e+02,3.628528976440429688e+01,2.124349975585937500e+01,3.320235443115234375e+01
1.360000073909759521e-01,2.000000000000000000e+00,-1.967150497436523438e+01,-5.912740230560302734e+00,5.019238281250000000e+01,9.418737030029296875e+01,8.486280059814453125e+01,1.366208343505859375e+02,2.793020009994506836e+00,-3.312417984008789062e+01,-1.848735198974609375e+02,3.628598403930664062e+01,2.125441741943359375e+01,3.319925689697265625e+01
1.389999985694885254e-01,2.000000000000000000e+00,-1.970501899719238281e+01,-5.889571189880371094e+00,5.016283416748046875e+01,9.419243621826171875e+01,8.486219787597656250e+01,1.366141357421875000e+02,2.758172035217285156e+00,-3.312005233764648438e+01,-1.848703918457031250e+02,3.628676223754882812e+01,2.126666259765625000e+01,3.319577026367187500e+01
1.439999938011169434e-01,2.000000000000000000e+00,-1.974092292785644531e+01,-5.864738464355468750e+00,5.013076782226562500e+01,9.419798278808593750e+01,8.486157226562500000e+01,1.366068115234375000e+02,2.719962835311889648e+00,-3.311552429199218750e+01,-1.848669586181640625e+02,3.628761672973632812e+01,2.128009605407714844e+01,3.319195175170898438e+01
1.480000019073486328e-01,2.000000000000000000e+00,-1.977935028076171875e+01,-5.838121414184570312e+00,5.009629440307617188e+01,9.420395660400390625e+01,8.486090087890625000e+01,1.365989227294921875e+02,2.678800821304321289e+00,-3.311064529418945312e+01,-1.848632507324218750e+02,3.628853607177734375e+01,2.129456710815429688e+01,3.318783187866210938e+01
1.519999951124191284e-01,2.000000000000000000e+00,-1.982036399841308594e+01,-5.809647083282470703e+00,5.005957412719726562e+01,9.421030426025390625e+01,8.486017608642578125e+01,1.365905456542968750e+02,2.635141134262084961e+00,-3.310548400878906250e+01,-1.848593292236328125e+02,3.628950881958007812e+01,2.130990219116210938e+01,3.318347167968750000e+01
1.560000032186508179e-01,2.000000000000000000e+00,-1.986380386352539062e+01,-5.779410839080810547e+00,5.002087020874023438e+01,9.421695709228515625e+01,8.485940551757812500e+01,1.365817718505859375e+02,2.589362144470214844e+00,-3.310008239746093750e+01,-1.848551940917968750e+02,3.629053115844726562e+01,2.132593154907226562e+01,3.317891311645507812e+01
1.599999964237213135e-01,2.000000000000000000e+00,-1.990930175781250000e+01,-5.747640132904052734e+00,4.998049163818359375e+01,9.422387695312500000e+01,8.485858154296875000e+01,1.365726318359375000e+02,2.541777133941650391e+00,-3.309449005126953125e+01,-1.848508758544921875e+02,3.629158782958984375e+01,2.134249305725097656e+01,3.317421722412109375e+01
1.640000045299530029e-01,2.000000000000000000e+00,-1.995647430419921875e+01,-5.714569091796875000e+00,4.993873977661132812e+01,9.423099517822265625e+01,8.485771942138671875e+01,1.365632476806640625e+02,2.492698192596435547e+00,-3.308875656127929688e+01,-1.848463745117187500e+02,3.629267120361328125e+01,2.135944366455078125e+01,3.316941452026367188e+01
1.679999977350234985e-01,2.000000000000000000e+00,-2.000505638122558594e+01,-5.680386066436767578e+00,4.989587783813476562e+01,9.423827362060546875e+01,8.485681915283203125e+01,1.365536651611328125e+02,2.442455053329467773e+00,-3.308292007446289062e+01,-1.848417510986328125e+02,3.629377746582031250e+01,2.137665367126464844e+01,3.316455078125000000e+01
1.720000058412551880e-01,2.000000000000000000e+00,-2.005489540100097656e+01,-5.645247936248779297e+00,4.985213470458984375e+01,9.424566650390625000e+01,8.485588073730468750e+01,1.365439300537109375e+02,2.391344070434570312e+00,-3.307701110839843750e+01,-1.848369903564453125e+02,3.629490280151367188e+01,2.139402770996093750e+01,3.315964889526367188e+01
1.759999990463256836e-01,2.000000000000000000e+00,-2.010587501525878906e+01,-5.609306812286376953e+00,4.980770492553710938e+01,9.425315093994140625e+01,8.485491180419921875e+01,1.365340881347656250e+02,2.339604377746582031e+00,-3.307105636596679688e+01,-1.848321685791015625e+02,3.629603195190429688e+01,2.141149330139160156e+01,3.315473175048828125e+01
1.800000071525573730e-01,2.000000000000000000e+00,-2.015785789489746094e+01,-5.572706699371337891e+00,4.976276397705078125e+01,9.426068115234375000e+01,8.485391998291015625e+01,1.365241851806640625e+02,2.287457942962646484e+00,-3.306507492065429688e+01,-1.848272857666015625e+02,3.629716873168945312e+01,2.142900276184082031e+01,3.314981079101562500e+01
1.840000003576278687e-01,2.000000000000000000e+00,-2.021073341369628906e+01,-5.535566329956054688e+00,4.971744918823242188e+01,9.426824188232421875e+01,8.485290527343750000e+01,1.365142517089843750e+02,2.235106706619262695e+00,-3.305908203125000000e+01,-1.848223571777343750e+02,3.629830932617187500e+01,2.144652938842773438e+01,3.314488220214843750e+01
1.879999935626983643e-01,2.000000000000000000e+00,-2.026440429687500000e+01,-5.497993469238281250e+00,4.967186355590820312e+01,9.427582550048828125e+01,8.485186767578125000e+01,1.365043029785156250e+02,2.182693243026733398e+00,-3.305308151245117188e+01,-1.848174285888671875e+02,3.629945373535156250e+01,2.146405982971191406e+01,3.313995742797851562e+01
1.920000016689300537e-01,2.000000000000000000e+00,-2.031868934631347656e+01,-5.460123538970947266e+00,4.962611389160156250e+01,9.428340911865234375e+01,8.485082244873046875e+01,1.364943389892578125e+02,2.130280256271362305e+00,-3.304708480834960938e+01,-1.848124694824218750e+02,3.630059432983398438e+01,2.148158454895019531e+01,3.313503646850585938e+01
1.959999948740005493e-01,2.000000000000000000e+00,-2.037332534790039062e+01,-5.422102451324462891e+00,4.958028411865234375e+01,9.429099273681640625e+01,8.484976196289062500e+01,1.364843597412109375e+02,2.077879190444946289e+00,-3.304108810424804688e+01,-1.848075408935546875e+02,3.630173492431640625e+01,2.149910545349121094e+01,3.313011550903320312e+01
2.000000029802322388e-01,2.000000000000000000e+00,-2.042807579040527344e+01,-5.384037971496582031e+00,4.953443145751953125e+01,9.429858398437500000e+01,8.484870147705078125e+01,1.364744110107421875e+02,2.025490045547485352e+00,-3.303509521484375000e+01,-1.848026123046875000e+02,3.630287551879882812e+01,2.151662254333496094e+01,3.312519454956054688e+01
2.039999961853027344e-01,2.000000000000000000e+00,-2.048283386230468750e+01,-5.345974445343017578e+00,4.948859024047851562e+01,9.430617523193359375e+01,8.484764099121093750e+01,1.364644470214843750e+02,1.973113179206848145e+00,-3.302910232543945312e+01,-1.847976837158203125e+02,3.630401992797851562e+01,2.153413772583007812e+01,3.312027359008789062e+01
2.080000042915344238e-01,2.000000000000000000e+00,-2.053758239746093750e+01,-5.307919502258300781e+00,4.944275665283203125e+01,9.431375122070312500e+01,8.484658813476562500e+01,1.364544982910156250e+02,1.920748710632324219e+00,-3.302310943603515625e+01,-1.847927551269531250e+02,3.630516052246093750e+01,2.155164527893066406e+01,3.311535644531250000e+01
2.119999974966049194e-01,2.000000000000000000e+00,-2.059231567382812500e+01,-5.269873142242431641e+00,4.939693450927734375e+01,9.432133483886718750e+01,8.484552764892578125e+01,1.364445495605468750e+02,1.868396162986755371e+00,-3.301711654663085938e+01,-1.847878265380859375e+02,3.630629730224609375e+01,2.156915092468261719e+01,3.311043930053710938e+01
2.160000056028366089e-01,2.000000000000000000e+00,-2.064703559875488281e+01,-5.231835842132568359e+00,4.935112380981445312e+01,9.432891845703125000e+01,8.484446716308593750e+01,1.364346008300781250e+02,1.816056013107299805e+00,-3.301112747192382812e+01,-1.847828826904296875e+02,3.630743789672851562e+01,2.158665084838867188e+01,3.310552215576171875e+01
2.199999988079071045e-01,2.000000000000000000e+00,-2.070174407958984375e+01,-5.193807601928710938e+00,4.930532455444335938e+01,9.433649444580078125e+01,8.484340667724609375e+01,1.364246520996093750e+02,1.763728022575378418e+00,-3.300514221191406250e+01,-1.847779541015625000e+02,3.630857849121093750e+01,2.160414886474609375e+01,3.310060501098632812e+01
2.240000069141387939e-01,2.000000000000000000e+00,-2.075643920898437500e+01,-5.155787467956542969e+00,4.925953292846679688e+01,9.434407043457031250e+01,8.484235382080078125e+01,1.364147033691406250e+02,1.711412429809570312e+00,-3.299915313720703125e+01,-1.847730407714843750e+02,3.630971908569335938e+01,2.162164115905761719e+01,3.309569168090820312e+01
2.280000001192092896e-01,2.000000000000000000e+00,-2.081112289428710938e+01,-5.117777347564697266e+00,4.921375274658203125e+01,9.435164642333984375e+01,8.484129333496093750e+01,1.364047698974609375e+02,1.659109115600585938e+00,-3.299317169189453125e+01,-1.847681121826171875e+02,3.631085586547851562e+01,2.163913154602050781e+01,3.309077835083007812e+01
2.319999933242797852e-01,2.000000000000000000e+00,-2.086579322814941406e+01,-5.079775810241699219e+00,4.916798400878906250e+01,9.435921478271484375e+01,8.484023284912109375e+01,1.363948211669921875e+02,1.606818079948425293e+00,-3.298718261718750000e+01,-1.847631835937500000e+02,3.631199645996093750e+01,2.165661430358886719e+01,3.308586883544921875e+01
2.360000014305114746e-01,2.000000000000000000e+00,-2.092045211791992188e+01,-5.041782855987548828e+00,4.912223052978515625e+01,9.436679077148437500e+01,8.483917999267578125e+01,1.363848724365234375e+02,1.554539203643798828e+00,-3.298120498657226562e+01,-1.847582550048828125e+02,3.631313323974609375e+01,2.167409515380859375e+01,3.308095550537109375e+01
2.399999946355819702e-01,2.000000000000000000e+00,-2.097509574890136719e+01,-5.003798961639404297e+00,4.907648086547851562e+01,9.437435913085937500e+01,8.483811950683593750e+01,1.363749389648437500e+02,1.502272605895996094e+00,-3.297521972656250000e+01,-1.847533416748046875e+02,3.631427383422851562e+01,2.169157028198242188e+01,3.307604980468750000e+01
2.440000027418136597e-01,2.000000000000000000e+00,-2.102972793579101562e+01,-4.965823650360107422e+00,4.903074645996093750e+01,9.438192749023437500e+01,8.483706665039062500e+01,1.363650207519531250e+02,1.450018286705017090e+00,-3.296924591064453125e+01,-1.847484130859375000e+02,3.631541442871093750e+01,2.170904350280761719e+01,3.307113647460937500e+01
2.479999959468841553e-01,2.000000000000000000e+00,-2.108434677124023438e+01,-4.927857398986816406e+00,4.898501968383789062e+01,9.438949584960937500e+01,8.483601379394531250e+01,1.363550872802734375e+02,1.397776126861572266e+00,-3.296326446533203125e+01,-1.847434844970703125e+02,3.631655120849609375e+01,2.172651100158691406e+01,3.306623077392578125e+01
2.520000040531158447e-01,2.000000000000000000e+00,-2.113895416259765625e+01,-4.889899730682373047e+00,4.893930816650390625e+01,9.439705657958984375e+01,8.483495330810546875e+01,1.363451538085937500e+02,1.345546245574951172e+00,-3.295728683471679688e+01,-1.847385711669921875e+02,3.631768798828125000e+01,2.174397659301757812e+01,3.306132507324218750e+01
2.560000121593475342e-01,2.000000000000000000e+00,-2.119354820251464844e+01,-4.851951122283935547e+00,4.889360427856445312e+01,9.440462493896484375e+01,8.483389282226562500e+01,1.363352203369140625e+02,1.293328404426574707e+00,-3.295131301879882812e+01,-1.847336578369140625e+02,3.631882476806640625e+01,2.176143455505371094e+01,3.305642318725585938e+01
2.599999904632568359e-01,2.000000000000000000e+00,-2.124812889099121094e+01,-4.814011096954345703e+00,4.884790802001953125e+01,9.441218566894531250e+01,8.483283996582031250e+01,1.363253021240234375e+02,1.241122722625732422e+00,-3.294533920288085938e+01,-1.847287445068359375e+02,3.631996154785156250e+01,2.177889251708984375e+01,3.305151748657226562e+01
2.639999985694885254e-01,2.000000000000000000e+00,-2.130269813537597656e+01,-4.776080131530761719e+00,4.880222320556640625e+01,9.441973876953125000e+01,8.483178710937500000e+01,1.363153686523437500e+02,1.188929200172424316e+00,-3.293936538696289062e+01,-1.847238159179687500e+02,3.632109832763671875e+01,2.179634284973144531e+01,3.304661560058593750e+01
2.680000066757202148e-01,2.000000000000000000e+00,-2.135725402832031250e+01,-4.738158226013183594e+00,4.875654983520507812e+01,9.442729949951171875e+01,8.483073425292968750e+01,1.363054504394531250e+02,1.136747717857360840e+00,-3.293339538574218750e+01,-1.847189178466796875e+02,3.632223510742187500e+01,2.181379127502441406e+01,3.304171371459960938e+01
2.720000147819519043e-01,2.000000000000000000e+00,-2.141179847717285156e+01,-4.700244903564453125e+00,4.871089172363281250e+01,9.443485260009765625e+01,8.482968139648437500e+01,1.362955322265625000e+02,1.084578394889831543e+00,-3.292742538452148438e+01,-1.847140045166015625e+02,3.632337188720703125e+01,2.183123397827148438e+01,3.303681182861328125e+01
2.759999930858612061e-01,2.000000000000000000e+00,-2.146632766723632812e+01,-4.662340164184570312e+00,4.866523742675781250e+01,9.444240570068359375e+01,8.482862091064453125e+01,1.362856140136718750e+02,1.032420992851257324e+00,-3.292145919799804688e+01,-1.847090759277343750e+02,3.632450866699218750e+01,2.184867477416992188e+01,3.303191375732421875e+01
2.800000011920928955e-01,2.000000000000000000e+00,-2.152084541320800781e+01,-4.624444007873535156e+00,4.861959838867187500e+01,9.444995117187500000e+01,8.482756805419921875e+01,1.362757110595703125e+02,9.802756905555725098e-01,-3.291549301147460938e+01,-1.847041778564453125e+02,3.632564544677734375e+01,2.186610984802246094e+01,3.302701568603515625e+01
2.840000092983245850e-01,2.000000000000000000e+00,-2.157535171508789062e+01,-4.586556911468505859e+00,4.857396697998046875e+01,9.445750427246093750e+01,8.482650756835937500e+01,1.362657928466796875e+02,9.281423687934875488e-01,-3.290952682495117188e+01,-1.846992645263671875e+02,3.632678222656250000e+01,2.188354301452636719e+01,3.302211761474609375e+01
2.879999876022338867e-01,2.000000000000000000e+00,-2.162984466552734375e+01,-4.548678398132324219e+00,4.852834701538085938e+01,9.446505737304687500e+01,8.482546234130859375e+01,1.362558898925781250e+02,8.760209679603576660e-01,-3.290356063842773438e+01,-1.846943511962890625e+02,3.632791519165039062e+01,2.190096855163574219e+01,3.301722335815429688e+01
2.919999957084655762e-01,2.000000000000000000e+00,-2.168432426452636719e+01,-4.510808467864990234e+00,4.848273849487304688e+01,9.447260284423828125e+01,8.482440948486328125e+01,1.362459869384765625e+02,8.239115476608276367e-01,-3.289759826660156250e+01,-1.846894531250000000e+02,3.632905197143554688e+01,2.191839408874511719e+01,3.301232528686523438e+01
2.960000038146972656e-01,2.000000000000000000e+00,-2.173879241943359375e+01,-4.472947597503662109e+00,4.843714141845703125e+01,9.448014831542968750e+01,8.482335662841796875e+01,1.362360839843750000e+02,7.718140482902526855e-01,-3.289163589477539062e+01,-1.846845397949218750e+02,3.633018493652343750e+01,2.193581390380859375e+01,3.300743103027343750e+01
3.000000119209289551e-01,2.000000000000000000e+00,-2.179324722290039062e+01,-4.435095310211181641e+00,4.839155197143554688e+01,9.448769378662109375e+01,8.482229614257812500e+01,1.362261810302734375e+02,7.197285294532775879e-01,-3.288567733764648438e+01,-1.846796417236328125e+02,3.633132171630859375e+01,2.195322799682617188e+01,3.300254058837890625e+01
3.039999902248382568e-01,2.000000000000000000e+00,-2.184769058227539062e+01,-4.397251605987548828e+00,4.834597396850585938e+01,9.449523162841796875e+01,8.482124328613281250e+01,1.362162780761718750e+02,6.676549315452575684e-01,-3.287971878051757812e+01,-1.846747436523437500e+02,3.633245468139648438e+01,2.197064018249511719e+01,3.299765014648437500e+01
3.079999983310699463e-01,2.000000000000000000e+00,-2.190212059020996094e+01,-4.359416484832763672e+00,4.830040740966796875e+01,9.450276947021484375e+01,8.482019042968750000e+01,1.362063751220703125e+02,6.155933141708374023e-01,-3.287376403808593750e+01,-1.846698303222656250e+02,3.633358764648437500e+01,2.198804855346679688e+01,3.299275970458984375e+01
3.120000064373016357e-01,2.000000000000000000e+00,-2.195653724670410156e+01,-4.321590423583984375e+00,4.825484848022460938e+01,9.451031494140625000e+01,8.481913757324218750e+01,1.361964874267578125e+02,5.635436177253723145e-01,-3.286780548095703125e+01,-1.846649322509765625e+02,3.633472061157226562e+01,2.200545310974121094e+01,3.298786926269531250e+01
3.160000145435333252e-01,2.000000000000000000e+00,-2.201094245910644531e+01,-4.283772468566894531e+00,4.820930099487304688e+01,9.451784515380859375e+01,8.481809234619140625e+01,1.361865997314453125e+02,5.115059018135070801e-01,-3.286185073852539062e+01,-1.846600341796875000e+02,3.633585739135742188e+01,2.202285194396972656e+01,3.298298263549804688e+01
3.199999928474426270e-01,2.000000000000000000e+00,-2.206533622741699219e+01,-4.245963573455810547e+00,4.816376495361328125e+01,9.452538299560546875e+01,8.481703948974609375e+01,1.361767120361328125e+02,4.594800770282745361e-01,-3.285589981079101562e+01,-1.846551208496093750e+02,3.633699035644531250e+01,2.204024887084960938e+01,3.297809600830078125e+01
3.240000009536743164e-01,2.000000000000000000e+00,-2.211971664428710938e+01,-4.208163738250732422e+00,4.811824417114257812e+01,9.453291320800781250e+01,8.481598663330078125e+01,1.361668243408203125e+02,4.074661433696746826e-01,-3.284994506835937500e+01,-1.846502380371093750e+02,3.633812332153320312e+01,2.205764007568359375e+01,3.297320938110351562e+01
3.280000090599060059e-01,2.000000000000000000e+00,-2.217408561706542969e+01,-4.170372009277343750e+00,4.807272720336914062e+01,9.454044342041015625e+01,8.481493377685546875e+01,1.361569213867187500e+02,3.554642200469970703e-01,-3.284399795532226562e+01,-1.846453247070312500e+02,3.633925628662109375e+01,2.207502746582031250e+01,3.296832656860351562e+01
3.319999873638153076e-01,2.000000000000000000e+00,-2.222843933105468750e+01,-4.132588863372802734e+00,4.802722167968750000e+01,9.454797363281250000e+01,8.481388092041015625e+01,1.361470489501953125e+02,3.034741580486297607e-01,-3.283804702758789062e+01,-1.846404418945312500e+02,3.634038543701171875e+01,2.209241294860839844e+01,3.296344375610351562e+01
3.359999954700469971e-01,2.000000000000000000e+00,-2.228278160095214844e+01,-4.094814777374267578e+00,4.798172760009765625e+01,9.455550384521484375e+01,8.481282806396484375e+01,1.361371765136718750e+02,2.514960169792175293e-01,-3.283209991455078125e+01,-1.846355285644531250e+02,3.634152221679687500e+01,2.210979270935058594e+01,3.295856094360351562e+01
3.400000035762786865e-01,2.000000000000000000e+00,-2.233711242675781250e+01,-4.057049274444580078e+00,4.793624114990234375e+01,9.456302642822265625e+01,8.481178283691406250e+01,1.361272888183593750e+02,1.995298266410827637e-01,-3.282615280151367188e+01,-1.846306457519531250e+02,3.634265136718750000e+01,2.212716865539550781e+01,3.295367813110351562e+01
3.440000116825103760e-01,2.000000000000000000e+00,-2.239142990112304688e+01,-4.019292354583740234e+00,4.789076995849609375e+01,9.457055664062500000e+01,8.481072998046875000e+01,1.361174011230468750e+02,1.475755423307418823e-01,-3.282020568847656250e+01,-1.846257476806640625e+02,3.634378433227539062e+01,2.214454078674316406e+01,3.294879913330078125e+01
3.479999899864196777e-01,2.000000000000000000e+00,-2.244573593139648438e+01,-3.981544017791748047e+00,4.784530639648437500e+01,9.457807159423828125e+01,8.480968475341796875e+01,1.361075286865234375e+02,9.563314914703369141e-02,-3.281426620483398438e+01,-1.846208648681640625e+02,3.634491729736328125e+01,2.216190910339355469e+01,3.294392013549804688e+01
3.519999980926513672e-01,2.000000000000000000e+00,-2.250003051757812500e+01,-3.943804264068603516e+00,4.779985427856445312e+01,9.458559417724609375e+01,8.480863189697265625e+01,1.360976715087890625e+02,4.370267316699028015e-02,-3.280832290649414062e+01,-1.846159667968750000e+02,3.634604644775390625e+01,2.217927169799804688e+01,3.293904113769531250e+01
3.560000061988830566e-01,2.000000000000000000e+00,-2.255430984497070312e+01,-3.906072854995727539e+00,4.775441360473632812e+01,9.459311676025390625e+01,8.480758666992187500e+01,1.360877990722656250e+02,-8.215907029807567596e-03,-3.280237960815429688e+01,-1.846110839843750000e+02,3.634717559814453125e+01,2.219663047790527344e+01,3.293416595458984375e+01
3.600000143051147461e-01,2.000000000000000000e+00,-2.260857963562011719e+01,-3.868350744247436523e+00,4.770897674560546875e+01,9.460063171386718750e+01,8.480653381347656250e+01,1.360779266357421875e+02,-6.012258678674697876e-02,-3.279644012451171875e+01,-1.846061859130859375e+02,3.634830856323242188e+01,2.221398925781250000e+01,3.292928695678710938e+01
3.639999926090240479e-01,2.000000000000000000e+00,-2.266283416748046875e+01,-3.830636978149414062e+00,4.766355514526367188e+01,9.460814666748046875e+01,8.480548095703125000e+01,1.360680694580078125e+02,-1.120173707604408264e-01,-3.279050064086914062e+01,-1.846013031005859375e+02,3.634943771362304688e+01,2.223134040832519531e+01,3.292441558837890625e+01
3.680000007152557373e-01,2.000000000000000000e+00,-2.271707534790039062e+01,-3.792932271957397461e+00,4.761814498901367188e+01,9.461566162109375000e+01,8.480443572998046875e+01,1.360581970214843750e+02,-1.639002710580825806e-01,-3.278456878662109375e+01,-1.845964050292968750e+02,3.635056686401367188e+01,2.224868774414062500e+01,3.291954040527343750e+01
3.720000088214874268e-01,2.000000000000000000e+00,-2.277130889892578125e+01,-3.755235433578491211e+00,4.757274627685546875e+01,9.462317657470703125e+01,8.480338287353515625e+01,1.360483398437500000e+02,-2.157712876796722412e-01,-3.277863311767578125e+01,-1.845915374755859375e+02,3.635169982910156250e+01,2.226603317260742188e+01,3.291466903686523438e+01
3.759999871253967285e-01,2.000000000000000000e+00,-2.282552528381347656e+01,-3.717547893524169922e+00,4.752735519409179688e+01,9.463068389892578125e+01,8.480233764648437500e+01,1.360384826660156250e+02,-2.676303982734680176e-01,-3.277269744873046875e+01,-1.845866394042968750e+02,3.635282897949218750e+01,2.228337287902832031e+01,3.290979385375976562e+01
3.799999952316284180e-01,2.000000000000000000e+00,-2.287973213195800781e+01,-3.679868698120117188e+00,4.748197555541992188e+01,9.463819122314453125e+01,8.480128479003906250e+01,1.360286254882812500e+02,-3.194776773452758789e-01,-3.276676559448242188e+01,-1.845817718505859375e+02,3.635395812988281250e+01,2.230070877075195312e+01,3.290492630004882812e+01
3.840000033378601074e-01,2.000000000000000000e+00,-2.293392562866210938e+01,-3.642198085784912109e+00,4.743660736083984375e+01,9.464569854736328125e+01,8.480023956298828125e+01,1.360187683105468750e+02,-3.713130354881286621e-01,-3.276083374023437500e+01,-1.845768890380859375e+02,3.635508728027343750e+01,2.231804084777832031e+01,3.290005874633789062e+01
3.880000114440917969e-01,2.000000000000000000e+00,-2.298810577392578125e+01,-3.604535818099975586e+00,4.739124679565429688e+01,9.465320587158203125e+01,8.479918670654296875e+01,1.360089111328125000e+02,-4.231365621089935303e-01,-3.275489807128906250e+01,-1.845720062255859375e+02,3.635621643066406250e+01,2.233536911010742188e+01,3.289518737792968750e+01
3.919999897480010986e-01,2.000000000000000000e+00,-2.304227638244628906e+01,-3.566882848739624023e+00,4.734589767456054688e+01,9.466070556640625000e+01,8.479814147949218750e+01,1.359990692138671875e+02,-4.749481379985809326e-01,-3.274897003173828125e+01,-1.845671234130859375e+02,3.635734176635742188e+01,2.235269165039062500e+01,3.289032363891601562e+01
3.959999978542327881e-01,2.000000000000000000e+00,-2.309643173217773438e+01,-3.529238224029541016e+00,4.730055999755859375e+01,9.466821289062500000e+01,8.479709625244140625e+01,1.359892120361328125e+02,-5.267479419708251953e-01,-3.274304580688476562e+01,-1.845622406005859375e+02,3.635847473144531250e+01,2.237001419067382812e+01,3.288545608520507812e+01
4.000000059604644775e-01,2.000000000000000000e+00,-2.315057563781738281e+01,-3.491601943969726562e+00,4.725523376464843750e+01,9.467571258544921875e+01,8.479605102539062500e+01,1.359793701171875000e+02,-5.785358548164367676e-01,-3.273712158203125000e+01,-1.845573730468750000e+02,3.635960006713867188e+01,2.238733100891113281e+01,3.288059234619140625e+01
4.040000140666961670e-01,2.000000000000000000e+00,-2.320470809936523438e+01,-3.453974723815917969e+00,4.720991516113281250e+01,9.468321228027343750e+01,8.479500579833984375e+01,1.359695281982421875e+02,-6.303119063377380371e-01,-3.273119735717773438e+01,-1.845524902343750000e+02,3.636072921752929688e+01,2.240464210510253906e+01,3.287572860717773438e+01
4.079999923706054688e-01,2.000000000000000000e+00,-2.325882720947265625e+01,-3.416355848312377930e+00,4.716460800170898438e+01,9.469070434570312500e+01,8.479396057128906250e+01,1.359596862792968750e+02,-6.820760965347290039e-01,-3.272526931762695312e+01,-1.845476226806640625e+02,3.636185455322265625e+01,2.242195129394531250e+01,3.287086486816406250e+01
4.120000004768371582e-01,2.000000000000000000e+00,-2.331293296813964844e+01,-3.378745555877685547e+00,4.711931228637695312e+01,9.469820404052734375e+01,8.479291534423828125e+01,1.359498443603515625e+02,-7.338284254074096680e-01,-3.271934890747070312e+01,-1.845427398681640625e+02,3.636297988891601562e+01,2.243925476074218750e+01,3.286600494384765625e+01
4.160000085830688477e-01,2.000000000000000000e+00,-2.336702919006347656e+01,-3.341143846511840820e+00,4.707402801513671875e+01,9.470569610595703125e+01,8.479186248779296875e+01,1.359400177001953125e+02,-7.855689525604248047e-01,-3.271343231201171875e+01,-1.845378570556640625e+02,3.636410903930664062e+01,2.245655632019042969e+01,3.286114883422851562e+01
4.199999868869781494e-01,2.000000000000000000e+00,-2.342111015319824219e+01,-3.303550958633422852e+00,4.702874755859375000e+01,9.471318817138671875e+01,8.479081726074218750e+01,1.359301757812500000e+02,-8.372975587844848633e-01,-3.270750808715820312e+01,-1.845330047607421875e+02,3.636523437500000000e+01,2.247385215759277344e+01,3.285628890991210938e+01
4.239999949932098389e-01,2.000000000000000000e+00,-2.347518157958984375e+01,-3.265966653823852539e+00,4.698348617553710938e+01,9.472067260742187500e+01,8.478977203369140625e+01,1.359203491210937500e+02,-8.890144228935241699e-01,-3.270159149169921875e+01,-1.845281219482421875e+02,3.636636352539062500e+01,2.249114418029785156e+01,3.285142898559570312e+01
4.280000030994415283e-01,2.000000000000000000e+00,-2.352923774719238281e+01,-3.228390693664550781e+00,4.693822860717773438e+01,9.472816467285156250e+01,8.478872680664062500e+01,1.359105224609375000e+02,-9.407194256782531738e-01,-3.269567489624023438e+01,-1.845232543945312500e+02,3.636748886108398438e+01,2.250843238830566406e+01,3.284657287597656250e+01
4.320000112056732178e-01,2.000000000000000000e+00,-2.358328247070312500e+01,-3.190823554992675781e+00,4.689298629760742188e+01,9.473565673828125000e+01,8.478768157958984375e+01,1.359006958007812500e+02,-9.924125075340270996e-01,-3.268976211547851562e+01,-1.845183868408203125e+02,3.636861801147460938e+01,2.252571678161621094e+01,3.284171676635742188e+01
4.359999895095825195e-01,2.000000000000000000e+00,-2.363731384277343750e+01,-3.153264760971069336e+00,4.684774780273437500e+01,9.474313354492187500e+01,8.478663635253906250e+01,1.358908691406250000e+02,-1.044093847274780273e+00,-3.268384552001953125e+01,-1.845135192871093750e+02,3.636973953247070312e+01,2.254299926757812500e+01,3.283686065673828125e+01
4.399999976158142090e-01,2.000000000000000000e+00,-2.369133567810058594e+01,-3.115714788436889648e+00,4.680252456665039062e+01,9.475061798095703125e+01,8.478559112548828125e+01,1.358810424804687500e+02,-1.095763444900512695e+00,-3.267793273925781250e+01,-1.845086517333984375e+02,3.637086868286132812e+01,2.256027412414550781e+01,3.283200836181640625e+01
4.440000057220458984e-01,2.000000000000000000e+00,-2.374534416198730469e+01,-3.078173637390136719e+00,4.675730895996093750e+01,9.475809478759765625e+01,8.478454589843750000e+01,1.358712158203125000e+02,-1.147421121597290039e+00,-3.267202377319335938e+01,-1.845037994384765625e+02,3.637199401855468750e+01,2.257754707336425781e+01,3.282715606689453125e+01
4.480000138282775879e-01,2.000000000000000000e+00,-2.379933929443359375e+01,-3.040640592575073242e+00,4.671210861206054688e+01,9.476557922363281250e+01,8.478350067138671875e+01,1.358614044189453125e+02,-1.199066877365112305e+00,-3.266611480712890625e+01,-1.844989318847656250e+02,3.637311935424804688e+01,2.259481620788574219e+01,3.282230377197265625e+01
4.519999921321868896e-01,2.000000000000000000e+00,-2.385332298278808594e+01,-3.003116369247436523e+00,4.666691207885742188e+01,9.477305603027343750e+01,8.478245544433593750e+01,1.358515930175781250e+02,-1.250700950622558594e+00,-3.266020202636718750e+01,-1.844940643310546875e+02,3.637424087524414062e+01,2.261208152770996094e+01,3.281745529174804688e+01
4.560000002384185791e-01,2.000000000000000000e+00,-2.390729331970214844e+01,-2.965600728988647461e+00,4.662173080444335938e+01,9.478053283691406250e+01,8.478141784667968750e+01,1.358417816162109375e+02,-1.302323222160339355e+00,-3.265429687500000000e+01,-1.844891967773437500e+02,3.637537002563476562e+01,2.262934303283691406e+01,3.281260299682617188e+01
4.600000083446502686e-01,2.000000000000000000e+00,-2.396125221252441406e+01,-2.928093671798706055e+00,4.657656097412109375e+01,9.478800964355468750e+01,8.478037261962890625e+01,1.358319549560546875e+02,-1.353933691978454590e+00,-3.264839172363281250e+01,-1.844843444824218750e+02,3.637649154663085938e+01,2.264659881591796875e+01,3.280775833129882812e+01
4.639999866485595703e-01,2.000000000000000000e+00,-2.401519775390625000e+01,-2.890595197677612305e+00,4.653139495849609375e+01,9.479547882080078125e+01,8.477932739257812500e+01,1.358221588134765625e+02,-1.405532240867614746e+00,-3.264249038696289062e+01,-1.844794769287109375e+02,3.637761688232421875e+01,2.266385269165039062e+01,3.280291366577148438e+01
4.679999947547912598e-01,2.000000000000000000e+00,-2.406913185119628906e+01,-2.853105068206787109e+00,4.648624420166015625e+01,9.480294799804687500e+01,8.477828216552734375e+01,1.358123474121093750e+02,-1.457119226455688477e+00,-3.263658523559570312e+01,-1.844746246337890625e+02,3.637873840332031250e+01,2.268110084533691406e+01,3.279806518554687500e+01
4.720000028610229492e-01,2.000000000000000000e+00,-2.412305259704589844e+01,-2.815623760223388672e+00,4.644110488891601562e+01,9.481042480468750000e+01,8.477724456787109375e+01,1.358025512695312500e+02,-1.508694171905517578e+00,-3.263068389892578125e+01,-1.844697723388671875e+02,3.637986373901367188e+01,2.269834709167480469e+01,3.279322052001953125e+01
4.760000109672546387e-01,2.000000000000000000e+00,-2.417696189880371094e+01,-2.778151035308837891e+00,4.639597320556640625e+01,9.481788635253906250e+01,8.477619934082031250e+01,1.357927398681640625e+02,-1.560257434844970703e+00,-3.262478256225585938e+01,-1.844649047851562500e+02,3.638098526000976562e+01,2.271558761596679688e+01,3.278837966918945312e+01
4.799999892711639404e-01,2.000000000000000000e+00,-2.423085784912109375e+01,-2.740686893463134766e+00,4.635085296630859375e+01,9.482535552978515625e+01,8.477516174316406250e+01,1.357829437255859375e+02,-1.611808896064758301e+00,-3.261888504028320312e+01,-1.844600524902343750e+02,3.638211059570312500e+01,2.273282432556152344e+01,3.278353500366210938e+01
4.839999973773956299e-01,2.000000000000000000e+00,-2.428474235534667969e+01,-2.703231096267700195e+00,4.630574035644531250e+01,9.483281707763671875e+01,8.477411651611328125e+01,1.357731323242187500e+02,-1.663348555564880371e+00,-3.261298751831054688e+01,-1.844552001953125000e+02,3.638322830200195312e+01,2.275005722045898438e+01,3.277869415283203125e+01
4.880000054836273193e-01,2.000000000000000000e+00,-2.433861541748046875e+01,-2.665784120559692383e+00,4.626063919067382812e+01,9.484027862548828125e+01,8.477307128906250000e+01,1.357633514404296875e+02,-1.714876413345336914e+00,-3.260708999633789062e+01,-1.844503326416015625e+02,3.638435363769531250e+01,2.276728630065917969e+01,3.277385330200195312e+01
4.920000135898590088e-01,2.000000000000000000e+00,-2.439247512817382812e+01,-2.628345727920532227e+00,4.621554946899414062e+01,9.484774780273437500e+01,8.477203369140625000e+01,1.357535552978515625e+02,-1.766392588615417480e+00,-3.260119247436523438e+01,-1.844454956054687500e+02,3.638547515869140625e+01,2.278451156616210938e+01,3.276901626586914062e+01
4.959999918937683105e-01,2.000000000000000000e+00,-2.444632339477539062e+01,-2.590915441513061523e+00,4.617047119140625000e+01,9.485520172119140625e+01,8.477098846435546875e+01,1.357437744140625000e+02,-1.817896962165832520e+00,-3.259530258178710938e+01,-1.844406433105468750e+02,3.638659667968750000e+01,2.280173492431640625e+01,3.276417922973632812e+01
5.000000000000000000e-01,2.000000000000000000e+00,-2.450015830993652344e+01,-2.553493976593017578e+00,4.612540054321289062e+01,9.486266326904296875e+01,8.476995086669921875e+01,1.357339782714843750e+02,-1.869389533996582031e+00,-3.258940887451171875e+01,-1.844357910156250000e+02,3.638772201538085938e+01,2.281895256042480469e+01,3.275933837890625000e+01
5.040000081062316895e-01,2.000000000000000000e+00,-2.455398178100585938e+01,-2.516081094741821289e+00,4.608034133911132812e+01,9.487010955810546875e+01,8.476891326904296875e+01,1.357241973876953125e+02,-1.920870304107666016e+00,-3.258351516723632812e+01,-1.844309387207031250e+02,3.638883972167968750e+01,2.283616638183593750e+01,3.275450515747070312e+01
5.080000162124633789e-01,2.000000000000000000e+00,-2.460779190063476562e+01,-2.478677034378051758e+00,4.603529357910156250e+01,9.487757110595703125e+01,8.476786804199218750e+01,1.357144012451171875e+02,-1.972339272499084473e+00,-3.257762908935546875e+01,-1.844260864257812500e+02,3.638996124267578125e+01,2.285337448120117188e+01,3.274967193603515625e+01
5.120000243186950684e-01,2.000000000000000000e+00,-2.466159248352050781e+01,-2.441281080245971680e+00,4.599025726318359375e+01,9.488502502441406250e+01,8.476683044433593750e+01,1.357046203613281250e+02,-2.023796558380126953e+00,-3.257174301147460938e+01,-1.844212493896484375e+02,3.639108276367187500e+01,2.287058067321777344e+01,3.274483489990234375e+01
5.159999728202819824e-01,2.000000000000000000e+00,-2.471537780761718750e+01,-2.403893947601318359e+00,4.594522857666015625e+01,9.489247131347656250e+01,8.476579284667968750e+01,1.356948394775390625e+02,-2.075242280960083008e+00,-3.256585311889648438e+01,-1.844164123535156250e+02,3.639220428466796875e+01,2.288778114318847656e+01,3.274000167846679688e+01
5.199999809265136719e-01,2.000000000000000000e+00,-2.476915168762207031e+01,-2.366514921188354492e+00,4.590020751953125000e+01,9.489991760253906250e+01,8.476474761962890625e+01,1.356850738525390625e+02,-2.126675844192504883e+00,-3.255996704101562500e+01,-1.844115600585937500e+02,3.639332580566406250e+01,2.290497970581054688e+01,3.273517608642578125e+01
5.239999890327453613e-01,2.000000000000000000e+00,-2.482291221618652344e+01,-2.329144954681396484e+00,4.585519790649414062e+01,9.490736389160156250e+01,8.476371002197265625e+01,1.356752929687500000e+02,-2.178097963333129883e+00,-3.255408096313476562e+01,-1.844067230224609375e+02,3.639444351196289062e+01,2.292217445373535156e+01,3.273034286499023438e+01
5.279999971389770508e-01,2.000000000000000000e+00,-2.487666320800781250e+01,-2.291783332824707031e+00,4.581020355224609375e+01,9.491481018066406250e+01,8.476267242431640625e+01,1.356655273437500000e+02,-2.229508161544799805e+00,-3.254820251464843750e+01,-1.844018707275390625e+02,3.639556121826171875e+01,2.293936538696289062e+01,3.272551345825195312e+01
5.320000052452087402e-01,2.000000000000000000e+00,-2.493039894104003906e+01,-2.254430055618286133e+00,4.576521682739257812e+01,9.492225646972656250e+01,8.476162719726562500e+01,1.356557464599609375e+02,-2.280906915664672852e+00,-3.254232025146484375e+01,-1.843970336914062500e+02,3.639668273925781250e+01,2.295654869079589844e+01,3.272068405151367188e+01
5.360000133514404297e-01,2.000000000000000000e+00,-2.498412513732910156e+01,-2.217085599899291992e+00,4.572023773193359375e+01,9.492970275878906250e+01,8.476058959960937500e+01,1.356459808349609375e+02,-2.332293510437011719e+00,-3.253643798828125000e+01,-1.843921966552734375e+02,3.639780044555664062e+01,2.297373199462890625e+01,3.271585845947265625e+01
5.400000214576721191e-01,2.000000000000000000e+00,-2.503783798217773438e+01,-2.179749488830566406e+00,4.567527008056640625e+01,9.493713378906250000e+01,8.475955200195312500e+01,1.356361999511718750e+02,-2.383668899536132812e+00,-3.253056335449218750e+01,-1.843873596191406250e+02,3.639892196655273438e+01,2.299090957641601562e+01,3.271103286743164062e+01
5.440000295639038086e-01,2.000000000000000000e+00,-2.509153747558593750e+01,-2.142421960830688477e+00,4.563031387329101562e+01,9.494457244873046875e+01,8.475851440429687500e+01,1.356264343261718750e+02,-2.435032129287719727e+00,-3.252468109130859375e+01,-1.843825225830078125e+02,3.640003967285156250e+01,2.300808525085449219e+01,3.270620727539062500e+01
5.479999780654907227e-01,2.000000000000000000e+00,-2.514522552490234375e+01,-2.105103015899658203e+00,4.558536911010742188e+01,9.495201110839843750e+01,8.475747680664062500e+01,1.356166839599609375e+02,-2.486383676528930664e+00,-3.251880645751953125e+01,-1.843776855468750000e+02,3.640115737915039062e+01,2.302525520324707031e+01,3.270138549804687500e+01
5.519999861717224121e-01,2.000000000000000000e+00,-2.519890022277832031e+01,-2.067792415618896484e+00,4.554043197631835938e+01,9.495944976806640625e+01,8.475643920898437500e+01,1.356069183349609375e+02,-2.537723779678344727e+00,-3.251293182373046875e+01,-1.843728485107421875e+02,3.640227508544921875e+01,2.304242134094238281e+01,3.269656372070312500e+01
5.559999942779541016e-01,2.000000000000000000e+00,-2.525256538391113281e+01,-2.030490398406982422e+00,4.549550628662109375e+01,9.496688079833984375e+01,8.475540161132812500e+01,1.355971679687500000e+02,-2.589051723480224609e+00,-3.250706100463867188e+01,-1.843680267333984375e+02,3.640339660644531250e+01,2.305958557128906250e+01,3.269174194335937500e+01
5.600000023841857910e-01,2.000000000000000000e+00,-2.530621719360351562e+01,-1.993196964263916016e+00,4.545059585571289062e+01,9.497431182861328125e+01,8.475436401367187500e+01,1.355874176025390625e+02,-2.640368223190307617e+00,-3.250118637084960938e+01,-1.843631896972656250e+02,3.640451431274414062e+01,2.307674407958984375e+01,3.268692016601562500e+01
5.640000104904174805e-01,2.000000000000000000e+00,-2.535985565185546875e+01,-1.955911993980407715e+00,4.540568923950195312e+01,9.498174285888671875e+01,8.475332641601562500e+01,1.355776519775390625e+02,-2.691673040390014648e+00,-3.249531555175781250e+01,-1.843583526611328125e+02,3.640562820434570312e+01,2.309389686584472656e+01,3.268210220336914062e+01
5.680000185966491699e-01,2.000000000000000000e+00,-2.541348266601562500e+01,-1.918635606765747070e+00,4.536079788208007812e+01,9.498917388916015625e+01,8.475228881835937500e+01,1.355679016113281250e+02,-2.742966175079345703e+00,-3.248944854736328125e+01,-1.843535156250000000e+02,3.640674972534179688e+01,2.311104774475097656e+01,3.267728424072265625e+01
5.720000267028808594e-01,2.000000000000000000e+00,-2.546709632873535156e+01,-1.881367683410644531e+00,4.531591033935546875e+01,9.499660491943359375e+01,8.475125122070312500e+01,1.355581512451171875e+02,-2.794247388839721680e+00,-3.248357772827148438e+01,-1.843486938476562500e+02,3.640786743164062500e+01,2.312819480895996094e+01,3.267246627807617188e+01
5.759999752044677734e-01,2.000000000000000000e+00,-2.552070045471191406e+01,-1.844108223915100098e+00,4.527103805541992188e+01,9.500402832031250000e+01,8.475021362304687500e+01,1.355484161376953125e+02,-2.845517158508300781e+00,-3.247771072387695312e+01,-1.843438568115234375e+02,3.640898132324218750e+01,2.314533996582031250e+01,3.266765213012695312e+01
5.799999833106994629e-01,2.000000000000000000e+00,-2.557428932189941406e+01,-1.806857228279113770e+00,4.522617340087890625e+01,9.501145172119140625e+01,8.474917602539062500e+01,1.355386505126953125e+02,-2.896775007247924805e+00,-3.247184753417968750e+01,-1.843390350341796875e+02,3.641009902954101562e+01,2.316247749328613281e+01,3.266283416748046875e+01
5.839999914169311523e-01,2.000000000000000000e+00,-2.562786674499511719e+01,-1.769614815711975098e+00,4.518132019042968750e+01,9.501887512207031250e+01,8.474813842773437500e+01,1.355289154052734375e+02,-2.948021411895751953e+00,-3.246598434448242188e+01,-1.843342132568359375e+02,3.641121292114257812e+01,2.317961502075195312e+01,3.265802383422851562e+01
5.879999995231628418e-01,2.000000000000000000e+00,-2.568143272399902344e+01,-1.732380867004394531e+00,4.513647460937500000e+01,9.502629089355468750e+01,8.474710083007812500e+01,1.355191802978515625e+02,-2.999256134033203125e+00,-3.246011734008789062e+01,-1.843293914794921875e+02,3.641233062744140625e+01,2.319674682617187500e+01,3.265320968627929688e+01
5.920000076293945312e-01,2.000000000000000000e+00,-2.573498725891113281e+01,-1.695155382156372070e+00,4.509164428710937500e+01,9.503370666503906250e+01,8.474607086181640625e+01,1.355094451904296875e+02,-3.050478935241699219e+00,-3.245425796508789062e+01,-1.843245544433593750e+02,3.641344833374023438e+01,2.321387481689453125e+01,3.264839553833007812e+01
5.960000157356262207e-01,2.000000000000000000e+00,-2.578852844238281250e+01,-1.657938599586486816e+00,4.504681777954101562e+01,9.504113006591796875e+01,8.474503326416015625e+01,1.354997100830078125e+02,-3.101690053939819336e+00,-3.244839859008789062e+01,-1.843197326660156250e+02,3.641456222534179688e+01,2.323100090026855469e+01,3.264358901977539062e+01
6.000000238418579102e-01,2.000000000000000000e+00,-2.584205818176269531e+01,-1.620730161666870117e+00,4.500200653076171875e+01,9.504853820800781250e+01,8.474400329589843750e+01,1.354899749755859375e+02,-3.152889728546142578e+00,-3.244253921508789062e+01,-1.843149108886718750e+02,3.641567611694335938e+01,2.324811935424804688e+01,3.263877868652343750e+01
6.039999723434448242e-01,2.000000000000000000e+00,-2.589557456970214844e+01,-1.583530187606811523e+00,4.495720291137695312e+01,9.505595397949218750e+01,8.474296569824218750e+01,1.354802398681640625e+02,-3.204077482223510742e+00,-3.243667984008789062e+01,-1.843100891113281250e+02,3.641679382324218750e+01,2.326523590087890625e+01,3.263397216796875000e+01
6.079999804496765137e-01,2.000000000000000000e+00,-2.594907951354980469e+01,-1.546338558197021484e+00,4.491241073608398438e+01,9.506336975097656250e+01,8.474192810058593750e+01,1.354705200195312500e+02,-3.255253791809082031e+00,-3.243082809448242188e+01,-1.843052825927734375e+02,3.641790771484375000e+01,2.328234863281250000e+01,3.262916183471679688e+01
6.119999885559082031e-01,2.000000000000000000e+00,-2.600257301330566406e+01,-1.509155154228210449e+00,4.486763000488281250e+01,9.507077789306640625e+01,8.474089813232421875e+01,1.354608001708984375e+02,-3.306418180465698242e+00,-3.242497253417968750e+01,-1.843004608154296875e+02,3.641902160644531250e+01,2.329945564270019531e+01,3.262435913085937500e+01
6.159999966621398926e-01,2.000000000000000000e+00,-2.605605316162109375e+01,-1.471980333328247070e+00,4.482285308837890625e+01,9.507817840576171875e+01,8.473986053466796875e+01,1.354510650634765625e+02,-3.357571125030517578e+00,-3.241911697387695312e+01,-1.842956390380859375e+02,3.642013549804687500e+01,2.331656074523925781e+01,3.261955261230468750e+01
6.200000047683715820e-01,2.000000000000000000e+00,-2.610952186584472656e+01,-1.434813857078552246e+00,4.477809143066406250e+01,9.508559417724609375e+01,8.473882293701171875e+01,1.354413452148437500e+02,-3.408712387084960938e+00,-3.241326904296875000e+01,-1.842908325195312500e+02,3.642124938964843750e+01,2.333366012573242188e+01,3.261474609375000000e+01
6.240000128746032715e-01,2.000000000000000000e+00,-2.616297912597656250e+01,-1.397655844688415527e+00,4.473334121704101562e+01,9.509299468994140625e+01,8.473779296875000000e+01,1.354316253662109375e+02,-3.459842205047607422e+00,-3.240741729736328125e+01,-1.842860107421875000e+02,3.642236328125000000e+01,2.335075569152832031e+01,3.260994720458984375e+01
6.280000209808349609e-01,2.000000000000000000e+00,-2.621642303466796875e+01,-1.360506296157836914e+00,4.468859863281250000e+01,9.510040283203125000e+01,8.473676300048828125e+01,1.354219055175781250e+02,-3.510960340499877930e+00,-3.240156555175781250e+01,-1.842812042236328125e+02,3.642347717285156250e+01,2.336784744262695312e+01,3.260514450073242188e+01
6.320000290870666504e-01,2.000000000000000000e+00,-2.626985549926757812e+01,-1.323365092277526855e+00,4.464386749267578125e+01,9.510780334472656250e+01,8.473572540283203125e+01,1.354121856689453125e+02,-3.562067031860351562e+00,-3.239571762084960938e+01,-1.842763824462890625e+02,3.642459106445312500e+01,2.338493728637695312e+01,3.260034179687500000e+01
6.359999775886535645e-01,2.000000000000000000e+00,-2.632327651977539062e+01,-1.286232352256774902e+00,4.459914398193359375e+01,9.511520385742187500e+01,8.473469543457031250e+01,1.354024810791015625e+02,-3.613162517547607422e+00,-3.238986968994140625e+01,-1.842715606689453125e+02,3.642570495605468750e+01,2.340202140808105469e+01,3.259554672241210938e+01
6.399999856948852539e-01,2.000000000000000000e+00,-2.637668228149414062e+01,-1.249107837677001953e+00,4.455443572998046875e+01,9.512259674072265625e+01,8.473365783691406250e+01,1.353927612304687500e+02,-3.664245843887329102e+00,-3.238402938842773438e+01,-1.842667541503906250e+02,3.642681503295898438e+01,2.341910171508789062e+01,3.259074783325195312e+01
6.439999938011169434e-01,2.000000000000000000e+00,-2.643008041381835938e+01,-1.211991667747497559e+00,4.450973510742187500e+01,9.512999725341796875e+01,8.473262786865234375e+01,1.353830566406250000e+02,-3.715318202972412109e+00,-3.237818145751953125e+01,-1.842619476318359375e+02,3.642792892456054688e+01,2.343617820739746094e+01,3.258594894409179688e+01
6.480000019073486328e-01,2.000000000000000000e+00,-2.648346519470214844e+01,-1.174883842468261719e+00,4.446504211425781250e+01,9.513739013671875000e+01,8.473159027099609375e+01,1.353733520507812500e+02,-3.766378879547119141e+00,-3.237233734130859375e+01,-1.842571411132812500e+02,3.642903900146484375e+01,2.345325088500976562e+01,3.258115386962890625e+01
6.520000100135803223e-01,2.000000000000000000e+00,-2.653683662414550781e+01,-1.137784361839294434e+00,4.442036056518554688e+01,9.514478302001953125e+01,8.473056030273437500e+01,1.353636474609375000e+02,-3.817428112030029297e+00,-3.236649703979492188e+01,-1.842523345947265625e+02,3.643015289306640625e+01,2.347032165527343750e+01,3.257635879516601562e+01
6.560000181198120117e-01,2.000000000000000000e+00,-2.659019851684570312e+01,-1.100693106651306152e+00,4.437568664550781250e+01,9.515217590332031250e+01,8.472953033447265625e+01,1.353539428710937500e+02,-3.868466377258300781e+00,-3.236065673828125000e+01,-1.842475280761718750e+02,3.643126296997070312e+01,2.348738670349121094e+01,3.257156372070312500e+01
6.600000262260437012e-01,2.000000000000000000e+00,-2.664354515075683594e+01,-1.063610196113586426e+00,4.433102416992187500e+01,9.515956115722656250e+01,8.472850036621093750e+01,1.353442382812500000e+02,-3.919492959976196289e+00,-3.235481643676757812e+01,-1.842427215576171875e+02,3.643237686157226562e+01,2.350444793701171875e+01,3.256676864624023438e+01
6.639999747276306152e-01,2.000000000000000000e+00,-2.669688224792480469e+01,-1.026535511016845703e+00,4.428637695312500000e+01,9.516695404052734375e+01,8.472746276855468750e+01,1.353345489501953125e+02,-3.970508098602294922e+00,-3.234897994995117188e+01,-1.842378997802734375e+02,3.643348693847656250e+01,2.352150726318359375e+01,3.256197738647460938e+01
6.679999828338623047e-01,2.000000000000000000e+00,-2.675020790100097656e+01,-9.894691109657287598e-01,4.424173355102539062e+01,9.517433929443359375e+01,8.472643280029296875e+01,1.353248443603515625e+02,-4.021512031555175781e+00,-3.234314727783203125e+01,-1.842331085205078125e+02,3.643460083007812500e+01,2.353856086730957031e+01,3.255718612670898438e+01
6.719999909400939941e-01,2.000000000000000000e+00,-2.680352020263671875e+01,-9.524111151695251465e-01,4.419710159301757812e+01,9.518172454833984375e+01,8.472540283203125000e+01,1.353151397705078125e+02,-4.072504520416259766e+00,-3.233731079101562500e+01,-1.842283020019531250e+02,3.643571090698242188e+01,2.355561256408691406e+01,3.255239868164062500e+01
6.759999990463256836e-01,2.000000000000000000e+00,-2.685682106018066406e+01,-9.153611660003662109e-01,4.415248107910156250e+01,9.518910980224609375e+01,8.472437286376953125e+01,1.353054656982421875e+02,-4.123486042022705078e+00,-3.233147430419921875e+01,-1.842235107421875000e+02,3.643682098388671875e+01,2.357265853881835938e+01,3.254760742187500000e+01
6.800000071525573730e-01,2.000000000000000000e+00,-2.691011047363281250e+01,-8.783195614814758301e-01,4.410786819458007812e+01,9.519648742675781250e+01,8.472334289550781250e+01,1.352957763671875000e+02,-4.174455642700195312e+00,-3.232564163208007812e+01,-1.842187042236328125e+02,3.643793106079101562e+01,2.358969879150390625e+01,3.254282379150390625e+01
6.840000152587890625e-01,2.000000000000000000e+00,-2.696338844299316406e+01,-8.412861227989196777e-01,4.406326675415039062e+01,9.520387268066406250e+01,8.472231292724609375e+01,1.352860717773437500e+02,-4.225414752960205078e+00,-3.231981277465820312e+01,-1.842139129638671875e+02,3.643903732299804688e+01,2.360673904418945312e+01,3.253803634643554688e+01
6.880000233650207520e-01,2.000000000000000000e+00,-2.701665306091308594e+01,-8.042608499526977539e-01,4.401867294311523438e+01,9.521125030517578125e+01,8.472128295898437500e+01,1.352763977050781250e+02,-4.276361942291259766e+00,-3.231398391723632812e+01,-1.842091064453125000e+02,3.644014739990234375e+01,2.362377357482910156e+01,3.253324890136718750e+01
6.919999718666076660e-01,2.000000000000000000e+00,-2.706990623474121094e+01,-7.672439217567443848e-01,4.397409057617187500e+01,9.521862030029296875e+01,8.472025299072265625e+01,1.352667236328125000e+02,-4.327298164367675781e+00,-3.230815505981445312e+01,-1.842042999267578125e+02,3.644125747680664062e+01,2.364080619812011719e+01,3.252846527099609375e+01
6.959999799728393555e-01,2.000000000000000000e+00,-2.712314796447753906e+01,-7.302350997924804688e-01,4.392951965332031250e+01,9.522599792480468750e+01,8.471922302246093750e+01,1.352570343017578125e+02,-4.378222465515136719e+00,-3.230233001708984375e+01,-1.841995086669921875e+02,3.644236755371093750e+01,2.365783500671386719e+01,3.252368164062500000e+01
6.999999880790710449e-01,2.000000000000000000e+00,-2.717637634277343750e+01,-6.932346224784851074e-01,4.388495635986328125e+01,9.523337554931640625e+01,8.471819305419921875e+01,1.352473449707031250e+02,-4.429136276245117188e+00,-3.229650115966796875e+01,-1.841947174072265625e+02,3.644347763061523438e+01,2.367485618591308594e+01,3.251889801025390625e+01
7.039999961853027344e-01,2.000000000000000000e+00,-2.722959709167480469e+01,-6.562422513961791992e-01,4.384040451049804688e+01,9.524074554443359375e+01,8.471716308593750000e+01,1.352376861572265625e+02,-4.480038166046142578e+00,-3.229067611694335938e+01,-1.841899108886718750e+02,3.644458389282226562e+01,2.369187736511230469e+01,3.251411819458007812e+01
7.080000042915344238e-01,2.000000000000000000e+00,-2.728280258178710938e+01,-6.192581057548522949e-01,4.379586410522460938e+01,9.524811553955078125e+01,8.471613311767578125e+01,1.352280120849609375e+02,-4.530929088592529297e+00,-3.228485488891601562e+01,-1.841851348876953125e+02,3.644569396972656250e+01,2.370889282226562500e+01,3.250933837890625000e+01
7.120000123977661133e-01,2.000000000000000000e+00,-2.733599662780761719e+01,-5.822821855545043945e-01,4.375133132934570312e+01,9.525548553466796875e+01,8.471511077880859375e+01,1.352183380126953125e+02,-4.581808567047119141e+00,-3.227902984619140625e+01,-1.841803436279296875e+02,3.644680023193359375e+01,2.372590637207031250e+01,3.250455474853515625e+01
7.160000205039978027e-01,2.000000000000000000e+00,-2.738917922973632812e+01,-5.453144907951354980e-01,4.370680618286132812e+01,9.526284790039062500e+01,8.471408081054687500e+01,1.352086639404296875e+02,-4.632676601409912109e+00,-3.227321243286132812e+01,-1.841755523681640625e+02,3.644791030883789062e+01,2.374291419982910156e+01,3.249977874755859375e+01
7.200000286102294922e-01,2.000000000000000000e+00,-2.744235038757324219e+01,-5.083549022674560547e-01,4.366229248046875000e+01,9.527021789550781250e+01,8.471305084228515625e+01,1.351989898681640625e+02,-4.683533668518066406e+00,-3.226739120483398438e+01,-1.841707458496093750e+02,3.644901657104492188e+01,2.375992012023925781e+01,3.249500274658203125e+01
7.239999771118164062e-01,2.000000000000000000e+00,-2.749550819396972656e+01,-4.714035987854003906e-01,4.361779022216796875e+01,9.527758026123046875e+01,8.471202087402343750e+01,1.351893157958984375e+02,-4.734379291534423828e+00,-3.226157379150390625e+01,-1.841659698486328125e+02,3.645012664794921875e+01,2.377692222595214844e+01,3.249022674560546875e+01
7.279999852180480957e-01,2.000000000000000000e+00,-2.754865646362304688e+01,-4.344604313373565674e-01,4.357329940795898438e+01,9.528494262695312500e+01,8.471099090576171875e+01,1.351796569824218750e+02,-4.785213947296142578e+00,-3.225575637817382812e+01,-1.841611785888671875e+02,3.645123291015625000e+01,2.379391860961914062e+01,3.248545074462890625e+01
7.319999933242797852e-01,2.000000000000000000e+00,-2.760179138183593750e+01,-3.975254893302917480e-01,4.352881240844726562e+01,9.529229736328125000e+01,8.470996856689453125e+01,1.351699981689453125e+02,-4.836037158966064453e+00,-3.224993896484375000e+01,-1.841564025878906250e+02,3.645233917236328125e+01,2.381091308593750000e+01,3.248067855834960938e+01
7.360000014305114746e-01,2.000000000000000000e+00,-2.765491485595703125e+01,-3.605987429618835449e-01,4.348433685302734375e+01,9.529965972900390625e+01,8.470894622802734375e+01,1.351603546142578125e+02,-4.886848926544189453e+00,-3.224412536621093750e+01,-1.841516113281250000e+02,3.645344924926757812e+01,2.382790184020996094e+01,3.247590255737304688e+01
7.400000095367431641e-01,2.000000000000000000e+00,-2.770802688598632812e+01,-3.236801624298095703e-01,4.343987655639648438e+01,9.530702209472656250e+01,8.470790863037109375e+01,1.351506958007812500e+02,-4.937649250030517578e+00,-3.223831176757812500e+01,-1.841468353271484375e+02,3.645455551147460938e+01,2.384488868713378906e+01,3.247113418579101562e+01
7.440000176429748535e-01,2.000000000000000000e+00,-2.776112747192382812e+01,-2.867697775363922119e-01,4.339542388916015625e+01,9.531437683105468750e+01,8.470688629150390625e+01,1.351410369873046875e+02,-4.988438606262207031e+00,-3.223249816894531250e+01,-1.841420440673828125e+02,3.645566177368164062e+01,2.386186981201171875e+01,3.246636199951171875e+01
7.480000257492065430e-01,2.000000000000000000e+00,-2.781421661376953125e+01,-2.498675584793090820e-01,4.335097885131835938e+01,9.532172393798828125e+01,8.470585632324218750e+01,1.351313781738281250e+02,-5.039216518402099609e+00,-3.222669219970703125e+01,-1.841372528076171875e+02,3.645676803588867188e+01,2.387885093688964844e+01,3.246158981323242188e+01
7.519999742507934570e-01,2.000000000000000000e+00,-2.786729240417480469e+01,-2.129735350608825684e-01,4.330654525756835938e+01,9.532907867431640625e+01,8.470483398437500000e+01,1.351217346191406250e+02,-5.089983463287353516e+00,-3.222088241577148438e+01,-1.841324768066406250e+02,3.645787429809570312e+01,2.389582443237304688e+01,3.245682525634765625e+01
7.559999823570251465e-01,2.000000000000000000e+00,-2.792035675048828125e+01,-1.760876625776290894e-01,4.326211929321289062e+01,9.533643341064453125e+01,8.470380401611328125e+01,1.351120758056640625e+02,-5.140738964080810547e+00,-3.221507263183593750e+01,-1.841277008056640625e+02,3.645897674560546875e+01,2.391279411315917969e+01,3.245205688476562500e+01
7.599999904632568359e-01,2.000000000000000000e+00,-2.797341156005859375e+01,-1.392099857330322266e-01,4.321770477294921875e+01,9.534378051757812500e+01,8.470278167724609375e+01,1.351024322509765625e+02,-5.191483497619628906e+00,-3.220926666259765625e+01,-1.841229095458984375e+02,3.646008300781250000e+01,2.392976188659667969e+01,3.244728851318359375e+01
7.639999985694885254e-01,2.000000000000000000e+00,-2.802645301818847656e+01,-1.023404598236083984e-01,4.317330169677734375e+01,9.535112762451171875e+01,8.470175933837890625e+01,1.350927886962890625e+02,-5.242216587066650391e+00,-3.220346069335937500e+01,-1.841181488037109375e+02,3.646118927001953125e+01,2.394672775268554688e+01,3.244252395629882812e+01
7.680000066757202148e-01,2.000000000000000000e+00,-2.807948112487792969e+01,-6.547909975051879883e-02,4.312890625000000000e+01,9.535847473144531250e+01,8.470072937011718750e+01,1.350831451416015625e+02,-5.292938709259033203e+00,-3.219765853881835938e+01,-1.841133728027343750e+02,3.646229171752929688e+01,2.396368598937988281e+01,3.243775939941406250e+01
7.720000147819519043e-01,2.000000000000000000e+00,-2.813249969482421875e+01,-2.862590923905372620e-02,4.308451843261718750e+01,9.536581420898437500e+01,8.469969940185546875e+01,1.350735015869140625e+02,-5.343648910522460938e+00,-3.219185256958007812e+01,-1.841085815429687500e+02,3.646339797973632812e+01,2.398064231872558594e+01,3.243299484252929688e+01
7.760000228881835938e-01,2.000000000000000000e+00,-2.818550491333007812e+01,8.219124749302864075e-03,4.304014205932617188e+01,9.537315368652343750e+01,8.469867706298828125e+01,1.350638580322265625e+02,-5.394348621368408203e+00,-3.218605422973632812e+01,-1.841038208007812500e+02,3.646450042724609375e+01,2.399759483337402344e+01,3.242823410034179688e+01
7.799999713897705078e-01,2.000000000000000000e+00,-2.823849868774414062e+01,4.505600035190582275e-02,4.299578094482421875e+01,9.538050079345703125e+01,8.469765472412109375e+01,1.350542144775390625e+02,-5.445036888122558594e+00,-3.218025207519531250e+01,-1.840990295410156250e+02,3.646560668945312500e+01,2.401454353332519531e+01,3.242347335815429688e+01
7.839999794960021973e-01,2.000000000000000000e+00,-2.829148292541503906e+01,8.188472688198089600e-02,4.295142364501953125e+01,9.538784027099609375e+01,8.469662475585937500e+01,1.350445861816406250e+02,-5.495713710784912109e+00,-3.217445373535156250e+01,-1.840942687988281250e+02,3.646671295166015625e+01,2.403148841857910156e+01,3.241871261596679688e+01
7.879999876022338867e-01,2.000000000000000000e+00,-2.834445190429687500e+01,1.187052875757217407e-01,4.290707778930664062e+01,9.539517974853515625e+01,8.469560241699218750e+01,1.350349578857421875e+02,-5.546379089355468750e+00,-3.216865921020507812e+01,-1.840895080566406250e+02,3.646781539916992188e+01,2.404842948913574219e+01,3.241395568847656250e+01
7.919999957084655762e-01,2.000000000000000000e+00,-2.839741134643554688e+01,1.555177122354507446e-01,4.286274337768554688e+01,9.540251159667968750e+01,8.469458007812500000e+01,1.350253295898437500e+02,-5.597033977508544922e+00,-3.216286087036132812e+01,-1.840847167968750000e+02,3.646891784667968750e+01,2.406536674499511719e+01,3.240919494628906250e+01
7.960000038146972656e-01,2.000000000000000000e+00,-2.845035934448242188e+01,1.923219859600067139e-01,4.281841659545898438e+01,9.540985107421875000e+01,8.469355773925781250e+01,1.350157012939453125e+02,-5.647677421569824219e+00,-3.215706253051757812e+01,-1.840799560546875000e+02,3.647002029418945312e+01,2.408230018615722656e+01,3.240443801879882812e+01
8.000000119209289551e-01,2.000000000000000000e+00,-2.850329589843750000e+01,2.291181087493896484e-01,4.277410125732421875e+01,9.541718292236328125e+01,8.469252777099609375e+01,1.350060882568359375e+02,-5.698308944702148438e+00,-3.215127182006835938e+01,-1.840751800537109375e+02,3.647112274169921875e+01,2.409922981262207031e+01,3.239968109130859375e+01
8.040000200271606445e-01,2.000000000000000000e+00,-2.855621910095214844e+01,2.659061253070831299e-01,4.272979354858398438e+01,9.542451477050781250e+01,8.469151306152343750e+01,1.349964447021484375e+02,-5.748929977416992188e+00,-3.214548110961914062e+01,-1.840704193115234375e+02,3.647222518920898438e+01,2.411615562438964844e+01,3.239492797851562500e+01
8.080000281333923340e-01,2.000000000000000000e+00,-2.860913276672363281e+01,3.026859760284423828e-01,4.268549728393554688e+01,9.543183898925781250e+01,8.469049072265625000e+01,1.349868316650390625e+02,-5.799539566040039062e+00,-3.213968658447265625e+01,-1.840656433105468750e+02,3.647333145141601562e+01,2.413307952880859375e+01,3.239017486572265625e+01
8.119999766349792480e-01,2.000000000000000000e+00,-2.866203117370605469e+01,3.394576907157897949e-01,4.264120864868164062e+01,9.543917083740234375e+01,8.468946075439453125e+01,1.349772186279296875e+02,-5.850138187408447266e+00,-3.213389968872070312e+01,-1.840608825683593750e+02,3.647443008422851562e+01,2.414999771118164062e+01,3.238542175292968750e+01
8.159999847412109375e-01,2.000000000000000000e+00,-2.871492195129394531e+01,3.762212991714477539e-01,4.259693145751953125e+01,9.544650268554687500e+01,8.468843841552734375e+01,1.349676055908203125e+02,-5.900725364685058594e+00,-3.212810897827148438e+01,-1.840561218261718750e+02,3.647553253173828125e+01,2.416691207885742188e+01,3.238066864013671875e+01
8.199999928474426270e-01,2.000000000000000000e+00,-2.876779747009277344e+01,4.129767417907714844e-01,4.255266571044921875e+01,9.545381927490234375e+01,8.468741607666015625e+01,1.349579772949218750e+02,-5.951302051544189453e+00,-3.212232208251953125e+01,-1.840513610839843750e+02,3.647663497924804688e+01,2.418382263183593750e+01,3.237591934204101562e+01
8.240000009536743164e-01,2.000000000000000000e+00,-2.882066345214843750e+01,4.497241079807281494e-01,4.250841140747070312e+01,9.546114349365234375e+01,8.468639373779296875e+01,1.349483642578125000e+02,-6.001866817474365234e+00,-3.211653518676757812e+01,-1.840466003417968750e+02,3.647773742675781250e+01,2.420072937011718750e+01,3.237117004394531250e+01
8.280000090599060059e-01,2.000000000000000000e+00,-2.887351799011230469e+01,4.864632487297058105e-01,4.246416091918945312e+01,9.546846771240234375e+01,8.468537139892578125e+01,1.349387664794921875e+02,-6.052420616149902344e+00,-3.211075210571289062e+01,-1.840418395996093750e+02,3.647883987426757812e+01,2.421763229370117188e+01,3.236642074584960938e+01
8.320000171661376953e-01,2.000000000000000000e+00,-2.892636108398437500e+01,5.231943726539611816e-01,4.241992568969726562e+01,9.547578430175781250e+01,8.468435668945312500e+01,1.349291381835937500e+02,-6.102962970733642578e+00,-3.210496520996093750e+01,-1.840370788574218750e+02,3.647993850708007812e+01,2.423453521728515625e+01,3.236167144775390625e+01
8.360000252723693848e-01,2.000000000000000000e+00,-2.897919273376464844e+01,5.599173307418823242e-01,4.237569808959960938e+01,9.548310089111328125e+01,8.468332672119140625e+01,1.349195404052734375e+02,-6.153494834899902344e+00,-3.209918594360351562e+01,-1.840323181152343750e+02,3.648103713989257812e+01,2.425143051147460938e+01,3.235692596435546875e+01
8.399999737739562988e-01,2.000000000000000000e+00,-2.903200912475585938e+01,5.966321825981140137e-01,4.233147811889648438e+01,9.549041748046875000e+01,8.468230438232421875e+01,1.349099426269531250e+02,-6.204014778137207031e+00,-3.209340286254882812e+01,-1.840275573730468750e+02,3.648213577270507812e+01,2.426832199096679688e+01,3.235218048095703125e+01
8.439999818801879883e-01,2.000000000000000000e+00,-2.908481788635253906e+01,6.333389282226562500e-01,4.228726959228515625e+01,9.549773406982421875e+01,8.468128967285156250e+01,1.349003295898437500e+02,-6.254523754119873047e+00,-3.208762359619140625e+01,-1.840228118896484375e+02,3.648324203491210938e+01,2.428521156311035156e+01,3.234743499755859375e+01
8.479999899864196777e-01,2.000000000000000000e+00,-2.913761138916015625e+01,6.700375676155090332e-01,4.224307250976562500e+01,9.550505065917968750e+01,8.468025970458984375e+01,1.348907318115234375e+02,-6.305021762847900391e+00,-3.208184814453125000e+01,-1.840180511474609375e+02,3.648434066772460938e+01,2.430209541320800781e+01,3.234268951416015625e+01
8.519999980926513672e-01,2.000000000000000000e+00,-2.919039535522460938e+01,7.067281007766723633e-01,4.219887924194335938e+01,9.551235961914062500e+01,8.467924499511718750e+01,1.348811492919921875e+02,-6.355508804321289062e+00,-3.207606887817382812e+01,-1.840132904052734375e+02,3.648543930053710938e+01,2.431897735595703125e+01,3.233795166015625000e+01
8.560000061988830566e-01,2.000000000000000000e+00,-2.924316787719726562e+01,7.434105277061462402e-01,4.215470123291015625e+01,9.551966857910156250e+01,8.467822265625000000e+01,1.348715362548828125e+02,-6.405983924865722656e+00,-3.207029342651367188e+01,-1.840085296630859375e+02,3.648653793334960938e+01,2.433585548400878906e+01,3.233320999145507812e+01
8.600000143051147461e-01,2.000000000000000000e+00,-2.929592895507812500e+01,7.800849080085754395e-01,4.211053085327148438e+01,9.552697753906250000e+01,8.467720031738281250e+01,1.348619537353515625e+02,-6.456449031829833984e+00,-3.206451797485351562e+01,-1.840037841796875000e+02,3.648764038085937500e+01,2.435272979736328125e+01,3.232846832275390625e+01
8.640000224113464355e-01,2.000000000000000000e+00,-2.934867858886718750e+01,8.167511224746704102e-01,4.206637191772460938e+01,9.553428649902343750e+01,8.467618560791015625e+01,1.348523559570312500e+02,-6.506902217864990234e+00,-3.205874633789062500e+01,-1.839990386962890625e+02,3.648873519897460938e+01,2.436959838867187500e+01,3.232373046875000000e+01
8.679999709129333496e-01,2.000000000000000000e+00,-2.940141296386718750e+01,8.534092307090759277e-01,4.202222442626953125e+01,9.554158782958984375e+01,8.467516326904296875e+01,1.348427734375000000e+02,-6.557344436645507812e+00,-3.205297088623046875e+01,-1.839942932128906250e+02,3.648983383178710938e+01,2.438646507263183594e+01,3.231898880004882812e+01
8.719999790191650391e-01,2.000000000000000000e+00,-2.945413970947265625e+01,8.900592327117919922e-01,4.197808074951171875e+01,9.554889678955078125e+01,8.467414093017578125e+01,1.348331756591796875e+02,-6.607775211334228516e+00,-3.204720306396484375e+01,-1.839895324707031250e+02,3.649093627929687500e+01,2.440332794189453125e+01,3.231425476074218750e+01
8.759999871253967285e-01,2.000000000000000000e+00,-2.950685501098632812e+01,9.267011880874633789e-01,4.193394851684570312e+01,9.555619812011718750e+01,8.467312622070312500e+01,1.348235931396484375e+02,-6.658195495605468750e+00,-3.204143142700195312e+01,-1.839847869873046875e+02,3.649203109741210938e+01,2.442018508911132812e+01,3.230951690673828125e+01
8.799999952316284180e-01,2.000000000000000000e+00,-2.955955696105957031e+01,9.633350968360900879e-01,4.188983154296875000e+01,9.556349182128906250e+01,8.467210388183593750e+01,1.348140106201171875e+02,-6.708604335784912109e+00,-3.203566360473632812e+01,-1.839800415039062500e+02,3.649312973022460938e+01,2.443704032897949219e+01,3.230478286743164062e+01
8.840000033378601074e-01,2.000000000000000000e+00,-2.961224746704101562e+01,9.999608397483825684e-01,4.184571838378906250e+01,9.557079315185546875e+01,8.467108154296875000e+01,1.348044433593750000e+02,-6.759002208709716797e+00,-3.202989959716796875e+01,-1.839752807617187500e+02,3.649422836303710938e+01,2.445389175415039062e+01,3.230004882812500000e+01
8.880000114440917969e-01,2.000000000000000000e+00,-2.966492652893066406e+01,1.036578536033630371e+00,4.180162048339843750e+01,9.557808685302734375e+01,8.467006683349609375e+01,1.347948455810546875e+02,-6.809388160705566406e+00,-3.202413177490234375e+01,-1.839705505371093750e+02,3.649532699584960938e+01,2.447074127197265625e+01,3.229531860351562500e+01
8.920000195503234863e-01,2.000000000000000000e+00,-2.971759414672851562e+01,1.073188185691833496e+00,4.175752639770507812e+01,9.558538818359375000e+01,8.466904449462890625e+01,1.347852783203125000e+02,-6.859764099121093750e+00,-3.201836776733398438e+01,-1.839658050537109375e+02,3.649642181396484375e+01,2.448758506774902344e+01,3.229058456420898438e+01
8.960000276565551758e-01,2.000000000000000000e+00,-2.977024650573730469e+01,1.109789729118347168e+00,4.171344375610351562e+01,9.559268188476562500e+01,8.466802978515625000e+01,1.347756958007812500e+02,-6.910128116607666016e+00,-3.201260375976562500e+01,-1.839610595703125000e+02,3.649752044677734375e+01,2.450442314147949219e+01,3.228585433959960938e+01
8.999999761581420898e-01,2.000000000000000000e+00,-2.982289505004882812e+01,1.146383285522460938e+00,4.166937255859375000e+01,9.559997558593750000e+01,8.466701507568359375e+01,1.347661437988281250e+02,-6.960481643676757812e+00,-3.200684356689453125e+01,-1.839563140869140625e+02,3.649861526489257812e+01,2.452126312255859375e+01,3.228112411499023438e+01
9.039999842643737793e-01,2.000000000000000000e+00,-2.987552452087402344e+01,1.182968616485595703e+00,4.162531280517578125e+01,9.560726928710937500e+01,8.466599273681640625e+01,1.347565612792968750e+02,-7.010823249816894531e+00,-3.200108337402343750e+01,-1.839515686035156250e+02,3.649971389770507812e+01,2.453809356689453125e+01,3.227639389038085938e+01
9.079999923706054688e-01,2.000000000000000000e+00,-2.992814826965332031e+01,1.219545841217041016e+00,4.158125686645507812e+01,9.561455535888671875e+01,8.466497802734375000e+01,1.347469940185546875e+02,-7.061154842376708984e+00,-3.199532127380371094e+01,-1.839468383789062500e+02,3.650081253051757812e+01,2.455492401123046875e+01,3.227166748046875000e+01
9.120000004768371582e-01,2.000000000000000000e+00,-2.998075675964355469e+01,1.256115198135375977e+00,4.153721618652343750e+01,9.562184143066406250e+01,8.466395568847656250e+01,1.347374267578125000e+02,-7.111474514007568359e+00,-3.198956298828125000e+01,-1.839420928955078125e+02,3.650190734863281250e+01,2.457174873352050781e+01,3.226694107055664062e+01
9.160000085830688477e-01,2.000000000000000000e+00,-3.003335380554199219e+01,1.292676329612731934e+00,4.149317932128906250e+01,9.562913513183593750e+01,8.466294097900390625e+01,1.347278594970703125e+02,-7.161783218383789062e+00,-3.198380851745605469e+01,-1.839373626708984375e+02,3.650300216674804688e+01,2.458856964111328125e+01,3.226221466064453125e+01
9.200000166893005371e-01,2.000000000000000000e+00,-3.008593940734863281e+01,1.329229474067687988e+00,4.144915771484375000e+01,9.563641357421875000e+01,8.466192626953125000e+01,1.347182922363281250e+02,-7.212081432342529297e+00,-3.197805213928222656e+01,-1.839326324462890625e+02,3.650409698486328125e+01,2.460538864135742188e+01,3.225749206542968750e+01
9.240000247955322266e-01,2.000000000000000000e+00,-3.013851356506347656e+01,1.365774631500244141e+00,4.140514373779296875e+01,9.564369201660156250e+01,8.466090393066406250e+01,1.347087554931640625e+02,-7.262367725372314453e+00,-3.197229957580566406e+01,-1.839278869628906250e+02,3.650519180297851562e+01,2.462220191955566406e+01,3.225276947021484375e+01
9.279999732971191406e-01,2.000000000000000000e+00,-3.019107627868652344e+01,1.402311682701110840e+00,4.136114120483398438e+01,9.565097808837890625e+01,8.465989685058593750e+01,1.346991882324218750e+02,-7.312643051147460938e+00,-3.196654510498046875e+01,-1.839231414794921875e+02,3.650629043579101562e+01,2.463901329040527344e+01,3.224804687500000000e+01
9.319999814033508301e-01,2.000000000000000000e+00,-3.024362754821777344e+01,1.438840627670288086e+00,4.131714248657226562e+01,9.565825653076171875e+01,8.465887451171875000e+01,1.346896209716796875e+02,-7.362908363342285156e+00,-3.196079444885253906e+01,-1.839184112548828125e+02,3.650738143920898438e+01,2.465582084655761719e+01,3.224332046508789062e+01
9.359999895095825195e-01,2.000000000000000000e+00,-3.029616928100585938e+01,1.475361704826354980e+00,4.127315902709960938e+01,9.566553497314453125e+01,8.465785980224609375e+01,1.346800689697265625e+02,-7.413161277770996094e+00,-3.195504379272460938e+01,-1.839136810302734375e+02,3.650848007202148438e+01,2.467262458801269531e+01,3.223860168457031250e+01
9.399999976158142090e-01,2.000000000000000000e+00,-3.034869575500488281e+01,1.511874556541442871e+00,4.122918319702148438e+01,9.567281341552734375e+01,8.465684509277343750e+01,1.346705322265625000e+02,-7.463403224945068359e+00,-3.194929313659667969e+01,-1.839089508056640625e+02,3.650957107543945312e+01,2.468942260742187500e+01,3.223388290405273438e+01
9.440000057220458984e-01,2.000000000000000000e+00,-3.040121269226074219e+01,1.548379302024841309e+00,4.118521881103515625e+01,9.568008422851562500e+01,8.465583038330078125e+01,1.346609802246093750e+02,-7.513635158538818359e+00,-3.194354438781738281e+01,-1.839042205810546875e+02,3.651066589355468750e+01,2.470621871948242188e+01,3.222916793823242188e+01
9.480000138282775879e-01,2.000000000000000000e+00,-3.045371627807617188e+01,1.584876179695129395e+00,4.114126205444335938e+01,9.568735504150390625e+01,8.465481567382812500e+01,1.346514282226562500e+02,-7.563854694366455078e+00,-3.193780136108398438e+01,-1.838994903564453125e+02,3.651176071166992188e+01,2.472301101684570312e+01,3.222444534301757812e+01
9.520000219345092773e-01,2.000000000000000000e+00,-3.050621032714843750e+01,1.621364951133728027e+00,4.109731674194335938e+01,9.569462585449218750e+01,8.465379333496093750e+01,1.346418762207031250e+02,-7.614064693450927734e+00,-3.193205261230468750e+01,-1.838947601318359375e+02,3.651285171508789062e+01,2.473979949951171875e+01,3.221973037719726562e+01
9.559999704360961914e-01,2.000000000000000000e+00,-3.055869293212890625e+01,1.657845735549926758e+00,4.105338287353515625e+01,9.570189666748046875e+01,8.465278625488281250e+01,1.346323394775390625e+02,-7.664262294769287109e+00,-3.192630958557128906e+01,-1.838900299072265625e+02,3.651394653320312500e+01,2.475658416748046875e+01,3.221501922607421875e+01
9.599999785423278809e-01,2.000000000000000000e+00,-3.061116218566894531e+01,1.694318413734436035e+00,4.100945281982421875e+01,9.570916748046875000e+01,8.465176391601562500e+01,1.346228027343750000e+02,-7.714449405670166016e+00,-3.192056846618652344e+01,-1.838852996826171875e+02,3.651504135131835938e+01,2.477336502075195312e+01,3.221030044555664062e+01
9.639999866485595703e-01,2.000000000000000000e+00,-3.066362190246582031e+01,1.730783104896545410e+00,4.096553802490234375e+01,9.571643829345703125e+01,8.465075683593750000e+01,1.346132659912109375e+02,-7.764625549316406250e+00,-3.191482734680175781e+01,-1.838805847167968750e+02,3.651613616943359375e+01,2.479014205932617188e+01,3.220558929443359375e+01
9.679999947547912598e-01,2.000000000000000000e+00,-3.071607208251953125e+01,1.767239809036254883e+00,4.092163085937500000e+01,9.572370147705078125e+01,8.464974212646484375e+01,1.346037292480468750e+02,-7.814790248870849609e+00,-3.190908622741699219e+01,-1.838758544921875000e+02,3.651722717285156250e+01,2.480691528320312500e+01,3.220087432861328125e+01
9.720000028610229492e-01,2.000000000000000000e+00,-3.076850700378417969e+01,1.803688406944274902e+00,4.087773513793945312e+01,9.573096466064453125e+01,8.464872741699218750e+01,1.345941925048828125e+02,-7.864943981170654297e+00,-3.190334701538085938e+01,-1.838711395263671875e+02,3.651832199096679688e+01,2.482368659973144531e+01,3.219616699218750000e+01
9.760000109672546387e-01,2.000000000000000000e+00,-3.082093238830566406e+01,1.840129017829895020e+00,4.083384704589843750e+01,9.573822021484375000e+01,8.464771270751953125e+01,1.345846557617187500e+02,-7.915087223052978516e+00,-3.189760971069335938e+01,-1.838664093017578125e+02,3.651940917968750000e+01,2.484045219421386719e+01,3.219145584106445312e+01
9.800000190734863281e-01,2.000000000000000000e+00,-3.087334251403808594e+01,1.876561641693115234e+00,4.078996658325195312e+01,9.574548339843750000e+01,8.464669799804687500e+01,1.345751190185546875e+02,-7.965219020843505859e+00,-3.189187049865722656e+01,-1.838616943359375000e+02,3.652050399780273438e+01,2.485721588134765625e+01,3.218674850463867188e+01
9.840000271797180176e-01,2.000000000000000000e+00,-3.092574501037597656e+01,1.912986159324645996e+00,4.074609756469726562e+01,9.575274658203125000e+01,8.464568328857421875e+01,1.345655975341796875e+02,-8.015339851379394531e+00,-3.188613700866699219e+01,-1.838569793701171875e+02,3.652159500122070312e+01,2.487397384643554688e+01,3.218203735351562500e+01
9.879999756813049316e-01,2.000000000000000000e+00,-3.097813606262207031e+01,1.949402809143066406e+00,4.070223999023437500e+01,9.576000213623046875e+01,8.464466857910156250e+01,1.345560607910156250e+02,-8.065449714660644531e+00,-3.188040351867675781e+01,-1.838522491455078125e+02,3.652268600463867188e+01,2.489072990417480469e+01,3.217733383178710938e+01
9.919999837875366211e-01,2.000000000000000000e+00,-3.103051376342773438e+01,1.985811352729797363e+00,4.065839004516601562e+01,9.576725769042968750e+01,8.464366149902343750e+01,1.345465393066406250e+02,-8.115549087524414062e+00,-3.187467002868652344e+01,-1.838475341796875000e+02,3.652377700805664062e+01,2.490748023986816406e+01,3.217262649536132812e+01
9.959999918937683105e-01,2.000000000000000000e+00,-3.108288002014160156e+01,2.022212028503417969e+00,4.061454772949218750e+01,9.577451324462890625e+01,8.464263916015625000e+01,1.345370178222656250e+02,-8.165636062622070312e+00,-3.186893844604492188e+01,-1.838428192138671875e+02,3.652486801147460938e+01,2.492422866821289062e+01,3.216791915893554688e+01
1.000000000000000000e+00,2.000000000000000000e+00,-3.113523292541503906e+01,2.058604478836059570e+00,4.057072067260742188e+01,9.578176879882812500e+01,8.464163208007812500e+01,1.345274963378906250e+02,-8.215712547302246094e+00,-3.186320877075195312e+01,-1.838380889892578125e+02,3.652595901489257812e+01,2.494097137451171875e+01,3.216321945190429688e+01
1.003999948501586914e+00,2.000000000000000000e+00,-3.118757629394531250e+01,2.094989061355590820e+00,4.052689743041992188e+01,9.578900909423828125e+01,8.464061737060546875e+01,1.345179748535156250e+02,-8.265778541564941406e+00,-3.185748100280761719e+01,-1.838333892822265625e+02,3.652705001831054688e+01,2.495771217346191406e+01,3.215851593017578125e+01
1.008000016212463379e+00,2.000000000000000000e+00,-3.123991012573242188e+01,2.131365776062011719e+00,4.048308944702148438e+01,9.579626464843750000e+01,8.463961029052734375e+01,1.345084686279296875e+02,-8.315834045410156250e+00,-3.185175132751464844e+01,-1.838286743164062500e+02,3.652813720703125000e+01,2.497444915771484375e+01,3.215381240844726562e+01
1.011999964714050293e+00,2.000000000000000000e+00,-3.129223251342773438e+01,2.167734384536743164e+00,4.043928527832031250e+01,9.580351257324218750e+01,8.463859558105468750e+01,1.344989471435546875e+02,-8.365877151489257812e+00,-3.184602737426757812e+01,-1.838239593505859375e+02,3.652923202514648438e+01,2.499118232727050781e+01,3.214911270141601562e+01
1.016000032424926758e+00,2.000000000000000000e+00,-3.134454154968261719e+01,2.204094886779785156e+00,4.039549636840820312e+01,9.581076049804687500e+01,8.463758850097656250e+01,1.344894409179687500e+02,-8.415909767150878906e+00,-3.184029960632324219e+01,-1.838192443847656250e+02,3.653032302856445312e+01,2.500791168212890625e+01,3.214441299438476562e+01
1.019999980926513672e+00,2.000000000000000000e+00,-3.139683723449707031e+01,2.240447521209716797e+00,4.035171127319335938e+01,9.581800079345703125e+01,8.463657379150390625e+01,1.344799346923828125e+02,-8.465931892395019531e+00,-3.183457565307617188e+01,-1.838145294189453125e+02,3.653141021728515625e+01,2.502463722229003906e+01,3.213971328735351562e+01
1.024000048637390137e+00,2.000000000000000000e+00,-3.144912528991699219e+01,2.276792049407958984e+00,4.030793762207031250e+01,9.582524871826171875e+01,8.463555908203125000e+01,1.344704284667968750e+02,-8.515942573547363281e+00,-3.182885360717773438e+01,-1.838098144531250000e+02,3.653250122070312500e+01,2.504135894775390625e+01,3.213501739501953125e+01
1.026999950408935547e+00,2.000000000000000000e+00,-3.150139617919921875e+01,2.313128471374511719e+00,4.026417922973632812e+01,9.583248901367187500e+01,8.463455200195312500e+01,1.344609222412109375e+02,-8.565942764282226562e+00,-3.182313156127929688e+01,-1.838051147460937500e+02,3.653358840942382812e+01,2.505807685852050781e+01,3.213032150268554688e+01
1.031999945640563965e+00,2.000000000000000000e+00,-3.155366134643554688e+01,2.349457263946533203e+00,4.022042465209960938e+01,9.583972930908203125e+01,8.463353729248046875e+01,1.344514312744140625e+02,-8.615931510925292969e+00,-3.181741142272949219e+01,-1.838003997802734375e+02,3.653467941284179688e+01,2.507479286193847656e+01,3.212562561035156250e+01
1.036000013351440430e+00,2.000000000000000000e+00,-3.160591125488281250e+01,2.385777950286865234e+00,4.017667770385742188e+01,9.584696197509765625e+01,8.463253021240234375e+01,1.344419250488281250e+02,-8.665909767150878906e+00,-3.181169128417968750e+01,-1.837957000732421875e+02,3.653576660156250000e+01,2.509150505065917969e+01,3.212092971801757812e+01
1.039999961853027344e+00,2.000000000000000000e+00,-3.165815162658691406e+01,2.422090530395507812e+00,4.013294601440429688e+01,9.585420227050781250e+01,8.463152313232421875e+01,1.344324340820312500e+02,-8.715875625610351562e+00,-3.180597496032714844e+01,-1.837910003662109375e+02,3.653685379028320312e+01,2.510821151733398438e+01,3.211623764038085938e+01
1.044000029563903809e+00,2.000000000000000000e+00,-3.171038246154785156e+01,2.458395242691040039e+00,4.008922195434570312e+01,9.586143493652343750e+01,8.463050842285156250e+01,1.344229125976562500e+02,-8.765831947326660156e+00,-3.180025863647460938e+01,-1.837863006591796875e+02,3.653794479370117188e+01,2.512491416931152344e+01,3.211154556274414062e+01
1.047999978065490723e+00,2.000000000000000000e+00,-3.176259994506835938e+01,2.494692087173461914e+00,4.004550933837890625e+01,9.586866760253906250e+01,8.462950134277343750e+01,1.344134216308593750e+02,-8.815776824951171875e+00,-3.179454421997070312e+01,-1.837815856933593750e+02,3.653902816772460938e+01,2.514161491394042969e+01,3.210685348510742188e+01
1.052000045776367188e+00,2.000000000000000000e+00,-3.181480598449707031e+01,2.530980825424194336e+00,4.000180435180664062e+01,9.587590026855468750e+01,8.462848663330078125e+01,1.344039459228515625e+02,-8.865710258483886719e+00,-3.178883171081542969e+01,-1.837768859863281250e+02,3.654011917114257812e+01,2.515830993652343750e+01,3.210216140747070312e+01
1.054999947547912598e+00,2.000000000000000000e+00,-3.186699867248535156e+01,2.567261695861816406e+00,3.995810699462890625e+01,9.588312530517578125e+01,8.462747955322265625e+01,1.343944549560546875e+02,-8.915634155273437500e+00,-3.178311729431152344e+01,-1.837721862792968750e+02,3.654120635986328125e+01,2.517500305175781250e+01,3.209747314453125000e+01
1.059999942779541016e+00,2.000000000000000000e+00,-3.191918182373046875e+01,2.603534460067749023e+00,3.991442108154296875e+01,9.589035797119140625e+01,8.462647247314453125e+01,1.343849639892578125e+02,-8.965545654296875000e+00,-3.177740859985351562e+01,-1.837674865722656250e+02,3.654229354858398438e+01,2.519169235229492188e+01,3.209278488159179688e+01
1.064000010490417480e+00,2.000000000000000000e+00,-3.197135353088378906e+01,2.639799356460571289e+00,3.987074661254882812e+01,9.589758300781250000e+01,8.462546539306640625e+01,1.343754730224609375e+02,-9.015446662902832031e+00,-3.177169799804687500e+01,-1.837627868652343750e+02,3.654338073730468750e+01,2.520837974548339844e+01,3.208809661865234375e+01
1.067999958992004395e+00,2.000000000000000000e+00,-3.202351379394531250e+01,2.676056385040283203e+00,3.982707595825195312e+01,9.590480804443359375e+01,8.462445068359375000e+01,1.343659820556640625e+02,-9.065337181091308594e+00,-3.176598739624023438e+01,-1.837580871582031250e+02,3.654446792602539062e+01,2.522505950927734375e+01,3.208341217041015625e+01
1.072000026702880859e+00,2.000000000000000000e+00,-3.207566070556640625e+01,2.712305307388305664e+00,3.978342056274414062e+01,9.591203308105468750e+01,8.462344360351562500e+01,1.343565063476562500e+02,-9.115216255187988281e+00,-3.176028060913085938e+01,-1.837533874511718750e+02,3.654555130004882812e+01,2.524173736572265625e+01,3.207872390747070312e+01
1.075999975204467773e+00,2.000000000000000000e+00,-3.212779998779296875e+01,2.748546600341796875e+00,3.973977279663085938e+01,9.591925811767578125e+01,8.462243652343750000e+01,1.343470153808593750e+02,-9.165083885192871094e+00,-3.175457382202148438e+01,-1.837486877441406250e+02,3.654663848876953125e+01,2.525841140747070312e+01,3.207404327392578125e+01
1.080000042915344238e+00,2.000000000000000000e+00,-3.217992401123046875e+01,2.784779548645019531e+00,3.969613265991210938e+01,9.592647552490234375e+01,8.462142944335937500e+01,1.343375396728515625e+02,-9.214941024780273438e+00,-3.174886703491210938e+01,-1.837439880371093750e+02,3.654772567749023438e+01,2.527508354187011719e+01,3.206935882568359375e+01
1.083999991416931152e+00,2.000000000000000000e+00,-3.223204040527343750e+01,2.821004867553710938e+00,3.965250778198242188e+01,9.593369293212890625e+01,8.462042236328125000e+01,1.343280792236328125e+02,-9.264787673950195312e+00,-3.174316406250000000e+01,-1.837393035888671875e+02,3.654880905151367188e+01,2.529174995422363281e+01,3.206467437744140625e+01
1.088000059127807617e+00,2.000000000000000000e+00,-3.228414154052734375e+01,2.857221841812133789e+00,3.960888671875000000e+01,9.594091796875000000e+01,8.461941528320312500e+01,1.343185882568359375e+02,-9.314623832702636719e+00,-3.173746109008789062e+01,-1.837346038818359375e+02,3.654989624023437500e+01,2.530841445922851562e+01,3.205999755859375000e+01
1.090999960899353027e+00,2.000000000000000000e+00,-3.233623504638671875e+01,2.893431186676025391e+00,3.956527709960937500e+01,9.594812774658203125e+01,8.461840820312500000e+01,1.343091278076171875e+02,-9.364448547363281250e+00,-3.173176193237304688e+01,-1.837299194335937500e+02,3.655098342895507812e+01,2.532507324218750000e+01,3.205531311035156250e+01
1.095999956130981445e+00,2.000000000000000000e+00,-3.238831329345703125e+01,2.929632425308227539e+00,3.952167892456054688e+01,9.595533752441406250e+01,8.461740112304687500e+01,1.342996673583984375e+02,-9.414261817932128906e+00,-3.172606086730957031e+01,-1.837252197265625000e+02,3.655206680297851562e+01,2.534173011779785156e+01,3.205063629150390625e+01
1.100000023841857910e+00,2.000000000000000000e+00,-3.244038391113281250e+01,2.965825796127319336e+00,3.947808837890625000e+01,9.596255493164062500e+01,8.461639404296875000e+01,1.342901916503906250e+02,-9.464064598083496094e+00,-3.172036170959472656e+01,-1.837205352783203125e+02,3.655315017700195312e+01,2.535838127136230469e+01,3.204595565795898438e+01
1.103999972343444824e+00,2.000000000000000000e+00,-3.249243927001953125e+01,3.002011299133300781e+00,3.943450927734375000e+01,9.596976470947265625e+01,8.461537933349609375e+01,1.342807312011718750e+02,-9.513855934143066406e+00,-3.171466636657714844e+01,-1.837158355712890625e+02,3.655423736572265625e+01,2.537503051757812500e+01,3.204128265380859375e+01
1.108000040054321289e+00,2.000000000000000000e+00,-3.254448699951171875e+01,3.038188934326171875e+00,3.939093399047851562e+01,9.597697448730468750e+01,8.461437988281250000e+01,1.342712554931640625e+02,-9.563636779785156250e+00,-3.170896911621093750e+01,-1.837111511230468750e+02,3.655532073974609375e+01,2.539167594909667969e+01,3.203660202026367188e+01
1.111999988555908203e+00,2.000000000000000000e+00,-3.259651947021484375e+01,3.074358463287353516e+00,3.934737396240234375e+01,9.598418426513671875e+01,8.461337280273437500e+01,1.342617950439453125e+02,-9.613407135009765625e+00,-3.170327186584472656e+01,-1.837064666748046875e+02,3.655640411376953125e+01,2.540831756591796875e+01,3.203193283081054688e+01
1.116000056266784668e+00,2.000000000000000000e+00,-3.264854431152343750e+01,3.110519886016845703e+00,3.930382156372070312e+01,9.599139404296875000e+01,8.461236572265625000e+01,1.342523345947265625e+02,-9.663166046142578125e+00,-3.169758033752441406e+01,-1.837017822265625000e+02,3.655748748779296875e+01,2.542495536804199219e+01,3.202725601196289062e+01
