rpiRobotics/ARM-21-02-F-19-Robot-Motion-Program/data_performance_abb/curve_2/curve_pose_opt2/greedy0.02/curve_exe_v250.0_z10.csv
# timestamp,cmd_num,J1,J2,J3,J4,J5,J6
2.000000094994902611e-03,-1.000000000000000000e+00,8.512632369995117188e+00,-1.042580413818359375e+01,3.620513439178466797e+00,-2.087636108398437500e+02,-1.015729827880859375e+02,-1.814823303222656250e+02,1.166222991943359375e+02,8.770228385925292969e+00,3.480780029296875000e+01,-1.537292938232421875e+02,6.622257232666015625e+01,1.191414108276367188e+02
4.000000189989805222e-03,1.000000000000000000e+00,8.512632369995117188e+00,-1.042580413818359375e+01,3.620513439178466797e+00,-2.087636108398437500e+02,-1.015729827880859375e+02,-1.814823303222656250e+02,1.166222991943359375e+02,8.770228385925292969e+00,3.480780029296875000e+01,-1.537292938232421875e+02,6.622257232666015625e+01,1.191414108276367188e+02
8.000000379979610443e-03,1.000000000000000000e+00,8.512632369995117188e+00,-1.042580413818359375e+01,3.620513439178466797e+00,-2.087636108398437500e+02,-1.015729827880859375e+02,-1.814823303222656250e+02,1.166222991943359375e+02,8.770228385925292969e+00,3.480780029296875000e+01,-1.537292938232421875e+02,6.622257232666015625e+01,1.191414108276367188e+02
9.999999776482582092e-03,1.000000000000000000e+00,8.512632369995117188e+00,-1.042580413818359375e+01,3.620513439178466797e+00,-2.087636108398437500e+02,-1.015729827880859375e+02,-1.814823303222656250e+02,1.166222991943359375e+02,8.770228385925292969e+00,3.480780029296875000e+01,-1.537292938232421875e+02,6.622257232666015625e+01,1.191414108276367188e+02
1.400000043213367462e-02,1.000000000000000000e+00,8.512632369995117188e+00,-1.042580413818359375e+01,3.620513439178466797e+00,-2.087636108398437500e+02,-1.015729827880859375e+02,-1.814823303222656250e+02,1.166222991943359375e+02,8.770228385925292969e+00,3.480780029296875000e+01,-1.537292938232421875e+02,6.622257232666015625e+01,1.191414108276367188e+02
1.600000075995922089e-02,1.000000000000000000e+00,8.512632369995117188e+00,-1.042580413818359375e+01,3.620513439178466797e+00,-2.087636108398437500e+02,-1.015729827880859375e+02,-1.814823303222656250e+02,1.166222991943359375e+02,8.770228385925292969e+00,3.480780029296875000e+01,-1.537292938232421875e+02,6.622257232666015625e+01,1.191414108276367188e+02
1.999999955296516418e-02,1.000000000000000000e+00,8.512632369995117188e+00,-1.042580413818359375e+01,3.620513439178466797e+00,-2.087636108398437500e+02,-1.015729827880859375e+02,-1.814823303222656250e+02,1.166222991943359375e+02,8.770228385925292969e+00,3.480780029296875000e+01,-1.537292938232421875e+02,6.622257232666015625e+01,1.191414108276367188e+02
2.400000020861625671e-02,1.000000000000000000e+00,8.512632369995117188e+00,-1.042580413818359375e+01,3.620513439178466797e+00,-2.087636108398437500e+02,-1.015729827880859375e+02,-1.814823303222656250e+02,1.166222991943359375e+02,8.770228385925292969e+00,3.480780029296875000e+01,-1.537292938232421875e+02,6.622257232666015625e+01,1.191414108276367188e+02
2.800000086426734924e-02,1.000000000000000000e+00,8.512632369995117188e+00,-1.042580413818359375e+01,3.620513439178466797e+00,-2.087636108398437500e+02,-1.015729827880859375e+02,-1.814823303222656250e+02,1.166222991943359375e+02,8.770228385925292969e+00,3.480780029296875000e+01,-1.537292938232421875e+02,6.622257232666015625e+01,1.191414108276367188e+02
3.200000151991844177e-02,1.000000000000000000e+00,8.512632369995117188e+00,-1.042580413818359375e+01,3.620513439178466797e+00,-2.087636108398437500e+02,-1.015729827880859375e+02,-1.814823303222656250e+02,1.166222991943359375e+02,8.770228385925292969e+00,3.480780029296875000e+01,-1.537292938232421875e+02,6.622257232666015625e+01,1.191414108276367188e+02
3.599999845027923584e-02,1.000000000000000000e+00,8.512632369995117188e+00,-1.042580413818359375e+01,3.620513439178466797e+00,-2.087636108398437500e+02,-1.015729827880859375e+02,-1.814823303222656250e+02,1.166222991943359375e+02,8.770228385925292969e+00,3.480780029296875000e+01,-1.537292938232421875e+02,6.622257232666015625e+01,1.191414108276367188e+02
3.999999910593032837e-02,1.000000000000000000e+00,8.512632369995117188e+00,-1.042580413818359375e+01,3.620513439178466797e+00,-2.087636108398437500e+02,-1.015729827880859375e+02,-1.814823303222656250e+02,1.166222991943359375e+02,8.770228385925292969e+00,3.480780029296875000e+01,-1.537292938232421875e+02,6.622257232666015625e+01,1.191414108276367188e+02
4.399999976158142090e-02,1.000000000000000000e+00,8.512594223022460938e+00,-1.042577934265136719e+01,3.620515584945678711e+00,-2.087636108398437500e+02,-1.015729827880859375e+02,-1.814823303222656250e+02,1.166222991943359375e+02,8.770228385925292969e+00,3.480780029296875000e+01,-1.537292938232421875e+02,6.622257232666015625e+01,1.191414108276367188e+02
4.800000041723251343e-02,1.000000000000000000e+00,8.512367248535156250e+00,-1.042562484741210938e+01,3.620528697967529297e+00,-2.087636108398437500e+02,-1.015729675292968750e+02,-1.814823303222656250e+02,1.166222991943359375e+02,8.770228385925292969e+00,3.480780029296875000e+01,-1.537292938232421875e+02,6.622257232666015625e+01,1.191414108276367188e+02
5.200000107288360596e-02,1.000000000000000000e+00,8.511689186096191406e+00,-1.042514801025390625e+01,3.620569705963134766e+00,-2.087635955810546875e+02,-1.015729293823242188e+02,-1.814823150634765625e+02,1.166222991943359375e+02,8.770228385925292969e+00,3.480780029296875000e+01,-1.537292938232421875e+02,6.622257232666015625e+01,1.191414108276367188e+02
5.600000172853469849e-02,1.000000000000000000e+00,8.510301589965820312e+00,-1.042413520812988281e+01,3.620660305023193359e+00,-2.087635650634765625e+02,-1.015727996826171875e+02,-1.814822387695312500e+02,1.166222991943359375e+02,8.770228385925292969e+00,3.480780029296875000e+01,-1.537292938232421875e+02,6.622257232666015625e+01,1.191414108276367188e+02
5.999999865889549255e-02,1.000000000000000000e+00,8.508053779602050781e+00,-1.042241954803466797e+01,3.620817422866821289e+00,-2.087634277343750000e+02,-1.015725326538085938e+02,-1.814820556640625000e+02,1.166222991943359375e+02,8.770228385925292969e+00,3.480780029296875000e+01,-1.537292938232421875e+02,6.622257232666015625e+01,1.191414108276367188e+02
6.400000303983688354e-02,1.000000000000000000e+00,8.504868507385253906e+00,-1.041988468170166016e+01,3.621059894561767578e+00,-2.087630920410156250e+02,-1.015719909667968750e+02,-1.814816589355468750e+02,1.166222991943359375e+02,8.770228385925292969e+00,3.480780029296875000e+01,-1.537292938232421875e+02,6.622257232666015625e+01,1.191414108276367188e+02
6.800000369548797607e-02,1.000000000000000000e+00,8.500657081604003906e+00,-1.041641235351562500e+01,3.621406793594360352e+00,-2.087624511718750000e+02,-1.015710144042968750e+02,-1.814809112548828125e+02,1.166222991943359375e+02,8.770228385925292969e+00,3.480780029296875000e+01,-1.537292938232421875e+02,6.622257232666015625e+01,1.191414108276367188e+02
7.199999690055847168e-02,1.000000000000000000e+00,8.495304107666015625e+00,-1.041185188293457031e+01,3.621885061264038086e+00,-2.087613525390625000e+02,-1.015694122314453125e+02,-1.814796295166015625e+02,1.166222991943359375e+02,8.770228385925292969e+00,3.480780029296875000e+01,-1.537292938232421875e+02,6.622257232666015625e+01,1.191414108276367188e+02
7.599999755620956421e-02,1.000000000000000000e+00,8.488672256469726562e+00,-1.040599441528320312e+01,3.622526168823242188e+00,-2.087595520019531250e+02,-1.015669250488281250e+02,-1.814775848388671875e+02,1.166222991943359375e+02,8.770228385925292969e+00,3.480780029296875000e+01,-1.537292938232421875e+02,6.622257232666015625e+01,1.191414108276367188e+02
7.999999821186065674e-02,1.000000000000000000e+00,8.480551719665527344e+00,-1.039850234985351562e+01,3.623368024826049805e+00,-2.087568511962890625e+02,-1.015632476806640625e+02,-1.814744873046875000e+02,1.166222991943359375e+02,8.770228385925292969e+00,3.480780029296875000e+01,-1.537292938232421875e+02,6.622257232666015625e+01,1.191414108276367188e+02
8.399999886751174927e-02,1.000000000000000000e+00,8.470636367797851562e+00,-1.038891410827636719e+01,3.624453067779541016e+00,-2.087529602050781250e+02,-1.015580444335937500e+02,-1.814700775146484375e+02,1.166222991943359375e+02,8.770228385925292969e+00,3.480780029296875000e+01,-1.537292938232421875e+02,6.622257232666015625e+01,1.191414108276367188e+02
8.799999952316284180e-02,1.000000000000000000e+00,8.458544731140136719e+00,-1.037681102752685547e+01,3.625832796096801758e+00,-2.087475585937500000e+02,-1.015509185791015625e+02,-1.814639739990234375e+02,1.166222991943359375e+02,8.770228385925292969e+00,3.480780029296875000e+01,-1.537292938232421875e+02,6.622257232666015625e+01,1.191414108276367188e+02
9.200000017881393433e-02,1.000000000000000000e+00,8.443941116333007812e+00,-1.036202430725097656e+01,3.627560853958129883e+00,-2.087402954101562500e+02,-1.015414352416992188e+02,-1.814558105468750000e+02,1.166222991943359375e+02,8.770228385925292969e+00,3.480780029296875000e+01,-1.537292938232421875e+02,6.622257232666015625e+01,1.191414108276367188e+02
9.600000083446502686e-02,1.000000000000000000e+00,8.426708221435546875e+00,-1.034474468231201172e+01,3.629675626754760742e+00,-2.087308044433593750e+02,-1.015291519165039062e+02,-1.814451446533203125e+02,1.166222991943359375e+02,8.770228385925292969e+00,3.480780029296875000e+01,-1.537292938232421875e+02,6.622257232666015625e+01,1.191414108276367188e+02
1.000000014901161194e-01,1.000000000000000000e+00,8.406975746154785156e+00,-1.032539081573486328e+01,3.632186174392700195e+00,-2.087186584472656250e+02,-1.015135955810546875e+02,-1.814315338134765625e+02,1.166222991943359375e+02,8.770228385925292969e+00,3.480780029296875000e+01,-1.537292938232421875e+02,6.622257232666015625e+01,1.191414108276367188e+02
1.040000021457672119e-01,1.000000000000000000e+00,8.384922027587890625e+00,-1.030441474914550781e+01,3.635091066360473633e+00,-2.087035064697265625e+02,-1.014943466186523438e+02,-1.814146118164062500e+02,1.166222991943359375e+02,8.770228385925292969e+00,3.480780029296875000e+01,-1.537292938232421875e+02,6.622257232666015625e+01,1.191414108276367188e+02
1.080000028014183044e-01,1.000000000000000000e+00,8.360549926757812500e+00,-1.028211688995361328e+01,3.638403892517089844e+00,-2.086850433349609375e+02,-1.014710159301757812e+02,-1.813940124511718750e+02,1.166222991943359375e+02,8.770228385925292969e+00,3.480780029296875000e+01,-1.537292938232421875e+02,6.622257232666015625e+01,1.191414108276367188e+02
1.120000034570693970e-01,1.000000000000000000e+00,8.333683967590332031e+00,-1.025852108001708984e+01,3.642148017883300781e+00,-2.086629943847656250e+02,-1.014433364868164062e+02,-1.813694610595703125e+02,1.166222991943359375e+02,8.770228385925292969e+00,3.480780029296875000e+01,-1.537292938232421875e+02,6.622257232666015625e+01,1.191414108276367188e+02
1.159999966621398926e-01,1.000000000000000000e+00,8.304132461547851562e+00,-1.023341274261474609e+01,3.646341323852539062e+00,-2.086372222900390625e+02,-1.014111022949218750e+02,-1.813407897949218750e+02,1.166222991943359375e+02,8.770228385925292969e+00,3.480780029296875000e+01,-1.537292938232421875e+02,6.622257232666015625e+01,1.191414108276367188e+02
1.199999973177909851e-01,1.000000000000000000e+00,8.271768569946289062e+00,-1.020650863647460938e+01,3.650993585586547852e+00,-2.086076507568359375e+02,-1.013742294311523438e+02,-1.813079376220703125e+02,1.166222991943359375e+02,8.770228385925292969e+00,3.480780029296875000e+01,-1.537292938232421875e+02,6.622257232666015625e+01,1.191414108276367188e+02
1.239999979734420776e-01,1.000000000000000000e+00,8.236523628234863281e+00,-1.017769622802734375e+01,3.656117916107177734e+00,-2.085743103027343750e+02,-1.013327178955078125e+02,-1.812709045410156250e+02,1.166222991943359375e+02,8.770228385925292969e+00,3.480780029296875000e+01,-1.537292938232421875e+02,6.622257232666015625e+01,1.191414108276367188e+02
1.280000060796737671e-01,1.000000000000000000e+00,8.198407173156738281e+00,-1.014710235595703125e+01,3.661726236343383789e+00,-2.085372772216796875e+02,-1.012866744995117188e+02,-1.812297668457031250e+02,1.166222991943359375e+02,8.770228385925292969e+00,3.480780029296875000e+01,-1.537292938232421875e+02,6.622257232666015625e+01,1.191414108276367188e+02
1.309999972581863403e-01,1.000000000000000000e+00,8.157536506652832031e+00,-1.011489582061767578e+01,3.667812824249267578e+00,-2.084967193603515625e+02,-1.012362899780273438e+02,-1.811847381591796875e+02,1.166222991943359375e+02,8.770228385925292969e+00,3.480780029296875000e+01,-1.537292938232421875e+02,6.622257232666015625e+01,1.191414108276367188e+02
1.360000073909759521e-01,1.000000000000000000e+00,8.114155769348144531e+00,-1.008115482330322266e+01,3.674347639083862305e+00,-2.084528350830078125e+02,-1.011818466186523438e+02,-1.811360473632812500e+02,1.166222991943359375e+02,8.770228385925292969e+00,3.480780029296875000e+01,-1.537292938232421875e+02,6.622257232666015625e+01,1.191414108276367188e+02
1.389999985694885254e-01,1.000000000000000000e+00,8.068531990051269531e+00,-1.004584980010986328e+01,3.681292772293090820e+00,-2.084059295654296875e+02,-1.011236801147460938e+02,-1.810840148925781250e+02,1.166222991943359375e+02,8.770228385925292969e+00,3.480780029296875000e+01,-1.537292938232421875e+02,6.622257232666015625e+01,1.191414108276367188e+02
1.439999938011169434e-01,1.000000000000000000e+00,8.020768165588378906e+00,-1.000880908966064453e+01,3.688619375228881836e+00,-2.083563537597656250e+02,-1.010622253417968750e+02,-1.810290069580078125e+02,1.166222991943359375e+02,8.770228385925292969e+00,3.480780029296875000e+01,-1.537292938232421875e+02,6.622257232666015625e+01,1.191414108276367188e+02
1.480000019073486328e-01,1.000000000000000000e+00,7.970753192901611328e+00,-9.969657897949218750e+00,3.696310281753540039e+00,-2.083044738769531250e+02,-1.009979095458984375e+02,-1.809714508056640625e+02,1.166222991943359375e+02,8.770228385925292969e+00,3.480780029296875000e+01,-1.537292938232421875e+02,6.622257232666015625e+01,1.191414108276367188e+02
1.519999951124191284e-01,1.000000000000000000e+00,7.918361186981201172e+00,-9.927978515625000000e+00,3.704343318939208984e+00,-2.082507019042968750e+02,-1.009312057495117188e+02,-1.809117889404296875e+02,1.166222991943359375e+02,8.770228385925292969e+00,3.480780029296875000e+01,-1.537292938232421875e+02,6.622257232666015625e+01,1.191414108276367188e+02
1.560000032186508179e-01,1.000000000000000000e+00,7.863664150238037109e+00,-9.883667945861816406e+00,3.712682485580444336e+00,-2.081954040527343750e+02,-1.008625488281250000e+02,-1.808504028320312500e+02,1.166222991943359375e+02,8.770228385925292969e+00,3.480780029296875000e+01,-1.537292938232421875e+02,6.622257232666015625e+01,1.191414108276367188e+02
1.599999964237213135e-01,1.000000000000000000e+00,7.806936264038085938e+00,-9.837034225463867188e+00,3.721283912658691406e+00,-2.081389160156250000e+02,-1.007923431396484375e+02,-1.807876892089843750e+02,1.166222991943359375e+02,8.770228385925292969e+00,3.480780029296875000e+01,-1.537292938232421875e+02,6.622257232666015625e+01,1.191414108276367188e+02
1.640000045299530029e-01,1.000000000000000000e+00,7.748503208160400391e+00,-9.788547515869140625e+00,3.730103492736816406e+00,-2.080814971923828125e+02,-1.007209472656250000e+02,-1.807239532470703125e+02,1.166222991943359375e+02,8.770228385925292969e+00,3.480780029296875000e+01,-1.537292938232421875e+02,6.622257232666015625e+01,1.191414108276367188e+02
1.679999977350234985e-01,1.000000000000000000e+00,7.688666343688964844e+00,-9.738616943359375000e+00,3.739099979400634766e+00,-2.080233917236328125e+02,-1.006486587524414062e+02,-1.806594390869140625e+02,1.166222991943359375e+02,8.770228385925292969e+00,3.480780029296875000e+01,-1.537292938232421875e+02,6.622257232666015625e+01,1.191414108276367188e+02
1.720000058412551880e-01,1.000000000000000000e+00,7.627693176269531250e+00,-9.687556266784667969e+00,3.748233318328857422e+00,-2.079648284912109375e+02,-1.005757064819335938e+02,-1.805943756103515625e+02,1.166222991943359375e+02,8.770228385925292969e+00,3.480780029296875000e+01,-1.537292938232421875e+02,6.622257232666015625e+01,1.191414108276367188e+02
1.759999990463256836e-01,1.000000000000000000e+00,7.565804958343505859e+00,-9.635622024536132812e+00,3.757467746734619141e+00,-2.079058990478515625e+02,-1.005023040771484375e+02,-1.805289154052734375e+02,1.166222991943359375e+02,8.770228385925292969e+00,3.480780029296875000e+01,-1.537292938232421875e+02,6.622257232666015625e+01,1.191414108276367188e+02
1.800000071525573730e-01,1.000000000000000000e+00,7.503158569335937500e+00,-9.582999229431152344e+00,3.766777276992797852e+00,-2.078467559814453125e+02,-1.004285888671875000e+02,-1.804631958007812500e+02,1.166222991943359375e+02,8.770228385925292969e+00,3.480780029296875000e+01,-1.537292938232421875e+02,6.622257232666015625e+01,1.191414108276367188e+02
1.840000003576278687e-01,1.000000000000000000e+00,7.439841747283935547e+00,-9.529794692993164062e+00,3.776144742965698242e+00,-2.077874908447265625e+02,-1.003546905517578125e+02,-1.803973541259765625e+02,1.166222991943359375e+02,8.770228385925292969e+00,3.480780029296875000e+01,-1.537292938232421875e+02,6.622257232666015625e+01,1.191414108276367188e+02
1.879999935626983643e-01,1.000000000000000000e+00,7.375912666320800781e+00,-9.476090431213378906e+00,3.785557746887207031e+00,-2.077281646728515625e+02,-1.002806777954101562e+02,-1.803314056396484375e+02,1.166222991943359375e+02,8.770228385925292969e+00,3.480780029296875000e+01,-1.537292938232421875e+02,6.622257232666015625e+01,1.191414108276367188e+02
1.920000016689300537e-01,1.000000000000000000e+00,7.311482906341552734e+00,-9.422004699707031250e+00,3.795003890991210938e+00,-2.076688079833984375e+02,-1.002066268920898438e+02,-1.802654418945312500e+02,1.166222991943359375e+02,8.770228385925292969e+00,3.480780029296875000e+01,-1.537292938232421875e+02,6.622257232666015625e+01,1.191414108276367188e+02
1.959999948740005493e-01,1.000000000000000000e+00,7.246731758117675781e+00,-9.367689132690429688e+00,3.804468393325805664e+00,-2.076094512939453125e+02,-1.001325454711914062e+02,-1.801994628906250000e+02,1.166222991943359375e+02,8.770228385925292969e+00,3.480780029296875000e+01,-1.537292938232421875e+02,6.622257232666015625e+01,1.191414108276367188e+02
2.000000029802322388e-01,1.000000000000000000e+00,7.181845188140869141e+00,-9.313281059265136719e+00,3.813940048217773438e+00,-2.075500946044921875e+02,-1.000584716796875000e+02,-1.801334991455078125e+02,1.166222991943359375e+02,8.770228385925292969e+00,3.480780029296875000e+01,-1.537292938232421875e+02,6.622257232666015625e+01,1.191414108276367188e+02
2.039999961853027344e-01,1.000000000000000000e+00,7.116931438446044922e+00,-9.258855819702148438e+00,3.823413133621215820e+00,-2.074907379150390625e+02,-9.998439788818359375e+01,-1.800675354003906250e+02,1.166222991943359375e+02,8.770228385925292969e+00,3.480780029296875000e+01,-1.537292938232421875e+02,6.622257232666015625e+01,1.191414108276367188e+02
2.080000042915344238e-01,1.000000000000000000e+00,7.052019596099853516e+00,-9.204433441162109375e+00,3.832885265350341797e+00,-2.074313812255859375e+02,-9.991032409667968750e+01,-1.800015716552734375e+02,1.166222991943359375e+02,8.770228385925292969e+00,3.480780029296875000e+01,-1.537292938232421875e+02,6.622257232666015625e+01,1.191414108276367188e+02
2.119999974966049194e-01,1.000000000000000000e+00,6.987112522125244141e+00,-9.150013923645019531e+00,3.842357158660888672e+00,-2.073720397949218750e+02,-9.983625793457031250e+01,-1.799355926513671875e+02,1.166222991943359375e+02,8.770228385925292969e+00,3.480780029296875000e+01,-1.537292938232421875e+02,6.622257232666015625e+01,1.191414108276367188e+02
2.160000056028366089e-01,1.000000000000000000e+00,6.922208786010742188e+00,-9.095597267150878906e+00,3.851828098297119141e+00,-2.073126983642578125e+02,-9.976219177246093750e+01,-1.798696441650390625e+02,1.166222991943359375e+02,8.770228385925292969e+00,3.480780029296875000e+01,-1.537292938232421875e+02,6.622257232666015625e+01,1.191414108276367188e+02
2.199999988079071045e-01,1.000000000000000000e+00,6.857309341430664062e+00,-9.041184425354003906e+00,3.861299037933349609e+00,-2.072533569335937500e+02,-9.968813323974609375e+01,-1.798036956787109375e+02,1.166222991943359375e+02,8.770228385925292969e+00,3.480780029296875000e+01,-1.537292938232421875e+02,6.622257232666015625e+01,1.191414108276367188e+02
2.240000069141387939e-01,1.000000000000000000e+00,6.792414188385009766e+00,-8.986775398254394531e+00,3.870768547058105469e+00,-2.071940155029296875e+02,-9.961408233642578125e+01,-1.797377471923828125e+02,1.166222991943359375e+02,8.770228385925292969e+00,3.480780029296875000e+01,-1.537292938232421875e+02,6.622257232666015625e+01,1.191414108276367188e+02
2.280000001192092896e-01,1.000000000000000000e+00,6.727522373199462891e+00,-8.932369232177734375e+00,3.880238294601440430e+00,-2.071346893310546875e+02,-9.954003906250000000e+01,-1.796717834472656250e+02,1.166222991943359375e+02,8.770228385925292969e+00,3.480780029296875000e+01,-1.537292938232421875e+02,6.622257232666015625e+01,1.191414108276367188e+02
2.319999933242797852e-01,1.000000000000000000e+00,6.662635326385498047e+00,-8.877966880798339844e+00,3.889707088470458984e+00,-2.070753631591796875e+02,-9.946598815917968750e+01,-1.796058502197265625e+02,1.166222991943359375e+02,8.770228385925292969e+00,3.480780029296875000e+01,-1.537292938232421875e+02,6.622257232666015625e+01,1.191414108276367188e+02
2.360000014305114746e-01,1.000000000000000000e+00,6.597751617431640625e+00,-8.823567390441894531e+00,3.899175405502319336e+00,-2.070160369873046875e+02,-9.939195251464843750e+01,-1.795399169921875000e+02,1.166222991943359375e+02,8.770228385925292969e+00,3.480780029296875000e+01,-1.537292938232421875e+02,6.622257232666015625e+01,1.191414108276367188e+02
2.399999946355819702e-01,1.000000000000000000e+00,6.532871723175048828e+00,-8.769170761108398438e+00,3.908643245697021484e+00,-2.069567108154296875e+02,-9.931790924072265625e+01,-1.794739837646484375e+02,1.166222991943359375e+02,8.770228385925292969e+00,3.480780029296875000e+01,-1.537292938232421875e+02,6.622257232666015625e+01,1.191414108276367188e+02
2.440000027418136597e-01,1.000000000000000000e+00,6.467995643615722656e+00,-8.714777946472167969e+00,3.918110370635986328e+00,-2.068973999023437500e+02,-9.924388122558593750e+01,-1.794080505371093750e+02,1.166222991943359375e+02,8.770228385925292969e+00,3.480780029296875000e+01,-1.537292938232421875e+02,6.622257232666015625e+01,1.191414108276367188e+02
2.479999959468841553e-01,1.000000000000000000e+00,6.403122901916503906e+00,-8.660387039184570312e+00,3.927577018737792969e+00,-2.068380889892578125e+02,-9.916985321044921875e+01,-1.793421173095703125e+02,1.166222991943359375e+02,8.770228385925292969e+00,3.480780029296875000e+01,-1.537292938232421875e+02,6.622257232666015625e+01,1.191414108276367188e+02
2.520000040531158447e-01,1.000000000000000000e+00,6.338253974914550781e+00,-8.605999946594238281e+00,3.937043190002441406e+00,-2.067787780761718750e+02,-9.909582519531250000e+01,-1.792761993408203125e+02,1.166222991943359375e+02,8.770228385925292969e+00,3.480780029296875000e+01,-1.537292938232421875e+02,6.622257232666015625e+01,1.191414108276367188e+02
2.560000121593475342e-01,1.000000000000000000e+00,6.273388385772705078e+00,-8.551615715026855469e+00,3.946508884429931641e+00,-2.067194824218750000e+02,-9.902181243896484375e+01,-1.792102813720703125e+02,1.166222991943359375e+02,8.770228385925292969e+00,3.480780029296875000e+01,-1.537292938232421875e+02,6.622257232666015625e+01,1.191414108276367188e+02
2.599999904632568359e-01,1.000000000000000000e+00,6.208526134490966797e+00,-8.497234344482421875e+00,3.955973863601684570e+00,-2.066601562500000000e+02,-9.894779968261718750e+01,-1.791443634033203125e+02,1.166222991943359375e+02,8.770228385925292969e+00,3.480780029296875000e+01,-1.537292938232421875e+02,6.622257232666015625e+01,1.191414108276367188e+02
2.639999985694885254e-01,1.000000000000000000e+00,6.143667697906494141e+00,-8.442855834960937500e+00,3.965438365936279297e+00,-2.066008605957031250e+02,-9.887378692626953125e+01,-1.790784454345703125e+02,1.166222991943359375e+02,8.770228385925292969e+00,3.480780029296875000e+01,-1.537292938232421875e+02,6.622257232666015625e+01,1.191414108276367188e+02
2.680000066757202148e-01,1.000000000000000000e+00,6.078812599182128906e+00,-8.388481140136718750e+00,3.974902391433715820e+00,-2.065415649414062500e+02,-9.879977416992187500e+01,-1.790125579833984375e+02,1.166222991943359375e+02,8.770228385925292969e+00,3.480780029296875000e+01,-1.537292938232421875e+02,6.622257232666015625e+01,1.191414108276367188e+02
2.720000147819519043e-01,1.000000000000000000e+00,6.013960838317871094e+00,-8.334108352661132812e+00,3.984366178512573242e+00,-2.064822692871093750e+02,-9.872577667236328125e+01,-1.789466400146484375e+02,1.166222991943359375e+02,8.770228385925292969e+00,3.480780029296875000e+01,-1.537292938232421875e+02,6.622257232666015625e+01,1.191414108276367188e+02
2.759999930858612061e-01,1.000000000000000000e+00,5.949112892150878906e+00,-8.279738426208496094e+00,3.993829250335693359e+00,-2.064229736328125000e+02,-9.865177154541015625e+01,-1.788807373046875000e+02,1.166222991943359375e+02,8.770228385925292969e+00,3.480780029296875000e+01,-1.537292938232421875e+02,6.622257232666015625e+01,1.191414108276367188e+02
2.800000011920928955e-01,1.000000000000000000e+00,5.884267330169677734e+00,-8.225370407104492188e+00,4.003292083740234375e+00,-2.063636932373046875e+02,-9.857778167724609375e+01,-1.788148498535156250e+02,1.166222991943359375e+02,8.770228385925292969e+00,3.480780029296875000e+01,-1.537292938232421875e+02,6.622257232666015625e+01,1.191414108276367188e+02
2.840000092983245850e-01,1.000000000000000000e+00,5.819426059722900391e+00,-8.171006202697753906e+00,4.012753963470458984e+00,-2.063043975830078125e+02,-9.850378417968750000e+01,-1.787489471435546875e+02,1.166222991943359375e+02,8.770228385925292969e+00,3.480780029296875000e+01,-1.537292938232421875e+02,6.622257232666015625e+01,1.191414108276367188e+02
2.879999876022338867e-01,1.000000000000000000e+00,5.754587173461914062e+00,-8.116644859313964844e+00,4.022215843200683594e+00,-2.062451171875000000e+02,-9.842979431152343750e+01,-1.786830444335937500e+02,1.166222991943359375e+02,8.770228385925292969e+00,3.480780029296875000e+01,-1.537292938232421875e+02,6.622257232666015625e+01,1.191414108276367188e+02
2.919999957084655762e-01,1.000000000000000000e+00,5.689752101898193359e+00,-8.062286376953125000e+00,4.031677246093750000e+00,-2.061858520507812500e+02,-9.835581207275390625e+01,-1.786171722412109375e+02,1.166222991943359375e+02,8.770228385925292969e+00,3.480780029296875000e+01,-1.537292938232421875e+02,6.622257232666015625e+01,1.191414108276367188e+02
2.960000038146972656e-01,1.000000000000000000e+00,5.624919891357421875e+00,-8.007930755615234375e+00,4.041137695312500000e+00,-2.061265563964843750e+02,-9.828182983398437500e+01,-1.785512847900390625e+02,1.166222991943359375e+02,8.770228385925292969e+00,3.480780029296875000e+01,-1.537292938232421875e+02,6.622257232666015625e+01,1.191414108276367188e+02
3.000000119209289551e-01,1.000000000000000000e+00,5.560091018676757812e+00,-7.953577041625976562e+00,4.050598144531250000e+00,-2.060672912597656250e+02,-9.820785522460937500e+01,-1.784853973388671875e+02,1.166222991943359375e+02,8.770228385925292969e+00,3.480780029296875000e+01,-1.537292938232421875e+02,6.622257232666015625e+01,1.191414108276367188e+02
3.039999902248382568e-01,1.000000000000000000e+00,5.495265483856201172e+00,-7.899225711822509766e+00,4.060057640075683594e+00,-2.060080108642578125e+02,-9.813388061523437500e+01,-1.784195251464843750e+02,1.166222991943359375e+02,8.770228385925292969e+00,3.480780029296875000e+01,-1.537292938232421875e+02,6.622257232666015625e+01,1.191414108276367188e+02
3.079999983310699463e-01,1.000000000000000000e+00,5.430442810058593750e+00,-7.844877719879150391e+00,4.069517135620117188e+00,-2.059487457275390625e+02,-9.805990600585937500e+01,-1.783536376953125000e+02,1.166222991943359375e+02,8.770228385925292969e+00,3.480780029296875000e+01,-1.537292938232421875e+02,6.622257232666015625e+01,1.191414108276367188e+02
3.120000064373016357e-01,1.000000000000000000e+00,5.365622997283935547e+00,-7.790531635284423828e+00,4.078976154327392578e+00,-2.058894805908203125e+02,-9.798593902587890625e+01,-1.782877807617187500e+02,1.166222991943359375e+02,8.770228385925292969e+00,3.480780029296875000e+01,-1.537292938232421875e+02,6.622257232666015625e+01,1.191414108276367188e+02
3.160000145435333252e-01,1.000000000000000000e+00,5.300806045532226562e+00,-7.736188888549804688e+00,4.088434696197509766e+00,-2.058302307128906250e+02,-9.791197967529296875e+01,-1.782219085693359375e+02,1.166222991943359375e+02,8.770228385925292969e+00,3.480780029296875000e+01,-1.537292938232421875e+02,6.622257232666015625e+01,1.191414108276367188e+02
3.199999928474426270e-01,1.000000000000000000e+00,5.235992908477783203e+00,-7.681848049163818359e+00,4.097892761230468750e+00,-2.057709503173828125e+02,-9.783801269531250000e+01,-1.781560516357421875e+02,1.166222991943359375e+02,8.770228385925292969e+00,3.480780029296875000e+01,-1.537292938232421875e+02,6.622257232666015625e+01,1.191414108276367188e+02
3.240000009536743164e-01,1.000000000000000000e+00,5.171182155609130859e+00,-7.627510547637939453e+00,4.107350349426269531e+00,-2.057117156982421875e+02,-9.776406097412109375e+01,-1.780901794433593750e+02,1.166222991943359375e+02,8.770228385925292969e+00,3.480780029296875000e+01,-1.537292938232421875e+02,6.622257232666015625e+01,1.191414108276367188e+02
3.280000090599060059e-01,1.000000000000000000e+00,5.106374263763427734e+00,-7.573174476623535156e+00,4.116807937622070312e+00,-2.056524505615234375e+02,-9.769010925292968750e+01,-1.780243225097656250e+02,1.166222991943359375e+02,8.770228385925292969e+00,3.480780029296875000e+01,-1.537292938232421875e+02,6.622257232666015625e+01,1.191414108276367188e+02
3.319999873638153076e-01,1.000000000000000000e+00,5.041568756103515625e+00,-7.518841266632080078e+00,4.126264572143554688e+00,-2.055931854248046875e+02,-9.761615753173828125e+01,-1.779584655761718750e+02,1.166222991943359375e+02,8.770228385925292969e+00,3.480780029296875000e+01,-1.537292938232421875e+02,6.622257232666015625e+01,1.191414108276367188e+02
3.359999954700469971e-01,1.000000000000000000e+00,4.976767063140869141e+00,-7.464510440826416016e+00,4.135720729827880859e+00,-2.055339508056640625e+02,-9.754221343994140625e+01,-1.778926086425781250e+02,1.166222991943359375e+02,8.770228385925292969e+00,3.480780029296875000e+01,-1.537292938232421875e+02,6.622257232666015625e+01,1.191414108276367188e+02
3.400000035762786865e-01,1.000000000000000000e+00,4.911967754364013672e+00,-7.410181522369384766e+00,4.145176410675048828e+00,-2.054747009277343750e+02,-9.746826934814453125e+01,-1.778267517089843750e+02,1.166222991943359375e+02,8.770228385925292969e+00,3.480780029296875000e+01,-1.537292938232421875e+02,6.622257232666015625e+01,1.191414108276367188e+02
3.440000116825103760e-01,1.000000000000000000e+00,4.847170829772949219e+00,-7.355855941772460938e+00,4.154632091522216797e+00,-2.054154510498046875e+02,-9.739432525634765625e+01,-1.777609100341796875e+02,1.166222991943359375e+02,8.770228385925292969e+00,3.480780029296875000e+01,-1.537292938232421875e+02,6.622257232666015625e+01,1.191414108276367188e+02
3.479999899864196777e-01,1.000000000000000000e+00,4.782377243041992188e+00,-7.301532268524169922e+00,4.164087295532226562e+00,-2.053562164306640625e+02,-9.732038879394531250e+01,-1.776950683593750000e+02,1.166222991943359375e+02,8.770228385925292969e+00,3.480780029296875000e+01,-1.537292938232421875e+02,6.622257232666015625e+01,1.191414108276367188e+02
3.519999980926513672e-01,1.000000000000000000e+00,4.717586040496826172e+00,-7.247210025787353516e+00,4.173542499542236328e+00,-2.052969818115234375e+02,-9.724645233154296875e+01,-1.776292266845703125e+02,1.166222991943359375e+02,8.770228385925292969e+00,3.480780029296875000e+01,-1.537292938232421875e+02,6.622257232666015625e+01,1.191414108276367188e+02
3.560000061988830566e-01,1.000000000000000000e+00,4.652797698974609375e+00,-7.192891120910644531e+00,4.182996749877929688e+00,-2.052377319335937500e+02,-9.717252349853515625e+01,-1.775633850097656250e+02,1.166222991943359375e+02,8.770228385925292969e+00,3.480780029296875000e+01,-1.537292938232421875e+02,6.622257232666015625e+01,1.191414108276367188e+02
3.600000143051147461e-01,1.000000000000000000e+00,4.588011741638183594e+00,-7.138573646545410156e+00,4.192450523376464844e+00,-2.051784973144531250e+02,-9.709859466552734375e+01,-1.774975280761718750e+02,1.166222991943359375e+02,8.770228385925292969e+00,3.480780029296875000e+01,-1.537292938232421875e+02,6.622257232666015625e+01,1.191414108276367188e+02
3.639999926090240479e-01,1.000000000000000000e+00,4.523228168487548828e+00,-7.084258556365966797e+00,4.201903820037841797e+00,-2.051192779541015625e+02,-9.702466583251953125e+01,-1.774317016601562500e+02,1.166222991943359375e+02,8.770228385925292969e+00,3.480780029296875000e+01,-1.537292938232421875e+02,6.622257232666015625e+01,1.191414108276367188e+02
3.680000007152557373e-01,1.000000000000000000e+00,4.458447933197021484e+00,-7.029945850372314453e+00,4.211357116699218750e+00,-2.050600433349609375e+02,-9.695074462890625000e+01,-1.773658752441406250e+02,1.166222991943359375e+02,8.770228385925292969e+00,3.480780029296875000e+01,-1.537292938232421875e+02,6.622257232666015625e+01,1.191414108276367188e+02
3.720000088214874268e-01,1.000000000000000000e+00,4.393669605255126953e+00,-6.975635051727294922e+00,4.220810413360595703e+00,-2.050008087158203125e+02,-9.687683105468750000e+01,-1.773000488281250000e+02,1.166222991943359375e+02,8.770228385925292969e+00,3.480780029296875000e+01,-1.537292938232421875e+02,6.622257232666015625e+01,1.191414108276367188e+02
3.759999871253967285e-01,1.000000000000000000e+00,4.328894138336181641e+00,-6.921326637268066406e+00,4.230262279510498047e+00,-2.049415893554687500e+02,-9.680290985107421875e+01,-1.772342224121093750e+02,1.166222991943359375e+02,8.770228385925292969e+00,3.480780029296875000e+01,-1.537292938232421875e+02,6.622257232666015625e+01,1.191414108276367188e+02
3.799999952316284180e-01,1.000000000000000000e+00,4.264121055603027344e+00,-6.867020130157470703e+00,4.239714622497558594e+00,-2.048823547363281250e+02,-9.672899627685546875e+01,-1.771683807373046875e+02,1.166222991943359375e+02,8.770228385925292969e+00,3.480780029296875000e+01,-1.537292938232421875e+02,6.622257232666015625e+01,1.191414108276367188e+02
3.840000033378601074e-01,1.000000000000000000e+00,4.199350357055664062e+00,-6.812716007232666016e+00,4.249166011810302734e+00,-2.048231353759765625e+02,-9.665509033203125000e+01,-1.771025695800781250e+02,1.166222991943359375e+02,8.770228385925292969e+00,3.480780029296875000e+01,-1.537292938232421875e+02,6.622257232666015625e+01,1.191414108276367188e+02
3.880000114440917969e-01,1.000000000000000000e+00,4.134581565856933594e+00,-6.758413314819335938e+00,4.258617877960205078e+00,-2.047639312744140625e+02,-9.658117675781250000e+01,-1.770367431640625000e+02,1.166222991943359375e+02,8.770228385925292969e+00,3.480780029296875000e+01,-1.537292938232421875e+02,6.622257232666015625e+01,1.191414108276367188e+02
3.919999897480010986e-01,1.000000000000000000e+00,4.069815635681152344e+00,-6.704113006591796875e+00,4.268068790435791016e+00,-2.047047119140625000e+02,-9.650727844238281250e+01,-1.769709320068359375e+02,1.166222991943359375e+02,8.770228385925292969e+00,3.480780029296875000e+01,-1.537292938232421875e+02,6.622257232666015625e+01,1.191414108276367188e+02
3.959999978542327881e-01,1.000000000000000000e+00,4.005051612854003906e+00,-6.649814605712890625e+00,4.277519702911376953e+00,-2.046454925537109375e+02,-9.643337249755859375e+01,-1.769051055908203125e+02,1.166222991943359375e+02,8.770228385925292969e+00,3.480780029296875000e+01,-1.537292938232421875e+02,6.622257232666015625e+01,1.191414108276367188e+02
4.000000059604644775e-01,1.000000000000000000e+00,3.940290451049804688e+00,-6.595518112182617188e+00,4.286970138549804688e+00,-2.045862884521484375e+02,-9.635946655273437500e+01,-1.768392944335937500e+02,1.166222991943359375e+02,8.770228385925292969e+00,3.480780029296875000e+01,-1.537292938232421875e+02,6.622257232666015625e+01,1.191414108276367188e+02
4.040000140666961670e-01,1.000000000000000000e+00,3.875531435012817383e+00,-6.541223049163818359e+00,4.296420097351074219e+00,-2.045270690917968750e+02,-9.628557586669921875e+01,-1.767734985351562500e+02,1.166222991943359375e+02,8.770228385925292969e+00,3.480780029296875000e+01,-1.537292938232421875e+02,6.622257232666015625e+01,1.191414108276367188e+02
4.079999923706054688e-01,1.000000000000000000e+00,3.810774326324462891e+00,-6.486930370330810547e+00,4.305869579315185547e+00,-2.044678649902343750e+02,-9.621167755126953125e+01,-1.767076721191406250e+02,1.166222991943359375e+02,8.770228385925292969e+00,3.480780029296875000e+01,-1.537292938232421875e+02,6.622257232666015625e+01,1.191414108276367188e+02
4.120000004768371582e-01,1.000000000000000000e+00,3.746019840240478516e+00,-6.432639598846435547e+00,4.315319061279296875e+00,-2.044086608886718750e+02,-9.613777923583984375e+01,-1.766418762207031250e+02,1.166222991943359375e+02,8.770228385925292969e+00,3.480780029296875000e+01,-1.537292938232421875e+02,6.622257232666015625e+01,1.191414108276367188e+02
4.160000085830688477e-01,1.000000000000000000e+00,3.681267023086547852e+00,-6.378350257873535156e+00,4.324768066406250000e+00,-2.043494567871093750e+02,-9.606389617919921875e+01,-1.765760803222656250e+02,1.166222991943359375e+02,8.770228385925292969e+00,3.480780029296875000e+01,-1.537292938232421875e+02,6.622257232666015625e+01,1.191414108276367188e+02
4.199999868869781494e-01,1.000000000000000000e+00,3.616516828536987305e+00,-6.324063301086425781e+00,4.334217071533203125e+00,-2.042902526855468750e+02,-9.599001312255859375e+01,-1.765102691650390625e+02,1.166222991943359375e+02,8.770228385925292969e+00,3.480780029296875000e+01,-1.537292938232421875e+02,6.622257232666015625e+01,1.191414108276367188e+02
4.239999949932098389e-01,1.000000000000000000e+00,3.551768302917480469e+00,-6.269778251647949219e+00,4.343665599822998047e+00,-2.042310485839843750e+02,-9.591612243652343750e+01,-1.764444732666015625e+02,1.166222991943359375e+02,8.770228385925292969e+00,3.480780029296875000e+01,-1.537292938232421875e+02,6.622257232666015625e+01,1.191414108276367188e+02
4.280000030994415283e-01,1.000000000000000000e+00,3.487020969390869141e+00,-6.215494632720947266e+00,4.353114128112792969e+00,-2.041718597412109375e+02,-9.584223937988281250e+01,-1.763786621093750000e+02,1.166222991943359375e+02,8.770228385925292969e+00,3.480780029296875000e+01,-1.537292938232421875e+02,6.622257232666015625e+01,1.191414108276367188e+02
4.320000112056732178e-01,1.000000000000000000e+00,3.422276020050048828e+00,-6.161213397979736328e+00,4.362561702728271484e+00,-2.041126556396484375e+02,-9.576835632324218750e+01,-1.763128814697265625e+02,1.166222991943359375e+02,8.770228385925292969e+00,3.480780029296875000e+01,-1.537292938232421875e+02,6.622257232666015625e+01,1.191414108276367188e+02
4.359999895095825195e-01,1.000000000000000000e+00,3.357532978057861328e+00,-6.106932640075683594e+00,4.372009754180908203e+00,-2.040534667968750000e+02,-9.569448089599609375e+01,-1.762470855712890625e+02,1.166222991943359375e+02,8.770228385925292969e+00,3.480780029296875000e+01,-1.537292938232421875e+02,6.622257232666015625e+01,1.191414108276367188e+02
4.399999976158142090e-01,1.000000000000000000e+00,3.292792081832885742e+00,-6.052653789520263672e+00,4.381457328796386719e+00,-2.039942779541015625e+02,-9.562060546875000000e+01,-1.761812896728515625e+02,1.166222991943359375e+02,8.770228385925292969e+00,3.480780029296875000e+01,-1.537292938232421875e+02,6.622257232666015625e+01,1.191414108276367188e+02
4.440000057220458984e-01,1.000000000000000000e+00,3.228053569793701172e+00,-5.998375892639160156e+00,4.390903472900390625e+00,-2.039350738525390625e+02,-9.554673004150390625e+01,-1.761154937744140625e+02,1.166222991943359375e+02,8.770228385925292969e+00,3.480780029296875000e+01,-1.537292938232421875e+02,6.622257232666015625e+01,1.191414108276367188e+02
4.480000138282775879e-01,1.000000000000000000e+00,3.163316488265991211e+00,-5.944099426269531250e+00,4.400350570678710938e+00,-2.038758850097656250e+02,-9.547285461425781250e+01,-1.760497131347656250e+02,1.166222991943359375e+02,8.770228385925292969e+00,3.480780029296875000e+01,-1.537292938232421875e+02,6.622257232666015625e+01,1.191414108276367188e+02
4.519999921321868896e-01,1.000000000000000000e+00,3.098581314086914062e+00,-5.889824390411376953e+00,4.409796714782714844e+00,-2.038166961669921875e+02,-9.539898681640625000e+01,-1.759839324951171875e+02,1.166222991943359375e+02,8.770228385925292969e+00,3.480780029296875000e+01,-1.537292938232421875e+02,6.622257232666015625e+01,1.191414108276367188e+02
4.560000002384185791e-01,1.000000000000000000e+00,3.033847808837890625e+00,-5.835551261901855469e+00,4.419243335723876953e+00,-2.037575073242187500e+02,-9.532511901855468750e+01,-1.759181518554687500e+02,1.166222991943359375e+02,8.770228385925292969e+00,3.480780029296875000e+01,-1.537292938232421875e+02,6.622257232666015625e+01,1.191414108276367188e+02
4.600000083446502686e-01,1.000000000000000000e+00,2.969115734100341797e+00,-5.781279563903808594e+00,4.428689479827880859e+00,-2.036983337402343750e+02,-9.525125885009765625e+01,-1.758523559570312500e+02,1.166222991943359375e+02,8.770228385925292969e+00,3.480780029296875000e+01,-1.537292938232421875e+02,6.622257232666015625e+01,1.191414108276367188e+02
4.639999866485595703e-01,1.000000000000000000e+00,2.904385566711425781e+00,-5.727009296417236328e+00,4.438135147094726562e+00,-2.036391448974609375e+02,-9.517739105224609375e+01,-1.757865905761718750e+02,1.166222991943359375e+02,8.770228385925292969e+00,3.480780029296875000e+01,-1.537292938232421875e+02,6.622257232666015625e+01,1.191414108276367188e+02
4.679999947547912598e-01,1.000000000000000000e+00,2.839656829833984375e+00,-5.672739982604980469e+00,4.447580814361572266e+00,-2.035799713134765625e+02,-9.510353088378906250e+01,-1.757208099365234375e+02,1.166222991943359375e+02,8.770228385925292969e+00,3.480780029296875000e+01,-1.537292938232421875e+02,6.622257232666015625e+01,1.191414108276367188e+02
4.720000028610229492e-01,1.000000000000000000e+00,2.774929761886596680e+00,-5.618471622467041016e+00,4.457026481628417969e+00,-2.035207824707031250e+02,-9.502966308593750000e+01,-1.756550292968750000e+02,1.166222991943359375e+02,8.770228385925292969e+00,3.480780029296875000e+01,-1.537292938232421875e+02,6.622257232666015625e+01,1.191414108276367188e+02
4.760000109672546387e-01,1.000000000000000000e+00,2.710204124450683594e+00,-5.564205646514892578e+00,4.466471672058105469e+00,-2.034615936279296875e+02,-9.495581054687500000e+01,-1.755892486572265625e+02,1.166222991943359375e+02,8.770228385925292969e+00,3.480780029296875000e+01,-1.537292938232421875e+02,6.622257232666015625e+01,1.191414108276367188e+02
4.799999892711639404e-01,1.000000000000000000e+00,2.645479917526245117e+00,-5.509940147399902344e+00,4.475916385650634766e+00,-2.034024200439453125e+02,-9.488195037841796875e+01,-1.755234680175781250e+02,1.166222991943359375e+02,8.770228385925292969e+00,3.480780029296875000e+01,-1.537292938232421875e+02,6.622257232666015625e+01,1.191414108276367188e+02
4.839999973773956299e-01,1.000000000000000000e+00,2.580757379531860352e+00,-5.455676078796386719e+00,4.485361576080322266e+00,-2.033432464599609375e+02,-9.480809783935546875e+01,-1.754577026367187500e+02,1.166222991943359375e+02,8.770228385925292969e+00,3.480780029296875000e+01,-1.537292938232421875e+02,6.622257232666015625e+01,1.191414108276367188e+02
4.880000054836273193e-01,1.000000000000000000e+00,2.516036033630371094e+00,-5.401412963867187500e+00,4.494805812835693359e+00,-2.032840728759765625e+02,-9.473423767089843750e+01,-1.753919372558593750e+02,1.166222991943359375e+02,8.770228385925292969e+00,3.480780029296875000e+01,-1.537292938232421875e+02,6.622257232666015625e+01,1.191414108276367188e+02
4.920000135898590088e-01,1.000000000000000000e+00,2.451316356658935547e+00,-5.347151279449462891e+00,4.504250049591064453e+00,-2.032248992919921875e+02,-9.466039276123046875e+01,-1.753261566162109375e+02,1.166222991943359375e+02,8.770228385925292969e+00,3.480780029296875000e+01,-1.537292938232421875e+02,6.622257232666015625e+01,1.191414108276367188e+02
4.959999918937683105e-01,1.000000000000000000e+00,2.386597871780395508e+00,-5.292890548706054688e+00,4.513694763183593750e+00,-2.031657257080078125e+02,-9.458654022216796875e+01,-1.752603912353515625e+02,1.166222991943359375e+02,8.770228385925292969e+00,3.480780029296875000e+01,-1.537292938232421875e+02,6.622257232666015625e+01,1.191414108276367188e+02
5.000000000000000000e-01,1.000000000000000000e+00,2.321880817413330078e+00,-5.238630771636962891e+00,4.523138523101806641e+00,-2.031065521240234375e+02,-9.451268768310546875e+01,-1.751946258544921875e+02,1.166222991943359375e+02,8.770228385925292969e+00,3.480780029296875000e+01,-1.537292938232421875e+02,6.622257232666015625e+01,1.191414108276367188e+02
5.040000081062316895e-01,1.000000000000000000e+00,2.257164955139160156e+00,-5.184372425079345703e+00,4.532582283020019531e+00,-2.030473937988281250e+02,-9.443884277343750000e+01,-1.751288452148437500e+02,1.166222991943359375e+02,8.770228385925292969e+00,3.480780029296875000e+01,-1.537292938232421875e+02,6.622257232666015625e+01,1.191414108276367188e+02
5.080000162124633789e-01,1.000000000000000000e+00,2.192450284957885742e+00,-5.130114555358886719e+00,4.542026519775390625e+00,-2.029882049560546875e+02,-9.436499023437500000e+01,-1.750630950927734375e+02,1.166222991943359375e+02,8.770228385925292969e+00,3.480780029296875000e+01,-1.537292938232421875e+02,6.622257232666015625e+01,1.191414108276367188e+02
5.120000243186950684e-01,1.000000000000000000e+00,2.127736806869506836e+00,-5.075858116149902344e+00,4.551469326019287109e+00,-2.029290466308593750e+02,-9.429114532470703125e+01,-1.749973297119140625e+02,1.166222991943359375e+02,8.770228385925292969e+00,3.480780029296875000e+01,-1.537292938232421875e+02,6.622257232666015625e+01,1.191414108276367188e+02
5.159999728202819824e-01,1.000000000000000000e+00,2.063024282455444336e+00,-5.021602630615234375e+00,4.560913085937500000e+00,-2.028698730468750000e+02,-9.421730041503906250e+01,-1.749315490722656250e+02,1.166222991943359375e+02,8.770228385925292969e+00,3.480780029296875000e+01,-1.537292938232421875e+02,6.622257232666015625e+01,1.191414108276367188e+02
5.199999809265136719e-01,1.000000000000000000e+00,1.998313188552856445e+00,-4.967347621917724609e+00,4.570356369018554688e+00,-2.028107147216796875e+02,-9.414345550537109375e+01,-1.748657989501953125e+02,1.166222991943359375e+02,8.770228385925292969e+00,3.480780029296875000e+01,-1.537292938232421875e+02,6.622257232666015625e+01,1.191414108276367188e+02
5.239999890327453613e-01,1.000000000000000000e+00,1.933603048324584961e+00,-4.913094520568847656e+00,4.579799175262451172e+00,-2.027515411376953125e+02,-9.406961822509765625e+01,-1.748000335693359375e+02,1.166222991943359375e+02,8.770228385925292969e+00,3.480780029296875000e+01,-1.537292938232421875e+02,6.622257232666015625e+01,1.191414108276367188e+02
5.279999971389770508e-01,1.000000000000000000e+00,1.868894100189208984e+00,-4.858841419219970703e+00,4.589241981506347656e+00,-2.026923828125000000e+02,-9.399577331542968750e+01,-1.747342681884765625e+02,1.166222991943359375e+02,8.770228385925292969e+00,3.480780029296875000e+01,-1.537292938232421875e+02,6.622257232666015625e+01,1.191414108276367188e+02
5.320000052452087402e-01,1.000000000000000000e+00,1.804185986518859863e+00,-4.804589271545410156e+00,4.598684787750244141e+00,-2.026332244873046875e+02,-9.392193603515625000e+01,-1.746685180664062500e+02,1.166222991943359375e+02,8.770228385925292969e+00,3.480780029296875000e+01,-1.537292938232421875e+02,6.622257232666015625e+01,1.191414108276367188e+02
5.360000133514404297e-01,1.000000000000000000e+00,1.739479184150695801e+00,-4.750338554382324219e+00,4.608127117156982422e+00,-2.025740509033203125e+02,-9.384809875488281250e+01,-1.746027679443359375e+02,1.166222991943359375e+02,8.770228385925292969e+00,3.480780029296875000e+01,-1.537292938232421875e+02,6.622257232666015625e+01,1.191414108276367188e+02
5.400000214576721191e-01,1.000000000000000000e+00,1.674773335456848145e+00,-4.696088314056396484e+00,4.617569923400878906e+00,-2.025148925781250000e+02,-9.377425384521484375e+01,-1.745370025634765625e+02,1.166222991943359375e+02,8.770228385925292969e+00,3.480780029296875000e+01,-1.537292938232421875e+02,6.622257232666015625e+01,1.191414108276367188e+02
5.440000295639038086e-01,1.000000000000000000e+00,1.610068559646606445e+00,-4.641839504241943359e+00,4.627012252807617188e+00,-2.024557342529296875e+02,-9.370042419433593750e+01,-1.744712524414062500e+02,1.166222991943359375e+02,8.770228385925292969e+00,3.480780029296875000e+01,-1.537292938232421875e+02,6.622257232666015625e+01,1.191414108276367188e+02
5.479999780654907227e-01,1.000000000000000000e+00,1.545364737510681152e+00,-4.587591171264648438e+00,4.636454105377197266e+00,-2.023965606689453125e+02,-9.362658691406250000e+01,-1.744055023193359375e+02,1.166222991943359375e+02,8.770228385925292969e+00,3.480780029296875000e+01,-1.537292938232421875e+02,6.622257232666015625e+01,1.191414108276367188e+02
5.519999861717224121e-01,1.000000000000000000e+00,1.480661988258361816e+00,-4.533343315124511719e+00,4.645895957946777344e+00,-2.023374023437500000e+02,-9.355275726318359375e+01,-1.743397521972656250e+02,1.166222991943359375e+02,8.770228385925292969e+00,3.480780029296875000e+01,-1.537292938232421875e+02,6.622257232666015625e+01,1.191414108276367188e+02
5.559999942779541016e-01,1.000000000000000000e+00,1.415960192680358887e+00,-4.479096889495849609e+00,4.655337810516357422e+00,-2.022782592773437500e+02,-9.347891998291015625e+01,-1.742739868164062500e+02,1.166222991943359375e+02,8.770228385925292969e+00,3.480780029296875000e+01,-1.537292938232421875e+02,6.622257232666015625e+01,1.191414108276367188e+02
5.600000023841857910e-01,1.000000000000000000e+00,1.351259469985961914e+00,-4.424850940704345703e+00,4.664779186248779297e+00,-2.022190856933593750e+02,-9.340509033203125000e+01,-1.742082366943359375e+02,1.166222991943359375e+02,8.770228385925292969e+00,3.480780029296875000e+01,-1.537292938232421875e+02,6.622257232666015625e+01,1.191414108276367188e+02
5.640000104904174805e-01,1.000000000000000000e+00,1.286559581756591797e+00,-4.370605945587158203e+00,4.674221038818359375e+00,-2.021599426269531250e+02,-9.333126068115234375e+01,-1.741424865722656250e+02,1.166222991943359375e+02,8.770228385925292969e+00,3.480780029296875000e+01,-1.537292938232421875e+02,6.622257232666015625e+01,1.191414108276367188e+02
5.680000185966491699e-01,1.000000000000000000e+00,1.221860766410827637e+00,-4.316361904144287109e+00,4.683662414550781250e+00,-2.021007843017578125e+02,-9.325743103027343750e+01,-1.740767364501953125e+02,1.166222991943359375e+02,8.770228385925292969e+00,3.480780029296875000e+01,-1.537292938232421875e+02,6.622257232666015625e+01,1.191414108276367188e+02
5.720000267028808594e-01,1.000000000000000000e+00,1.157162904739379883e+00,-4.262118339538574219e+00,4.693103790283203125e+00,-2.020416259765625000e+02,-9.318360137939453125e+01,-1.740109863281250000e+02,1.166222991943359375e+02,8.770228385925292969e+00,3.480780029296875000e+01,-1.537292938232421875e+02,6.622257232666015625e+01,1.191414108276367188e+02
5.759999752044677734e-01,1.000000000000000000e+00,1.092465877532958984e+00,-4.207876205444335938e+00,4.702544689178466797e+00,-2.019824829101562500e+02,-9.310977172851562500e+01,-1.739452362060546875e+02,1.166222991943359375e+02,8.770228385925292969e+00,3.480780029296875000e+01,-1.537292938232421875e+02,6.622257232666015625e+01,1.191414108276367188e+02
5.799999833106994629e-01,1.000000000000000000e+00,1.027769684791564941e+00,-4.153634071350097656e+00,4.711985588073730469e+00,-2.019233093261718750e+02,-9.303594970703125000e+01,-1.738794860839843750e+02,1.166222991943359375e+02,8.770228385925292969e+00,3.480780029296875000e+01,-1.537292938232421875e+02,6.622257232666015625e+01,1.191414108276367188e+02
5.839999914169311523e-01,1.000000000000000000e+00,9.630746245384216309e-01,-4.099392890930175781e+00,4.721426486968994141e+00,-2.018641662597656250e+02,-9.296212768554687500e+01,-1.738137512207031250e+02,1.166222991943359375e+02,8.770228385925292969e+00,3.480780029296875000e+01,-1.537292938232421875e+02,6.622257232666015625e+01,1.191414108276367188e+02
5.879999995231628418e-01,1.000000000000000000e+00,8.983803391456604004e-01,-4.045152664184570312e+00,4.730867385864257812e+00,-2.018050231933593750e+02,-9.288829803466796875e+01,-1.737480010986328125e+02,1.166222991943359375e+02,8.770228385925292969e+00,3.480780029296875000e+01,-1.537292938232421875e+02,6.622257232666015625e+01,1.191414108276367188e+02
5.920000076293945312e-01,1.000000000000000000e+00,8.336869478225708008e-01,-3.990913391113281250e+00,4.740307807922363281e+00,-2.017458648681640625e+02,-9.281447601318359375e+01,-1.736822662353515625e+02,1.166222991943359375e+02,8.770228385925292969e+00,3.480780029296875000e+01,-1.537292938232421875e+02,6.622257232666015625e+01,1.191414108276367188e+02
5.960000157356262207e-01,1.000000000000000000e+00,7.689943313598632812e-01,-3.936674356460571289e+00,4.749748229980468750e+00,-2.016867218017578125e+02,-9.274066162109375000e+01,-1.736165161132812500e+02,1.166222991943359375e+02,8.770228385925292969e+00,3.480780029296875000e+01,-1.537292938232421875e+02,6.622257232666015625e+01,1.191414108276367188e+02
6.000000238418579102e-01,1.000000000000000000e+00,7.043026685714721680e-01,-3.882436275482177734e+00,4.759188175201416016e+00,-2.016275634765625000e+02,-9.266683959960937500e+01,-1.735507812500000000e+02,1.166222991943359375e+02,8.770228385925292969e+00,3.480780029296875000e+01,-1.537292938232421875e+02,6.622257232666015625e+01,1.191414108276367188e+02
6.039999723434448242e-01,1.000000000000000000e+00,6.396117210388183594e-01,-3.828198671340942383e+00,4.768628597259521484e+00,-2.015684204101562500e+02,-9.259301757812500000e+01,-1.734850311279296875e+02,1.166222991943359375e+02,8.770228385925292969e+00,3.480780029296875000e+01,-1.537292938232421875e+02,6.622257232666015625e+01,1.191414108276367188e+02
6.079999804496765137e-01,1.000000000000000000e+00,5.749216079711914062e-01,-3.773962259292602539e+00,4.778068542480468750e+00,-2.015092773437500000e+02,-9.251919555664062500e+01,-1.734192962646484375e+02,1.166222991943359375e+02,8.770228385925292969e+00,3.480780029296875000e+01,-1.537292938232421875e+02,6.622257232666015625e+01,1.191414108276367188e+02
6.119999885559082031e-01,1.000000000000000000e+00,5.102323889732360840e-01,-3.719725847244262695e+00,4.787508964538574219e+00,-2.014501342773437500e+02,-9.244537353515625000e+01,-1.733535461425781250e+02,1.166222991943359375e+02,8.770228385925292969e+00,3.480780029296875000e+01,-1.537292938232421875e+02,6.622257232666015625e+01,1.191414108276367188e+02
6.159999966621398926e-01,1.000000000000000000e+00,4.455439150333404541e-01,-3.665490627288818359e+00,4.796948432922363281e+00,-2.013909912109375000e+02,-9.237155914306640625e+01,-1.732878112792968750e+02,1.166222991943359375e+02,8.770228385925292969e+00,3.480780029296875000e+01,-1.537292938232421875e+02,6.622257232666015625e+01,1.191414108276367188e+02
6.200000047683715820e-01,1.000000000000000000e+00,3.808562159538269043e-01,-3.611255884170532227e+00,4.806388378143310547e+00,-2.013318328857421875e+02,-9.229773712158203125e+01,-1.732220764160156250e+02,1.166222991943359375e+02,8.770228385925292969e+00,3.480780029296875000e+01,-1.537292938232421875e+02,6.622257232666015625e+01,1.191414108276367188e+02
6.240000128746032715e-01,1.000000000000000000e+00,3.161692321300506592e-01,-3.557021856307983398e+00,4.815827846527099609e+00,-2.012726898193359375e+02,-9.222393035888671875e+01,-1.731563415527343750e+02,1.166222991943359375e+02,8.770228385925292969e+00,3.480780029296875000e+01,-1.537292938232421875e+02,6.622257232666015625e+01,1.191414108276367188e+02
6.280000209808349609e-01,1.000000000000000000e+00,2.514830231666564941e-01,-3.502788305282592773e+00,4.825267314910888672e+00,-2.012135467529296875e+02,-9.215011596679687500e+01,-1.730906066894531250e+02,1.166222991943359375e+02,8.770228385925292969e+00,3.480780029296875000e+01,-1.537292938232421875e+02,6.622257232666015625e+01,1.191414108276367188e+02
6.320000290870666504e-01,1.000000000000000000e+00,1.867975592613220215e-01,-3.448555469512939453e+00,4.834706783294677734e+00,-2.011544036865234375e+02,-9.207630157470703125e+01,-1.730248718261718750e+02,1.166222991943359375e+02,8.770228385925292969e+00,3.480780029296875000e+01,-1.537292938232421875e+02,6.622257232666015625e+01,1.191414108276367188e+02
6.359999775886535645e-01,1.000000000000000000e+00,1.221128031611442566e-01,-3.394323348999023438e+00,4.844146251678466797e+00,-2.010952606201171875e+02,-9.200248718261718750e+01,-1.729591369628906250e+02,1.166222991943359375e+02,8.770228385925292969e+00,3.480780029296875000e+01,-1.537292938232421875e+02,6.622257232666015625e+01,1.191414108276367188e+02
6.399999856948852539e-01,1.000000000000000000e+00,5.742876976728439331e-02,-3.340091705322265625e+00,4.853585243225097656e+00,-2.010361175537109375e+02,-9.192867279052734375e+01,-1.728934020996093750e+02,1.166222991943359375e+02,8.770228385925292969e+00,3.480780029296875000e+01,-1.537292938232421875e+02,6.622257232666015625e+01,1.191414108276367188e+02
6.439999938011169434e-01,1.000000000000000000e+00,-7.254587486386299133e-03,-3.285860776901245117e+00,4.863024234771728516e+00,-2.009769744873046875e+02,-9.185486602783203125e+01,-1.728276672363281250e+02,1.166222991943359375e+02,8.770228385925292969e+00,3.480780029296875000e+01,-1.537292938232421875e+02,6.622257232666015625e+01,1.191414108276367188e+02
6.480000019073486328e-01,1.000000000000000000e+00,-7.193727046251296997e-02,-3.231630086898803711e+00,4.872463226318359375e+00,-2.009178466796875000e+02,-9.178105163574218750e+01,-1.727619323730468750e+02,1.166222991943359375e+02,8.770228385925292969e+00,3.480780029296875000e+01,-1.537292938232421875e+02,6.622257232666015625e+01,1.191414108276367188e+02
6.520000100135803223e-01,1.000000000000000000e+00,-1.366192996501922607e-01,-3.177400350570678711e+00,4.881902217864990234e+00,-2.008586883544921875e+02,-9.170724487304687500e+01,-1.726961975097656250e+02,1.166222991943359375e+02,8.770228385925292969e+00,3.480780029296875000e+01,-1.537292938232421875e+02,6.622257232666015625e+01,1.191414108276367188e+02
6.560000181198120117e-01,1.000000000000000000e+00,-2.013006657361984253e-01,-3.123171091079711914e+00,4.891341209411621094e+00,-2.007995605468750000e+02,-9.163343811035156250e+01,-1.726304626464843750e+02,1.166222991943359375e+02,8.770228385925292969e+00,3.480780029296875000e+01,-1.537292938232421875e+02,6.622257232666015625e+01,1.191414108276367188e+02
6.600000262260437012e-01,1.000000000000000000e+00,-2.659813761711120605e-01,-3.068942308425903320e+00,4.900779724121093750e+00,-2.007404174804687500e+02,-9.155962371826171875e+01,-1.725647277832031250e+02,1.166222991943359375e+02,8.770228385925292969e+00,3.480780029296875000e+01,-1.537292938232421875e+02,6.622257232666015625e+01,1.191414108276367188e+02
6.639999747276306152e-01,1.000000000000000000e+00,-3.306615352630615234e-01,-3.014714002609252930e+00,4.910218238830566406e+00,-2.006812896728515625e+02,-9.148581695556640625e+01,-1.724989929199218750e+02,1.166222991943359375e+02,8.770228385925292969e+00,3.480780029296875000e+01,-1.537292938232421875e+02,6.622257232666015625e+01,1.191414108276367188e+02
6.679999828338623047e-01,1.000000000000000000e+00,-3.953410089015960693e-01,-2.960486412048339844e+00,4.919656753540039062e+00,-2.006221466064453125e+02,-9.141201019287109375e+01,-1.724332733154296875e+02,1.166222991943359375e+02,8.770228385925292969e+00,3.480780029296875000e+01,-1.537292938232421875e+02,6.622257232666015625e+01,1.191414108276367188e+02
6.719999909400939941e-01,1.000000000000000000e+00,-4.600199162960052490e-01,-2.906259059906005859e+00,4.929095268249511719e+00,-2.005630187988281250e+02,-9.133820343017578125e+01,-1.723675384521484375e+02,1.166222991943359375e+02,8.770228385925292969e+00,3.480780029296875000e+01,-1.537292938232421875e+02,6.622257232666015625e+01,1.191414108276367188e+02
6.759999990463256836e-01,1.000000000000000000e+00,-5.246982574462890625e-01,-2.852032423019409180e+00,4.938533782958984375e+00,-2.005038757324218750e+02,-9.126440429687500000e+01,-1.723018035888671875e+02,1.166222991943359375e+02,8.770228385925292969e+00,3.480780029296875000e+01,-1.537292938232421875e+02,6.622257232666015625e+01,1.191414108276367188e+02
6.800000071525573730e-01,1.000000000000000000e+00,-5.893760919570922852e-01,-2.797806024551391602e+00,4.947971820831298828e+00,-2.004447479248046875e+02,-9.119059753417968750e+01,-1.722360839843750000e+02,1.166222991943359375e+02,8.770228385925292969e+00,3.480780029296875000e+01,-1.537292938232421875e+02,6.622257232666015625e+01,1.191414108276367188e+02
6.840000152587890625e-01,1.000000000000000000e+00,-6.540532708168029785e-01,-2.743580341339111328e+00,4.957409858703613281e+00,-2.003856048583984375e+02,-9.111679077148437500e+01,-1.721703491210937500e+02,1.166222991943359375e+02,8.770228385925292969e+00,3.480780029296875000e+01,-1.537292938232421875e+02,6.622257232666015625e+01,1.191414108276367188e+02
6.880000233650207520e-01,1.000000000000000000e+00,-7.187299132347106934e-01,-2.689354896545410156e+00,4.966847896575927734e+00,-2.003264770507812500e+02,-9.104298400878906250e+01,-1.721046295166015625e+02,1.166222991943359375e+02,8.770228385925292969e+00,3.480780029296875000e+01,-1.537292938232421875e+02,6.622257232666015625e+01,1.191414108276367188e+02
6.919999718666076660e-01,1.000000000000000000e+00,-7.834060788154602051e-01,-2.635130167007446289e+00,4.976285934448242188e+00,-2.002673339843750000e+02,-9.096917724609375000e+01,-1.720389099121093750e+02,1.166222991943359375e+02,8.770228385925292969e+00,3.480780029296875000e+01,-1.537292938232421875e+02,6.622257232666015625e+01,1.191414108276367188e+02
6.959999799728393555e-01,1.000000000000000000e+00,-8.480817675590515137e-01,-2.580905675888061523e+00,4.985723972320556641e+00,-2.002082061767578125e+02,-9.089537811279296875e+01,-1.719731750488281250e+02,1.166222991943359375e+02,8.770228385925292969e+00,3.480780029296875000e+01,-1.537292938232421875e+02,6.622257232666015625e+01,1.191414108276367188e+02
6.999999880790710449e-01,1.000000000000000000e+00,-9.127569198608398438e-01,-2.526681661605834961e+00,4.995162010192871094e+00,-2.001490631103515625e+02,-9.082157897949218750e+01,-1.719074554443359375e+02,1.166222991943359375e+02,8.770228385925292969e+00,3.480780029296875000e+01,-1.537292938232421875e+02,6.622257232666015625e+01,1.191414108276367188e+02
7.039999961853027344e-01,1.000000000000000000e+00,-9.774315357208251953e-01,-2.472458124160766602e+00,5.004599571228027344e+00,-2.000899353027343750e+02,-9.074777984619140625e+01,-1.718417358398437500e+02,1.166222991943359375e+02,8.770228385925292969e+00,3.480780029296875000e+01,-1.537292938232421875e+02,6.622257232666015625e+01,1.191414108276367188e+02
7.080000042915344238e-01,1.000000000000000000e+00,-1.042105793952941895e+00,-2.418234825134277344e+00,5.014037132263183594e+00,-2.000308074951171875e+02,-9.067398071289062500e+01,-1.717760009765625000e+02,1.166222991943359375e+02,8.770228385925292969e+00,3.480780029296875000e+01,-1.537292938232421875e+02,6.622257232666015625e+01,1.191414108276367188e+02
7.120000123977661133e-01,1.000000000000000000e+00,-1.106779456138610840e+00,-2.364012002944946289e+00,5.023474693298339844e+00,-1.999716644287109375e+02,-9.060018157958984375e+01,-1.717102813720703125e+02,1.166222991943359375e+02,8.770228385925292969e+00,3.480780029296875000e+01,-1.537292938232421875e+02,6.622257232666015625e+01,1.191414108276367188e+02
7.160000205039978027e-01,1.000000000000000000e+00,-1.171452760696411133e+00,-2.309789657592773438e+00,5.032912254333496094e+00,-1.999125366210937500e+02,-9.052638244628906250e+01,-1.716445617675781250e+02,1.166222991943359375e+02,8.770228385925292969e+00,3.480780029296875000e+01,-1.537292938232421875e+02,6.622257232666015625e+01,1.191414108276367188e+02
7.200000286102294922e-01,1.000000000000000000e+00,-1.236125707626342773e+00,-2.255567550659179688e+00,5.042350292205810547e+00,-1.998533935546875000e+02,-9.045257568359375000e+01,-1.715788421630859375e+02,1.166222991943359375e+02,8.770228385925292969e+00,3.480780029296875000e+01,-1.537292938232421875e+02,6.622257232666015625e+01,1.191414108276367188e+02
7.239999771118164062e-01,1.000000000000000000e+00,-1.300798177719116211e+00,-2.201345682144165039e+00,5.051787853240966797e+00,-1.997942810058593750e+02,-9.037877655029296875e+01,-1.715131072998046875e+02,1.166222991943359375e+02,8.770228385925292969e+00,3.480780029296875000e+01,-1.537292938232421875e+02,6.622257232666015625e+01,1.191414108276367188e+02
7.279999852180480957e-01,1.000000000000000000e+00,-1.365470170974731445e+00,-2.147124528884887695e+00,5.061224937438964844e+00,-1.997351379394531250e+02,-9.030497741699218750e+01,-1.714473876953125000e+02,1.166222991943359375e+02,8.770228385925292969e+00,3.480780029296875000e+01,-1.537292938232421875e+02,6.622257232666015625e+01,1.191414108276367188e+02
7.319999933242797852e-01,1.000000000000000000e+00,-1.430141925811767578e+00,-2.092903375625610352e+00,5.070662498474121094e+00,-1.996760253906250000e+02,-9.023118591308593750e+01,-1.713816680908203125e+02,1.166222991943359375e+02,8.770228385925292969e+00,3.480780029296875000e+01,-1.537292938232421875e+02,6.622257232666015625e+01,1.191414108276367188e+02
7.360000014305114746e-01,1.000000000000000000e+00,-1.494813323020935059e+00,-2.038682460784912109e+00,5.080099582672119141e+00,-1.996168823242187500e+02,-9.015738677978515625e+01,-1.713159484863281250e+02,1.166222991943359375e+02,8.770228385925292969e+00,3.480780029296875000e+01,-1.537292938232421875e+02,6.622257232666015625e+01,1.191414108276367188e+02
7.400000095367431641e-01,1.000000000000000000e+00,-1.559484362602233887e+00,-1.984462141990661621e+00,5.089536666870117188e+00,-1.995577545166015625e+02,-9.008358764648437500e+01,-1.712502288818359375e+02,1.166222991943359375e+02,8.770228385925292969e+00,3.480780029296875000e+01,-1.537292938232421875e+02,6.622257232666015625e+01,1.191414108276367188e+02
7.440000176429748535e-01,1.000000000000000000e+00,-1.624155163764953613e+00,-1.930242061614990234e+00,5.098974227905273438e+00,-1.994986267089843750e+02,-9.000978851318359375e+01,-1.711845092773437500e+02,1.166222991943359375e+02,8.770228385925292969e+00,3.480780029296875000e+01,-1.537292938232421875e+02,6.622257232666015625e+01,1.191414108276367188e+02
7.480000257492065430e-01,1.000000000000000000e+00,-1.688825607299804688e+00,-1.876022219657897949e+00,5.108411312103271484e+00,-1.994394836425781250e+02,-8.993599700927734375e+01,-1.711187896728515625e+02,1.166222991943359375e+02,8.770228385925292969e+00,3.480780029296875000e+01,-1.537292938232421875e+02,6.622257232666015625e+01,1.191414108276367188e+02
7.519999742507934570e-01,1.000000000000000000e+00,-1.753495931625366211e+00,-1.821802735328674316e+00,5.117848396301269531e+00,-1.993803710937500000e+02,-8.986219787597656250e+01,-1.710530700683593750e+02,1.166222991943359375e+02,8.770228385925292969e+00,3.480780029296875000e+01,-1.537292938232421875e+02,6.622257232666015625e+01,1.191414108276367188e+02
7.559999823570251465e-01,1.000000000000000000e+00,-1.818165659904479980e+00,-1.767583131790161133e+00,5.127285003662109375e+00,-1.993212432861328125e+02,-8.978840637207031250e+01,-1.709873504638671875e+02,1.166222991943359375e+02,8.770228385925292969e+00,3.480780029296875000e+01,-1.537292938232421875e+02,6.622257232666015625e+01,1.191414108276367188e+02
7.599999904632568359e-01,1.000000000000000000e+00,-1.882834672927856445e+00,-1.713363528251647949e+00,5.136722087860107422e+00,-1.992621154785156250e+02,-8.971460723876953125e+01,-1.709216308593750000e+02,1.166222991943359375e+02,8.770228385925292969e+00,3.480780029296875000e+01,-1.537292938232421875e+02,6.622257232666015625e+01,1.191414108276367188e+02
7.639999985694885254e-01,1.000000000000000000e+00,-1.947502970695495605e+00,-1.659143567085266113e+00,5.146158695220947266e+00,-1.992029876708984375e+02,-8.964081573486328125e+01,-1.708559112548828125e+02,1.166222991943359375e+02,8.770228385925292969e+00,3.480780029296875000e+01,-1.537292938232421875e+02,6.622257232666015625e+01,1.191414108276367188e+02
7.680000066757202148e-01,1.000000000000000000e+00,-2.012170791625976562e+00,-1.604923725128173828e+00,5.155594825744628906e+00,-1.991438598632812500e+02,-8.956702423095703125e+01,-1.707901916503906250e+02,1.166222991943359375e+02,8.770228385925292969e+00,3.480780029296875000e+01,-1.537292938232421875e+02,6.622257232666015625e+01,1.191414108276367188e+02
7.720000147819519043e-01,1.000000000000000000e+00,-2.076838493347167969e+00,-1.550704240798950195e+00,5.165031433105468750e+00,-1.990847320556640625e+02,-8.949322509765625000e+01,-1.707244720458984375e+02,1.166222991943359375e+02,8.770228385925292969e+00,3.480780029296875000e+01,-1.537292938232421875e+02,6.622257232666015625e+01,1.191414108276367188e+02
7.760000228881835938e-01,1.000000000000000000e+00,-2.141506910324096680e+00,-1.496485948562622070e+00,5.174468040466308594e+00,-1.990256042480468750e+02,-8.941943359375000000e+01,-1.706587524414062500e+02,1.166222991943359375e+02,8.770228385925292969e+00,3.480780029296875000e+01,-1.537292938232421875e+02,6.622257232666015625e+01,1.191414108276367188e+02
7.799999713897705078e-01,1.000000000000000000e+00,-2.206175565719604492e+00,-1.442268252372741699e+00,5.183905124664306641e+00,-1.989664764404296875e+02,-8.934563446044921875e+01,-1.705930328369140625e+02,1.166222991943359375e+02,8.770228385925292969e+00,3.480780029296875000e+01,-1.537292938232421875e+02,6.622257232666015625e+01,1.191414108276367188e+02
7.839999794960021973e-01,1.000000000000000000e+00,-2.270844221115112305e+00,-1.388050913810729980e+00,5.193342208862304688e+00,-1.989073486328125000e+02,-8.927184295654296875e+01,-1.705273284912109375e+02,1.166222991943359375e+02,8.770228385925292969e+00,3.480780029296875000e+01,-1.537292938232421875e+02,6.622257232666015625e+01,1.191414108276367188e+02
7.879999876022338867e-01,1.000000000000000000e+00,-2.335512876510620117e+00,-1.333833575248718262e+00,5.202779293060302734e+00,-1.988482360839843750e+02,-8.919805145263671875e+01,-1.704616088867187500e+02,1.166222991943359375e+02,8.770228385925292969e+00,3.480780029296875000e+01,-1.537292938232421875e+02,6.622257232666015625e+01,1.191414108276367188e+02
7.919999957084655762e-01,1.000000000000000000e+00,-2.400181531906127930e+00,-1.279616236686706543e+00,5.212216377258300781e+00,-1.987890930175781250e+02,-8.912425994873046875e+01,-1.703958892822265625e+02,1.166222991943359375e+02,8.770228385925292969e+00,3.480780029296875000e+01,-1.537292938232421875e+02,6.622257232666015625e+01,1.191414108276367188e+02
7.960000038146972656e-01,1.000000000000000000e+00,-2.464850425720214844e+00,-1.225398659706115723e+00,5.221652984619140625e+00,-1.987299652099609375e+02,-8.905046081542968750e+01,-1.703301696777343750e+02,1.166222991943359375e+02,8.770228385925292969e+00,3.480780029296875000e+01,-1.537292938232421875e+02,6.622257232666015625e+01,1.191414108276367188e+02
8.000000119209289551e-01,1.000000000000000000e+00,-2.529518604278564453e+00,-1.171180844306945801e+00,5.231090545654296875e+00,-1.986708526611328125e+02,-8.897666931152343750e+01,-1.702644500732421875e+02,1.166222991943359375e+02,8.770228385925292969e+00,3.480780029296875000e+01,-1.537292938232421875e+02,6.622257232666015625e+01,1.191414108276367188e+02
8.040000200271606445e-01,1.000000000000000000e+00,-2.594186544418334961e+00,-1.116962909698486328e+00,5.240527153015136719e+00,-1.986117095947265625e+02,-8.890288543701171875e+01,-1.701987457275390625e+02,1.166222991943359375e+02,8.770228385925292969e+00,3.480780029296875000e+01,-1.537292938232421875e+02,6.622257232666015625e+01,1.191414108276367188e+02
8.080000281333923340e-01,1.000000000000000000e+00,-2.658854246139526367e+00,-1.062744855880737305e+00,5.249963760375976562e+00,-1.985525970458984375e+02,-8.882909393310546875e+01,-1.701330261230468750e+02,1.166222991943359375e+02,8.770228385925292969e+00,3.480780029296875000e+01,-1.537292938232421875e+02,6.622257232666015625e+01,1.191414108276367188e+02
8.119999766349792480e-01,1.000000000000000000e+00,-2.723522186279296875e+00,-1.008526802062988281e+00,5.259400844573974609e+00,-1.984934692382812500e+02,-8.875529479980468750e+01,-1.700673065185546875e+02,1.166222991943359375e+02,8.770228385925292969e+00,3.480780029296875000e+01,-1.537292938232421875e+02,6.622257232666015625e+01,1.191414108276367188e+02
8.159999847412109375e-01,1.000000000000000000e+00,-2.788189888000488281e+00,-9.543088078498840332e-01,5.268837928771972656e+00,-1.984343261718750000e+02,-8.868150329589843750e+01,-1.700015869140625000e+02,1.166222991943359375e+02,8.770228385925292969e+00,3.480780029296875000e+01,-1.537292938232421875e+02,6.622257232666015625e+01,1.191414108276367188e+02
8.199999928474426270e-01,1.000000000000000000e+00,-2.852858066558837891e+00,-9.000906348228454590e-01,5.278274536132812500e+00,-1.983752136230468750e+02,-8.860771179199218750e+01,-1.699358673095703125e+02,1.166222991943359375e+02,8.770228385925292969e+00,3.480780029296875000e+01,-1.537292938232421875e+02,6.622257232666015625e+01,1.191414108276367188e+02
8.240000009536743164e-01,1.000000000000000000e+00,-2.917526006698608398e+00,-8.458724021911621094e-01,5.287711620330810547e+00,-1.983160858154296875e+02,-8.853392028808593750e+01,-1.698701477050781250e+02,1.166222991943359375e+02,8.770228385925292969e+00,3.480780029296875000e+01,-1.537292938232421875e+02,6.622257232666015625e+01,1.191414108276367188e+02
8.280000090599060059e-01,1.000000000000000000e+00,-2.982193946838378906e+00,-7.916541099548339844e-01,5.297148704528808594e+00,-1.982569580078125000e+02,-8.846012115478515625e+01,-1.698044281005859375e+02,1.166222991943359375e+02,8.770228385925292969e+00,3.480780029296875000e+01,-1.537292938232421875e+02,6.622257232666015625e+01,1.191414108276367188e+02
8.320000171661376953e-01,1.000000000000000000e+00,-3.046861886978149414e+00,-7.374358177185058594e-01,5.306585311889648438e+00,-1.981978302001953125e+02,-8.838632965087890625e+01,-1.697387084960937500e+02,1.166222991943359375e+02,8.770228385925292969e+00,3.480780029296875000e+01,-1.537292938232421875e+02,6.622257232666015625e+01,1.191414108276367188e+02
8.360000252723693848e-01,1.000000000000000000e+00,-3.111529827117919922e+00,-6.832174062728881836e-01,5.316022396087646484e+00,-1.981387023925781250e+02,-8.831253051757812500e+01,-1.696729888916015625e+02,1.166222991943359375e+02,8.770228385925292969e+00,3.480780029296875000e+01,-1.537292938232421875e+02,6.622257232666015625e+01,1.191414108276367188e+02
8.399999737739562988e-01,1.000000000000000000e+00,-3.176197767257690430e+00,-6.289989352226257324e-01,5.325459480285644531e+00,-1.980795745849609375e+02,-8.823873901367187500e+01,-1.696072692871093750e+02,1.166222991943359375e+02,8.770228385925292969e+00,3.480780029296875000e+01,-1.537292938232421875e+02,6.622257232666015625e+01,1.191414108276367188e+02
8.439999818801879883e-01,1.000000000000000000e+00,-3.240865707397460938e+00,-5.747804641723632812e-01,5.334896564483642578e+00,-1.980204467773437500e+02,-8.816493988037109375e+01,-1.695415496826171875e+02,1.166222991943359375e+02,8.770228385925292969e+00,3.480780029296875000e+01,-1.537292938232421875e+02,6.622257232666015625e+01,1.191414108276367188e+02
8.479999899864196777e-01,1.000000000000000000e+00,-3.305533409118652344e+00,-5.205618739128112793e-01,5.344333648681640625e+00,-1.979613189697265625e+02,-8.809114837646484375e+01,-1.694758300781250000e+02,1.166222991943359375e+02,8.770228385925292969e+00,3.480780029296875000e+01,-1.537292938232421875e+02,6.622257232666015625e+01,1.191414108276367188e+02
8.519999980926513672e-01,1.000000000000000000e+00,-3.370201587677001953e+00,-4.663431644439697266e-01,5.353770732879638672e+00,-1.979021911621093750e+02,-8.801734924316406250e+01,-1.694101104736328125e+02,1.166222991943359375e+02,8.770228385925292969e+00,3.480780029296875000e+01,-1.537292938232421875e+02,6.622257232666015625e+01,1.191414108276367188e+02
8.560000061988830566e-01,1.000000000000000000e+00,-3.434869766235351562e+00,-4.121243059635162354e-01,5.363207817077636719e+00,-1.978430633544921875e+02,-8.794355773925781250e+01,-1.693443908691406250e+02,1.166222991943359375e+02,8.770228385925292969e+00,3.480780029296875000e+01,-1.537292938232421875e+02,6.622257232666015625e+01,1.191414108276367188e+02
8.600000143051147461e-01,1.000000000000000000e+00,-3.499538183212280273e+00,-3.579052984714508057e-01,5.372645378112792969e+00,-1.977839355468750000e+02,-8.786976623535156250e+01,-1.692786712646484375e+02,1.166222991943359375e+02,8.770228385925292969e+00,3.480780029296875000e+01,-1.537292938232421875e+02,6.622257232666015625e+01,1.191414108276367188e+02
8.640000224113464355e-01,1.000000000000000000e+00,-3.564206600189208984e+00,-3.036862313747406006e-01,5.382082462310791016e+00,-1.977248077392578125e+02,-8.779595947265625000e+01,-1.692129516601562500e+02,1.166222991943359375e+02,8.770228385925292969e+00,3.480780029296875000e+01,-1.537292938232421875e+02,6.622257232666015625e+01,1.191414108276367188e+02
8.679999709129333496e-01,1.000000000000000000e+00,-3.628875255584716797e+00,-2.494670301675796509e-01,5.391519546508789062e+00,-1.976656799316406250e+02,-8.772216796875000000e+01,-1.691472320556640625e+02,1.166222991943359375e+02,8.770228385925292969e+00,3.480780029296875000e+01,-1.537292938232421875e+02,6.622257232666015625e+01,1.191414108276367188e+02
8.719999790191650391e-01,1.000000000000000000e+00,-3.693543910980224609e+00,-1.952477693557739258e-01,5.400956630706787109e+00,-1.976065521240234375e+02,-8.764837646484375000e+01,-1.690815124511718750e+02,1.166222991943359375e+02,8.770228385925292969e+00,3.480780029296875000e+01,-1.537292938232421875e+02,6.622257232666015625e+01,1.191414108276367188e+02
8.759999871253967285e-01,1.000000000000000000e+00,-3.758212566375732422e+00,-1.410284638404846191e-01,5.410394191741943359e+00,-1.975474243164062500e+02,-8.757457733154296875e+01,-1.690157928466796875e+02,1.166222991943359375e+02,8.770228385925292969e+00,3.480780029296875000e+01,-1.537292938232421875e+02,6.622257232666015625e+01,1.191414108276367188e+02
8.799999952316284180e-01,1.000000000000000000e+00,-3.822881221771240234e+00,-8.680913597345352173e-02,5.419831275939941406e+00,-1.974882965087890625e+02,-8.750078582763671875e+01,-1.689500732421875000e+02,1.166222991943359375e+02,8.770228385925292969e+00,3.480780029296875000e+01,-1.537292938232421875e+02,6.622257232666015625e+01,1.191414108276367188e+02
8.840000033378601074e-01,1.000000000000000000e+00,-3.887549877166748047e+00,-3.258979693055152893e-02,5.429268360137939453e+00,-1.974291687011718750e+02,-8.742697906494140625e+01,-1.688843536376953125e+02,1.166222991943359375e+02,8.770228385925292969e+00,3.480780029296875000e+01,-1.537292938232421875e+02,6.622257232666015625e+01,1.191414108276367188e+02
8.880000114440917969e-01,1.000000000000000000e+00,-3.952218532562255859e+00,2.162953093647956848e-02,5.438705444335937500e+00,-1.973700408935546875e+02,-8.735318756103515625e+01,-1.688186340332031250e+02,1.166222991943359375e+02,8.770228385925292969e+00,3.480780029296875000e+01,-1.537292938232421875e+02,6.622257232666015625e+01,1.191414108276367188e+02
8.920000195503234863e-01,1.000000000000000000e+00,-4.016887187957763672e+00,7.584882527589797974e-02,5.448142528533935547e+00,-1.973108978271484375e+02,-8.727939605712890625e+01,-1.687529144287109375e+02,1.166222991943359375e+02,8.770228385925292969e+00,3.480780029296875000e+01,-1.537292938232421875e+02,6.622257232666015625e+01,1.191414108276367188e+02
8.960000276565551758e-01,1.000000000000000000e+00,-4.081555843353271484e+00,1.300680637359619141e-01,5.457580089569091797e+00,-1.972517852783203125e+02,-8.720559692382812500e+01,-1.686871948242187500e+02,1.166222991943359375e+02,8.770228385925292969e+00,3.480780029296875000e+01,-1.537292938232421875e+02,6.622257232666015625e+01,1.191414108276367188e+02
8.999999761581420898e-01,1.000000000000000000e+00,-4.146224498748779297e+00,1.842872500419616699e-01,5.467017650604248047e+00,-1.971926422119140625e+02,-8.713180541992187500e+01,-1.686214752197265625e+02,1.166222991943359375e+02,8.770228385925292969e+00,3.480780029296875000e+01,-1.537292938232421875e+02,6.622257232666015625e+01,1.191414108276367188e+02
9.039999842643737793e-01,1.000000000000000000e+00,-4.210892677307128906e+00,2.385063171386718750e-01,5.476454734802246094e+00,-1.971335296630859375e+02,-8.705799865722656250e+01,-1.685557556152343750e+02,1.166222991943359375e+02,8.770228385925292969e+00,3.480780029296875000e+01,-1.537292938232421875e+02,6.622257232666015625e+01,1.191414108276367188e+02
9.079999923706054688e-01,1.000000000000000000e+00,-4.275560855865478516e+00,2.927252948284149170e-01,5.485891819000244141e+00,-1.970743865966796875e+02,-8.698420715332031250e+01,-1.684900360107421875e+02,1.166222991943359375e+02,8.770228385925292969e+00,3.480780029296875000e+01,-1.537292938232421875e+02,6.622257232666015625e+01,1.191414108276367188e+02
9.120000004768371582e-01,1.000000000000000000e+00,-4.340229034423828125e+00,3.469441235065460205e-01,5.495328426361083984e+00,-1.970152587890625000e+02,-8.691041564941406250e+01,-1.684243164062500000e+02,1.166222991943359375e+02,8.770228385925292969e+00,3.480780029296875000e+01,-1.537292938232421875e+02,6.622257232666015625e+01,1.191414108276367188e+02
9.160000085830688477e-01,1.000000000000000000e+00,-4.404897689819335938e+00,4.011627733707427979e-01,5.504765987396240234e+00,-1.969561309814453125e+02,-8.683662414550781250e+01,-1.683585968017578125e+02,1.166222991943359375e+02,8.770228385925292969e+00,3.480780029296875000e+01,-1.537292938232421875e+02,6.622257232666015625e+01,1.191414108276367188e+02
9.200000166893005371e-01,1.000000000000000000e+00,-4.469565391540527344e+00,4.553813040256500244e-01,5.514203071594238281e+00,-1.968970031738281250e+02,-8.676282501220703125e+01,-1.682928924560546875e+02,1.166222991943359375e+02,8.770228385925292969e+00,3.480780029296875000e+01,-1.537292938232421875e+02,6.622257232666015625e+01,1.191414108276367188e+02
9.240000247955322266e-01,1.000000000000000000e+00,-4.534232616424560547e+00,5.095996260643005371e-01,5.523640155792236328e+00,-1.968378753662109375e+02,-8.668902587890625000e+01,-1.682271575927734375e+02,1.166222991943359375e+02,8.770228385925292969e+00,3.480780029296875000e+01,-1.537292938232421875e+02,6.622257232666015625e+01,1.191414108276367188e+02
9.279999732971191406e-01,1.000000000000000000e+00,-4.598899841308593750e+00,5.638177394866943359e-01,5.533077239990234375e+00,-1.967787475585937500e+02,-8.661523437500000000e+01,-1.681614379882812500e+02,1.166222991943359375e+02,8.770228385925292969e+00,3.480780029296875000e+01,-1.537292938232421875e+02,6.622257232666015625e+01,1.191414108276367188e+02
9.319999814033508301e-01,1.000000000000000000e+00,-4.663567066192626953e+00,6.180355548858642578e-01,5.542514324188232422e+00,-1.967196197509765625e+02,-8.654144287109375000e+01,-1.680957183837890625e+02,1.166222991943359375e+02,8.770228385925292969e+00,3.480780029296875000e+01,-1.537292938232421875e+02,6.622257232666015625e+01,1.191414108276367188e+02
9.359999895095825195e-01,1.000000000000000000e+00,-4.728233337402343750e+00,6.722531318664550781e-01,5.551951408386230469e+00,-1.966604919433593750e+02,-8.646765136718750000e+01,-1.680299987792968750e+02,1.166222991943359375e+02,8.770228385925292969e+00,3.480780029296875000e+01,-1.537292938232421875e+02,6.622257232666015625e+01,1.191414108276367188e+02
9.399999976158142090e-01,1.000000000000000000e+00,-4.792900085449218750e+00,7.264705300331115723e-01,5.561388015747070312e+00,-1.966013641357421875e+02,-8.639385223388671875e+01,-1.679642791748046875e+02,1.166222991943359375e+02,8.770228385925292969e+00,3.480780029296875000e+01,-1.537292938232421875e+02,6.622257232666015625e+01,1.191414108276367188e+02
9.440000057220458984e-01,1.000000000000000000e+00,-4.857565879821777344e+00,7.806875109672546387e-01,5.570825099945068359e+00,-1.965422515869140625e+02,-8.632006072998046875e+01,-1.678985595703125000e+02,1.166222991943359375e+02,8.770228385925292969e+00,3.480780029296875000e+01,-1.537292938232421875e+02,6.622257232666015625e+01,1.191414108276367188e+02
9.480000138282775879e-01,1.000000000000000000e+00,-4.922231197357177734e+00,8.349042534828186035e-01,5.580261707305908203e+00,-1.964831085205078125e+02,-8.624626922607421875e+01,-1.678328552246093750e+02,1.166222991943359375e+02,8.770228385925292969e+00,3.480780029296875000e+01,-1.537292938232421875e+02,6.622257232666015625e+01,1.191414108276367188e+02
9.520000219345092773e-01,1.000000000000000000e+00,-4.986896514892578125e+00,8.891206383705139160e-01,5.589698314666748047e+00,-1.964239959716796875e+02,-8.617247772216796875e+01,-1.677671356201171875e+02,1.166222991943359375e+02,8.770228385925292969e+00,3.480780029296875000e+01,-1.537292938232421875e+02,6.622257232666015625e+01,1.191414108276367188e+02
9.559999704360961914e-01,1.000000000000000000e+00,-5.051561355590820312e+00,9.433366656303405762e-01,5.599134922027587891e+00,-1.963648681640625000e+02,-8.609867858886718750e+01,-1.677014160156250000e+02,1.166222991943359375e+02,8.770228385925292969e+00,3.480780029296875000e+01,-1.537292938232421875e+02,6.622257232666015625e+01,1.191414108276367188e+02
9.599999785423278809e-01,1.000000000000000000e+00,-5.116225719451904297e+00,9.975523352622985840e-01,5.608572006225585938e+00,-1.963057403564453125e+02,-8.602489471435546875e+01,-1.676356964111328125e+02,1.166222991943359375e+02,8.770228385925292969e+00,3.480780029296875000e+01,-1.537292938232421875e+02,6.622257232666015625e+01,1.191414108276367188e+02
9.639999866485595703e-01,1.000000000000000000e+00,-5.180889606475830078e+00,1.051767468452453613e+00,5.618008136749267578e+00,-1.962466125488281250e+02,-8.595110321044921875e+01,-1.675699920654296875e+02,1.166222991943359375e+02,8.770228385925292969e+00,3.480780029296875000e+01,-1.537292938232421875e+02,6.622257232666015625e+01,1.191414108276367188e+02
9.679999947547912598e-01,1.000000000000000000e+00,-5.245553493499755859e+00,1.105982303619384766e+00,5.627444744110107422e+00,-1.961874847412109375e+02,-8.587731170654296875e+01,-1.675042724609375000e+02,1.166222991943359375e+02,8.770228385925292969e+00,3.480780029296875000e+01,-1.537292938232421875e+02,6.622257232666015625e+01,1.191414108276367188e+02
9.720000028610229492e-01,1.000000000000000000e+00,-5.310215950012207031e+00,1.160196781158447266e+00,5.636881351470947266e+00,-1.961283721923828125e+02,-8.580352020263671875e+01,-1.674385681152343750e+02,1.166222991943359375e+02,8.770228385925292969e+00,3.480780029296875000e+01,-1.537292938232421875e+02,6.622257232666015625e+01,1.191414108276367188e+02
9.760000109672546387e-01,1.000000000000000000e+00,-5.374878406524658203e+00,1.214410781860351562e+00,5.646317005157470703e+00,-1.960692443847656250e+02,-8.572973632812500000e+01,-1.673728485107421875e+02,1.166222991943359375e+02,8.770228385925292969e+00,3.480780029296875000e+01,-1.537292938232421875e+02,6.622257232666015625e+01,1.191414108276367188e+02
9.800000190734863281e-01,1.000000000000000000e+00,-5.439539909362792969e+00,1.268624186515808105e+00,5.655753612518310547e+00,-1.960101165771484375e+02,-8.565594482421875000e+01,-1.673071441650390625e+02,1.166222991943359375e+02,8.770228385925292969e+00,3.480780029296875000e+01,-1.537292938232421875e+02,6.622257232666015625e+01,1.191414108276367188e+02
9.840000271797180176e-01,1.000000000000000000e+00,-5.504201412200927734e+00,1.322837114334106445e+00,5.665189743041992188e+00,-1.959510040283203125e+02,-8.558215332031250000e+01,-1.672414245605468750e+02,1.166222991943359375e+02,8.770228385925292969e+00,3.480780029296875000e+01,-1.537292938232421875e+02,6.622257232666015625e+01,1.191414108276367188e+02
9.879999756813049316e-01,1.000000000000000000e+00,-5.568861961364746094e+00,1.377049565315246582e+00,5.674625873565673828e+00,-1.958918762207031250e+02,-8.550836944580078125e+01,-1.671757049560546875e+02,1.166222991943359375e+02,8.770228385925292969e+00,3.480780029296875000e+01,-1.537292938232421875e+02,6.622257232666015625e+01,1.191414108276367188e+02
9.919999837875366211e-01,1.000000000000000000e+00,-5.633521556854248047e+00,1.431261420249938965e+00,5.684061527252197266e+00,-1.958327484130859375e+02,-8.543458557128906250e+01,-1.671099853515625000e+02,1.166222991943359375e+02,8.770228385925292969e+00,3.480780029296875000e+01,-1.537292938232421875e+02,6.622257232666015625e+01,1.191414108276367188e+02
9.959999918937683105e-01,1.000000000000000000e+00,-5.698181152343750000e+00,1.485472798347473145e+00,5.693497657775878906e+00,-1.957736358642578125e+02,-8.536080169677734375e+01,-1.670442810058593750e+02,1.166222991943359375e+02,8.770228385925292969e+00,3.480780029296875000e+01,-1.537292938232421875e+02,6.622257232666015625e+01,1.191414108276367188e+02
1.000000000000000000e+00,1.000000000000000000e+00,-5.762839317321777344e+00,1.539683580398559570e+00,5.702933311462402344e+00,-1.957145233154296875e+02,-8.528701782226562500e+01,-1.669785766601562500e+02,1.166222991943359375e+02,8.770228385925292969e+00,3.480780029296875000e+01,-1.537292938232421875e+02,6.622257232666015625e+01,1.191414108276367188e+02
1.003999948501586914e+00,1.000000000000000000e+00,-5.827497482299804688e+00,1.593893766403198242e+00,5.712368965148925781e+00,-1.956553955078125000e+02,-8.521322631835937500e+01,-1.669128723144531250e+02,1.166222991943359375e+02,8.770228385925292969e+00,3.480780029296875000e+01,-1.537292938232421875e+02,6.622257232666015625e+01,1.191414108276367188e+02
1.008000016212463379e+00,1.000000000000000000e+00,-5.892154693603515625e+00,1.648103356361389160e+00,5.721805095672607422e+00,-1.955962829589843750e+02,-8.513945007324218750e+01,-1.668471679687500000e+02,1.166222991943359375e+02,8.770228385925292969e+00,3.480780029296875000e+01,-1.537292938232421875e+02,6.622257232666015625e+01,1.191414108276367188e+02
1.011999964714050293e+00,1.000000000000000000e+00,-5.956810951232910156e+00,1.702312231063842773e+00,5.731239795684814453e+00,-1.955371704101562500e+02,-8.506566619873046875e+01,-1.667814483642578125e+02,1.166222991943359375e+02,8.770228385925292969e+00,3.480780029296875000e+01,-1.537292938232421875e+02,6.622257232666015625e+01,1.191414108276367188e+02
1.016000032424926758e+00,1.000000000000000000e+00,-6.021466255187988281e+00,1.756520390510559082e+00,5.740675449371337891e+00,-1.954780426025390625e+02,-8.499188232421875000e+01,-1.667157440185546875e+02,1.166222991943359375e+02,8.770228385925292969e+00,3.480780029296875000e+01,-1.537292938232421875e+02,6.622257232666015625e+01,1.191414108276367188e+02
1.019999980926513672e+00,1.000000000000000000e+00,-6.086121082305908203e+00,1.810727953910827637e+00,5.750110626220703125e+00,-1.954189300537109375e+02,-8.491810607910156250e+01,-1.666500396728515625e+02,1.166222991943359375e+02,8.770228385925292969e+00,3.480780029296875000e+01,-1.537292938232421875e+02,6.622257232666015625e+01,1.191414108276367188e+02
1.024000048637390137e+00,1.000000000000000000e+00,-6.150774955749511719e+00,1.864934921264648438e+00,5.759545803070068359e+00,-1.953598175048828125e+02,-8.484432220458984375e+01,-1.665843353271484375e+02,1.166222991943359375e+02,8.770228385925292969e+00,3.480780029296875000e+01,-1.537292938232421875e+02,6.622257232666015625e+01,1.191414108276367188e+02
1.026999950408935547e+00,1.000000000000000000e+00,-6.215428352355957031e+00,1.919141054153442383e+00,5.768980503082275391e+00,-1.953006896972656250e+02,-8.477055358886718750e+01,-1.665186309814453125e+02,1.166222991943359375e+02,8.770228385925292969e+00,3.480780029296875000e+01,-1.537292938232421875e+02,6.622257232666015625e+01,1.191414108276367188e+02
1.031999945640563965e+00,1.000000000000000000e+00,-6.280080318450927734e+00,1.973346471786499023e+00,5.778415679931640625e+00,-1.952415924072265625e+02,-8.469676971435546875e+01,-1.664529266357421875e+02,1.166222991943359375e+02,8.770228385925292969e+00,3.480780029296875000e+01,-1.537292938232421875e+02,6.622257232666015625e+01,1.191414108276367188e+02
1.036000013351440430e+00,1.000000000000000000e+00,-6.344731330871582031e+00,2.027551174163818359e+00,5.787850379943847656e+00,-1.951824798583984375e+02,-8.462300109863281250e+01,-1.663872222900390625e+02,1.166222991943359375e+02,8.770228385925292969e+00,3.480780029296875000e+01,-1.537292938232421875e+02,6.622257232666015625e+01,1.191414108276367188e+02
1.039999961853027344e+00,1.000000000000000000e+00,-6.409381866455078125e+00,2.081754922866821289e+00,5.797285079956054688e+00,-1.951233520507812500e+02,-8.454921722412109375e+01,-1.663215332031250000e+02,1.166222991943359375e+02,8.770228385925292969e+00,3.480780029296875000e+01,-1.537292938232421875e+02,6.622257232666015625e+01,1.191414108276367188e+02
1.044000029563903809e+00,1.000000000000000000e+00,-6.474030971527099609e+00,2.135957956314086914e+00,5.806719303131103516e+00,-1.950642547607421875e+02,-8.447544860839843750e+01,-1.662558288574218750e+02,1.166222991943359375e+02,8.770228385925292969e+00,3.480780029296875000e+01,-1.537292938232421875e+02,6.622257232666015625e+01,1.191414108276367188e+02
1.047999978065490723e+00,1.000000000000000000e+00,-6.538679122924804688e+00,2.190160274505615234e+00,5.816153526306152344e+00,-1.950051422119140625e+02,-8.440167236328125000e+01,-1.661901245117187500e+02,1.166222991943359375e+02,8.770228385925292969e+00,3.480780029296875000e+01,-1.537292938232421875e+02,6.622257232666015625e+01,1.191414108276367188e+02
1.052000045776367188e+00,1.000000000000000000e+00,-6.603327274322509766e+00,2.244361639022827148e+00,5.825587749481201172e+00,-1.949460296630859375e+02,-8.432790374755859375e+01,-1.661244201660156250e+02,1.166222991943359375e+02,8.770228385925292969e+00,3.480780029296875000e+01,-1.537292938232421875e+02,6.622257232666015625e+01,1.191414108276367188e+02
1.054999947547912598e+00,1.000000000000000000e+00,-6.667973041534423828e+00,2.298562049865722656e+00,5.835021495819091797e+00,-1.948869171142578125e+02,-8.425413513183593750e+01,-1.660587310791015625e+02,1.166222991943359375e+02,8.770228385925292969e+00,3.480780029296875000e+01,-1.537292938232421875e+02,6.622257232666015625e+01,1.191414108276367188e+02
1.059999942779541016e+00,1.000000000000000000e+00,-6.732618808746337891e+00,2.352761745452880859e+00,5.844455718994140625e+00,-1.948278198242187500e+02,-8.418035888671875000e+01,-1.659930419921875000e+02,1.166222991943359375e+02,8.770228385925292969e+00,3.480780029296875000e+01,-1.537292938232421875e+02,6.622257232666015625e+01,1.191414108276367188e+02
1.064000010490417480e+00,1.000000000000000000e+00,-6.797262668609619141e+00,2.406960487365722656e+00,5.853889465332031250e+00,-1.947687072753906250e+02,-8.410659790039062500e+01,-1.659273376464843750e+02,1.166222991943359375e+02,8.770228385925292969e+00,3.480780029296875000e+01,-1.537292938232421875e+02,6.622257232666015625e+01,1.191414108276367188e+02
1.067999958992004395e+00,1.000000000000000000e+00,-6.861906051635742188e+00,2.461158275604248047e+00,5.863322734832763672e+00,-1.947096099853515625e+02,-8.403282928466796875e+01,-1.658616333007812500e+02,1.166222991943359375e+02,8.770228385925292969e+00,3.480780029296875000e+01,-1.537292938232421875e+02,6.622257232666015625e+01,1.191414108276367188e+02
1.072000026702880859e+00,1.000000000000000000e+00,-6.926548004150390625e+00,2.515355110168457031e+00,5.872756004333496094e+00,-1.946504974365234375e+02,-8.395906066894531250e+01,-1.657959442138671875e+02,1.166222991943359375e+02,8.770228385925292969e+00,3.480780029296875000e+01,-1.537292938232421875e+02,6.622257232666015625e+01,1.191414108276367188e+02
1.075999975204467773e+00,1.000000000000000000e+00,-6.991188526153564453e+00,2.569551229476928711e+00,5.882189273834228516e+00,-1.945914001464843750e+02,-8.388529968261718750e+01,-1.657302551269531250e+02,1.166222991943359375e+02,8.770228385925292969e+00,3.480780029296875000e+01,-1.537292938232421875e+02,6.622257232666015625e+01,1.191414108276367188e+02
1.080000042915344238e+00,1.000000000000000000e+00,-7.055828571319580078e+00,2.623745918273925781e+00,5.891622066497802734e+00,-1.945323028564453125e+02,-8.381153106689453125e+01,-1.656645812988281250e+02,1.166222991943359375e+02,8.770228385925292969e+00,3.480780029296875000e+01,-1.537292938232421875e+02,6.622257232666015625e+01,1.191414108276367188e+02
1.083999991416931152e+00,1.000000000000000000e+00,-7.120466709136962891e+00,2.677939891815185547e+00,5.901055335998535156e+00,-1.944731903076171875e+02,-8.373777008056640625e+01,-1.655988769531250000e+02,1.166222991943359375e+02,8.770228385925292969e+00,3.480780029296875000e+01,-1.537292938232421875e+02,6.622257232666015625e+01,1.191414108276367188e+02
1.088000059127807617e+00,1.000000000000000000e+00,-7.185103893280029297e+00,2.732132673263549805e+00,5.910488128662109375e+00,-1.944140930175781250e+02,-8.366400909423828125e+01,-1.655331878662109375e+02,1.166222991943359375e+02,8.770228385925292969e+00,3.480780029296875000e+01,-1.537292938232421875e+02,6.622257232666015625e+01,1.191414108276367188e+02
1.090999960899353027e+00,1.000000000000000000e+00,-7.249740600585937500e+00,2.786324739456176758e+00,5.919920444488525391e+00,-1.943549957275390625e+02,-8.359025573730468750e+01,-1.654675140380859375e+02,1.166222991943359375e+02,8.770228385925292969e+00,3.480780029296875000e+01,-1.537292938232421875e+02,6.622257232666015625e+01,1.191414108276367188e+02
1.095999956130981445e+00,1.000000000000000000e+00,-7.314374446868896484e+00,2.840515375137329102e+00,5.929352760314941406e+00,-1.942958984375000000e+02,-8.351649475097656250e+01,-1.654018096923828125e+02,1.166222991943359375e+02,8.770228385925292969e+00,3.480780029296875000e+01,-1.537292938232421875e+02,6.622257232666015625e+01,1.191414108276367188e+02
1.100000023841857910e+00,1.000000000000000000e+00,-7.379008769989013672e+00,2.894705057144165039e+00,5.938784599304199219e+00,-1.942368011474609375e+02,-8.344274139404296875e+01,-1.653361358642578125e+02,1.166222991943359375e+02,8.770228385925292969e+00,3.480780029296875000e+01,-1.537292938232421875e+02,6.622257232666015625e+01,1.191414108276367188e+02
1.103999972343444824e+00,1.000000000000000000e+00,-7.443640232086181641e+00,2.948893547058105469e+00,5.948216915130615234e+00,-1.941777038574218750e+02,-8.336898803710937500e+01,-1.652704620361328125e+02,1.166222991943359375e+02,8.770228385925292969e+00,3.480780029296875000e+01,-1.537292938232421875e+02,6.622257232666015625e+01,1.191414108276367188e+02
1.108000040054321289e+00,1.000000000000000000e+00,-7.508271694183349609e+00,3.003081083297729492e+00,5.957648277282714844e+00,-1.941186065673828125e+02,-8.329523468017578125e+01,-1.652047729492187500e+02,1.166222991943359375e+02,8.770228385925292969e+00,3.480780029296875000e+01,-1.537292938232421875e+02,6.622257232666015625e+01,1.191414108276367188e+02
1.111999988555908203e+00,1.000000000000000000e+00,-7.572900772094726562e+00,3.057267427444458008e+00,5.967080116271972656e+00,-1.940595092773437500e+02,-8.322148132324218750e+01,-1.651390838623046875e+02,1.166222991943359375e+02,8.770228385925292969e+00,3.480780029296875000e+01,-1.537292938232421875e+02,6.622257232666015625e+01,1.191414108276367188e+02
1.116000056266784668e+00,1.000000000000000000e+00,-7.637528896331787109e+00,3.111452579498291016e+00,5.976511001586914062e+00,-1.940004272460937500e+02,-8.314773559570312500e+01,-1.650734100341796875e+02,1.166222991943359375e+02,8.770228385925292969e+00,3.480780029296875000e+01,-1.537292938232421875e+02,6.622257232666015625e+01,1.191414108276367188e+02
