rpiRobotics/ARM-21-02-F-19-Robot-Motion-Program/data_performance_abb/curve_1/curve_pose_opt1/greedy0.02/grad_result/real_from_sim/run_1.csv
timestamp,cmd_num,J1,J2,J3,J4,J5,J6
1.383999944664537907e-03,-1.000000000000000000e+00,-3.445133972167968750e+01,4.940634155273437500e+01,2.994030189514160156e+01,1.100327301025390625e+02,9.541999053955078125e+01,-2.992486000061035156e+00,5.500723266601562500e+01,-2.090458106994628906e+01,-9.345405578613281250e+01,-1.180766754150390625e+02,6.585875701904296875e+01,-2.980392074584960938e+01
6.064000073820352554e-03,1.000000000000000000e+00,-3.445148086547851562e+01,4.940636444091796875e+01,2.994030189514160156e+01,1.100327301025390625e+02,9.541983032226562500e+01,-2.992486000061035156e+00,5.500723266601562500e+01,-2.090458106994628906e+01,-9.345405578613281250e+01,-1.180766754150390625e+02,6.585875701904296875e+01,-2.980392074584960938e+01
9.571000002324581146e-03,1.000000000000000000e+00,-3.445148086547851562e+01,4.940636444091796875e+01,2.994030189514160156e+01,1.100327301025390625e+02,9.541983032226562500e+01,-2.992486000061035156e+00,5.500723266601562500e+01,-2.090458106994628906e+01,-9.345405578613281250e+01,-1.180766754150390625e+02,6.585875701904296875e+01,-2.980392074584960938e+01
1.398400031030178070e-02,1.000000000000000000e+00,-3.445148086547851562e+01,4.940634155273437500e+01,2.994030189514160156e+01,1.100326309204101562e+02,9.541972351074218750e+01,-2.992621660232543945e+00,5.500734329223632812e+01,-2.090458106994628906e+01,-9.345405578613281250e+01,-1.180766754150390625e+02,6.585875701904296875e+01,-2.980392074584960938e+01
3.765099868178367615e-02,1.000000000000000000e+00,-3.445139312744140625e+01,4.940634155273437500e+01,2.994030189514160156e+01,1.100327301025390625e+02,9.541983032226562500e+01,-2.992486000061035156e+00,5.500723266601562500e+01,-2.090458106994628906e+01,-9.345405578613281250e+01,-1.180766754150390625e+02,6.585875701904296875e+01,-2.980392074584960938e+01
3.925399854779243469e-02,1.000000000000000000e+00,-3.445148086547851562e+01,4.940625381469726562e+01,2.994030189514160156e+01,1.100327301025390625e+02,9.541983032226562500e+01,-2.992486000061035156e+00,5.500723266601562500e+01,-2.090458106994628906e+01,-9.345405578613281250e+01,-1.180766754150390625e+02,6.585875701904296875e+01,-2.980392074584960938e+01
4.174200072884559631e-02,1.000000000000000000e+00,-3.445148086547851562e+01,4.940625381469726562e+01,2.994030189514160156e+01,1.100327301025390625e+02,9.541983032226562500e+01,-2.992486000061035156e+00,5.500723266601562500e+01,-2.090458106994628906e+01,-9.345405578613281250e+01,-1.180766754150390625e+02,6.585875701904296875e+01,-2.980392074584960938e+01
4.672899842262268066e-02,1.000000000000000000e+00,-3.445148086547851562e+01,4.940627670288085938e+01,2.994030189514160156e+01,1.100326309204101562e+02,9.541983032226562500e+01,-2.992486000061035156e+00,5.500723266601562500e+01,-2.090458106994628906e+01,-9.345405578613281250e+01,-1.180766754150390625e+02,6.585875701904296875e+01,-2.980392074584960938e+01
4.798100143671035767e-02,1.000000000000000000e+00,-3.445148086547851562e+01,4.940627670288085938e+01,2.994030189514160156e+01,1.100326309204101562e+02,9.541983032226562500e+01,-2.992486000061035156e+00,5.500723266601562500e+01,-2.090458106994628906e+01,-9.345405578613281250e+01,-1.180766754150390625e+02,6.585875701904296875e+01,-2.980392074584960938e+01
5.071999877691268921e-02,1.000000000000000000e+00,-3.445139312744140625e+01,4.940632247924804688e+01,2.994030189514160156e+01,1.100326309204101562e+02,9.541983032226562500e+01,-2.992486000061035156e+00,5.500723266601562500e+01,-2.090458106994628906e+01,-9.345405578613281250e+01,-1.180766754150390625e+02,6.585875701904296875e+01,-2.980392074584960938e+01
5.201499909162521362e-02,1.000000000000000000e+00,-3.445139312744140625e+01,4.940632247924804688e+01,2.994030189514160156e+01,1.100326309204101562e+02,9.541983032226562500e+01,-2.992486000061035156e+00,5.500723266601562500e+01,-2.090458106994628906e+01,-9.345405578613281250e+01,-1.180766754150390625e+02,6.585875701904296875e+01,-2.980392074584960938e+01
5.818599835038185120e-02,1.000000000000000000e+00,-3.445182418823242188e+01,4.940615844726562500e+01,2.994030189514160156e+01,1.100326309204101562e+02,9.541983032226562500e+01,-2.992621660232543945e+00,5.500723266601562500e+01,-2.090458106994628906e+01,-9.345405578613281250e+01,-1.180766754150390625e+02,6.585875701904296875e+01,-2.980392074584960938e+01
6.031800061464309692e-02,1.000000000000000000e+00,-3.445182418823242188e+01,4.940615844726562500e+01,2.994030189514160156e+01,1.100326309204101562e+02,9.541983032226562500e+01,-2.992621660232543945e+00,5.500723266601562500e+01,-2.090458106994628906e+01,-9.345405578613281250e+01,-1.180766754150390625e+02,6.585875701904296875e+01,-2.980392074584960938e+01
6.300199776887893677e-02,1.000000000000000000e+00,-3.445254516601562500e+01,4.940586471557617188e+01,2.994030189514160156e+01,1.100326309204101562e+02,9.541983032226562500e+01,-2.992486000061035156e+00,5.500723266601562500e+01,-2.090458106994628906e+01,-9.345405578613281250e+01,-1.180766754150390625e+02,6.585875701904296875e+01,-2.980392074584960938e+01
6.426300108432769775e-02,1.000000000000000000e+00,-3.445254516601562500e+01,4.940586471557617188e+01,2.994030189514160156e+01,1.100326309204101562e+02,9.541983032226562500e+01,-2.992486000061035156e+00,5.500723266601562500e+01,-2.090458106994628906e+01,-9.345405578613281250e+01,-1.180766754150390625e+02,6.585875701904296875e+01,-2.980392074584960938e+01
6.968700140714645386e-02,1.000000000000000000e+00,-3.445391845703125000e+01,4.940502929687500000e+01,2.994030189514160156e+01,1.100326309204101562e+02,9.541983032226562500e+01,-2.992486000061035156e+00,5.500723266601562500e+01,-2.090458106994628906e+01,-9.345405578613281250e+01,-1.180766754150390625e+02,6.585875701904296875e+01,-2.980392074584960938e+01
7.121299952268600464e-02,1.000000000000000000e+00,-3.445573043823242188e+01,4.940333175659179688e+01,2.994030189514160156e+01,1.100327301025390625e+02,9.541983032226562500e+01,-2.992486000061035156e+00,5.500734329223632812e+01,-2.090458106994628906e+01,-9.345405578613281250e+01,-1.180766754150390625e+02,6.585875701904296875e+01,-2.980392074584960938e+01
7.255099713802337646e-02,1.000000000000000000e+00,-3.445573043823242188e+01,4.940333175659179688e+01,2.994030189514160156e+01,1.100327301025390625e+02,9.541983032226562500e+01,-2.992486000061035156e+00,5.500734329223632812e+01,-2.090458106994628906e+01,-9.345405578613281250e+01,-1.180766754150390625e+02,6.585875701904296875e+01,-2.980392074584960938e+01
7.584500312805175781e-02,1.000000000000000000e+00,-3.445816802978515625e+01,4.940041351318359375e+01,2.994030189514160156e+01,1.100326309204101562e+02,9.541983032226562500e+01,-2.992486000061035156e+00,5.500723266601562500e+01,-2.090458106994628906e+01,-9.345405578613281250e+01,-1.180766754150390625e+02,6.585875701904296875e+01,-2.980392074584960938e+01
7.833699882030487061e-02,1.000000000000000000e+00,-3.446109771728515625e+01,4.939568328857421875e+01,2.994034194946289062e+01,1.100322036743164062e+02,9.541999053955078125e+01,-2.992486000061035156e+00,5.500723266601562500e+01,-2.090458106994628906e+01,-9.345405578613281250e+01,-1.180766754150390625e+02,6.585875701904296875e+01,-2.980392074584960938e+01
8.165699988603591919e-02,1.000000000000000000e+00,-3.446109771728515625e+01,4.939568328857421875e+01,2.994034194946289062e+01,1.100322036743164062e+02,9.541999053955078125e+01,-2.992486000061035156e+00,5.500723266601562500e+01,-2.090458106994628906e+01,-9.345405578613281250e+01,-1.180766754150390625e+02,6.585875701904296875e+01,-2.980392074584960938e+01
8.308199793100357056e-02,1.000000000000000000e+00,-3.446474075317382812e+01,4.938894271850585938e+01,2.994052696228027344e+01,1.100311508178710938e+02,9.542008972167968750e+01,-2.992621660232543945e+00,5.500723266601562500e+01,-2.090458106994628906e+01,-9.345405578613281250e+01,-1.180766754150390625e+02,6.585875701904296875e+01,-2.980392074584960938e+01
8.695500344038009644e-02,1.000000000000000000e+00,-3.446899032592773438e+01,4.938050079345703125e+01,2.994095420837402344e+01,1.100283584594726562e+02,9.542052459716796875e+01,-2.992960691452026367e+00,5.500712203979492188e+01,-2.090458106994628906e+01,-9.345405578613281250e+01,-1.180766754150390625e+02,6.585875701904296875e+01,-2.980392074584960938e+01
8.832100033760070801e-02,1.000000000000000000e+00,-3.446899032592773438e+01,4.938050079345703125e+01,2.994095420837402344e+01,1.100283584594726562e+02,9.542052459716796875e+01,-2.992960691452026367e+00,5.500712203979492188e+01,-2.090458106994628906e+01,-9.345405578613281250e+01,-1.180766754150390625e+02,6.585875701904296875e+01,-2.980392074584960938e+01
9.166999906301498413e-02,1.000000000000000000e+00,-3.447381210327148438e+01,4.937031555175781250e+01,2.994170570373535156e+01,1.100239868164062500e+02,9.542121124267578125e+01,-2.993299722671508789e+00,5.500723266601562500e+01,-2.090458106994628906e+01,-9.345405578613281250e+01,-1.180768966674804688e+02,6.585875701904296875e+01,-2.980402946472167969e+01
9.669899940490722656e-02,1.000000000000000000e+00,-3.447381210327148438e+01,4.937031555175781250e+01,2.994170570373535156e+01,1.100239868164062500e+02,9.542121124267578125e+01,-2.993299722671508789e+00,5.500723266601562500e+01,-2.090458106994628906e+01,-9.345405578613281250e+01,-1.180768966674804688e+02,6.585875701904296875e+01,-2.980402946472167969e+01
1.001290008425712585e-01,1.000000000000000000e+00,-3.448644638061523438e+01,4.934295654296875000e+01,2.994467353820800781e+01,1.100109786987304688e+02,9.542398834228515625e+01,-2.996554851531982422e+00,5.500723266601562500e+01,-2.090458106994628906e+01,-9.345405578613281250e+01,-1.180766754150390625e+02,6.585875701904296875e+01,-2.980392074584960938e+01
1.036159992218017578e-01,1.000000000000000000e+00,-3.449471282958984375e+01,4.932562255859375000e+01,2.994703292846679688e+01,1.100015487670898438e+02,9.542654418945312500e+01,-3.000013589859008789e+00,5.500723266601562500e+01,-2.090458106994628906e+01,-9.345405578613281250e+01,-1.180766754150390625e+02,6.585875701904296875e+01,-2.980392074584960938e+01
1.076020002365112305e-01,1.000000000000000000e+00,-3.449471282958984375e+01,4.932562255859375000e+01,2.994703292846679688e+01,1.100015487670898438e+02,9.542654418945312500e+01,-3.000013589859008789e+00,5.500723266601562500e+01,-2.090458106994628906e+01,-9.345405578613281250e+01,-1.180766754150390625e+02,6.585875701904296875e+01,-2.980392074584960938e+01
1.115560010075569153e-01,1.000000000000000000e+00,-3.451584243774414062e+01,4.928346252441406250e+01,2.995413017272949219e+01,1.099734191894531250e+02,9.543428039550781250e+01,-3.007880449295043945e+00,5.500723266601562500e+01,-2.090458106994628906e+01,-9.345405578613281250e+01,-1.180766754150390625e+02,6.585875701904296875e+01,-2.980392074584960938e+01
1.157080009579658508e-01,1.000000000000000000e+00,-3.451584243774414062e+01,4.928346252441406250e+01,2.995413017272949219e+01,1.099734191894531250e+02,9.543428039550781250e+01,-3.007880449295043945e+00,5.500723266601562500e+01,-2.090458106994628906e+01,-9.345405578613281250e+01,-1.180766754150390625e+02,6.585875701904296875e+01,-2.980392074584960938e+01
1.196009963750839233e-01,1.000000000000000000e+00,-3.452870178222656250e+01,4.925820922851562500e+01,2.995941543579101562e+01,1.099550399780273438e+02,9.543933868408203125e+01,-3.013509273529052734e+00,5.500723266601562500e+01,-2.090458106994628906e+01,-9.345405578613281250e+01,-1.180766754150390625e+02,6.585875701904296875e+01,-2.980402946472167969e+01
1.236129999160766602e-01,1.000000000000000000e+00,-3.454305267333984375e+01,4.923003387451171875e+01,2.996594238281250000e+01,1.099333343505859375e+02,9.544532012939453125e+01,-3.020358800888061523e+00,5.500723266601562500e+01,-2.090458106994628906e+01,-9.345405578613281250e+01,-1.180766754150390625e+02,6.585875701904296875e+01,-2.980392074584960938e+01
1.276080012321472168e-01,1.000000000000000000e+00,-3.455889892578125000e+01,4.919878387451171875e+01,2.997358512878417969e+01,1.099074707031250000e+02,9.545256042480468750e+01,-3.028225421905517578e+00,5.500723266601562500e+01,-2.090458106994628906e+01,-9.345405578613281250e+01,-1.180766754150390625e+02,6.585875701904296875e+01,-2.980402946472167969e+01
1.316699981689453125e-01,1.000000000000000000e+00,-3.457600784301757812e+01,4.916390609741210938e+01,2.998247146606445312e+01,1.098768615722656250e+02,9.546061706542968750e+01,-3.037652015686035156e+00,5.500712203979492188e+01,-2.090467262268066406e+01,-9.345405578613281250e+01,-1.180766754150390625e+02,6.585875701904296875e+01,-2.980392074584960938e+01
1.356460005044937134e-01,1.000000000000000000e+00,-3.459469604492187500e+01,4.912539291381835938e+01,2.999271583557128906e+01,1.098406753540039062e+02,9.546952056884765625e+01,-3.047621011734008789e+00,5.500723266601562500e+01,-2.090458106994628906e+01,-9.345405578613281250e+01,-1.180766754150390625e+02,6.585875701904296875e+01,-2.980392074584960938e+01
1.396339982748031616e-01,1.000000000000000000e+00,-3.461528015136718750e+01,4.908337020874023438e+01,3.000430679321289062e+01,1.098007049560546875e+02,9.547949218750000000e+01,-3.059421300888061523e+00,5.500723266601562500e+01,-2.090458106994628906e+01,-9.345405578613281250e+01,-1.180766754150390625e+02,6.585875701904296875e+01,-2.980392074584960938e+01
1.436720043420791626e-01,1.000000000000000000e+00,-3.463764572143554688e+01,4.903835678100585938e+01,3.001729774475097656e+01,1.097586669921875000e+02,9.549031829833984375e+01,-3.072577714920043945e+00,5.500723266601562500e+01,-2.090458106994628906e+01,-9.345405578613281250e+01,-1.180766754150390625e+02,6.585875701904296875e+01,-2.980392074584960938e+01
1.476069986820220947e-01,1.000000000000000000e+00,-3.466138458251953125e+01,4.899017715454101562e+01,3.003163146972656250e+01,1.097119445800781250e+02,9.550231170654296875e+01,-3.087090492248535156e+00,5.500723266601562500e+01,-2.090458106994628906e+01,-9.345405578613281250e+01,-1.180766754150390625e+02,6.585875701904296875e+01,-2.980402946472167969e+01
1.516090035438537598e-01,1.000000000000000000e+00,-3.468635940551757812e+01,4.893898773193359375e+01,3.004702377319335938e+01,1.096598510742187500e+02,9.551483917236328125e+01,-3.102620601654052734e+00,5.500723266601562500e+01,-2.090448951721191406e+01,-9.345405578613281250e+01,-1.180766754150390625e+02,6.585875701904296875e+01,-2.980402946472167969e+01
1.556690037250518799e-01,1.000000000000000000e+00,-3.471299743652343750e+01,4.888504028320312500e+01,3.006351470947265625e+01,1.096053848266601562e+02,9.552811431884765625e+01,-3.119913816452026367e+00,5.500712203979492188e+01,-2.090458106994628906e+01,-9.345405578613281250e+01,-1.180766754150390625e+02,6.585875701904296875e+01,-2.980392074584960938e+01
1.596129983663558960e-01,1.000000000000000000e+00,-3.474087142944335938e+01,4.882846450805664062e+01,3.008077430725097656e+01,1.095479736328125000e+02,9.554235076904296875e+01,-3.138020992279052734e+00,5.500723266601562500e+01,-2.090448951721191406e+01,-9.345405578613281250e+01,-1.180766754150390625e+02,6.585875701904296875e+01,-2.980402946472167969e+01
1.636160016059875488e-01,1.000000000000000000e+00,-3.477029800415039062e+01,4.876926422119140625e+01,3.009887123107910156e+01,1.094875564575195312e+02,9.555748748779296875e+01,-3.157009840011596680e+00,5.500723266601562500e+01,-2.090458106994628906e+01,-9.345405578613281250e+01,-1.180766754150390625e+02,6.585875701904296875e+01,-2.980402946472167969e+01
1.676409989595413208e-01,1.000000000000000000e+00,-3.480121612548828125e+01,4.870728302001953125e+01,3.011771965026855469e+01,1.094249267578125000e+02,9.557348632812500000e+01,-3.176134109497070312e+00,5.500734329223632812e+01,-2.090458106994628906e+01,-9.345405578613281250e+01,-1.180766754150390625e+02,6.585875701904296875e+01,-2.980392074584960938e+01
1.716450005769729614e-01,1.000000000000000000e+00,-3.483328247070312500e+01,4.864316940307617188e+01,3.013695335388183594e+01,1.093596649169921875e+02,9.559049224853515625e+01,-3.195597410202026367e+00,5.500723266601562500e+01,-2.090458106994628906e+01,-9.345405578613281250e+01,-1.180766754150390625e+02,6.585875701904296875e+01,-2.980402946472167969e+01
1.755989938974380493e-01,1.000000000000000000e+00,-3.486643600463867188e+01,4.857695388793945312e+01,3.015640830993652344e+01,1.092941894531250000e+02,9.560820007324218750e+01,-3.215942621231079102e+00,5.500723266601562500e+01,-2.090458106994628906e+01,-9.345405578613281250e+01,-1.180766754150390625e+02,6.585875701904296875e+01,-2.980402946472167969e+01
1.796350032091140747e-01,1.000000000000000000e+00,-3.490054321289062500e+01,4.850874710083007812e+01,3.017633628845214844e+01,1.092270812988281250e+02,9.562562561035156250e+01,-3.236490964889526367e+00,5.500723266601562500e+01,-2.090458106994628906e+01,-9.345405578613281250e+01,-1.180766754150390625e+02,6.585875701904296875e+01,-2.980392074584960938e+01
1.837210059165954590e-01,1.000000000000000000e+00,-3.493550491333007812e+01,4.843895721435546875e+01,3.019652366638183594e+01,1.091593933105468750e+02,9.564253234863281250e+01,-3.257175207138061523e+00,5.500723266601562500e+01,-2.090448951721191406e+01,-9.345405578613281250e+01,-1.180766754150390625e+02,6.585875701904296875e+01,-2.980392074584960938e+01
1.875959932804107666e-01,1.000000000000000000e+00,-3.497121810913085938e+01,4.836717605590820312e+01,3.021699905395507812e+01,1.090900192260742188e+02,9.566001892089843750e+01,-3.278062582015991211e+00,5.500723266601562500e+01,-2.090458106994628906e+01,-9.345405578613281250e+01,-1.180766754150390625e+02,6.585875701904296875e+01,-2.980392074584960938e+01
1.916140019893646240e-01,1.000000000000000000e+00,-3.500787734985351562e+01,4.829358291625976562e+01,3.023775672912597656e+01,1.090213394165039062e+02,9.567739868164062500e+01,-3.299628257751464844e+00,5.500712203979492188e+01,-2.090458106994628906e+01,-9.345405578613281250e+01,-1.180766754150390625e+02,6.585875701904296875e+01,-2.980402946472167969e+01
1.957020014524459839e-01,1.000000000000000000e+00,-3.504545211791992188e+01,4.821904373168945312e+01,3.025831222534179688e+01,1.089520721435546875e+02,9.569510650634765625e+01,-3.321736812591552734e+00,5.500723266601562500e+01,-2.090458106994628906e+01,-9.345405578613281250e+01,-1.180766754150390625e+02,6.585875701904296875e+01,-2.980402946472167969e+01
1.996269971132278442e-01,1.000000000000000000e+00,-3.508366012573242188e+01,4.814373016357421875e+01,3.027876472473144531e+01,1.088827514648437500e+02,9.571327972412109375e+01,-3.343777179718017578e+00,5.500723266601562500e+01,-2.090458106994628906e+01,-9.345394897460937500e+01,-1.180766754150390625e+02,6.585875701904296875e+01,-2.980402946472167969e+01
2.035979926586151123e-01,1.000000000000000000e+00,-3.512244415283203125e+01,4.806803131103515625e+01,3.029932022094726562e+01,1.088128051757812500e+02,9.573188781738281250e+01,-3.365139484405517578e+00,5.500723266601562500e+01,-2.090448951721191406e+01,-9.345405578613281250e+01,-1.180766754150390625e+02,6.585875701904296875e+01,-2.980392074584960938e+01
2.083819955587387085e-01,1.000000000000000000e+00,-3.516139984130859375e+01,4.799140548706054688e+01,3.031989669799804688e+01,1.087432174682617188e+02,9.575113677978515625e+01,-3.386366128921508789e+00,5.500734329223632812e+01,-2.090458106994628906e+01,-9.345405578613281250e+01,-1.180766754150390625e+02,6.585875701904296875e+01,-2.980392074584960938e+01
2.116120010614395142e-01,1.000000000000000000e+00,-3.520046997070312500e+01,4.791460037231445312e+01,3.034051322937011719e+01,1.086736831665039062e+02,9.576990509033203125e+01,-3.407457113265991211e+00,5.500723266601562500e+01,-2.090458106994628906e+01,-9.345405578613281250e+01,-1.180766754150390625e+02,6.585875701904296875e+01,-2.980392074584960938e+01
2.156119942665100098e-01,1.000000000000000000e+00,-3.523973846435546875e+01,4.783750152587890625e+01,3.036119270324707031e+01,1.086036300659179688e+02,9.578787231445312500e+01,-3.428412675857543945e+00,5.500723266601562500e+01,-2.090458106994628906e+01,-9.345405578613281250e+01,-1.180766754150390625e+02,6.585875701904296875e+01,-2.980402946472167969e+01
2.199209928512573242e-01,1.000000000000000000e+00,-3.527947235107421875e+01,4.776026535034179688e+01,3.038162422180175781e+01,1.085337371826171875e+02,9.580541229248046875e+01,-3.449910640716552734e+00,5.500723266601562500e+01,-2.090448951721191406e+01,-9.345405578613281250e+01,-1.180766754150390625e+02,6.585875701904296875e+01,-2.980392074584960938e+01
2.236029952764511108e-01,1.000000000000000000e+00,-3.531902694702148438e+01,4.768318557739257812e+01,3.040213966369628906e+01,1.084631500244140625e+02,9.582321929931640625e+01,-3.471747636795043945e+00,5.500723266601562500e+01,-2.090458106994628906e+01,-9.345405578613281250e+01,-1.180766754150390625e+02,6.585875701904296875e+01,-2.980392074584960938e+01
2.276069968938827515e-01,1.000000000000000000e+00,-3.535838699340820312e+01,4.760601806640625000e+01,3.042293930053710938e+01,1.083936233520507812e+02,9.584123992919921875e+01,-3.493516683578491211e+00,5.500723266601562500e+01,-2.090458106994628906e+01,-9.345405578613281250e+01,-1.180766754150390625e+02,6.585875701904296875e+01,-2.980392074584960938e+01
2.330030053853988647e-01,1.000000000000000000e+00,-3.539788436889648438e+01,4.752910232543945312e+01,3.044386100769042969e+01,1.083234100341796875e+02,9.585942840576171875e+01,-3.515489339828491211e+00,5.500723266601562500e+01,-2.090458106994628906e+01,-9.345405578613281250e+01,-1.180766754150390625e+02,6.585875701904296875e+01,-2.980402946472167969e+01
2.357439994812011719e-01,1.000000000000000000e+00,-3.547688674926757812e+01,4.737594223022460938e+01,3.048558044433593750e+01,1.081836090087890625e+02,9.589737701416015625e+01,-3.558620929718017578e+00,5.500723266601562500e+01,-2.090458106994628906e+01,-9.345405578613281250e+01,-1.180766754150390625e+02,6.585875701904296875e+01,-2.980402946472167969e+01
2.396090030670166016e-01,1.000000000000000000e+00,-3.547688674926757812e+01,4.737594223022460938e+01,3.048558044433593750e+01,1.081836090087890625e+02,9.589737701416015625e+01,-3.558620929718017578e+00,5.500723266601562500e+01,-2.090458106994628906e+01,-9.345405578613281250e+01,-1.180766754150390625e+02,6.585875701904296875e+01,-2.980402946472167969e+01
2.441139966249465942e-01,1.000000000000000000e+00,-3.551633071899414062e+01,4.729983520507812500e+01,3.050603675842285156e+01,1.081136016845703125e+02,9.591599273681640625e+01,-3.579372882843017578e+00,5.500723266601562500e+01,-2.090448951721191406e+01,-9.345405578613281250e+01,-1.180766754150390625e+02,6.585875701904296875e+01,-2.980392074584960938e+01
2.477589994668960571e-01,1.000000000000000000e+00,-3.555568695068359375e+01,4.722321319580078125e+01,3.052665328979492188e+01,1.080434417724609375e+02,9.593412017822265625e+01,-3.600328445434570312e+00,5.500723266601562500e+01,-2.090458106994628906e+01,-9.345405578613281250e+01,-1.180766754150390625e+02,6.585875701904296875e+01,-2.980402946472167969e+01
2.516129910945892334e-01,1.000000000000000000e+00,-3.559478759765625000e+01,4.714620208740234375e+01,3.054747200012207031e+01,1.079734420776367188e+02,9.595175933837890625e+01,-3.621622800827026367e+00,5.500723266601562500e+01,-2.090458106994628906e+01,-9.345405578613281250e+01,-1.180766754150390625e+02,6.585875701904296875e+01,-2.980392074584960938e+01
2.556070089340209961e-01,1.000000000000000000e+00,-3.563391494750976562e+01,4.706907653808593750e+01,3.056857681274414062e+01,1.079029617309570312e+02,9.596968078613281250e+01,-3.642985105514526367e+00,5.500723266601562500e+01,-2.090448951721191406e+01,-9.345405578613281250e+01,-1.180768966674804688e+02,6.585875701904296875e+01,-2.980392074584960938e+01
2.596729993820190430e-01,1.000000000000000000e+00,-3.567307281494140625e+01,4.699240875244140625e+01,3.058953857421875000e+01,1.078329620361328125e+02,9.598786163330078125e+01,-3.664686441421508789e+00,5.500723266601562500e+01,-2.090458106994628906e+01,-9.345405578613281250e+01,-1.180766754150390625e+02,6.585875701904296875e+01,-2.980392074584960938e+01
2.635990083217620850e-01,1.000000000000000000e+00,-3.571213912963867188e+01,4.691542434692382812e+01,3.061052131652832031e+01,1.077624740600585938e+02,9.600641632080078125e+01,-3.686455965042114258e+00,5.500723266601562500e+01,-2.090458106994628906e+01,-9.345405578613281250e+01,-1.180766754150390625e+02,6.585875701904296875e+01,-2.980402946472167969e+01
2.682960033416748047e-01,1.000000000000000000e+00,-3.575138092041015625e+01,4.683809280395507812e+01,3.063135910034179688e+01,1.076920013427734375e+02,9.602534484863281250e+01,-3.708835363388061523e+00,5.500723266601562500e+01,-2.090458106994628906e+01,-9.345405578613281250e+01,-1.180766754150390625e+02,6.585875701904296875e+01,-2.980392074584960938e+01
2.716830074787139893e-01,1.000000000000000000e+00,-3.579001998901367188e+01,4.676090621948242188e+01,3.065212059020996094e+01,1.076212615966796875e+02,9.604469299316406250e+01,-3.730401039123535156e+00,5.500723266601562500e+01,-2.090448951721191406e+01,-9.345405578613281250e+01,-1.180766754150390625e+02,6.585875701904296875e+01,-2.980402946472167969e+01
2.756299972534179688e-01,1.000000000000000000e+00,-3.582825851440429688e+01,4.668403244018554688e+01,3.067312240600585938e+01,1.075512542724609375e+02,9.606330871582031250e+01,-3.751627922058105469e+00,5.500723266601562500e+01,-2.090467262268066406e+01,-9.345405578613281250e+01,-1.180766754150390625e+02,6.585875701904296875e+01,-2.980392074584960938e+01
2.796489894390106201e-01,1.000000000000000000e+00,-3.586692428588867188e+01,4.660717773437500000e+01,3.069402313232421875e+01,1.074801483154296875e+02,9.608126831054687500e+01,-3.772243976593017578e+00,5.500723266601562500e+01,-2.090458106994628906e+01,-9.345405578613281250e+01,-1.180766754150390625e+02,6.585875701904296875e+01,-2.980402946472167969e+01
2.837589979171752930e-01,1.000000000000000000e+00,-3.590562438964843750e+01,4.652989959716796875e+01,3.071482086181640625e+01,1.074098281860351562e+02,9.609907531738281250e+01,-3.793470859527587891e+00,5.500712203979492188e+01,-2.090458106994628906e+01,-9.345405578613281250e+01,-1.180766754150390625e+02,6.585875701904296875e+01,-2.980392074584960938e+01
2.878330051898956299e-01,1.000000000000000000e+00,-3.594460678100585938e+01,4.645245742797851562e+01,3.073570442199707031e+01,1.073390884399414062e+02,9.611715698242187500e+01,-3.815036296844482422e+00,5.500712203979492188e+01,-2.090448951721191406e+01,-9.345405578613281250e+01,-1.180766754150390625e+02,6.585875701904296875e+01,-2.980402946472167969e+01
2.925589978694915771e-01,1.000000000000000000e+00,-3.598321914672851562e+01,4.637502288818359375e+01,3.075650215148925781e+01,1.072691345214843750e+02,9.613538360595703125e+01,-3.836466550827026367e+00,5.500723266601562500e+01,-2.090458106994628906e+01,-9.345405578613281250e+01,-1.180766754150390625e+02,6.585875701904296875e+01,-2.980392074584960938e+01
2.957360148429870605e-01,1.000000000000000000e+00,-3.602188491821289062e+01,4.629726409912109375e+01,3.077762794494628906e+01,1.071979217529296875e+02,9.615361785888671875e+01,-3.858100175857543945e+00,5.500723266601562500e+01,-2.090458106994628906e+01,-9.345405578613281250e+01,-1.180766754150390625e+02,6.585875701904296875e+01,-2.980402946472167969e+01
2.998169958591461182e-01,1.000000000000000000e+00,-3.606035232543945312e+01,4.621928024291992188e+01,3.079887390136718750e+01,1.071277084350585938e+02,9.617249298095703125e+01,-3.880479812622070312e+00,5.500723266601562500e+01,-2.090458106994628906e+01,-9.345405578613281250e+01,-1.180766754150390625e+02,6.585875701904296875e+01,-2.980402946472167969e+01
3.039140105247497559e-01,1.000000000000000000e+00,-3.609896469116210938e+01,4.614130020141601562e+01,3.081993865966796875e+01,1.070569686889648438e+02,9.619190216064453125e+01,-3.902587890625000000e+00,5.500723266601562500e+01,-2.090458106994628906e+01,-9.345405578613281250e+01,-1.180766754150390625e+02,6.585875701904296875e+01,-2.980402946472167969e+01
3.078519999980926514e-01,1.000000000000000000e+00,-3.613731384277343750e+01,4.606356430053710938e+01,3.084079742431640625e+01,1.069865875244140625e+02,9.621056365966796875e+01,-3.924289464950561523e+00,5.500723266601562500e+01,-2.090458106994628906e+01,-9.345405578613281250e+01,-1.180766754150390625e+02,6.585875701904296875e+01,-2.980402946472167969e+01
3.118210136890411377e-01,1.000000000000000000e+00,-3.617627334594726562e+01,4.598556137084960938e+01,3.086161994934082031e+01,1.069151687622070312e+02,9.622831726074218750e+01,-3.945041418075561523e+00,5.500723266601562500e+01,-2.090458106994628906e+01,-9.345405578613281250e+01,-1.180766754150390625e+02,6.585875701904296875e+01,-2.980402946472167969e+01
3.166100084781646729e-01,1.000000000000000000e+00,-3.621505355834960938e+01,4.590766525268554688e+01,3.088245773315429688e+01,1.068447418212890625e+02,9.624623107910156250e+01,-3.965928792953491211e+00,5.500723266601562500e+01,-2.090448951721191406e+01,-9.345405578613281250e+01,-1.180766754150390625e+02,6.585875701904296875e+01,-2.980402946472167969e+01
3.199099898338317871e-01,1.000000000000000000e+00,-3.625403976440429688e+01,4.582991027832031250e+01,3.090364265441894531e+01,1.067729492187500000e+02,9.626451873779296875e+01,-3.987087965011596680e+00,5.500723266601562500e+01,-2.090458106994628906e+01,-9.345405578613281250e+01,-1.180766754150390625e+02,6.585875701904296875e+01,-2.980402946472167969e+01
3.238539993762969971e-01,1.000000000000000000e+00,-3.629319381713867188e+01,4.575199508666992188e+01,3.092472648620605469e+01,1.067026748657226562e+02,9.628275299072265625e+01,-4.008450031280517578e+00,5.500723266601562500e+01,-2.090448951721191406e+01,-9.345405578613281250e+01,-1.180766754150390625e+02,6.585875701904296875e+01,-2.980402946472167969e+01
3.281010091304779053e-01,1.000000000000000000e+00,-3.633243560791015625e+01,4.567369842529296875e+01,3.094573020935058594e+01,1.066314086914062500e+02,9.630114746093750000e+01,-4.030151367187500000e+00,5.500723266601562500e+01,-2.090458106994628906e+01,-9.345405578613281250e+01,-1.180766754150390625e+02,6.585875701904296875e+01,-2.980402946472167969e+01
3.320580124855041504e-01,1.000000000000000000e+00,-3.637170791625976562e+01,4.559548950195312500e+01,3.096675300598144531e+01,1.065605621337890625e+02,9.632028198242187500e+01,-4.052056312561035156e+00,5.500723266601562500e+01,-2.090458106994628906e+01,-9.345405578613281250e+01,-1.180766754150390625e+02,6.585875701904296875e+01,-2.980392074584960938e+01
3.345730006694793701e-01,1.000000000000000000e+00,-3.641117858886718750e+01,4.551739120483398438e+01,3.098773574829101562e+01,1.064893493652343750e+02,9.633953094482421875e+01,-4.074368000030517578e+00,5.500723266601562500e+01,-2.090458106994628906e+01,-9.345405578613281250e+01,-1.180765380859375000e+02,6.585875701904296875e+01,-2.980402946472167969e+01
3.408409953117370605e-01,1.000000000000000000e+00,-3.645067977905273438e+01,4.543904495239257812e+01,3.100894355773925781e+01,1.064181900024414062e+02,9.635819244384765625e+01,-4.096815586090087891e+00,5.500723266601562500e+01,-2.090458106994628906e+01,-9.345405578613281250e+01,-1.180766754150390625e+02,6.585875701904296875e+01,-2.980392074584960938e+01
3.440859913825988770e-01,1.000000000000000000e+00,-3.649049758911132812e+01,4.536058807373046875e+01,3.103010559082031250e+01,1.063475494384765625e+02,9.637610626220703125e+01,-4.117974281311035156e+00,5.500723266601562500e+01,-2.090458106994628906e+01,-9.345405578613281250e+01,-1.180766754150390625e+02,6.585860443115234375e+01,-2.980392074584960938e+01
3.481130003929138184e-01,1.000000000000000000e+00,-3.653019714355468750e+01,4.528210830688476562e+01,3.105113029479980469e+01,1.062764434814453125e+02,9.639408111572265625e+01,-4.138997554779052734e+00,5.500734329223632812e+01,-2.090448951721191406e+01,-9.345405578613281250e+01,-1.180766754150390625e+02,6.585875701904296875e+01,-2.980402946472167969e+01
3.505930006504058838e-01,1.000000000000000000e+00,-3.656983947753906250e+01,4.520398712158203125e+01,3.107207107543945312e+01,1.062050170898437500e+02,9.641209411621093750e+01,-4.160427570343017578e+00,5.500723266601562500e+01,-2.090448951721191406e+01,-9.345405578613281250e+01,-1.180768966674804688e+02,6.585875701904296875e+01,-2.980392074584960938e+01
3.561930060386657715e-01,1.000000000000000000e+00,-3.660960388183593750e+01,4.512600326538085938e+01,3.109319686889648438e+01,1.061341094970703125e+02,9.643033599853515625e+01,-4.182129383087158203e+00,5.500723266601562500e+01,-2.090458106994628906e+01,-9.345405578613281250e+01,-1.180766754150390625e+02,6.585875701904296875e+01,-2.980392074584960938e+01
3.601750135421752930e-01,1.000000000000000000e+00,-3.664961624145507812e+01,4.504748153686523438e+01,3.111436271667480469e+01,1.060625839233398438e+02,9.644866943359375000e+01,-4.203559398651123047e+00,5.500712203979492188e+01,-2.090458106994628906e+01,-9.345405578613281250e+01,-1.180766754150390625e+02,6.585875701904296875e+01,-2.980402946472167969e+01
3.650439977645874023e-01,1.000000000000000000e+00,-3.668980789184570312e+01,4.496909332275390625e+01,3.113566970825195312e+01,1.059914703369140625e+02,9.646813201904296875e+01,-4.225328445434570312e+00,5.500712203979492188e+01,-2.090458106994628906e+01,-9.345405578613281250e+01,-1.180768966674804688e+02,6.585875701904296875e+01,-2.980402946472167969e+01
3.665620088577270508e-01,1.000000000000000000e+00,-3.672967910766601562e+01,4.489088439941406250e+01,3.115683746337890625e+01,1.059194641113281250e+02,9.648732757568359375e+01,-4.247707843780517578e+00,5.500723266601562500e+01,-2.090448951721191406e+01,-9.345394897460937500e+01,-1.180765380859375000e+02,6.585875701904296875e+01,-2.980402946472167969e+01
3.722839951515197754e-01,1.000000000000000000e+00,-3.676981353759765625e+01,4.481238174438476562e+01,3.117782020568847656e+01,1.058485183715820312e+02,9.650588226318359375e+01,-4.269816398620605469e+00,5.500712203979492188e+01,-2.090458106994628906e+01,-9.345405578613281250e+01,-1.180766754150390625e+02,6.585875701904296875e+01,-2.980402946472167969e+01
3.771989941596984863e-01,1.000000000000000000e+00,-3.680997467041015625e+01,4.473360443115234375e+01,3.119886016845703125e+01,1.057766647338867188e+02,9.652379608154296875e+01,-4.291314125061035156e+00,5.500723266601562500e+01,-2.090458106994628906e+01,-9.345405578613281250e+01,-1.180766754150390625e+02,6.585875701904296875e+01,-2.980402946472167969e+01
3.803760111331939697e-01,1.000000000000000000e+00,-3.684990692138671875e+01,4.465471649169921875e+01,3.122012901306152344e+01,1.057056579589843750e+02,9.654192352294921875e+01,-4.313083648681640625e+00,5.500723266601562500e+01,-2.090448951721191406e+01,-9.345405578613281250e+01,-1.180766754150390625e+02,6.585875701904296875e+01,-2.980402946472167969e+01
3.845590054988861084e-01,1.000000000000000000e+00,-3.689001083374023438e+01,4.457628250122070312e+01,3.124147605895996094e+01,1.056339721679687500e+02,9.656021118164062500e+01,-4.334377765655517578e+00,5.500712203979492188e+01,-2.090458106994628906e+01,-9.345405578613281250e+01,-1.180766754150390625e+02,6.585875701904296875e+01,-2.980402946472167969e+01
3.893130123615264893e-01,1.000000000000000000e+00,-3.693019866943359375e+01,4.449771118164062500e+01,3.126258277893066406e+01,1.055628662109375000e+02,9.657849121093750000e+01,-4.356079101562500000e+00,5.500723266601562500e+01,-2.090458106994628906e+01,-9.345394897460937500e+01,-1.180766754150390625e+02,6.585889434814453125e+01,-2.980392074584960938e+01
3.925920128822326660e-01,1.000000000000000000e+00,-3.697018814086914062e+01,4.441895675659179688e+01,3.128392982482910156e+01,1.054910736083984375e+02,9.659737396240234375e+01,-4.377645015716552734e+00,5.500723266601562500e+01,-2.090458106994628906e+01,-9.345405578613281250e+01,-1.180766754150390625e+02,6.585875701904296875e+01,-2.980402946472167969e+01
3.964410126209259033e-01,1.000000000000000000e+00,-3.701026153564453125e+01,4.434045410156250000e+01,3.130493354797363281e+01,1.054198074340820312e+02,9.661672210693359375e+01,-4.399549961090087891e+00,5.500723266601562500e+01,-2.090458106994628906e+01,-9.345405578613281250e+01,-1.180766754150390625e+02,6.585875701904296875e+01,-2.980402946472167969e+01
4.013369977474212646e-01,1.000000000000000000e+00,-3.705019378662109375e+01,4.426192855834960938e+01,3.132625961303710938e+01,1.053479614257812500e+02,9.663613128662109375e+01,-4.421725749969482422e+00,5.500723266601562500e+01,-2.090458106994628906e+01,-9.345405578613281250e+01,-1.180766754150390625e+02,6.585875701904296875e+01,-2.980392074584960938e+01
4.046210050582885742e-01,1.000000000000000000e+00,-3.709015274047851562e+01,4.418306350708007812e+01,3.134764862060546875e+01,1.052767410278320312e+02,9.665463256835937500e+01,-4.444580078125000000e+00,5.500723266601562500e+01,-2.090458106994628906e+01,-9.345405578613281250e+01,-1.180766754150390625e+02,6.585875701904296875e+01,-2.980402946472167969e+01
4.086099863052368164e-01,1.000000000000000000e+00,-3.713005447387695312e+01,4.410406112670898438e+01,3.136883544921875000e+01,1.052046279907226562e+02,9.667281341552734375e+01,-4.466756343841552734e+00,5.500734329223632812e+01,-2.090448951721191406e+01,-9.345405578613281250e+01,-1.180766754150390625e+02,6.585875701904296875e+01,-2.980402946472167969e+01
4.135279953479766846e-01,1.000000000000000000e+00,-3.717001724243164062e+01,4.402487945556640625e+01,3.139010238647460938e+01,1.051332550048828125e+02,9.669094085693359375e+01,-4.488525390625000000e+00,5.500723266601562500e+01,-2.090458106994628906e+01,-9.345405578613281250e+01,-1.180766754150390625e+02,6.585875701904296875e+01,-2.980392074584960938e+01
4.167230129241943359e-01,1.000000000000000000e+00,-3.720997619628906250e+01,4.394554138183593750e+01,3.141137123107910156e+01,1.050611419677734375e+02,9.670896148681640625e+01,-4.510023593902587891e+00,5.500723266601562500e+01,-2.090458106994628906e+01,-9.345405578613281250e+01,-1.180766754150390625e+02,6.585875701904296875e+01,-2.980402946472167969e+01
4.207260012626647949e-01,1.000000000000000000e+00,-3.724970245361328125e+01,4.386626434326171875e+01,3.143276023864746094e+01,1.049889831542968750e+02,9.672767639160156250e+01,-4.531453609466552734e+00,5.500723266601562500e+01,-2.090458106994628906e+01,-9.345405578613281250e+01,-1.180766754150390625e+02,6.585875701904296875e+01,-2.980402946472167969e+01
4.249970018863677979e-01,1.000000000000000000e+00,-3.728963851928710938e+01,4.378722000122070312e+01,3.145423126220703125e+01,1.049173431396484375e+02,9.674649810791015625e+01,-4.553086757659912109e+00,5.500734329223632812e+01,-2.090458106994628906e+01,-9.345405578613281250e+01,-1.180766754150390625e+02,6.585875701904296875e+01,-2.980392074584960938e+01
4.287750124931335449e-01,1.000000000000000000e+00,-3.732971191406250000e+01,4.370803833007812500e+01,3.147553634643554688e+01,1.048455505371093750e+02,9.676606750488281250e+01,-4.574924468994140625e+00,5.500723266601562500e+01,-2.090448951721191406e+01,-9.345405578613281250e+01,-1.180766754150390625e+02,6.585875701904296875e+01,-2.980392074584960938e+01
4.328500032424926758e-01,1.000000000000000000e+00,-3.736964035034179688e+01,4.362901687622070312e+01,3.149676132202148438e+01,1.047737579345703125e+02,9.678530883789062500e+01,-4.597236156463623047e+00,5.500723266601562500e+01,-2.090458106994628906e+01,-9.345405578613281250e+01,-1.180766754150390625e+02,6.585875701904296875e+01,-2.980402946472167969e+01
4.375270009040832520e-01,1.000000000000000000e+00,-3.740966033935546875e+01,4.354960632324218750e+01,3.151799011230468750e+01,1.047018585205078125e+02,9.680381011962890625e+01,-4.619683265686035156e+00,5.500723266601562500e+01,-2.090458106994628906e+01,-9.345405578613281250e+01,-1.180766754150390625e+02,6.585875701904296875e+01,-2.980424880981445312e+01
4.407089948654174805e-01,1.000000000000000000e+00,-3.744976425170898438e+01,4.347042465209960938e+01,3.153921508789062500e+01,1.046298980712890625e+02,9.682177734375000000e+01,-4.642469882965087891e+00,5.500723266601562500e+01,-2.090458106994628906e+01,-9.345405578613281250e+01,-1.180766754150390625e+02,6.585889434814453125e+01,-2.980392074584960938e+01
4.435859918594360352e-01,1.000000000000000000e+00,-3.748983764648437500e+01,4.339126205444335938e+01,3.156066513061523438e+01,1.045580520629882812e+02,9.684011840820312500e+01,-4.664374828338623047e+00,5.500723266601562500e+01,-2.090458106994628906e+01,-9.345405578613281250e+01,-1.180766754150390625e+02,6.585875701904296875e+01,-2.980402946472167969e+01
4.475649893283843994e-01,1.000000000000000000e+00,-3.752988433837890625e+01,4.331165313720703125e+01,3.158223915100097656e+01,1.044857330322265625e+02,9.685851287841796875e+01,-4.685398101806640625e+00,5.500712203979492188e+01,-2.090458106994628906e+01,-9.345405578613281250e+01,-1.180766754150390625e+02,6.585875701904296875e+01,-2.980402946472167969e+01
4.515779912471771240e-01,1.000000000000000000e+00,-3.756990051269531250e+01,4.323199844360351562e+01,3.160364723205566406e+01,1.044139938354492188e+02,9.687728118896484375e+01,-4.706895351409912109e+00,5.500734329223632812e+01,-2.090458106994628906e+01,-9.345405578613281250e+01,-1.180766754150390625e+02,6.585875701904296875e+01,-2.980402946472167969e+01
4.556019902229309082e-01,1.000000000000000000e+00,-3.760988998413085938e+01,4.315220260620117188e+01,3.162505722045898438e+01,1.043416213989257812e+02,9.689653015136718750e+01,-4.728868484497070312e+00,5.500723266601562500e+01,-2.090458106994628906e+01,-9.345405578613281250e+01,-1.180766754150390625e+02,6.585875701904296875e+01,-2.980402946472167969e+01
4.595629870891571045e-01,1.000000000000000000e+00,-3.764999389648437500e+01,4.307261276245117188e+01,3.164644622802734375e+01,1.042696151733398438e+02,9.691603851318359375e+01,-4.750705242156982422e+00,5.500712203979492188e+01,-2.090458106994628906e+01,-9.345405578613281250e+01,-1.180766754150390625e+02,6.585875701904296875e+01,-2.980402946472167969e+01
4.636070132255554199e-01,1.000000000000000000e+00,-3.768995285034179688e+01,4.299302291870117188e+01,3.166799736022949219e+01,1.041968765258789062e+02,9.693523406982421875e+01,-4.772677898406982422e+00,5.500723266601562500e+01,-2.090458106994628906e+01,-9.345405578613281250e+01,-1.180766754150390625e+02,6.585875701904296875e+01,-2.980402946472167969e+01
4.676040112972259521e-01,1.000000000000000000e+00,-3.773002624511718750e+01,4.291365814208984375e+01,3.168960952758789062e+01,1.041247024536132812e+02,9.695378875732421875e+01,-4.795057296752929688e+00,5.500723266601562500e+01,-2.090458106994628906e+01,-9.345394897460937500e+01,-1.180766754150390625e+02,6.585875701904296875e+01,-2.980392074584960938e+01
4.715659916400909424e-01,1.000000000000000000e+00,-3.777021789550781250e+01,4.283456802368164062e+01,3.171087837219238281e+01,1.040519104003906250e+02,9.697170257568359375e+01,-4.817640781402587891e+00,5.500723266601562500e+01,-2.090458106994628906e+01,-9.345405578613281250e+01,-1.180766754150390625e+02,6.585875701904296875e+01,-2.980392074584960938e+01
4.755449891090393066e-01,1.000000000000000000e+00,-3.781069564819335938e+01,4.275531768798828125e+01,3.173210334777832031e+01,1.039799041748046875e+02,9.699004364013671875e+01,-4.839952468872070312e+00,5.500723266601562500e+01,-2.090458106994628906e+01,-9.345405578613281250e+01,-1.180766754150390625e+02,6.585875701904296875e+01,-2.980392074584960938e+01
4.796209931373596191e-01,1.000000000000000000e+00,-3.785082626342773438e+01,4.267595291137695312e+01,3.175351142883300781e+01,1.039074249267578125e+02,9.700849151611328125e+01,-4.861789226531982422e+00,5.500723266601562500e+01,-2.090458106994628906e+01,-9.345405578613281250e+01,-1.180766754150390625e+02,6.585875701904296875e+01,-2.980402946472167969e+01
4.836030006408691406e-01,1.000000000000000000e+00,-3.789115905761718750e+01,4.259607315063476562e+01,3.177512550354003906e+01,1.038352584838867188e+02,9.702742004394531250e+01,-4.883151531219482422e+00,5.500712203979492188e+01,-2.090458106994628906e+01,-9.345405578613281250e+01,-1.180766754150390625e+02,6.585875701904296875e+01,-2.980402946472167969e+01
4.875659942626953125e-01,1.000000000000000000e+00,-3.793169403076171875e+01,4.251614379882812500e+01,3.179685974121093750e+01,1.037624664306640625e+02,9.704666900634765625e+01,-4.904921054840087891e+00,5.500734329223632812e+01,-2.090458106994628906e+01,-9.345405578613281250e+01,-1.180766754150390625e+02,6.585875701904296875e+01,-2.980402946472167969e+01
4.916299879550933838e-01,1.000000000000000000e+00,-3.797202682495117188e+01,4.243589782714843750e+01,3.181851577758789062e+01,1.036903076171875000e+02,9.706623077392578125e+01,-4.926758289337158203e+00,5.500723266601562500e+01,-2.090458106994628906e+01,-9.345405578613281250e+01,-1.180766754150390625e+02,6.585875701904296875e+01,-2.980392074584960938e+01
4.956029951572418213e-01,1.000000000000000000e+00,-3.801210021972656250e+01,4.235556030273437500e+01,3.183986282348632812e+01,1.036174545288085938e+02,9.708543395996093750e+01,-4.948934078216552734e+00,5.500723266601562500e+01,-2.090458106994628906e+01,-9.345405578613281250e+01,-1.180766754150390625e+02,6.585875701904296875e+01,-2.980402946472167969e+01
5.010750293731689453e-01,1.000000000000000000e+00,-3.805231857299804688e+01,4.227558517456054688e+01,3.186116981506347656e+01,1.035454483032226562e+02,9.710350036621093750e+01,-4.971245765686035156e+00,5.500723266601562500e+01,-2.090458106994628906e+01,-9.345405578613281250e+01,-1.180766754150390625e+02,6.585875701904296875e+01,-2.980402946472167969e+01
5.035390257835388184e-01,1.000000000000000000e+00,-3.809279632568359375e+01,4.219565963745117188e+01,3.188274192810058594e+01,1.034719161987304688e+02,9.712184143066406250e+01,-4.994167804718017578e+00,5.500723266601562500e+01,-2.090458106994628906e+01,-9.345394897460937500e+01,-1.180766754150390625e+02,6.585875701904296875e+01,-2.980402946472167969e+01
5.076289772987365723e-01,1.000000000000000000e+00,-3.813315963745117188e+01,4.211606979370117188e+01,3.190445518493652344e+01,1.033995971679687500e+02,9.714066314697265625e+01,-5.016819000244140625e+00,5.500712203979492188e+01,-2.090458106994628906e+01,-9.345405578613281250e+01,-1.180766754150390625e+02,6.585875701904296875e+01,-2.980402946472167969e+01
5.115399956703186035e-01,1.000000000000000000e+00,-3.817349243164062500e+01,4.203629684448242188e+01,3.192605018615722656e+01,1.033263778686523438e+02,9.715927124023437500e+01,-5.038723468780517578e+00,5.500723266601562500e+01,-2.090458106994628906e+01,-9.345405578613281250e+01,-1.180766754150390625e+02,6.585875701904296875e+01,-2.980392074584960938e+01
5.155599713325500488e-01,1.000000000000000000e+00,-3.821399688720703125e+01,4.195630264282226562e+01,3.194761848449707031e+01,1.032539520263671875e+02,9.717814636230468750e+01,-5.060085773468017578e+00,5.500723266601562500e+01,-2.090458106994628906e+01,-9.345405578613281250e+01,-1.180766754150390625e+02,6.585889434814453125e+01,-2.980402946472167969e+01
5.196999907493591309e-01,1.000000000000000000e+00,-3.825441360473632812e+01,4.187610244750976562e+01,3.196904945373535156e+01,1.031808929443359375e+02,9.719781494140625000e+01,-5.081854820251464844e+00,5.500723266601562500e+01,-2.090458106994628906e+01,-9.345405578613281250e+01,-1.180766754150390625e+02,6.585889434814453125e+01,-2.980402946472167969e+01
5.235869884490966797e-01,1.000000000000000000e+00,-3.829483413696289062e+01,4.179542541503906250e+01,3.199058151245117188e+01,1.031081008911132812e+02,9.721759796142578125e+01,-5.103895664215087891e+00,5.500723266601562500e+01,-2.090458106994628906e+01,-9.345405578613281250e+01,-1.180766754150390625e+02,6.585875701904296875e+01,-2.980402946472167969e+01
5.275359749794006348e-01,1.000000000000000000e+00,-3.833533859252929688e+01,4.171452331542968750e+01,3.201239776611328125e+01,1.030350341796875000e+02,9.723674011230468750e+01,-5.126071453094482422e+00,5.500723266601562500e+01,-2.090458106994628906e+01,-9.345405578613281250e+01,-1.180766754150390625e+02,6.585875701904296875e+01,-2.980402946472167969e+01
5.315579771995544434e-01,1.000000000000000000e+00,-3.837584686279296875e+01,4.163364410400390625e+01,3.203413391113281250e+01,1.029622421264648438e+02,9.725481414794921875e+01,-5.148247718811035156e+00,5.500723266601562500e+01,-2.090458106994628906e+01,-9.345405578613281250e+01,-1.180766754150390625e+02,6.585875701904296875e+01,-2.980392074584960938e+01
5.355749726295471191e-01,1.000000000000000000e+00,-3.841635131835937500e+01,4.155290222167968750e+01,3.205580520629882812e+01,1.028892898559570312e+02,9.727320861816406250e+01,-5.170898437500000000e+00,5.500723266601562500e+01,-2.090458106994628906e+01,-9.345405578613281250e+01,-1.180766754150390625e+02,6.585875701904296875e+01,-2.980402946472167969e+01
5.395870208740234375e-01,1.000000000000000000e+00,-3.845665740966796875e+01,4.147240829467773438e+01,3.207729721069335938e+01,1.028163375854492188e+02,9.729170989990234375e+01,-5.194024085998535156e+00,5.500734329223632812e+01,-2.090458106994628906e+01,-9.345405578613281250e+01,-1.180766754150390625e+02,6.585875701904296875e+01,-2.980402946472167969e+01
5.435590147972106934e-01,1.000000000000000000e+00,-3.849704742431640625e+01,4.139215850830078125e+01,3.209899139404296875e+01,1.027432250976562500e+02,9.731047058105468750e+01,-5.216471672058105469e+00,5.500723266601562500e+01,-2.090448951721191406e+01,-9.345405578613281250e+01,-1.180766754150390625e+02,6.585875701904296875e+01,-2.980402946472167969e+01
5.476099848747253418e-01,1.000000000000000000e+00,-3.853760910034179688e+01,4.131207275390625000e+01,3.212084579467773438e+01,1.026703720092773438e+02,9.732971954345703125e+01,-5.238376617431640625e+00,5.500723266601562500e+01,-2.090458106994628906e+01,-9.345405578613281250e+01,-1.180766754150390625e+02,6.585875701904296875e+01,-2.980402946472167969e+01
5.516089797019958496e-01,1.000000000000000000e+00,-3.857825851440429688e+01,4.123164749145507812e+01,3.214256286621093750e+01,1.025970001220703125e+02,9.734939575195312500e+01,-5.259873867034912109e+00,5.500723266601562500e+01,-2.090458106994628906e+01,-9.345405578613281250e+01,-1.180766754150390625e+02,6.585875701904296875e+01,-2.980392074584960938e+01
5.556120276451110840e-01,1.000000000000000000e+00,-3.861859130859375000e+01,4.115083312988281250e+01,3.216427612304687500e+01,1.025237808227539062e+02,9.736906433105468750e+01,-5.282253742218017578e+00,5.500723266601562500e+01,-2.090448951721191406e+01,-9.345405578613281250e+01,-1.180766754150390625e+02,6.585889434814453125e+01,-2.980392074584960938e+01
5.595809817314147949e-01,1.000000000000000000e+00,-3.865895462036132812e+01,4.106995391845703125e+01,3.218590927124023438e+01,1.024497756958007812e+02,9.738784027099609375e+01,-5.304769039154052734e+00,5.500723266601562500e+01,-2.090458106994628906e+01,-9.345405578613281250e+01,-1.180766754150390625e+02,6.585875701904296875e+01,-2.980392074584960938e+01
5.636249780654907227e-01,1.000000000000000000e+00,-3.869965744018554688e+01,4.098887252807617188e+01,3.220752334594726562e+01,1.023770370483398438e+02,9.740628814697265625e+01,-5.327216148376464844e+00,5.500723266601562500e+01,-2.090458106994628906e+01,-9.345405578613281250e+01,-1.180766754150390625e+02,6.585875701904296875e+01,-2.980402946472167969e+01
5.675879716873168945e-01,1.000000000000000000e+00,-3.874030685424804688e+01,4.090767669677734375e+01,3.222940063476562500e+01,1.023033905029296875e+02,9.742473602294921875e+01,-5.349596023559570312e+00,5.500723266601562500e+01,-2.090458106994628906e+01,-9.345394897460937500e+01,-1.180765380859375000e+02,6.585875701904296875e+01,-2.980402946472167969e+01
5.725920200347900391e-01,1.000000000000000000e+00,-3.878092575073242188e+01,4.082641220092773438e+01,3.225135803222656250e+01,1.022301788330078125e+02,9.744333648681640625e+01,-5.372653961181640625e+00,5.500723266601562500e+01,-2.090458106994628906e+01,-9.345405578613281250e+01,-1.180766754150390625e+02,6.585875701904296875e+01,-2.980402946472167969e+01
5.755760073661804199e-01,1.000000000000000000e+00,-3.882154464721679688e+01,4.074548721313476562e+01,3.227323532104492188e+01,1.021566467285156250e+02,9.746247863769531250e+01,-5.395372390747070312e+00,5.500712203979492188e+01,-2.090448951721191406e+01,-9.345405578613281250e+01,-1.180766754150390625e+02,6.585875701904296875e+01,-2.980402946472167969e+01
5.805670022964477539e-01,1.000000000000000000e+00,-3.886239624023437500e+01,4.066514968872070312e+01,3.229507064819335938e+01,1.020835876464843750e+02,9.748204803466796875e+01,-5.417006015777587891e+00,5.500723266601562500e+01,-2.090467262268066406e+01,-9.345405578613281250e+01,-1.180765380859375000e+02,6.585875701904296875e+01,-2.980402946472167969e+01
5.839819908142089844e-01,1.000000000000000000e+00,-3.890316009521484375e+01,4.058445358276367188e+01,3.231674194335937500e+01,1.020100021362304688e+02,9.750214385986328125e+01,-5.439046382904052734e+00,5.500723266601562500e+01,-2.090458106994628906e+01,-9.345405578613281250e+01,-1.180766754150390625e+02,6.585875701904296875e+01,-2.980402946472167969e+01
5.876039862632751465e-01,1.000000000000000000e+00,-3.894415283203125000e+01,4.050398254394531250e+01,3.233855819702148438e+01,1.019367828369140625e+02,9.752171325683593750e+01,-5.461561679840087891e+00,5.500712203979492188e+01,-2.090448951721191406e+01,-9.345405578613281250e+01,-1.180766754150390625e+02,6.585875701904296875e+01,-2.980402946472167969e+01
5.941269993782043457e-01,1.000000000000000000e+00,-3.894415283203125000e+01,4.050398254394531250e+01,3.233855819702148438e+01,1.019367828369140625e+02,9.752171325683593750e+01,-5.461561679840087891e+00,5.500723266601562500e+01,-2.090458106994628906e+01,-9.345405578613281250e+01,-1.180766754150390625e+02,6.585875701904296875e+01,-2.980402946472167969e+01
5.964030027389526367e-01,1.000000000000000000e+00,-3.902634048461914062e+01,4.034177017211914062e+01,3.238225555419921875e+01,1.017895584106445312e+02,9.755866241455078125e+01,-5.506524085998535156e+00,5.500723266601562500e+01,-2.090458106994628906e+01,-9.345405578613281250e+01,-1.180766754150390625e+02,6.585875701904296875e+01,-2.980402946472167969e+01
5.995979905128479004e-01,1.000000000000000000e+00,-3.906742095947265625e+01,4.026021194458007812e+01,3.240401077270507812e+01,1.017157669067382812e+02,9.757716369628906250e+01,-5.529174804687500000e+00,5.500712203979492188e+01,-2.090458106994628906e+01,-9.345422363281250000e+01,-1.180766754150390625e+02,6.585875701904296875e+01,-2.980424880981445312e+01
6.045749783515930176e-01,1.000000000000000000e+00,-3.906742095947265625e+01,4.026021194458007812e+01,3.240401077270507812e+01,1.017157669067382812e+02,9.757716369628906250e+01,-5.529174804687500000e+00,5.500712203979492188e+01,-2.090458106994628906e+01,-9.345422363281250000e+01,-1.180766754150390625e+02,6.585875701904296875e+01,-2.980424880981445312e+01
6.079829931259155273e-01,1.000000000000000000e+00,-3.914952087402343750e+01,4.009666824340820312e+01,3.244784545898437500e+01,1.015678024291992188e+02,9.761539459228515625e+01,-5.575629711151123047e+00,5.500723266601562500e+01,-2.090448951721191406e+01,-9.345405578613281250e+01,-1.180766754150390625e+02,6.585875701904296875e+01,-2.980402946472167969e+01
6.115490198135375977e-01,1.000000000000000000e+00,-3.919080352783203125e+01,4.001524353027343750e+01,3.246977996826171875e+01,1.014943237304687500e+02,9.763495635986328125e+01,-5.598009109497070312e+00,5.500723266601562500e+01,-2.090448951721191406e+01,-9.345405578613281250e+01,-1.180766754150390625e+02,6.585875701904296875e+01,-2.980402946472167969e+01
6.156529784202575684e-01,1.000000000000000000e+00,-3.919080352783203125e+01,4.001524353027343750e+01,3.246977996826171875e+01,1.014943237304687500e+02,9.763495635986328125e+01,-5.598009109497070312e+00,5.500723266601562500e+01,-2.090448951721191406e+01,-9.345405578613281250e+01,-1.180766754150390625e+02,6.585875701904296875e+01,-2.980402946472167969e+01
6.196449995040893555e-01,1.000000000000000000e+00,-3.923217010498046875e+01,3.993408966064453125e+01,3.249169921875000000e+01,1.014202117919921875e+02,9.765510559082031250e+01,-5.619642734527587891e+00,5.500734329223632812e+01,-2.090458106994628906e+01,-9.345405578613281250e+01,-1.180766754150390625e+02,6.585875701904296875e+01,-2.980402946472167969e+01
6.246820092201232910e-01,1.000000000000000000e+00,-3.927339172363281250e+01,3.985339355468750000e+01,3.251341629028320312e+01,1.013466796875000000e+02,9.767456817626953125e+01,-5.641818523406982422e+00,5.500723266601562500e+01,-2.090458106994628906e+01,-9.345405578613281250e+01,-1.180766754150390625e+02,6.585875701904296875e+01,-2.980402946472167969e+01
6.276450157165527344e-01,1.000000000000000000e+00,-3.935615539550781250e+01,3.969108963012695312e+01,3.255706787109375000e+01,1.011991348266601562e+02,9.771162414550781250e+01,-5.686849117279052734e+00,5.500723266601562500e+01,-2.090458106994628906e+01,-9.345405578613281250e+01,-1.180766754150390625e+02,6.585875701904296875e+01,-2.980392074584960938e+01
6.316090226173400879e-01,1.000000000000000000e+00,-3.935615539550781250e+01,3.969108963012695312e+01,3.255706787109375000e+01,1.011991348266601562e+02,9.771162414550781250e+01,-5.686849117279052734e+00,5.500723266601562500e+01,-2.090458106994628906e+01,-9.345405578613281250e+01,-1.180766754150390625e+02,6.585875701904296875e+01,-2.980392074584960938e+01
6.355900168418884277e-01,1.000000000000000000e+00,-3.939763641357421875e+01,3.960924148559570312e+01,3.257908248901367188e+01,1.011250762939453125e+02,9.773049926757812500e+01,-5.709771156311035156e+00,5.500734329223632812e+01,-2.090458106994628906e+01,-9.345405578613281250e+01,-1.180766754150390625e+02,6.585875701904296875e+01,-2.980392074584960938e+01
6.396999955177307129e-01,1.000000000000000000e+00,-3.943900299072265625e+01,3.952727508544921875e+01,3.260112380981445312e+01,1.010508575439453125e+02,9.774980163574218750e+01,-5.733167648315429688e+00,5.500723266601562500e+01,-2.090458106994628906e+01,-9.345405578613281250e+01,-1.180766754150390625e+02,6.585875701904296875e+01,-2.980402946472167969e+01
6.439880132675170898e-01,1.000000000000000000e+00,-3.948042678833007812e+01,3.944521713256835938e+01,3.262320709228515625e+01,1.009767990112304688e+02,9.776926422119140625e+01,-5.756225585937500000e+00,5.500723266601562500e+01,-2.090458106994628906e+01,-9.345405578613281250e+01,-1.180766754150390625e+02,6.585875701904296875e+01,-2.980402946472167969e+01
6.485509872436523438e-01,1.000000000000000000e+00,-3.952182006835937500e+01,3.936295700073242188e+01,3.264522552490234375e+01,1.009027404785156250e+02,9.778925323486328125e+01,-5.779012203216552734e+00,5.500712203979492188e+01,-2.090458106994628906e+01,-9.345405578613281250e+01,-1.180766754150390625e+02,6.585875701904296875e+01,-2.980392074584960938e+01
6.515449881553649902e-01,1.000000000000000000e+00,-3.960466766357421875e+01,3.919997406005859375e+01,3.268932342529296875e+01,1.007541503906250000e+02,9.782822418212890625e+01,-5.822686195373535156e+00,5.500723266601562500e+01,-2.090458106994628906e+01,-9.345405578613281250e+01,-1.180766754150390625e+02,6.585875701904296875e+01,-2.980392074584960938e+01
6.556800007820129395e-01,1.000000000000000000e+00,-3.960466766357421875e+01,3.919997406005859375e+01,3.268932342529296875e+01,1.007541503906250000e+02,9.782822418212890625e+01,-5.822686195373535156e+00,5.500723266601562500e+01,-2.090458106994628906e+01,-9.345405578613281250e+01,-1.180766754150390625e+02,6.585875701904296875e+01,-2.980392074584960938e+01
6.595810055732727051e-01,1.000000000000000000e+00,-3.964612197875976562e+01,3.911841964721679688e+01,3.271118164062500000e+01,1.006798782348632812e+02,9.784678649902343750e+01,-5.845201492309570312e+00,5.500723266601562500e+01,-2.090458106994628906e+01,-9.345405578613281250e+01,-1.180766754150390625e+02,6.585875701904296875e+01,-2.980402946472167969e+01
6.635990142822265625e-01,1.000000000000000000e+00,-3.968766021728515625e+01,3.903701782226562500e+01,3.273309707641601562e+01,1.006051864624023438e+02,9.786528015136718750e+01,-5.868191242218017578e+00,5.500723266601562500e+01,-2.090458106994628906e+01,-9.345405578613281250e+01,-1.180766754150390625e+02,6.585875701904296875e+01,-2.980402946472167969e+01
6.684160232543945312e-01,1.000000000000000000e+00,-3.972911453247070312e+01,3.895543670654296875e+01,3.275516128540039062e+01,1.005310211181640625e+02,9.788426208496093750e+01,-5.890842437744140625e+00,5.500723266601562500e+01,-2.090458106994628906e+01,-9.345405578613281250e+01,-1.180766754150390625e+02,6.585875701904296875e+01,-2.980402946472167969e+01
6.725379824638366699e-01,1.000000000000000000e+00,-3.981207656860351562e+01,3.879092025756835938e+01,3.279956436157226562e+01,1.003824768066406250e+02,9.792328643798828125e+01,-5.937228679656982422e+00,5.500723266601562500e+01,-2.090448951721191406e+01,-9.345405578613281250e+01,-1.180766754150390625e+02,6.585889434814453125e+01,-2.980392074584960938e+01
6.755560040473937988e-01,1.000000000000000000e+00,-3.985346984863281250e+01,3.870820617675781250e+01,3.282158279418945312e+01,1.003075790405273438e+02,9.794338989257812500e+01,-5.960015296936035156e+00,5.500723266601562500e+01,-2.090458106994628906e+01,-9.345405578613281250e+01,-1.180766754150390625e+02,6.585875701904296875e+01,-2.980402946472167969e+01
6.796069741249084473e-01,1.000000000000000000e+00,-3.985346984863281250e+01,3.870820617675781250e+01,3.282158279418945312e+01,1.003075790405273438e+02,9.794338989257812500e+01,-5.960015296936035156e+00,5.500723266601562500e+01,-2.090458106994628906e+01,-9.345405578613281250e+01,-1.180766754150390625e+02,6.585875701904296875e+01,-2.980402946472167969e+01
6.836619973182678223e-01,1.000000000000000000e+00,-3.989498138427734375e+01,3.862562942504882812e+01,3.284360504150390625e+01,1.002336196899414062e+02,9.796279907226562500e+01,-5.981987953186035156e+00,5.500723266601562500e+01,-2.090458106994628906e+01,-9.345405578613281250e+01,-1.180766754150390625e+02,6.585875701904296875e+01,-2.980424880981445312e+01
6.876379847526550293e-01,1.000000000000000000e+00,-3.993640518188476562e+01,3.854330062866210938e+01,3.286568069458007812e+01,1.001588211059570312e+02,9.798135375976562500e+01,-6.003892898559570312e+00,5.500723266601562500e+01,-2.090458106994628906e+01,-9.345405578613281250e+01,-1.180766754150390625e+02,6.585875701904296875e+01,-2.980402946472167969e+01
6.923000216484069824e-01,1.000000000000000000e+00,-3.997785949707031250e+01,3.846133422851562500e+01,3.288786315917968750e+01,1.000845031738281250e+02,9.800022125244140625e+01,-6.026747226715087891e+00,5.500723266601562500e+01,-2.090458106994628906e+01,-9.345405578613281250e+01,-1.180766754150390625e+02,6.585875701904296875e+01,-2.980392074584960938e+01
6.965619921684265137e-01,1.000000000000000000e+00,-4.001948165893554688e+01,3.837966537475585938e+01,3.291012954711914062e+01,1.000092315673828125e+02,9.801947021484375000e+01,-6.049804687500000000e+00,5.500723266601562500e+01,-2.090458106994628906e+01,-9.345405578613281250e+01,-1.180766754150390625e+02,6.585875701904296875e+01,-2.980402946472167969e+01
7.005450129508972168e-01,1.000000000000000000e+00,-4.006096649169921875e+01,3.829772186279296875e+01,3.293218612670898438e+01,9.993475341796875000e+01,9.803882598876953125e+01,-6.072523593902587891e+00,5.500723266601562500e+01,-2.090458106994628906e+01,-9.345405578613281250e+01,-1.180766754150390625e+02,6.585875701904296875e+01,-2.980392074584960938e+01
7.055510282516479492e-01,1.000000000000000000e+00,-4.010250473022460938e+01,3.821557617187500000e+01,3.295425033569335938e+01,9.985926818847656250e+01,9.805834197998046875e+01,-6.095513343811035156e+00,5.500723266601562500e+01,-2.090448951721191406e+01,-9.345405578613281250e+01,-1.180766754150390625e+02,6.585875701904296875e+01,-2.980402946472167969e+01
7.082070112228393555e-01,1.000000000000000000e+00,-4.018557739257812500e+01,3.805022048950195312e+01,3.299871444702148438e+01,9.970993804931640625e+01,9.809870147705078125e+01,-6.142239570617675781e+00,5.500723266601562500e+01,-2.090458106994628906e+01,-9.345405578613281250e+01,-1.180766754150390625e+02,6.585875701904296875e+01,-2.980402946472167969e+01
7.115839719772338867e-01,1.000000000000000000e+00,-4.018557739257812500e+01,3.805022048950195312e+01,3.299871444702148438e+01,9.970993804931640625e+01,9.809870147705078125e+01,-6.142239570617675781e+00,5.500723266601562500e+01,-2.090458106994628906e+01,-9.345405578613281250e+01,-1.180766754150390625e+02,6.585875701904296875e+01,-2.980402946472167969e+01
7.163540124893188477e-01,1.000000000000000000e+00,-4.022720718383789062e+01,3.796718978881835938e+01,3.302114105224609375e+01,9.963497924804687500e+01,9.811811065673828125e+01,-6.164483070373535156e+00,5.500723266601562500e+01,-2.090448951721191406e+01,-9.345405578613281250e+01,-1.180766754150390625e+02,6.585875701904296875e+01,-2.980402946472167969e+01
7.196390032768249512e-01,1.000000000000000000e+00,-4.026897048950195312e+01,3.788402557373046875e+01,3.304334259033203125e+01,9.955971527099609375e+01,9.813666534423828125e+01,-6.186388015747070312e+00,5.500723266601562500e+01,-2.090448951721191406e+01,-9.345405578613281250e+01,-1.180766754150390625e+02,6.585875701904296875e+01,-2.980402946472167969e+01
7.236269712448120117e-01,1.000000000000000000e+00,-4.031051254272460938e+01,3.780156326293945312e+01,3.306529998779296875e+01,9.948528289794921875e+01,9.815547943115234375e+01,-6.209310054779052734e+00,5.500712203979492188e+01,-2.090458106994628906e+01,-9.345405578613281250e+01,-1.180766754150390625e+02,6.585875701904296875e+01,-2.980392074584960938e+01
7.278879880905151367e-01,1.000000000000000000e+00,-4.035219573974609375e+01,3.771921157836914062e+01,3.308739852905273438e+01,9.941027832031250000e+01,9.817462158203125000e+01,-6.231825351715087891e+00,5.500723266601562500e+01,-2.090458106994628906e+01,-9.345405578613281250e+01,-1.180766754150390625e+02,6.585875701904296875e+01,-2.980402946472167969e+01
7.316399812698364258e-01,1.000000000000000000e+00,-4.039402008056640625e+01,3.763677215576171875e+01,3.310980606079101562e+01,9.933495330810546875e+01,9.819424438476562500e+01,-6.254543781280517578e+00,5.500723266601562500e+01,-2.090458106994628906e+01,-9.345405578613281250e+01,-1.180766754150390625e+02,6.585875701904296875e+01,-2.980402946472167969e+01
7.355930209159851074e-01,1.000000000000000000e+00,-4.043587493896484375e+01,3.755448913574218750e+01,3.313217163085937500e+01,9.925994110107421875e+01,9.821428680419921875e+01,-6.278279781341552734e+00,5.500723266601562500e+01,-2.090458106994628906e+01,-9.345405578613281250e+01,-1.180766754150390625e+02,6.585875701904296875e+01,-2.980402946472167969e+01
7.403230071067810059e-01,1.000000000000000000e+00,-4.047755432128906250e+01,3.747186660766601562e+01,3.315445709228515625e+01,9.918508911132812500e+01,9.823471069335937500e+01,-6.301812171936035156e+00,5.500723266601562500e+01,-2.090448951721191406e+01,-9.345405578613281250e+01,-1.180766754150390625e+02,6.585875701904296875e+01,-2.980402946472167969e+01
7.436429858207702637e-01,1.000000000000000000e+00,-4.051932525634765625e+01,3.738885879516601562e+01,3.317651367187500000e+01,9.910977172851562500e+01,9.825417327880859375e+01,-6.325479984283447266e+00,5.500723266601562500e+01,-2.090448951721191406e+01,-9.345405578613281250e+01,-1.180766754150390625e+02,6.585875701904296875e+01,-2.980402946472167969e+01
7.476300001144409180e-01,1.000000000000000000e+00,-4.056132507324218750e+01,3.730544662475585938e+01,3.319869995117187500e+01,9.903376007080078125e+01,9.827325439453125000e+01,-6.347995281219482422e+00,5.500723266601562500e+01,-2.090448951721191406e+01,-9.345405578613281250e+01,-1.180766754150390625e+02,6.585875701904296875e+01,-2.980402946472167969e+01
7.521799802780151367e-01,1.000000000000000000e+00,-4.060346603393554688e+01,3.722178268432617188e+01,3.322098159790039062e+01,9.895832824707031250e+01,9.829207611083984375e+01,-6.370036125183105469e+00,5.500723266601562500e+01,-2.090458106994628906e+01,-9.345405578613281250e+01,-1.180766754150390625e+02,6.585875701904296875e+01,-2.980402946472167969e+01
7.556399703025817871e-01,1.000000000000000000e+00,-4.064543533325195312e+01,3.713841247558593750e+01,3.324354934692382812e+01,9.888316345214843750e+01,9.831127166748046875e+01,-6.392890453338623047e+00,5.500723266601562500e+01,-2.090458106994628906e+01,-9.345405578613281250e+01,-1.180766754150390625e+02,6.585875701904296875e+01,-2.980402946472167969e+01
7.595940232276916504e-01,1.000000000000000000e+00,-4.068754577636718750e+01,3.705511093139648438e+01,3.326597595214843750e+01,9.880805206298828125e+01,9.833089447021484375e+01,-6.416219234466552734e+00,5.500723266601562500e+01,-2.090448951721191406e+01,-9.345405578613281250e+01,-1.180766754150390625e+02,6.585875701904296875e+01,-2.980392074584960938e+01
7.643390297889709473e-01,1.000000000000000000e+00,-4.072960281372070312e+01,3.697233200073242188e+01,3.328836059570312500e+01,9.873230743408203125e+01,9.835077667236328125e+01,-6.439073562622070312e+00,5.500723266601562500e+01,-2.090458106994628906e+01,-9.345405578613281250e+01,-1.180766754150390625e+02,6.585875701904296875e+01,-2.980402946472167969e+01
7.676990032196044922e-01,1.000000000000000000e+00,-4.077171325683593750e+01,3.688982391357421875e+01,3.331052398681640625e+01,9.865719604492187500e+01,9.837135314941406250e+01,-6.462605953216552734e+00,5.500723266601562500e+01,-2.090458106994628906e+01,-9.345405578613281250e+01,-1.180766754150390625e+02,6.585875701904296875e+01,-2.980402946472167969e+01
7.716619968414306641e-01,1.000000000000000000e+00,-4.081373977661132812e+01,3.680704116821289062e+01,3.333301162719726562e+01,9.858144378662109375e+01,9.839162445068359375e+01,-6.486409664154052734e+00,5.500723266601562500e+01,-2.090458106994628906e+01,-9.345405578613281250e+01,-1.180766754150390625e+02,6.585875701904296875e+01,-2.980402946472167969e+01
7.763910293579101562e-01,1.000000000000000000e+00,-4.085594177246093750e+01,3.672385787963867188e+01,3.335545349121093750e+01,9.850649261474609375e+01,9.841118621826171875e+01,-6.509603023529052734e+00,5.500712203979492188e+01,-2.090458106994628906e+01,-9.345405578613281250e+01,-1.180766754150390625e+02,6.585875701904296875e+01,-2.980402946472167969e+01
7.796189785003662109e-01,1.000000000000000000e+00,-4.089805603027343750e+01,3.664048767089843750e+01,3.337778091430664062e+01,9.843054199218750000e+01,9.842995452880859375e+01,-6.532050132751464844e+00,5.500723266601562500e+01,-2.090458106994628906e+01,-9.345405578613281250e+01,-1.180766754150390625e+02,6.585875701904296875e+01,-2.980424880981445312e+01
7.836380004882812500e-01,1.000000000000000000e+00,-4.094028472900390625e+01,3.655689239501953125e+01,3.340016555786132812e+01,9.835505676269531250e+01,9.844920349121093750e+01,-6.554769039154052734e+00,5.500723266601562500e+01,-2.090458106994628906e+01,-9.345405578613281250e+01,-1.180765380859375000e+02,6.585875701904296875e+01,-2.980402946472167969e+01
7.885230183601379395e-01,1.000000000000000000e+00,-4.098242187500000000e+01,3.647309494018554688e+01,3.342250823974609375e+01,9.827889251708984375e+01,9.846844482421875000e+01,-6.577691078186035156e+00,5.500723266601562500e+01,-2.090458106994628906e+01,-9.345405578613281250e+01,-1.180766754150390625e+02,6.585875701904296875e+01,-2.980402946472167969e+01
7.917240262031555176e-01,1.000000000000000000e+00,-4.102447891235351562e+01,3.638909149169921875e+01,3.344517898559570312e+01,9.820362091064453125e+01,9.848865509033203125e+01,-6.601088047027587891e+00,5.500723266601562500e+01,-2.090458106994628906e+01,-9.345405578613281250e+01,-1.180766754150390625e+02,6.585875701904296875e+01,-2.980402946472167969e+01
7.957199811935424805e-01,1.000000000000000000e+00,-4.106665039062500000e+01,3.630554199218750000e+01,3.346788787841796875e+01,9.812708282470703125e+01,9.850897216796875000e+01,-6.624281406402587891e+00,5.500734329223632812e+01,-2.090458106994628906e+01,-9.345405578613281250e+01,-1.180766754150390625e+02,6.585875701904296875e+01,-2.980402946472167969e+01
8.004959821701049805e-01,1.000000000000000000e+00,-4.110884857177734375e+01,3.622240066528320312e+01,3.349039840698242188e+01,9.805159759521484375e+01,9.852960205078125000e+01,-6.647813796997070312e+00,5.500723266601562500e+01,-2.090458106994628906e+01,-9.345405578613281250e+01,-1.180766754150390625e+02,6.585875701904296875e+01,-2.980402946472167969e+01
8.037700057029724121e-01,1.000000000000000000e+00,-4.115096282958984375e+01,3.613914489746093750e+01,3.351276397705078125e+01,9.797548675537109375e+01,9.854927825927734375e+01,-6.671888351440429688e+00,5.500723266601562500e+01,-2.090448951721191406e+01,-9.345405578613281250e+01,-1.180766754150390625e+02,6.585860443115234375e+01,-2.980392074584960938e+01
8.077129721641540527e-01,1.000000000000000000e+00,-4.119318771362304688e+01,3.605607223510742188e+01,3.353496551513671875e+01,9.790000915527343750e+01,9.856846618652343750e+01,-6.695488929748535156e+00,5.500723266601562500e+01,-2.090458106994628906e+01,-9.345405578613281250e+01,-1.180766754150390625e+02,6.585875701904296875e+01,-2.980402946472167969e+01
8.127380013465881348e-01,1.000000000000000000e+00,-4.123533248901367188e+01,3.597265625000000000e+01,3.355744934082031250e+01,9.782389068603515625e+01,9.858782958984375000e+01,-6.718343257904052734e+00,5.500723266601562500e+01,-2.090448951721191406e+01,-9.345405578613281250e+01,-1.180766754150390625e+02,6.585875701904296875e+01,-2.980402946472167969e+01
8.158770203590393066e-01,1.000000000000000000e+00,-4.127738952636718750e+01,3.588876724243164062e+01,3.358018112182617188e+01,9.774798583984375000e+01,9.860733795166015625e+01,-6.741061687469482422e+00,5.500712203979492188e+01,-2.090458106994628906e+01,-9.345405578613281250e+01,-1.180766754150390625e+02,6.585875701904296875e+01,-2.980402946472167969e+01
8.199560046195983887e-01,1.000000000000000000e+00,-4.131949996948242188e+01,3.580467605590820312e+01,3.360291290283203125e+01,9.767213439941406250e+01,9.862722015380859375e+01,-6.763848304748535156e+00,5.500723266601562500e+01,-2.090458106994628906e+01,-9.345405578613281250e+01,-1.180766754150390625e+02,6.585875701904296875e+01,-2.980424880981445312e+01
8.245390057563781738e-01,1.000000000000000000e+00,-4.136164093017578125e+01,3.572017669677734375e+01,3.362556457519531250e+01,9.759564971923828125e+01,9.864759063720703125e+01,-6.787177562713623047e+00,5.500723266601562500e+01,-2.090458106994628906e+01,-9.345405578613281250e+01,-1.180766754150390625e+02,6.585875701904296875e+01,-2.980402946472167969e+01
8.279730081558227539e-01,1.000000000000000000e+00,-4.140392684936523438e+01,3.563594436645507812e+01,3.364802932739257812e+01,9.751985931396484375e+01,9.866822052001953125e+01,-6.810845375061035156e+00,5.500712203979492188e+01,-2.090458106994628906e+01,-9.345405578613281250e+01,-1.180766754150390625e+02,6.585875701904296875e+01,-2.980402946472167969e+01
8.318880200386047363e-01,1.000000000000000000e+00,-4.144592285156250000e+01,3.555185317993164062e+01,3.367061996459960938e+01,9.744352722167968750e+01,9.868859100341796875e+01,-6.834513664245605469e+00,5.500723266601562500e+01,-2.090458106994628906e+01,-9.345405578613281250e+01,-1.180766754150390625e+02,6.585875701904296875e+01,-2.980424880981445312e+01
8.361629843711853027e-01,1.000000000000000000e+00,-4.148803710937500000e+01,3.546823883056640625e+01,3.369332885742187500e+01,9.736746978759765625e+01,9.870783996582031250e+01,-6.858385086059570312e+00,5.500723266601562500e+01,-2.090458106994628906e+01,-9.345405578613281250e+01,-1.180766754150390625e+02,6.585875701904296875e+01,-2.980402946472167969e+01
8.400459885597229004e-01,1.000000000000000000e+00,-4.153006362915039062e+01,3.538486862182617188e+01,3.371577453613281250e+01,9.729072570800781250e+01,9.872687530517578125e+01,-6.881917476654052734e+00,5.500723266601562500e+01,-2.090448951721191406e+01,-9.345405578613281250e+01,-1.180766754150390625e+02,6.585875701904296875e+01,-2.980392074584960938e+01
8.425899744033813477e-01,1.000000000000000000e+00,-4.157237625122070312e+01,3.530104446411132812e+01,3.373830413818359375e+01,9.721450805664062500e+01,9.874622344970703125e+01,-6.905043125152587891e+00,5.500723266601562500e+01,-2.090458106994628906e+01,-9.345405578613281250e+01,-1.180766754150390625e+02,6.585875701904296875e+01,-2.980402946472167969e+01
8.489050269126892090e-01,1.000000000000000000e+00,-4.161445999145507812e+01,3.521686172485351562e+01,3.376082992553710938e+01,9.713765716552734375e+01,9.876600646972656250e+01,-6.927693843841552734e+00,5.500723266601562500e+01,-2.090458106994628906e+01,-9.345405578613281250e+01,-1.180766754150390625e+02,6.585875701904296875e+01,-2.980424880981445312e+01
8.505600094795227051e-01,1.000000000000000000e+00,-4.165668869018554688e+01,3.513247680664062500e+01,3.378346252441406250e+01,9.706153869628906250e+01,9.878636932373046875e+01,-6.950412750244140625e+00,5.500723266601562500e+01,-2.090458106994628906e+01,-9.345405578613281250e+01,-1.180766754150390625e+02,6.585875701904296875e+01,-2.980402946472167969e+01
8.561040163040161133e-01,1.000000000000000000e+00,-4.169894790649414062e+01,3.504786300659179688e+01,3.380633163452148438e+01,9.698495483398437500e+01,9.880706024169921875e+01,-6.973741531372070312e+00,5.500723266601562500e+01,-2.090458106994628906e+01,-9.345405578613281250e+01,-1.180766754150390625e+02,6.585889434814453125e+01,-2.980392074584960938e+01
8.623219728469848633e-01,1.000000000000000000e+00,-4.174123001098632812e+01,3.496297836303710938e+01,3.382902145385742188e+01,9.690883636474609375e+01,9.882747650146484375e+01,-6.997680664062500000e+00,5.500723266601562500e+01,-2.090448951721191406e+01,-9.345405578613281250e+01,-1.180766754150390625e+02,6.585875701904296875e+01,-2.980402946472167969e+01
8.648880124092102051e-01,1.000000000000000000e+00,-4.182623291015625000e+01,3.479381561279296875e+01,3.387417984008789062e+01,9.675566101074218750e+01,9.886618041992187500e+01,-7.045084953308105469e+00,5.500723266601562500e+01,-2.090448951721191406e+01,-9.345405578613281250e+01,-1.180766754150390625e+02,6.585875701904296875e+01,-2.980402946472167969e+01
8.684880137443542480e-01,1.000000000000000000e+00,-4.182623291015625000e+01,3.479381561279296875e+01,3.387417984008789062e+01,9.675566101074218750e+01,9.886618041992187500e+01,-7.045084953308105469e+00,5.500723266601562500e+01,-2.090448951721191406e+01,-9.345405578613281250e+01,-1.180766754150390625e+02,6.585875701904296875e+01,-2.980402946472167969e+01
8.724420070648193359e-01,1.000000000000000000e+00,-4.186865997314453125e+01,3.470979309082031250e+01,3.389682769775390625e+01,9.667886352539062500e+01,9.888569641113281250e+01,-7.068752765655517578e+00,5.500723266601562500e+01,-2.090458106994628906e+01,-9.345405578613281250e+01,-1.180766754150390625e+02,6.585875701904296875e+01,-2.980392074584960938e+01
8.765370249748229980e-01,1.000000000000000000e+00,-4.191125869750976562e+01,3.462547302246093750e+01,3.391951751708984375e+01,9.660237884521484375e+01,9.890553283691406250e+01,-7.091674804687500000e+00,5.500723266601562500e+01,-2.090458106994628906e+01,-9.345405578613281250e+01,-1.180766754150390625e+02,6.585875701904296875e+01,-2.980402946472167969e+01
8.802970051765441895e-01,1.000000000000000000e+00,-4.195383453369140625e+01,3.454133605957031250e+01,3.394233322143554688e+01,9.652516174316406250e+01,9.892563629150390625e+01,-7.114326000213623047e+00,5.500723266601562500e+01,-2.090458106994628906e+01,-9.345405578613281250e+01,-1.180766754150390625e+02,6.585875701904296875e+01,-2.980402946472167969e+01
8.851010203361511230e-01,1.000000000000000000e+00,-4.199672317504882812e+01,3.445685958862304688e+01,3.396510314941406250e+01,9.644831085205078125e+01,9.894647979736328125e+01,-7.137857913970947266e+00,5.500723266601562500e+01,-2.090458106994628906e+01,-9.345405578613281250e+01,-1.180766754150390625e+02,6.585875701904296875e+01,-2.980402946472167969e+01
8.895840048789978027e-01,1.000000000000000000e+00,-4.203952407836914062e+01,3.437188339233398438e+01,3.398777389526367188e+01,9.637113952636718750e+01,9.896727752685546875e+01,-7.161051750183105469e+00,5.500723266601562500e+01,-2.090458106994628906e+01,-9.345405578613281250e+01,-1.180766754150390625e+02,6.585875701904296875e+01,-2.980392074584960938e+01
8.925060033798217773e-01,1.000000000000000000e+00,-4.208235168457031250e+01,3.428665924072265625e+01,3.401076889038085938e+01,9.629455566406250000e+01,9.898742675781250000e+01,-7.184990882873535156e+00,5.500723266601562500e+01,-2.090458106994628906e+01,-9.345405578613281250e+01,-1.180766754150390625e+02,6.585875701904296875e+01,-2.980402946472167969e+01
8.966389894485473633e-01,1.000000000000000000e+00,-4.212527084350585938e+01,3.420141601562500000e+01,3.403350067138671875e+01,9.621743774414062500e+01,9.900640869140625000e+01,-7.208862781524658203e+00,5.500723266601562500e+01,-2.090458106994628906e+01,-9.345405578613281250e+01,-1.180766754150390625e+02,6.585875701904296875e+01,-2.980402946472167969e+01
9.005820155143737793e-01,1.000000000000000000e+00,-4.216827392578125000e+01,3.411614227294921875e+01,3.405623245239257812e+01,9.614016723632812500e+01,9.902581787109375000e+01,-7.232870101928710938e+00,5.500723266601562500e+01,-2.090458106994628906e+01,-9.345405578613281250e+01,-1.180766754150390625e+02,6.585875701904296875e+01,-2.980402946472167969e+01
9.045040011405944824e-01,1.000000000000000000e+00,-4.221130371093750000e+01,3.403143692016601562e+01,3.407900238037109375e+01,9.606320953369140625e+01,9.904537963867187500e+01,-7.256469726562500000e+00,5.500723266601562500e+01,-2.090448951721191406e+01,-9.345405578613281250e+01,-1.180766754150390625e+02,6.585875701904296875e+01,-2.980402946472167969e+01
9.102209806442260742e-01,1.000000000000000000e+00,-4.225430679321289062e+01,3.394707489013671875e+01,3.410195541381835938e+01,9.598614501953125000e+01,9.906542968750000000e+01,-7.279392242431640625e+00,5.500723266601562500e+01,-2.090458106994628906e+01,-9.345405578613281250e+01,-1.180766754150390625e+02,6.585875701904296875e+01,-2.980402946472167969e+01
9.129400253295898438e-01,1.000000000000000000e+00,-4.229762649536132812e+01,3.386268997192382812e+01,3.412507247924804688e+01,9.590918731689453125e+01,9.908611297607421875e+01,-7.302042484283447266e+00,5.500723266601562500e+01,-2.090458106994628906e+01,-9.345405578613281250e+01,-1.180766754150390625e+02,6.585875701904296875e+01,-2.980424880981445312e+01
9.168720245361328125e-01,1.000000000000000000e+00,-4.234085845947265625e+01,3.377816390991210938e+01,3.414778900146484375e+01,9.583191680908203125e+01,9.910712432861328125e+01,-7.325439453125000000e+00,5.500723266601562500e+01,-2.090458106994628906e+01,-9.345405578613281250e+01,-1.180766754150390625e+02,6.585875701904296875e+01,-2.980424880981445312e+01
9.208419919013977051e-01,1.000000000000000000e+00,-4.238391876220703125e+01,3.369316482543945312e+01,3.417051696777343750e+01,9.575485229492187500e+01,9.912727355957031250e+01,-7.348971843719482422e+00,5.500723266601562500e+01,-2.090458106994628906e+01,-9.345405578613281250e+01,-1.180766754150390625e+02,6.585889434814453125e+01,-2.980424880981445312e+01
9.249860048294067383e-01,1.000000000000000000e+00,-4.242715072631835938e+01,3.360787582397460938e+01,3.419334793090820312e+01,9.567726135253906250e+01,9.914678955078125000e+01,-7.372640132904052734e+00,5.500723266601562500e+01,-2.090448951721191406e+01,-9.345405578613281250e+01,-1.180766754150390625e+02,6.585875701904296875e+01,-2.980402946472167969e+01
9.286400079727172852e-01,1.000000000000000000e+00,-4.247052764892578125e+01,3.352242660522460938e+01,3.421626281738281250e+01,9.559957122802734375e+01,9.916619873046875000e+01,-7.396647453308105469e+00,5.500723266601562500e+01,-2.090458106994628906e+01,-9.345405578613281250e+01,-1.180766754150390625e+02,6.585860443115234375e+01,-2.980402946472167969e+01
9.336540102958679199e-01,1.000000000000000000e+00,-4.251381683349609375e+01,3.343670272827148438e+01,3.423946380615234375e+01,9.552193450927734375e+01,9.918581390380859375e+01,-7.420857906341552734e+00,5.500723266601562500e+01,-2.090448951721191406e+01,-9.345405578613281250e+01,-1.180766754150390625e+02,6.585875701904296875e+01,-2.980402946472167969e+01
9.369069933891296387e-01,1.000000000000000000e+00,-4.255690765380859375e+01,3.335136795043945312e+01,3.426237869262695312e+01,9.544461059570312500e+01,9.920629119873046875e+01,-7.444593906402587891e+00,5.500723266601562500e+01,-2.090458106994628906e+01,-9.345405578613281250e+01,-1.180766754150390625e+02,6.585875701904296875e+01,-2.980392074584960938e+01
9.406009912490844727e-01,1.000000000000000000e+00,-4.260025405883789062e+01,3.326654815673828125e+01,3.428533172607421875e+01,9.536748504638671875e+01,9.922670745849609375e+01,-7.467651844024658203e+00,5.500734329223632812e+01,-2.090458106994628906e+01,-9.345405578613281250e+01,-1.180766754150390625e+02,6.585889434814453125e+01,-2.980402946472167969e+01
9.435439705848693848e-01,1.000000000000000000e+00,-4.264354705810546875e+01,3.318143844604492188e+01,3.430820465087890625e+01,9.528963470458984375e+01,9.924787139892578125e+01,-7.490777015686035156e+00,5.500723266601562500e+01,-2.090458106994628906e+01,-9.345405578613281250e+01,-1.180766754150390625e+02,6.585875701904296875e+01,-2.980402946472167969e+01
9.475280046463012695e-01,1.000000000000000000e+00,-4.268671798706054688e+01,3.309646224975585938e+01,3.433119964599609375e+01,9.521225738525390625e+01,9.926861572265625000e+01,-7.514377117156982422e+00,5.500723266601562500e+01,-2.090458106994628906e+01,-9.345405578613281250e+01,-1.180766754150390625e+02,6.585875701904296875e+01,-2.980402946472167969e+01
9.515889883041381836e-01,1.000000000000000000e+00,-4.272972106933593750e+01,3.301134872436523438e+01,3.435435485839843750e+01,9.513446044921875000e+01,9.928834533691406250e+01,-7.538248538970947266e+00,5.500712203979492188e+01,-2.090448951721191406e+01,-9.345405578613281250e+01,-1.180766754150390625e+02,6.585875701904296875e+01,-2.980402946472167969e+01
9.556249976158142090e-01,1.000000000000000000e+00,-4.277301025390625000e+01,3.292569732666015625e+01,3.437725067138671875e+01,9.505744934082031250e+01,9.930780029296875000e+01,-7.562052726745605469e+00,5.500723266601562500e+01,-2.090458106994628906e+01,-9.345405578613281250e+01,-1.180766754150390625e+02,6.585875701904296875e+01,-2.980402946472167969e+01
9.612230062484741211e-01,1.000000000000000000e+00,-4.285953140258789062e+01,3.275323486328125000e+01,3.442307662963867188e+01,9.490200805664062500e+01,9.934725952148437500e+01,-7.610744953155517578e+00,5.500723266601562500e+01,-2.090458106994628906e+01,-9.345405578613281250e+01,-1.180766754150390625e+02,6.585875701904296875e+01,-2.980402946472167969e+01
9.635300040245056152e-01,1.000000000000000000e+00,-4.285953140258789062e+01,3.275323486328125000e+01,3.442307662963867188e+01,9.490200805664062500e+01,9.934725952148437500e+01,-7.610744953155517578e+00,5.500723266601562500e+01,-2.090458106994628906e+01,-9.345405578613281250e+01,-1.180766754150390625e+02,6.585875701904296875e+01,-2.980402946472167969e+01
9.676210284233093262e-01,1.000000000000000000e+00,-4.290259552001953125e+01,3.266685485839843750e+01,3.444633865356445312e+01,9.482357788085937500e+01,9.936778259277343750e+01,-7.634210109710693359e+00,5.500723266601562500e+01,-2.090448951721191406e+01,-9.345405578613281250e+01,-1.180766754150390625e+02,6.585875701904296875e+01,-2.980402946472167969e+01
9.715319871902465820e-01,1.000000000000000000e+00,-4.294582748413085938e+01,3.258081436157226562e+01,3.446949768066406250e+01,9.474614715576171875e+01,9.938874053955078125e+01,-7.657335281372070312e+00,5.500723266601562500e+01,-2.090458106994628906e+01,-9.345405578613281250e+01,-1.180766754150390625e+02,6.585875701904296875e+01,-2.980402946472167969e+01
9.755460023880004883e-01,1.000000000000000000e+00,-4.298914718627929688e+01,3.249525451660156250e+01,3.449259185791015625e+01,9.466755676269531250e+01,9.940979766845703125e+01,-7.680596351623535156e+00,5.500734329223632812e+01,-2.090458106994628906e+01,-9.345405578613281250e+01,-1.180766754150390625e+02,6.585875701904296875e+01,-2.980424880981445312e+01
9.796559810638427734e-01,1.000000000000000000e+00,-4.303240585327148438e+01,3.240987014770507812e+01,3.451538467407226562e+01,9.458965301513671875e+01,9.942973327636718750e+01,-7.704467773437500000e+00,5.500723266601562500e+01,-2.090448951721191406e+01,-9.345405578613281250e+01,-1.180766754150390625e+02,6.585875701904296875e+01,-2.980402946472167969e+01
9.851390123367309570e-01,1.000000000000000000e+00,-4.307561111450195312e+01,3.232426071166992188e+01,3.453823852539062500e+01,9.451180267333984375e+01,9.944915008544921875e+01,-7.728271961212158203e+00,5.500723266601562500e+01,-2.090458106994628906e+01,-9.345405578613281250e+01,-1.180765380859375000e+02,6.585875701904296875e+01,-2.980402946472167969e+01
9.875630140304565430e-01,1.000000000000000000e+00,-4.311887359619140625e+01,3.223838043212890625e+01,3.456131362915039062e+01,9.443399810791015625e+01,9.946892547607421875e+01,-7.752482414245605469e+00,5.500723266601562500e+01,-2.090458106994628906e+01,-9.345405578613281250e+01,-1.180765380859375000e+02,6.585875701904296875e+01,-2.980402946472167969e+01
9.915930032730102539e-01,1.000000000000000000e+00,-4.316213226318359375e+01,3.215216064453125000e+01,3.458461380004882812e+01,9.435583496093750000e+01,9.948892211914062500e+01,-7.777167797088623047e+00,5.500723266601562500e+01,-2.090458106994628906e+01,-9.345405578613281250e+01,-1.180766754150390625e+02,6.585875701904296875e+01,-2.980402946472167969e+01
9.945999979972839355e-01,1.000000000000000000e+00,-4.320536804199218750e+01,3.206553268432617188e+01,3.460791397094726562e+01,9.427798461914062500e+01,9.950955200195312500e+01,-7.801717281341552734e+00,5.500734329223632812e+01,-2.090458106994628906e+01,-9.345405578613281250e+01,-1.180766754150390625e+02,6.585875701904296875e+01,-2.980402946472167969e+01
9.997450113296508789e-01,1.000000000000000000e+00,-4.320536804199218750e+01,3.206553268432617188e+01,3.460791397094726562e+01,9.427798461914062500e+01,9.950955200195312500e+01,-7.801717281341552734e+00,5.500734329223632812e+01,-2.090458106994628906e+01,-9.345405578613281250e+01,-1.180766754150390625e+02,6.585875701904296875e+01,-2.980402946472167969e+01
1.003648996353149414e+00,1.000000000000000000e+00,-4.329208755493164062e+01,3.189218902587890625e+01,3.465408706665039062e+01,9.412138366699218750e+01,9.955178070068359375e+01,-7.848782062530517578e+00,5.500734329223632812e+01,-2.090458106994628906e+01,-9.345405578613281250e+01,-1.180766754150390625e+02,6.585875701904296875e+01,-2.980402946472167969e+01
1.007802963256835938e+00,1.000000000000000000e+00,-4.333554840087890625e+01,3.180596733093261719e+01,3.467752838134765625e+01,9.404337310791015625e+01,9.957214355468750000e+01,-7.872111797332763672e+00,5.500712203979492188e+01,-2.090458106994628906e+01,-9.345405578613281250e+01,-1.180766754150390625e+02,6.585875701904296875e+01,-2.980424880981445312e+01
1.010522007942199707e+00,1.000000000000000000e+00,-4.337903976440429688e+01,3.172004127502441406e+01,3.470066833496093750e+01,9.396488952636718750e+01,9.959165954589843750e+01,-7.895847320556640625e+00,5.500723266601562500e+01,-2.090448951721191406e+01,-9.345405578613281250e+01,-1.180766754150390625e+02,6.585889434814453125e+01,-2.980402946472167969e+01
1.015575051307678223e+00,1.000000000000000000e+00,-4.337903976440429688e+01,3.172004127502441406e+01,3.470066833496093750e+01,9.396488952636718750e+01,9.959165954589843750e+01,-7.895847320556640625e+00,5.500723266601562500e+01,-2.090448951721191406e+01,-9.345405578613281250e+01,-1.180766754150390625e+02,6.585889434814453125e+01,-2.980402946472167969e+01
1.019580960273742676e+00,1.000000000000000000e+00,-4.346648025512695312e+01,3.154835128784179688e+01,3.474686431884765625e+01,9.380765533447265625e+01,9.963121795654296875e+01,-7.944607257843017578e+00,5.500723266601562500e+01,-2.090458106994628906e+01,-9.345405578613281250e+01,-1.180766754150390625e+02,6.585875701904296875e+01,-2.980424880981445312e+01
1.023545026779174805e+00,1.000000000000000000e+00,-4.351028823852539062e+01,3.146208572387695312e+01,3.477012252807617188e+01,9.372943115234375000e+01,9.965190887451171875e+01,-7.969021797180175781e+00,5.500723266601562500e+01,-2.090458106994628906e+01,-9.345405578613281250e+01,-1.180766754150390625e+02,6.585875701904296875e+01,-2.980424880981445312e+01
1.027539968490600586e+00,1.000000000000000000e+00,-4.355409622192382812e+01,3.137525367736816406e+01,3.479356384277343750e+01,9.365052795410156250e+01,9.967253875732421875e+01,-7.993164062500000000e+00,5.500723266601562500e+01,-2.090448951721191406e+01,-9.345405578613281250e+01,-1.180766754150390625e+02,6.585875701904296875e+01,-2.980424880981445312e+01
1.031641960144042969e+00,1.000000000000000000e+00,-4.359778594970703125e+01,3.128817176818847656e+01,3.481700515747070312e+01,9.357178497314453125e+01,9.969371032714843750e+01,-8.016832351684570312e+00,5.500723266601562500e+01,-2.090448951721191406e+01,-9.345405578613281250e+01,-1.180766754150390625e+02,6.585875701904296875e+01,-2.980392074584960938e+01
1.035542011260986328e+00,1.000000000000000000e+00,-4.364162445068359375e+01,3.120109367370605469e+01,3.484026718139648438e+01,9.349372100830078125e+01,9.971417999267578125e+01,-8.040228843688964844e+00,5.500723266601562500e+01,-2.090458106994628906e+01,-9.345405578613281250e+01,-1.180766754150390625e+02,6.585875701904296875e+01,-2.980424880981445312e+01
1.039603948593139648e+00,1.000000000000000000e+00,-4.368563079833984375e+01,3.111414909362792969e+01,3.486344528198242188e+01,9.341497039794921875e+01,9.973385620117187500e+01,-8.063829421997070312e+00,5.500723266601562500e+01,-2.090458106994628906e+01,-9.345405578613281250e+01,-1.180766754150390625e+02,6.585875701904296875e+01,-2.980424880981445312e+01
1.043527960777282715e+00,1.000000000000000000e+00,-4.372961044311523438e+01,3.102763366699218750e+01,3.488666534423828125e+01,9.333654022216796875e+01,9.975379180908203125e+01,-8.087700843811035156e+00,5.500734329223632812e+01,-2.090448951721191406e+01,-9.345405578613281250e+01,-1.180766754150390625e+02,6.585875701904296875e+01,-2.980424880981445312e+01
1.047533988952636719e+00,1.000000000000000000e+00,-4.377364349365234375e+01,3.094150543212890625e+01,3.491014480590820312e+01,9.325731658935546875e+01,9.977394866943359375e+01,-8.112047195434570312e+00,5.500723266601562500e+01,-2.090458106994628906e+01,-9.345405578613281250e+01,-1.180766754150390625e+02,6.585875701904296875e+01,-2.980402946472167969e+01
1.051589012145996094e+00,1.000000000000000000e+00,-4.381762313842773438e+01,3.085510253906250000e+01,3.493357086181640625e+01,9.317909240722656250e+01,9.979447174072265625e+01,-8.136461257934570312e+00,5.500734329223632812e+01,-2.090458106994628906e+01,-9.345405578613281250e+01,-1.180766754150390625e+02,6.585875701904296875e+01,-2.980402946472167969e+01
1.055866956710815430e+00,1.000000000000000000e+00,-4.386185836791992188e+01,3.076836395263671875e+01,3.495697021484375000e+01,9.309960937500000000e+01,9.981548309326171875e+01,-8.161146163940429688e+00,5.500723266601562500e+01,-2.090458106994628906e+01,-9.345405578613281250e+01,-1.180766754150390625e+02,6.585875701904296875e+01,-2.980424880981445312e+01
1.058534979820251465e+00,1.000000000000000000e+00,-4.390583801269531250e+01,3.068146324157714844e+01,3.498020935058593750e+01,9.302091217041015625e+01,9.983691406250000000e+01,-8.185424804687500000e+00,5.500712203979492188e+01,-2.090448951721191406e+01,-9.345405578613281250e+01,-1.180766754150390625e+02,6.585875701904296875e+01,-2.980402946472167969e+01
1.063665032386779785e+00,1.000000000000000000e+00,-4.390583801269531250e+01,3.068146324157714844e+01,3.498020935058593750e+01,9.302091217041015625e+01,9.983691406250000000e+01,-8.185424804687500000e+00,5.500712203979492188e+01,-2.090448951721191406e+01,-9.345405578613281250e+01,-1.180766754150390625e+02,6.585875701904296875e+01,-2.980402946472167969e+01
1.067620038986206055e+00,1.000000000000000000e+00,-4.399405670166015625e+01,3.050639915466308594e+01,3.502719879150390625e+01,9.286252593994140625e+01,9.987759399414062500e+01,-8.232150077819824219e+00,5.500723266601562500e+01,-2.090458106994628906e+01,-9.345405578613281250e+01,-1.180766754150390625e+02,6.585875701904296875e+01,-2.980402946472167969e+01
1.071823000907897949e+00,1.000000000000000000e+00,-4.403832244873046875e+01,3.041884613037109375e+01,3.505053710937500000e+01,9.278330230712890625e+01,9.989715576171875000e+01,-8.256157875061035156e+00,5.500723266601562500e+01,-2.090458106994628906e+01,-9.345405578613281250e+01,-1.180766754150390625e+02,6.585875701904296875e+01,-2.980402946472167969e+01
1.075595021247863770e+00,1.000000000000000000e+00,-4.408224105834960938e+01,3.033147048950195312e+01,3.507394027709960938e+01,9.270397186279296875e+01,9.991725921630859375e+01,-8.280436515808105469e+00,5.500734329223632812e+01,-2.090458106994628906e+01,-9.345405578613281250e+01,-1.180766754150390625e+02,6.585889434814453125e+01,-2.980402946472167969e+01
1.082641005516052246e+00,1.000000000000000000e+00,-4.408224105834960938e+01,3.033147048950195312e+01,3.507394027709960938e+01,9.270397186279296875e+01,9.991725921630859375e+01,-8.280436515808105469e+00,5.500723266601562500e+01,-2.090448951721191406e+01,-9.345405578613281250e+01,-1.180766754150390625e+02,6.585875701904296875e+01,-2.980402946472167969e+01
1.084051966667175293e+00,1.000000000000000000e+00,-4.417026138305664062e+01,3.015774154663085938e+01,3.512076568603515625e+01,9.254589843750000000e+01,9.995884704589843750e+01,-8.329535484313964844e+00,5.500712203979492188e+01,-2.090448951721191406e+01,-9.345405578613281250e+01,-1.180766754150390625e+02,6.585875701904296875e+01,-2.980402946472167969e+01
1.087581038475036621e+00,1.000000000000000000e+00,-4.421429443359375000e+01,3.007086372375488281e+01,3.514428710937500000e+01,9.246673583984375000e+01,9.998001861572265625e+01,-8.354289054870605469e+00,5.500723266601562500e+01,-2.090458106994628906e+01,-9.345405578613281250e+01,-1.180766754150390625e+02,6.585875701904296875e+01,-2.980402946472167969e+01
1.092543959617614746e+00,1.000000000000000000e+00,-4.425824737548828125e+01,2.998371505737304688e+01,3.516775131225585938e+01,9.238719940185546875e+01,1.000010223388671875e+02,-8.378431320190429688e+00,5.500723266601562500e+01,-2.090458106994628906e+01,-9.345405578613281250e+01,-1.180766754150390625e+02,6.585875701904296875e+01,-2.980402946472167969e+01
1.095530986785888672e+00,1.000000000000000000e+00,-4.430228042602539062e+01,2.989582061767578125e+01,3.519109344482421875e+01,9.230807495117187500e+01,1.000210189819335938e+02,-8.401556968688964844e+00,5.500723266601562500e+01,-2.090458106994628906e+01,-9.345405578613281250e+01,-1.180766754150390625e+02,6.585875701904296875e+01,-2.980424880981445312e+01
1.099570989608764648e+00,1.000000000000000000e+00,-4.430228042602539062e+01,2.989582061767578125e+01,3.519109344482421875e+01,9.230807495117187500e+01,1.000210189819335938e+02,-8.401556968688964844e+00,5.500723266601562500e+01,-2.090458106994628906e+01,-9.345405578613281250e+01,-1.180766754150390625e+02,6.585875701904296875e+01,-2.980424880981445312e+01
1.106132030487060547e+00,1.000000000000000000e+00,-4.434640502929687500e+01,2.980758857727050781e+01,3.521457290649414062e+01,9.222849273681640625e+01,1.000408020019531250e+02,-8.425225257873535156e+00,5.500723266601562500e+01,-2.090448951721191406e+01,-9.345405578613281250e+01,-1.180766754150390625e+02,6.585875701904296875e+01,-2.980402946472167969e+01
1.107625961303710938e+00,1.000000000000000000e+00,-4.443418884277343750e+01,2.963154983520507812e+01,3.526172256469726562e+01,9.206883239746093750e+01,1.000819549560546875e+02,-8.473714828491210938e+00,5.500712203979492188e+01,-2.090458106994628906e+01,-9.345405578613281250e+01,-1.180766754150390625e+02,6.585875701904296875e+01,-2.980402946472167969e+01
1.112609028816223145e+00,1.000000000000000000e+00,-4.443418884277343750e+01,2.963154983520507812e+01,3.526172256469726562e+01,9.206883239746093750e+01,1.000819549560546875e+02,-8.473714828491210938e+00,5.500712203979492188e+01,-2.090458106994628906e+01,-9.345405578613281250e+01,-1.180766754150390625e+02,6.585875701904296875e+01,-2.980402946472167969e+01
