rpiRobotics/ARM-21-02-F-19-Robot-Motion-Program/data_performance_abb/curve_1/curve_pose_opt1/greedy0.02/grad_result/real_from_sim/run_0.csv
timestamp,cmd_num,J1,J2,J3,J4,J5,J6
1.420000044163316488e-04,-1.000000000000000000e+00,-3.451960372924804688e+01,4.926363754272460938e+01,2.988083076477050781e+01,1.097712554931640625e+02,9.523946380615234375e+01,-2.998182535171508789e+00,5.500723266601562500e+01,-2.090458106994628906e+01,-9.345405578613281250e+01,-1.180766754150390625e+02,6.585889434814453125e+01,-2.980392074584960938e+01
4.923999775201082230e-03,1.000000000000000000e+00,-3.451960372924804688e+01,4.926363754272460938e+01,2.988083076477050781e+01,1.097712554931640625e+02,9.523961639404296875e+01,-2.998046875000000000e+00,5.500723266601562500e+01,-2.090458106994628906e+01,-9.345405578613281250e+01,-1.180766754150390625e+02,6.585860443115234375e+01,-2.980392074584960938e+01
8.368999697268009186e-03,1.000000000000000000e+00,-3.451960372924804688e+01,4.926363754272460938e+01,2.988076972961425781e+01,1.097711563110351562e+02,9.523946380615234375e+01,-2.998046875000000000e+00,5.500723266601562500e+01,-2.090458106994628906e+01,-9.345405578613281250e+01,-1.180766754150390625e+02,6.585875701904296875e+01,-2.980392074584960938e+01
1.242499984800815582e-02,1.000000000000000000e+00,-3.451960372924804688e+01,4.926363754272460938e+01,2.988076972961425781e+01,1.097712554931640625e+02,9.523946380615234375e+01,-2.998182535171508789e+00,5.500723266601562500e+01,-2.090458106994628906e+01,-9.345405578613281250e+01,-1.180766754150390625e+02,6.585875701904296875e+01,-2.980392074584960938e+01
3.677999973297119141e-02,1.000000000000000000e+00,-3.451966094970703125e+01,4.926363754272460938e+01,2.988083076477050781e+01,1.097712554931640625e+02,9.523946380615234375e+01,-2.998182535171508789e+00,5.500734329223632812e+01,-2.090458106994628906e+01,-9.345405578613281250e+01,-1.180766754150390625e+02,6.585875701904296875e+01,-2.980402946472167969e+01
3.803699836134910583e-02,1.000000000000000000e+00,-3.451966094970703125e+01,4.926363754272460938e+01,2.988083076477050781e+01,1.097712554931640625e+02,9.523946380615234375e+01,-2.998182535171508789e+00,5.500734329223632812e+01,-2.090458106994628906e+01,-9.345405578613281250e+01,-1.180766754150390625e+02,6.585875701904296875e+01,-2.980402946472167969e+01
4.383800178766250610e-02,1.000000000000000000e+00,-3.451960372924804688e+01,4.926368331909179688e+01,2.988076972961425781e+01,1.097712554931640625e+02,9.523961639404296875e+01,-2.998182535171508789e+00,5.500723266601562500e+01,-2.090458106994628906e+01,-9.345405578613281250e+01,-1.180766754150390625e+02,6.585875701904296875e+01,-2.980392074584960938e+01
4.530899971723556519e-02,1.000000000000000000e+00,-3.451960372924804688e+01,4.926368331909179688e+01,2.988083076477050781e+01,1.097713623046875000e+02,9.523946380615234375e+01,-2.998182535171508789e+00,5.500723266601562500e+01,-2.090458106994628906e+01,-9.345405578613281250e+01,-1.180766754150390625e+02,6.585875701904296875e+01,-2.980392074584960938e+01
4.657199978828430176e-02,1.000000000000000000e+00,-3.451960372924804688e+01,4.926368331909179688e+01,2.988083076477050781e+01,1.097713623046875000e+02,9.523946380615234375e+01,-2.998182535171508789e+00,5.500723266601562500e+01,-2.090458106994628906e+01,-9.345405578613281250e+01,-1.180766754150390625e+02,6.585875701904296875e+01,-2.980392074584960938e+01
4.897899925708770752e-02,1.000000000000000000e+00,-3.451960372924804688e+01,4.926363754272460938e+01,2.988083076477050781e+01,1.097712554931640625e+02,9.523961639404296875e+01,-2.998182535171508789e+00,5.500723266601562500e+01,-2.090458106994628906e+01,-9.345405578613281250e+01,-1.180766754150390625e+02,6.585875701904296875e+01,-2.980402946472167969e+01
5.033500120043754578e-02,1.000000000000000000e+00,-3.451960372924804688e+01,4.926363754272460938e+01,2.988083076477050781e+01,1.097712554931640625e+02,9.523961639404296875e+01,-2.998182535171508789e+00,5.500723266601562500e+01,-2.090458106994628906e+01,-9.345405578613281250e+01,-1.180766754150390625e+02,6.585875701904296875e+01,-2.980402946472167969e+01
5.394100025296211243e-02,1.000000000000000000e+00,-3.451966094970703125e+01,4.926363754272460938e+01,2.988083076477050781e+01,1.097712554931640625e+02,9.523946380615234375e+01,-2.998046875000000000e+00,5.500723266601562500e+01,-2.090458106994628906e+01,-9.345405578613281250e+01,-1.180766754150390625e+02,6.585875701904296875e+01,-2.980392074584960938e+01
5.654500052332878113e-02,1.000000000000000000e+00,-3.451991653442382812e+01,4.926348114013671875e+01,2.988076972961425781e+01,1.097712554931640625e+02,9.523946380615234375e+01,-2.998046875000000000e+00,5.500723266601562500e+01,-2.090458106994628906e+01,-9.345405578613281250e+01,-1.180766754150390625e+02,6.585875701904296875e+01,-2.980392074584960938e+01
5.780899897217750549e-02,1.000000000000000000e+00,-3.451991653442382812e+01,4.926348114013671875e+01,2.988076972961425781e+01,1.097712554931640625e+02,9.523946380615234375e+01,-2.998046875000000000e+00,5.500723266601562500e+01,-2.090458106994628906e+01,-9.345405578613281250e+01,-1.180766754150390625e+02,6.585875701904296875e+01,-2.980392074584960938e+01
6.101800128817558289e-02,1.000000000000000000e+00,-3.452058029174804688e+01,4.926313781738281250e+01,2.988083076477050781e+01,1.097713623046875000e+02,9.523946380615234375e+01,-2.998046875000000000e+00,5.500723266601562500e+01,-2.090458106994628906e+01,-9.345405578613281250e+01,-1.180766754150390625e+02,6.585875701904296875e+01,-2.980392074584960938e+01
6.500700116157531738e-02,1.000000000000000000e+00,-3.452181243896484375e+01,4.926237106323242188e+01,2.988076972961425781e+01,1.097712554931640625e+02,9.523946380615234375e+01,-2.998182535171508789e+00,5.500723266601562500e+01,-2.090467262268066406e+01,-9.345405578613281250e+01,-1.180766754150390625e+02,6.585875701904296875e+01,-2.980402946472167969e+01
6.644099950790405273e-02,1.000000000000000000e+00,-3.452181243896484375e+01,4.926237106323242188e+01,2.988076972961425781e+01,1.097712554931640625e+02,9.523946380615234375e+01,-2.998182535171508789e+00,5.500723266601562500e+01,-2.090467262268066406e+01,-9.345405578613281250e+01,-1.180766754150390625e+02,6.585875701904296875e+01,-2.980402946472167969e+01
6.889999657869338989e-02,1.000000000000000000e+00,-3.452367782592773438e+01,4.926053619384765625e+01,2.988076972961425781e+01,1.097712554931640625e+02,9.523961639404296875e+01,-2.998182535171508789e+00,5.500723266601562500e+01,-2.090458106994628906e+01,-9.345405578613281250e+01,-1.180766754150390625e+02,6.585875701904296875e+01,-2.980392074584960938e+01
7.027599960565567017e-02,1.000000000000000000e+00,-3.452367782592773438e+01,4.926053619384765625e+01,2.988076972961425781e+01,1.097712554931640625e+02,9.523961639404296875e+01,-2.998182535171508789e+00,5.500723266601562500e+01,-2.090458106994628906e+01,-9.345405578613281250e+01,-1.180766754150390625e+02,6.585875701904296875e+01,-2.980392074584960938e+01
7.479999959468841553e-02,1.000000000000000000e+00,-3.452608871459960938e+01,4.925759506225585938e+01,2.988083076477050781e+01,1.097712554931640625e+02,9.523961639404296875e+01,-2.998182535171508789e+00,5.500723266601562500e+01,-2.090458106994628906e+01,-9.345405578613281250e+01,-1.180766754150390625e+02,6.585875701904296875e+01,-2.980392074584960938e+01
7.747499644756317139e-02,1.000000000000000000e+00,-3.452915954589843750e+01,4.925282287597656250e+01,2.988087272644042969e+01,1.097708892822265625e+02,9.523961639404296875e+01,-2.998182535171508789e+00,5.500712203979492188e+01,-2.090458106994628906e+01,-9.345422363281250000e+01,-1.180766754150390625e+02,6.585875701904296875e+01,-2.980369758605957031e+01
8.032099902629852295e-02,1.000000000000000000e+00,-3.452915954589843750e+01,4.925282287597656250e+01,2.988087272644042969e+01,1.097708892822265625e+02,9.523961639404296875e+01,-2.998182535171508789e+00,5.500712203979492188e+01,-2.090458106994628906e+01,-9.345422363281250000e+01,-1.180766754150390625e+02,6.585875701904296875e+01,-2.980369758605957031e+01
8.413200080394744873e-02,1.000000000000000000e+00,-3.453274917602539062e+01,4.924617004394531250e+01,2.988093376159667969e+01,1.097703094482421875e+02,9.523973083496093750e+01,-2.998182535171508789e+00,5.500723266601562500e+01,-2.090458106994628906e+01,-9.345405578613281250e+01,-1.180766754150390625e+02,6.585875701904296875e+01,-2.980392074584960938e+01
8.848500251770019531e-02,1.000000000000000000e+00,-3.453696823120117188e+01,4.923763656616210938e+01,2.988113975524902344e+01,1.097684173583984375e+02,9.523999786376953125e+01,-2.998182535171508789e+00,5.500723266601562500e+01,-2.090458106994628906e+01,-9.345405578613281250e+01,-1.180766754150390625e+02,6.585875701904296875e+01,-2.980392074584960938e+01
9.246399998664855957e-02,1.000000000000000000e+00,-3.454202270507812500e+01,4.922708892822265625e+01,2.988176727294921875e+01,1.097643051147460938e+02,9.524079132080078125e+01,-2.998521566390991211e+00,5.500723266601562500e+01,-2.090458106994628906e+01,-9.345405578613281250e+01,-1.180766754150390625e+02,6.585875701904296875e+01,-2.980392074584960938e+01
9.710499644279479980e-02,1.000000000000000000e+00,-3.454813385009765625e+01,4.921471405029296875e+01,2.988290405273437500e+01,1.097583541870117188e+02,9.524169921875000000e+01,-2.999335527420043945e+00,5.500723266601562500e+01,-2.090448951721191406e+01,-9.345405578613281250e+01,-1.180766754150390625e+02,6.585875701904296875e+01,-2.980392074584960938e+01
1.006169989705085754e-01,1.000000000000000000e+00,-3.455522537231445312e+01,4.919993591308593750e+01,2.988455390930175781e+01,1.097509231567382812e+02,9.524335479736328125e+01,-3.001166582107543945e+00,5.500712203979492188e+01,-2.090458106994628906e+01,-9.345405578613281250e+01,-1.180766754150390625e+02,6.585875701904296875e+01,-2.980402946472167969e+01
1.044880002737045288e-01,1.000000000000000000e+00,-3.456383895874023438e+01,4.918253326416015625e+01,2.988699150085449219e+01,1.097411804199218750e+02,9.524596405029296875e+01,-3.004082679748535156e+00,5.500723266601562500e+01,-2.090467262268066406e+01,-9.345405578613281250e+01,-1.180766754150390625e+02,6.585875701904296875e+01,-2.980392074584960938e+01
1.084109991788864136e-01,1.000000000000000000e+00,-3.457359695434570312e+01,4.916248321533203125e+01,2.989012336730957031e+01,1.097284851074218750e+02,9.524938201904296875e+01,-3.008355140686035156e+00,5.500723266601562500e+01,-2.090458106994628906e+01,-9.345405578613281250e+01,-1.180766754150390625e+02,6.585875701904296875e+01,-2.980392074584960938e+01
1.126319989562034607e-01,1.000000000000000000e+00,-3.458473968505859375e+01,4.914003372192382812e+01,2.989398574829101562e+01,1.097124710083007812e+02,9.525327301025390625e+01,-3.012695312500000000e+00,5.500723266601562500e+01,-2.090458106994628906e+01,-9.345405578613281250e+01,-1.180766754150390625e+02,6.585875701904296875e+01,-2.980392074584960938e+01
1.166109964251518250e-01,1.000000000000000000e+00,-3.459748458862304688e+01,4.911480331420898438e+01,2.989892768859863281e+01,1.096936645507812500e+02,9.525839233398437500e+01,-3.018256425857543945e+00,5.500723266601562500e+01,-2.090467262268066406e+01,-9.345405578613281250e+01,-1.180766754150390625e+02,6.585875701904296875e+01,-2.980392074584960938e+01
1.212830021977424622e-01,1.000000000000000000e+00,-3.461180496215820312e+01,4.908658218383789062e+01,2.990520858764648438e+01,1.096714935302734375e+02,9.526430511474609375e+01,-3.024698972702026367e+00,5.500723266601562500e+01,-2.090458106994628906e+01,-9.345405578613281250e+01,-1.180766754150390625e+02,6.585875701904296875e+01,-2.980402946472167969e+01
1.245919987559318542e-01,1.000000000000000000e+00,-3.462785339355468750e+01,4.905519485473632812e+01,2.991289520263671875e+01,1.096459960937500000e+02,9.527144622802734375e+01,-3.032497882843017578e+00,5.500723266601562500e+01,-2.090458106994628906e+01,-9.345405578613281250e+01,-1.180766754150390625e+02,6.585875701904296875e+01,-2.980402946472167969e+01
1.273200064897537231e-01,1.000000000000000000e+00,-3.464513778686523438e+01,4.902022933959960938e+01,2.992184066772460938e+01,1.096159744262695312e+02,9.527982330322265625e+01,-3.041924476623535156e+00,5.500723266601562500e+01,-2.090458106994628906e+01,-9.345405578613281250e+01,-1.180766754150390625e+02,6.585875701904296875e+01,-2.980402946472167969e+01
1.324229985475540161e-01,1.000000000000000000e+00,-3.466356658935546875e+01,4.898185348510742188e+01,2.993196487426757812e+01,1.095805816650390625e+02,9.528915405273437500e+01,-3.052368164062500000e+00,5.500723266601562500e+01,-2.090458106994628906e+01,-9.345405578613281250e+01,-1.180765380859375000e+02,6.585875701904296875e+01,-2.980402946472167969e+01
1.353339999914169312e-01,1.000000000000000000e+00,-3.468394851684570312e+01,4.893991851806640625e+01,2.994345474243164062e+01,1.095399627685546875e+02,9.529975891113281250e+01,-3.064032793045043945e+00,5.500723266601562500e+01,-2.090458106994628906e+01,-9.345405578613281250e+01,-1.180766754150390625e+02,6.585875701904296875e+01,-2.980392074584960938e+01
1.393280029296875000e-01,1.000000000000000000e+00,-3.470631027221679688e+01,4.889468002319335938e+01,2.995634651184082031e+01,1.094964599609375000e+02,9.531133270263671875e+01,-3.077324867248535156e+00,5.500723266601562500e+01,-2.090458106994628906e+01,-9.345405578613281250e+01,-1.180766754150390625e+02,6.585875701904296875e+01,-2.980402946472167969e+01
1.434479951858520508e-01,1.000000000000000000e+00,-3.473030853271484375e+01,4.884636306762695312e+01,2.997051620483398438e+01,1.094503097534179688e+02,9.532375335693359375e+01,-3.091634035110473633e+00,5.500723266601562500e+01,-2.090458106994628906e+01,-9.345405578613281250e+01,-1.180766754150390625e+02,6.585875701904296875e+01,-2.980402946472167969e+01
1.473229974508285522e-01,1.000000000000000000e+00,-3.475537109375000000e+01,4.879549407958984375e+01,2.998623085021972656e+01,1.093987960815429688e+02,9.533702850341796875e+01,-3.107706785202026367e+00,5.500723266601562500e+01,-2.090458106994628906e+01,-9.345405578613281250e+01,-1.180766754150390625e+02,6.585875701904296875e+01,-2.980402946472167969e+01
1.513410061597824097e-01,1.000000000000000000e+00,-3.478183746337890625e+01,4.874174499511718750e+01,3.000302696228027344e+01,1.093437042236328125e+02,9.535073089599609375e+01,-3.124796628952026367e+00,5.500734329223632812e+01,-2.090458106994628906e+01,-9.345405578613281250e+01,-1.180766754150390625e+02,6.585875701904296875e+01,-2.980424880981445312e+01
1.553930044174194336e-01,1.000000000000000000e+00,-3.480976867675781250e+01,4.868492126464843750e+01,3.002038955688476562e+01,1.092863922119140625e+02,9.536496734619140625e+01,-3.143039464950561523e+00,5.500723266601562500e+01,-2.090458106994628906e+01,-9.345405578613281250e+01,-1.180766754150390625e+02,6.585875701904296875e+01,-2.980402946472167969e+01
1.593209952116012573e-01,1.000000000000000000e+00,-3.483890533447265625e+01,4.862542724609375000e+01,3.003821945190429688e+01,1.092259216308593750e+02,9.538058471679687500e+01,-3.161892414093017578e+00,5.500723266601562500e+01,-2.090458106994628906e+01,-9.345405578613281250e+01,-1.180766754150390625e+02,6.585875701904296875e+01,-2.980402946472167969e+01
1.633670032024383545e-01,1.000000000000000000e+00,-3.486985397338867188e+01,4.856338119506835938e+01,3.005678367614746094e+01,1.091640319824218750e+02,9.539653015136718750e+01,-3.181016683578491211e+00,5.500712203979492188e+01,-2.090448951721191406e+01,-9.345405578613281250e+01,-1.180766754150390625e+02,6.585875701904296875e+01,-2.980402946472167969e+01
1.674399971961975098e-01,1.000000000000000000e+00,-3.490200424194335938e+01,4.849935531616210938e+01,3.007605934143066406e+01,1.090993957519531250e+02,9.541300201416015625e+01,-3.200412273406982422e+00,5.500723266601562500e+01,-2.090458106994628906e+01,-9.345405578613281250e+01,-1.180766754150390625e+02,6.585860443115234375e+01,-2.980424880981445312e+01
1.713470071554183960e-01,1.000000000000000000e+00,-3.493521881103515625e+01,4.843323516845703125e+01,3.009586334228515625e+01,1.090336074829101562e+02,9.543044281005859375e+01,-3.220893144607543945e+00,5.500723266601562500e+01,-2.090458106994628906e+01,-9.345405578613281250e+01,-1.180766754150390625e+02,6.585875701904296875e+01,-2.980402946472167969e+01
1.753789931535720825e-01,1.000000000000000000e+00,-3.496937942504882812e+01,4.836498260498046875e+01,3.011611175537109375e+01,1.089668731689453125e+02,9.544862365722656250e+01,-3.241644859313964844e+00,5.500723266601562500e+01,-2.090458106994628906e+01,-9.345405578613281250e+01,-1.180766754150390625e+02,6.585875701904296875e+01,-2.980402946472167969e+01
1.794160008430480957e-01,1.000000000000000000e+00,-3.500419998168945312e+01,4.829473876953125000e+01,3.013650512695312500e+01,1.088990859985351562e+02,9.546743774414062500e+01,-3.262329101562500000e+00,5.500723266601562500e+01,-2.090458106994628906e+01,-9.345405578613281250e+01,-1.180766754150390625e+02,6.585875701904296875e+01,-2.980424880981445312e+01
1.833239942789077759e-01,1.000000000000000000e+00,-3.503997039794921875e+01,4.822315979003906250e+01,3.015695953369140625e+01,1.088309707641601562e+02,9.548573303222656250e+01,-3.283284664154052734e+00,5.500723266601562500e+01,-2.090458106994628906e+01,-9.345405578613281250e+01,-1.180766754150390625e+02,6.585875701904296875e+01,-2.980424880981445312e+01
1.873210072517395020e-01,1.000000000000000000e+00,-3.507671356201171875e+01,4.815011215209960938e+01,3.017749404907226562e+01,1.087617645263671875e+02,9.550321960449218750e+01,-3.305121421813964844e+00,5.500723266601562500e+01,-2.090458106994628906e+01,-9.345405578613281250e+01,-1.180766754150390625e+02,6.585875701904296875e+01,-2.980402946472167969e+01
1.913820058107376099e-01,1.000000000000000000e+00,-3.511417770385742188e+01,4.807583999633789062e+01,3.019811058044433594e+01,1.086925964355468750e+02,9.552091979980468750e+01,-3.327365636825561523e+00,5.500723266601562500e+01,-2.090458106994628906e+01,-9.345405578613281250e+01,-1.180766754150390625e+02,6.585875701904296875e+01,-2.980392074584960938e+01
1.953320056200027466e-01,1.000000000000000000e+00,-3.515229797363281250e+01,4.800025558471679688e+01,3.021874809265136719e+01,1.086231231689453125e+02,9.553878021240234375e+01,-3.349202394485473633e+00,5.500723266601562500e+01,-2.090458106994628906e+01,-9.345405578613281250e+01,-1.180766754150390625e+02,6.585875701904296875e+01,-2.980392074584960938e+01
1.993370056152343750e-01,1.000000000000000000e+00,-3.519068145751953125e+01,4.792421722412109375e+01,3.023958778381347656e+01,1.085541687011718750e+02,9.555690765380859375e+01,-3.370497226715087891e+00,5.500723266601562500e+01,-2.090458106994628906e+01,-9.345405578613281250e+01,-1.180766754150390625e+02,6.585875701904296875e+01,-2.980392074584960938e+01
2.033820003271102905e-01,1.000000000000000000e+00,-3.522977828979492188e+01,4.784777450561523438e+01,3.026022529602050781e+01,1.084838485717773438e+02,9.557561492919921875e+01,-3.391655921936035156e+00,5.500712203979492188e+01,-2.090458106994628906e+01,-9.345405578613281250e+01,-1.180766754150390625e+02,6.585875701904296875e+01,-2.980392074584960938e+01
2.073390036821365356e-01,1.000000000000000000e+00,-3.526899337768554688e+01,4.777081298828125000e+01,3.028084182739257812e+01,1.084143676757812500e+02,9.559481811523437500e+01,-3.413018226623535156e+00,5.500734329223632812e+01,-2.090458106994628906e+01,-9.345405578613281250e+01,-1.180766754150390625e+02,6.585860443115234375e+01,-2.980369758605957031e+01
2.113139927387237549e-01,1.000000000000000000e+00,-3.530817794799804688e+01,4.769359588623046875e+01,3.030147552490234375e+01,1.083444747924804688e+02,9.561400604248046875e+01,-3.434177160263061523e+00,5.500723266601562500e+01,-2.090458106994628906e+01,-9.345405578613281250e+01,-1.180766754150390625e+02,6.585875701904296875e+01,-2.980392074584960938e+01
2.153960019350051880e-01,1.000000000000000000e+00,-3.534785079956054688e+01,4.761597824096679688e+01,3.032233810424804688e+01,1.082753677368164062e+02,9.563256072998046875e+01,-3.455674886703491211e+00,5.500712203979492188e+01,-2.090458106994628906e+01,-9.345394897460937500e+01,-1.180766754150390625e+02,6.585875701904296875e+01,-2.980369758605957031e+01
2.193319946527481079e-01,1.000000000000000000e+00,-3.538729095458984375e+01,4.753881072998046875e+01,3.034334182739257812e+01,1.082057266235351562e+02,9.565032196044921875e+01,-3.477308750152587891e+00,5.500734329223632812e+01,-2.090458106994628906e+01,-9.345405578613281250e+01,-1.180766754150390625e+02,6.585875701904296875e+01,-2.980369758605957031e+01
2.233159989118576050e-01,1.000000000000000000e+00,-3.542685317993164062e+01,4.746179962158203125e+01,3.036420059204101562e+01,1.081358871459960938e+02,9.566860198974609375e+01,-3.499281167984008789e+00,5.500723266601562500e+01,-2.090458106994628906e+01,-9.345405578613281250e+01,-1.180766754150390625e+02,6.585875701904296875e+01,-2.980392074584960938e+01
2.273409962654113770e-01,1.000000000000000000e+00,-3.546638107299804688e+01,4.738528823852539062e+01,3.038475608825683594e+01,1.080659942626953125e+02,9.568657684326171875e+01,-3.521525144577026367e+00,5.500723266601562500e+01,-2.090458106994628906e+01,-9.345405578613281250e+01,-1.180765380859375000e+02,6.585875701904296875e+01,-2.980392074584960938e+01
2.313739955425262451e-01,1.000000000000000000e+00,-3.550585556030273438e+01,4.730913925170898438e+01,3.040541458129882812e+01,1.079964065551757812e+02,9.570507049560546875e+01,-3.543294191360473633e+00,5.500723266601562500e+01,-2.090458106994628906e+01,-9.345405578613281250e+01,-1.180766754150390625e+02,6.585875701904296875e+01,-2.980392074584960938e+01
2.353190034627914429e-01,1.000000000000000000e+00,-3.554532623291015625e+01,4.723273849487304688e+01,3.042637634277343750e+01,1.079265060424804688e+02,9.572394561767578125e+01,-3.564181804656982422e+00,5.500723266601562500e+01,-2.090458106994628906e+01,-9.345405578613281250e+01,-1.180766754150390625e+02,6.585875701904296875e+01,-2.980392074584960938e+01
2.394060045480728149e-01,1.000000000000000000e+00,-3.558473968505859375e+01,4.715589141845703125e+01,3.044742012023925781e+01,1.078568191528320312e+02,9.574350738525390625e+01,-3.585069417953491211e+00,5.500723266601562500e+01,-2.090458106994628906e+01,-9.345405578613281250e+01,-1.180766754150390625e+02,6.585889434814453125e+01,-2.980392074584960938e+01
2.434200048446655273e-01,1.000000000000000000e+00,-3.562389373779296875e+01,4.707901763916015625e+01,3.046848297119140625e+01,1.077865524291992188e+02,9.576280975341796875e+01,-3.606296300888061523e+00,5.500723266601562500e+01,-2.090458106994628906e+01,-9.345405578613281250e+01,-1.180766754150390625e+02,6.585875701904296875e+01,-2.980392074584960938e+01
2.473240047693252563e-01,1.000000000000000000e+00,-3.566307830810546875e+01,4.700225448608398438e+01,3.048948287963867188e+01,1.077165985107421875e+02,9.578131103515625000e+01,-3.627997636795043945e+00,5.500723266601562500e+01,-2.090458106994628906e+01,-9.345405578613281250e+01,-1.180766754150390625e+02,6.585875701904296875e+01,-2.980392074584960938e+01
2.513490021228790283e-01,1.000000000000000000e+00,-3.570226287841796875e+01,4.692531204223632812e+01,3.051026344299316406e+01,1.076459121704101562e+02,9.579933166503906250e+01,-3.649291992187500000e+00,5.500723266601562500e+01,-2.090458106994628906e+01,-9.345405578613281250e+01,-1.180766754150390625e+02,6.585875701904296875e+01,-2.980392074584960938e+01
2.554129958152770996e-01,1.000000000000000000e+00,-3.574147796630859375e+01,4.684827804565429688e+01,3.053112411499023438e+01,1.075763854980468750e+02,9.581756591796875000e+01,-3.670993566513061523e+00,5.500723266601562500e+01,-2.090458106994628906e+01,-9.345405578613281250e+01,-1.180766754150390625e+02,6.585875701904296875e+01,-2.980369758605957031e+01
2.593249976634979248e-01,1.000000000000000000e+00,-3.578049087524414062e+01,4.677138519287109375e+01,3.055228996276855469e+01,1.075057449340820312e+02,9.583569335937500000e+01,-3.693101644515991211e+00,5.500723266601562500e+01,-2.090458106994628906e+01,-9.345405578613281250e+01,-1.180766754150390625e+02,6.585875701904296875e+01,-2.980369758605957031e+01
2.643719911575317383e-01,1.000000000000000000e+00,-3.578049087524414062e+01,4.677138519287109375e+01,3.055228996276855469e+01,1.075057449340820312e+02,9.583569335937500000e+01,-3.693101644515991211e+00,5.500723266601562500e+01,-2.090458106994628906e+01,-9.345405578613281250e+01,-1.180766754150390625e+02,6.585875701904296875e+01,-2.980369758605957031e+01
2.678740024566650391e-01,1.000000000000000000e+00,-3.585834503173828125e+01,4.661777114868164062e+01,3.059445571899414062e+01,1.073653717041015625e+02,9.587285614013671875e+01,-3.737182855606079102e+00,5.500712203979492188e+01,-2.090458106994628906e+01,-9.345405578613281250e+01,-1.180766754150390625e+02,6.585875701904296875e+01,-2.980369758605957031e+01
2.713389992713928223e-01,1.000000000000000000e+00,-3.589689636230468750e+01,4.654067230224609375e+01,3.061540031433105469e+01,1.072955780029296875e+02,9.589263916015625000e+01,-3.758002519607543945e+00,5.500723266601562500e+01,-2.090458106994628906e+01,-9.345405578613281250e+01,-1.180766754150390625e+02,6.585875701904296875e+01,-2.980369758605957031e+01
2.763760089874267578e-01,1.000000000000000000e+00,-3.589689636230468750e+01,4.654067230224609375e+01,3.061540031433105469e+01,1.072955780029296875e+02,9.589263916015625000e+01,-3.758002519607543945e+00,5.500723266601562500e+01,-2.090458106994628906e+01,-9.345405578613281250e+01,-1.180766754150390625e+02,6.585875701904296875e+01,-2.980369758605957031e+01
2.797420024871826172e-01,1.000000000000000000e+00,-3.597426223754882812e+01,4.638637924194335938e+01,3.065730476379394531e+01,1.071554641723632812e+02,9.593038177490234375e+01,-3.800252437591552734e+00,5.500712203979492188e+01,-2.090458106994628906e+01,-9.345405578613281250e+01,-1.180766754150390625e+02,6.585875701904296875e+01,-2.980392074584960938e+01
2.843619883060455322e-01,1.000000000000000000e+00,-3.601316070556640625e+01,4.630900573730468750e+01,3.067861175537109375e+01,1.070845642089843750e+02,9.594835662841796875e+01,-3.821885824203491211e+00,5.500723266601562500e+01,-2.090448951721191406e+01,-9.345405578613281250e+01,-1.180766754150390625e+02,6.585875701904296875e+01,-2.980392074584960938e+01
2.873429954051971436e-01,1.000000000000000000e+00,-3.605165481567382812e+01,4.623136520385742188e+01,3.069969558715820312e+01,1.070144042968750000e+02,9.596648406982421875e+01,-3.843180656433105469e+00,5.500712203979492188e+01,-2.090458106994628906e+01,-9.345405578613281250e+01,-1.180766754150390625e+02,6.585875701904296875e+01,-2.980392074584960938e+01
2.914420068264007568e-01,1.000000000000000000e+00,-3.605165481567382812e+01,4.623136520385742188e+01,3.069969558715820312e+01,1.070144042968750000e+02,9.596648406982421875e+01,-3.843180656433105469e+00,5.500712203979492188e+01,-2.090458106994628906e+01,-9.345405578613281250e+01,-1.180766754150390625e+02,6.585875701904296875e+01,-2.980392074584960938e+01
2.963559925556182861e-01,1.000000000000000000e+00,-3.609020614624023438e+01,4.615347290039062500e+01,3.072073936462402344e+01,1.069439773559570312e+02,9.598508453369140625e+01,-3.865288734436035156e+00,5.500723266601562500e+01,-2.090448951721191406e+01,-9.345405578613281250e+01,-1.180766754150390625e+02,6.585875701904296875e+01,-2.980392074584960938e+01
2.994340062141418457e-01,1.000000000000000000e+00,-3.616748809814453125e+01,4.599789428710937500e+01,3.076282310485839844e+01,1.068028640747070312e+02,9.602288818359375000e+01,-3.909301996231079102e+00,5.500723266601562500e+01,-2.090458106994628906e+01,-9.345405578613281250e+01,-1.180766754150390625e+02,6.585875701904296875e+01,-2.980402946472167969e+01
3.043780028820037842e-01,1.000000000000000000e+00,-3.616748809814453125e+01,4.599789428710937500e+01,3.076282310485839844e+01,1.068028640747070312e+02,9.602288818359375000e+01,-3.909301996231079102e+00,5.500723266601562500e+01,-2.090458106994628906e+01,-9.345405578613281250e+01,-1.180766754150390625e+02,6.585875701904296875e+01,-2.980402946472167969e+01
3.073349893093109131e-01,1.000000000000000000e+00,-3.624485397338867188e+01,4.584258270263671875e+01,3.080535888671875000e+01,1.066616439819335938e+02,9.606192016601562500e+01,-3.951619625091552734e+00,5.500723266601562500e+01,-2.090458106994628906e+01,-9.345405578613281250e+01,-1.180766754150390625e+02,6.585875701904296875e+01,-2.980392074584960938e+01
3.114190101623535156e-01,1.000000000000000000e+00,-3.624485397338867188e+01,4.584258270263671875e+01,3.080535888671875000e+01,1.066616439819335938e+02,9.606192016601562500e+01,-3.951619625091552734e+00,5.500723266601562500e+01,-2.090458106994628906e+01,-9.345405578613281250e+01,-1.180766754150390625e+02,6.585875701904296875e+01,-2.980392074584960938e+01
3.183650076389312744e-01,1.000000000000000000e+00,-3.628369522094726562e+01,4.576475906372070312e+01,3.082644462585449219e+01,1.065911102294921875e+02,9.608026123046875000e+01,-3.972642898559570312e+00,5.500723266601562500e+01,-2.090458106994628906e+01,-9.345405578613281250e+01,-1.180766754150390625e+02,6.585860443115234375e+01,-2.980402946472167969e+01
3.197669982910156250e-01,1.000000000000000000e+00,-3.636174392700195312e+01,4.560854339599609375e+01,3.086832618713378906e+01,1.064493637084960938e+02,9.611688995361328125e+01,-4.015638351440429688e+00,5.500723266601562500e+01,-2.090458106994628906e+01,-9.345405578613281250e+01,-1.180766754150390625e+02,6.585875701904296875e+01,-2.980402946472167969e+01
3.261010050773620605e-01,1.000000000000000000e+00,-3.636174392700195312e+01,4.560854339599609375e+01,3.086832618713378906e+01,1.064493637084960938e+02,9.611688995361328125e+01,-4.015638351440429688e+00,5.500723266601562500e+01,-2.090458106994628906e+01,-9.345405578613281250e+01,-1.180766754150390625e+02,6.585875701904296875e+01,-2.980402946472167969e+01
3.284139931201934814e-01,1.000000000000000000e+00,-3.644034576416015625e+01,4.545228195190429688e+01,3.091088294982910156e+01,1.063081512451171875e+02,9.615404510498046875e+01,-4.059584140777587891e+00,5.500723266601562500e+01,-2.090458106994628906e+01,-9.345405578613281250e+01,-1.180766754150390625e+02,6.585875701904296875e+01,-2.980369758605957031e+01
3.313289880752563477e-01,1.000000000000000000e+00,-3.647990417480468750e+01,4.537382888793945312e+01,3.093212699890136719e+01,1.062372512817382812e+02,9.617313385009765625e+01,-4.082234859466552734e+00,5.500723266601562500e+01,-2.090458106994628906e+01,-9.345405578613281250e+01,-1.180766754150390625e+02,6.585875701904296875e+01,-2.980392074584960938e+01
3.353790044784545898e-01,1.000000000000000000e+00,-3.647990417480468750e+01,4.537382888793945312e+01,3.093212699890136719e+01,1.062372512817382812e+02,9.617313385009765625e+01,-4.082234859466552734e+00,5.500723266601562500e+01,-2.090458106994628906e+01,-9.345405578613281250e+01,-1.180766754150390625e+02,6.585875701904296875e+01,-2.980392074584960938e+01
3.394330143928527832e-01,1.000000000000000000e+00,-3.651954650878906250e+01,4.529527664184570312e+01,3.095339584350585938e+01,1.061665649414062500e+02,9.619270324707031250e+01,-4.104411125183105469e+00,5.500723266601562500e+01,-2.090458106994628906e+01,-9.345405578613281250e+01,-1.180766754150390625e+02,6.585875701904296875e+01,-2.980392074584960938e+01
3.433629870414733887e-01,1.000000000000000000e+00,-3.655904769897460938e+01,4.521697998046875000e+01,3.097455978393554688e+01,1.060959243774414062e+02,9.621163177490234375e+01,-4.124959468841552734e+00,5.500723266601562500e+01,-2.090458106994628906e+01,-9.345405578613281250e+01,-1.180766754150390625e+02,6.585860443115234375e+01,-2.980369758605957031e+01
3.473980128765106201e-01,1.000000000000000000e+00,-3.659860610961914062e+01,4.513890838623046875e+01,3.099568557739257812e+01,1.060247650146484375e+02,9.622997283935546875e+01,-4.146186351776123047e+00,5.500723266601562500e+01,-2.090458106994628906e+01,-9.345394897460937500e+01,-1.180766754150390625e+02,6.585875701904296875e+01,-2.980392074584960938e+01
3.514460027217864990e-01,1.000000000000000000e+00,-3.663836288452148438e+01,4.506090164184570312e+01,3.101703262329101562e+01,1.059533920288085938e+02,9.624798583984375000e+01,-4.167819499969482422e+00,5.500712203979492188e+01,-2.090458106994628906e+01,-9.345405578613281250e+01,-1.180766754150390625e+02,6.585875701904296875e+01,-2.980392074584960938e+01
3.553670048713684082e-01,1.000000000000000000e+00,-3.667821121215820312e+01,4.498262405395507812e+01,3.103836059570312500e+01,1.058821716308593750e+02,9.626670074462890625e+01,-4.189521312713623047e+00,5.500723266601562500e+01,-2.090458106994628906e+01,-9.345405578613281250e+01,-1.180766754150390625e+02,6.585860443115234375e+01,-2.980392074584960938e+01
3.593620061874389648e-01,1.000000000000000000e+00,-3.671817016601562500e+01,4.490428161621093750e+01,3.105942535400390625e+01,1.058115921020507812e+02,9.628531646728515625e+01,-4.211087226867675781e+00,5.500723266601562500e+01,-2.090458106994628906e+01,-9.345405578613281250e+01,-1.180766754150390625e+02,6.585875701904296875e+01,-2.980392074584960938e+01
3.633950054645538330e-01,1.000000000000000000e+00,-3.675798416137695312e+01,4.482584381103515625e+01,3.108065414428710938e+01,1.057403793334960938e+02,9.630397796630859375e+01,-4.233263015747070312e+00,5.500712203979492188e+01,-2.090458106994628906e+01,-9.345405578613281250e+01,-1.180766754150390625e+02,6.585875701904296875e+01,-2.980392074584960938e+01
3.674190044403076172e-01,1.000000000000000000e+00,-3.679785919189453125e+01,4.474731826782226562e+01,3.110200119018554688e+01,1.056692123413085938e+02,9.632375335693359375e+01,-4.255574703216552734e+00,5.500723266601562500e+01,-2.090458106994628906e+01,-9.345405578613281250e+01,-1.180768966674804688e+02,6.585889434814453125e+01,-2.980392074584960938e+01
3.713960051536560059e-01,1.000000000000000000e+00,-3.683804702758789062e+01,4.466865539550781250e+01,3.112345123291015625e+01,1.055978927612304688e+02,9.634316253662109375e+01,-4.277683258056640625e+00,5.500723266601562500e+01,-2.090458106994628906e+01,-9.345405578613281250e+01,-1.180766754150390625e+02,6.585875701904296875e+01,-2.980392074584960938e+01
3.753879964351654053e-01,1.000000000000000000e+00,-3.687809753417968750e+01,4.459024047851562500e+01,3.114486122131347656e+01,1.055272598266601562e+02,9.636193084716796875e+01,-4.299113273620605469e+00,5.500712203979492188e+01,-2.090458106994628906e+01,-9.345405578613281250e+01,-1.180766754150390625e+02,6.585875701904296875e+01,-2.980392074584960938e+01
3.793979883193969727e-01,1.000000000000000000e+00,-3.691808319091796875e+01,4.451173782348632812e+01,3.116616630554199219e+01,1.054558334350585938e+02,9.638032531738281250e+01,-4.320475578308105469e+00,5.500723266601562500e+01,-2.090458106994628906e+01,-9.345405578613281250e+01,-1.180766754150390625e+02,6.585875701904296875e+01,-2.980392074584960938e+01
3.834069967269897461e-01,1.000000000000000000e+00,-3.695827484130859375e+01,4.443316650390625000e+01,3.118723106384277344e+01,1.053850402832031250e+02,9.639855194091796875e+01,-4.341769695281982422e+00,5.500723266601562500e+01,-2.090458106994628906e+01,-9.345405578613281250e+01,-1.180766754150390625e+02,6.585875701904296875e+01,-2.980392074584960938e+01
3.873769938945770264e-01,1.000000000000000000e+00,-3.699826049804687500e+01,4.435473251342773438e+01,3.120853805541992188e+01,1.053134002685546875e+02,9.641673278808593750e+01,-4.364013671875000000e+00,5.500723266601562500e+01,-2.090458106994628906e+01,-9.345405578613281250e+01,-1.180766754150390625e+02,6.585875701904296875e+01,-2.980402946472167969e+01
3.914049863815307617e-01,1.000000000000000000e+00,-3.703813552856445312e+01,4.427629852294921875e+01,3.122990608215332031e+01,1.052420272827148438e+02,9.643539428710937500e+01,-4.385783195495605469e+00,5.500723266601562500e+01,-2.090458106994628906e+01,-9.345405578613281250e+01,-1.180766754150390625e+02,6.585875701904296875e+01,-2.980402946472167969e+01
3.954139947891235352e-01,1.000000000000000000e+00,-3.707821273803710938e+01,4.419765853881835938e+01,3.125131988525390625e+01,1.051708679199218750e+02,9.645453643798828125e+01,-4.407619953155517578e+00,5.500734329223632812e+01,-2.090458106994628906e+01,-9.345405578613281250e+01,-1.180766754150390625e+02,6.585875701904296875e+01,-2.980402946472167969e+01
3.995020091533660889e-01,1.000000000000000000e+00,-3.711822891235351562e+01,4.411893081665039062e+01,3.127280616760253906e+01,1.050997543334960938e+02,9.647426605224609375e+01,-4.429999828338623047e+00,5.500723266601562500e+01,-2.090467262268066406e+01,-9.345405578613281250e+01,-1.180765380859375000e+02,6.585875701904296875e+01,-2.980392074584960938e+01
4.034070074558258057e-01,1.000000000000000000e+00,-3.715801620483398438e+01,4.404018020629882812e+01,3.129423713684082031e+01,1.050273284912109375e+02,9.649361419677734375e+01,-4.452785968780517578e+00,5.500723266601562500e+01,-2.090458106994628906e+01,-9.345405578613281250e+01,-1.180766754150390625e+02,6.585860443115234375e+01,-2.980402946472167969e+01
4.073629975318908691e-01,1.000000000000000000e+00,-3.719791793823242188e+01,4.396099853515625000e+01,3.131564521789550781e+01,1.049561614990234375e+02,9.651222991943359375e+01,-4.475097656250000000e+00,5.500723266601562500e+01,-2.090458106994628906e+01,-9.345405578613281250e+01,-1.180766754150390625e+02,6.585875701904296875e+01,-2.980392074584960938e+01
4.117290079593658447e-01,1.000000000000000000e+00,-3.723773574829101562e+01,4.388185882568359375e+01,3.133725929260253906e+01,1.048843688964843750e+02,9.653045654296875000e+01,-4.496256828308105469e+00,5.500723266601562500e+01,-2.090458106994628906e+01,-9.345405578613281250e+01,-1.180766754150390625e+02,6.585875701904296875e+01,-2.980392074584960938e+01
4.153969883918762207e-01,1.000000000000000000e+00,-3.727758026123046875e+01,4.380256271362304688e+01,3.135866928100585938e+01,1.048135757446289062e+02,9.654907226562500000e+01,-4.517686843872070312e+00,5.500723266601562500e+01,-2.090458106994628906e+01,-9.345405578613281250e+01,-1.180766754150390625e+02,6.585875701904296875e+01,-2.980392074584960938e+01
4.193679988384246826e-01,1.000000000000000000e+00,-3.731779861450195312e+01,4.372376632690429688e+01,3.137997627258300781e+01,1.047417831420898438e+02,9.656783294677734375e+01,-4.539524078369140625e+00,5.500723266601562500e+01,-2.090458106994628906e+01,-9.345405578613281250e+01,-1.180766754150390625e+02,6.585875701904296875e+01,-2.980402946472167969e+01
4.234279990196228027e-01,1.000000000000000000e+00,-3.735778808593750000e+01,4.364501571655273438e+01,3.140136528015136719e+01,1.046701431274414062e+02,9.658665466308593750e+01,-4.561563968658447266e+00,5.500723266601562500e+01,-2.090458106994628906e+01,-9.345405578613281250e+01,-1.180766754150390625e+02,6.585875701904296875e+01,-2.980402946472167969e+01
4.273959994316101074e-01,1.000000000000000000e+00,-3.739765930175781250e+01,4.356585311889648438e+01,3.142277336120605469e+01,1.045985641479492188e+02,9.660600280761718750e+01,-4.583198070526123047e+00,5.500723266601562500e+01,-2.090458106994628906e+01,-9.345405578613281250e+01,-1.180766754150390625e+02,6.585875701904296875e+01,-2.980392074584960938e+01
4.313639998435974121e-01,1.000000000000000000e+00,-3.743779373168945312e+01,4.348674011230468750e+01,3.144434738159179688e+01,1.045271301269531250e+02,9.662594604492187500e+01,-4.605916500091552734e+00,5.500723266601562500e+01,-2.090458106994628906e+01,-9.345405578613281250e+01,-1.180766754150390625e+02,6.585875701904296875e+01,-2.980369758605957031e+01
4.357689917087554932e-01,1.000000000000000000e+00,-3.747789764404296875e+01,4.340764999389648438e+01,3.146596145629882812e+01,1.044552841186523438e+02,9.664530181884765625e+01,-4.628431797027587891e+00,5.500723266601562500e+01,-2.090458106994628906e+01,-9.345405578613281250e+01,-1.180766754150390625e+02,6.585875701904296875e+01,-2.980369758605957031e+01
4.394089877605438232e-01,1.000000000000000000e+00,-3.751800155639648438e+01,4.332828521728515625e+01,3.148728942871093750e+01,1.043835983276367188e+02,9.666396331787109375e+01,-4.651014804840087891e+00,5.500723266601562500e+01,-2.090458106994628906e+01,-9.345422363281250000e+01,-1.180766754150390625e+02,6.585875701904296875e+01,-2.980392074584960938e+01
4.433780014514923096e-01,1.000000000000000000e+00,-3.755796051025390625e+01,4.324872207641601562e+01,3.150875854492187500e+01,1.043114929199218750e+02,9.668230438232421875e+01,-4.672512531280517578e+00,5.500712203979492188e+01,-2.090458106994628906e+01,-9.345405578613281250e+01,-1.180766754150390625e+02,6.585875701904296875e+01,-2.980392074584960938e+01
4.481169879436492920e-01,1.000000000000000000e+00,-3.759803390502929688e+01,4.316892623901367188e+01,3.153027153015136719e+01,1.042396469116210938e+02,9.670075225830078125e+01,-4.693807125091552734e+00,5.500723266601562500e+01,-2.090467262268066406e+01,-9.345405578613281250e+01,-1.180766754150390625e+02,6.585875701904296875e+01,-2.980392074584960938e+01
4.514110088348388672e-01,1.000000000000000000e+00,-3.763813781738281250e+01,4.308935928344726562e+01,3.155183982849121094e+01,1.041673736572265625e+02,9.671930694580078125e+01,-4.715372562408447266e+00,5.500723266601562500e+01,-2.090458106994628906e+01,-9.345405578613281250e+01,-1.180766754150390625e+02,6.585860443115234375e+01,-2.980392074584960938e+01
4.554130136966705322e-01,1.000000000000000000e+00,-3.767807006835937500e+01,4.300992584228515625e+01,3.157363891601562500e+01,1.040956802368164062e+02,9.673844146728515625e+01,-4.737617015838623047e+00,5.500723266601562500e+01,-2.090458106994628906e+01,-9.345405578613281250e+01,-1.180766754150390625e+02,6.585860443115234375e+01,-2.980392074584960938e+01
4.602040052413940430e-01,1.000000000000000000e+00,-3.771799850463867188e+01,4.293063354492187500e+01,3.159512710571289062e+01,1.040232009887695312e+02,9.675822448730468750e+01,-4.759521961212158203e+00,5.500723266601562500e+01,-2.090458106994628906e+01,-9.345405578613281250e+01,-1.180766754150390625e+02,6.585875701904296875e+01,-2.980369758605957031e+01
4.635359942913055420e-01,1.000000000000000000e+00,-3.775798797607421875e+01,4.285151672363281250e+01,3.161661911010742188e+01,1.039515151977539062e+02,9.677799987792968750e+01,-4.781358718872070312e+00,5.500712203979492188e+01,-2.090458106994628906e+01,-9.345405578613281250e+01,-1.180766754150390625e+02,6.585875701904296875e+01,-2.980392074584960938e+01
4.674099981784820557e-01,1.000000000000000000e+00,-3.779817962646484375e+01,4.277231597900390625e+01,3.163817024230957031e+01,1.038792953491210938e+02,9.679698181152343750e+01,-4.804213047027587891e+00,5.500723266601562500e+01,-2.090458106994628906e+01,-9.345405578613281250e+01,-1.180766754150390625e+02,6.585875701904296875e+01,-2.980392074584960938e+01
4.720920026302337646e-01,1.000000000000000000e+00,-3.783848190307617188e+01,4.269292831420898438e+01,3.165980148315429688e+01,1.038077621459960938e+02,9.681575012207031250e+01,-4.826728343963623047e+00,5.500723266601562500e+01,-2.090458106994628906e+01,-9.345405578613281250e+01,-1.180766754150390625e+02,6.585875701904296875e+01,-2.980392074584960938e+01
4.756250083446502686e-01,1.000000000000000000e+00,-3.787884140014648438e+01,4.261324691772460938e+01,3.168164253234863281e+01,1.037349166870117188e+02,9.683414459228515625e+01,-4.848904132843017578e+00,5.500712203979492188e+01,-2.090458106994628906e+01,-9.345405578613281250e+01,-1.180766754150390625e+02,6.585875701904296875e+01,-2.980392074584960938e+01
4.794979989528656006e-01,1.000000000000000000e+00,-3.791897583007812500e+01,4.253361511230468750e+01,3.170319175720214844e+01,1.036633300781250000e+02,9.685280609130859375e+01,-4.870605468750000000e+00,5.500723266601562500e+01,-2.090458106994628906e+01,-9.345405578613281250e+01,-1.180766754150390625e+02,6.585875701904296875e+01,-2.980369758605957031e+01
4.840669929981231689e-01,1.000000000000000000e+00,-3.795925140380859375e+01,4.245348358154296875e+01,3.172466087341308594e+01,1.035909042358398438e+02,9.687173461914062500e+01,-4.892103195190429688e+00,5.500723266601562500e+01,-2.090458106994628906e+01,-9.345405578613281250e+01,-1.180765380859375000e+02,6.585875701904296875e+01,-2.980369758605957031e+01
4.876410067081451416e-01,1.000000000000000000e+00,-3.799946975708007812e+01,4.237323379516601562e+01,3.174619293212890625e+01,1.035190582275390625e+02,9.689125061035156250e+01,-4.914008140563964844e+00,5.500723266601562500e+01,-2.090458106994628906e+01,-9.345405578613281250e+01,-1.180766754150390625e+02,6.585875701904296875e+01,-2.980369758605957031e+01
4.914900064468383789e-01,1.000000000000000000e+00,-3.803960037231445312e+01,4.229335021972656250e+01,3.176792716979980469e+01,1.034461059570312500e+02,9.691114044189453125e+01,-4.936319828033447266e+00,5.500723266601562500e+01,-2.090458106994628906e+01,-9.345405578613281250e+01,-1.180768966674804688e+02,6.585889434814453125e+01,-2.980369758605957031e+01
4.967989921569824219e-01,1.000000000000000000e+00,-3.807987976074218750e+01,4.221353912353515625e+01,3.178982543945312500e+01,1.033738861083984375e+02,9.693080902099609375e+01,-4.958360671997070312e+00,5.500723266601562500e+01,-2.090458106994628906e+01,-9.345405578613281250e+01,-1.180765380859375000e+02,6.585875701904296875e+01,-2.980369758605957031e+01
4.998649954795837402e-01,1.000000000000000000e+00,-3.812026977539062500e+01,4.213415145874023438e+01,3.181155776977539062e+01,1.033008804321289062e+02,9.694989776611328125e+01,-4.980672359466552734e+00,5.500712203979492188e+01,-2.090458106994628906e+01,-9.345405578613281250e+01,-1.180766754150390625e+02,6.585875701904296875e+01,-2.980392074584960938e+01
5.043609738349914551e-01,1.000000000000000000e+00,-3.816051483154296875e+01,4.205440139770507812e+01,3.183304977416992188e+01,1.032291412353515625e+02,9.696850585937500000e+01,-5.003594398498535156e+00,5.500723266601562500e+01,-2.090458106994628906e+01,-9.345405578613281250e+01,-1.180768966674804688e+02,6.585875701904296875e+01,-2.980392074584960938e+01
5.084819793701171875e-01,1.000000000000000000e+00,-3.820093536376953125e+01,4.197456359863281250e+01,3.185443878173828125e+01,1.031561355590820312e+02,9.698706054687500000e+01,-5.026448726654052734e+00,5.500723266601562500e+01,-2.090467262268066406e+01,-9.345405578613281250e+01,-1.180766754150390625e+02,6.585875701904296875e+01,-2.980402946472167969e+01
5.118380188941955566e-01,1.000000000000000000e+00,-3.824109649658203125e+01,4.189456558227539062e+01,3.187601089477539062e+01,1.030836563110351562e+02,9.700572204589843750e+01,-5.047472000122070312e+00,5.500734329223632812e+01,-2.090458106994628906e+01,-9.345405578613281250e+01,-1.180766754150390625e+02,6.585875701904296875e+01,-2.980402946472167969e+01
5.157610177993774414e-01,1.000000000000000000e+00,-3.828154373168945312e+01,4.181418609619140625e+01,3.189797019958496094e+01,1.030107040405273438e+02,9.702474975585937500e+01,-5.069105625152587891e+00,5.500723266601562500e+01,-2.090458106994628906e+01,-9.345405578613281250e+01,-1.180766754150390625e+02,6.585875701904296875e+01,-2.980424880981445312e+01
5.196639895439147949e-01,1.000000000000000000e+00,-3.832184982299804688e+01,4.173360061645507812e+01,3.191978645324707031e+01,1.029387512207031250e+02,9.704469299316406250e+01,-5.091145992279052734e+00,5.500723266601562500e+01,-2.090467262268066406e+01,-9.345405578613281250e+01,-1.180768966674804688e+02,6.585875701904296875e+01,-2.980402946472167969e+01
5.239080190658569336e-01,1.000000000000000000e+00,-3.836226654052734375e+01,4.165274429321289062e+01,3.194182777404785156e+01,1.028661117553710938e+02,9.706457519531250000e+01,-5.113050460815429688e+00,5.500723266601562500e+01,-2.090458106994628906e+01,-9.345405578613281250e+01,-1.180766754150390625e+02,6.585875701904296875e+01,-2.980424880981445312e+01
5.283589959144592285e-01,1.000000000000000000e+00,-3.840274429321289062e+01,4.157218170166015625e+01,3.196356201171875000e+01,1.027933731079101562e+02,9.708409118652343750e+01,-5.135294914245605469e+00,5.500723266601562500e+01,-2.090458106994628906e+01,-9.345405578613281250e+01,-1.180766754150390625e+02,6.585875701904296875e+01,-2.980402946472167969e+01
5.324299931526184082e-01,1.000000000000000000e+00,-3.844298934936523438e+01,4.149177932739257812e+01,3.198517227172851562e+01,1.027205734252929688e+02,9.710270690917968750e+01,-5.158081054687500000e+00,5.500723266601562500e+01,-2.090458106994628906e+01,-9.345405578613281250e+01,-1.180766754150390625e+02,6.585875701904296875e+01,-2.980402946472167969e+01
5.361229777336120605e-01,1.000000000000000000e+00,-3.848332595825195312e+01,4.141159820556640625e+01,3.200706863403320312e+01,1.026480484008789062e+02,9.712115478515625000e+01,-5.180799484252929688e+00,5.500734329223632812e+01,-2.090458106994628906e+01,-9.345405578613281250e+01,-1.180766754150390625e+02,6.585875701904296875e+01,-2.980402946472167969e+01
5.399410128593444824e-01,1.000000000000000000e+00,-3.852382659912109375e+01,4.133169555664062500e+01,3.202884674072265625e+01,1.025750350952148438e+02,9.714039611816406250e+01,-5.203789710998535156e+00,5.500723266601562500e+01,-2.090458106994628906e+01,-9.345405578613281250e+01,-1.180766754150390625e+02,6.585875701904296875e+01,-2.980392074584960938e+01
5.451350212097167969e-01,1.000000000000000000e+00,-3.856441879272460938e+01,4.125144577026367188e+01,3.205049896240234375e+01,1.025019302368164062e+02,9.715937042236328125e+01,-5.226169109344482422e+00,5.500723266601562500e+01,-2.090458106994628906e+01,-9.345405578613281250e+01,-1.180766754150390625e+02,6.585875701904296875e+01,-2.980402946472167969e+01
5.481150150299072266e-01,1.000000000000000000e+00,-3.860478210449218750e+01,4.117086029052734375e+01,3.207227325439453125e+01,1.024285507202148438e+02,9.717857360839843750e+01,-5.247531414031982422e+00,5.500734329223632812e+01,-2.090467262268066406e+01,-9.345405578613281250e+01,-1.180766754150390625e+02,6.585875701904296875e+01,-2.980392074584960938e+01
5.519909858703613281e-01,1.000000000000000000e+00,-3.864514160156250000e+01,4.109000396728515625e+01,3.209407043457031250e+01,1.023557510375976562e+02,9.719888305664062500e+01,-5.269368648529052734e+00,5.500723266601562500e+01,-2.090458106994628906e+01,-9.345405578613281250e+01,-1.180766754150390625e+02,6.585875701904296875e+01,-2.980392074584960938e+01
5.569390058517456055e-01,1.000000000000000000e+00,-3.868562316894531250e+01,4.100903701782226562e+01,3.211621093750000000e+01,1.022828521728515625e+02,9.721877288818359375e+01,-5.291883945465087891e+00,5.500723266601562500e+01,-2.090458106994628906e+01,-9.345405578613281250e+01,-1.180766754150390625e+02,6.585875701904296875e+01,-2.980392074584960938e+01
5.604929924011230469e-01,1.000000000000000000e+00,-3.872626876831054688e+01,4.092790603637695312e+01,3.213819122314453125e+01,1.022099533081054688e+02,9.723828125000000000e+01,-5.314466953277587891e+00,5.500723266601562500e+01,-2.090458106994628906e+01,-9.345405578613281250e+01,-1.180766754150390625e+02,6.585875701904296875e+01,-2.980392074584960938e+01
5.641009807586669922e-01,1.000000000000000000e+00,-3.876697540283203125e+01,4.084684753417968750e+01,3.216014862060546875e+01,1.021367874145507812e+02,9.725684356689453125e+01,-5.336710929870605469e+00,5.500723266601562500e+01,-2.090458106994628906e+01,-9.345405578613281250e+01,-1.180766754150390625e+02,6.585875701904296875e+01,-2.980392074584960938e+01
5.679870247840881348e-01,1.000000000000000000e+00,-3.880756759643554688e+01,4.076610565185546875e+01,3.218198394775390625e+01,1.020638885498046875e+02,9.727544403076171875e+01,-5.359700679779052734e+00,5.500734329223632812e+01,-2.090458106994628906e+01,-9.345405578613281250e+01,-1.180768966674804688e+02,6.585875701904296875e+01,-2.980402946472167969e+01
5.723299980163574219e-01,1.000000000000000000e+00,-3.884824371337890625e+01,4.068565368652343750e+01,3.220367813110351562e+01,1.019908752441406250e+02,9.729426574707031250e+01,-5.382690906524658203e+00,5.500734329223632812e+01,-2.090458106994628906e+01,-9.345405578613281250e+01,-1.180766754150390625e+02,6.585875701904296875e+01,-2.980392074584960938e+01
5.762330293655395508e-01,1.000000000000000000e+00,-3.888903808593750000e+01,4.060509109497070312e+01,3.222565841674804688e+01,1.019176635742187500e+02,9.731340789794921875e+01,-5.405138015747070312e+00,5.500723266601562500e+01,-2.090458106994628906e+01,-9.345405578613281250e+01,-1.180766754150390625e+02,6.585875701904296875e+01,-2.980392074584960938e+01
5.809059739112854004e-01,1.000000000000000000e+00,-3.892985916137695312e+01,4.052457427978515625e+01,3.224777984619140625e+01,1.018444442749023438e+02,9.733313751220703125e+01,-5.426839351654052734e+00,5.500723266601562500e+01,-2.090458106994628906e+01,-9.345405578613281250e+01,-1.180766754150390625e+02,6.585875701904296875e+01,-2.980392074584960938e+01
5.844230055809020996e-01,1.000000000000000000e+00,-3.897079467773437500e+01,4.044392013549804688e+01,3.226973724365234375e+01,1.017714385986328125e+02,9.735339355468750000e+01,-5.448676109313964844e+00,5.500723266601562500e+01,-2.090458106994628906e+01,-9.345405578613281250e+01,-1.180766754150390625e+02,6.585875701904296875e+01,-2.980392074584960938e+01
5.883200168609619141e-01,1.000000000000000000e+00,-3.901190185546875000e+01,4.036297225952148438e+01,3.229167556762695312e+01,1.016980133056640625e+02,9.737301635742187500e+01,-5.471395015716552734e+00,5.500723266601562500e+01,-2.090458106994628906e+01,-9.345405578613281250e+01,-1.180766754150390625e+02,6.585875701904296875e+01,-2.980392074584960938e+01
5.929660201072692871e-01,1.000000000000000000e+00,-3.905300903320312500e+01,4.028162002563476562e+01,3.231359481811523438e+01,1.016242675781250000e+02,9.739220428466796875e+01,-5.494113922119140625e+00,5.500723266601562500e+01,-2.090467262268066406e+01,-9.345405578613281250e+01,-1.180766754150390625e+02,6.585875701904296875e+01,-2.980392074584960938e+01
5.965890288352966309e-01,1.000000000000000000e+00,-3.909397506713867188e+01,4.019976806640625000e+01,3.233565139770507812e+01,1.015506896972656250e+02,9.741091918945312500e+01,-5.516696453094482422e+00,5.500723266601562500e+01,-2.090458106994628906e+01,-9.345405578613281250e+01,-1.180766754150390625e+02,6.585875701904296875e+01,-2.980392074584960938e+01
6.004999876022338867e-01,1.000000000000000000e+00,-3.913491058349609375e+01,4.011816406250000000e+01,3.235785293579101562e+01,1.014772567749023438e+02,9.742969512939453125e+01,-5.539550781250000000e+00,5.500723266601562500e+01,-2.090458106994628906e+01,-9.345405578613281250e+01,-1.180766754150390625e+02,6.585875701904296875e+01,-2.980392074584960938e+01
6.052209734916687012e-01,1.000000000000000000e+00,-3.917621994018554688e+01,4.003674316406250000e+01,3.237973022460937500e+01,1.014039306640625000e+02,9.744898986816406250e+01,-5.562676429748535156e+00,5.500723266601562500e+01,-2.090458106994628906e+01,-9.345405578613281250e+01,-1.180766754150390625e+02,6.585875701904296875e+01,-2.980369758605957031e+01
6.086210012435913086e-01,1.000000000000000000e+00,-3.921744537353515625e+01,3.995581817626953125e+01,3.240160751342773438e+01,1.013307189941406250e+02,9.746866607666015625e+01,-5.585869789123535156e+00,5.500723266601562500e+01,-2.090458106994628906e+01,-9.345405578613281250e+01,-1.180766754150390625e+02,6.585875701904296875e+01,-2.980369758605957031e+01
6.124979853630065918e-01,1.000000000000000000e+00,-3.925866699218750000e+01,3.987509536743164062e+01,3.242356872558593750e+01,1.012567596435546875e+02,9.748881530761718750e+01,-5.607910156250000000e+00,5.500723266601562500e+01,-2.090458106994628906e+01,-9.345405578613281250e+01,-1.180766754150390625e+02,6.585875701904296875e+01,-2.980392074584960938e+01
6.172220110893249512e-01,1.000000000000000000e+00,-3.929997634887695312e+01,3.979426193237304688e+01,3.244570922851562500e+01,1.011834411621093750e+02,9.750917816162109375e+01,-5.629815101623535156e+00,5.500723266601562500e+01,-2.090458106994628906e+01,-9.345405578613281250e+01,-1.180766754150390625e+02,6.585875701904296875e+01,-2.980369758605957031e+01
6.206139922142028809e-01,1.000000000000000000e+00,-3.934148406982421875e+01,3.971315383911132812e+01,3.246776962280273438e+01,1.011100616455078125e+02,9.752880859375000000e+01,-5.652059078216552734e+00,5.500723266601562500e+01,-2.090458106994628906e+01,-9.345405578613281250e+01,-1.180766754150390625e+02,6.585860443115234375e+01,-2.980392074584960938e+01
6.245329976081848145e-01,1.000000000000000000e+00,-3.938270568847656250e+01,3.963166427612304688e+01,3.248988723754882812e+01,1.010363235473632812e+02,9.754740905761718750e+01,-5.674574375152587891e+00,5.500723266601562500e+01,-2.090458106994628906e+01,-9.345405578613281250e+01,-1.180766754150390625e+02,6.585875701904296875e+01,-2.980392074584960938e+01
6.291149854660034180e-01,1.000000000000000000e+00,-3.942404556274414062e+01,3.955015182495117188e+01,3.251174545288085938e+01,1.009626846313476562e+02,9.756623077392578125e+01,-5.697360515594482422e+00,5.500723266601562500e+01,-2.090458106994628906e+01,-9.345405578613281250e+01,-1.180766754150390625e+02,6.585875701904296875e+01,-2.980402946472167969e+01
6.313390135765075684e-01,1.000000000000000000e+00,-3.946527099609375000e+01,3.946812057495117188e+01,3.253374481201171875e+01,1.008886260986328125e+02,9.758531951904296875e+01,-5.720622062683105469e+00,5.500723266601562500e+01,-2.090458106994628906e+01,-9.345405578613281250e+01,-1.180766754150390625e+02,6.585875701904296875e+01,-2.980402946472167969e+01
6.353020071983337402e-01,1.000000000000000000e+00,-3.950683593750000000e+01,3.938597106933593750e+01,3.255604934692382812e+01,1.008147735595703125e+02,9.760499572753906250e+01,-5.743611812591552734e+00,5.500723266601562500e+01,-2.090458106994628906e+01,-9.345405578613281250e+01,-1.180766754150390625e+02,6.585875701904296875e+01,-2.980392074584960938e+01
6.393759846687316895e-01,1.000000000000000000e+00,-3.954808807373046875e+01,3.930427932739257812e+01,3.257817077636718750e+01,1.007406158447265625e+02,9.762445831298828125e+01,-5.766533851623535156e+00,5.500723266601562500e+01,-2.090458106994628906e+01,-9.345405578613281250e+01,-1.180766754150390625e+02,6.585860443115234375e+01,-2.980402946472167969e+01
6.448199748992919922e-01,1.000000000000000000e+00,-3.958953857421875000e+01,3.922283172607421875e+01,3.260037231445312500e+01,1.006669235229492188e+02,9.764498138427734375e+01,-5.789116859436035156e+00,5.500723266601562500e+01,-2.090458106994628906e+01,-9.345405578613281250e+01,-1.180766754150390625e+02,6.585875701904296875e+01,-2.980369758605957031e+01
6.488249897956848145e-01,1.000000000000000000e+00,-3.963082122802734375e+01,3.914168167114257812e+01,3.262257385253906250e+01,1.005926513671875000e+02,9.766519165039062500e+01,-5.811021804809570312e+00,5.500723266601562500e+01,-2.090458106994628906e+01,-9.345405578613281250e+01,-1.180766754150390625e+02,6.585875701904296875e+01,-2.980369758605957031e+01
6.513710021972656250e-01,1.000000000000000000e+00,-3.967244720458984375e+01,3.906027984619140625e+01,3.264453506469726562e+01,1.005186920166015625e+02,9.768437957763671875e+01,-5.833130359649658203e+00,5.500712203979492188e+01,-2.090458106994628906e+01,-9.345405578613281250e+01,-1.180766754150390625e+02,6.585875701904296875e+01,-2.980369758605957031e+01
6.553170084953308105e-01,1.000000000000000000e+00,-3.971366882324218750e+01,3.897881317138671875e+01,3.266669464111328125e+01,1.004446334838867188e+02,9.770336151123046875e+01,-5.855848789215087891e+00,5.500723266601562500e+01,-2.090458106994628906e+01,-9.345405578613281250e+01,-1.180766754150390625e+02,6.585875701904296875e+01,-2.980392074584960938e+01
6.592980027198791504e-01,1.000000000000000000e+00,-3.975514984130859375e+01,3.889719009399414062e+01,3.268891525268554688e+01,1.003709945678710938e+02,9.772239685058593750e+01,-5.878703117370605469e+00,5.500723266601562500e+01,-2.090458106994628906e+01,-9.345405578613281250e+01,-1.180766754150390625e+02,6.585875701904296875e+01,-2.980392074584960938e+01
6.634089946746826172e-01,1.000000000000000000e+00,-3.979660415649414062e+01,3.881497573852539062e+01,3.271101760864257812e+01,1.002962570190429688e+02,9.774163818359375000e+01,-5.901489257812500000e+00,5.500734329223632812e+01,-2.090458106994628906e+01,-9.345405578613281250e+01,-1.180766754150390625e+02,6.585875701904296875e+01,-2.980392074584960938e+01
6.673049926757812500e-01,1.000000000000000000e+00,-3.983799743652343750e+01,3.873237609863281250e+01,3.273328399658203125e+01,1.002225112915039062e+02,9.776179504394531250e+01,-5.924886226654052734e+00,5.500723266601562500e+01,-2.090458106994628906e+01,-9.345405578613281250e+01,-1.180766754150390625e+02,6.585875701904296875e+01,-2.980392074584960938e+01
6.713709831237792969e-01,1.000000000000000000e+00,-3.987928009033203125e+01,3.864995956420898438e+01,3.275550460815429688e+01,1.001481857299804688e+02,9.778179168701171875e+01,-5.947944164276123047e+00,5.500723266601562500e+01,-2.090458106994628906e+01,-9.345405578613281250e+01,-1.180766754150390625e+02,6.585875701904296875e+01,-2.980402946472167969e+01
6.753609776496887207e-01,1.000000000000000000e+00,-3.992081832885742188e+01,3.856749343872070312e+01,3.277791213989257812e+01,1.000742874145507812e+02,9.780236816406250000e+01,-5.970323562622070312e+00,5.500734329223632812e+01,-2.090458106994628906e+01,-9.345405578613281250e+01,-1.180766754150390625e+02,6.585875701904296875e+01,-2.980392074584960938e+01
6.793059706687927246e-01,1.000000000000000000e+00,-3.996221160888671875e+01,3.848552703857421875e+01,3.280033874511718750e+01,9.999953460693359375e+01,9.782204437255859375e+01,-5.992635250091552734e+00,5.500723266601562500e+01,-2.090458106994628906e+01,-9.345405578613281250e+01,-1.180766754150390625e+02,6.585875701904296875e+01,-2.980369758605957031e+01
6.833109855651855469e-01,1.000000000000000000e+00,-4.000369262695312500e+01,3.840388107299804688e+01,3.282251739501953125e+01,9.992516326904296875e+01,9.784102630615234375e+01,-6.014743804931640625e+00,5.500723266601562500e+01,-2.090458106994628906e+01,-9.345405578613281250e+01,-1.180766754150390625e+02,6.585875701904296875e+01,-2.980392074584960938e+01
6.874219775199890137e-01,1.000000000000000000e+00,-4.004497146606445312e+01,3.832234573364257812e+01,3.284459686279296875e+01,9.985015106201171875e+01,9.785978698730468750e+01,-6.037733554840087891e+00,5.500723266601562500e+01,-2.090467262268066406e+01,-9.345405578613281250e+01,-1.180766754150390625e+02,6.585875701904296875e+01,-2.980392074584960938e+01
6.913899779319763184e-01,1.000000000000000000e+00,-4.008648300170898438e+01,3.824031066894531250e+01,3.286665725708007812e+01,9.977625274658203125e+01,9.787888336181640625e+01,-6.060858726501464844e+00,5.500723266601562500e+01,-2.090458106994628906e+01,-9.345405578613281250e+01,-1.180766754150390625e+02,6.585875701904296875e+01,-2.980392074584960938e+01
6.953030228614807129e-01,1.000000000000000000e+00,-4.012793731689453125e+01,3.815805053710937500e+01,3.288900375366210938e+01,9.970150756835937500e+01,9.789828491210937500e+01,-6.083577632904052734e+00,5.500723266601562500e+01,-2.090448951721191406e+01,-9.345405578613281250e+01,-1.180766754150390625e+02,6.585875701904296875e+01,-2.980392074584960938e+01
6.993619799613952637e-01,1.000000000000000000e+00,-4.016964721679687500e+01,3.807542800903320312e+01,3.291148757934570312e+01,9.962682342529296875e+01,9.791876220703125000e+01,-6.106974124908447266e+00,5.500723266601562500e+01,-2.090458106994628906e+01,-9.345405578613281250e+01,-1.180766754150390625e+02,6.585875701904296875e+01,-2.980392074584960938e+01
7.033470273017883301e-01,1.000000000000000000e+00,-4.021115875244140625e+01,3.799251556396484375e+01,3.293385314941406250e+01,9.955202484130859375e+01,9.793907165527343750e+01,-6.130506992340087891e+00,5.500723266601562500e+01,-2.090458106994628906e+01,-9.345405578613281250e+01,-1.180766754150390625e+02,6.585875701904296875e+01,-2.980392074584960938e+01
7.072979807853698730e-01,1.000000000000000000e+00,-4.025272750854492188e+01,3.790943908691406250e+01,3.295621871948242188e+01,9.947764587402343750e+01,9.795912170410156250e+01,-6.152886390686035156e+00,5.500723266601562500e+01,-2.090458106994628906e+01,-9.345405578613281250e+01,-1.180766754150390625e+02,6.585875701904296875e+01,-2.980392074584960938e+01
7.114080190658569336e-01,1.000000000000000000e+00,-4.029432296752929688e+01,3.782693099975585938e+01,3.297850418090820312e+01,9.940311431884765625e+01,9.797837066650390625e+01,-6.174859046936035156e+00,5.500723266601562500e+01,-2.090467262268066406e+01,-9.345405578613281250e+01,-1.180766754150390625e+02,6.585875701904296875e+01,-2.980392074584960938e+01
7.153030037879943848e-01,1.000000000000000000e+00,-4.033597564697265625e+01,3.774444198608398438e+01,3.300097274780273438e+01,9.932820892333984375e+01,9.799723815917968750e+01,-6.197442054748535156e+00,5.500723266601562500e+01,-2.090458106994628906e+01,-9.345405578613281250e+01,-1.180766754150390625e+02,6.585875701904296875e+01,-2.980392074584960938e+01
7.193109989166259766e-01,1.000000000000000000e+00,-4.037771606445312500e+01,3.766238784790039062e+01,3.302349853515625000e+01,9.925351715087890625e+01,9.801686096191406250e+01,-6.220160484313964844e+00,5.500723266601562500e+01,-2.090458106994628906e+01,-9.345405578613281250e+01,-1.180766754150390625e+02,6.585875701904296875e+01,-2.980402946472167969e+01
7.233480215072631836e-01,1.000000000000000000e+00,-4.041945648193359375e+01,3.758005905151367188e+01,3.304568099975585938e+01,9.917893218994140625e+01,9.803653717041015625e+01,-6.243286609649658203e+00,5.500712203979492188e+01,-2.090458106994628906e+01,-9.345405578613281250e+01,-1.180766754150390625e+02,6.585875701904296875e+01,-2.980392074584960938e+01
7.273010015487670898e-01,1.000000000000000000e+00,-4.046125411987304688e+01,3.749768829345703125e+01,3.306784057617187500e+01,9.910391998291015625e+01,9.805636596679687500e+01,-6.266275882720947266e+00,5.500723266601562500e+01,-2.090458106994628906e+01,-9.345405578613281250e+01,-1.180766754150390625e+02,6.585875701904296875e+01,-2.980392074584960938e+01
7.313039898872375488e-01,1.000000000000000000e+00,-4.050287628173828125e+01,3.741501998901367188e+01,3.309014511108398438e+01,9.902844238281250000e+01,9.807700347900390625e+01,-6.290080070495605469e+00,5.500723266601562500e+01,-2.090467262268066406e+01,-9.345405578613281250e+01,-1.180766754150390625e+02,6.585889434814453125e+01,-2.980392074584960938e+01
7.352960109710693359e-01,1.000000000000000000e+00,-4.054458618164062500e+01,3.733201599121093750e+01,3.311273193359375000e+01,9.895348358154296875e+01,9.809752655029296875e+01,-6.313747882843017578e+00,5.500723266601562500e+01,-2.090458106994628906e+01,-9.345405578613281250e+01,-1.180768966674804688e+02,6.585875701904296875e+01,-2.980369758605957031e+01
7.393900156021118164e-01,1.000000000000000000e+00,-4.058664321899414062e+01,3.724843978881835938e+01,3.313542175292968750e+01,9.887826538085937500e+01,9.811719512939453125e+01,-6.336805820465087891e+00,5.500723266601562500e+01,-2.090458106994628906e+01,-9.345405578613281250e+01,-1.180766754150390625e+02,6.585875701904296875e+01,-2.980392074584960938e+01
7.433019876480102539e-01,1.000000000000000000e+00,-4.062869644165039062e+01,3.716502761840820312e+01,3.315797424316406250e+01,9.880378723144531250e+01,9.813639831542968750e+01,-6.358981609344482422e+00,5.500712203979492188e+01,-2.090458106994628906e+01,-9.345405578613281250e+01,-1.180766754150390625e+02,6.585875701904296875e+01,-2.980392074584960938e+01
7.473790049552917480e-01,1.000000000000000000e+00,-4.067061233520507812e+01,3.708181762695312500e+01,3.318015289306640625e+01,9.872840881347656250e+01,9.815547943115234375e+01,-6.381429195404052734e+00,5.500723266601562500e+01,-2.090458106994628906e+01,-9.345405578613281250e+01,-1.180766754150390625e+02,6.585889434814453125e+01,-2.980392074584960938e+01
7.514060139656066895e-01,1.000000000000000000e+00,-4.071266555786132812e+01,3.699901580810546875e+01,3.320241928100585938e+01,9.865355682373046875e+01,9.817510223388671875e+01,-6.404690265655517578e+00,5.500723266601562500e+01,-2.090458106994628906e+01,-9.345405578613281250e+01,-1.180766754150390625e+02,6.585875701904296875e+01,-2.980402946472167969e+01
7.553529739379882812e-01,1.000000000000000000e+00,-4.075472259521484375e+01,3.691659545898437500e+01,3.322490692138671875e+01,9.857813262939453125e+01,9.819493103027343750e+01,-6.427883625030517578e+00,5.500712203979492188e+01,-2.090458106994628906e+01,-9.345405578613281250e+01,-1.180766754150390625e+02,6.585875701904296875e+01,-2.980392074584960938e+01
7.621840238571166992e-01,1.000000000000000000e+00,-4.079671859741210938e+01,3.683408737182617188e+01,3.324757385253906250e+01,9.850338745117187500e+01,9.821530151367187500e+01,-6.451212882995605469e+00,5.500723266601562500e+01,-2.090467262268066406e+01,-9.345405578613281250e+01,-1.180766754150390625e+02,6.585875701904296875e+01,-2.980392074584960938e+01
7.636690139770507812e-01,1.000000000000000000e+00,-4.083877563476562500e+01,3.675117111206054688e+01,3.327012252807617188e+01,9.842780303955078125e+01,9.823609924316406250e+01,-6.474677562713623047e+00,5.500712203979492188e+01,-2.090467262268066406e+01,-9.345405578613281250e+01,-1.180766754150390625e+02,6.585875701904296875e+01,-2.980392074584960938e+01
7.683280110359191895e-01,1.000000000000000000e+00,-4.088100051879882812e+01,3.666805267333984375e+01,3.329252624511718750e+01,9.835305023193359375e+01,9.825608825683593750e+01,-6.498277664184570312e+00,5.500723266601562500e+01,-2.090458106994628906e+01,-9.345405578613281250e+01,-1.180766754150390625e+02,6.585875701904296875e+01,-2.980392074584960938e+01
7.713059782981872559e-01,1.000000000000000000e+00,-4.092305755615234375e+01,3.658459472656250000e+01,3.331503677368164062e+01,9.827719879150390625e+01,9.827539062500000000e+01,-6.521335124969482422e+00,5.500723266601562500e+01,-2.090448951721191406e+01,-9.345405578613281250e+01,-1.180766754150390625e+02,6.585875701904296875e+01,-2.980402946472167969e+01
7.779470086097717285e-01,1.000000000000000000e+00,-4.092305755615234375e+01,3.658459472656250000e+01,3.331503677368164062e+01,9.827719879150390625e+01,9.827539062500000000e+01,-6.521335124969482422e+00,5.500734329223632812e+01,-2.090448951721191406e+01,-9.345405578613281250e+01,-1.180766754150390625e+02,6.585875701904296875e+01,-2.980402946472167969e+01
7.794529795646667480e-01,1.000000000000000000e+00,-4.100719833374023438e+01,3.641699600219726562e+01,3.336041641235351562e+01,9.812597656250000000e+01,9.831415557861328125e+01,-6.566637039184570312e+00,5.500723266601562500e+01,-2.090458106994628906e+01,-9.345405578613281250e+01,-1.180766754150390625e+02,6.585875701904296875e+01,-2.980424880981445312e+01
7.843769788742065430e-01,1.000000000000000000e+00,-4.100719833374023438e+01,3.641699600219726562e+01,3.336041641235351562e+01,9.812597656250000000e+01,9.831415557861328125e+01,-6.566637039184570312e+00,5.500723266601562500e+01,-2.090458106994628906e+01,-9.345405578613281250e+01,-1.180766754150390625e+02,6.585860443115234375e+01,-2.980402946472167969e+01
7.876610159873962402e-01,1.000000000000000000e+00,-4.109136962890625000e+01,3.625048446655273438e+01,3.340547180175781250e+01,9.797496032714843750e+01,9.835472869873046875e+01,-6.613226890563964844e+00,5.500723266601562500e+01,-2.090458106994628906e+01,-9.345405578613281250e+01,-1.180766754150390625e+02,6.585875701904296875e+01,-2.980392074584960938e+01
7.913129925727844238e-01,1.000000000000000000e+00,-4.113362121582031250e+01,3.616756820678710938e+01,3.342797851562500000e+01,9.789968872070312500e+01,9.837567901611328125e+01,-6.636895179748535156e+00,5.500723266601562500e+01,-2.090458106994628906e+01,-9.345405578613281250e+01,-1.180766754150390625e+02,6.585875701904296875e+01,-2.980402946472167969e+01
7.953420281410217285e-01,1.000000000000000000e+00,-4.113362121582031250e+01,3.616756820678710938e+01,3.342797851562500000e+01,9.789968872070312500e+01,9.837567901611328125e+01,-6.636895179748535156e+00,5.500723266601562500e+01,-2.090458106994628906e+01,-9.345405578613281250e+01,-1.180766754150390625e+02,6.585875701904296875e+01,-2.980402946472167969e+01
8.021309971809387207e-01,1.000000000000000000e+00,-4.117564773559570312e+01,3.608440017700195312e+01,3.345077133178710938e+01,9.782399749755859375e+01,9.839626312255859375e+01,-6.660359859466552734e+00,5.500723266601562500e+01,-2.090458106994628906e+01,-9.345405578613281250e+01,-1.180766754150390625e+02,6.585875701904296875e+01,-2.980402946472167969e+01
8.036119937896728516e-01,1.000000000000000000e+00,-4.125993347167968750e+01,3.591757583618164062e+01,3.349611282348632812e+01,9.767314147949218750e+01,9.843502044677734375e+01,-6.707899570465087891e+00,5.500723266601562500e+01,-2.090458106994628906e+01,-9.345405578613281250e+01,-1.180766754150390625e+02,6.585875701904296875e+01,-2.980392074584960938e+01
8.083840012550354004e-01,1.000000000000000000e+00,-4.125993347167968750e+01,3.591757583618164062e+01,3.349611282348632812e+01,9.767314147949218750e+01,9.843502044677734375e+01,-6.707899570465087891e+00,5.500723266601562500e+01,-2.090458106994628906e+01,-9.345405578613281250e+01,-1.180766754150390625e+02,6.585875701904296875e+01,-2.980392074584960938e+01
8.117539882659912109e-01,1.000000000000000000e+00,-4.134392929077148438e+01,3.574938964843750000e+01,3.354122543334960938e+01,9.752164459228515625e+01,9.847457885742187500e+01,-6.753065109252929688e+00,5.500723266601562500e+01,-2.090458106994628906e+01,-9.345405578613281250e+01,-1.180766754150390625e+02,6.585875701904296875e+01,-2.980392074584960938e+01
8.181160092353820801e-01,1.000000000000000000e+00,-4.134392929077148438e+01,3.574938964843750000e+01,3.354122543334960938e+01,9.752164459228515625e+01,9.847457885742187500e+01,-6.753065109252929688e+00,5.500723266601562500e+01,-2.090458106994628906e+01,-9.345405578613281250e+01,-1.180766754150390625e+02,6.585875701904296875e+01,-2.980392074584960938e+01
8.196049928665161133e-01,1.000000000000000000e+00,-4.142827224731445312e+01,3.558111190795898438e+01,3.358689117431640625e+01,9.736989593505859375e+01,9.851605987548828125e+01,-6.799655914306640625e+00,5.500723266601562500e+01,-2.090458106994628906e+01,-9.345405578613281250e+01,-1.180766754150390625e+02,6.585875701904296875e+01,-2.980392074584960938e+01
8.264420032501220703e-01,1.000000000000000000e+00,-4.142827224731445312e+01,3.558111190795898438e+01,3.358689117431640625e+01,9.736989593505859375e+01,9.851605987548828125e+01,-6.799655914306640625e+00,5.500723266601562500e+01,-2.090458106994628906e+01,-9.345405578613281250e+01,-1.180766754150390625e+02,6.585875701904296875e+01,-2.980392074584960938e+01
8.278470039367675781e-01,1.000000000000000000e+00,-4.151221084594726562e+01,3.541428375244140625e+01,3.363241577148437500e+01,9.721792602539062500e+01,9.855679321289062500e+01,-6.847534656524658203e+00,5.500712203979492188e+01,-2.090458106994628906e+01,-9.345405578613281250e+01,-1.180766754150390625e+02,6.585875701904296875e+01,-2.980369758605957031e+01
8.340970277786254883e-01,1.000000000000000000e+00,-4.151221084594726562e+01,3.541428375244140625e+01,3.363241577148437500e+01,9.721792602539062500e+01,9.855679321289062500e+01,-6.847534656524658203e+00,5.500723266601562500e+01,-2.090458106994628906e+01,-9.345405578613281250e+01,-1.180766754150390625e+02,6.585875701904296875e+01,-2.980369758605957031e+01
8.356329798698425293e-01,1.000000000000000000e+00,-4.159652328491210938e+01,3.524673461914062500e+01,3.367781448364257812e+01,9.706517028808593750e+01,9.859603881835937500e+01,-6.894395828247070312e+00,5.500723266601562500e+01,-2.090458106994628906e+01,-9.345405578613281250e+01,-1.180766754150390625e+02,6.585875701904296875e+01,-2.980369758605957031e+01
8.393660187721252441e-01,1.000000000000000000e+00,-4.159652328491210938e+01,3.524673461914062500e+01,3.367781448364257812e+01,9.706517028808593750e+01,9.859603881835937500e+01,-6.894395828247070312e+00,5.500723266601562500e+01,-2.090458106994628906e+01,-9.345405578613281250e+01,-1.180766754150390625e+02,6.585875701904296875e+01,-2.980369758605957031e+01
8.433470129966735840e-01,1.000000000000000000e+00,-4.163869094848632812e+01,3.516262054443359375e+01,3.370054626464843750e+01,9.698926544189453125e+01,9.861597442626953125e+01,-6.917385578155517578e+00,5.500723266601562500e+01,-2.090458106994628906e+01,-9.345405578613281250e+01,-1.180766754150390625e+02,6.585875701904296875e+01,-2.980392074584960938e+01
8.474259972572326660e-01,1.000000000000000000e+00,-4.168091964721679688e+01,3.507834625244140625e+01,3.372317504882812500e+01,9.691374206542968750e+01,9.863671875000000000e+01,-6.940171718597412109e+00,5.500723266601562500e+01,-2.090458106994628906e+01,-9.345405578613281250e+01,-1.180766754150390625e+02,6.585875701904296875e+01,-2.980392074584960938e+01
8.513489961624145508e-01,1.000000000000000000e+00,-4.172300338745117188e+01,3.499366378784179688e+01,3.374596786499023438e+01,9.683683013916015625e+01,9.865761566162109375e+01,-6.963161945343017578e+00,5.500712203979492188e+01,-2.090467262268066406e+01,-9.345405578613281250e+01,-1.180766754150390625e+02,6.585875701904296875e+01,-2.980392074584960938e+01
8.553559780120849609e-01,1.000000000000000000e+00,-4.176523208618164062e+01,3.490877914428710938e+01,3.376884078979492188e+01,9.676097869873046875e+01,9.867845916748046875e+01,-6.986490726470947266e+00,5.500723266601562500e+01,-2.090458106994628906e+01,-9.345405578613281250e+01,-1.180766754150390625e+02,6.585875701904296875e+01,-2.980392074584960938e+01
8.604990243911743164e-01,1.000000000000000000e+00,-4.180765914916992188e+01,3.482436752319335938e+01,3.379177856445312500e+01,9.668434143066406250e+01,9.869850921630859375e+01,-7.010362148284912109e+00,5.500723266601562500e+01,-2.090458106994628906e+01,-9.345405578613281250e+01,-1.180766754150390625e+02,6.585889434814453125e+01,-2.980392074584960938e+01
8.633729815483093262e-01,1.000000000000000000e+00,-4.189283370971679688e+01,3.465627288818359375e+01,3.383733749389648438e+01,9.653174591064453125e+01,9.873764038085937500e+01,-7.058241367340087891e+00,5.500723266601562500e+01,-2.090458106994628906e+01,-9.345405578613281250e+01,-1.180766754150390625e+02,6.585889434814453125e+01,-2.980392074584960938e+01
8.673440217971801758e-01,1.000000000000000000e+00,-4.189283370971679688e+01,3.465627288818359375e+01,3.383733749389648438e+01,9.653174591064453125e+01,9.873764038085937500e+01,-7.058241367340087891e+00,5.500723266601562500e+01,-2.090458106994628906e+01,-9.345405578613281250e+01,-1.180766754150390625e+02,6.585889434814453125e+01,-2.980392074584960938e+01
8.713660240173339844e-01,1.000000000000000000e+00,-4.193528747558593750e+01,3.457227325439453125e+01,3.385992813110351562e+01,9.645520782470703125e+01,9.875753021240234375e+01,-7.081570148468017578e+00,5.500723266601562500e+01,-2.090458106994628906e+01,-9.345405578613281250e+01,-1.180766754150390625e+02,6.585875701904296875e+01,-2.980392074584960938e+01
8.754240274429321289e-01,1.000000000000000000e+00,-4.197780227661132812e+01,3.448808670043945312e+01,3.388261795043945312e+01,9.637841033935546875e+01,9.877795410156250000e+01,-7.104085445404052734e+00,5.500723266601562500e+01,-2.090458106994628906e+01,-9.345405578613281250e+01,-1.180766754150390625e+02,6.585875701904296875e+01,-2.980392074584960938e+01
8.793770074844360352e-01,1.000000000000000000e+00,-4.202063751220703125e+01,3.440340805053710938e+01,3.390555191040039062e+01,9.630203247070312500e+01,9.879901123046875000e+01,-7.127278804779052734e+00,5.500723266601562500e+01,-2.090458106994628906e+01,-9.345405578613281250e+01,-1.180766754150390625e+02,6.585875701904296875e+01,-2.980402946472167969e+01
8.833640217781066895e-01,1.000000000000000000e+00,-4.206346511840820312e+01,3.431850051879882812e+01,3.392844772338867188e+01,9.622523498535156250e+01,9.881990814208984375e+01,-7.150539875030517578e+00,5.500723266601562500e+01,-2.090458106994628906e+01,-9.345405578613281250e+01,-1.180766754150390625e+02,6.585875701904296875e+01,-2.980392074584960938e+01
8.883619904518127441e-01,1.000000000000000000e+00,-4.214935684204101562e+01,3.414814376831054688e+01,3.397455978393554688e+01,9.607200622558593750e+01,9.885978698730468750e+01,-7.198282718658447266e+00,5.500723266601562500e+01,-2.090458106994628906e+01,-9.345405578613281250e+01,-1.180766754150390625e+02,6.585875701904296875e+01,-2.980392074584960938e+01
8.913919925689697266e-01,1.000000000000000000e+00,-4.219215774536132812e+01,3.406335067749023438e+01,3.399747085571289062e+01,9.599546813964843750e+01,9.887957000732421875e+01,-7.222222328186035156e+00,5.500712203979492188e+01,-2.090458106994628906e+01,-9.345405578613281250e+01,-1.180766754150390625e+02,6.585875701904296875e+01,-2.980392074584960938e+01
8.953599929809570312e-01,1.000000000000000000e+00,-4.219215774536132812e+01,3.406335067749023438e+01,3.399747085571289062e+01,9.599546813964843750e+01,9.887957000732421875e+01,-7.222222328186035156e+00,5.500712203979492188e+01,-2.090458106994628906e+01,-9.345405578613281250e+01,-1.180766754150390625e+02,6.585875701904296875e+01,-2.980392074584960938e+01
8.994209766387939453e-01,1.000000000000000000e+00,-4.223516082763671875e+01,3.397887039184570312e+01,3.402048873901367188e+01,9.591856384277343750e+01,9.889971923828125000e+01,-7.246093750000000000e+00,5.500723266601562500e+01,-2.090458106994628906e+01,-9.345405578613281250e+01,-1.180766754150390625e+02,6.585875701904296875e+01,-2.980392074584960938e+01
9.033420085906982422e-01,1.000000000000000000e+00,-4.227825164794921875e+01,3.389477539062500000e+01,3.404326248168945312e+01,9.584149932861328125e+01,9.892014312744140625e+01,-7.269354820251464844e+00,5.500723266601562500e+01,-2.090458106994628906e+01,-9.345405578613281250e+01,-1.180766754150390625e+02,6.585875701904296875e+01,-2.980402946472167969e+01
9.073709845542907715e-01,1.000000000000000000e+00,-4.232139587402343750e+01,3.381043243408203125e+01,3.406608963012695312e+01,9.576512908935546875e+01,9.894104003906250000e+01,-7.291802406311035156e+00,5.500712203979492188e+01,-2.090458106994628906e+01,-9.345405578613281250e+01,-1.180766754150390625e+02,6.585875701904296875e+01,-2.980402946472167969e+01
9.114180207252502441e-01,1.000000000000000000e+00,-4.236442565917968750e+01,3.372579956054687500e+01,3.408906936645507812e+01,9.568795776367187500e+01,9.896231842041015625e+01,-7.314927577972412109e+00,5.500723266601562500e+01,-2.090458106994628906e+01,-9.345405578613281250e+01,-1.180766754150390625e+02,6.585875701904296875e+01,-2.980392074584960938e+01
9.153890013694763184e-01,1.000000000000000000e+00,-4.240774536132812500e+01,3.364093780517578125e+01,3.411232757568359375e+01,9.561068725585937500e+01,9.898305511474609375e+01,-7.338663578033447266e+00,5.500723266601562500e+01,-2.090458106994628906e+01,-9.345405578613281250e+01,-1.180766754150390625e+02,6.585875701904296875e+01,-2.980392074584960938e+01
9.193490147590637207e-01,1.000000000000000000e+00,-4.245080947875976562e+01,3.355548858642578125e+01,3.413550567626953125e+01,9.553320312500000000e+01,9.900277709960937500e+01,-7.362128734588623047e+00,5.500723266601562500e+01,-2.090458106994628906e+01,-9.345405578613281250e+01,-1.180766754150390625e+02,6.585875701904296875e+01,-2.980392074584960938e+01
9.234210252761840820e-01,1.000000000000000000e+00,-4.249409866333007812e+01,3.346997070312500000e+01,3.415850067138671875e+01,9.545645904541015625e+01,9.902239990234375000e+01,-7.386067390441894531e+00,5.500734329223632812e+01,-2.090458106994628906e+01,-9.345405578613281250e+01,-1.180766754150390625e+02,6.585875701904296875e+01,-2.980392074584960938e+01
9.273449778556823730e-01,1.000000000000000000e+00,-4.253724288940429688e+01,3.338467788696289062e+01,3.418139648437500000e+01,9.537939453125000000e+01,9.904191589355468750e+01,-7.410549640655517578e+00,5.500723266601562500e+01,-2.090458106994628906e+01,-9.345405578613281250e+01,-1.180766754150390625e+02,6.585875701904296875e+01,-2.980392074584960938e+01
9.315689802169799805e-01,1.000000000000000000e+00,-4.258044433593750000e+01,3.329961013793945312e+01,3.420444869995117188e+01,9.530212402343750000e+01,9.906260681152343750e+01,-7.434421062469482422e+00,5.500734329223632812e+01,-2.090458106994628906e+01,-9.345405578613281250e+01,-1.180766754150390625e+02,6.585875701904296875e+01,-2.980402946472167969e+01
9.354220032691955566e-01,1.000000000000000000e+00,-4.262379074096679688e+01,3.321479415893554688e+01,3.422754669189453125e+01,9.522505950927734375e+01,9.908350372314453125e+01,-7.457818031311035156e+00,5.500723266601562500e+01,-2.090458106994628906e+01,-9.345405578613281250e+01,-1.180766754150390625e+02,6.585860443115234375e+01,-2.980392074584960938e+01
9.393569827079772949e-01,1.000000000000000000e+00,-4.266670989990234375e+01,3.312993240356445312e+01,3.425070571899414062e+01,9.514773559570312500e+01,9.910482788085937500e+01,-7.480808258056640625e+00,5.500723266601562500e+01,-2.090448951721191406e+01,-9.345405578613281250e+01,-1.180766754150390625e+02,6.585860443115234375e+01,-2.980392074584960938e+01
9.433529973030090332e-01,1.000000000000000000e+00,-4.270977020263671875e+01,3.304504776000976562e+01,3.427378082275390625e+01,9.507093048095703125e+01,9.912561798095703125e+01,-7.504137039184570312e+00,5.500723266601562500e+01,-2.090458106994628906e+01,-9.345405578613281250e+01,-1.180766754150390625e+02,6.585875701904296875e+01,-2.980392074584960938e+01
9.474170207977294922e-01,1.000000000000000000e+00,-4.275300216674804688e+01,3.295982360839843750e+01,3.429679870605468750e+01,9.499308013916015625e+01,9.914545440673828125e+01,-7.527736663818359375e+00,5.500712203979492188e+01,-2.090458106994628906e+01,-9.345405578613281250e+01,-1.180766754150390625e+02,6.585875701904296875e+01,-2.980392074584960938e+01
9.513589739799499512e-01,1.000000000000000000e+00,-4.279612350463867188e+01,3.287405776977539062e+01,3.431993484497070312e+01,9.491622924804687500e+01,9.916534423828125000e+01,-7.551879882812500000e+00,5.500723266601562500e+01,-2.090448951721191406e+01,-9.345405578613281250e+01,-1.180766754150390625e+02,6.585875701904296875e+01,-2.980392074584960938e+01
9.559720158576965332e-01,1.000000000000000000e+00,-4.283932495117187500e+01,3.278781127929687500e+01,3.434327697753906250e+01,9.483832550048828125e+01,9.918527984619140625e+01,-7.576023101806640625e+00,5.500723266601562500e+01,-2.090458106994628906e+01,-9.345405578613281250e+01,-1.180766754150390625e+02,6.585875701904296875e+01,-2.980392074584960938e+01
9.600309729576110840e-01,1.000000000000000000e+00,-4.292558670043945312e+01,3.261528015136718750e+01,3.438961410522460938e+01,9.468309783935546875e+01,9.922681427001953125e+01,-7.624376296997070312e+00,5.500734329223632812e+01,-2.090458106994628906e+01,-9.345405578613281250e+01,-1.180766754150390625e+02,6.585875701904296875e+01,-2.980392074584960938e+01
9.634739756584167480e-01,1.000000000000000000e+00,-4.292558670043945312e+01,3.261528015136718750e+01,3.438961410522460938e+01,9.468309783935546875e+01,9.922681427001953125e+01,-7.624376296997070312e+00,5.500734329223632812e+01,-2.090458106994628906e+01,-9.345405578613281250e+01,-1.180766754150390625e+02,6.585875701904296875e+01,-2.980392074584960938e+01
9.673789739608764648e-01,1.000000000000000000e+00,-4.296876525878906250e+01,3.252960586547851562e+01,3.441260910034179688e+01,9.460571289062500000e+01,9.924857330322265625e+01,-7.647501468658447266e+00,5.500723266601562500e+01,-2.090458106994628906e+01,-9.345405578613281250e+01,-1.180766754150390625e+02,6.585875701904296875e+01,-2.980392074584960938e+01
9.714149832725524902e-01,1.000000000000000000e+00,-4.301199722290039062e+01,3.244444656372070312e+01,3.443576431274414062e+01,9.452776336669921875e+01,9.926947021484375000e+01,-7.670762538909912109e+00,5.500723266601562500e+01,-2.090458106994628906e+01,-9.345405578613281250e+01,-1.180766754150390625e+02,6.585875701904296875e+01,-2.980392074584960938e+01
9.754729866981506348e-01,1.000000000000000000e+00,-4.305508422851562500e+01,3.235913467407226562e+01,3.445912933349609375e+01,9.445059204101562500e+01,9.928984069824218750e+01,-7.694227695465087891e+00,5.500723266601562500e+01,-2.090458106994628906e+01,-9.345405578613281250e+01,-1.180766754150390625e+02,6.585875701904296875e+01,-2.980392074584960938e+01
9.800999760627746582e-01,1.000000000000000000e+00,-4.309834671020507812e+01,3.227359390258789062e+01,3.448238372802734375e+01,9.437300109863281250e+01,9.930935668945312500e+01,-7.718166828155517578e+00,5.500723266601562500e+01,-2.090458106994628906e+01,-9.345405578613281250e+01,-1.180766754150390625e+02,6.585875701904296875e+01,-2.980392074584960938e+01
9.853270053863525391e-01,1.000000000000000000e+00,-4.314152145385742188e+01,3.218757629394531250e+01,3.450538253784179688e+01,9.429541015625000000e+01,9.932934570312500000e+01,-7.742581367492675781e+00,5.500723266601562500e+01,-2.090467262268066406e+01,-9.345405578613281250e+01,-1.180766754150390625e+02,6.585875701904296875e+01,-2.980392074584960938e+01
9.879320263862609863e-01,1.000000000000000000e+00,-4.322813034057617188e+01,3.201470565795898438e+01,3.455173873901367188e+01,9.413939666748046875e+01,9.937077331542968750e+01,-7.791544437408447266e+00,5.500723266601562500e+01,-2.090458106994628906e+01,-9.345405578613281250e+01,-1.180766754150390625e+02,6.585889434814453125e+01,-2.980392074584960938e+01
9.923520088195800781e-01,1.000000000000000000e+00,-4.322813034057617188e+01,3.201470565795898438e+01,3.455173873901367188e+01,9.413939666748046875e+01,9.937077331542968750e+01,-7.791544437408447266e+00,5.500723266601562500e+01,-2.090458106994628906e+01,-9.345405578613281250e+01,-1.180766754150390625e+02,6.585889434814453125e+01,-2.980392074584960938e+01
9.955739974975585938e-01,1.000000000000000000e+00,-4.327138900756835938e+01,3.192794227600097656e+01,3.457522201538085938e+01,9.406169891357421875e+01,9.939215087890625000e+01,-7.815619945526123047e+00,5.500723266601562500e+01,-2.090458106994628906e+01,-9.345405578613281250e+01,-1.180766754150390625e+02,6.585875701904296875e+01,-2.980402946472167969e+01
9.996230006217956543e-01,1.000000000000000000e+00,-4.331462097167968750e+01,3.184185791015625000e+01,3.459862518310546875e+01,9.398379516601562500e+01,9.941342163085937500e+01,-7.839287281036376953e+00,5.500723266601562500e+01,-2.090458106994628906e+01,-9.345405578613281250e+01,-1.180766754150390625e+02,6.585875701904296875e+01,-2.980402946472167969e+01
1.004263997077941895e+00,1.000000000000000000e+00,-4.335797119140625000e+01,3.175618362426757812e+01,3.462190246582031250e+01,9.390609741210937500e+01,9.943357086181640625e+01,-7.862345218658447266e+00,5.500723266601562500e+01,-2.090467262268066406e+01,-9.345405578613281250e+01,-1.180766754150390625e+02,6.585875701904296875e+01,-2.980402946472167969e+01
1.008340001106262207e+00,1.000000000000000000e+00,-4.340163421630859375e+01,3.167029953002929688e+01,3.464505767822265625e+01,9.382735443115234375e+01,9.945335388183593750e+01,-7.885946273803710938e+00,5.500723266601562500e+01,-2.090458106994628906e+01,-9.345405578613281250e+01,-1.180766754150390625e+02,6.585875701904296875e+01,-2.980402946472167969e+01
1.011646986007690430e+00,1.000000000000000000e+00,-4.344535446166992188e+01,3.158464622497558594e+01,3.466846466064453125e+01,9.374945068359375000e+01,9.947351074218750000e+01,-7.910223960876464844e+00,5.500701522827148438e+01,-2.090448951721191406e+01,-9.345405578613281250e+01,-1.180766754150390625e+02,6.585875701904296875e+01,-2.980402946472167969e+01
1.015712022781372070e+00,1.000000000000000000e+00,-4.348896026611328125e+01,3.149885940551757812e+01,3.469186401367187500e+01,9.367096710205078125e+01,9.949403381347656250e+01,-7.934502601623535156e+00,5.500723266601562500e+01,-2.090458106994628906e+01,-9.345405578613281250e+01,-1.180766754150390625e+02,6.585875701904296875e+01,-2.980392074584960938e+01
1.019935011863708496e+00,1.000000000000000000e+00,-4.353287887573242188e+01,3.141234397888183594e+01,3.471520614624023438e+01,9.359284973144531250e+01,9.951536560058593750e+01,-7.959187984466552734e+00,5.500723266601562500e+01,-2.090448951721191406e+01,-9.345405578613281250e+01,-1.180766754150390625e+02,6.585875701904296875e+01,-2.980392074584960938e+01
1.023862957954406738e+00,1.000000000000000000e+00,-4.357659912109375000e+01,3.132533073425292969e+01,3.473848724365234375e+01,9.351467895507812500e+01,9.953690338134765625e+01,-7.983466625213623047e+00,5.500723266601562500e+01,-2.090458106994628906e+01,-9.345405578613281250e+01,-1.180766754150390625e+02,6.585875701904296875e+01,-2.980392074584960938e+01
1.028429031372070312e+00,1.000000000000000000e+00,-4.362029266357421875e+01,3.123824882507324219e+01,3.476186752319335938e+01,9.343656921386718750e+01,9.955806732177734375e+01,-8.007405281066894531e+00,5.500723266601562500e+01,-2.090458106994628906e+01,-9.345405578613281250e+01,-1.180766754150390625e+02,6.585875701904296875e+01,-2.980369758605957031e+01
1.032413959503173828e+00,1.000000000000000000e+00,-4.366401290893554688e+01,3.115139770507812500e+01,3.478551101684570312e+01,9.335834503173828125e+01,9.957843780517578125e+01,-8.030735015869140625e+00,5.500712203979492188e+01,-2.090458106994628906e+01,-9.345405578613281250e+01,-1.180766754150390625e+02,6.585875701904296875e+01,-2.980369758605957031e+01
1.035877943038940430e+00,1.000000000000000000e+00,-4.370811080932617188e+01,3.106476974487304688e+01,3.480909729003906250e+01,9.327991485595703125e+01,9.959832763671875000e+01,-8.054267883300781250e+00,5.500723266601562500e+01,-2.090458106994628906e+01,-9.345405578613281250e+01,-1.180766754150390625e+02,6.585875701904296875e+01,-2.980369758605957031e+01
1.040047049522399902e+00,1.000000000000000000e+00,-4.375185775756835938e+01,3.097882270812988281e+01,3.483258056640625000e+01,9.320179748535156250e+01,9.961821746826171875e+01,-8.078070640563964844e+00,5.500723266601562500e+01,-2.090458106994628906e+01,-9.345405578613281250e+01,-1.180766754150390625e+02,6.585875701904296875e+01,-2.980369758605957031e+01
1.044074058532714844e+00,1.000000000000000000e+00,-4.379586410522460938e+01,3.089278221130371094e+01,3.485582351684570312e+01,9.312273406982421875e+01,9.963874053955078125e+01,-8.102552413940429688e+00,5.500723266601562500e+01,-2.090458106994628906e+01,-9.345405578613281250e+01,-1.180766754150390625e+02,6.585875701904296875e+01,-2.980369758605957031e+01
1.047945976257324219e+00,1.000000000000000000e+00,-4.383984375000000000e+01,3.080642890930175781e+01,3.487902069091796875e+01,9.304435729980468750e+01,9.965990447998046875e+01,-8.126898765563964844e+00,5.500723266601562500e+01,-2.090458106994628906e+01,-9.345405578613281250e+01,-1.180766754150390625e+02,6.585875701904296875e+01,-2.980369758605957031e+01
1.052584052085876465e+00,1.000000000000000000e+00,-4.388382339477539062e+01,3.071959495544433594e+01,3.490266418457031250e+01,9.296508026123046875e+01,9.968154907226562500e+01,-8.151380538940429688e+00,5.500723266601562500e+01,-2.090458106994628906e+01,-9.345405578613281250e+01,-1.180766754150390625e+02,6.585875701904296875e+01,-2.980392074584960938e+01
1.056185960769653320e+00,1.000000000000000000e+00,-4.392800140380859375e+01,3.063238143920898438e+01,3.492628860473632812e+01,9.288675689697265625e+01,9.970292663574218750e+01,-8.175794601440429688e+00,5.500712203979492188e+01,-2.090458106994628906e+01,-9.345405578613281250e+01,-1.180766754150390625e+02,6.585875701904296875e+01,-2.980392074584960938e+01
1.060068011283874512e+00,1.000000000000000000e+00,-4.397195053100585938e+01,3.054498291015625000e+01,3.494997406005859375e+01,9.280805969238281250e+01,9.972286987304687500e+01,-8.199598312377929688e+00,5.500712203979492188e+01,-2.090448951721191406e+01,-9.345405578613281250e+01,-1.180766754150390625e+02,6.585875701904296875e+01,-2.980392074584960938e+01
1.064007043838500977e+00,1.000000000000000000e+00,-4.401598739624023438e+01,3.045736122131347656e+01,3.497349929809570312e+01,9.272915649414062500e+01,9.974323272705078125e+01,-8.222995758056640625e+00,5.500723266601562500e+01,-2.090458106994628906e+01,-9.345405578613281250e+01,-1.180766754150390625e+02,6.585875701904296875e+01,-2.980369758605957031e+01
1.068297028541564941e+00,1.000000000000000000e+00,-4.406005096435546875e+01,3.037005424499511719e+01,3.499700546264648438e+01,9.265003204345703125e+01,9.976365661621093750e+01,-8.246664047241210938e+00,5.500723266601562500e+01,-2.090458106994628906e+01,-9.345405578613281250e+01,-1.180766754150390625e+02,6.585875701904296875e+01,-2.980369758605957031e+01
1.072180032730102539e+00,1.000000000000000000e+00,-4.410394668579101562e+01,3.028317832946777344e+01,3.502061080932617188e+01,9.257165527343750000e+01,9.978429412841796875e+01,-8.270670890808105469e+00,5.500723266601562500e+01,-2.090458106994628906e+01,-9.345405578613281250e+01,-1.180766754150390625e+02,6.585875701904296875e+01,-2.980392074584960938e+01
1.076815009117126465e+00,1.000000000000000000e+00,-4.414786911010742188e+01,3.019639396667480469e+01,3.504409408569335938e+01,9.249301910400390625e+01,9.980529785156250000e+01,-8.295288085937500000e+00,5.500723266601562500e+01,-2.090458106994628906e+01,-9.345405578613281250e+01,-1.180766754150390625e+02,6.585875701904296875e+01,-2.980369758605957031e+01
1.080916047096252441e+00,1.000000000000000000e+00,-4.423591232299804688e+01,3.002286529541015625e+01,3.509107971191406250e+01,9.233489227294921875e+01,9.984885406494140625e+01,-8.344658851623535156e+00,5.500723266601562500e+01,-2.090458106994628906e+01,-9.345405578613281250e+01,-1.180766754150390625e+02,6.585875701904296875e+01,-2.980392074584960938e+01
1.084368944168090820e+00,1.000000000000000000e+00,-4.423591232299804688e+01,3.002286529541015625e+01,3.509107971191406250e+01,9.233489227294921875e+01,9.984885406494140625e+01,-8.344658851623535156e+00,5.500723266601562500e+01,-2.090458106994628906e+01,-9.345405578613281250e+01,-1.180766754150390625e+02,6.585875701904296875e+01,-2.980392074584960938e+01
1.088405966758728027e+00,1.000000000000000000e+00,-4.427986145019531250e+01,2.993544578552246094e+01,3.511476516723632812e+01,9.225572204589843750e+01,9.986933135986328125e+01,-8.368936538696289062e+00,5.500723266601562500e+01,-2.090458106994628906e+01,-9.345405578613281250e+01,-1.180766754150390625e+02,6.585875701904296875e+01,-2.980392074584960938e+01
1.092434048652648926e+00,1.000000000000000000e+00,-4.432375335693359375e+01,2.984762001037597656e+01,3.513847351074218750e+01,9.217676544189453125e+01,9.988921356201171875e+01,-8.392401695251464844e+00,5.500723266601562500e+01,-2.090458106994628906e+01,-9.345405578613281250e+01,-1.180766754150390625e+02,6.585875701904296875e+01,-2.980402946472167969e+01
1.096348047256469727e+00,1.000000000000000000e+00,-4.436770248413085938e+01,2.975965690612792969e+01,3.516213989257812500e+01,9.209696197509765625e+01,9.990953063964843750e+01,-8.416205406188964844e+00,5.500712203979492188e+01,-2.090458106994628906e+01,-9.345405578613281250e+01,-1.180766754150390625e+02,6.585875701904296875e+01,-2.980402946472167969e+01
1.100962042808532715e+00,1.000000000000000000e+00,-4.441154098510742188e+01,2.967178726196289062e+01,3.518560028076171875e+01,9.201800537109375000e+01,9.993027496337890625e+01,-8.440145492553710938e+00,5.500723266601562500e+01,-2.090458106994628906e+01,-9.345405578613281250e+01,-1.180766754150390625e+02,6.585860443115234375e+01,-2.980402946472167969e+01
1.104639053344726562e+00,1.000000000000000000e+00,-4.445552062988281250e+01,2.958420753479003906e+01,3.520918655395507812e+01,9.193846893310546875e+01,9.995143890380859375e+01,-8.464152336120605469e+00,5.500723266601562500e+01,-2.090467262268066406e+01,-9.345405578613281250e+01,-1.180766754150390625e+02,6.585875701904296875e+01,-2.980402946472167969e+01
1.108441948890686035e+00,1.000000000000000000e+00,-4.449952697753906250e+01,2.949732971191406250e+01,3.523293304443359375e+01,9.185955810546875000e+01,9.997319030761718750e+01,-8.488701820373535156e+00,5.500723266601562500e+01,-2.090458106994628906e+01,-9.345405578613281250e+01,-1.180766754150390625e+02,6.585875701904296875e+01,-2.980402946472167969e+01
1.112378954887390137e+00,1.000000000000000000e+00,-4.454338836669921875e+01,2.941043281555175781e+01,3.525662231445312500e+01,9.178038787841796875e+01,9.999467468261718750e+01,-8.513658523559570312e+00,5.500723266601562500e+01,-2.090458106994628906e+01,-9.345405578613281250e+01,-1.180766754150390625e+02,6.585875701904296875e+01,-2.980392074584960938e+01
