rpiRobotics/ARM-21-02-F-19-Robot-Motion-Program/data_performance_abb/curve_1/curve_pose_opt1/greedy0.02/grad_result/real_from_sim/run_3.csv
timestamp,cmd_num,J1,J2,J3,J4,J5,J6
2.600000007078051567e-04,-1.000000000000000000e+00,-3.445148086547851562e+01,4.940641021728515625e+01,2.994034194946289062e+01,1.100327301025390625e+02,9.541983032226562500e+01,-2.992486000061035156e+00,5.500723266601562500e+01,-2.090458106994628906e+01,-9.345405578613281250e+01,-1.180766754150390625e+02,6.585875701904296875e+01,-2.980424880981445312e+01
5.394000094383955002e-03,1.000000000000000000e+00,-3.445139312744140625e+01,4.940641021728515625e+01,2.994030189514160156e+01,1.100326309204101562e+02,9.541999053955078125e+01,-2.992621660232543945e+00,5.500712203979492188e+01,-2.090448951721191406e+01,-9.345405578613281250e+01,-1.180766754150390625e+02,6.585860443115234375e+01,-2.980424880981445312e+01
9.012999944388866425e-03,1.000000000000000000e+00,-3.445148086547851562e+01,4.940641021728515625e+01,2.994030189514160156e+01,1.100327301025390625e+02,9.541983032226562500e+01,-2.992486000061035156e+00,5.500723266601562500e+01,-2.090458106994628906e+01,-9.345405578613281250e+01,-1.180766754150390625e+02,6.585875701904296875e+01,-2.980424880981445312e+01
1.310900039970874786e-02,1.000000000000000000e+00,-3.445148086547851562e+01,4.940641021728515625e+01,2.994030189514160156e+01,1.100327301025390625e+02,9.541983032226562500e+01,-2.992486000061035156e+00,5.500723266601562500e+01,-2.090458106994628906e+01,-9.345405578613281250e+01,-1.180766754150390625e+02,6.585875701904296875e+01,-2.980424880981445312e+01
3.686999902129173279e-02,1.000000000000000000e+00,-3.445148086547851562e+01,4.940634155273437500e+01,2.994030189514160156e+01,1.100327301025390625e+02,9.541983032226562500e+01,-2.992486000061035156e+00,5.500723266601562500e+01,-2.090458106994628906e+01,-9.345405578613281250e+01,-1.180766754150390625e+02,6.585889434814453125e+01,-2.980424880981445312e+01
3.824700042605400085e-02,1.000000000000000000e+00,-3.445148086547851562e+01,4.940634155273437500e+01,2.994030189514160156e+01,1.100327301025390625e+02,9.541983032226562500e+01,-2.992486000061035156e+00,5.500723266601562500e+01,-2.090458106994628906e+01,-9.345405578613281250e+01,-1.180766754150390625e+02,6.585889434814453125e+01,-2.980424880981445312e+01
4.076199978590011597e-02,1.000000000000000000e+00,-3.445139312744140625e+01,4.940634155273437500e+01,2.994030189514160156e+01,1.100327301025390625e+02,9.541983032226562500e+01,-2.992486000061035156e+00,5.500734329223632812e+01,-2.090458106994628906e+01,-9.345405578613281250e+01,-1.180766754150390625e+02,6.585875701904296875e+01,-2.980424880981445312e+01
4.859900102019309998e-02,1.000000000000000000e+00,-3.445153427124023438e+01,4.940634155273437500e+01,2.994030189514160156e+01,1.100327301025390625e+02,9.541983032226562500e+01,-2.992282390594482422e+00,5.500723266601562500e+01,-2.090448951721191406e+01,-9.345405578613281250e+01,-1.180766754150390625e+02,6.585875701904296875e+01,-2.980424880981445312e+01
5.000900104641914368e-02,1.000000000000000000e+00,-3.445153427124023438e+01,4.940641021728515625e+01,2.994030189514160156e+01,1.100327301025390625e+02,9.541983032226562500e+01,-2.992621660232543945e+00,5.500723266601562500e+01,-2.090448951721191406e+01,-9.345405578613281250e+01,-1.180766754150390625e+02,6.585875701904296875e+01,-2.980424880981445312e+01
5.335500091314315796e-02,1.000000000000000000e+00,-3.445153427124023438e+01,4.940641021728515625e+01,2.994030189514160156e+01,1.100327301025390625e+02,9.541983032226562500e+01,-2.992621660232543945e+00,5.500723266601562500e+01,-2.090448951721191406e+01,-9.345405578613281250e+01,-1.180766754150390625e+02,6.585875701904296875e+01,-2.980424880981445312e+01
5.471700057387351990e-02,1.000000000000000000e+00,-3.445162582397460938e+01,4.940627670288085938e+01,2.994030189514160156e+01,1.100328903198242188e+02,9.541983032226562500e+01,-2.992486000061035156e+00,5.500712203979492188e+01,-2.090458106994628906e+01,-9.345405578613281250e+01,-1.180766754150390625e+02,6.585875701904296875e+01,-2.980424880981445312e+01
6.102700158953666687e-02,1.000000000000000000e+00,-3.445254516601562500e+01,4.940591430664062500e+01,2.994030189514160156e+01,1.100327301025390625e+02,9.541983032226562500e+01,-2.992486000061035156e+00,5.500723266601562500e+01,-2.090458106994628906e+01,-9.345405578613281250e+01,-1.180766754150390625e+02,6.585875701904296875e+01,-2.980424880981445312e+01
6.238799914717674255e-02,1.000000000000000000e+00,-3.445254516601562500e+01,4.940591430664062500e+01,2.994030189514160156e+01,1.100327301025390625e+02,9.541983032226562500e+01,-2.992486000061035156e+00,5.500723266601562500e+01,-2.090458106994628906e+01,-9.345405578613281250e+01,-1.180766754150390625e+02,6.585875701904296875e+01,-2.980424880981445312e+01
6.472499668598175049e-02,1.000000000000000000e+00,-3.445254516601562500e+01,4.940591430664062500e+01,2.994030189514160156e+01,1.100327301025390625e+02,9.541983032226562500e+01,-2.992486000061035156e+00,5.500723266601562500e+01,-2.090458106994628906e+01,-9.345405578613281250e+01,-1.180766754150390625e+02,6.585875701904296875e+01,-2.980424880981445312e+01
6.627500057220458984e-02,1.000000000000000000e+00,-3.445391845703125000e+01,4.940507507324218750e+01,2.994030189514160156e+01,1.100326309204101562e+02,9.541983032226562500e+01,-2.992486000061035156e+00,5.500723266601562500e+01,-2.090458106994628906e+01,-9.345405578613281250e+01,-1.180766754150390625e+02,6.585875701904296875e+01,-2.980424880981445312e+01
6.952200084924697876e-02,1.000000000000000000e+00,-3.445578384399414062e+01,4.940333175659179688e+01,2.994030189514160156e+01,1.100326309204101562e+02,9.541999053955078125e+01,-2.992486000061035156e+00,5.500723266601562500e+01,-2.090458106994628906e+01,-9.345405578613281250e+01,-1.180766754150390625e+02,6.585875701904296875e+01,-2.980424880981445312e+01
7.078000158071517944e-02,1.000000000000000000e+00,-3.445578384399414062e+01,4.940333175659179688e+01,2.994030189514160156e+01,1.100326309204101562e+02,9.541999053955078125e+01,-2.992486000061035156e+00,5.500723266601562500e+01,-2.090458106994628906e+01,-9.345405578613281250e+01,-1.180766754150390625e+02,6.585875701904296875e+01,-2.980424880981445312e+01
7.400400191545486450e-02,1.000000000000000000e+00,-3.445816802978515625e+01,4.940029907226562500e+01,2.994030189514160156e+01,1.100324707031250000e+02,9.541983032226562500e+01,-2.992486000061035156e+00,5.500723266601562500e+01,-2.090458106994628906e+01,-9.345405578613281250e+01,-1.180766754150390625e+02,6.585875701904296875e+01,-2.980424880981445312e+01
7.537099719047546387e-02,1.000000000000000000e+00,-3.445816802978515625e+01,4.940029907226562500e+01,2.994030189514160156e+01,1.100324707031250000e+02,9.541983032226562500e+01,-2.992486000061035156e+00,5.500723266601562500e+01,-2.090458106994628906e+01,-9.345405578613281250e+01,-1.180766754150390625e+02,6.585875701904296875e+01,-2.980424880981445312e+01
7.945699989795684814e-02,1.000000000000000000e+00,-3.446118545532226562e+01,4.939572906494140625e+01,2.994038391113281250e+01,1.100322036743164062e+02,9.541983032226562500e+01,-2.992621660232543945e+00,5.500734329223632812e+01,-2.090458106994628906e+01,-9.345405578613281250e+01,-1.180766754150390625e+02,6.585875701904296875e+01,-2.980424880981445312e+01
8.215399831533432007e-02,1.000000000000000000e+00,-3.446474075317382812e+01,4.938909912109375000e+01,2.994052696228027344e+01,1.100313110351562500e+02,9.542008972167968750e+01,-2.992486000061035156e+00,5.500723266601562500e+01,-2.090458106994628906e+01,-9.345405578613281250e+01,-1.180765380859375000e+02,6.585875701904296875e+01,-2.980424880981445312e+01
8.588299900293350220e-02,1.000000000000000000e+00,-3.446899032592773438e+01,4.938061141967773438e+01,2.994091415405273438e+01,1.100282592773437500e+02,9.542052459716796875e+01,-2.992621660232543945e+00,5.500723266601562500e+01,-2.090458106994628906e+01,-9.345405578613281250e+01,-1.180766754150390625e+02,6.585875701904296875e+01,-2.980424880981445312e+01
8.731900155544281006e-02,1.000000000000000000e+00,-3.446899032592773438e+01,4.938061141967773438e+01,2.994091415405273438e+01,1.100282592773437500e+02,9.542052459716796875e+01,-2.992621660232543945e+00,5.500723266601562500e+01,-2.090458106994628906e+01,-9.345405578613281250e+01,-1.180766754150390625e+02,6.585875701904296875e+01,-2.980424880981445312e+01
8.987700194120407104e-02,1.000000000000000000e+00,-3.447386932373046875e+01,4.937031555175781250e+01,2.994162368774414062e+01,1.100241470336914062e+02,9.542121124267578125e+01,-2.993299722671508789e+00,5.500723266601562500e+01,-2.090458106994628906e+01,-9.345405578613281250e+01,-1.180766754150390625e+02,6.585875701904296875e+01,-2.980424880981445312e+01
9.375900030136108398e-02,1.000000000000000000e+00,-3.447970199584960938e+01,4.935791397094726562e+01,2.994288444519042969e+01,1.100187225341796875e+02,9.542228698730468750e+01,-2.994249343872070312e+00,5.500723266601562500e+01,-2.090458106994628906e+01,-9.345405578613281250e+01,-1.180766754150390625e+02,6.585875701904296875e+01,-2.980424880981445312e+01
9.539999812841415405e-02,1.000000000000000000e+00,-3.447970199584960938e+01,4.935791397094726562e+01,2.994288444519042969e+01,1.100187225341796875e+02,9.542228698730468750e+01,-2.994249343872070312e+00,5.500723266601562500e+01,-2.090458106994628906e+01,-9.345405578613281250e+01,-1.180766754150390625e+02,6.585875701904296875e+01,-2.980424880981445312e+01
9.937699884176254272e-02,1.000000000000000000e+00,-3.448667526245117188e+01,4.934295654296875000e+01,2.994457054138183594e+01,1.100113983154296875e+02,9.542414855957031250e+01,-2.996554851531982422e+00,5.500723266601562500e+01,-2.090458106994628906e+01,-9.345405578613281250e+01,-1.180766754150390625e+02,6.585875701904296875e+01,-2.980424880981445312e+01
1.033750027418136597e-01,1.000000000000000000e+00,-3.449477005004882812e+01,4.932557678222656250e+01,2.994695091247558594e+01,1.100018081665039062e+02,9.542681121826171875e+01,-2.999538898468017578e+00,5.500723266601562500e+01,-2.090458106994628906e+01,-9.345405578613281250e+01,-1.180766754150390625e+02,6.585875701904296875e+01,-2.980424880981445312e+01
1.094010025262832642e-01,1.000000000000000000e+00,-3.450450134277343750e+01,4.930586624145507812e+01,2.995004081726074219e+01,1.099892196655273438e+02,9.543000793457031250e+01,-3.003268718719482422e+00,5.500712203979492188e+01,-2.090458106994628906e+01,-9.345405578613281250e+01,-1.180766754150390625e+02,6.585875701904296875e+01,-2.980424880981445312e+01
1.114299967885017395e-01,1.000000000000000000e+00,-3.451589584350585938e+01,4.928346252441406250e+01,2.995408821105957031e+01,1.099738388061523438e+02,9.543428039550781250e+01,-3.007880449295043945e+00,5.500723266601562500e+01,-2.090458106994628906e+01,-9.345405578613281250e+01,-1.180766754150390625e+02,6.585875701904296875e+01,-2.980424880981445312e+01
1.153730005025863647e-01,1.000000000000000000e+00,-3.452870178222656250e+01,4.925825119018554688e+01,2.995937538146972656e+01,1.099552993774414062e+02,9.543960571289062500e+01,-3.013237953186035156e+00,5.500723266601562500e+01,-2.090448951721191406e+01,-9.345405578613281250e+01,-1.180766754150390625e+02,6.585875701904296875e+01,-2.980424880981445312e+01
1.194029971957206726e-01,1.000000000000000000e+00,-3.454311370849609375e+01,4.922996520996093750e+01,2.996577835083007812e+01,1.099335937500000000e+02,9.544573974609375000e+01,-3.020019531250000000e+00,5.500723266601562500e+01,-2.090448951721191406e+01,-9.345405578613281250e+01,-1.180766754150390625e+02,6.585889434814453125e+01,-2.980424880981445312e+01
1.233410015702247620e-01,1.000000000000000000e+00,-3.455895614624023438e+01,4.919871520996093750e+01,2.997346305847167969e+01,1.099078979492187500e+02,9.545272827148437500e+01,-3.027886390686035156e+00,5.500723266601562500e+01,-2.090458106994628906e+01,-9.345405578613281250e+01,-1.180766754150390625e+02,6.585875701904296875e+01,-2.980424880981445312e+01
1.274019926786422729e-01,1.000000000000000000e+00,-3.457606887817382812e+01,4.916390609741210938e+01,2.998238945007324219e+01,1.098772888183593750e+02,9.546072387695312500e+01,-3.036973953247070312e+00,5.500723266601562500e+01,-2.090458106994628906e+01,-9.345405578613281250e+01,-1.180766754150390625e+02,6.585875701904296875e+01,-2.980424880981445312e+01
1.313800066709518433e-01,1.000000000000000000e+00,-3.459475326538085938e+01,4.912543487548828125e+01,2.999271583557128906e+01,1.098409423828125000e+02,9.546962738037109375e+01,-3.047485589981079102e+00,5.500734329223632812e+01,-2.090458106994628906e+01,-9.345405578613281250e+01,-1.180766754150390625e+02,6.585875701904296875e+01,-2.980424880981445312e+01
1.353410035371780396e-01,1.000000000000000000e+00,-3.461528015136718750e+01,4.908348083496093750e+01,3.000422477722167969e+01,1.098013381958007812e+02,9.547975158691406250e+01,-3.059217929840087891e+00,5.500723266601562500e+01,-2.090458106994628906e+01,-9.345405578613281250e+01,-1.180766754150390625e+02,6.585875701904296875e+01,-2.980424880981445312e+01
1.394129991531372070e-01,1.000000000000000000e+00,-3.463769912719726562e+01,4.903847122192382812e+01,3.001715850830078125e+01,1.097590408325195312e+02,9.549057769775390625e+01,-3.072577714920043945e+00,5.500723266601562500e+01,-2.090458106994628906e+01,-9.345405578613281250e+01,-1.180766754150390625e+02,6.585875701904296875e+01,-2.980424880981445312e+01
1.433410048484802246e-01,1.000000000000000000e+00,-3.466138458251953125e+01,4.899029159545898438e+01,3.003147125244140625e+01,1.097123641967773438e+02,9.550231170654296875e+01,-3.086819410324096680e+00,5.500723266601562500e+01,-2.090458106994628906e+01,-9.345405578613281250e+01,-1.180766754150390625e+02,6.585875701904296875e+01,-2.980424880981445312e+01
1.473360061645507812e-01,1.000000000000000000e+00,-3.468644714355468750e+01,4.893908309936523438e+01,3.004686355590820312e+01,1.096605377197265625e+02,9.551494598388671875e+01,-3.102484941482543945e+00,5.500734329223632812e+01,-2.090458106994628906e+01,-9.345405578613281250e+01,-1.180766754150390625e+02,6.585875701904296875e+01,-2.980424880981445312e+01
1.513500064611434937e-01,1.000000000000000000e+00,-3.471308517456054688e+01,4.888515472412109375e+01,3.006333160400390625e+01,1.096058120727539062e+02,9.552838134765625000e+01,-3.119642734527587891e+00,5.500723266601562500e+01,-2.090458106994628906e+01,-9.345405578613281250e+01,-1.180765380859375000e+02,6.585875701904296875e+01,-2.980402946472167969e+01
1.554230004549026489e-01,1.000000000000000000e+00,-3.474098968505859375e+01,4.882846450805664062e+01,3.008057403564453125e+01,1.095483932495117188e+02,9.554245758056640625e+01,-3.137885093688964844e+00,5.500723266601562500e+01,-2.090458106994628906e+01,-9.345405578613281250e+01,-1.180766754150390625e+02,6.585875701904296875e+01,-2.980424880981445312e+01
1.593399941921234131e-01,1.000000000000000000e+00,-3.477041244506835938e+01,4.876930999755859375e+01,3.009878921508789062e+01,1.094881896972656250e+02,9.555760192871093750e+01,-3.156738519668579102e+00,5.500723266601562500e+01,-2.090458106994628906e+01,-9.345405578613281250e+01,-1.180765380859375000e+02,6.585875701904296875e+01,-2.980424880981445312e+01
1.633370071649551392e-01,1.000000000000000000e+00,-3.480127334594726562e+01,4.870744323730468750e+01,3.011755561828613281e+01,1.094254531860351562e+02,9.557386016845703125e+01,-3.175862789154052734e+00,5.500723266601562500e+01,-2.090448951721191406e+01,-9.345405578613281250e+01,-1.180766754150390625e+02,6.585875701904296875e+01,-2.980424880981445312e+01
1.673830002546310425e-01,1.000000000000000000e+00,-3.483342742919921875e+01,4.864323806762695312e+01,3.013676834106445312e+01,1.093602905273437500e+02,9.559075927734375000e+01,-3.195461750030517578e+00,5.500723266601562500e+01,-2.090458106994628906e+01,-9.345405578613281250e+01,-1.180766754150390625e+02,6.585889434814453125e+01,-2.980424880981445312e+01
1.715079993009567261e-01,1.000000000000000000e+00,-3.486643600463867188e+01,4.857704544067382812e+01,3.015626525878906250e+01,1.092948226928710938e+02,9.560840606689453125e+01,-3.215332031250000000e+00,5.500712203979492188e+01,-2.090458106994628906e+01,-9.345405578613281250e+01,-1.180766754150390625e+02,6.585875701904296875e+01,-2.980424880981445312e+01
1.753560006618499756e-01,1.000000000000000000e+00,-3.490068435668945312e+01,4.850886154174804688e+01,3.017613220214843750e+01,1.092274475097656250e+02,9.562584686279296875e+01,-3.236151933670043945e+00,5.500723266601562500e+01,-2.090458106994628906e+01,-9.345405578613281250e+01,-1.180766754150390625e+02,6.585875701904296875e+01,-2.980424880981445312e+01
1.822409927845001221e-01,1.000000000000000000e+00,-3.493570709228515625e+01,4.843895721435546875e+01,3.019642448425292969e+01,1.091598205566406250e+02,9.564285278320312500e+01,-3.256903886795043945e+00,5.500723266601562500e+01,-2.090458106994628906e+01,-9.345405578613281250e+01,-1.180766754150390625e+02,6.585875701904296875e+01,-2.980424880981445312e+01
1.837249994277954102e-01,1.000000000000000000e+00,-3.497156143188476562e+01,4.836726760864257812e+01,3.021683502197265625e+01,1.090907135009765625e+02,9.566001892089843750e+01,-3.277859210968017578e+00,5.500712203979492188e+01,-2.090458106994628906e+01,-9.345405578613281250e+01,-1.180766754150390625e+02,6.585875701904296875e+01,-2.980424880981445312e+01
1.873400062322616577e-01,1.000000000000000000e+00,-3.500810241699218750e+01,4.829369735717773438e+01,3.023761367797851562e+01,1.090217590332031250e+02,9.567745208740234375e+01,-3.299289464950561523e+00,5.500723266601562500e+01,-2.090458106994628906e+01,-9.345405578613281250e+01,-1.180766754150390625e+02,6.585875701904296875e+01,-2.980424880981445312e+01
1.924480050802230835e-01,1.000000000000000000e+00,-3.500810241699218750e+01,4.829369735717773438e+01,3.023761367797851562e+01,1.090217590332031250e+02,9.567745208740234375e+01,-3.299289464950561523e+00,5.500723266601562500e+01,-2.090458106994628906e+01,-9.345405578613281250e+01,-1.180766754150390625e+02,6.585875701904296875e+01,-2.980424880981445312e+01
1.958580017089843750e-01,1.000000000000000000e+00,-3.508380508422851562e+01,4.814366149902343750e+01,3.027870368957519531e+01,1.088829650878906250e+02,9.571350097656250000e+01,-3.343505859375000000e+00,5.500712203979492188e+01,-2.090458106994628906e+01,-9.345405578613281250e+01,-1.180766754150390625e+02,6.585875701904296875e+01,-2.980446624755859375e+01
1.993470042943954468e-01,1.000000000000000000e+00,-3.512267303466796875e+01,4.806780624389648438e+01,3.029920196533203125e+01,1.088134307861328125e+02,9.573210144042968750e+01,-3.364868164062500000e+00,5.500723266601562500e+01,-2.090458106994628906e+01,-9.345405578613281250e+01,-1.180766754150390625e+02,6.585875701904296875e+01,-2.980424880981445312e+01
2.044239938259124756e-01,1.000000000000000000e+00,-3.512267303466796875e+01,4.806780624389648438e+01,3.029920196533203125e+01,1.088134307861328125e+02,9.573210144042968750e+01,-3.364868164062500000e+00,5.500723266601562500e+01,-2.090458106994628906e+01,-9.345405578613281250e+01,-1.180766754150390625e+02,6.585875701904296875e+01,-2.980424880981445312e+01
2.077749967575073242e-01,1.000000000000000000e+00,-3.520069885253906250e+01,4.791462326049804688e+01,3.034039115905761719e+01,1.086740036010742188e+02,9.577001190185546875e+01,-3.407050371170043945e+00,5.500723266601562500e+01,-2.090458106994628906e+01,-9.345405578613281250e+01,-1.180766754150390625e+02,6.585875701904296875e+01,-2.980424880981445312e+01
2.113409936428070068e-01,1.000000000000000000e+00,-3.523999786376953125e+01,4.783768081665039062e+01,3.036100769042968750e+01,1.086039505004882812e+02,9.578787231445312500e+01,-3.428209304809570312e+00,5.500723266601562500e+01,-2.090458106994628906e+01,-9.345405578613281250e+01,-1.180766754150390625e+02,6.585875701904296875e+01,-2.980424880981445312e+01
2.155510038137435913e-01,1.000000000000000000e+00,-3.523999786376953125e+01,4.783768081665039062e+01,3.036100769042968750e+01,1.086039505004882812e+02,9.578787231445312500e+01,-3.428209304809570312e+00,5.500723266601562500e+01,-2.090458106994628906e+01,-9.345405578613281250e+01,-1.180766754150390625e+02,6.585875701904296875e+01,-2.980424880981445312e+01
2.219099998474121094e-01,1.000000000000000000e+00,-3.531931686401367188e+01,4.768336868286132812e+01,3.040203666687011719e+01,1.084637298583984375e+02,9.582348632812500000e+01,-3.471340894699096680e+00,5.500723266601562500e+01,-2.090458106994628906e+01,-9.345405578613281250e+01,-1.180766754150390625e+02,6.585875701904296875e+01,-2.980424880981445312e+01
2.243330031633377075e-01,1.000000000000000000e+00,-3.535853195190429688e+01,4.760611343383789062e+01,3.042275619506835938e+01,1.083939895629882812e+02,9.584130096435546875e+01,-3.493041992187500000e+00,5.500723266601562500e+01,-2.090458106994628906e+01,-9.345405578613281250e+01,-1.180766754150390625e+02,6.585875701904296875e+01,-2.980424880981445312e+01
2.273399978876113892e-01,1.000000000000000000e+00,-3.539817428588867188e+01,4.752910232543945312e+01,3.044373893737792969e+01,1.083235092163085938e+02,9.585942840576171875e+01,-3.515489339828491211e+00,5.500734329223632812e+01,-2.090458106994628906e+01,-9.345405578613281250e+01,-1.180768966674804688e+02,6.585875701904296875e+01,-2.980424880981445312e+01
2.318120002746582031e-01,1.000000000000000000e+00,-3.539817428588867188e+01,4.752910232543945312e+01,3.044373893737792969e+01,1.083235092163085938e+02,9.585942840576171875e+01,-3.515489339828491211e+00,5.500734329223632812e+01,-2.090458106994628906e+01,-9.345405578613281250e+01,-1.180768966674804688e+02,6.585875701904296875e+01,-2.980424880981445312e+01
2.354740053415298462e-01,1.000000000000000000e+00,-3.547714614868164062e+01,4.737601089477539062e+01,3.048537826538085938e+01,1.081839752197265625e+02,9.589737701416015625e+01,-3.558281898498535156e+00,5.500712203979492188e+01,-2.090458106994628906e+01,-9.345405578613281250e+01,-1.180766754150390625e+02,6.585875701904296875e+01,-2.980424880981445312e+01
2.393880039453506470e-01,1.000000000000000000e+00,-3.547714614868164062e+01,4.737601089477539062e+01,3.048537826538085938e+01,1.081839752197265625e+02,9.589737701416015625e+01,-3.558281898498535156e+00,5.500712203979492188e+01,-2.090458106994628906e+01,-9.345405578613281250e+01,-1.180766754150390625e+02,6.585875701904296875e+01,-2.980424880981445312e+01
2.434629946947097778e-01,1.000000000000000000e+00,-3.551655960083007812e+01,4.729983520507812500e+01,3.050593376159667969e+01,1.081138687133789062e+02,9.591615295410156250e+01,-3.578965902328491211e+00,5.500723266601562500e+01,-2.090458106994628906e+01,-9.345405578613281250e+01,-1.180766754150390625e+02,6.585875701904296875e+01,-2.980424880981445312e+01
2.474150061607360840e-01,1.000000000000000000e+00,-3.555583190917968750e+01,4.722316741943359375e+01,3.052648925781250000e+01,1.080437011718750000e+02,9.593412017822265625e+01,-3.600056886672973633e+00,5.500712203979492188e+01,-2.090458106994628906e+01,-9.345405578613281250e+01,-1.180766754150390625e+02,6.585875701904296875e+01,-2.980424880981445312e+01
2.513889968395233154e-01,1.000000000000000000e+00,-3.559495925903320312e+01,4.714627075195312500e+01,3.054732894897460938e+01,1.079736557006835938e+02,9.595175933837890625e+01,-3.621758699417114258e+00,5.500712203979492188e+01,-2.090458106994628906e+01,-9.345405578613281250e+01,-1.180766754150390625e+02,6.585875701904296875e+01,-2.980424880981445312e+01
2.562350034713745117e-01,1.000000000000000000e+00,-3.563391494750976562e+01,4.706912612915039062e+01,3.056837272644042969e+01,1.079032287597656250e+02,9.596978759765625000e+01,-3.642985105514526367e+00,5.500723266601562500e+01,-2.090458106994628906e+01,-9.345405578613281250e+01,-1.180766754150390625e+02,6.585875701904296875e+01,-2.980424880981445312e+01
2.593570053577423096e-01,1.000000000000000000e+00,-3.571228408813476562e+01,4.691530990600585938e+01,3.061033630371093750e+01,1.077626876831054688e+02,9.600641632080078125e+01,-3.686455965042114258e+00,5.500723266601562500e+01,-2.090458106994628906e+01,-9.345405578613281250e+01,-1.180766754150390625e+02,6.585875701904296875e+01,-2.980446624755859375e+01
2.633880078792572021e-01,1.000000000000000000e+00,-3.571228408813476562e+01,4.691530990600585938e+01,3.061033630371093750e+01,1.077626876831054688e+02,9.600641632080078125e+01,-3.686455965042114258e+00,5.500723266601562500e+01,-2.090458106994628906e+01,-9.345405578613281250e+01,-1.180766754150390625e+02,6.585875701904296875e+01,-2.980446624755859375e+01
2.673940062522888184e-01,1.000000000000000000e+00,-3.575138092041015625e+01,4.683805084228515625e+01,3.063117980957031250e+01,1.076921615600585938e+02,9.602534484863281250e+01,-3.708496093750000000e+00,5.500723266601562500e+01,-2.090458106994628906e+01,-9.345405578613281250e+01,-1.180766754150390625e+02,6.585860443115234375e+01,-2.980424880981445312e+01
2.713949978351593018e-01,1.000000000000000000e+00,-3.579001998901367188e+01,4.676090621948242188e+01,3.065203857421875000e+01,1.076214675903320312e+02,9.604469299316406250e+01,-3.730401039123535156e+00,5.500723266601562500e+01,-2.090458106994628906e+01,-9.345405578613281250e+01,-1.180766754150390625e+02,6.585860443115234375e+01,-2.980424880981445312e+01
2.754530012607574463e-01,1.000000000000000000e+00,-3.582825851440429688e+01,4.668403244018554688e+01,3.067308235168457031e+01,1.075513610839843750e+02,9.606357574462890625e+01,-3.751424312591552734e+00,5.500723266601562500e+01,-2.090458106994628906e+01,-9.345405578613281250e+01,-1.180766754150390625e+02,6.585875701904296875e+01,-2.980402946472167969e+01
2.800909876823425293e-01,1.000000000000000000e+00,-3.586701583862304688e+01,4.660713577270507812e+01,3.069398307800292969e+01,1.074804077148437500e+02,9.608126831054687500e+01,-3.772583246231079102e+00,5.500723266601562500e+01,-2.090458106994628906e+01,-9.345405578613281250e+01,-1.180766754150390625e+02,6.585875701904296875e+01,-2.980424880981445312e+01
2.843999862670898438e-01,1.000000000000000000e+00,-3.594449234008789062e+01,4.645257186889648438e+01,3.073551940917968750e+01,1.073393478393554688e+02,9.611715698242187500e+01,-3.814833164215087891e+00,5.500723266601562500e+01,-2.090439605712890625e+01,-9.345405578613281250e+01,-1.180766754150390625e+02,6.585875701904296875e+01,-2.980424880981445312e+01
2.874070107936859131e-01,1.000000000000000000e+00,-3.598321914672851562e+01,4.637502288818359375e+01,3.075640106201171875e+01,1.072694015502929688e+02,9.613538360595703125e+01,-3.836263418197631836e+00,5.500723266601562500e+01,-2.090458106994628906e+01,-9.345405578613281250e+01,-1.180766754150390625e+02,6.585875701904296875e+01,-2.980424880981445312e+01
2.914089858531951904e-01,1.000000000000000000e+00,-3.598321914672851562e+01,4.637502288818359375e+01,3.075640106201171875e+01,1.072694015502929688e+02,9.613538360595703125e+01,-3.836263418197631836e+00,5.500723266601562500e+01,-2.090458106994628906e+01,-9.345405578613281250e+01,-1.180766754150390625e+02,6.585875701904296875e+01,-2.980424880981445312e+01
2.953850030899047852e-01,1.000000000000000000e+00,-3.602180099487304688e+01,4.629721832275390625e+01,3.077754592895507812e+01,1.071981353759765625e+02,9.615388488769531250e+01,-3.857964515686035156e+00,5.500712203979492188e+01,-2.090458106994628906e+01,-9.345405578613281250e+01,-1.180766754150390625e+02,6.585875701904296875e+01,-2.980424880981445312e+01
2.994869947433471680e-01,1.000000000000000000e+00,-3.606035232543945312e+01,4.621939468383789062e+01,3.079873085021972656e+01,1.071280212402343750e+02,9.617276000976562500e+01,-3.880140542984008789e+00,5.500723266601562500e+01,-2.090458106994628906e+01,-9.345405578613281250e+01,-1.180766754150390625e+02,6.585875701904296875e+01,-2.980424880981445312e+01
3.040780127048492432e-01,1.000000000000000000e+00,-3.609879302978515625e+01,4.614147949218750000e+01,3.081969261169433594e+01,1.070570144653320312e+02,9.619174194335937500e+01,-3.902452468872070312e+00,5.500723266601562500e+01,-2.090458106994628906e+01,-9.345405578613281250e+01,-1.180766754150390625e+02,6.585875701904296875e+01,-2.980424880981445312e+01
3.084380030632019043e-01,1.000000000000000000e+00,-3.613731384277343750e+01,4.606356430053710938e+01,3.084069442749023438e+01,1.069866409301757812e+02,9.621067047119140625e+01,-3.923814773559570312e+00,5.500723266601562500e+01,-2.090458106994628906e+01,-9.345405578613281250e+01,-1.180766754150390625e+02,6.585875701904296875e+01,-2.980424880981445312e+01
3.114280104637145996e-01,1.000000000000000000e+00,-3.621496963500976562e+01,4.590773391723632812e+01,3.088235664367675781e+01,1.068448486328125000e+02,9.624623107910156250e+01,-3.965590000152587891e+00,5.500723266601562500e+01,-2.090458106994628906e+01,-9.345405578613281250e+01,-1.180766754150390625e+02,6.585875701904296875e+01,-2.980424880981445312e+01
3.154709935188293457e-01,1.000000000000000000e+00,-3.621496963500976562e+01,4.590773391723632812e+01,3.088235664367675781e+01,1.068448486328125000e+02,9.624623107910156250e+01,-3.965590000152587891e+00,5.500723266601562500e+01,-2.090458106994628906e+01,-9.345405578613281250e+01,-1.180766754150390625e+02,6.585875701904296875e+01,-2.980424880981445312e+01
3.193820118904113770e-01,1.000000000000000000e+00,-3.625395202636718750e+01,4.582991027832031250e+01,3.090354347229003906e+01,1.067731552124023438e+02,9.626441192626953125e+01,-3.986952304840087891e+00,5.500723266601562500e+01,-2.090458106994628906e+01,-9.345405578613281250e+01,-1.180766754150390625e+02,6.585875701904296875e+01,-2.980424880981445312e+01
3.235900104045867920e-01,1.000000000000000000e+00,-3.629319381713867188e+01,4.575204086303710938e+01,3.092458724975585938e+01,1.067028350830078125e+02,9.628275299072265625e+01,-4.008246421813964844e+00,5.500723266601562500e+01,-2.090458106994628906e+01,-9.345405578613281250e+01,-1.180766754150390625e+02,6.585875701904296875e+01,-2.980424880981445312e+01
3.281579911708831787e-01,1.000000000000000000e+00,-3.633237838745117188e+01,4.567383193969726562e+01,3.094564819335937500e+01,1.066317825317382812e+02,9.630114746093750000e+01,-4.029608726501464844e+00,5.500723266601562500e+01,-2.090448951721191406e+01,-9.345405578613281250e+01,-1.180766754150390625e+02,6.585875701904296875e+01,-2.980424880981445312e+01
3.313930034637451172e-01,1.000000000000000000e+00,-3.637170791625976562e+01,4.559560012817382812e+01,3.096667098999023438e+01,1.065606689453125000e+02,9.632028198242187500e+01,-4.052192211151123047e+00,5.500723266601562500e+01,-2.090458106994628906e+01,-9.345405578613281250e+01,-1.180766754150390625e+02,6.585875701904296875e+01,-2.980424880981445312e+01
3.353900015354156494e-01,1.000000000000000000e+00,-3.641112136840820312e+01,4.551739120483398438e+01,3.098769378662109375e+01,1.064894561767578125e+02,9.633953094482421875e+01,-4.074368000030517578e+00,5.500723266601562500e+01,-2.090458106994628906e+01,-9.345405578613281250e+01,-1.180766754150390625e+02,6.585875701904296875e+01,-2.980424880981445312e+01
3.396990001201629639e-01,1.000000000000000000e+00,-3.645062255859375000e+01,4.543911361694335938e+01,3.100888252258300781e+01,1.064184494018554688e+02,9.635809326171875000e+01,-4.096679687500000000e+00,5.500712203979492188e+01,-2.090458106994628906e+01,-9.345405578613281250e+01,-1.180766754150390625e+02,6.585875701904296875e+01,-2.980424880981445312e+01
3.433870077133178711e-01,1.000000000000000000e+00,-3.649038314819335938e+01,4.536065673828125000e+01,3.103002738952636719e+01,1.063475494384765625e+02,9.637610626220703125e+01,-4.117635250091552734e+00,5.500723266601562500e+01,-2.090458106994628906e+01,-9.345405578613281250e+01,-1.180766754150390625e+02,6.585875701904296875e+01,-2.980424880981445312e+01
3.475930094718933105e-01,1.000000000000000000e+00,-3.653011322021484375e+01,4.528222274780273438e+01,3.105101013183593750e+01,1.062765960693359375e+02,9.639396667480468750e+01,-4.138387203216552734e+00,5.500723266601562500e+01,-2.090458106994628906e+01,-9.345405578613281250e+01,-1.180766754150390625e+02,6.585875701904296875e+01,-2.980424880981445312e+01
3.522230088710784912e-01,1.000000000000000000e+00,-3.656978607177734375e+01,4.520410156250000000e+01,3.107201385498046875e+01,1.062051162719726562e+02,9.641209411621093750e+01,-4.160427570343017578e+00,5.500723266601562500e+01,-2.090458106994628906e+01,-9.345405578613281250e+01,-1.180766754150390625e+02,6.585875701904296875e+01,-2.980424880981445312e+01
3.553729951381683350e-01,1.000000000000000000e+00,-3.660965728759765625e+01,4.512600326538085938e+01,3.109313583374023438e+01,1.061341705322265625e+02,9.643043518066406250e+01,-4.181993484497070312e+00,5.500723266601562500e+01,-2.090458106994628906e+01,-9.345405578613281250e+01,-1.180766754150390625e+02,6.585875701904296875e+01,-2.980402946472167969e+01
3.593870103359222412e-01,1.000000000000000000e+00,-3.664970779418945312e+01,4.504748153686523438e+01,3.111440467834472656e+01,1.060628433227539062e+02,9.644888305664062500e+01,-4.203219890594482422e+00,5.500723266601562500e+01,-2.090458106994628906e+01,-9.345405578613281250e+01,-1.180766754150390625e+02,6.585875701904296875e+01,-2.980424880981445312e+01
3.638379871845245361e-01,1.000000000000000000e+00,-3.668966293334960938e+01,4.496929168701171875e+01,3.113556861877441406e+01,1.059916381835937500e+02,9.646802520751953125e+01,-4.225192546844482422e+00,5.500723266601562500e+01,-2.090458106994628906e+01,-9.345405578613281250e+01,-1.180766754150390625e+02,6.585875701904296875e+01,-2.980424880981445312e+01
3.673849999904632568e-01,1.000000000000000000e+00,-3.672967910766601562e+01,4.489097213745117188e+01,3.115679550170898438e+01,1.059194641113281250e+02,9.648711395263671875e+01,-4.247571945190429688e+00,5.500723266601562500e+01,-2.090458106994628906e+01,-9.345405578613281250e+01,-1.180766754150390625e+02,6.585875701904296875e+01,-2.980424880981445312e+01
3.716009855270385742e-01,1.000000000000000000e+00,-3.676972579956054688e+01,4.481246948242187500e+01,3.117775726318359375e+01,1.058486251831054688e+02,9.650577545166015625e+01,-4.269816398620605469e+00,5.500723266601562500e+01,-2.090467262268066406e+01,-9.345405578613281250e+01,-1.180766754150390625e+02,6.585875701904296875e+01,-2.980424880981445312e+01
3.761569857597351074e-01,1.000000000000000000e+00,-3.680982971191406250e+01,4.473371505737304688e+01,3.119880104064941406e+01,1.057769317626953125e+02,9.652379608154296875e+01,-4.291314125061035156e+00,5.500723266601562500e+01,-2.090458106994628906e+01,-9.345405578613281250e+01,-1.180766754150390625e+02,6.585875701904296875e+01,-2.980424880981445312e+01
3.793840110301971436e-01,1.000000000000000000e+00,-3.684996414184570312e+01,4.465480804443359375e+01,3.122012901306152344e+01,1.057057723999023438e+02,9.654181671142578125e+01,-4.312947750091552734e+00,5.500723266601562500e+01,-2.090458106994628906e+01,-9.345405578613281250e+01,-1.180766754150390625e+02,6.585875701904296875e+01,-2.980424880981445312e+01
3.833880126476287842e-01,1.000000000000000000e+00,-3.689001083374023438e+01,4.457632446289062500e+01,3.124141502380371094e+01,1.056339721679687500e+02,9.656009674072265625e+01,-4.334174156188964844e+00,5.500723266601562500e+01,-2.090458106994628906e+01,-9.345405578613281250e+01,-1.180766754150390625e+02,6.585875701904296875e+01,-2.980424880981445312e+01
3.880060017108917236e-01,1.000000000000000000e+00,-3.693005371093750000e+01,4.449766540527343750e+01,3.126268386840820312e+01,1.055628662109375000e+02,9.657860565185546875e+01,-4.355808258056640625e+00,5.500723266601562500e+01,-2.090458106994628906e+01,-9.345405578613281250e+01,-1.180766754150390625e+02,6.585875701904296875e+01,-2.980424880981445312e+01
3.923940062522888184e-01,1.000000000000000000e+00,-3.697024536132812500e+01,4.441902542114257812e+01,3.128392982482910156e+01,1.054911727905273438e+02,9.659737396240234375e+01,-4.377645015716552734e+00,5.500723266601562500e+01,-2.090458106994628906e+01,-9.345405578613281250e+01,-1.180766754150390625e+02,6.585875701904296875e+01,-2.980402946472167969e+01
3.956289887428283691e-01,1.000000000000000000e+00,-3.701023483276367188e+01,4.434045410156250000e+01,3.130501556396484375e+01,1.054200668334960938e+02,9.661672210693359375e+01,-4.399549961090087891e+00,5.500723266601562500e+01,-2.090458106994628906e+01,-9.345405578613281250e+01,-1.180766754150390625e+02,6.585875701904296875e+01,-2.980424880981445312e+01
4.001550078392028809e-01,1.000000000000000000e+00,-3.705013656616210938e+01,4.426188278198242188e+01,3.132634162902832031e+01,1.053480606079101562e+02,9.663613128662109375e+01,-4.421522617340087891e+00,5.500712203979492188e+01,-2.090467262268066406e+01,-9.345405578613281250e+01,-1.180766754150390625e+02,6.585875701904296875e+01,-2.980424880981445312e+01
4.035109877586364746e-01,1.000000000000000000e+00,-3.709003829956054688e+01,4.418301773071289062e+01,3.134770965576171875e+01,1.052768402099609375e+02,9.665473937988281250e+01,-4.444580078125000000e+00,5.500723266601562500e+01,-2.090458106994628906e+01,-9.345405578613281250e+01,-1.180766754150390625e+02,6.585875701904296875e+01,-2.980402946472167969e+01
4.076200127601623535e-01,1.000000000000000000e+00,-3.713005447387695312e+01,4.410395050048828125e+01,3.136889839172363281e+01,1.052048950195312500e+02,9.667270660400390625e+01,-4.466892242431640625e+00,5.500723266601562500e+01,-2.090458106994628906e+01,-9.345405578613281250e+01,-1.180766754150390625e+02,6.585875701904296875e+01,-2.980424880981445312e+01
4.122610092163085938e-01,1.000000000000000000e+00,-3.717001724243164062e+01,4.402481079101562500e+01,3.139012145996093750e+01,1.051334152221679688e+02,9.669094085693359375e+01,-4.488254547119140625e+00,5.500723266601562500e+01,-2.090458106994628906e+01,-9.345405578613281250e+01,-1.180766754150390625e+02,6.585875701904296875e+01,-2.980424880981445312e+01
4.155260026454925537e-01,1.000000000000000000e+00,-3.720989227294921875e+01,4.394549560546875000e+01,3.141140937805175781e+01,1.050610427856445312e+02,9.670906829833984375e+01,-4.509684562683105469e+00,5.500723266601562500e+01,-2.090458106994628906e+01,-9.345405578613281250e+01,-1.180766754150390625e+02,6.585875701904296875e+01,-2.980402946472167969e+01
4.196679890155792236e-01,1.000000000000000000e+00,-3.724964904785156250e+01,4.386624526977539062e+01,3.143276023864746094e+01,1.049892425537109375e+02,9.672756958007812500e+01,-4.531046867370605469e+00,5.500723266601562500e+01,-2.090458106994628906e+01,-9.345405578613281250e+01,-1.180766754150390625e+02,6.585889434814453125e+01,-2.980424880981445312e+01
4.236139953136444092e-01,1.000000000000000000e+00,-3.728963851928710938e+01,4.378722000122070312e+01,3.145430946350097656e+01,1.049174499511718750e+02,9.674649810791015625e+01,-4.552883625030517578e+00,5.500723266601562500e+01,-2.090458106994628906e+01,-9.345405578613281250e+01,-1.180766754150390625e+02,6.585875701904296875e+01,-2.980424880981445312e+01
4.275799989700317383e-01,1.000000000000000000e+00,-3.732965469360351562e+01,4.370803833007812500e+01,3.147563934326171875e+01,1.048458175659179688e+02,9.676606750488281250e+01,-4.574788570404052734e+00,5.500723266601562500e+01,-2.090458106994628906e+01,-9.345405578613281250e+01,-1.180766754150390625e+02,6.585875701904296875e+01,-2.980424880981445312e+01
4.317969977855682373e-01,1.000000000000000000e+00,-3.736970138549804688e+01,4.362897109985351562e+01,3.149686431884765625e+01,1.047737579345703125e+02,9.678530883789062500e+01,-4.597100257873535156e+00,5.500723266601562500e+01,-2.090458106994628906e+01,-9.345405578613281250e+01,-1.180766754150390625e+02,6.585875701904296875e+01,-2.980446624755859375e+01
4.364309906959533691e-01,1.000000000000000000e+00,-3.740966033935546875e+01,4.354972076416015625e+01,3.151799011230468750e+01,1.047019577026367188e+02,9.680370330810546875e+01,-4.619411945343017578e+00,5.500712203979492188e+01,-2.090448951721191406e+01,-9.345405578613281250e+01,-1.180765380859375000e+02,6.585875701904296875e+01,-2.980424880981445312e+01
4.399000108242034912e-01,1.000000000000000000e+00,-3.744976425170898438e+01,4.347055816650390625e+01,3.153925514221191406e+01,1.046301651000976562e+02,9.682167053222656250e+01,-4.642063140869140625e+00,5.500723266601562500e+01,-2.090458106994628906e+01,-9.345405578613281250e+01,-1.180766754150390625e+02,6.585875701904296875e+01,-2.980424880981445312e+01
4.438090026378631592e-01,1.000000000000000000e+00,-3.748981094360351562e+01,4.339131164550781250e+01,3.156070709228515625e+01,1.045581588745117188e+02,9.684011840820312500e+01,-4.664238929748535156e+00,5.500734329223632812e+01,-2.090458106994628906e+01,-9.345405578613281250e+01,-1.180766754150390625e+02,6.585875701904296875e+01,-2.980424880981445312e+01
4.485639929771423340e-01,1.000000000000000000e+00,-3.752994155883789062e+01,4.331165313720703125e+01,3.158219718933105469e+01,1.044858932495117188e+02,9.685861968994140625e+01,-4.685262203216552734e+00,5.500723266601562500e+01,-2.090458106994628906e+01,-9.345405578613281250e+01,-1.180766754150390625e+02,6.585875701904296875e+01,-2.980424880981445312e+01
4.518150091171264648e-01,1.000000000000000000e+00,-3.756990051269531250e+01,4.323204040527343750e+01,3.160364723205566406e+01,1.044139938354492188e+02,9.687706756591796875e+01,-4.706217765808105469e+00,5.500712203979492188e+01,-2.090458106994628906e+01,-9.345405578613281250e+01,-1.180766754150390625e+02,6.585875701904296875e+01,-2.980424880981445312e+01
4.559580087661743164e-01,1.000000000000000000e+00,-3.761000442504882812e+01,4.315220260620117188e+01,3.162505722045898438e+01,1.043418273925781250e+02,9.689641571044921875e+01,-4.728461265563964844e+00,5.500734329223632812e+01,-2.090458106994628906e+01,-9.345405578613281250e+01,-1.180766754150390625e+02,6.585875701904296875e+01,-2.980424880981445312e+01
4.605610072612762451e-01,1.000000000000000000e+00,-3.765013885498046875e+01,4.307267761230468750e+01,3.164644622802734375e+01,1.042697143554687500e+02,9.691603851318359375e+01,-4.750366210937500000e+00,5.500734329223632812e+01,-2.090458106994628906e+01,-9.345405578613281250e+01,-1.180766754150390625e+02,6.585875701904296875e+01,-2.980424880981445312e+01
4.638929963111877441e-01,1.000000000000000000e+00,-3.769004058837890625e+01,4.299313354492187500e+01,3.166795730590820312e+01,1.041968765258789062e+02,9.693534088134765625e+01,-4.772271156311035156e+00,5.500723266601562500e+01,-2.090458106994628906e+01,-9.345405578613281250e+01,-1.180768966674804688e+02,6.585875701904296875e+01,-2.980424880981445312e+01
4.678260087966918945e-01,1.000000000000000000e+00,-3.773011398315429688e+01,4.291365814208984375e+01,3.168954658508300781e+01,1.041249160766601562e+02,9.695368194580078125e+01,-4.794854164123535156e+00,5.500712203979492188e+01,-2.090458106994628906e+01,-9.345405578613281250e+01,-1.180766754150390625e+02,6.585875701904296875e+01,-2.980402946472167969e+01
4.719859957695007324e-01,1.000000000000000000e+00,-3.777027511596679688e+01,4.283456802368164062e+01,3.171087837219238281e+01,1.040521774291992188e+02,9.697170257568359375e+01,-4.817301750183105469e+00,5.500723266601562500e+01,-2.090458106994628906e+01,-9.345405578613281250e+01,-1.180766754150390625e+02,6.585875701904296875e+01,-2.980424880981445312e+01
4.759849905967712402e-01,1.000000000000000000e+00,-3.781063842773437500e+01,4.275531768798828125e+01,3.173206138610839844e+01,1.039802703857421875e+02,9.699031066894531250e+01,-4.839613437652587891e+00,5.500723266601562500e+01,-2.090458106994628906e+01,-9.345405578613281250e+01,-1.180766754150390625e+02,6.585875701904296875e+01,-2.980424880981445312e+01
4.803830087184906006e-01,1.000000000000000000e+00,-3.785094070434570312e+01,4.267586517333984375e+01,3.175347137451171875e+01,1.039074249267578125e+02,9.700865173339843750e+01,-4.861450195312500000e+00,5.500723266601562500e+01,-2.090458106994628906e+01,-9.345405578613281250e+01,-1.180766754150390625e+02,6.585875701904296875e+01,-2.980424880981445312e+01
4.847620129585266113e-01,1.000000000000000000e+00,-3.789139175415039062e+01,4.259600448608398438e+01,3.177512550354003906e+01,1.038352584838867188e+02,9.702731323242187500e+01,-4.883151531219482422e+00,5.500723266601562500e+01,-2.090458106994628906e+01,-9.345405578613281250e+01,-1.180766754150390625e+02,6.585889434814453125e+01,-2.980424880981445312e+01
4.883129894733428955e-01,1.000000000000000000e+00,-3.793166351318359375e+01,4.251614379882812500e+01,3.179681968688964844e+01,1.037625732421875000e+02,9.704666900634765625e+01,-4.904921054840087891e+00,5.500723266601562500e+01,-2.090458106994628906e+01,-9.345405578613281250e+01,-1.180766754150390625e+02,6.585875701904296875e+01,-2.980424880981445312e+01
4.920830130577087402e-01,1.000000000000000000e+00,-3.797196960449218750e+01,4.243589782714843750e+01,3.181843376159667969e+01,1.036906738281250000e+02,9.706633758544921875e+01,-4.926622390747070312e+00,5.500712203979492188e+01,-2.090458106994628906e+01,-9.345405578613281250e+01,-1.180766754150390625e+02,6.585875701904296875e+01,-2.980424880981445312e+01
4.974220097064971924e-01,1.000000000000000000e+00,-3.801210021972656250e+01,4.235562896728515625e+01,3.183986282348632812e+01,1.036177215576171875e+02,9.708543395996093750e+01,-4.948934078216552734e+00,5.500723266601562500e+01,-2.090458106994628906e+01,-9.345405578613281250e+01,-1.180766754150390625e+02,6.585875701904296875e+01,-2.980424880981445312e+01
5.000510215759277344e-01,1.000000000000000000e+00,-3.805257797241210938e+01,4.227554321289062500e+01,3.186110877990722656e+01,1.035454483032226562e+02,9.710360717773437500e+01,-4.971245765686035156e+00,5.500723266601562500e+01,-2.090458106994628906e+01,-9.345394897460937500e+01,-1.180766754150390625e+02,6.585875701904296875e+01,-2.980424880981445312e+01
5.043489933013916016e-01,1.000000000000000000e+00,-3.809293746948242188e+01,4.219561004638671875e+01,3.188268089294433594e+01,1.034722290039062500e+02,9.712184143066406250e+01,-4.993828773498535156e+00,5.500723266601562500e+01,-2.090458106994628906e+01,-9.345405578613281250e+01,-1.180766754150390625e+02,6.585875701904296875e+01,-2.980424880981445312e+01
5.089390277862548828e-01,1.000000000000000000e+00,-3.813335800170898438e+01,4.211595535278320312e+01,3.190435409545898438e+01,1.033996429443359375e+02,9.714066314697265625e+01,-5.016615390777587891e+00,5.500734329223632812e+01,-2.090458106994628906e+01,-9.345405578613281250e+01,-1.180765380859375000e+02,6.585875701904296875e+01,-2.980424880981445312e+01
5.123400092124938965e-01,1.000000000000000000e+00,-3.817363357543945312e+01,4.203620910644531250e+01,3.192594718933105469e+01,1.033265914916992188e+02,9.715927124023437500e+01,-5.038519859313964844e+00,5.500723266601562500e+01,-2.090458106994628906e+01,-9.345405578613281250e+01,-1.180766754150390625e+02,6.585875701904296875e+01,-2.980424880981445312e+01
5.165230035781860352e-01,1.000000000000000000e+00,-3.821405410766601562e+01,4.195627975463867188e+01,3.194754028320312500e+01,1.032540512084960938e+02,9.717830657958984375e+01,-5.059746742248535156e+00,5.500712203979492188e+01,-2.090458106994628906e+01,-9.345405578613281250e+01,-1.180766754150390625e+02,6.585875701904296875e+01,-2.980446624755859375e+01
5.203459858894348145e-01,1.000000000000000000e+00,-3.825450134277343750e+01,4.187610244750976562e+01,3.196892929077148438e+01,1.031809997558593750e+02,9.719781494140625000e+01,-5.081516265869140625e+00,5.500723266601562500e+01,-2.090458106994628906e+01,-9.345405578613281250e+01,-1.180766754150390625e+02,6.585875701904296875e+01,-2.980424880981445312e+01
5.243610143661499023e-01,1.000000000000000000e+00,-3.829489135742187500e+01,4.179549026489257812e+01,3.199049949645996094e+01,1.031082534790039062e+02,9.721759796142578125e+01,-5.103895664215087891e+00,5.500723266601562500e+01,-2.090458106994628906e+01,-9.345405578613281250e+01,-1.180766754150390625e+02,6.585875701904296875e+01,-2.980424880981445312e+01
5.286319851875305176e-01,1.000000000000000000e+00,-3.833542633056640625e+01,4.171445465087890625e+01,3.201233673095703125e+01,1.030351486206054688e+02,9.723663330078125000e+01,-5.125732421875000000e+00,5.500723266601562500e+01,-2.090458106994628906e+01,-9.345405578613281250e+01,-1.180766754150390625e+02,6.585875701904296875e+01,-2.980424880981445312e+01
5.332210063934326172e-01,1.000000000000000000e+00,-3.837604522705078125e+01,4.163350677490234375e+01,3.203407287597656250e+01,1.029623489379882812e+02,9.725496673583984375e+01,-5.148044109344482422e+00,5.500712203979492188e+01,-2.090458106994628906e+01,-9.345405578613281250e+01,-1.180765380859375000e+02,6.585875701904296875e+01,-2.980424880981445312e+01
5.366910099983215332e-01,1.000000000000000000e+00,-3.841646575927734375e+01,4.155301284790039062e+01,3.205570220947265625e+01,1.028894958496093750e+02,9.727320861816406250e+01,-5.170898437500000000e+00,5.500723266601562500e+01,-2.090458106994628906e+01,-9.345405578613281250e+01,-1.180765380859375000e+02,6.585875701904296875e+01,-2.980424880981445312e+01
5.406209826469421387e-01,1.000000000000000000e+00,-3.845679855346679688e+01,4.147249603271484375e+01,3.207727813720703125e+01,1.028163375854492188e+02,9.729170989990234375e+01,-5.193820476531982422e+00,5.500723266601562500e+01,-2.090458106994628906e+01,-9.345405578613281250e+01,-1.180766754150390625e+02,6.585875701904296875e+01,-2.980424880981445312e+01
5.444509983062744141e-01,1.000000000000000000e+00,-3.849715805053710938e+01,4.139215850830078125e+01,3.209888839721679688e+01,1.027431182861328125e+02,9.731047058105468750e+01,-5.216674804687500000e+00,5.500723266601562500e+01,-2.090458106994628906e+01,-9.345405578613281250e+01,-1.180766754150390625e+02,6.585875701904296875e+01,-2.980424880981445312e+01
5.484110116958618164e-01,1.000000000000000000e+00,-3.853775024414062500e+01,4.131207275390625000e+01,3.212072753906250000e+01,1.026705856323242188e+02,9.732971954345703125e+01,-5.238037109375000000e+00,5.500723266601562500e+01,-2.090467262268066406e+01,-9.345405578613281250e+01,-1.180766754150390625e+02,6.585875701904296875e+01,-2.980424880981445312e+01
5.528039932250976562e-01,1.000000000000000000e+00,-3.857831573486328125e+01,4.123167037963867188e+01,3.214248275756835938e+01,1.025972137451171875e+02,9.734918212890625000e+01,-5.259535312652587891e+00,5.500723266601562500e+01,-2.090458106994628906e+01,-9.345405578613281250e+01,-1.180766754150390625e+02,6.585875701904296875e+01,-2.980424880981445312e+01
5.572609901428222656e-01,1.000000000000000000e+00,-3.861864852905273438e+01,4.115092849731445312e+01,3.216417312622070312e+01,1.025238418579101562e+02,9.736896514892578125e+01,-5.281914710998535156e+00,5.500723266601562500e+01,-2.090458106994628906e+01,-9.345405578613281250e+01,-1.180766754150390625e+02,6.585875701904296875e+01,-2.980424880981445312e+01
5.604370236396789551e-01,1.000000000000000000e+00,-3.865903854370117188e+01,4.106988525390625000e+01,3.218581008911132812e+01,1.024497756958007812e+02,9.738772583007812500e+01,-5.304497718811035156e+00,5.500723266601562500e+01,-2.090458106994628906e+01,-9.345405578613281250e+01,-1.180766754150390625e+02,6.585875701904296875e+01,-2.980424880981445312e+01
5.633999705314636230e-01,1.000000000000000000e+00,-3.869957351684570312e+01,4.098882675170898438e+01,3.220742034912109375e+01,1.023770370483398438e+02,9.740617370605468750e+01,-5.326945304870605469e+00,5.500723266601562500e+01,-2.090458106994628906e+01,-9.345405578613281250e+01,-1.180766754150390625e+02,6.585875701904296875e+01,-2.980424880981445312e+01
5.673260092735290527e-01,1.000000000000000000e+00,-3.874030685424804688e+01,4.090760803222656250e+01,3.222929763793945312e+01,1.023035049438476562e+02,9.742462158203125000e+01,-5.349460124969482422e+00,5.500723266601562500e+01,-2.090458106994628906e+01,-9.345405578613281250e+01,-1.180766754150390625e+02,6.585875701904296875e+01,-2.980424880981445312e+01
5.713250041007995605e-01,1.000000000000000000e+00,-3.878101348876953125e+01,4.082638931274414062e+01,3.225125503540039062e+01,1.022304382324218750e+02,9.744345092773437500e+01,-5.372382164001464844e+00,5.500712203979492188e+01,-2.090448951721191406e+01,-9.345405578613281250e+01,-1.180765380859375000e+02,6.585875701904296875e+01,-2.980424880981445312e+01
5.753859877586364746e-01,1.000000000000000000e+00,-3.882168960571289062e+01,4.074560165405273438e+01,3.227309036254882812e+01,1.021566467285156250e+02,9.746247863769531250e+01,-5.394965648651123047e+00,5.500723266601562500e+01,-2.090458106994628906e+01,-9.345405578613281250e+01,-1.180766754150390625e+02,6.585875701904296875e+01,-2.980424880981445312e+01
5.793280005455017090e-01,1.000000000000000000e+00,-3.886239624023437500e+01,4.066519927978515625e+01,3.229492950439453125e+01,1.020835876464843750e+02,9.748215484619140625e+01,-5.417006015777587891e+00,5.500723266601562500e+01,-2.090458106994628906e+01,-9.345405578613281250e+01,-1.180766754150390625e+02,6.585875701904296875e+01,-2.980424880981445312e+01
5.833380222320556641e-01,1.000000000000000000e+00,-3.890327453613281250e+01,4.058454513549804688e+01,3.231658172607421875e+01,1.020100021362304688e+02,9.750214385986328125e+01,-5.438775062561035156e+00,5.500723266601562500e+01,-2.090458106994628906e+01,-9.345405578613281250e+01,-1.180766754150390625e+02,6.585875701904296875e+01,-2.980424880981445312e+01
5.874000191688537598e-01,1.000000000000000000e+00,-3.894415283203125000e+01,4.050389099121093750e+01,3.233850097656250000e+01,1.019368896484375000e+02,9.752176666259765625e+01,-5.461086750030517578e+00,5.500712203979492188e+01,-2.090458106994628906e+01,-9.345405578613281250e+01,-1.180766754150390625e+02,6.585875701904296875e+01,-2.980402946472167969e+01
5.913779735565185547e-01,1.000000000000000000e+00,-3.898520278930664062e+01,4.042310333251953125e+01,3.236035919189453125e+01,1.018630371093750000e+02,9.754010772705078125e+01,-5.483737945556640625e+00,5.500723266601562500e+01,-2.090458106994628906e+01,-9.345405578613281250e+01,-1.180766754150390625e+02,6.585875701904296875e+01,-2.980424880981445312e+01
5.953270196914672852e-01,1.000000000000000000e+00,-3.902619934082031250e+01,4.034181594848632812e+01,3.238209152221679688e+01,1.017897186279296875e+02,9.755855560302734375e+01,-5.506524085998535156e+00,5.500712203979492188e+01,-2.090458106994628906e+01,-9.345405578613281250e+01,-1.180766754150390625e+02,6.585875701904296875e+01,-2.980424880981445312e+01
5.993850231170654297e-01,1.000000000000000000e+00,-3.906747817993164062e+01,4.026014328002929688e+01,3.240384674072265625e+01,1.017156600952148438e+02,9.757726287841796875e+01,-5.529107093811035156e+00,5.500712203979492188e+01,-2.090458106994628906e+01,-9.345405578613281250e+01,-1.180766754150390625e+02,6.585875701904296875e+01,-2.980424880981445312e+01
6.033350229263305664e-01,1.000000000000000000e+00,-3.910838699340820312e+01,4.017835998535156250e+01,3.242582321166992188e+01,1.016422882080078125e+02,9.759597778320312500e+01,-5.551893711090087891e+00,5.500723266601562500e+01,-2.090458106994628906e+01,-9.345405578613281250e+01,-1.180766754150390625e+02,6.585875701904296875e+01,-2.980424880981445312e+01
6.073250174522399902e-01,1.000000000000000000e+00,-3.914943695068359375e+01,4.009673309326171875e+01,3.244776153564453125e+01,1.015679092407226562e+02,9.761539459228515625e+01,-5.575290679931640625e+00,5.500723266601562500e+01,-2.090458106994628906e+01,-9.345405578613281250e+01,-1.180766754150390625e+02,6.585875701904296875e+01,-2.980424880981445312e+01
6.113860011100769043e-01,1.000000000000000000e+00,-3.919074630737304688e+01,4.001519775390625000e+01,3.246970367431640625e+01,1.014943237304687500e+02,9.763522338867187500e+01,-5.597873210906982422e+00,5.500712203979492188e+01,-2.090458106994628906e+01,-9.345405578613281250e+01,-1.180765380859375000e+02,6.585875701904296875e+01,-2.980424880981445312e+01
6.153979897499084473e-01,1.000000000000000000e+00,-3.923202514648437500e+01,3.993420410156250000e+01,3.249160003662109375e+01,1.014202117919921875e+02,9.765489959716796875e+01,-5.619778156280517578e+00,5.500723266601562500e+01,-2.090458106994628906e+01,-9.345405578613281250e+01,-1.180766754150390625e+02,6.585875701904296875e+01,-2.980424880981445312e+01
6.194289922714233398e-01,1.000000000000000000e+00,-3.927339172363281250e+01,3.985343933105468750e+01,3.251327133178710938e+01,1.013467864990234375e+02,9.767446899414062500e+01,-5.641683101654052734e+00,5.500723266601562500e+01,-2.090458106994628906e+01,-9.345405578613281250e+01,-1.180766754150390625e+02,6.585875701904296875e+01,-2.980424880981445312e+01
6.234319806098937988e-01,1.000000000000000000e+00,-3.931476211547851562e+01,3.977251434326171875e+01,3.253508758544921875e+01,1.012728805541992188e+02,9.769318389892578125e+01,-5.664198398590087891e+00,5.500723266601562500e+01,-2.090458106994628906e+01,-9.345405578613281250e+01,-1.180766754150390625e+02,6.585875701904296875e+01,-2.980424880981445312e+01
6.273229718208312988e-01,1.000000000000000000e+00,-3.935621261596679688e+01,3.969108963012695312e+01,3.255702590942382812e+01,1.011989822387695312e+02,9.771162414550781250e+01,-5.686713695526123047e+00,5.500723266601562500e+01,-2.090448951721191406e+01,-9.345405578613281250e+01,-1.180766754150390625e+02,6.585875701904296875e+01,-2.980424880981445312e+01
6.313220262527465820e-01,1.000000000000000000e+00,-3.939760589599609375e+01,3.960931015014648438e+01,3.257898330688476562e+01,1.011250762939453125e+02,9.773049926757812500e+01,-5.709567546844482422e+00,5.500723266601562500e+01,-2.090458106994628906e+01,-9.345405578613281250e+01,-1.180766754150390625e+02,6.585875701904296875e+01,-2.980424880981445312e+01
6.353269815444946289e-01,1.000000000000000000e+00,-3.943888854980468750e+01,3.952745437622070312e+01,3.260098266601562500e+01,1.010510711669921875e+02,9.774969482421875000e+01,-5.732964515686035156e+00,5.500723266601562500e+01,-2.090448951721191406e+01,-9.345405578613281250e+01,-1.180766754150390625e+02,6.585875701904296875e+01,-2.980424880981445312e+01
6.394090056419372559e-01,1.000000000000000000e+00,-3.948036956787109375e+01,3.944537734985351562e+01,3.262302398681640625e+01,1.009771728515625000e+02,9.776936340332031250e+01,-5.756225585937500000e+00,5.500723266601562500e+01,-2.090458106994628906e+01,-9.345405578613281250e+01,-1.180766754150390625e+02,6.585875701904296875e+01,-2.980424880981445312e+01
6.453139781951904297e-01,1.000000000000000000e+00,-3.952182006835937500e+01,3.936320877075195312e+01,3.264506530761718750e+01,1.009027404785156250e+02,9.778946685791015625e+01,-5.778876781463623047e+00,5.500723266601562500e+01,-2.090458106994628906e+01,-9.345405578613281250e+01,-1.180766754150390625e+02,6.585875701904296875e+01,-2.980424880981445312e+01
6.473150253295898438e-01,1.000000000000000000e+00,-3.956315612792968750e+01,3.928133392333984375e+01,3.266728591918945312e+01,1.008287353515625000e+02,9.780924224853515625e+01,-5.800781726837158203e+00,5.500723266601562500e+01,-2.090458106994628906e+01,-9.345405578613281250e+01,-1.180766754150390625e+02,6.585875701904296875e+01,-2.980424880981445312e+01
6.513170003890991211e-01,1.000000000000000000e+00,-3.960458374023437500e+01,3.919993209838867188e+01,3.268932342529296875e+01,1.007542495727539062e+02,9.782812500000000000e+01,-5.822550773620605469e+00,5.500712203979492188e+01,-2.090458106994628906e+01,-9.345405578613281250e+01,-1.180766754150390625e+02,6.585875701904296875e+01,-2.980424880981445312e+01
6.553230285644531250e-01,1.000000000000000000e+00,-3.964612197875976562e+01,3.911848831176757812e+01,3.271108245849609375e+01,1.006800918579101562e+02,9.784667205810546875e+01,-5.845540523529052734e+00,5.500712203979492188e+01,-2.090458106994628906e+01,-9.345405578613281250e+01,-1.180766754150390625e+02,6.585875701904296875e+01,-2.980424880981445312e+01
6.593350172042846680e-01,1.000000000000000000e+00,-3.968757629394531250e+01,3.903719711303710938e+01,3.273299789428710938e+01,1.006054534912109375e+02,9.786528015136718750e+01,-5.868055343627929688e+00,5.500723266601562500e+01,-2.090458106994628906e+01,-9.345405578613281250e+01,-1.180766754150390625e+02,6.585875701904296875e+01,-2.980424880981445312e+01
6.633909940719604492e-01,1.000000000000000000e+00,-3.972905731201171875e+01,3.895548248291015625e+01,3.275501632690429688e+01,1.005311813354492188e+02,9.788426208496093750e+01,-5.890706539154052734e+00,5.500723266601562500e+01,-2.090458106994628906e+01,-9.345405578613281250e+01,-1.180766754150390625e+02,6.585875701904296875e+01,-2.980424880981445312e+01
6.673700213432312012e-01,1.000000000000000000e+00,-3.977059555053710938e+01,3.887333679199218750e+01,3.277723693847656250e+01,1.004568557739257812e+02,9.790335083007812500e+01,-5.913628578186035156e+00,5.500723266601562500e+01,-2.090458106994628906e+01,-9.345405578613281250e+01,-1.180766754150390625e+02,6.585875701904296875e+01,-2.980424880981445312e+01
6.713179945945739746e-01,1.000000000000000000e+00,-3.981201934814453125e+01,3.879096221923828125e+01,3.279952239990234375e+01,1.003827438354492188e+02,9.792328643798828125e+01,-5.937025547027587891e+00,5.500723266601562500e+01,-2.090458106994628906e+01,-9.345405578613281250e+01,-1.180766754150390625e+02,6.585875701904296875e+01,-2.980424880981445312e+01
6.754379868507385254e-01,1.000000000000000000e+00,-3.985346984863281250e+01,3.870829772949218750e+01,3.282150268554687500e+01,1.003076782226562500e+02,9.794328308105468750e+01,-5.959879875183105469e+00,5.500723266601562500e+01,-2.090458106994628906e+01,-9.345405578613281250e+01,-1.180766754150390625e+02,6.585875701904296875e+01,-2.980424880981445312e+01
6.793599724769592285e-01,1.000000000000000000e+00,-3.989486694335937500e+01,3.862567520141601562e+01,3.284354400634765625e+01,1.002337341308593750e+02,9.796279907226562500e+01,-5.981987953186035156e+00,5.500723266601562500e+01,-2.090458106994628906e+01,-9.345405578613281250e+01,-1.180766754150390625e+02,6.585860443115234375e+01,-2.980424880981445312e+01
6.833729743957519531e-01,1.000000000000000000e+00,-3.993634796142578125e+01,3.854335021972656250e+01,3.286561965942382812e+01,1.001590347290039062e+02,9.798150634765625000e+01,-6.004028320312500000e+00,5.500723266601562500e+01,-2.090467262268066406e+01,-9.345405578613281250e+01,-1.180766754150390625e+02,6.585875701904296875e+01,-2.980424880981445312e+01
6.874219775199890137e-01,1.000000000000000000e+00,-3.997785949707031250e+01,3.846126937866210938e+01,3.288782501220703125e+01,1.000845031738281250e+02,9.800038909912109375e+01,-6.026950359344482422e+00,5.500723266601562500e+01,-2.090458106994628906e+01,-9.345405578613281250e+01,-1.180766754150390625e+02,6.585875701904296875e+01,-2.980424880981445312e+01
6.923670172691345215e-01,1.000000000000000000e+00,-4.001942443847656250e+01,3.837957382202148438e+01,3.291012954711914062e+01,1.000093841552734375e+02,9.801947021484375000e+01,-6.049804687500000000e+00,5.500723266601562500e+01,-2.090458106994628906e+01,-9.345405578613281250e+01,-1.180766754150390625e+02,6.585875701904296875e+01,-2.980424880981445312e+01
6.953210234642028809e-01,1.000000000000000000e+00,-4.006082153320312500e+01,3.829770278930664062e+01,3.293212509155273438e+01,9.993479919433593750e+01,9.803871917724609375e+01,-6.072523593902587891e+00,5.500723266601562500e+01,-2.090458106994628906e+01,-9.345405578613281250e+01,-1.180766754150390625e+02,6.585875701904296875e+01,-2.980424880981445312e+01
7.003329992294311523e-01,1.000000000000000000e+00,-4.006082153320312500e+01,3.829770278930664062e+01,3.293212509155273438e+01,9.993479919433593750e+01,9.803871917724609375e+01,-6.072523593902587891e+00,5.500723266601562500e+01,-2.090458106994628906e+01,-9.345405578613281250e+01,-1.180766754150390625e+02,6.585875701904296875e+01,-2.980424880981445312e+01
7.035999894142150879e-01,1.000000000000000000e+00,-4.014398193359375000e+01,3.813290786743164062e+01,3.297634887695312500e+01,9.978536987304687500e+01,9.807871246337890625e+01,-6.119181632995605469e+00,5.500723266601562500e+01,-2.090448951721191406e+01,-9.345405578613281250e+01,-1.180766754150390625e+02,6.585875701904296875e+01,-2.980424880981445312e+01
7.073360085487365723e-01,1.000000000000000000e+00,-4.018563842773437500e+01,3.805015182495117188e+01,3.299867248535156250e+01,9.971009063720703125e+01,9.809870147705078125e+01,-6.142239570617675781e+00,5.500723266601562500e+01,-2.090458106994628906e+01,-9.345405578613281250e+01,-1.180766754150390625e+02,6.585875701904296875e+01,-2.980424880981445312e+01
7.123559713363647461e-01,1.000000000000000000e+00,-4.018563842773437500e+01,3.805015182495117188e+01,3.299867248535156250e+01,9.971009063720703125e+01,9.809870147705078125e+01,-6.142239570617675781e+00,5.500723266601562500e+01,-2.090458106994628906e+01,-9.345405578613281250e+01,-1.180766754150390625e+02,6.585875701904296875e+01,-2.980424880981445312e+01
7.158089876174926758e-01,1.000000000000000000e+00,-4.026891708374023438e+01,3.788415908813476562e+01,3.304325866699218750e+01,9.955997467041015625e+01,9.813666534423828125e+01,-6.186388015747070312e+00,5.500712203979492188e+01,-2.090458106994628906e+01,-9.345405578613281250e+01,-1.180766754150390625e+02,6.585875701904296875e+01,-2.980424880981445312e+01
7.204809784889221191e-01,1.000000000000000000e+00,-4.031060028076171875e+01,3.780151367187500000e+01,3.306526184082031250e+01,9.948528289794921875e+01,9.815559387207031250e+01,-6.208970546722412109e+00,5.500723266601562500e+01,-2.090458106994628906e+01,-9.345405578613281250e+01,-1.180766754150390625e+02,6.585875701904296875e+01,-2.980446624755859375e+01
7.233939766883850098e-01,1.000000000000000000e+00,-4.035222244262695312e+01,3.771916580200195312e+01,3.308744049072265625e+01,9.941037750244140625e+01,9.817462158203125000e+01,-6.231825351715087891e+00,5.500723266601562500e+01,-2.090458106994628906e+01,-9.345405578613281250e+01,-1.180766754150390625e+02,6.585875701904296875e+01,-2.980424880981445312e+01
7.273700237274169922e-01,1.000000000000000000e+00,-4.035222244262695312e+01,3.771916580200195312e+01,3.308744049072265625e+01,9.941037750244140625e+01,9.817462158203125000e+01,-6.231825351715087891e+00,5.500723266601562500e+01,-2.090458106994628906e+01,-9.345405578613281250e+01,-1.180766754150390625e+02,6.585875701904296875e+01,-2.980424880981445312e+01
7.313629984855651855e-01,1.000000000000000000e+00,-4.039396286010742188e+01,3.763681411743164062e+01,3.310976409912109375e+01,9.933516693115234375e+01,9.819424438476562500e+01,-6.254882812500000000e+00,5.500723266601562500e+01,-2.090458106994628906e+01,-9.345405578613281250e+01,-1.180766754150390625e+02,6.585875701904296875e+01,-2.980424880981445312e+01
7.354429960250854492e-01,1.000000000000000000e+00,-4.043587493896484375e+01,3.755437469482421875e+01,3.313217163085937500e+01,9.925994110107421875e+01,9.821417999267578125e+01,-6.278144359588623047e+00,5.500723266601562500e+01,-2.090458106994628906e+01,-9.345405578613281250e+01,-1.180766754150390625e+02,6.585875701904296875e+01,-2.980424880981445312e+01
7.393940091133117676e-01,1.000000000000000000e+00,-4.047755432128906250e+01,3.747179794311523438e+01,3.315451812744140625e+01,9.918515014648437500e+01,9.823471069335937500e+01,-6.301812171936035156e+00,5.500723266601562500e+01,-2.090458106994628906e+01,-9.345405578613281250e+01,-1.180766754150390625e+02,6.585875701904296875e+01,-2.980424880981445312e+01
7.434440255165100098e-01,1.000000000000000000e+00,-4.051947021484375000e+01,3.738885879516601562e+01,3.317651367187500000e+01,9.910982513427734375e+01,9.825428009033203125e+01,-6.325479984283447266e+00,5.500723266601562500e+01,-2.090458106994628906e+01,-9.345405578613281250e+01,-1.180766754150390625e+02,6.585875701904296875e+01,-2.980424880981445312e+01
7.474349737167358398e-01,1.000000000000000000e+00,-4.056138229370117188e+01,3.730548858642578125e+01,3.319863510131835938e+01,9.903386688232421875e+01,9.827347564697265625e+01,-6.347995281219482422e+00,5.500723266601562500e+01,-2.090458106994628906e+01,-9.345405578613281250e+01,-1.180766754150390625e+02,6.585875701904296875e+01,-2.980424880981445312e+01
7.513970136642456055e-01,1.000000000000000000e+00,-4.060355377197265625e+01,3.722189331054687500e+01,3.322098159790039062e+01,9.895854187011718750e+01,9.829207611083984375e+01,-6.370036125183105469e+00,5.500712203979492188e+01,-2.090458106994628906e+01,-9.345405578613281250e+01,-1.180766754150390625e+02,6.585875701904296875e+01,-2.980424880981445312e+01
7.553780078887939453e-01,1.000000000000000000e+00,-4.064549255371093750e+01,3.713841247558593750e+01,3.324354934692382812e+01,9.888306427001953125e+01,9.831143188476562500e+01,-6.392754554748535156e+00,5.500723266601562500e+01,-2.090458106994628906e+01,-9.345405578613281250e+01,-1.180765380859375000e+02,6.585875701904296875e+01,-2.980446624755859375e+01
7.594810128211975098e-01,1.000000000000000000e+00,-4.068760299682617188e+01,3.705511093139648438e+01,3.326612091064453125e+01,9.880815887451171875e+01,9.833089447021484375e+01,-6.416016101837158203e+00,5.500723266601562500e+01,-2.090458106994628906e+01,-9.345405578613281250e+01,-1.180766754150390625e+02,6.585889434814453125e+01,-2.980424880981445312e+01
7.633759975433349609e-01,1.000000000000000000e+00,-4.072943115234375000e+01,3.697237777709960938e+01,3.328840255737304688e+01,9.873257446289062500e+01,9.835083007812500000e+01,-6.439412593841552734e+00,5.500734329223632812e+01,-2.090458106994628906e+01,-9.345405578613281250e+01,-1.180766754150390625e+02,6.585875701904296875e+01,-2.980424880981445312e+01
7.673659920692443848e-01,1.000000000000000000e+00,-4.077171325683593750e+01,3.688986968994140625e+01,3.331048202514648438e+01,9.865719604492187500e+01,9.837152099609375000e+01,-6.462741851806640625e+00,5.500712203979492188e+01,-2.090458106994628906e+01,-9.345405578613281250e+01,-1.180766754150390625e+02,6.585875701904296875e+01,-2.980424880981445312e+01
7.714380025863647461e-01,1.000000000000000000e+00,-4.081373977661132812e+01,3.680706787109375000e+01,3.333296966552734375e+01,9.858129119873046875e+01,9.839172363281250000e+01,-6.486409664154052734e+00,5.500723266601562500e+01,-2.090458106994628906e+01,-9.345405578613281250e+01,-1.180766754150390625e+02,6.585875701904296875e+01,-2.980424880981445312e+01
7.753880023956298828e-01,1.000000000000000000e+00,-4.085594177246093750e+01,3.672385787963867188e+01,3.335543441772460938e+01,9.850649261474609375e+01,9.841107940673828125e+01,-6.509738445281982422e+00,5.500734329223632812e+01,-2.090458106994628906e+01,-9.345405578613281250e+01,-1.180766754150390625e+02,6.585875701904296875e+01,-2.980424880981445312e+01
7.793650031089782715e-01,1.000000000000000000e+00,-4.089791107177734375e+01,3.664048767089843750e+01,3.337781906127929688e+01,9.843054199218750000e+01,9.843000793457031250e+01,-6.532321929931640625e+00,5.500723266601562500e+01,-2.090458106994628906e+01,-9.345405578613281250e+01,-1.180766754150390625e+02,6.585875701904296875e+01,-2.980446624755859375e+01
7.834010124206542969e-01,1.000000000000000000e+00,-4.094036865234375000e+01,3.655685043334960938e+01,3.340018463134765625e+01,9.835537719726562500e+01,9.844925689697265625e+01,-6.554837226867675781e+00,5.500712203979492188e+01,-2.090458106994628906e+01,-9.345405578613281250e+01,-1.180766754150390625e+02,6.585875701904296875e+01,-2.980424880981445312e+01
7.874420285224914551e-01,1.000000000000000000e+00,-4.098236846923828125e+01,3.647304916381835938e+01,3.342255020141601562e+01,9.827904510498046875e+01,9.846871185302734375e+01,-6.578030109405517578e+00,5.500723266601562500e+01,-2.090467262268066406e+01,-9.345405578613281250e+01,-1.180766754150390625e+02,6.585875701904296875e+01,-2.980424880981445312e+01
7.913650274276733398e-01,1.000000000000000000e+00,-4.102447891235351562e+01,3.638909149169921875e+01,3.344526290893554688e+01,9.820362091064453125e+01,9.848865509033203125e+01,-6.601088047027587891e+00,5.500723266601562500e+01,-2.090458106994628906e+01,-9.345405578613281250e+01,-1.180766754150390625e+02,6.585875701904296875e+01,-2.980424880981445312e+01
7.953789830207824707e-01,1.000000000000000000e+00,-4.106659317016601562e+01,3.630558776855468750e+01,3.346788787841796875e+01,9.812729644775390625e+01,9.850901794433593750e+01,-6.624552726745605469e+00,5.500723266601562500e+01,-2.090458106994628906e+01,-9.345405578613281250e+01,-1.180766754150390625e+02,6.585875701904296875e+01,-2.980424880981445312e+01
7.993749976158142090e-01,1.000000000000000000e+00,-4.110870742797851562e+01,3.622262954711914062e+01,3.349035644531250000e+01,9.805181121826171875e+01,9.852960205078125000e+01,-6.648016929626464844e+00,5.500734329223632812e+01,-2.090458106994628906e+01,-9.345405578613281250e+01,-1.180766754150390625e+02,6.585875701904296875e+01,-2.980424880981445312e+01
8.034290075302124023e-01,1.000000000000000000e+00,-4.115087509155273438e+01,3.613934707641601562e+01,3.351266098022460938e+01,9.797563934326171875e+01,9.854937744140625000e+01,-6.671753406524658203e+00,5.500723266601562500e+01,-2.090448951721191406e+01,-9.345405578613281250e+01,-1.180766754150390625e+02,6.585875701904296875e+01,-2.980424880981445312e+01
8.073700070381164551e-01,1.000000000000000000e+00,-4.119316101074218750e+01,3.605622863769531250e+01,3.353496551513671875e+01,9.790010833740234375e+01,9.856873321533203125e+01,-6.695692539215087891e+00,5.500723266601562500e+01,-2.090458106994628906e+01,-9.345405578613281250e+01,-1.180766754150390625e+02,6.585875701904296875e+01,-2.980424880981445312e+01
8.113750219345092773e-01,1.000000000000000000e+00,-4.123530578613281250e+01,3.597277069091796875e+01,3.355749130249023438e+01,9.782389068603515625e+01,9.858782958984375000e+01,-6.718479156494140625e+00,5.500723266601562500e+01,-2.090458106994628906e+01,-9.345405578613281250e+01,-1.180766754150390625e+02,6.585875701904296875e+01,-2.980424880981445312e+01
8.154429793357849121e-01,1.000000000000000000e+00,-4.127735900878906250e+01,3.588876724243164062e+01,3.358024215698242188e+01,9.774798583984375000e+01,9.860749816894531250e+01,-6.741333007812500000e+00,5.500723266601562500e+01,-2.090458106994628906e+01,-9.345405578613281250e+01,-1.180766754150390625e+02,6.585875701904296875e+01,-2.980424880981445312e+01
8.193719983100891113e-01,1.000000000000000000e+00,-4.131949996948242188e+01,3.580467605590820312e+01,3.360291290283203125e+01,9.767213439941406250e+01,9.862722015380859375e+01,-6.763848304748535156e+00,5.500723266601562500e+01,-2.090458106994628906e+01,-9.345405578613281250e+01,-1.180766754150390625e+02,6.585875701904296875e+01,-2.980402946472167969e+01
8.233730196952819824e-01,1.000000000000000000e+00,-4.136158370971679688e+01,3.572028732299804688e+01,3.362556457519531250e+01,9.759576416015625000e+01,9.864775085449218750e+01,-6.787380695343017578e+00,5.500723266601562500e+01,-2.090458106994628906e+01,-9.345405578613281250e+01,-1.180766754150390625e+02,6.585875701904296875e+01,-2.980424880981445312e+01
8.274379968643188477e-01,1.000000000000000000e+00,-4.140372467041015625e+01,3.563601303100585938e+01,3.364802932739257812e+01,9.751995849609375000e+01,9.866843414306640625e+01,-6.810913085937500000e+00,5.500723266601562500e+01,-2.090458106994628906e+01,-9.345405578613281250e+01,-1.180766754150390625e+02,6.585875701904296875e+01,-2.980424880981445312e+01
8.313670158386230469e-01,1.000000000000000000e+00,-4.144586944580078125e+01,3.555201339721679688e+01,3.367063903808593750e+01,9.744364166259765625e+01,9.868875122070312500e+01,-6.834852695465087891e+00,5.500723266601562500e+01,-2.090458106994628906e+01,-9.345405578613281250e+01,-1.180766754150390625e+02,6.585875701904296875e+01,-2.980424880981445312e+01
8.353779911994934082e-01,1.000000000000000000e+00,-4.148789596557617188e+01,3.546834945678710938e+01,3.369337081909179688e+01,9.736736297607421875e+01,9.870793914794921875e+01,-6.858520507812500000e+00,5.500723266601562500e+01,-2.090458106994628906e+01,-9.345405578613281250e+01,-1.180766754150390625e+02,6.585875701904296875e+01,-2.980424880981445312e+01
8.394370079040527344e-01,1.000000000000000000e+00,-4.152992248535156250e+01,3.538500595092773438e+01,3.371583557128906250e+01,9.729082489013671875e+01,9.872687530517578125e+01,-6.882256507873535156e+00,5.500723266601562500e+01,-2.090458106994628906e+01,-9.345405578613281250e+01,-1.180766754150390625e+02,6.585875701904296875e+01,-2.980424880981445312e+01
8.434180021286010742e-01,1.000000000000000000e+00,-4.157217407226562500e+01,3.530129241943359375e+01,3.373830413818359375e+01,9.721466064453125000e+01,9.874611663818359375e+01,-6.905313968658447266e+00,5.500723266601562500e+01,-2.090458106994628906e+01,-9.345405578613281250e+01,-1.180766754150390625e+02,6.585875701904296875e+01,-2.980424880981445312e+01
8.476169705390930176e-01,1.000000000000000000e+00,-4.161434936523437500e+01,3.521710968017578125e+01,3.376082992553710938e+01,9.713775634765625000e+01,9.876600646972656250e+01,-6.927558422088623047e+00,5.500723266601562500e+01,-2.090458106994628906e+01,-9.345405578613281250e+01,-1.180766754150390625e+02,6.585875701904296875e+01,-2.980424880981445312e+01
8.514360189437866211e-01,1.000000000000000000e+00,-4.165660476684570312e+01,3.513265609741210938e+01,3.378350067138671875e+01,9.706153869628906250e+01,9.878636932373046875e+01,-6.950683593750000000e+00,5.500712203979492188e+01,-2.090458106994628906e+01,-9.345405578613281250e+01,-1.180766754150390625e+02,6.585875701904296875e+01,-2.980424880981445312e+01
8.555899858474731445e-01,1.000000000000000000e+00,-4.169882965087890625e+01,3.504813385009765625e+01,3.380627059936523438e+01,9.698510742187500000e+01,9.880722045898437500e+01,-6.974012374877929688e+00,5.500723266601562500e+01,-2.090458106994628906e+01,-9.345405578613281250e+01,-1.180766754150390625e+02,6.585875701904296875e+01,-2.980424880981445312e+01
8.611019849777221680e-01,1.000000000000000000e+00,-4.174114608764648438e+01,3.496308898925781250e+01,3.382902145385742188e+01,9.690898895263671875e+01,9.882747650146484375e+01,-6.998019695281982422e+00,5.500734329223632812e+01,-2.090458106994628906e+01,-9.345405578613281250e+01,-1.180766754150390625e+02,6.585875701904296875e+01,-2.980424880981445312e+01
8.637920022010803223e-01,1.000000000000000000e+00,-4.182608795166015625e+01,3.479391098022460938e+01,3.387424087524414062e+01,9.675576782226562500e+01,9.886629486083984375e+01,-7.045355796813964844e+00,5.500723266601562500e+01,-2.090458106994628906e+01,-9.345405578613281250e+01,-1.180766754150390625e+02,6.585889434814453125e+01,-2.980424880981445312e+01
8.675709962844848633e-01,1.000000000000000000e+00,-4.182608795166015625e+01,3.479391098022460938e+01,3.387424087524414062e+01,9.675576782226562500e+01,9.886629486083984375e+01,-7.045355796813964844e+00,5.500723266601562500e+01,-2.090458106994628906e+01,-9.345405578613281250e+01,-1.180766754150390625e+02,6.585889434814453125e+01,-2.980424880981445312e+01
8.713679909706115723e-01,1.000000000000000000e+00,-4.186851882934570312e+01,3.470995330810546875e+01,3.389682769775390625e+01,9.667886352539062500e+01,9.888580322265625000e+01,-7.069091796875000000e+00,5.500712203979492188e+01,-2.090458106994628906e+01,-9.345394897460937500e+01,-1.180766754150390625e+02,6.585875701904296875e+01,-2.980424880981445312e+01
8.754519820213317871e-01,1.000000000000000000e+00,-4.191120529174804688e+01,3.462563323974609375e+01,3.391948318481445312e+01,9.660233306884765625e+01,9.890563964843750000e+01,-7.092013835906982422e+00,5.500723266601562500e+01,-2.090458106994628906e+01,-9.345405578613281250e+01,-1.180766754150390625e+02,6.585875701904296875e+01,-2.980424880981445312e+01
8.793789744377136230e-01,1.000000000000000000e+00,-4.195377731323242188e+01,3.454135894775390625e+01,3.394239425659179688e+01,9.652526855468750000e+01,9.892590332031250000e+01,-7.114868164062500000e+00,5.500723266601562500e+01,-2.090458106994628906e+01,-9.345405578613281250e+01,-1.180766754150390625e+02,6.585875701904296875e+01,-2.980424880981445312e+01
8.838790059089660645e-01,1.000000000000000000e+00,-4.199657821655273438e+01,3.445692825317382812e+01,3.396510314941406250e+01,9.644841003417968750e+01,9.894647979736328125e+01,-7.137857913970947266e+00,5.500723266601562500e+01,-2.090458106994628906e+01,-9.345405578613281250e+01,-1.180766754150390625e+02,6.585875701904296875e+01,-2.980424880981445312e+01
8.883290290832519531e-01,1.000000000000000000e+00,-4.203938293457031250e+01,3.437199783325195312e+01,3.398781585693359375e+01,9.637124633789062500e+01,9.896727752685546875e+01,-7.161526203155517578e+00,5.500734329223632812e+01,-2.090458106994628906e+01,-9.345405578613281250e+01,-1.180766754150390625e+02,6.585875701904296875e+01,-2.980424880981445312e+01
8.915960192680358887e-01,1.000000000000000000e+00,-4.208235168457031250e+01,3.428675079345703125e+01,3.401066970825195312e+01,9.629455566406250000e+01,9.898742675781250000e+01,-7.184990882873535156e+00,5.500723266601562500e+01,-2.090458106994628906e+01,-9.345405578613281250e+01,-1.180766754150390625e+02,6.585875701904296875e+01,-2.980424880981445312e+01
8.954139947891235352e-01,1.000000000000000000e+00,-4.212527084350585938e+01,3.420141601562500000e+01,3.403342056274414062e+01,9.621754455566406250e+01,9.900656890869140625e+01,-7.209201335906982422e+00,5.500723266601562500e+01,-2.090458106994628906e+01,-9.345405578613281250e+01,-1.180766754150390625e+02,6.585875701904296875e+01,-2.980424880981445312e+01
8.994659781455993652e-01,1.000000000000000000e+00,-4.216833114624023438e+01,3.411618804931640625e+01,3.405623245239257812e+01,9.614031982421875000e+01,9.902597808837890625e+01,-7.233005523681640625e+00,5.500723266601562500e+01,-2.090458106994628906e+01,-9.345405578613281250e+01,-1.180766754150390625e+02,6.585875701904296875e+01,-2.980402946472167969e+01
9.034919738769531250e-01,1.000000000000000000e+00,-4.221121978759765625e+01,3.403143692016601562e+01,3.407900238037109375e+01,9.606320953369140625e+01,9.904537963867187500e+01,-7.256605625152587891e+00,5.500723266601562500e+01,-2.090458106994628906e+01,-9.345405578613281250e+01,-1.180766754150390625e+02,6.585875701904296875e+01,-2.980402946472167969e+01
9.088450074195861816e-01,1.000000000000000000e+00,-4.225430679321289062e+01,3.394714355468750000e+01,3.410187530517578125e+01,9.598641204833984375e+01,9.906542968750000000e+01,-7.279595375061035156e+00,5.500723266601562500e+01,-2.090458106994628906e+01,-9.345405578613281250e+01,-1.180766754150390625e+02,6.585875701904296875e+01,-2.980424880981445312e+01
9.114909768104553223e-01,1.000000000000000000e+00,-4.229762649536132812e+01,3.386284637451171875e+01,3.412497329711914062e+01,9.590908813476562500e+01,9.908611297607421875e+01,-7.302178382873535156e+00,5.500712203979492188e+01,-2.090458106994628906e+01,-9.345405578613281250e+01,-1.180766754150390625e+02,6.585875701904296875e+01,-2.980424880981445312e+01
9.156579971313476562e-01,1.000000000000000000e+00,-4.234077453613281250e+01,3.377823257446289062e+01,3.414778900146484375e+01,9.583197021484375000e+01,9.910701751708984375e+01,-7.325778484344482422e+00,5.500723266601562500e+01,-2.090458106994628906e+01,-9.345405578613281250e+01,-1.180766754150390625e+02,6.585875701904296875e+01,-2.980424880981445312e+01
9.195430278778076172e-01,1.000000000000000000e+00,-4.238391876220703125e+01,3.369316482543945312e+01,3.417061614990234375e+01,9.575506591796875000e+01,9.912738037109375000e+01,-7.349107742309570312e+00,5.500723266601562500e+01,-2.090448951721191406e+01,-9.345405578613281250e+01,-1.180766754150390625e+02,6.585875701904296875e+01,-2.980424880981445312e+01
9.237779974937438965e-01,1.000000000000000000e+00,-4.242715072631835938e+01,3.360794448852539062e+01,3.419334793090820312e+01,9.567758178710937500e+01,9.914668273925781250e+01,-7.372640132904052734e+00,5.500723266601562500e+01,-2.090458106994628906e+01,-9.345405578613281250e+01,-1.180766754150390625e+02,6.585875701904296875e+01,-2.980446624755859375e+01
9.277139902114868164e-01,1.000000000000000000e+00,-4.247052764892578125e+01,3.352242660522460938e+01,3.421626281738281250e+01,9.559967803955078125e+01,9.916609191894531250e+01,-7.396986484527587891e+00,5.500723266601562500e+01,-2.090458106994628906e+01,-9.345405578613281250e+01,-1.180766754150390625e+02,6.585875701904296875e+01,-2.980424880981445312e+01
9.323819875717163086e-01,1.000000000000000000e+00,-4.251370239257812500e+01,3.343684005737304688e+01,3.423946380615234375e+01,9.552203369140625000e+01,9.918592834472656250e+01,-7.421196937561035156e+00,5.500723266601562500e+01,-2.090458106994628906e+01,-9.345405578613281250e+01,-1.180766754150390625e+02,6.585875701904296875e+01,-2.980424880981445312e+01
9.356759786605834961e-01,1.000000000000000000e+00,-4.255696105957031250e+01,3.335161209106445312e+01,3.426243591308593750e+01,9.544486999511718750e+01,9.920618438720703125e+01,-7.444932937622070312e+00,5.500723266601562500e+01,-2.090458106994628906e+01,-9.345405578613281250e+01,-1.180766754150390625e+02,6.585875701904296875e+01,-2.980424880981445312e+01
9.397959709167480469e-01,1.000000000000000000e+00,-4.260036849975585938e+01,3.326659393310546875e+01,3.428536987304687500e+01,9.536748504638671875e+01,9.922681427001953125e+01,-7.467854976654052734e+00,5.500712203979492188e+01,-2.090458106994628906e+01,-9.345405578613281250e+01,-1.180766754150390625e+02,6.585875701904296875e+01,-2.980424880981445312e+01
9.436849951744079590e-01,1.000000000000000000e+00,-4.264354705810546875e+01,3.318159484863281250e+01,3.430824661254882812e+01,9.528974914550781250e+01,9.924787139892578125e+01,-7.491116046905517578e+00,5.500723266601562500e+01,-2.090458106994628906e+01,-9.345405578613281250e+01,-1.180766754150390625e+02,6.585875701904296875e+01,-2.980424880981445312e+01
9.476789832115173340e-01,1.000000000000000000e+00,-4.268663406372070312e+01,3.309662246704101562e+01,3.433127975463867188e+01,9.521236419677734375e+01,9.926850891113281250e+01,-7.514377117156982422e+00,5.500723266601562500e+01,-2.090458106994628906e+01,-9.345405578613281250e+01,-1.180766754150390625e+02,6.585875701904296875e+01,-2.980402946472167969e+01
9.518510103225708008e-01,1.000000000000000000e+00,-4.272977828979492188e+01,3.301144027709960938e+01,3.435435485839843750e+01,9.513456726074218750e+01,9.928845214843750000e+01,-7.538248538970947266e+00,5.500734329223632812e+01,-2.090458106994628906e+01,-9.345394897460937500e+01,-1.180766754150390625e+02,6.585875701904296875e+01,-2.980424880981445312e+01
9.576089978218078613e-01,1.000000000000000000e+00,-4.277301025390625000e+01,3.292569732666015625e+01,3.437725067138671875e+01,9.505755615234375000e+01,9.930774688720703125e+01,-7.562324047088623047e+00,5.500723266601562500e+01,-2.090458106994628906e+01,-9.345405578613281250e+01,-1.180766754150390625e+02,6.585875701904296875e+01,-2.980402946472167969e+01
9.601269960403442383e-01,1.000000000000000000e+00,-4.285953140258789062e+01,3.275327682495117188e+01,3.442311859130859375e+01,9.490211486816406250e+01,9.934736633300781250e+01,-7.610744953155517578e+00,5.500723266601562500e+01,-2.090458106994628906e+01,-9.345394897460937500e+01,-1.180766754150390625e+02,6.585875701904296875e+01,-2.980424880981445312e+01
9.638029932975769043e-01,1.000000000000000000e+00,-4.285953140258789062e+01,3.275327682495117188e+01,3.442311859130859375e+01,9.490211486816406250e+01,9.934736633300781250e+01,-7.610744953155517578e+00,5.500723266601562500e+01,-2.090458106994628906e+01,-9.345394897460937500e+01,-1.180766754150390625e+02,6.585875701904296875e+01,-2.980424880981445312e+01
9.678789973258972168e-01,1.000000000000000000e+00,-4.290259552001953125e+01,3.266699218750000000e+01,3.444638061523437500e+01,9.482389068603515625e+01,9.936778259277343750e+01,-7.634210109710693359e+00,5.500723266601562500e+01,-2.090458106994628906e+01,-9.345405578613281250e+01,-1.180766754150390625e+02,6.585875701904296875e+01,-2.980424880981445312e+01
9.720460176467895508e-01,1.000000000000000000e+00,-4.294591522216796875e+01,3.258086013793945312e+01,3.446959686279296875e+01,9.474625396728515625e+01,9.938895416259765625e+01,-7.657335281372070312e+00,5.500723266601562500e+01,-2.090458106994628906e+01,-9.345405578613281250e+01,-1.180766754150390625e+02,6.585875701904296875e+01,-2.980424880981445312e+01
9.761000275611877441e-01,1.000000000000000000e+00,-4.298908996582031250e+01,3.249529647827148438e+01,3.449263381958007812e+01,9.466755676269531250e+01,9.940963745117187500e+01,-7.680596351623535156e+00,5.500723266601562500e+01,-2.090458106994628906e+01,-9.345405578613281250e+01,-1.180768966674804688e+02,6.585875701904296875e+01,-2.980424880981445312e+01
9.806830286979675293e-01,1.000000000000000000e+00,-4.303235244750976562e+01,3.240996170043945312e+01,3.451542663574218750e+01,9.459001922607421875e+01,9.942963409423828125e+01,-7.704196453094482422e+00,5.500723266601562500e+01,-2.090458106994628906e+01,-9.345405578613281250e+01,-1.180766754150390625e+02,6.585875701904296875e+01,-2.980424880981445312e+01
9.844030141830444336e-01,1.000000000000000000e+00,-4.307566833496093750e+01,3.232430648803710938e+01,3.453823852539062500e+01,9.451195526123046875e+01,9.944915008544921875e+01,-7.728406906127929688e+00,5.500723266601562500e+01,-2.090458106994628906e+01,-9.345405578613281250e+01,-1.180766754150390625e+02,6.585875701904296875e+01,-2.980424880981445312e+01
9.879990220069885254e-01,1.000000000000000000e+00,-4.311887359619140625e+01,3.223842620849609375e+01,3.456147766113281250e+01,9.443410491943359375e+01,9.946892547607421875e+01,-7.752618312835693359e+00,5.500723266601562500e+01,-2.090458106994628906e+01,-9.345405578613281250e+01,-1.180766754150390625e+02,6.585875701904296875e+01,-2.980424880981445312e+01
9.920709729194641113e-01,1.000000000000000000e+00,-4.316218948364257812e+01,3.215227127075195312e+01,3.458471298217773438e+01,9.435593414306640625e+01,9.948892211914062500e+01,-7.777303218841552734e+00,5.500723266601562500e+01,-2.090448951721191406e+01,-9.345405578613281250e+01,-1.180766754150390625e+02,6.585875701904296875e+01,-2.980424880981445312e+01
9.959750175476074219e-01,1.000000000000000000e+00,-4.320536804199218750e+01,3.206553268432617188e+01,3.460797500610351562e+01,9.427787780761718750e+01,9.950955200195312500e+01,-7.801513671875000000e+00,5.500723266601562500e+01,-2.090458106994628906e+01,-9.345405578613281250e+01,-1.180766754150390625e+02,6.585875701904296875e+01,-2.980424880981445312e+01
1.000381946563720703e+00,1.000000000000000000e+00,-4.324879837036132812e+01,3.197872352600097656e+01,3.463099288940429688e+01,9.419986724853515625e+01,9.953066253662109375e+01,-7.825385570526123047e+00,5.500723266601562500e+01,-2.090458106994628906e+01,-9.345405578613281250e+01,-1.180766754150390625e+02,6.585875701904296875e+01,-2.980424880981445312e+01
1.004845976829528809e+00,1.000000000000000000e+00,-4.329203033447265625e+01,3.189218902587890625e+01,3.465417098999023438e+01,9.412158966064453125e+01,9.955178070068359375e+01,-7.848646640777587891e+00,5.500723266601562500e+01,-2.090458106994628906e+01,-9.345405578613281250e+01,-1.180766754150390625e+02,6.585875701904296875e+01,-2.980424880981445312e+01
1.008389949798583984e+00,1.000000000000000000e+00,-4.333549118041992188e+01,3.180612564086914062e+01,3.467755126953125000e+01,9.404353332519531250e+01,9.957187652587890625e+01,-7.871907711029052734e+00,5.500723266601562500e+01,-2.090458106994628906e+01,-9.345405578613281250e+01,-1.180766754150390625e+02,6.585875701904296875e+01,-2.980424880981445312e+01
1.012459993362426758e+00,1.000000000000000000e+00,-4.337909698486328125e+01,3.172024536132812500e+01,3.470068740844726562e+01,9.396498870849609375e+01,9.959165954589843750e+01,-7.895779132843017578e+00,5.500723266601562500e+01,-2.090458106994628906e+01,-9.345405578613281250e+01,-1.180766754150390625e+02,6.585875701904296875e+01,-2.980424880981445312e+01
1.016407966613769531e+00,1.000000000000000000e+00,-4.342276000976562500e+01,3.163434219360351562e+01,3.472386550903320312e+01,9.388671875000000000e+01,9.961144256591796875e+01,-7.919921875000000000e+00,5.500734329223632812e+01,-2.090458106994628906e+01,-9.345405578613281250e+01,-1.180766754150390625e+02,6.585875701904296875e+01,-2.980424880981445312e+01
1.020799040794372559e+00,1.000000000000000000e+00,-4.351034927368164062e+01,3.146203804016113281e+01,3.477024459838867188e+01,9.372943115234375000e+01,9.965174102783203125e+01,-7.969021797180175781e+00,5.500723266601562500e+01,-2.090458106994628906e+01,-9.345405578613281250e+01,-1.180768966674804688e+02,6.585875701904296875e+01,-2.980424880981445312e+01
1.024564027786254883e+00,1.000000000000000000e+00,-4.351034927368164062e+01,3.146203804016113281e+01,3.477024459838867188e+01,9.372943115234375000e+01,9.965174102783203125e+01,-7.969021797180175781e+00,5.500723266601562500e+01,-2.090458106994628906e+01,-9.345405578613281250e+01,-1.180768966674804688e+02,6.585875701904296875e+01,-2.980424880981445312e+01
1.029070019721984863e+00,1.000000000000000000e+00,-4.355412673950195312e+01,3.137532043457031250e+01,3.479370880126953125e+01,9.365079498291015625e+01,9.967264556884765625e+01,-7.993299484252929688e+00,5.500723266601562500e+01,-2.090458106994628906e+01,-9.345405578613281250e+01,-1.180766754150390625e+02,6.585875701904296875e+01,-2.980424880981445312e+01
1.032438039779663086e+00,1.000000000000000000e+00,-4.359790039062500000e+01,3.128817176818847656e+01,3.481715011596679688e+01,9.357193756103515625e+01,9.969371032714843750e+01,-8.016832351684570312e+00,5.500712203979492188e+01,-2.090458106994628906e+01,-9.345405578613281250e+01,-1.180766754150390625e+02,6.585875701904296875e+01,-2.980424880981445312e+01
1.036579966545104980e+00,1.000000000000000000e+00,-4.364173507690429688e+01,3.120113754272460938e+01,3.484040832519531250e+01,9.349372100830078125e+01,9.971401977539062500e+01,-8.040228843688964844e+00,5.500723266601562500e+01,-2.090458106994628906e+01,-9.345405578613281250e+01,-1.180766754150390625e+02,6.585875701904296875e+01,-2.980424880981445312e+01
1.040531039237976074e+00,1.000000000000000000e+00,-4.368568801879882812e+01,3.111414909362792969e+01,3.486354827880859375e+01,9.341497039794921875e+01,9.973385620117187500e+01,-8.063694000244140625e+00,5.500734329223632812e+01,-2.090458106994628906e+01,-9.345405578613281250e+01,-1.180766754150390625e+02,6.585875701904296875e+01,-2.980424880981445312e+01
1.044515013694763184e+00,1.000000000000000000e+00,-4.372980880737304688e+01,3.102774620056152344e+01,3.488676452636718750e+01,9.333654022216796875e+01,9.975368499755859375e+01,-8.087700843811035156e+00,5.500723266601562500e+01,-2.090458106994628906e+01,-9.345405578613281250e+01,-1.180766754150390625e+02,6.585875701904296875e+01,-2.980424880981445312e+01
1.048565983772277832e+00,1.000000000000000000e+00,-4.377373123168945312e+01,3.094179916381835938e+01,3.491024780273437500e+01,9.325752258300781250e+01,9.977394866943359375e+01,-8.112047195434570312e+00,5.500723266601562500e+01,-2.090458106994628906e+01,-9.345405578613281250e+01,-1.180766754150390625e+02,6.585875701904296875e+01,-2.980424880981445312e+01
1.053141951560974121e+00,1.000000000000000000e+00,-4.381785202026367188e+01,3.085539627075195312e+01,3.493360900878906250e+01,9.317903900146484375e+01,9.979436492919921875e+01,-8.136461257934570312e+00,5.500723266601562500e+01,-2.090458106994628906e+01,-9.345405578613281250e+01,-1.180766754150390625e+02,6.585875701904296875e+01,-2.980424880981445312e+01
1.056751012802124023e+00,1.000000000000000000e+00,-4.390583801269531250e+01,3.068164634704589844e+01,3.498033142089843750e+01,9.302091217041015625e+01,9.983691406250000000e+01,-8.185220718383789062e+00,5.500723266601562500e+01,-2.090458106994628906e+01,-9.345405578613281250e+01,-1.180766754150390625e+02,6.585875701904296875e+01,-2.980424880981445312e+01
1.059324979782104492e+00,1.000000000000000000e+00,-4.390583801269531250e+01,3.068164634704589844e+01,3.498033142089843750e+01,9.302091217041015625e+01,9.983691406250000000e+01,-8.185220718383789062e+00,5.500723266601562500e+01,-2.090458106994628906e+01,-9.345405578613281250e+01,-1.180766754150390625e+02,6.585875701904296875e+01,-2.980424880981445312e+01
1.063302040100097656e+00,1.000000000000000000e+00,-4.395001983642578125e+01,3.059424781799316406e+01,3.500377273559570312e+01,9.294132232666015625e+01,9.985749816894531250e+01,-8.208415031433105469e+00,5.500734329223632812e+01,-2.090458106994628906e+01,-9.345405578613281250e+01,-1.180766754150390625e+02,6.585875701904296875e+01,-2.980424880981445312e+01
1.068704962730407715e+00,1.000000000000000000e+00,-4.399417114257812500e+01,3.050649070739746094e+01,3.502729797363281250e+01,9.286273193359375000e+01,9.987743377685546875e+01,-8.232014656066894531e+00,5.500723266601562500e+01,-2.090458106994628906e+01,-9.345405578613281250e+01,-1.180766754150390625e+02,6.585875701904296875e+01,-2.980424880981445312e+01
1.071351051330566406e+00,1.000000000000000000e+00,-4.403835296630859375e+01,3.041893386840820312e+01,3.505065917968750000e+01,9.278330230712890625e+01,9.989715576171875000e+01,-8.256157875061035156e+00,5.500723266601562500e+01,-2.090458106994628906e+01,-9.345405578613281250e+01,-1.180766754150390625e+02,6.585875701904296875e+01,-2.980424880981445312e+01
1.075306057929992676e+00,1.000000000000000000e+00,-4.408235931396484375e+01,3.033162689208984375e+01,3.507402420043945312e+01,9.270407867431640625e+01,9.991725921630859375e+01,-8.280233383178710938e+00,5.500734329223632812e+01,-2.090458106994628906e+01,-9.345405578613281250e+01,-1.180766754150390625e+02,6.585875701904296875e+01,-2.980402946472167969e+01
1.081138014793395996e+00,1.000000000000000000e+00,-4.417026138305664062e+01,3.015801048278808594e+01,3.512094497680664062e+01,9.254579162597656250e+01,9.995874023437500000e+01,-8.329739570617675781e+00,5.500723266601562500e+01,-2.090458106994628906e+01,-9.345405578613281250e+01,-1.180766754150390625e+02,6.585875701904296875e+01,-2.980424880981445312e+01
1.083353996276855469e+00,1.000000000000000000e+00,-4.417026138305664062e+01,3.015801048278808594e+01,3.512094497680664062e+01,9.254579162597656250e+01,9.995874023437500000e+01,-8.329739570617675781e+00,5.500723266601562500e+01,-2.090458106994628906e+01,-9.345405578613281250e+01,-1.180766754150390625e+02,6.585875701904296875e+01,-2.980424880981445312e+01
1.087437987327575684e+00,1.000000000000000000e+00,-4.421443939208984375e+01,3.007106971740722656e+01,3.514447402954101562e+01,9.246673583984375000e+01,9.998022460937500000e+01,-8.354289054870605469e+00,5.500723266601562500e+01,-2.090458106994628906e+01,-9.345405578613281250e+01,-1.180766754150390625e+02,6.585875701904296875e+01,-2.980424880981445312e+01
1.091308951377868652e+00,1.000000000000000000e+00,-4.425838851928710938e+01,2.998383140563964844e+01,3.516785049438476562e+01,9.238724517822265625e+01,1.000008087158203125e+02,-8.378228187561035156e+00,5.500723266601562500e+01,-2.090458106994628906e+01,-9.345405578613281250e+01,-1.180765380859375000e+02,6.585875701904296875e+01,-2.980424880981445312e+01
1.095360994338989258e+00,1.000000000000000000e+00,-4.430228042602539062e+01,2.989598083496093750e+01,3.519119262695312500e+01,9.230807495117187500e+01,1.000209655761718750e+02,-8.401556968688964844e+00,5.500723266601562500e+01,-2.090458106994628906e+01,-9.345405578613281250e+01,-1.180766754150390625e+02,6.585875701904296875e+01,-2.980424880981445312e+01
1.099403977394104004e+00,1.000000000000000000e+00,-4.434620285034179688e+01,2.980788230895996094e+01,3.521467590332031250e+01,9.222859191894531250e+01,1.000408020019531250e+02,-8.425361633300781250e+00,5.500734329223632812e+01,-2.090458106994628906e+01,-9.345405578613281250e+01,-1.180766754150390625e+02,6.585875701904296875e+01,-2.980424880981445312e+01
1.103492975234985352e+00,1.000000000000000000e+00,-4.439018249511718750e+01,2.971982955932617188e+01,3.523826217651367188e+01,9.214868927001953125e+01,1.000612106323242188e+02,-8.449299812316894531e+00,5.500723266601562500e+01,-2.090458106994628906e+01,-9.345405578613281250e+01,-1.180766754150390625e+02,6.585875701904296875e+01,-2.980424880981445312e+01
1.107314944267272949e+00,1.000000000000000000e+00,-4.443418884277343750e+01,2.963182067871093750e+01,3.526182556152343750e+01,9.206899261474609375e+01,1.000820083618164062e+02,-8.473714828491210938e+00,5.500734329223632812e+01,-2.090448951721191406e+01,-9.345405578613281250e+01,-1.180766754150390625e+02,6.585875701904296875e+01,-2.980402946472167969e+01
1.111381053924560547e+00,1.000000000000000000e+00,-4.447831344604492188e+01,2.954442405700683594e+01,3.528549194335937500e+01,9.198934173583984375e+01,1.001030654907226562e+02,-8.498331069946289062e+00,5.500723266601562500e+01,-2.090458106994628906e+01,-9.345405578613281250e+01,-1.180766754150390625e+02,6.585889434814453125e+01,-2.980424880981445312e+01
