rpiRobotics/ARM-21-02-F-19-Robot-Motion-Program/data_performance_abb/curve_1/curve_pose_opt1/greedy0.02/grad_result/real_from_sim/run_2.csv
timestamp,cmd_num,J1,J2,J3,J4,J5,J6
1.469000009819865227e-03,-1.000000000000000000e+00,-3.445148086547851562e+01,4.940636444091796875e+01,2.994030189514160156e+01,1.100326309204101562e+02,9.541972351074218750e+01,-2.992486000061035156e+00,5.500723266601562500e+01,-2.090448951721191406e+01,-9.345405578613281250e+01,-1.180766754150390625e+02,6.585875701904296875e+01,-2.980424880981445312e+01
6.074000149965286255e-03,1.000000000000000000e+00,-3.445139312744140625e+01,4.940636444091796875e+01,2.994030189514160156e+01,1.100327301025390625e+02,9.541983032226562500e+01,-2.992621660232543945e+00,5.500723266601562500e+01,-2.090448951721191406e+01,-9.345405578613281250e+01,-1.180765380859375000e+02,6.585875701904296875e+01,-2.980402946472167969e+01
9.744999930262565613e-03,1.000000000000000000e+00,-3.445139312744140625e+01,4.940636444091796875e+01,2.994030189514160156e+01,1.100327301025390625e+02,9.541983032226562500e+01,-2.992621660232543945e+00,5.500723266601562500e+01,-2.090448951721191406e+01,-9.345405578613281250e+01,-1.180765380859375000e+02,6.585875701904296875e+01,-2.980402946472167969e+01
1.382599957287311554e-02,1.000000000000000000e+00,-3.445148086547851562e+01,4.940634155273437500e+01,2.994030189514160156e+01,1.100327301025390625e+02,9.541972351074218750e+01,-2.992621660232543945e+00,5.500723266601562500e+01,-2.090439605712890625e+01,-9.345405578613281250e+01,-1.180766754150390625e+02,6.585875701904296875e+01,-2.980424880981445312e+01
3.739700093865394592e-02,1.000000000000000000e+00,-3.445153427124023438e+01,4.940632247924804688e+01,2.994030189514160156e+01,1.100327301025390625e+02,9.541983032226562500e+01,-2.992486000061035156e+00,5.500723266601562500e+01,-2.090439605712890625e+01,-9.345405578613281250e+01,-1.180766754150390625e+02,6.585875701904296875e+01,-2.980424880981445312e+01
3.888399899005889893e-02,1.000000000000000000e+00,-3.445153427124023438e+01,4.940634155273437500e+01,2.994030189514160156e+01,1.100327301025390625e+02,9.541983032226562500e+01,-2.992486000061035156e+00,5.500723266601562500e+01,-2.090458106994628906e+01,-9.345405578613281250e+01,-1.180766754150390625e+02,6.585875701904296875e+01,-2.980402946472167969e+01
4.013900086283683777e-02,1.000000000000000000e+00,-3.445153427124023438e+01,4.940634155273437500e+01,2.994030189514160156e+01,1.100327301025390625e+02,9.541983032226562500e+01,-2.992486000061035156e+00,5.500723266601562500e+01,-2.090458106994628906e+01,-9.345405578613281250e+01,-1.180766754150390625e+02,6.585875701904296875e+01,-2.980402946472167969e+01
4.428799822926521301e-02,1.000000000000000000e+00,-3.445153427124023438e+01,4.940634155273437500e+01,2.994024085998535156e+01,1.100327301025390625e+02,9.541983032226562500e+01,-2.992486000061035156e+00,5.500712203979492188e+01,-2.090439605712890625e+01,-9.345405578613281250e+01,-1.180766754150390625e+02,6.585875701904296875e+01,-2.980424880981445312e+01
4.683599993586540222e-02,1.000000000000000000e+00,-3.445153427124023438e+01,4.940636444091796875e+01,2.994030189514160156e+01,1.100327301025390625e+02,9.541983032226562500e+01,-2.992486000061035156e+00,5.500723266601562500e+01,-2.090448951721191406e+01,-9.345405578613281250e+01,-1.180766754150390625e+02,6.585875701904296875e+01,-2.980424880981445312e+01
4.841800034046173096e-02,1.000000000000000000e+00,-3.445153427124023438e+01,4.940636444091796875e+01,2.994030189514160156e+01,1.100327301025390625e+02,9.541983032226562500e+01,-2.992486000061035156e+00,5.500723266601562500e+01,-2.090448951721191406e+01,-9.345405578613281250e+01,-1.180766754150390625e+02,6.585875701904296875e+01,-2.980424880981445312e+01
5.115599930286407471e-02,1.000000000000000000e+00,-3.445148086547851562e+01,4.940636444091796875e+01,2.994030189514160156e+01,1.100327301025390625e+02,9.541983032226562500e+01,-2.992486000061035156e+00,5.500723266601562500e+01,-2.090448951721191406e+01,-9.345405578613281250e+01,-1.180766754150390625e+02,6.585875701904296875e+01,-2.980424880981445312e+01
5.830899998545646667e-02,1.000000000000000000e+00,-3.445176696777343750e+01,4.940618515014648438e+01,2.994030189514160156e+01,1.100327301025390625e+02,9.541983032226562500e+01,-2.992486000061035156e+00,5.500723266601562500e+01,-2.090448951721191406e+01,-9.345405578613281250e+01,-1.180766754150390625e+02,6.585875701904296875e+01,-2.980424880981445312e+01
6.033699959516525269e-02,1.000000000000000000e+00,-3.445176696777343750e+01,4.940618515014648438e+01,2.994030189514160156e+01,1.100327301025390625e+02,9.541983032226562500e+01,-2.992486000061035156e+00,5.500723266601562500e+01,-2.090448951721191406e+01,-9.345405578613281250e+01,-1.180766754150390625e+02,6.585875701904296875e+01,-2.980424880981445312e+01
6.281799823045730591e-02,1.000000000000000000e+00,-3.445254516601562500e+01,4.940589141845703125e+01,2.994030189514160156e+01,1.100327301025390625e+02,9.541983032226562500e+01,-2.992486000061035156e+00,5.500723266601562500e+01,-2.090458106994628906e+01,-9.345405578613281250e+01,-1.180766754150390625e+02,6.585875701904296875e+01,-2.980424880981445312e+01
6.410499662160873413e-02,1.000000000000000000e+00,-3.445254516601562500e+01,4.940589141845703125e+01,2.994030189514160156e+01,1.100327301025390625e+02,9.541983032226562500e+01,-2.992486000061035156e+00,5.500723266601562500e+01,-2.090458106994628906e+01,-9.345405578613281250e+01,-1.180766754150390625e+02,6.585875701904296875e+01,-2.980424880981445312e+01
6.978099793195724487e-02,1.000000000000000000e+00,-3.445386123657226562e+01,4.940507507324218750e+01,2.994024085998535156e+01,1.100327301025390625e+02,9.541983032226562500e+01,-2.992486000061035156e+00,5.500734329223632812e+01,-2.090458106994628906e+01,-9.345405578613281250e+01,-1.180765380859375000e+02,6.585875701904296875e+01,-2.980424880981445312e+01
7.132100313901901245e-02,1.000000000000000000e+00,-3.445573043823242188e+01,4.940333175659179688e+01,2.994030189514160156e+01,1.100326309204101562e+02,9.541983032226562500e+01,-2.992486000061035156e+00,5.500723266601562500e+01,-2.090448951721191406e+01,-9.345405578613281250e+01,-1.180766754150390625e+02,6.585875701904296875e+01,-2.980424880981445312e+01
7.434699684381484985e-02,1.000000000000000000e+00,-3.445573043823242188e+01,4.940333175659179688e+01,2.994030189514160156e+01,1.100326309204101562e+02,9.541983032226562500e+01,-2.992486000061035156e+00,5.500723266601562500e+01,-2.090448951721191406e+01,-9.345405578613281250e+01,-1.180766754150390625e+02,6.585875701904296875e+01,-2.980424880981445312e+01
7.583399862051010132e-02,1.000000000000000000e+00,-3.445822525024414062e+01,4.940032577514648438e+01,2.994024085998535156e+01,1.100324707031250000e+02,9.541983032226562500e+01,-2.992621660232543945e+00,5.500723266601562500e+01,-2.090448951721191406e+01,-9.345405578613281250e+01,-1.180766754150390625e+02,6.585875701904296875e+01,-2.980402946472167969e+01
7.849100232124328613e-02,1.000000000000000000e+00,-3.446124267578125000e+01,4.939572906494140625e+01,2.994038391113281250e+01,1.100323638916015625e+02,9.541999053955078125e+01,-2.992621660232543945e+00,5.500723266601562500e+01,-2.090448951721191406e+01,-9.345405578613281250e+01,-1.180765380859375000e+02,6.585875701904296875e+01,-2.980424880981445312e+01
8.281999826431274414e-02,1.000000000000000000e+00,-3.446480178833007812e+01,4.938903045654296875e+01,2.994052696228027344e+01,1.100310440063476562e+02,9.542008972167968750e+01,-2.992486000061035156e+00,5.500723266601562500e+01,-2.090448951721191406e+01,-9.345405578613281250e+01,-1.180766754150390625e+02,6.585875701904296875e+01,-2.980424880981445312e+01
8.644899725914001465e-02,1.000000000000000000e+00,-3.446907424926757812e+01,4.938061141967773438e+01,2.994095420837402344e+01,1.100282592773437500e+02,9.542052459716796875e+01,-2.992825031280517578e+00,5.500723266601562500e+01,-2.090448951721191406e+01,-9.345405578613281250e+01,-1.180765380859375000e+02,6.585875701904296875e+01,-2.980446624755859375e+01
8.786100149154663086e-02,1.000000000000000000e+00,-3.446907424926757812e+01,4.938061141967773438e+01,2.994095420837402344e+01,1.100282592773437500e+02,9.542052459716796875e+01,-2.992825031280517578e+00,5.500723266601562500e+01,-2.090448951721191406e+01,-9.345405578613281250e+01,-1.180765380859375000e+02,6.585875701904296875e+01,-2.980446624755859375e+01
9.059999883174896240e-02,1.000000000000000000e+00,-3.447386932373046875e+01,4.937038421630859375e+01,2.994166374206542969e+01,1.100242996215820312e+02,9.542105865478515625e+01,-2.993096351623535156e+00,5.500712203979492188e+01,-2.090439605712890625e+01,-9.345405578613281250e+01,-1.180766754150390625e+02,6.585875701904296875e+01,-2.980424880981445312e+01
9.451399743556976318e-02,1.000000000000000000e+00,-3.447978591918945312e+01,4.935795974731445312e+01,2.994288444519042969e+01,1.100185623168945312e+02,9.542228698730468750e+01,-2.994249343872070312e+00,5.500712203979492188e+01,-2.090448951721191406e+01,-9.345405578613281250e+01,-1.180766754150390625e+02,6.585875701904296875e+01,-2.980424880981445312e+01
9.589900076389312744e-02,1.000000000000000000e+00,-3.447978591918945312e+01,4.935795974731445312e+01,2.994288444519042969e+01,1.100185623168945312e+02,9.542228698730468750e+01,-2.994249343872070312e+00,5.500712203979492188e+01,-2.090448951721191406e+01,-9.345405578613281250e+01,-1.180766754150390625e+02,6.585875701904296875e+01,-2.980424880981445312e+01
9.962599724531173706e-02,1.000000000000000000e+00,-3.448667526245117188e+01,4.934293365478515625e+01,2.994457054138183594e+01,1.100112457275390625e+02,9.542398834228515625e+01,-2.996419429779052734e+00,5.500723266601562500e+01,-2.090448951721191406e+01,-9.345405578613281250e+01,-1.180765380859375000e+02,6.585875701904296875e+01,-2.980424880981445312e+01
1.035809963941574097e-01,1.000000000000000000e+00,-3.448667526245117188e+01,4.934293365478515625e+01,2.994457054138183594e+01,1.100112457275390625e+02,9.542398834228515625e+01,-2.996419429779052734e+00,5.500723266601562500e+01,-2.090448951721191406e+01,-9.345405578613281250e+01,-1.180765380859375000e+02,6.585875701904296875e+01,-2.980424880981445312e+01
1.075799986720085144e-01,1.000000000000000000e+00,-3.449482727050781250e+01,4.932562255859375000e+01,2.994699287414550781e+01,1.100016555786132812e+02,9.542670440673828125e+01,-2.999538898468017578e+00,5.500723266601562500e+01,-2.090458106994628906e+01,-9.345405578613281250e+01,-1.180766754150390625e+02,6.585875701904296875e+01,-2.980402946472167969e+01
1.115820035338401794e-01,1.000000000000000000e+00,-3.451589584350585938e+01,4.928355026245117188e+01,2.995408821105957031e+01,1.099735794067382812e+02,9.543417358398437500e+01,-3.007677078247070312e+00,5.500734329223632812e+01,-2.090458106994628906e+01,-9.345405578613281250e+01,-1.180766754150390625e+02,6.585875701904296875e+01,-2.980424880981445312e+01
1.156790032982826233e-01,1.000000000000000000e+00,-3.451589584350585938e+01,4.928355026245117188e+01,2.995408821105957031e+01,1.099735794067382812e+02,9.543417358398437500e+01,-3.007677078247070312e+00,5.500734329223632812e+01,-2.090458106994628906e+01,-9.345405578613281250e+01,-1.180766754150390625e+02,6.585875701904296875e+01,-2.980424880981445312e+01
1.195940002799034119e-01,1.000000000000000000e+00,-3.452870178222656250e+01,4.925820922851562500e+01,2.995941543579101562e+01,1.099552993774414062e+02,9.543933868408203125e+01,-3.013034582138061523e+00,5.500723266601562500e+01,-2.090448951721191406e+01,-9.345405578613281250e+01,-1.180766754150390625e+02,6.585875701904296875e+01,-2.980424880981445312e+01
1.235909983515739441e-01,1.000000000000000000e+00,-3.454317092895507812e+01,4.922996520996093750e+01,2.996590232849121094e+01,1.099334945678710938e+02,9.544547271728515625e+01,-3.019816160202026367e+00,5.500723266601562500e+01,-2.090458106994628906e+01,-9.345405578613281250e+01,-1.180766754150390625e+02,6.585875701904296875e+01,-2.980446624755859375e+01
1.275980025529861450e-01,1.000000000000000000e+00,-3.455901718139648438e+01,4.919871520996093750e+01,2.997354507446289062e+01,1.099078979492187500e+02,9.545235443115234375e+01,-3.027886390686035156e+00,5.500723266601562500e+01,-2.090448951721191406e+01,-9.345405578613281250e+01,-1.180766754150390625e+02,6.585875701904296875e+01,-2.980424880981445312e+01
1.316889971494674683e-01,1.000000000000000000e+00,-3.457615280151367188e+01,4.916390609741210938e+01,2.998243141174316406e+01,1.098770294189453125e+02,9.546072387695312500e+01,-3.036973953247070312e+00,5.500723266601562500e+01,-2.090448951721191406e+01,-9.345405578613281250e+01,-1.180766754150390625e+02,6.585875701904296875e+01,-2.980424880981445312e+01
1.355960071086883545e-01,1.000000000000000000e+00,-3.459481430053710938e+01,4.912539291381835938e+01,2.999259757995605469e+01,1.098409423828125000e+02,9.546978759765625000e+01,-3.047281980514526367e+00,5.500723266601562500e+01,-2.090458106994628906e+01,-9.345405578613281250e+01,-1.180766754150390625e+02,6.585875701904296875e+01,-2.980424880981445312e+01
1.395830065011978149e-01,1.000000000000000000e+00,-3.461539459228515625e+01,4.908341217041015625e+01,3.000432777404785156e+01,1.098010711669921875e+02,9.547965240478515625e+01,-3.059082031250000000e+00,5.500723266601562500e+01,-2.090448951721191406e+01,-9.345405578613281250e+01,-1.180768966674804688e+02,6.585875701904296875e+01,-2.980424880981445312e+01
1.435710042715072632e-01,1.000000000000000000e+00,-3.463772964477539062e+01,4.903838348388671875e+01,3.001729774475097656e+01,1.097589263916015625e+02,9.549020385742187500e+01,-3.072238445281982422e+00,5.500723266601562500e+01,-2.090458106994628906e+01,-9.345405578613281250e+01,-1.180765380859375000e+02,6.585875701904296875e+01,-2.980424880981445312e+01
1.476780027151107788e-01,1.000000000000000000e+00,-3.466138458251953125e+01,4.899020004272460938e+01,3.003151321411132812e+01,1.097121582031250000e+02,9.550220489501953125e+01,-3.086683511734008789e+00,5.500734329223632812e+01,-2.090448951721191406e+01,-9.345405578613281250e+01,-1.180766754150390625e+02,6.585889434814453125e+01,-2.980424880981445312e+01
1.515869945287704468e-01,1.000000000000000000e+00,-3.468647384643554688e+01,4.893898773193359375e+01,3.004694175720214844e+01,1.096601715087890625e+02,9.551483917236328125e+01,-3.102484941482543945e+00,5.500723266601562500e+01,-2.090448951721191406e+01,-9.345405578613281250e+01,-1.180766754150390625e+02,6.585889434814453125e+01,-2.980424880981445312e+01
1.555829942226409912e-01,1.000000000000000000e+00,-3.471308517456054688e+01,4.888504028320312500e+01,3.006339263916015625e+01,1.096055450439453125e+02,9.552811431884765625e+01,-3.119778156280517578e+00,5.500723266601562500e+01,-2.090448951721191406e+01,-9.345405578613281250e+01,-1.180766754150390625e+02,6.585889434814453125e+01,-2.980424880981445312e+01
1.596750020980834961e-01,1.000000000000000000e+00,-3.474104690551757812e+01,4.882846450805664062e+01,3.008067321777343750e+01,1.095481796264648438e+02,9.554235076904296875e+01,-3.137614250183105469e+00,5.500712203979492188e+01,-2.090458106994628906e+01,-9.345405578613281250e+01,-1.180766754150390625e+02,6.585875701904296875e+01,-2.980424880981445312e+01
1.635850071907043457e-01,1.000000000000000000e+00,-3.477029800415039062e+01,4.876930999755859375e+01,3.009887123107910156e+01,1.094878692626953125e+02,9.555738830566406250e+01,-3.156738519668579102e+00,5.500734329223632812e+01,-2.090448951721191406e+01,-9.345405578613281250e+01,-1.180766754150390625e+02,6.585875701904296875e+01,-2.980446624755859375e+01
1.675930023193359375e-01,1.000000000000000000e+00,-3.480127334594726562e+01,4.870737457275390625e+01,3.011771965026855469e+01,1.094249801635742188e+02,9.557338714599609375e+01,-3.175862789154052734e+00,5.500723266601562500e+01,-2.090448951721191406e+01,-9.345405578613281250e+01,-1.180766754150390625e+02,6.585889434814453125e+01,-2.980424880981445312e+01
1.716179996728897095e-01,1.000000000000000000e+00,-3.483336639404296875e+01,4.864323806762695312e+01,3.013695335388183594e+01,1.093598709106445312e+02,9.559066009521484375e+01,-3.195326328277587891e+00,5.500723266601562500e+01,-2.090448951721191406e+01,-9.345405578613281250e+01,-1.180766754150390625e+02,6.585875701904296875e+01,-2.980424880981445312e+01
1.756380051374435425e-01,1.000000000000000000e+00,-3.486658096313476562e+01,4.857695388793945312e+01,3.015636825561523438e+01,1.092944564819335938e+02,9.560808563232421875e+01,-3.215332031250000000e+00,5.500723266601562500e+01,-2.090458106994628906e+01,-9.345405578613281250e+01,-1.180766754150390625e+02,6.585875701904296875e+01,-2.980424880981445312e+01
1.796019971370697021e-01,1.000000000000000000e+00,-3.490059661865234375e+01,4.850886154174804688e+01,3.017629432678222656e+01,1.092272949218750000e+02,9.562541198730468750e+01,-3.235880613327026367e+00,5.500723266601562500e+01,-2.090458106994628906e+01,-9.345405578613281250e+01,-1.180766754150390625e+02,6.585889434814453125e+01,-2.980424880981445312e+01
1.836169958114624023e-01,1.000000000000000000e+00,-3.493550491333007812e+01,4.843902587890625000e+01,3.019642448425292969e+01,1.091595535278320312e+02,9.564263916015625000e+01,-3.256835937500000000e+00,5.500723266601562500e+01,-2.090448951721191406e+01,-9.345405578613281250e+01,-1.180766754150390625e+02,6.585875701904296875e+01,-2.980424880981445312e+01
1.876450031995773315e-01,1.000000000000000000e+00,-3.497142028808593750e+01,4.836722183227539062e+01,3.021689796447753906e+01,1.090904464721679688e+02,9.565980529785156250e+01,-3.277723789215087891e+00,5.500723266601562500e+01,-2.090448951721191406e+01,-9.345405578613281250e+01,-1.180766754150390625e+02,6.585875701904296875e+01,-2.980424880981445312e+01
1.915740072727203369e-01,1.000000000000000000e+00,-3.500804519653320312e+01,4.829360961914062500e+01,3.023771476745605469e+01,1.090213394165039062e+02,9.567739868164062500e+01,-3.299221515655517578e+00,5.500723266601562500e+01,-2.090439605712890625e+01,-9.345405578613281250e+01,-1.180766754150390625e+02,6.585875701904296875e+01,-2.980424880981445312e+01
1.957489997148513794e-01,1.000000000000000000e+00,-3.504550933837890625e+01,4.821895217895507812e+01,3.025825119018554688e+01,1.089521713256835938e+02,9.569510650634765625e+01,-3.321397542953491211e+00,5.500723266601562500e+01,-2.090458106994628906e+01,-9.345405578613281250e+01,-1.180766754150390625e+02,6.585875701904296875e+01,-2.980424880981445312e+01
1.996369957923889160e-01,1.000000000000000000e+00,-3.508371734619140625e+01,4.814377212524414062e+01,3.027880668640136719e+01,1.088829650878906250e+02,9.571323394775390625e+01,-3.343505859375000000e+00,5.500723266601562500e+01,-2.090448951721191406e+01,-9.345405578613281250e+01,-1.180766754150390625e+02,6.585875701904296875e+01,-2.980424880981445312e+01
2.035679966211318970e-01,1.000000000000000000e+00,-3.512247085571289062e+01,4.806803131103515625e+01,3.029928016662597656e+01,1.088132171630859375e+02,9.573188781738281250e+01,-3.364732742309570312e+00,5.500723266601562500e+01,-2.090448951721191406e+01,-9.345405578613281250e+01,-1.180766754150390625e+02,6.585875701904296875e+01,-2.980424880981445312e+01
2.076590061187744141e-01,1.000000000000000000e+00,-3.516136932373046875e+01,4.799145507812500000e+01,3.031985473632812500e+01,1.087434844970703125e+02,9.575124359130859375e+01,-3.385755777359008789e+00,5.500723266601562500e+01,-2.090448951721191406e+01,-9.345405578613281250e+01,-1.180766754150390625e+02,6.585889434814453125e+01,-2.980402946472167969e+01
2.116370052099227905e-01,1.000000000000000000e+00,-3.520058441162109375e+01,4.791462326049804688e+01,3.034049224853515625e+01,1.086737976074218750e+02,9.576979827880859375e+01,-3.406847000122070312e+00,5.500723266601562500e+01,-2.090448951721191406e+01,-9.345405578613281250e+01,-1.180766754150390625e+02,6.585875701904296875e+01,-2.980424880981445312e+01
2.155839949846267700e-01,1.000000000000000000e+00,-3.523973846435546875e+01,4.783754730224609375e+01,3.036112976074218750e+01,1.086038970947265625e+02,9.578771209716796875e+01,-3.428141355514526367e+00,5.500723266601562500e+01,-2.090448951721191406e+01,-9.345405578613281250e+01,-1.180766754150390625e+02,6.585875701904296875e+01,-2.980424880981445312e+01
2.197079956531524658e-01,1.000000000000000000e+00,-3.527961349487304688e+01,4.776026535034179688e+01,3.038162422180175781e+01,1.085339431762695312e+02,9.580546569824218750e+01,-3.449435949325561523e+00,5.500723266601562500e+01,-2.090448951721191406e+01,-9.345405578613281250e+01,-1.180766754150390625e+02,6.585875701904296875e+01,-2.980424880981445312e+01
2.236350029706954956e-01,1.000000000000000000e+00,-3.531917190551757812e+01,4.768314361572265625e+01,3.040217971801757812e+01,1.084634704589843750e+02,9.582317352294921875e+01,-3.471204996109008789e+00,5.500723266601562500e+01,-2.090448951721191406e+01,-9.345405578613281250e+01,-1.180766754150390625e+02,6.585875701904296875e+01,-2.980424880981445312e+01
2.275999933481216431e-01,1.000000000000000000e+00,-3.535853195190429688e+01,4.760593032836914062e+01,3.042293930053710938e+01,1.083937225341796875e+02,9.584103393554687500e+01,-3.492838621139526367e+00,5.500723266601562500e+01,-2.090448951721191406e+01,-9.345405578613281250e+01,-1.180766754150390625e+02,6.585875701904296875e+01,-2.980424880981445312e+01
2.329860031604766846e-01,1.000000000000000000e+00,-3.539788436889648438e+01,4.752903366088867188e+01,3.044390106201171875e+01,1.083235092163085938e+02,9.585936737060546875e+01,-3.515082597732543945e+00,5.500723266601562500e+01,-2.090448951721191406e+01,-9.345405578613281250e+01,-1.180766754150390625e+02,6.585875701904296875e+01,-2.980424880981445312e+01
2.358849942684173584e-01,1.000000000000000000e+00,-3.547688674926757812e+01,4.737601089477539062e+01,3.048558044433593750e+01,1.081837158203125000e+02,9.589737701416015625e+01,-3.557874917984008789e+00,5.500734329223632812e+01,-2.090448951721191406e+01,-9.345405578613281250e+01,-1.180766754150390625e+02,6.585875701904296875e+01,-2.980424880981445312e+01
2.395849972963333130e-01,1.000000000000000000e+00,-3.547688674926757812e+01,4.737601089477539062e+01,3.048558044433593750e+01,1.081837158203125000e+02,9.589737701416015625e+01,-3.557874917984008789e+00,5.500734329223632812e+01,-2.090448951721191406e+01,-9.345405578613281250e+01,-1.180766754150390625e+02,6.585875701904296875e+01,-2.980424880981445312e+01
2.441159933805465698e-01,1.000000000000000000e+00,-3.551638793945312500e+01,4.729967880249023438e+01,3.050607681274414062e+01,1.081138687133789062e+02,9.591609191894531250e+01,-3.578830480575561523e+00,5.500723266601562500e+01,-2.090448951721191406e+01,-9.345405578613281250e+01,-1.180766754150390625e+02,6.585889434814453125e+01,-2.980424880981445312e+01
2.476630061864852905e-01,1.000000000000000000e+00,-3.555571365356445312e+01,4.722296142578125000e+01,3.052665328979492188e+01,1.080435485839843750e+02,9.593389892578125000e+01,-3.599921226501464844e+00,5.500723266601562500e+01,-2.090448951721191406e+01,-9.345394897460937500e+01,-1.180766754150390625e+02,6.585875701904296875e+01,-2.980424880981445312e+01
2.522059977054595947e-01,1.000000000000000000e+00,-3.563397216796875000e+01,4.706907653808593750e+01,3.056857681274414062e+01,1.079030685424804688e+02,9.596968078613281250e+01,-3.642849445343017578e+00,5.500723266601562500e+01,-2.090439605712890625e+01,-9.345405578613281250e+01,-1.180766754150390625e+02,6.585875701904296875e+01,-2.980424880981445312e+01
2.555840015411376953e-01,1.000000000000000000e+00,-3.563397216796875000e+01,4.706907653808593750e+01,3.056857681274414062e+01,1.079030685424804688e+02,9.596968078613281250e+01,-3.642849445343017578e+00,5.500723266601562500e+01,-2.090439605712890625e+01,-9.345405578613281250e+01,-1.180766754150390625e+02,6.585875701904296875e+01,-2.980424880981445312e+01
2.596519887447357178e-01,1.000000000000000000e+00,-3.567307281494140625e+01,4.699240875244140625e+01,3.058953857421875000e+01,1.078331146240234375e+02,9.598774719238281250e+01,-3.664211750030517578e+00,5.500723266601562500e+01,-2.090448951721191406e+01,-9.345405578613281250e+01,-1.180766754150390625e+02,6.585875701904296875e+01,-2.980424880981445312e+01
2.635959982872009277e-01,1.000000000000000000e+00,-3.571213912963867188e+01,4.691546630859375000e+01,3.061047935485839844e+01,1.077626419067382812e+02,9.600614929199218750e+01,-3.686320066452026367e+00,5.500712203979492188e+01,-2.090448951721191406e+01,-9.345405578613281250e+01,-1.180766754150390625e+02,6.585875701904296875e+01,-2.980424880981445312e+01
2.680439949035644531e-01,1.000000000000000000e+00,-3.575144195556640625e+01,4.683816146850585938e+01,3.063131904602050781e+01,1.076921081542968750e+02,9.602523803710937500e+01,-3.708225011825561523e+00,5.500723266601562500e+01,-2.090448951721191406e+01,-9.345405578613281250e+01,-1.180766754150390625e+02,6.585875701904296875e+01,-2.980424880981445312e+01
2.718060016632080078e-01,1.000000000000000000e+00,-3.578993606567382812e+01,4.676090621948242188e+01,3.065212059020996094e+01,1.076212615966796875e+02,9.604459381103515625e+01,-3.730265617370605469e+00,5.500723266601562500e+01,-2.090448951721191406e+01,-9.345405578613281250e+01,-1.180766754150390625e+02,6.585875701904296875e+01,-2.980424880981445312e+01
2.756319940090179443e-01,1.000000000000000000e+00,-3.582825851440429688e+01,4.668398666381835938e+01,3.067316436767578125e+01,1.075512542724609375e+02,9.606340789794921875e+01,-3.751288414001464844e+00,5.500723266601562500e+01,-2.090448951721191406e+01,-9.345405578613281250e+01,-1.180766754150390625e+02,6.585875701904296875e+01,-2.980446624755859375e+01
2.796880006790161133e-01,1.000000000000000000e+00,-3.586706924438476562e+01,4.660713577270507812e+01,3.069408416748046875e+01,1.074803009033203125e+02,9.608116912841796875e+01,-3.772040843963623047e+00,5.500723266601562500e+01,-2.090448951721191406e+01,-9.345405578613281250e+01,-1.180765380859375000e+02,6.585889434814453125e+01,-2.980424880981445312e+01
2.837890088558197021e-01,1.000000000000000000e+00,-3.590582275390625000e+01,4.652989959716796875e+01,3.071486282348632812e+01,1.074099884033203125e+02,9.609907531738281250e+01,-3.793335199356079102e+00,5.500723266601562500e+01,-2.090448951721191406e+01,-9.345405578613281250e+01,-1.180768966674804688e+02,6.585860443115234375e+01,-2.980424880981445312e+01
2.877280116081237793e-01,1.000000000000000000e+00,-3.594454956054687500e+01,4.645261764526367188e+01,3.073570442199707031e+01,1.073393478393554688e+02,9.611704254150390625e+01,-3.814697504043579102e+00,5.500723266601562500e+01,-2.090458106994628906e+01,-9.345405578613281250e+01,-1.180766754150390625e+02,6.585875701904296875e+01,-2.980424880981445312e+01
2.926149964332580566e-01,1.000000000000000000e+00,-3.598321914672851562e+01,4.637511062622070312e+01,3.075650215148925781e+01,1.072692413330078125e+02,9.613523101806640625e+01,-3.836263418197631836e+00,5.500712203979492188e+01,-2.090448951721191406e+01,-9.345405578613281250e+01,-1.180766754150390625e+02,6.585875701904296875e+01,-2.980446624755859375e+01
2.958489954471588135e-01,1.000000000000000000e+00,-3.602182769775390625e+01,4.629733276367187500e+01,3.077762794494628906e+01,1.071980209350585938e+02,9.615351104736328125e+01,-3.857964515686035156e+00,5.500723266601562500e+01,-2.090458106994628906e+01,-9.345405578613281250e+01,-1.180766754150390625e+02,6.585875701904296875e+01,-2.980424880981445312e+01
2.997089922428131104e-01,1.000000000000000000e+00,-3.606024169921875000e+01,4.621939468383789062e+01,3.079887390136718750e+01,1.071279220581054688e+02,9.617249298095703125e+01,-3.879937171936035156e+00,5.500734329223632812e+01,-2.090448951721191406e+01,-9.345405578613281250e+01,-1.180766754150390625e+02,6.585875701904296875e+01,-2.980424880981445312e+01
3.036940097808837891e-01,1.000000000000000000e+00,-3.609896469116210938e+01,4.614152526855468750e+01,3.081989669799804688e+01,1.070569686889648438e+02,9.619174194335937500e+01,-3.902113199234008789e+00,5.500723266601562500e+01,-2.090448951721191406e+01,-9.345405578613281250e+01,-1.180766754150390625e+02,6.585875701904296875e+01,-2.980424880981445312e+01
3.079749941825866699e-01,1.000000000000000000e+00,-3.613743209838867188e+01,4.606358718872070312e+01,3.084079742431640625e+01,1.069864883422851562e+02,9.621040344238281250e+01,-3.923814773559570312e+00,5.500712203979492188e+01,-2.090439605712890625e+01,-9.345405578613281250e+01,-1.180766754150390625e+02,6.585875701904296875e+01,-2.980424880981445312e+01
3.118999898433685303e-01,1.000000000000000000e+00,-3.617638778686523438e+01,4.598556137084960938e+01,3.086165618896484375e+01,1.069152221679687500e+02,9.622821044921875000e+01,-3.944498777389526367e+00,5.500712203979492188e+01,-2.090448951721191406e+01,-9.345405578613281250e+01,-1.180766754150390625e+02,6.585875701904296875e+01,-2.980424880981445312e+01
3.165600001811981201e-01,1.000000000000000000e+00,-3.621519851684570312e+01,4.590766525268554688e+01,3.088245773315429688e+01,1.068446350097656250e+02,9.624623107910156250e+01,-3.965386390686035156e+00,5.500723266601562500e+01,-2.090448951721191406e+01,-9.345405578613281250e+01,-1.180766754150390625e+02,6.585875701904296875e+01,-2.980424880981445312e+01
3.200840055942535400e-01,1.000000000000000000e+00,-3.625409317016601562e+01,4.582991027832031250e+01,3.090368270874023438e+01,1.067729492187500000e+02,9.626441192626953125e+01,-3.986952304840087891e+00,5.500723266601562500e+01,-2.090448951721191406e+01,-9.345405578613281250e+01,-1.180766754150390625e+02,6.585875701904296875e+01,-2.980424880981445312e+01
3.225809931755065918e-01,1.000000000000000000e+00,-3.629333877563476562e+01,4.575194931030273438e+01,3.092468643188476562e+01,1.067026748657226562e+02,9.628264617919921875e+01,-4.008111000061035156e+00,5.500723266601562500e+01,-2.090448951721191406e+01,-9.345405578613281250e+01,-1.180766754150390625e+02,6.585875701904296875e+01,-2.980424880981445312e+01
3.278979957103729248e-01,1.000000000000000000e+00,-3.633243560791015625e+01,4.567376327514648438e+01,3.094564819335937500e+01,1.066315155029296875e+02,9.630114746093750000e+01,-4.029608726501464844e+00,5.500723266601562500e+01,-2.090448951721191406e+01,-9.345405578613281250e+01,-1.180766754150390625e+02,6.585875701904296875e+01,-2.980446624755859375e+01
3.322179913520812988e-01,1.000000000000000000e+00,-3.637184906005859375e+01,4.559560012817382812e+01,3.096671295166015625e+01,1.065606689453125000e+02,9.632001495361328125e+01,-4.051852703094482422e+00,5.500712203979492188e+01,-2.090448951721191406e+01,-9.345405578613281250e+01,-1.180766754150390625e+02,6.585875701904296875e+01,-2.980424880981445312e+01
3.360359966754913330e-01,1.000000000000000000e+00,-3.641123580932617188e+01,4.551739120483398438e+01,3.098773574829101562e+01,1.064894561767578125e+02,9.633937835693359375e+01,-4.074028968811035156e+00,5.500723266601562500e+01,-2.090448951721191406e+01,-9.345405578613281250e+01,-1.180766754150390625e+02,6.585860443115234375e+01,-2.980424880981445312e+01
3.385269939899444580e-01,1.000000000000000000e+00,-3.645079421997070312e+01,4.543911361694335938e+01,3.100888252258300781e+01,1.064184494018554688e+02,9.635809326171875000e+01,-4.096340656280517578e+00,5.500723266601562500e+01,-2.090448951721191406e+01,-9.345405578613281250e+01,-1.180766754150390625e+02,6.585875701904296875e+01,-2.980424880981445312e+01
3.442730009555816650e-01,1.000000000000000000e+00,-3.649049758911132812e+01,4.536070251464843750e+01,3.103000831604003906e+01,1.063476562500000000e+02,9.637599945068359375e+01,-4.117635250091552734e+00,5.500723266601562500e+01,-2.090448951721191406e+01,-9.345405578613281250e+01,-1.180766754150390625e+02,6.585875701904296875e+01,-2.980424880981445312e+01
3.480969965457916260e-01,1.000000000000000000e+00,-3.653022384643554688e+01,4.528206253051757812e+01,3.105101013183593750e+01,1.062764434814453125e+02,9.639385986328125000e+01,-4.138658523559570312e+00,5.500723266601562500e+01,-2.090448951721191406e+01,-9.345405578613281250e+01,-1.180768966674804688e+02,6.585875701904296875e+01,-2.980424880981445312e+01
3.521510064601898193e-01,1.000000000000000000e+00,-3.656993103027343750e+01,4.520387649536132812e+01,3.107205009460449219e+01,1.062049102783203125e+02,9.641198730468750000e+01,-4.160156250000000000e+00,5.500723266601562500e+01,-2.090458106994628906e+01,-9.345405578613281250e+01,-1.180766754150390625e+02,6.585875701904296875e+01,-2.980424880981445312e+01
3.545280098915100098e-01,1.000000000000000000e+00,-3.660977172851562500e+01,4.512600326538085938e+01,3.109319686889648438e+01,1.061341705322265625e+02,9.643016815185546875e+01,-4.181857585906982422e+00,5.500734329223632812e+01,-2.090448951721191406e+01,-9.345405578613281250e+01,-1.180766754150390625e+02,6.585889434814453125e+01,-2.980446624755859375e+01
3.601639866828918457e-01,1.000000000000000000e+00,-3.664961624145507812e+01,4.504772949218750000e+01,3.111432266235351562e+01,1.060629577636718750e+02,9.644888305664062500e+01,-4.203219890594482422e+00,5.500723266601562500e+01,-2.090448951721191406e+01,-9.345405578613281250e+01,-1.180766754150390625e+02,6.585875701904296875e+01,-2.980402946472167969e+01
3.650409877300262451e-01,1.000000000000000000e+00,-3.668972015380859375e+01,4.496942901611328125e+01,3.113556861877441406e+01,1.059916381835937500e+02,9.646802520751953125e+01,-4.225056648254394531e+00,5.500723266601562500e+01,-2.090448951721191406e+01,-9.345405578613281250e+01,-1.180766754150390625e+02,6.585875701904296875e+01,-2.980424880981445312e+01
3.665109872817993164e-01,1.000000000000000000e+00,-3.672974014282226562e+01,4.489097213745117188e+01,3.115679550170898438e+01,1.059194641113281250e+02,9.648695373535156250e+01,-4.247165203094482422e+00,5.500723266601562500e+01,-2.090448951721191406e+01,-9.345405578613281250e+01,-1.180766754150390625e+02,6.585875701904296875e+01,-2.980424880981445312e+01
3.724200129508972168e-01,1.000000000000000000e+00,-3.676967239379882812e+01,4.481246948242187500e+01,3.117775726318359375e+01,1.058485183715820312e+02,9.650577545166015625e+01,-4.269612789154052734e+00,5.500723266601562500e+01,-2.090439605712890625e+01,-9.345422363281250000e+01,-1.180766754150390625e+02,6.585875701904296875e+01,-2.980424880981445312e+01
3.762800097465515137e-01,1.000000000000000000e+00,-3.680974578857421875e+01,4.473376083374023438e+01,3.119880104064941406e+01,1.057767791748046875e+02,9.652358245849609375e+01,-4.291314125061035156e+00,5.500734329223632812e+01,-2.090448951721191406e+01,-9.345405578613281250e+01,-1.180765380859375000e+02,6.585875701904296875e+01,-2.980402946472167969e+01
3.806020021438598633e-01,1.000000000000000000e+00,-3.684996414184570312e+01,4.465480804443359375e+01,3.122012901306152344e+01,1.057057723999023438e+02,9.654181671142578125e+01,-4.312608718872070312e+00,5.500723266601562500e+01,-2.090458106994628906e+01,-9.345405578613281250e+01,-1.180766754150390625e+02,6.585875701904296875e+01,-2.980424880981445312e+01
3.844560086727142334e-01,1.000000000000000000e+00,-3.689001083374023438e+01,4.457632446289062500e+01,3.124141502380371094e+01,1.056337127685546875e+02,9.655999755859375000e+01,-4.333903312683105469e+00,5.500723266601562500e+01,-2.090448951721191406e+01,-9.345405578613281250e+01,-1.180766754150390625e+02,6.585875701904296875e+01,-2.980424880981445312e+01
3.892199993133544922e-01,1.000000000000000000e+00,-3.693008422851562500e+01,4.449771118164062500e+01,3.126264381408691406e+01,1.055627593994140625e+02,9.657849121093750000e+01,-4.355672359466552734e+00,5.500723266601562500e+01,-2.090458106994628906e+01,-9.345405578613281250e+01,-1.180766754150390625e+02,6.585875701904296875e+01,-2.980424880981445312e+01
3.927550017833709717e-01,1.000000000000000000e+00,-3.697024536132812500e+01,4.441902542114257812e+01,3.128382682800292969e+01,1.054911727905273438e+02,9.659737396240234375e+01,-4.377645015716552734e+00,5.500723266601562500e+01,-2.090458106994628906e+01,-9.345405578613281250e+01,-1.180766754150390625e+02,6.585875701904296875e+01,-2.980424880981445312e+01
3.965319991111755371e-01,1.000000000000000000e+00,-3.701023483276367188e+01,4.434063720703125000e+01,3.130493354797363281e+01,1.054201736450195312e+02,9.661667633056640625e+01,-4.399278163909912109e+00,5.500723266601562500e+01,-2.090448951721191406e+01,-9.345405578613281250e+01,-1.180766754150390625e+02,6.585875701904296875e+01,-2.980424880981445312e+01
4.011799991130828857e-01,1.000000000000000000e+00,-3.705005264282226562e+01,4.426206588745117188e+01,3.132619857788085938e+01,1.053479614257812500e+02,9.663602447509765625e+01,-4.421251296997070312e+00,5.500723266601562500e+01,-2.090448951721191406e+01,-9.345405578613281250e+01,-1.180766754150390625e+02,6.585875701904296875e+01,-2.980424880981445312e+01
4.047299921512603760e-01,1.000000000000000000e+00,-3.708998107910156250e+01,4.418326950073242188e+01,3.134754562377929688e+01,1.052767410278320312e+02,9.665473937988281250e+01,-4.444173336029052734e+00,5.500723266601562500e+01,-2.090448951721191406e+01,-9.345405578613281250e+01,-1.180766754150390625e+02,6.585875701904296875e+01,-2.980424880981445312e+01
4.086399972438812256e-01,1.000000000000000000e+00,-3.712985610961914062e+01,4.410410690307617188e+01,3.136883544921875000e+01,1.052047882080078125e+02,9.667270660400390625e+01,-4.466756343841552734e+00,5.500723266601562500e+01,-2.090448951721191406e+01,-9.345405578613281250e+01,-1.180766754150390625e+02,6.585875701904296875e+01,-2.980424880981445312e+01
4.133360087871551514e-01,1.000000000000000000e+00,-3.716989898681640625e+01,4.402492523193359375e+01,3.139006042480468750e+01,1.051334152221679688e+02,9.669078063964843750e+01,-4.488254547119140625e+00,5.500723266601562500e+01,-2.090448951721191406e+01,-9.345405578613281250e+01,-1.180766754150390625e+02,6.585875701904296875e+01,-2.980424880981445312e+01
4.168320000171661377e-01,1.000000000000000000e+00,-3.720989227294921875e+01,4.394554138183593750e+01,3.141135025024414062e+01,1.050610427856445312e+02,9.670890808105468750e+01,-4.509548664093017578e+00,5.500723266601562500e+01,-2.090448951721191406e+01,-9.345405578613281250e+01,-1.180766754150390625e+02,6.585875701904296875e+01,-2.980424880981445312e+01
4.207000136375427246e-01,1.000000000000000000e+00,-3.724970245361328125e+01,4.386626434326171875e+01,3.143269920349121094e+01,1.049891433715820312e+02,9.672751617431640625e+01,-4.530843257904052734e+00,5.500723266601562500e+01,-2.090458106994628906e+01,-9.345405578613281250e+01,-1.180766754150390625e+02,6.585875701904296875e+01,-2.980424880981445312e+01
4.245789945125579834e-01,1.000000000000000000e+00,-3.728972244262695312e+01,4.378722000122070312e+01,3.145423126220703125e+01,1.049170837402343750e+02,9.674638366699218750e+01,-4.552815914154052734e+00,5.500723266601562500e+01,-2.090448951721191406e+01,-9.345405578613281250e+01,-1.180766754150390625e+02,6.585875701904296875e+01,-2.980424880981445312e+01
4.288339912891387939e-01,1.000000000000000000e+00,-3.732971191406250000e+01,4.370810699462890625e+01,3.147563934326171875e+01,1.048456573486328125e+02,9.676595306396484375e+01,-4.574924468994140625e+00,5.500723266601562500e+01,-2.090448951721191406e+01,-9.345405578613281250e+01,-1.180766754150390625e+02,6.585875701904296875e+01,-2.980424880981445312e+01
4.327769875526428223e-01,1.000000000000000000e+00,-3.736981582641601562e+01,4.362901687622070312e+01,3.149676132202148438e+01,1.047739181518554688e+02,9.678510284423828125e+01,-4.596896648406982422e+00,5.500723266601562500e+01,-2.090448951721191406e+01,-9.345405578613281250e+01,-1.180768966674804688e+02,6.585875701904296875e+01,-2.980424880981445312e+01
4.375729858875274658e-01,1.000000000000000000e+00,-3.740960311889648438e+01,4.354967498779296875e+01,3.151788711547851562e+01,1.047019577026367188e+02,9.680370330810546875e+01,-4.619344234466552734e+00,5.500723266601562500e+01,-2.090458106994628906e+01,-9.345405578613281250e+01,-1.180766754150390625e+02,6.585875701904296875e+01,-2.980424880981445312e+01
4.395509958267211914e-01,1.000000000000000000e+00,-3.744979095458984375e+01,4.347053909301757812e+01,3.153915405273437500e+01,1.046298980712890625e+02,9.682167053222656250e+01,-4.641859531402587891e+00,5.500734329223632812e+01,-2.090458106994628906e+01,-9.345405578613281250e+01,-1.180766754150390625e+02,6.585875701904296875e+01,-2.980424880981445312e+01
4.448130130767822266e-01,1.000000000000000000e+00,-3.748981094360351562e+01,4.339131164550781250e+01,3.156070709228515625e+01,1.045579528808593750e+02,9.684001159667968750e+01,-4.664238929748535156e+00,5.500723266601562500e+01,-2.090448951721191406e+01,-9.345405578613281250e+01,-1.180766754150390625e+02,6.585875701904296875e+01,-2.980424880981445312e+01
4.475890100002288818e-01,1.000000000000000000e+00,-3.752994155883789062e+01,4.331165313720703125e+01,3.158223915100097656e+01,1.044857864379882812e+02,9.685851287841796875e+01,-4.685398101806640625e+00,5.500723266601562500e+01,-2.090458106994628906e+01,-9.345405578613281250e+01,-1.180766754150390625e+02,6.585875701904296875e+01,-2.980424880981445312e+01
4.515149891376495361e-01,1.000000000000000000e+00,-3.756995773315429688e+01,4.323199844360351562e+01,3.160364723205566406e+01,1.044139938354492188e+02,9.687706756591796875e+01,-4.706353187561035156e+00,5.500723266601562500e+01,-2.090448951721191406e+01,-9.345405578613281250e+01,-1.180766754150390625e+02,6.585875701904296875e+01,-2.980446624755859375e+01
4.555290043354034424e-01,1.000000000000000000e+00,-3.761009216308593750e+01,4.315215682983398438e+01,3.162499618530273438e+01,1.043416213989257812e+02,9.689631652832031250e+01,-4.728461265563964844e+00,5.500712203979492188e+01,-2.090448951721191406e+01,-9.345405578613281250e+01,-1.180766754150390625e+02,6.585875701904296875e+01,-2.980424880981445312e+01
4.595730006694793701e-01,1.000000000000000000e+00,-3.765007781982421875e+01,4.307263565063476562e+01,3.164640426635742188e+01,1.042697143554687500e+02,9.691593170166015625e+01,-4.750366210937500000e+00,5.500723266601562500e+01,-2.090448951721191406e+01,-9.345405578613281250e+01,-1.180766754150390625e+02,6.585875701904296875e+01,-2.980424880981445312e+01
4.635159969329833984e-01,1.000000000000000000e+00,-3.769004058837890625e+01,4.299313354492187500e+01,3.166789627075195312e+01,1.041967620849609375e+02,9.693534088134765625e+01,-4.772541999816894531e+00,5.500723266601562500e+01,-2.090448951721191406e+01,-9.345405578613281250e+01,-1.180766754150390625e+02,6.585860443115234375e+01,-2.980424880981445312e+01
4.675270020961761475e-01,1.000000000000000000e+00,-3.773017120361328125e+01,4.291372680664062500e+01,3.168948936462402344e+01,1.041248168945312500e+02,9.695357513427734375e+01,-4.794718742370605469e+00,5.500723266601562500e+01,-2.090448951721191406e+01,-9.345405578613281250e+01,-1.180766754150390625e+02,6.585875701904296875e+01,-2.980424880981445312e+01
4.715589880943298340e-01,1.000000000000000000e+00,-3.777036285400390625e+01,4.283456802368164062e+01,3.171083641052246094e+01,1.040521774291992188e+02,9.697186279296875000e+01,-4.817437171936035156e+00,5.500712203979492188e+01,-2.090448951721191406e+01,-9.345405578613281250e+01,-1.180766754150390625e+02,6.585875701904296875e+01,-2.980424880981445312e+01
4.755110144615173340e-01,1.000000000000000000e+00,-3.781063842773437500e+01,4.275527191162109375e+01,3.173204231262207031e+01,1.039799041748046875e+02,9.699031066894531250e+01,-4.839613437652587891e+00,5.500734329223632812e+01,-2.090448951721191406e+01,-9.345405578613281250e+01,-1.180766754150390625e+02,6.585875701904296875e+01,-2.980402946472167969e+01
4.795480072498321533e-01,1.000000000000000000e+00,-3.785105514526367188e+01,4.267575454711914062e+01,3.175342941284179688e+01,1.039074249267578125e+02,9.700865173339843750e+01,-4.861314773559570312e+00,5.500723266601562500e+01,-2.090458106994628906e+01,-9.345405578613281250e+01,-1.180766754150390625e+02,6.585875701904296875e+01,-2.980424880981445312e+01
4.835569858551025391e-01,1.000000000000000000e+00,-3.789136123657226562e+01,4.259595870971679688e+01,3.177508544921875000e+01,1.038351593017578125e+02,9.702715301513671875e+01,-4.883016109466552734e+00,5.500723266601562500e+01,-2.090448951721191406e+01,-9.345405578613281250e+01,-1.180766754150390625e+02,6.585875701904296875e+01,-2.980424880981445312e+01
4.875240027904510498e-01,1.000000000000000000e+00,-3.793169403076171875e+01,4.251607894897460938e+01,3.179685974121093750e+01,1.037624664306640625e+02,9.704666900634765625e+01,-4.904785156250000000e+00,5.500723266601562500e+01,-2.090448951721191406e+01,-9.345405578613281250e+01,-1.180766754150390625e+02,6.585889434814453125e+01,-2.980424880981445312e+01
4.916079938411712646e-01,1.000000000000000000e+00,-3.797196960449218750e+01,4.243598937988281250e+01,3.181847381591796875e+01,1.036905670166015625e+02,9.706649780273437500e+01,-4.926758289337158203e+00,5.500723266601562500e+01,-2.090448951721191406e+01,-9.345405578613281250e+01,-1.180766754150390625e+02,6.585875701904296875e+01,-2.980424880981445312e+01
4.956139922142028809e-01,1.000000000000000000e+00,-3.801210021972656250e+01,4.235562896728515625e+01,3.183980178833007812e+01,1.036176147460937500e+02,9.708516693115234375e+01,-4.948595046997070312e+00,5.500723266601562500e+01,-2.090458106994628906e+01,-9.345405578613281250e+01,-1.180765380859375000e+02,6.585875701904296875e+01,-2.980424880981445312e+01
4.994809925556182861e-01,1.000000000000000000e+00,-3.805252075195312500e+01,4.227563476562500000e+01,3.186106681823730469e+01,1.035454483032226562e+02,9.710360717773437500e+01,-4.970906734466552734e+00,5.500723266601562500e+01,-2.090448951721191406e+01,-9.345405578613281250e+01,-1.180766754150390625e+02,6.585875701904296875e+01,-2.980424880981445312e+01
5.035660266876220703e-01,1.000000000000000000e+00,-3.809293746948242188e+01,4.219572830200195312e+01,3.188264083862304688e+01,1.034721298217773438e+02,9.712184143066406250e+01,-4.993625164031982422e+00,5.500723266601562500e+01,-2.090448951721191406e+01,-9.345405578613281250e+01,-1.180766754150390625e+02,6.585875701904296875e+01,-2.980424880981445312e+01
5.076199769973754883e-01,1.000000000000000000e+00,-3.813344573974609375e+01,4.211618423461914062e+01,3.190441513061523438e+01,1.033996429443359375e+02,9.714050292968750000e+01,-5.016615390777587891e+00,5.500734329223632812e+01,-2.090439605712890625e+01,-9.345405578613281250e+01,-1.180766754150390625e+02,6.585875701904296875e+01,-2.980402946472167969e+01
5.115759968757629395e-01,1.000000000000000000e+00,-3.817371749877929688e+01,4.203634643554687500e+01,3.192594718933105469e+01,1.033264846801757812e+02,9.715911102294921875e+01,-5.038723468780517578e+00,5.500723266601562500e+01,-2.090448951721191406e+01,-9.345405578613281250e+01,-1.180766754150390625e+02,6.585875701904296875e+01,-2.980424880981445312e+01
5.145230293273925781e-01,1.000000000000000000e+00,-3.821414184570312500e+01,4.195639038085937500e+01,3.194754028320312500e+01,1.032539520263671875e+02,9.717803192138671875e+01,-5.059407711029052734e+00,5.500723266601562500e+01,-2.090448951721191406e+01,-9.345405578613281250e+01,-1.180766754150390625e+02,6.585875701904296875e+01,-2.980424880981445312e+01
5.196250081062316895e-01,1.000000000000000000e+00,-3.821414184570312500e+01,4.195639038085937500e+01,3.194754028320312500e+01,1.032539520263671875e+02,9.717803192138671875e+01,-5.059407711029052734e+00,5.500723266601562500e+01,-2.090448951721191406e+01,-9.345405578613281250e+01,-1.180766754150390625e+02,6.585875701904296875e+01,-2.980424880981445312e+01
5.235610008239746094e-01,1.000000000000000000e+00,-3.829494857788085938e+01,4.179549026489257812e+01,3.199058151245117188e+01,1.031081008911132812e+02,9.721749114990234375e+01,-5.103759765625000000e+00,5.500723266601562500e+01,-2.090458106994628906e+01,-9.345405578613281250e+01,-1.180766754150390625e+02,6.585875701904296875e+01,-2.980424880981445312e+01
5.275070071220397949e-01,1.000000000000000000e+00,-3.833542633056640625e+01,4.171461486816406250e+01,3.201243972778320312e+01,1.030351486206054688e+02,9.723652648925781250e+01,-5.126071453094482422e+00,5.500723266601562500e+01,-2.090448951721191406e+01,-9.345405578613281250e+01,-1.180766754150390625e+02,6.585875701904296875e+01,-2.980402946472167969e+01
5.315660238265991211e-01,1.000000000000000000e+00,-3.837607574462890625e+01,4.163359832763671875e+01,3.203407287597656250e+01,1.029622421264648438e+02,9.725481414794921875e+01,-5.148044109344482422e+00,5.500723266601562500e+01,-2.090448951721191406e+01,-9.345405578613281250e+01,-1.180768966674804688e+02,6.585875701904296875e+01,-2.980424880981445312e+01
5.355359911918640137e-01,1.000000000000000000e+00,-3.841649627685546875e+01,4.155301284790039062e+01,3.205570220947265625e+01,1.028893966674804688e+02,9.727294158935546875e+01,-5.170559406280517578e+00,5.500723266601562500e+01,-2.090448951721191406e+01,-9.345405578613281250e+01,-1.180766754150390625e+02,6.585875701904296875e+01,-2.980424880981445312e+01
5.395129919052124023e-01,1.000000000000000000e+00,-3.845679855346679688e+01,4.147245025634765625e+01,3.207729721069335938e+01,1.028163375854492188e+02,9.729160308837890625e+01,-5.193481445312500000e+00,5.500712203979492188e+01,-2.090448951721191406e+01,-9.345405578613281250e+01,-1.180766754150390625e+02,6.585875701904296875e+01,-2.980446624755859375e+01
5.435069799423217773e-01,1.000000000000000000e+00,-3.849721908569335938e+01,4.139204788208007812e+01,3.209888839721679688e+01,1.027430114746093750e+02,9.731037139892578125e+01,-5.216674804687500000e+00,5.500723266601562500e+01,-2.090458106994628906e+01,-9.345405578613281250e+01,-1.180766754150390625e+02,6.585875701904296875e+01,-2.980424880981445312e+01
5.476359724998474121e-01,1.000000000000000000e+00,-3.853781127929687500e+01,4.131193923950195312e+01,3.212076568603515625e+01,1.026704254150390625e+02,9.732945251464843750e+01,-5.238037109375000000e+00,5.500723266601562500e+01,-2.090458106994628906e+01,-9.345405578613281250e+01,-1.180766754150390625e+02,6.585875701904296875e+01,-2.980424880981445312e+01
5.515149831771850586e-01,1.000000000000000000e+00,-3.857831573486328125e+01,4.123157882690429688e+01,3.214248275756835938e+01,1.025972137451171875e+02,9.734928894042968750e+01,-5.259535312652587891e+00,5.500723266601562500e+01,-2.090448951721191406e+01,-9.345405578613281250e+01,-1.180766754150390625e+02,6.585875701904296875e+01,-2.980424880981445312e+01
5.555269718170166016e-01,1.000000000000000000e+00,-3.861864852905273438e+01,4.115087890625000000e+01,3.216423416137695312e+01,1.025237808227539062e+02,9.736885833740234375e+01,-5.281914710998535156e+00,5.500712203979492188e+01,-2.090448951721191406e+01,-9.345405578613281250e+01,-1.180766754150390625e+02,6.585875701904296875e+01,-2.980424880981445312e+01
5.596250295639038086e-01,1.000000000000000000e+00,-3.865903854370117188e+01,4.106988525390625000e+01,3.218587112426757812e+01,1.024496688842773438e+02,9.738762664794921875e+01,-5.304633140563964844e+00,5.500723266601562500e+01,-2.090448951721191406e+01,-9.345405578613281250e+01,-1.180766754150390625e+02,6.585875701904296875e+01,-2.980424880981445312e+01
5.635640025138854980e-01,1.000000000000000000e+00,-3.869957351684570312e+01,4.098887252807617188e+01,3.220745849609375000e+01,1.023770370483398438e+02,9.740596771240234375e+01,-5.326809406280517578e+00,5.500723266601562500e+01,-2.090448951721191406e+01,-9.345405578613281250e+01,-1.180766754150390625e+02,6.585875701904296875e+01,-2.980424880981445312e+01
5.675439834594726562e-01,1.000000000000000000e+00,-3.874024963378906250e+01,4.090767669677734375e+01,3.222935867309570312e+01,1.023035049438476562e+02,9.742451477050781250e+01,-5.349460124969482422e+00,5.500723266601562500e+01,-2.090448951721191406e+01,-9.345405578613281250e+01,-1.180766754150390625e+02,6.585889434814453125e+01,-2.980424880981445312e+01
5.725560188293457031e-01,1.000000000000000000e+00,-3.878107070922851562e+01,4.082638931274414062e+01,3.225125503540039062e+01,1.022302856445312500e+02,9.744333648681640625e+01,-5.372382164001464844e+00,5.500723266601562500e+01,-2.090458106994628906e+01,-9.345405578613281250e+01,-1.180768966674804688e+02,6.585875701904296875e+01,-2.980424880981445312e+01
5.755749940872192383e-01,1.000000000000000000e+00,-3.882163619995117188e+01,4.074548721313476562e+01,3.227315139770507812e+01,1.021566467285156250e+02,9.746253204345703125e+01,-5.395101070404052734e+00,5.500723266601562500e+01,-2.090458106994628906e+01,-9.345405578613281250e+01,-1.180766754150390625e+02,6.585875701904296875e+01,-2.980424880981445312e+01
5.805900096893310547e-01,1.000000000000000000e+00,-3.882163619995117188e+01,4.074548721313476562e+01,3.227315139770507812e+01,1.021566467285156250e+02,9.746253204345703125e+01,-5.395101070404052734e+00,5.500723266601562500e+01,-2.090448951721191406e+01,-9.345405578613281250e+01,-1.180766754150390625e+02,6.585875701904296875e+01,-2.980424880981445312e+01
5.839909911155700684e-01,1.000000000000000000e+00,-3.890333557128906250e+01,4.058436203002929688e+01,3.231666564941406250e+01,1.020098495483398438e+02,9.750203704833984375e+01,-5.438910961151123047e+00,5.500723266601562500e+01,-2.090448951721191406e+01,-9.345405578613281250e+01,-1.180766754150390625e+02,6.585875701904296875e+01,-2.980424880981445312e+01
5.875200033187866211e-01,1.000000000000000000e+00,-3.894401168823242188e+01,4.050393676757812500e+01,3.233845901489257812e+01,1.019368896484375000e+02,9.752155303955078125e+01,-5.461086750030517578e+00,5.500723266601562500e+01,-2.090448951721191406e+01,-9.345405578613281250e+01,-1.180766754150390625e+02,6.585875701904296875e+01,-2.980424880981445312e+01
5.915539860725402832e-01,1.000000000000000000e+00,-3.894401168823242188e+01,4.050393676757812500e+01,3.233845901489257812e+01,1.019368896484375000e+02,9.752155303955078125e+01,-5.461086750030517578e+00,5.500723266601562500e+01,-2.090448951721191406e+01,-9.345405578613281250e+01,-1.180766754150390625e+02,6.585875701904296875e+01,-2.980424880981445312e+01
5.965989828109741211e-01,1.000000000000000000e+00,-3.898532104492187500e+01,4.042310333251953125e+01,3.236037826538085938e+01,1.018629913330078125e+02,9.754005432128906250e+01,-5.483873367309570312e+00,5.500712203979492188e+01,-2.090448951721191406e+01,-9.345405578613281250e+01,-1.180766754150390625e+02,6.585875701904296875e+01,-2.980424880981445312e+01
5.995150208473205566e-01,1.000000000000000000e+00,-3.906742095947265625e+01,4.026021194458007812e+01,3.240388488769531250e+01,1.017156066894531250e+02,9.757705688476562500e+01,-5.528971672058105469e+00,5.500723266601562500e+01,-2.090448951721191406e+01,-9.345405578613281250e+01,-1.180766754150390625e+02,6.585875701904296875e+01,-2.980424880981445312e+01
6.035559773445129395e-01,1.000000000000000000e+00,-3.906742095947265625e+01,4.026021194458007812e+01,3.240388488769531250e+01,1.017156066894531250e+02,9.757705688476562500e+01,-5.528971672058105469e+00,5.500723266601562500e+01,-2.090448951721191406e+01,-9.345405578613281250e+01,-1.180766754150390625e+02,6.585875701904296875e+01,-2.980424880981445312e+01
6.103180050849914551e-01,1.000000000000000000e+00,-3.910838699340820312e+01,4.017840194702148438e+01,3.242582321166992188e+01,1.016421737670898438e+02,9.759597778320312500e+01,-5.552232742309570312e+00,5.500723266601562500e+01,-2.090458106994628906e+01,-9.345405578613281250e+01,-1.180765380859375000e+02,6.585875701904296875e+01,-2.980424880981445312e+01
6.118329763412475586e-01,1.000000000000000000e+00,-3.919068527221679688e+01,4.001528930664062500e+01,3.246973800659179688e+01,1.014942169189453125e+02,9.763506317138671875e+01,-5.597940921783447266e+00,5.500723266601562500e+01,-2.090458106994628906e+01,-9.345405578613281250e+01,-1.180766754150390625e+02,6.585875701904296875e+01,-2.980424880981445312e+01
6.165810227394104004e-01,1.000000000000000000e+00,-3.919068527221679688e+01,4.001528930664062500e+01,3.246973800659179688e+01,1.014942169189453125e+02,9.763506317138671875e+01,-5.597940921783447266e+00,5.500723266601562500e+01,-2.090458106994628906e+01,-9.345405578613281250e+01,-1.180766754150390625e+02,6.585875701904296875e+01,-2.980424880981445312e+01
6.200559735298156738e-01,1.000000000000000000e+00,-3.927339172363281250e+01,3.985343933105468750e+01,3.251331329345703125e+01,1.013466796875000000e+02,9.767456817626953125e+01,-5.641614913940429688e+00,5.500723266601562500e+01,-2.090448951721191406e+01,-9.345405578613281250e+01,-1.180766754150390625e+02,6.585875701904296875e+01,-2.980424880981445312e+01
6.235539913177490234e-01,1.000000000000000000e+00,-3.931473159790039062e+01,3.977256011962890625e+01,3.253514862060546875e+01,1.012729873657226562e+02,9.769296264648437500e+01,-5.664198398590087891e+00,5.500723266601562500e+01,-2.090448951721191406e+01,-9.345405578613281250e+01,-1.180766754150390625e+02,6.585875701904296875e+01,-2.980402946472167969e+01
6.275650262832641602e-01,1.000000000000000000e+00,-3.931473159790039062e+01,3.977256011962890625e+01,3.253514862060546875e+01,1.012729873657226562e+02,9.769296264648437500e+01,-5.664198398590087891e+00,5.500723266601562500e+01,-2.090448951721191406e+01,-9.345405578613281250e+01,-1.180766754150390625e+02,6.585875701904296875e+01,-2.980402946472167969e+01
6.316519975662231445e-01,1.000000000000000000e+00,-3.935615539550781250e+01,3.969113922119140625e+01,3.255706787109375000e+01,1.011991348266601562e+02,9.771162414550781250e+01,-5.686713695526123047e+00,5.500723266601562500e+01,-2.090448951721191406e+01,-9.345405578613281250e+01,-1.180766754150390625e+02,6.585875701904296875e+01,-2.980424880981445312e+01
6.355580091476440430e-01,1.000000000000000000e+00,-3.939760589599609375e+01,3.960935211181640625e+01,3.257898330688476562e+01,1.011249771118164062e+02,9.773039245605468750e+01,-5.709771156311035156e+00,5.500712203979492188e+01,-2.090458106994628906e+01,-9.345405578613281250e+01,-1.180765380859375000e+02,6.585875701904296875e+01,-2.980424880981445312e+01
6.395530104637145996e-01,1.000000000000000000e+00,-3.943894195556640625e+01,3.952745437622070312e+01,3.260104370117187500e+01,1.010510711669921875e+02,9.774969482421875000e+01,-5.733100414276123047e+00,5.500734329223632812e+01,-2.090448951721191406e+01,-9.345405578613281250e+01,-1.180768966674804688e+02,6.585889434814453125e+01,-2.980424880981445312e+01
6.440160274505615234e-01,1.000000000000000000e+00,-3.948042678833007812e+01,3.944542312622070312e+01,3.262310409545898438e+01,1.009770126342773438e+02,9.776914978027343750e+01,-5.756225585937500000e+00,5.500723266601562500e+01,-2.090448951721191406e+01,-9.345405578613281250e+01,-1.180766754150390625e+02,6.585860443115234375e+01,-2.980424880981445312e+01
6.505640149116516113e-01,1.000000000000000000e+00,-3.952182006835937500e+01,3.936316299438476562e+01,3.264514160156250000e+01,1.009028396606445312e+02,9.778925323486328125e+01,-5.778876781463623047e+00,5.500723266601562500e+01,-2.090448951721191406e+01,-9.345405578613281250e+01,-1.180766754150390625e+02,6.585875701904296875e+01,-2.980402946472167969e+01
6.519820094108581543e-01,1.000000000000000000e+00,-3.960458374023437500e+01,3.919997406005859375e+01,3.268932342529296875e+01,1.007540435791015625e+02,9.782812500000000000e+01,-5.822686195373535156e+00,5.500723266601562500e+01,-2.090448951721191406e+01,-9.345405578613281250e+01,-1.180766754150390625e+02,6.585875701904296875e+01,-2.980424880981445312e+01
6.552219986915588379e-01,1.000000000000000000e+00,-3.960458374023437500e+01,3.919997406005859375e+01,3.268932342529296875e+01,1.007540435791015625e+02,9.782812500000000000e+01,-5.822686195373535156e+00,5.500723266601562500e+01,-2.090448951721191406e+01,-9.345405578613281250e+01,-1.180766754150390625e+02,6.585875701904296875e+01,-2.980424880981445312e+01
6.605250239372253418e-01,1.000000000000000000e+00,-3.964606475830078125e+01,3.911853408813476562e+01,3.271110153198242188e+01,1.006798782348632812e+02,9.784651947021484375e+01,-5.845201492309570312e+00,5.500723266601562500e+01,-2.090448951721191406e+01,-9.345405578613281250e+01,-1.180766754150390625e+02,6.585875701904296875e+01,-2.980424880981445312e+01
6.635439991950988770e-01,1.000000000000000000e+00,-3.972911453247070312e+01,3.895555114746093750e+01,3.275505828857421875e+01,1.005312805175781250e+02,9.788399505615234375e+01,-5.890706539154052734e+00,5.500723266601562500e+01,-2.090458106994628906e+01,-9.345405578613281250e+01,-1.180766754150390625e+02,6.585875701904296875e+01,-2.980424880981445312e+01
6.682929992675781250e-01,1.000000000000000000e+00,-3.972911453247070312e+01,3.895555114746093750e+01,3.275505828857421875e+01,1.005312805175781250e+02,9.788399505615234375e+01,-5.890706539154052734e+00,5.500723266601562500e+01,-2.090458106994628906e+01,-9.345405578613281250e+01,-1.180766754150390625e+02,6.585875701904296875e+01,-2.980424880981445312e+01
6.725159883499145508e-01,1.000000000000000000e+00,-3.981201934814453125e+01,3.879092025756835938e+01,3.279952239990234375e+01,1.003824768066406250e+02,9.792301940917968750e+01,-5.937025547027587891e+00,5.500723266601562500e+01,-2.090448951721191406e+01,-9.345405578613281250e+01,-1.180766754150390625e+02,6.585875701904296875e+01,-2.980424880981445312e+01
6.755080223083496094e-01,1.000000000000000000e+00,-3.985355758666992188e+01,3.870825195312500000e+01,3.282154083251953125e+01,1.003078384399414062e+02,9.794328308105468750e+01,-5.959879875183105469e+00,5.500723266601562500e+01,-2.090448951721191406e+01,-9.345405578613281250e+01,-1.180766754150390625e+02,6.585875701904296875e+01,-2.980424880981445312e+01
6.797209978103637695e-01,1.000000000000000000e+00,-3.985355758666992188e+01,3.870825195312500000e+01,3.282154083251953125e+01,1.003078384399414062e+02,9.794328308105468750e+01,-5.959879875183105469e+00,5.500723266601562500e+01,-2.090448951721191406e+01,-9.345405578613281250e+01,-1.180766754150390625e+02,6.585875701904296875e+01,-2.980424880981445312e+01
6.836069822311401367e-01,1.000000000000000000e+00,-3.989480590820312500e+01,3.862569808959960938e+01,3.284354400634765625e+01,1.002337341308593750e+02,9.796279907226562500e+01,-5.981852531433105469e+00,5.500723266601562500e+01,-2.090458106994628906e+01,-9.345405578613281250e+01,-1.180766754150390625e+02,6.585875701904296875e+01,-2.980424880981445312e+01
6.875569820404052734e-01,1.000000000000000000e+00,-3.993646240234375000e+01,3.854319000244140625e+01,3.286552047729492188e+01,1.001587219238281250e+02,9.798135375976562500e+01,-6.003892898559570312e+00,5.500723266601562500e+01,-2.090458106994628906e+01,-9.345405578613281250e+01,-1.180766754150390625e+02,6.585860443115234375e+01,-2.980424880981445312e+01
6.923090219497680664e-01,1.000000000000000000e+00,-3.997791290283203125e+01,3.846126937866210938e+01,3.288782501220703125e+01,1.000845031738281250e+02,9.800022125244140625e+01,-6.026407718658447266e+00,5.500723266601562500e+01,-2.090458106994628906e+01,-9.345405578613281250e+01,-1.180766754150390625e+02,6.585875701904296875e+01,-2.980424880981445312e+01
6.965320110321044922e-01,1.000000000000000000e+00,-4.001948165893554688e+01,3.837953186035156250e+01,3.291008758544921875e+01,1.000092849731445312e+02,9.801931762695312500e+01,-6.049601554870605469e+00,5.500723266601562500e+01,-2.090448951721191406e+01,-9.345405578613281250e+01,-1.180766754150390625e+02,6.585875701904296875e+01,-2.980424880981445312e+01
7.005419731140136719e-01,1.000000000000000000e+00,-4.006082153320312500e+01,3.829765319824218750e+01,3.293212509155273438e+01,9.993475341796875000e+01,9.803882598876953125e+01,-6.072523593902587891e+00,5.500723266601562500e+01,-2.090458106994628906e+01,-9.345405578613281250e+01,-1.180766754150390625e+02,6.585875701904296875e+01,-2.980424880981445312e+01
7.055580019950866699e-01,1.000000000000000000e+00,-4.014407348632812500e+01,3.813286590576171875e+01,3.297634887695312500e+01,9.978510284423828125e+01,9.807843780517578125e+01,-6.118638992309570312e+00,5.500723266601562500e+01,-2.090448951721191406e+01,-9.345405578613281250e+01,-1.180766754150390625e+02,6.585875701904296875e+01,-2.980402946472167969e+01
7.083250284194946289e-01,1.000000000000000000e+00,-4.018569564819335938e+01,3.805022048950195312e+01,3.299867248535156250e+01,9.971009063720703125e+01,9.809854125976562500e+01,-6.141900062561035156e+00,5.500734329223632812e+01,-2.090448951721191406e+01,-9.345405578613281250e+01,-1.180766754150390625e+02,6.585875701904296875e+01,-2.980424880981445312e+01
7.115679979324340820e-01,1.000000000000000000e+00,-4.018569564819335938e+01,3.805022048950195312e+01,3.299867248535156250e+01,9.971009063720703125e+01,9.809854125976562500e+01,-6.141900062561035156e+00,5.500734329223632812e+01,-2.090448951721191406e+01,-9.345405578613281250e+01,-1.180766754150390625e+02,6.585875701904296875e+01,-2.980424880981445312e+01
7.162910103797912598e-01,1.000000000000000000e+00,-4.022726440429687500e+01,3.796723556518554688e+01,3.302108001708984375e+01,9.963497924804687500e+01,9.811795043945312500e+01,-6.164483070373535156e+00,5.500723266601562500e+01,-2.090448951721191406e+01,-9.345405578613281250e+01,-1.180765380859375000e+02,6.585875701904296875e+01,-2.980424880981445312e+01
7.196149826049804688e-01,1.000000000000000000e+00,-4.026906204223632812e+01,3.788407135009765625e+01,3.304330062866210938e+01,9.955971527099609375e+01,9.813655853271484375e+01,-6.186252117156982422e+00,5.500723266601562500e+01,-2.090458106994628906e+01,-9.345405578613281250e+01,-1.180766754150390625e+02,6.585875701904296875e+01,-2.980446624755859375e+01
7.235569953918457031e-01,1.000000000000000000e+00,-4.031062698364257812e+01,3.780144500732421875e+01,3.306521987915039062e+01,9.948528289794921875e+01,9.815547943115234375e+01,-6.208835601806640625e+00,5.500723266601562500e+01,-2.090448951721191406e+01,-9.345405578613281250e+01,-1.180765380859375000e+02,6.585875701904296875e+01,-2.980424880981445312e+01
7.279670238494873047e-01,1.000000000000000000e+00,-4.035233688354492188e+01,3.771909713745117188e+01,3.308739852905273438e+01,9.941037750244140625e+01,9.817462158203125000e+01,-6.231689453125000000e+00,5.500723266601562500e+01,-2.090448951721191406e+01,-9.345405578613281250e+01,-1.180766754150390625e+02,6.585875701904296875e+01,-2.980424880981445312e+01
7.316089868545532227e-01,1.000000000000000000e+00,-4.039402008056640625e+01,3.763672637939453125e+01,3.310968399047851562e+01,9.933484649658203125e+01,9.819408416748046875e+01,-6.254204750061035156e+00,5.500723266601562500e+01,-2.090448951721191406e+01,-9.345405578613281250e+01,-1.180766754150390625e+02,6.585875701904296875e+01,-2.980424880981445312e+01
7.355610132217407227e-01,1.000000000000000000e+00,-4.043595886230468750e+01,3.755435180664062500e+01,3.313223266601562500e+01,9.925994110107421875e+01,9.821428680419921875e+01,-6.278144359588623047e+00,5.500712203979492188e+01,-2.090448951721191406e+01,-9.345405578613281250e+01,-1.180766754150390625e+02,6.585875701904296875e+01,-2.980424880981445312e+01
7.402949929237365723e-01,1.000000000000000000e+00,-4.047769927978515625e+01,3.747179794311523438e+01,3.315451812744140625e+01,9.918504333496093750e+01,9.823449707031250000e+01,-6.301812171936035156e+00,5.500723266601562500e+01,-2.090448951721191406e+01,-9.345405578613281250e+01,-1.180766754150390625e+02,6.585875701904296875e+01,-2.980424880981445312e+01
7.436609864234924316e-01,1.000000000000000000e+00,-4.051952743530273438e+01,3.738879013061523438e+01,3.317651367187500000e+01,9.910977172851562500e+01,9.825405883789062500e+01,-6.325005531311035156e+00,5.500723266601562500e+01,-2.090448951721191406e+01,-9.345405578613281250e+01,-1.180766754150390625e+02,6.585875701904296875e+01,-2.980424880981445312e+01
7.475699782371520996e-01,1.000000000000000000e+00,-4.056152725219726562e+01,3.730544662475585938e+01,3.319863510131835938e+01,9.903386688232421875e+01,9.827304077148437500e+01,-6.347859859466552734e+00,5.500712203979492188e+01,-2.090448951721191406e+01,-9.345405578613281250e+01,-1.180766754150390625e+02,6.585875701904296875e+01,-2.980424880981445312e+01
7.519479990005493164e-01,1.000000000000000000e+00,-4.060361099243164062e+01,3.722182846069335938e+01,3.322104263305664062e+01,9.895843505859375000e+01,9.829207611083984375e+01,-6.369697093963623047e+00,5.500723266601562500e+01,-2.090448951721191406e+01,-9.345405578613281250e+01,-1.180766754150390625e+02,6.585875701904296875e+01,-2.980424880981445312e+01
7.556719779968261719e-01,1.000000000000000000e+00,-4.064554977416992188e+01,3.713836669921875000e+01,3.324354934692382812e+01,9.888306427001953125e+01,9.831116485595703125e+01,-6.392754554748535156e+00,5.500723266601562500e+01,-2.090458106994628906e+01,-9.345405578613281250e+01,-1.180766754150390625e+02,6.585875701904296875e+01,-2.980424880981445312e+01
7.595520019531250000e-01,1.000000000000000000e+00,-4.068766403198242188e+01,3.705511093139648438e+01,3.326601791381835938e+01,9.880805206298828125e+01,9.833073425292968750e+01,-6.416016101837158203e+00,5.500723266601562500e+01,-2.090448951721191406e+01,-9.345405578613281250e+01,-1.180766754150390625e+02,6.585889434814453125e+01,-2.980424880981445312e+01
7.642710208892822266e-01,1.000000000000000000e+00,-4.072957229614257812e+01,3.697233200073242188e+01,3.328840255737304688e+01,9.873257446289062500e+01,9.835067749023437500e+01,-6.439277172088623047e+00,5.500734329223632812e+01,-2.090448951721191406e+01,-9.345405578613281250e+01,-1.180766754150390625e+02,6.585875701904296875e+01,-2.980424880981445312e+01
7.676529884338378906e-01,1.000000000000000000e+00,-4.077168655395507812e+01,3.688986968994140625e+01,3.331052398681640625e+01,9.865719604492187500e+01,9.837135314941406250e+01,-6.462605953216552734e+00,5.500734329223632812e+01,-2.090458106994628906e+01,-9.345405578613281250e+01,-1.180766754150390625e+02,6.585875701904296875e+01,-2.980424880981445312e+01
7.716000080108642578e-01,1.000000000000000000e+00,-4.081365585327148438e+01,3.680713653564453125e+01,3.333290863037109375e+01,9.858129119873046875e+01,9.839157104492187500e+01,-6.486138343811035156e+00,5.500723266601562500e+01,-2.090448951721191406e+01,-9.345405578613281250e+01,-1.180766754150390625e+02,6.585875701904296875e+01,-2.980424880981445312e+01
7.764660120010375977e-01,1.000000000000000000e+00,-4.085588455200195312e+01,3.672399139404296875e+01,3.335531616210937500e+01,9.850649261474609375e+01,9.841102600097656250e+01,-6.509467601776123047e+00,5.500712203979492188e+01,-2.090448951721191406e+01,-9.345405578613281250e+01,-1.180766754150390625e+02,6.585875701904296875e+01,-2.980424880981445312e+01
7.797359824180603027e-01,1.000000000000000000e+00,-4.089817047119140625e+01,3.664044570922851562e+01,3.337769699096679688e+01,9.843032836914062500e+01,9.842995452880859375e+01,-6.531914710998535156e+00,5.500723266601562500e+01,-2.090448951721191406e+01,-9.345405578613281250e+01,-1.180766754150390625e+02,6.585875701904296875e+01,-2.980446624755859375e+01
7.836380004882812500e-01,1.000000000000000000e+00,-4.094042587280273438e+01,3.655685043334960938e+01,3.340016555786132812e+01,9.835531616210937500e+01,9.844904327392578125e+01,-6.554633140563964844e+00,5.500723266601562500e+01,-2.090448951721191406e+01,-9.345405578613281250e+01,-1.180766754150390625e+02,6.585875701904296875e+01,-2.980424880981445312e+01
7.883350253105163574e-01,1.000000000000000000e+00,-4.098251342773437500e+01,3.647298049926757812e+01,3.342250823974609375e+01,9.827894592285156250e+01,9.846844482421875000e+01,-6.577555656433105469e+00,5.500723266601562500e+01,-2.090458106994628906e+01,-9.345405578613281250e+01,-1.180766754150390625e+02,6.585875701904296875e+01,-2.980424880981445312e+01
7.918319702148437500e-01,1.000000000000000000e+00,-4.102453613281250000e+01,3.638904571533203125e+01,3.344517898559570312e+01,9.820351409912109375e+01,9.848854827880859375e+01,-6.600680828094482422e+00,5.500723266601562500e+01,-2.090458106994628906e+01,-9.345405578613281250e+01,-1.180766754150390625e+02,6.585875701904296875e+01,-2.980424880981445312e+01
7.958440184593200684e-01,1.000000000000000000e+00,-4.106665039062500000e+01,3.630554199218750000e+01,3.346788787841796875e+01,9.812718963623046875e+01,9.850897216796875000e+01,-6.624077796936035156e+00,5.500723266601562500e+01,-2.090448951721191406e+01,-9.345405578613281250e+01,-1.180766754150390625e+02,6.585875701904296875e+01,-2.980424880981445312e+01
8.002480268478393555e-01,1.000000000000000000e+00,-4.110896301269531250e+01,3.622244644165039062e+01,3.349029541015625000e+01,9.805159759521484375e+01,9.852960205078125000e+01,-6.647813796997070312e+00,5.500723266601562500e+01,-2.090458106994628906e+01,-9.345405578613281250e+01,-1.180766754150390625e+02,6.585875701904296875e+01,-2.980424880981445312e+01
8.039289712905883789e-01,1.000000000000000000e+00,-4.115107727050781250e+01,3.613919067382812500e+01,3.351266098022460938e+01,9.797563934326171875e+01,9.854922485351562500e+01,-6.671888351440429688e+00,5.500723266601562500e+01,-2.090448951721191406e+01,-9.345405578613281250e+01,-1.180766754150390625e+02,6.585875701904296875e+01,-2.980446624755859375e+01
8.077840209007263184e-01,1.000000000000000000e+00,-4.119330596923828125e+01,3.605613708496093750e+01,3.353496551513671875e+01,9.789984893798828125e+01,9.856846618652343750e+01,-6.695488929748535156e+00,5.500723266601562500e+01,-2.090448951721191406e+01,-9.345405578613281250e+01,-1.180766754150390625e+02,6.585875701904296875e+01,-2.980424880981445312e+01
8.124819993972778320e-01,1.000000000000000000e+00,-4.123544692993164062e+01,3.597270202636718750e+01,3.355744934082031250e+01,9.782389068603515625e+01,9.858771514892578125e+01,-6.718343257904052734e+00,5.500723266601562500e+01,-2.090448951721191406e+01,-9.345405578613281250e+01,-1.180766754150390625e+02,6.585889434814453125e+01,-2.980424880981445312e+01
8.160279989242553711e-01,1.000000000000000000e+00,-4.127753067016601562e+01,3.588876724243164062e+01,3.358024215698242188e+01,9.774798583984375000e+01,9.860733795166015625e+01,-6.740994453430175781e+00,5.500734329223632812e+01,-2.090448951721191406e+01,-9.345405578613281250e+01,-1.180766754150390625e+02,6.585875701904296875e+01,-2.980424880981445312e+01
8.199089765548706055e-01,1.000000000000000000e+00,-4.131949996948242188e+01,3.580460739135742188e+01,3.360287475585937500e+01,9.767198181152343750e+01,9.862722015380859375e+01,-6.763848304748535156e+00,5.500723266601562500e+01,-2.090448951721191406e+01,-9.345405578613281250e+01,-1.180766754150390625e+02,6.585875701904296875e+01,-2.980446624755859375e+01
8.244879841804504395e-01,1.000000000000000000e+00,-4.136169815063476562e+01,3.572021865844726562e+01,3.362552261352539062e+01,9.759576416015625000e+01,9.864775085449218750e+01,-6.787109375000000000e+00,5.500723266601562500e+01,-2.090448951721191406e+01,-9.345405578613281250e+01,-1.180766754150390625e+02,6.585875701904296875e+01,-2.980402946472167969e+01
8.280839920043945312e-01,1.000000000000000000e+00,-4.140398406982421875e+01,3.563583374023437500e+01,3.364802932739257812e+01,9.751985931396484375e+01,9.866833496093750000e+01,-6.810506343841552734e+00,5.500723266601562500e+01,-2.090458106994628906e+01,-9.345405578613281250e+01,-1.180766754150390625e+02,6.585889434814453125e+01,-2.980424880981445312e+01
8.319799900054931641e-01,1.000000000000000000e+00,-4.144606781005859375e+01,3.555185317993164062e+01,3.367061996459960938e+01,9.744352722167968750e+01,9.868848419189453125e+01,-6.834445953369140625e+00,5.500723266601562500e+01,-2.090448951721191406e+01,-9.345405578613281250e+01,-1.180766754150390625e+02,6.585875701904296875e+01,-2.980446624755859375e+01
8.345720171928405762e-01,1.000000000000000000e+00,-4.148803710937500000e+01,3.546830368041992188e+01,3.369335174560546875e+01,9.736746978759765625e+01,9.870793914794921875e+01,-6.858249187469482422e+00,5.500723266601562500e+01,-2.090448951721191406e+01,-9.345405578613281250e+01,-1.180766754150390625e+02,6.585875701904296875e+01,-2.980424880981445312e+01
8.401110172271728516e-01,1.000000000000000000e+00,-4.153006362915039062e+01,3.538486862182617188e+01,3.371577453613281250e+01,9.729082489013671875e+01,9.872687530517578125e+01,-6.882052898406982422e+00,5.500723266601562500e+01,-2.090458106994628906e+01,-9.345405578613281250e+01,-1.180766754150390625e+02,6.585889434814453125e+01,-2.980424880981445312e+01
8.440979719161987305e-01,1.000000000000000000e+00,-4.157231903076171875e+01,3.530120468139648438e+01,3.373820114135742188e+01,9.721466064453125000e+01,9.874611663818359375e+01,-6.904771804809570312e+00,5.500723266601562500e+01,-2.090458106994628906e+01,-9.345405578613281250e+01,-1.180766754150390625e+02,6.585875701904296875e+01,-2.980424880981445312e+01
8.487460017204284668e-01,1.000000000000000000e+00,-4.161452102661132812e+01,3.521690750122070312e+01,3.376082992553710938e+01,9.713765716552734375e+01,9.876584625244140625e+01,-6.927422523498535156e+00,5.500734329223632812e+01,-2.090448951721191406e+01,-9.345405578613281250e+01,-1.180766754150390625e+02,6.585875701904296875e+01,-2.980424880981445312e+01
8.522359728813171387e-01,1.000000000000000000e+00,-4.165674591064453125e+01,3.513254165649414062e+01,3.378350067138671875e+01,9.706153869628906250e+01,9.878636932373046875e+01,-6.950412750244140625e+00,5.500723266601562500e+01,-2.090458106994628906e+01,-9.345405578613281250e+01,-1.180766754150390625e+02,6.585875701904296875e+01,-2.980424880981445312e+01
8.562740087509155273e-01,1.000000000000000000e+00,-4.169900131225585938e+01,3.504797363281250000e+01,3.380633163452148438e+01,9.698495483398437500e+01,9.880695343017578125e+01,-6.973470211029052734e+00,5.500723266601562500e+01,-2.090448951721191406e+01,-9.345405578613281250e+01,-1.180766754150390625e+02,6.585875701904296875e+01,-2.980424880981445312e+01
8.620880246162414551e-01,1.000000000000000000e+00,-4.174128723144531250e+01,3.496304702758789062e+01,3.382902145385742188e+01,9.690883636474609375e+01,9.882747650146484375e+01,-6.997545242309570312e+00,5.500723266601562500e+01,-2.090458106994628906e+01,-9.345405578613281250e+01,-1.180765380859375000e+02,6.585875701904296875e+01,-2.980424880981445312e+01
8.647729754447937012e-01,1.000000000000000000e+00,-4.182614517211914062e+01,3.479397964477539062e+01,3.387413787841796875e+01,9.675566101074218750e+01,9.886602783203125000e+01,-7.044881343841552734e+00,5.500734329223632812e+01,-2.090458106994628906e+01,-9.345405578613281250e+01,-1.180766754150390625e+02,6.585875701904296875e+01,-2.980424880981445312e+01
8.683249950408935547e-01,1.000000000000000000e+00,-4.182614517211914062e+01,3.479397964477539062e+01,3.387413787841796875e+01,9.675566101074218750e+01,9.886602783203125000e+01,-7.044881343841552734e+00,5.500734329223632812e+01,-2.090458106994628906e+01,-9.345405578613281250e+01,-1.180766754150390625e+02,6.585875701904296875e+01,-2.980424880981445312e+01
8.723989725112915039e-01,1.000000000000000000e+00,-4.186865997314453125e+01,3.470988464355468750e+01,3.389678955078125000e+01,9.667886352539062500e+01,9.888569641113281250e+01,-7.068481922149658203e+00,5.500723266601562500e+01,-2.090448951721191406e+01,-9.345405578613281250e+01,-1.180766754150390625e+02,6.585875701904296875e+01,-2.980446624755859375e+01
8.766090273857116699e-01,1.000000000000000000e+00,-4.191125869750976562e+01,3.462561035156250000e+01,3.391951751708984375e+01,9.660233306884765625e+01,9.890553283691406250e+01,-7.091539382934570312e+00,5.500723266601562500e+01,-2.090458106994628906e+01,-9.345405578613281250e+01,-1.180766754150390625e+02,6.585875701904296875e+01,-2.980424880981445312e+01
8.803880214691162109e-01,1.000000000000000000e+00,-4.195392227172851562e+01,3.454140472412109375e+01,3.394233322143554688e+01,9.652516174316406250e+01,9.892563629150390625e+01,-7.114326000213623047e+00,5.500723266601562500e+01,-2.090448951721191406e+01,-9.345405578613281250e+01,-1.180766754150390625e+02,6.585889434814453125e+01,-2.980424880981445312e+01
8.850409984588623047e-01,1.000000000000000000e+00,-4.199672317504882812e+01,3.445692825317382812e+01,3.396506118774414062e+01,9.644831085205078125e+01,9.894647979736328125e+01,-7.137519359588623047e+00,5.500712203979492188e+01,-2.090448951721191406e+01,-9.345405578613281250e+01,-1.180766754150390625e+02,6.585889434814453125e+01,-2.980424880981445312e+01
8.885930180549621582e-01,1.000000000000000000e+00,-4.203952407836914062e+01,3.437206268310546875e+01,3.398777389526367188e+01,9.637113952636718750e+01,9.896727752685546875e+01,-7.160915851593017578e+00,5.500723266601562500e+01,-2.090448951721191406e+01,-9.345405578613281250e+01,-1.180766754150390625e+02,6.585875701904296875e+01,-2.980424880981445312e+01
8.924800157546997070e-01,1.000000000000000000e+00,-4.208241271972656250e+01,3.428670501708984375e+01,3.401068878173828125e+01,9.629439544677734375e+01,9.898742675781250000e+01,-7.184855461120605469e+00,5.500723266601562500e+01,-2.090448951721191406e+01,-9.345405578613281250e+01,-1.180766754150390625e+02,6.585875701904296875e+01,-2.980424880981445312e+01
8.965590000152587891e-01,1.000000000000000000e+00,-4.212532806396484375e+01,3.420141601562500000e+01,3.403342056274414062e+01,9.621743774414062500e+01,9.900630187988281250e+01,-7.208862781524658203e+00,5.500723266601562500e+01,-2.090448951721191406e+01,-9.345405578613281250e+01,-1.180766754150390625e+02,6.585875701904296875e+01,-2.980424880981445312e+01
9.006569981575012207e-01,1.000000000000000000e+00,-4.216835784912109375e+01,3.411618804931640625e+01,3.405623245239257812e+01,9.614043426513671875e+01,9.902559661865234375e+01,-7.232531070709228516e+00,5.500723266601562500e+01,-2.090448951721191406e+01,-9.345405578613281250e+01,-1.180766754150390625e+02,6.585860443115234375e+01,-2.980424880981445312e+01
9.045600295066833496e-01,1.000000000000000000e+00,-4.221130371093750000e+01,3.403143692016601562e+01,3.407898330688476562e+01,9.606320953369140625e+01,9.904537963867187500e+01,-7.256062507629394531e+00,5.500723266601562500e+01,-2.090448951721191406e+01,-9.345405578613281250e+01,-1.180766754150390625e+02,6.585875701904296875e+01,-2.980424880981445312e+01
9.091259837150573730e-01,1.000000000000000000e+00,-4.225442123413085938e+01,3.394718933105468750e+01,3.410187530517578125e+01,9.598630523681640625e+01,9.906532287597656250e+01,-7.279188632965087891e+00,5.500723266601562500e+01,-2.090448951721191406e+01,-9.345405578613281250e+01,-1.180766754150390625e+02,6.585875701904296875e+01,-2.980424880981445312e+01
9.128460288047790527e-01,1.000000000000000000e+00,-4.229762649536132812e+01,3.386284637451171875e+01,3.412497329711914062e+01,9.590918731689453125e+01,9.908611297607421875e+01,-7.301839351654052734e+00,5.500723266601562500e+01,-2.090448951721191406e+01,-9.345405578613281250e+01,-1.180766754150390625e+02,6.585875701904296875e+01,-2.980424880981445312e+01
9.167709946632385254e-01,1.000000000000000000e+00,-4.234091567993164062e+01,3.377827835083007812e+01,3.414774703979492188e+01,9.583180999755859375e+01,9.910690307617187500e+01,-7.324897289276123047e+00,5.500712203979492188e+01,-2.090448951721191406e+01,-9.345405578613281250e+01,-1.180766754150390625e+02,6.585875701904296875e+01,-2.980424880981445312e+01
9.208040237426757812e-01,1.000000000000000000e+00,-4.238397598266601562e+01,3.369316482543945312e+01,3.417051696777343750e+01,9.575485229492187500e+01,9.912717437744140625e+01,-7.348429679870605469e+00,5.500723266601562500e+01,-2.090448951721191406e+01,-9.345405578613281250e+01,-1.180766754150390625e+02,6.585875701904296875e+01,-2.980424880981445312e+01
9.248759746551513672e-01,1.000000000000000000e+00,-4.242732620239257812e+01,3.360794448852539062e+01,3.419334793090820312e+01,9.567758178710937500e+01,9.914657592773437500e+01,-7.372301578521728516e+00,5.500723266601562500e+01,-2.090458106994628906e+01,-9.345405578613281250e+01,-1.180766754150390625e+02,6.585875701904296875e+01,-2.980424880981445312e+01
9.285770058631896973e-01,1.000000000000000000e+00,-4.247052764892578125e+01,3.352235794067382812e+01,3.421626281738281250e+01,9.559946441650390625e+01,9.916593170166015625e+01,-7.396512031555175781e+00,5.500723266601562500e+01,-2.090448951721191406e+01,-9.345405578613281250e+01,-1.180766754150390625e+02,6.585875701904296875e+01,-2.980424880981445312e+01
9.332939982414245605e-01,1.000000000000000000e+00,-4.251381683349609375e+01,3.343674850463867188e+01,3.423946380615234375e+01,9.552193450927734375e+01,9.918581390380859375e+01,-7.420722484588623047e+00,5.500723266601562500e+01,-2.090448951721191406e+01,-9.345405578613281250e+01,-1.180766754150390625e+02,6.585875701904296875e+01,-2.980424880981445312e+01
9.369279742240905762e-01,1.000000000000000000e+00,-4.255702209472656250e+01,3.335145568847656250e+01,3.426233673095703125e+01,9.544476318359375000e+01,9.920618438720703125e+01,-7.444118976593017578e+00,5.500734329223632812e+01,-2.090448951721191406e+01,-9.345405578613281250e+01,-1.180766754150390625e+02,6.585875701904296875e+01,-2.980424880981445312e+01
9.394999742507934570e-01,1.000000000000000000e+00,-4.260036849975585938e+01,3.326654815673828125e+01,3.428533172607421875e+01,9.536733245849609375e+01,9.922670745849609375e+01,-7.467380046844482422e+00,5.500734329223632812e+01,-2.090448951721191406e+01,-9.345405578613281250e+01,-1.180766754150390625e+02,6.585875701904296875e+01,-2.980424880981445312e+01
9.435430169105529785e-01,1.000000000000000000e+00,-4.264357376098632812e+01,3.318152618408203125e+01,3.430820465087890625e+01,9.528974914550781250e+01,9.924771881103515625e+01,-7.490641117095947266e+00,5.500723266601562500e+01,-2.090448951721191406e+01,-9.345405578613281250e+01,-1.180766754150390625e+02,6.585875701904296875e+01,-2.980424880981445312e+01
9.488369822502136230e-01,1.000000000000000000e+00,-4.268663406372070312e+01,3.309655380249023438e+01,3.433119964599609375e+01,9.521236419677734375e+01,9.926829528808593750e+01,-7.514106273651123047e+00,5.500723266601562500e+01,-2.090448951721191406e+01,-9.345405578613281250e+01,-1.180766754150390625e+02,6.585875701904296875e+01,-2.980424880981445312e+01
9.515140056610107422e-01,1.000000000000000000e+00,-4.272977828979492188e+01,3.301130676269531250e+01,3.435429382324218750e+01,9.513446044921875000e+01,9.928818511962890625e+01,-7.537909507751464844e+00,5.500723266601562500e+01,-2.090448951721191406e+01,-9.345405578613281250e+01,-1.180766754150390625e+02,6.585875701904296875e+01,-2.980446624755859375e+01
9.554949998855590820e-01,1.000000000000000000e+00,-4.277301025390625000e+01,3.292553710937500000e+01,3.437720870971679688e+01,9.505755615234375000e+01,9.930774688720703125e+01,-7.561577796936035156e+00,5.500712203979492188e+01,-2.090448951721191406e+01,-9.345405578613281250e+01,-1.180766754150390625e+02,6.585875701904296875e+01,-2.980424880981445312e+01
9.612140059471130371e-01,1.000000000000000000e+00,-4.281624221801757812e+01,3.283963394165039062e+01,3.439998245239257812e+01,9.497933197021484375e+01,9.932699584960937500e+01,-7.585924148559570312e+00,5.500712203979492188e+01,-2.090448951721191406e+01,-9.345405578613281250e+01,-1.180766754150390625e+02,6.585875701904296875e+01,-2.980424880981445312e+01
9.634950160980224609e-01,1.000000000000000000e+00,-4.285939025878906250e+01,3.275323486328125000e+01,3.442305755615234375e+01,9.490200805664062500e+01,9.934720611572265625e+01,-7.610609054565429688e+00,5.500723266601562500e+01,-2.090448951721191406e+01,-9.345405578613281250e+01,-1.180766754150390625e+02,6.585875701904296875e+01,-2.980424880981445312e+01
9.675719738006591797e-01,1.000000000000000000e+00,-4.290259552001953125e+01,3.266690063476562500e+01,3.444629669189453125e+01,9.482363128662109375e+01,9.936789703369140625e+01,-7.633802890777587891e+00,5.500734329223632812e+01,-2.090448951721191406e+01,-9.345422363281250000e+01,-1.180766754150390625e+02,6.585875701904296875e+01,-2.980424880981445312e+01
9.715120196342468262e-01,1.000000000000000000e+00,-4.294596862792968750e+01,3.258081436157226562e+01,3.446949768066406250e+01,9.474625396728515625e+01,9.938883972167968750e+01,-7.656656742095947266e+00,5.500712203979492188e+01,-2.090448951721191406e+01,-9.345405578613281250e+01,-1.180766754150390625e+02,6.585875701904296875e+01,-2.980424880981445312e+01
9.754970073699951172e-01,1.000000000000000000e+00,-4.298914718627929688e+01,3.249518585205078125e+01,3.449259185791015625e+01,9.466755676269531250e+01,9.940963745117187500e+01,-7.680189132690429688e+00,5.500723266601562500e+01,-2.090448951721191406e+01,-9.345405578613281250e+01,-1.180766754150390625e+02,6.585875701904296875e+01,-2.980424880981445312e+01
9.796050190925598145e-01,1.000000000000000000e+00,-4.303235244750976562e+01,3.240987014770507812e+01,3.451542663574218750e+01,9.458986663818359375e+01,9.942973327636718750e+01,-7.703993320465087891e+00,5.500712203979492188e+01,-2.090458106994628906e+01,-9.345405578613281250e+01,-1.180765380859375000e+02,6.585875701904296875e+01,-2.980424880981445312e+01
9.852669835090637207e-01,1.000000000000000000e+00,-4.307566833496093750e+01,3.232423782348632812e+01,3.453823852539062500e+01,9.451180267333984375e+01,9.944903564453125000e+01,-7.728067874908447266e+00,5.500723266601562500e+01,-2.090458106994628906e+01,-9.345405578613281250e+01,-1.180766754150390625e+02,6.585875701904296875e+01,-2.980424880981445312e+01
9.875040054321289062e-01,1.000000000000000000e+00,-4.311893081665039062e+01,3.223828887939453125e+01,3.456137466430664062e+01,9.443399810791015625e+01,9.946881866455078125e+01,-7.752075195312500000e+00,5.500723266601562500e+01,-2.090448951721191406e+01,-9.345405578613281250e+01,-1.180766754150390625e+02,6.585875701904296875e+01,-2.980424880981445312e+01
9.915570020675659180e-01,1.000000000000000000e+00,-4.316218948364257812e+01,3.215220260620117188e+01,3.458451461791992188e+01,9.435609436035156250e+01,9.948892211914062500e+01,-7.776489734649658203e+00,5.500723266601562500e+01,-2.090448951721191406e+01,-9.345405578613281250e+01,-1.180766754150390625e+02,6.585875701904296875e+01,-2.980424880981445312e+01
9.955480098724365234e-01,1.000000000000000000e+00,-4.320542526245117188e+01,3.206564331054687500e+01,3.460783386230468750e+01,9.427787780761718750e+01,9.950939941406250000e+01,-7.801039218902587891e+00,5.500723266601562500e+01,-2.090448951721191406e+01,-9.345405578613281250e+01,-1.180766754150390625e+02,6.585875701904296875e+01,-2.980424880981445312e+01
9.984989762306213379e-01,1.000000000000000000e+00,-4.324874114990234375e+01,3.197867965698242188e+01,3.463099288940429688e+01,9.419986724853515625e+01,9.953050994873046875e+01,-7.824842453002929688e+00,5.500723266601562500e+01,-2.090458106994628906e+01,-9.345405578613281250e+01,-1.180766754150390625e+02,6.585875701904296875e+01,-2.980424880981445312e+01
1.003600001335144043e+00,1.000000000000000000e+00,-4.324874114990234375e+01,3.197867965698242188e+01,3.463099288940429688e+01,9.419986724853515625e+01,9.953050994873046875e+01,-7.824842453002929688e+00,5.500723266601562500e+01,-2.090458106994628906e+01,-9.345405578613281250e+01,-1.180766754150390625e+02,6.585875701904296875e+01,-2.980424880981445312e+01
1.007719039916992188e+00,1.000000000000000000e+00,-4.333554840087890625e+01,3.180601310729980469e+01,3.467744827270507812e+01,9.404353332519531250e+01,9.957204437255859375e+01,-7.871500968933105469e+00,5.500723266601562500e+01,-2.090458106994628906e+01,-9.345405578613281250e+01,-1.180766754150390625e+02,6.585875701904296875e+01,-2.980424880981445312e+01
1.010493993759155273e+00,1.000000000000000000e+00,-4.337903976440429688e+01,3.172013282775878906e+01,3.470060729980468750e+01,9.396509552001953125e+01,9.959155273437500000e+01,-7.895576000213623047e+00,5.500723266601562500e+01,-2.090458106994628906e+01,-9.345405578613281250e+01,-1.180765380859375000e+02,6.585875701904296875e+01,-2.980424880981445312e+01
1.015622019767761230e+00,1.000000000000000000e+00,-4.337903976440429688e+01,3.172013282775878906e+01,3.470060729980468750e+01,9.396509552001953125e+01,9.959155273437500000e+01,-7.895576000213623047e+00,5.500723266601562500e+01,-2.090458106994628906e+01,-9.345405578613281250e+01,-1.180765380859375000e+02,6.585875701904296875e+01,-2.980424880981445312e+01
1.018571972846984863e+00,1.000000000000000000e+00,-4.346653747558593750e+01,3.154835128784179688e+01,3.474682235717773438e+01,9.380750274658203125e+01,9.963106536865234375e+01,-7.944200992584228516e+00,5.500734329223632812e+01,-2.090458106994628906e+01,-9.345405578613281250e+01,-1.180766754150390625e+02,6.585875701904296875e+01,-2.980424880981445312e+01
1.023543953895568848e+00,1.000000000000000000e+00,-4.346653747558593750e+01,3.154835128784179688e+01,3.474682235717773438e+01,9.380750274658203125e+01,9.963106536865234375e+01,-7.944200992584228516e+00,5.500734329223632812e+01,-2.090458106994628906e+01,-9.345405578613281250e+01,-1.180766754150390625e+02,6.585875701904296875e+01,-2.980424880981445312e+01
1.027580976486206055e+00,1.000000000000000000e+00,-4.355421066284179688e+01,3.137532043457031250e+01,3.479356384277343750e+01,9.365089416503906250e+01,9.967237854003906250e+01,-7.992757320404052734e+00,5.500712203979492188e+01,-2.090448951721191406e+01,-9.345405578613281250e+01,-1.180766754150390625e+02,6.585875701904296875e+01,-2.980424880981445312e+01
1.033758044242858887e+00,1.000000000000000000e+00,-4.359784698486328125e+01,3.128826332092285156e+01,3.481694412231445312e+01,9.357204437255859375e+01,9.969359588623046875e+01,-8.016695976257324219e+00,5.500734329223632812e+01,-2.090458106994628906e+01,-9.345405578613281250e+01,-1.180766754150390625e+02,6.585875701904296875e+01,-2.980424880981445312e+01
1.035490036010742188e+00,1.000000000000000000e+00,-4.364173507690429688e+01,3.120109367370605469e+01,3.484022521972656250e+01,9.349345397949218750e+01,9.971401977539062500e+01,-8.040093421936035156e+00,5.500723266601562500e+01,-2.090458106994628906e+01,-9.345405578613281250e+01,-1.180766754150390625e+02,6.585875701904296875e+01,-2.980424880981445312e+01
1.039494037628173828e+00,1.000000000000000000e+00,-4.368568801879882812e+01,3.111403656005859375e+01,3.486344528198242188e+01,9.341471099853515625e+01,9.973374938964843750e+01,-8.063422203063964844e+00,5.500723266601562500e+01,-2.090458106994628906e+01,-9.345405578613281250e+01,-1.180766754150390625e+02,6.585875701904296875e+01,-2.980446624755859375e+01
1.043576955795288086e+00,1.000000000000000000e+00,-4.372966384887695312e+01,3.102763366699218750e+01,3.488666534423828125e+01,9.333654022216796875e+01,9.975368499755859375e+01,-8.087294578552246094e+00,5.500723266601562500e+01,-2.090448951721191406e+01,-9.345405578613281250e+01,-1.180766754150390625e+02,6.585875701904296875e+01,-2.980424880981445312e+01
1.047495961189270020e+00,1.000000000000000000e+00,-4.377373123168945312e+01,3.094146156311035156e+01,3.491014480590820312e+01,9.325752258300781250e+01,9.977378845214843750e+01,-8.111911773681640625e+00,5.500723266601562500e+01,-2.090448951721191406e+01,-9.345405578613281250e+01,-1.180766754150390625e+02,6.585875701904296875e+01,-2.980424880981445312e+01
1.051512956619262695e+00,1.000000000000000000e+00,-4.381771087646484375e+01,3.085521507263183594e+01,3.493352890014648438e+01,9.317903900146484375e+01,9.979436492919921875e+01,-8.136461257934570312e+00,5.500723266601562500e+01,-2.090448951721191406e+01,-9.345405578613281250e+01,-1.180766754150390625e+02,6.585875701904296875e+01,-2.980424880981445312e+01
1.055560946464538574e+00,1.000000000000000000e+00,-4.386171722412109375e+01,3.076852035522460938e+01,3.495686721801757812e+01,9.309960937500000000e+01,9.981537628173828125e+01,-8.160943031311035156e+00,5.500723266601562500e+01,-2.090448951721191406e+01,-9.345405578613281250e+01,-1.180766754150390625e+02,6.585875701904296875e+01,-2.980424880981445312e+01
1.059602975845336914e+00,1.000000000000000000e+00,-4.390589904785156250e+01,3.068157958984375000e+01,3.498016738891601562e+01,9.302091217041015625e+01,9.983680725097656250e+01,-8.185220718383789062e+00,5.500723266601562500e+01,-2.090448951721191406e+01,-9.345405578613281250e+01,-1.180766754150390625e+02,6.585875701904296875e+01,-2.980424880981445312e+01
1.063547968864440918e+00,1.000000000000000000e+00,-4.395001983642578125e+01,3.059417915344238281e+01,3.500359344482421875e+01,9.294142913818359375e+01,9.985749816894531250e+01,-8.208753585815429688e+00,5.500723266601562500e+01,-2.090458106994628906e+01,-9.345405578613281250e+01,-1.180766754150390625e+02,6.585875701904296875e+01,-2.980424880981445312e+01
1.069905996322631836e+00,1.000000000000000000e+00,-4.399411392211914062e+01,3.050649070739746094e+01,3.502709579467773438e+01,9.286263275146484375e+01,9.987732696533203125e+01,-8.232150077819824219e+00,5.500712203979492188e+01,-2.090448951721191406e+01,-9.345405578613281250e+01,-1.180766754150390625e+02,6.585875701904296875e+01,-2.980424880981445312e+01
1.071514964103698730e+00,1.000000000000000000e+00,-4.403823471069335938e+01,3.041884613037109375e+01,3.505047607421875000e+01,9.278330230712890625e+01,9.989700317382812500e+01,-8.256157875061035156e+00,5.500723266601562500e+01,-2.090448951721191406e+01,-9.345405578613281250e+01,-1.180766754150390625e+02,6.585875701904296875e+01,-2.980424880981445312e+01
1.076552033424377441e+00,1.000000000000000000e+00,-4.403823471069335938e+01,3.041884613037109375e+01,3.505047607421875000e+01,9.278330230712890625e+01,9.989700317382812500e+01,-8.256157875061035156e+00,5.500723266601562500e+01,-2.090458106994628906e+01,-9.345405578613281250e+01,-1.180766754150390625e+02,6.585875701904296875e+01,-2.980424880981445312e+01
1.082453012466430664e+00,1.000000000000000000e+00,-4.417026138305664062e+01,3.015785408020019531e+01,3.512076568603515625e+01,9.254600524902343750e+01,9.995864105224609375e+01,-8.329535484313964844e+00,5.500723266601562500e+01,-2.090458106994628906e+01,-9.345405578613281250e+01,-1.180766754150390625e+02,6.585875701904296875e+01,-2.980424880981445312e+01
1.083850979804992676e+00,1.000000000000000000e+00,-4.417026138305664062e+01,3.015785408020019531e+01,3.512076568603515625e+01,9.254600524902343750e+01,9.995864105224609375e+01,-8.329535484313964844e+00,5.500723266601562500e+01,-2.090458106994628906e+01,-9.345405578613281250e+01,-1.180766754150390625e+02,6.585875701904296875e+01,-2.980424880981445312e+01
1.086496949195861816e+00,1.000000000000000000e+00,-4.421435165405273438e+01,3.007100105285644531e+01,3.514424514770507812e+01,9.246673583984375000e+01,9.998001861572265625e+01,-8.354289054870605469e+00,5.500723266601562500e+01,-2.090458106994628906e+01,-9.345405578613281250e+01,-1.180766754150390625e+02,6.585875701904296875e+01,-2.980446624755859375e+01
1.091617941856384277e+00,1.000000000000000000e+00,-4.421435165405273438e+01,3.007100105285644531e+01,3.514424514770507812e+01,9.246673583984375000e+01,9.998001861572265625e+01,-8.354289054870605469e+00,5.500723266601562500e+01,-2.090458106994628906e+01,-9.345405578613281250e+01,-1.180766754150390625e+02,6.585875701904296875e+01,-2.980446624755859375e+01
1.096505999565124512e+00,1.000000000000000000e+00,-4.425830078125000000e+01,2.998366928100585938e+01,3.516775131225585938e+01,9.238708496093750000e+01,1.000010223388671875e+02,-8.378092765808105469e+00,5.500723266601562500e+01,-2.090458106994628906e+01,-9.345405578613281250e+01,-1.180765380859375000e+02,6.585875701904296875e+01,-2.980424880981445312e+01
1.099493026733398438e+00,1.000000000000000000e+00,-4.434626007080078125e+01,2.980779266357421875e+01,3.521451187133789062e+01,9.222843170166015625e+01,1.000406875610351562e+02,-8.425361633300781250e+00,5.500723266601562500e+01,-2.090448951721191406e+01,-9.345422363281250000e+01,-1.180766754150390625e+02,6.585875701904296875e+01,-2.980446624755859375e+01
1.104313969612121582e+00,1.000000000000000000e+00,-4.434626007080078125e+01,2.980779266357421875e+01,3.521451187133789062e+01,9.222843170166015625e+01,1.000406875610351562e+02,-8.425361633300781250e+00,5.500723266601562500e+01,-2.090448951721191406e+01,-9.345422363281250000e+01,-1.180766754150390625e+02,6.585875701904296875e+01,-2.980446624755859375e+01
1.107496976852416992e+00,1.000000000000000000e+00,-4.443430328369140625e+01,2.963175201416015625e+01,3.526172256469726562e+01,9.206883239746093750e+01,1.000818481445312500e+02,-8.473714828491210938e+00,5.500712203979492188e+01,-2.090448951721191406e+01,-9.345405578613281250e+01,-1.180765380859375000e+02,6.585889434814453125e+01,-2.980424880981445312e+01
1.111541986465454102e+00,1.000000000000000000e+00,-4.443430328369140625e+01,2.963175201416015625e+01,3.526172256469726562e+01,9.206883239746093750e+01,1.000818481445312500e+02,-8.473714828491210938e+00,5.500712203979492188e+01,-2.090448951721191406e+01,-9.345405578613281250e+01,-1.180765380859375000e+02,6.585889434814453125e+01,-2.980424880981445312e+01
