rpiRobotics/ARM-21-02-F-19-Robot-Motion-Program/data_performance_abb/curve_1/curve_pose_opt1/greedy0.02/grad_result/real_from_sim/run_4.csv
timestamp,cmd_num,J1,J2,J3,J4,J5,J6
1.420000044163316488e-04,-1.000000000000000000e+00,-3.445139312744140625e+01,4.940634155273437500e+01,2.994034194946289062e+01,1.100327301025390625e+02,9.541983032226562500e+01,-2.992486000061035156e+00,5.500712203979492188e+01,-2.090458106994628906e+01,-9.345405578613281250e+01,-1.180766754150390625e+02,6.585875701904296875e+01,-2.980424880981445312e+01
4.621000029146671295e-03,1.000000000000000000e+00,-3.445148086547851562e+01,4.940636444091796875e+01,2.994030189514160156e+01,1.100326309204101562e+02,9.541983032226562500e+01,-2.992486000061035156e+00,5.500723266601562500e+01,-2.090458106994628906e+01,-9.345405578613281250e+01,-1.180766754150390625e+02,6.585875701904296875e+01,-2.980424880981445312e+01
8.241999894380569458e-03,1.000000000000000000e+00,-3.445148086547851562e+01,4.940632247924804688e+01,2.994030189514160156e+01,1.100326309204101562e+02,9.541983032226562500e+01,-2.992486000061035156e+00,5.500723266601562500e+01,-2.090458106994628906e+01,-9.345405578613281250e+01,-1.180766754150390625e+02,6.585875701904296875e+01,-2.980424880981445312e+01
1.467300020158290863e-02,1.000000000000000000e+00,-3.445139312744140625e+01,4.940634155273437500e+01,2.994030189514160156e+01,1.100326309204101562e+02,9.541972351074218750e+01,-2.992486000061035156e+00,5.500723266601562500e+01,-2.090458106994628906e+01,-9.345405578613281250e+01,-1.180766754150390625e+02,6.585875701904296875e+01,-2.980424880981445312e+01
3.843000158667564392e-02,1.000000000000000000e+00,-3.445139312744140625e+01,4.940634155273437500e+01,2.994034194946289062e+01,1.100327301025390625e+02,9.541972351074218750e+01,-2.992486000061035156e+00,5.500723266601562500e+01,-2.090458106994628906e+01,-9.345405578613281250e+01,-1.180766754150390625e+02,6.585875701904296875e+01,-2.980424880981445312e+01
3.992899879813194275e-02,1.000000000000000000e+00,-3.445148086547851562e+01,4.940632247924804688e+01,2.994024085998535156e+01,1.100327301025390625e+02,9.541983032226562500e+01,-2.992486000061035156e+00,5.500723266601562500e+01,-2.090458106994628906e+01,-9.345405578613281250e+01,-1.180766754150390625e+02,6.585875701904296875e+01,-2.980424880981445312e+01
4.120099917054176331e-02,1.000000000000000000e+00,-3.445148086547851562e+01,4.940632247924804688e+01,2.994024085998535156e+01,1.100327301025390625e+02,9.541983032226562500e+01,-2.992486000061035156e+00,5.500723266601562500e+01,-2.090458106994628906e+01,-9.345405578613281250e+01,-1.180766754150390625e+02,6.585875701904296875e+01,-2.980424880981445312e+01
4.479800164699554443e-02,1.000000000000000000e+00,-3.445148086547851562e+01,4.940632247924804688e+01,2.994034194946289062e+01,1.100327301025390625e+02,9.541983032226562500e+01,-2.992486000061035156e+00,5.500723266601562500e+01,-2.090458106994628906e+01,-9.345405578613281250e+01,-1.180766754150390625e+02,6.585875701904296875e+01,-2.980424880981445312e+01
4.746799916028976440e-02,1.000000000000000000e+00,-3.445148086547851562e+01,4.940636444091796875e+01,2.994030189514160156e+01,1.100327301025390625e+02,9.541983032226562500e+01,-2.992621660232543945e+00,5.500723266601562500e+01,-2.090458106994628906e+01,-9.345405578613281250e+01,-1.180766754150390625e+02,6.585875701904296875e+01,-2.980424880981445312e+01
4.880199953913688660e-02,1.000000000000000000e+00,-3.445148086547851562e+01,4.940636444091796875e+01,2.994030189514160156e+01,1.100327301025390625e+02,9.541983032226562500e+01,-2.992621660232543945e+00,5.500723266601562500e+01,-2.090458106994628906e+01,-9.345405578613281250e+01,-1.180766754150390625e+02,6.585875701904296875e+01,-2.980424880981445312e+01
5.143399909138679504e-02,1.000000000000000000e+00,-3.445148086547851562e+01,4.940634155273437500e+01,2.994030189514160156e+01,1.100327301025390625e+02,9.541983032226562500e+01,-2.992486000061035156e+00,5.500723266601562500e+01,-2.090458106994628906e+01,-9.345405578613281250e+01,-1.180766754150390625e+02,6.585875701904296875e+01,-2.980424880981445312e+01
5.877500027418136597e-02,1.000000000000000000e+00,-3.445148086547851562e+01,4.940632247924804688e+01,2.994030189514160156e+01,1.100326309204101562e+02,9.541983032226562500e+01,-2.992486000061035156e+00,5.500723266601562500e+01,-2.090458106994628906e+01,-9.345405578613281250e+01,-1.180766754150390625e+02,6.585875701904296875e+01,-2.980424880981445312e+01
6.013699993491172791e-02,1.000000000000000000e+00,-3.445182418823242188e+01,4.940618515014648438e+01,2.994034194946289062e+01,1.100326309204101562e+02,9.541999053955078125e+01,-2.992621660232543945e+00,5.500723266601562500e+01,-2.090458106994628906e+01,-9.345405578613281250e+01,-1.180766754150390625e+02,6.585875701904296875e+01,-2.980424880981445312e+01
6.360500305891036987e-02,1.000000000000000000e+00,-3.445254516601562500e+01,4.940586471557617188e+01,2.994030189514160156e+01,1.100326309204101562e+02,9.541983032226562500e+01,-2.992486000061035156e+00,5.500734329223632812e+01,-2.090458106994628906e+01,-9.345405578613281250e+01,-1.180766754150390625e+02,6.585875701904296875e+01,-2.980424880981445312e+01
6.493499875068664551e-02,1.000000000000000000e+00,-3.445254516601562500e+01,4.940586471557617188e+01,2.994030189514160156e+01,1.100326309204101562e+02,9.541983032226562500e+01,-2.992486000061035156e+00,5.500734329223632812e+01,-2.090458106994628906e+01,-9.345405578613281250e+01,-1.180766754150390625e+02,6.585875701904296875e+01,-2.980424880981445312e+01
6.914699822664260864e-02,1.000000000000000000e+00,-3.445391845703125000e+01,4.940512084960937500e+01,2.994030189514160156e+01,1.100326309204101562e+02,9.541972351074218750e+01,-2.992621660232543945e+00,5.500723266601562500e+01,-2.090458106994628906e+01,-9.345405578613281250e+01,-1.180766754150390625e+02,6.585875701904296875e+01,-2.980424880981445312e+01
7.176800072193145752e-02,1.000000000000000000e+00,-3.445578384399414062e+01,4.940337753295898438e+01,2.994034194946289062e+01,1.100324707031250000e+02,9.541999053955078125e+01,-2.992621660232543945e+00,5.500723266601562500e+01,-2.090448951721191406e+01,-9.345405578613281250e+01,-1.180766754150390625e+02,6.585875701904296875e+01,-2.980424880981445312e+01
7.308699935674667358e-02,1.000000000000000000e+00,-3.445578384399414062e+01,4.940337753295898438e+01,2.994034194946289062e+01,1.100324707031250000e+02,9.541999053955078125e+01,-2.992621660232543945e+00,5.500723266601562500e+01,-2.090448951721191406e+01,-9.345405578613281250e+01,-1.180766754150390625e+02,6.585875701904296875e+01,-2.980424880981445312e+01
7.619599997997283936e-02,1.000000000000000000e+00,-3.445808410644531250e+01,4.940032577514648438e+01,2.994030189514160156e+01,1.100324707031250000e+02,9.541999053955078125e+01,-2.992486000061035156e+00,5.500723266601562500e+01,-2.090458106994628906e+01,-9.345405578613281250e+01,-1.180766754150390625e+02,6.585875701904296875e+01,-2.980424880981445312e+01
7.905899733304977417e-02,1.000000000000000000e+00,-3.445808410644531250e+01,4.940032577514648438e+01,2.994030189514160156e+01,1.100324707031250000e+02,9.541999053955078125e+01,-2.992486000061035156e+00,5.500723266601562500e+01,-2.090458106994628906e+01,-9.345405578613281250e+01,-1.180766754150390625e+02,6.585875701904296875e+01,-2.980424880981445312e+01
8.039200305938720703e-02,1.000000000000000000e+00,-3.446109771728515625e+01,4.939568328857421875e+01,2.994034194946289062e+01,1.100322036743164062e+02,9.542008972167968750e+01,-2.992486000061035156e+00,5.500723266601562500e+01,-2.090458106994628906e+01,-9.345405578613281250e+01,-1.180766754150390625e+02,6.585875701904296875e+01,-2.980424880981445312e+01
8.164499700069427490e-02,1.000000000000000000e+00,-3.446109771728515625e+01,4.939568328857421875e+01,2.994034194946289062e+01,1.100322036743164062e+02,9.542008972167968750e+01,-2.992486000061035156e+00,5.500723266601562500e+01,-2.090458106994628906e+01,-9.345405578613281250e+01,-1.180766754150390625e+02,6.585875701904296875e+01,-2.980424880981445312e+01
8.425699919462203979e-02,1.000000000000000000e+00,-3.446465682983398438e+01,4.938903045654296875e+01,2.994048690795898438e+01,1.100311508178710938e+02,9.542008972167968750e+01,-2.992486000061035156e+00,5.500723266601562500e+01,-2.090458106994628906e+01,-9.345405578613281250e+01,-1.180765380859375000e+02,6.585875701904296875e+01,-2.980424880981445312e+01
8.793599903583526611e-02,1.000000000000000000e+00,-3.446884536743164062e+01,4.938056945800781250e+01,2.994095420837402344e+01,1.100283584594726562e+02,9.542067718505859375e+01,-2.992825031280517578e+00,5.500723266601562500e+01,-2.090458106994628906e+01,-9.345405578613281250e+01,-1.180766754150390625e+02,6.585875701904296875e+01,-2.980424880981445312e+01
9.236700087785720825e-02,1.000000000000000000e+00,-3.447381210327148438e+01,4.937036132812500000e+01,2.994170570373535156e+01,1.100242996215820312e+02,9.542121124267578125e+01,-2.993299722671508789e+00,5.500723266601562500e+01,-2.090458106994628906e+01,-9.345405578613281250e+01,-1.180766754150390625e+02,6.585875701904296875e+01,-2.980424880981445312e+01
9.505899995565414429e-02,1.000000000000000000e+00,-3.447381210327148438e+01,4.937036132812500000e+01,2.994170570373535156e+01,1.100242996215820312e+02,9.542121124267578125e+01,-2.993299722671508789e+00,5.500723266601562500e+01,-2.090458106994628906e+01,-9.345405578613281250e+01,-1.180766754150390625e+02,6.585875701904296875e+01,-2.980424880981445312e+01
9.980099648237228394e-02,1.000000000000000000e+00,-3.447964096069335938e+01,4.935800552368164062e+01,2.994288444519042969e+01,1.100188217163085938e+02,9.542228698730468750e+01,-2.994452714920043945e+00,5.500723266601562500e+01,-2.090458106994628906e+01,-9.345405578613281250e+01,-1.180766754150390625e+02,6.585875701904296875e+01,-2.980424880981445312e+01
1.039289981126785278e-01,1.000000000000000000e+00,-3.448653030395507812e+01,4.934304428100585938e+01,2.994467353820800781e+01,1.100112457275390625e+02,9.542398834228515625e+01,-2.996554851531982422e+00,5.500712203979492188e+01,-2.090458106994628906e+01,-9.345405578613281250e+01,-1.180766754150390625e+02,6.585875701904296875e+01,-2.980424880981445312e+01
1.079260036349296570e-01,1.000000000000000000e+00,-3.449491500854492188e+01,4.932571029663085938e+01,2.994699287414550781e+01,1.100016555786132812e+02,9.542654418945312500e+01,-2.999877929687500000e+00,5.500723266601562500e+01,-2.090458106994628906e+01,-9.345405578613281250e+01,-1.180766754150390625e+02,6.585875701904296875e+01,-2.980424880981445312e+01
1.122279986739158630e-01,1.000000000000000000e+00,-3.450464248657226562e+01,4.930595779418945312e+01,2.995012283325195312e+01,1.099891204833984375e+02,9.543000793457031250e+01,-3.003268718719482422e+00,5.500723266601562500e+01,-2.090467262268066406e+01,-9.345405578613281250e+01,-1.180766754150390625e+02,6.585875701904296875e+01,-2.980424880981445312e+01
1.154019981622695923e-01,1.000000000000000000e+00,-3.451595687866210938e+01,4.928361892700195312e+01,2.995404815673828125e+01,1.099736862182617188e+02,9.543428039550781250e+01,-3.008015871047973633e+00,5.500723266601562500e+01,-2.090458106994628906e+01,-9.345405578613281250e+01,-1.180766754150390625e+02,6.585875701904296875e+01,-2.980424880981445312e+01
1.192549988627433777e-01,1.000000000000000000e+00,-3.452870178222656250e+01,4.925836563110351562e+01,2.995933341979980469e+01,1.099556198120117188e+02,9.543933868408203125e+01,-3.013509273529052734e+00,5.500723266601562500e+01,-2.090458106994628906e+01,-9.345405578613281250e+01,-1.180765380859375000e+02,6.585875701904296875e+01,-2.980424880981445312e+01
1.240409985184669495e-01,1.000000000000000000e+00,-3.454305267333984375e+01,4.923019027709960938e+01,2.996586036682128906e+01,1.099334945678710938e+02,9.544547271728515625e+01,-3.020155191421508789e+00,5.500712203979492188e+01,-2.090458106994628906e+01,-9.345405578613281250e+01,-1.180766754150390625e+02,6.585875701904296875e+01,-2.980424880981445312e+01
1.275359988212585449e-01,1.000000000000000000e+00,-3.455901718139648438e+01,4.919889450073242188e+01,2.997358512878417969e+01,1.099077377319335938e+02,9.545246124267578125e+01,-3.028225421905517578e+00,5.500723266601562500e+01,-2.090458106994628906e+01,-9.345405578613281250e+01,-1.180766754150390625e+02,6.585875701904296875e+01,-2.980424880981445312e+01
1.319359987974166870e-01,1.000000000000000000e+00,-3.457615280151367188e+01,4.916402435302734375e+01,2.998251342773437500e+01,1.098770294189453125e+02,9.546072387695312500e+01,-3.037177324295043945e+00,5.500723266601562500e+01,-2.090458106994628906e+01,-9.345405578613281250e+01,-1.180766754150390625e+02,6.585875701904296875e+01,-2.980424880981445312e+01
1.366920024156570435e-01,1.000000000000000000e+00,-3.459481430053710938e+01,4.912552642822265625e+01,2.999273681640625000e+01,1.098410491943359375e+02,9.546952056884765625e+01,-3.047960281372070312e+00,5.500723266601562500e+01,-2.090458106994628906e+01,-9.345405578613281250e+01,-1.180766754150390625e+02,6.585875701904296875e+01,-2.980424880981445312e+01
1.399360001087188721e-01,1.000000000000000000e+00,-3.461539459228515625e+01,4.908357238769531250e+01,3.000430679321289062e+01,1.098013381958007812e+02,9.547949218750000000e+01,-3.059421300888061523e+00,5.500723266601562500e+01,-2.090458106994628906e+01,-9.345405578613281250e+01,-1.180765380859375000e+02,6.585875701904296875e+01,-2.980424880981445312e+01
1.439220011234283447e-01,1.000000000000000000e+00,-3.463781738281250000e+01,4.903853988647460938e+01,3.001731872558593750e+01,1.097590408325195312e+02,9.549031829833984375e+01,-3.072713136672973633e+00,5.500712203979492188e+01,-2.090458106994628906e+01,-9.345405578613281250e+01,-1.180766754150390625e+02,6.585875701904296875e+01,-2.980424880981445312e+01
1.481689959764480591e-01,1.000000000000000000e+00,-3.466149902343750000e+01,4.899031448364257812e+01,3.003155326843261719e+01,1.097122650146484375e+02,9.550220489501953125e+01,-3.087090492248535156e+00,5.500723266601562500e+01,-2.090458106994628906e+01,-9.345405578613281250e+01,-1.180766754150390625e+02,6.585875701904296875e+01,-2.980424880981445312e+01
1.518529951572418213e-01,1.000000000000000000e+00,-3.468644714355468750e+01,4.893917083740234375e+01,3.004702377319335938e+01,1.096604309082031250e+02,9.551467895507812500e+01,-3.102959632873535156e+00,5.500723266601562500e+01,-2.090458106994628906e+01,-9.345405578613281250e+01,-1.180765380859375000e+02,6.585875701904296875e+01,-2.980424880981445312e+01
1.559280008077621460e-01,1.000000000000000000e+00,-3.471308517456054688e+01,4.888526535034179688e+01,3.006345367431640625e+01,1.096058120727539062e+02,9.552827453613281250e+01,-3.119913816452026367e+00,5.500723266601562500e+01,-2.090458106994628906e+01,-9.345405578613281250e+01,-1.180766754150390625e+02,6.585875701904296875e+01,-2.980424880981445312e+01
1.607030034065246582e-01,1.000000000000000000e+00,-3.474110031127929688e+01,4.882864761352539062e+01,3.008071327209472656e+01,1.095483398437500000e+02,9.554235076904296875e+01,-3.138020992279052734e+00,5.500723266601562500e+01,-2.090458106994628906e+01,-9.345405578613281250e+01,-1.180766754150390625e+02,6.585875701904296875e+01,-2.980424880981445312e+01
1.639350056648254395e-01,1.000000000000000000e+00,-3.477055740356445312e+01,4.876935577392578125e+01,3.009887123107910156e+01,1.094880828857421875e+02,9.555748748779296875e+01,-3.157009840011596680e+00,5.500723266601562500e+01,-2.090458106994628906e+01,-9.345405578613281250e+01,-1.180766754150390625e+02,6.585875701904296875e+01,-2.980424880981445312e+01
1.679729968309402466e-01,1.000000000000000000e+00,-3.480150222778320312e+01,4.870748519897460938e+01,3.011777687072753906e+01,1.094252929687500000e+02,9.557348632812500000e+01,-3.176269531250000000e+00,5.500734329223632812e+01,-2.090458106994628906e+01,-9.345405578613281250e+01,-1.180766754150390625e+02,6.585875701904296875e+01,-2.980424880981445312e+01
1.724359989166259766e-01,1.000000000000000000e+00,-3.483342742919921875e+01,4.864337539672851562e+01,3.013695335388183594e+01,1.093601913452148438e+02,9.559049224853515625e+01,-3.195597410202026367e+00,5.500723266601562500e+01,-2.090458106994628906e+01,-9.345405578613281250e+01,-1.180766754150390625e+02,6.585875701904296875e+01,-2.980424880981445312e+01
1.758980005979537964e-01,1.000000000000000000e+00,-3.486658096313476562e+01,4.857715988159179688e+01,3.015640830993652344e+01,1.092946624755859375e+02,9.560820007324218750e+01,-3.215535402297973633e+00,5.500723266601562500e+01,-2.090458106994628906e+01,-9.345405578613281250e+01,-1.180766754150390625e+02,6.585875701904296875e+01,-2.980424880981445312e+01
1.799490004777908325e-01,1.000000000000000000e+00,-3.490059661865234375e+01,4.850904464721679688e+01,3.017633628845214844e+01,1.092274475097656250e+02,9.562562561035156250e+01,-3.236490964889526367e+00,5.500712203979492188e+01,-2.090458106994628906e+01,-9.345405578613281250e+01,-1.180766754150390625e+02,6.585875701904296875e+01,-2.980446624755859375e+01
1.845770031213760376e-01,1.000000000000000000e+00,-3.493564987182617188e+01,4.843918609619140625e+01,3.019652366638183594e+01,1.091596603393554688e+02,9.564274597167968750e+01,-3.257175207138061523e+00,5.500723266601562500e+01,-2.090458106994628906e+01,-9.345405578613281250e+01,-1.180766754150390625e+02,6.585875701904296875e+01,-2.980424880981445312e+01
1.880279928445816040e-01,1.000000000000000000e+00,-3.497156143188476562e+01,4.836740493774414062e+01,3.021689796447753906e+01,1.090905532836914062e+02,9.565991210937500000e+01,-3.278062582015991211e+00,5.500723266601562500e+01,-2.090458106994628906e+01,-9.345405578613281250e+01,-1.180766754150390625e+02,6.585875701904296875e+01,-2.980424880981445312e+01
1.920209974050521851e-01,1.000000000000000000e+00,-3.500816345214843750e+01,4.829378890991210938e+01,3.023771476745605469e+01,1.090215988159179688e+02,9.567739868164062500e+01,-3.299628257751464844e+00,5.500723266601562500e+01,-2.090458106994628906e+01,-9.345405578613281250e+01,-1.180765380859375000e+02,6.585875701904296875e+01,-2.980424880981445312e+01
1.965489983558654785e-01,1.000000000000000000e+00,-3.504562759399414062e+01,4.821917724609375000e+01,3.025835227966308594e+01,1.089524383544921875e+02,9.569510650634765625e+01,-3.321804523468017578e+00,5.500723266601562500e+01,-2.090458106994628906e+01,-9.345405578613281250e+01,-1.180766754150390625e+02,6.585875701904296875e+01,-2.980424880981445312e+01
2.001080065965652466e-01,1.000000000000000000e+00,-3.508380508422851562e+01,4.814388656616210938e+01,3.027884674072265625e+01,1.088830642700195312e+02,9.571327972412109375e+01,-3.343777179718017578e+00,5.500723266601562500e+01,-2.090458106994628906e+01,-9.345405578613281250e+01,-1.180766754150390625e+02,6.585875701904296875e+01,-2.980424880981445312e+01
2.040410041809082031e-01,1.000000000000000000e+00,-3.512261581420898438e+01,4.806814575195312500e+01,3.029940223693847656e+01,1.088132171630859375e+02,9.573188781738281250e+01,-3.365275144577026367e+00,5.500723266601562500e+01,-2.090458106994628906e+01,-9.345405578613281250e+01,-1.180766754150390625e+02,6.585875701904296875e+01,-2.980424880981445312e+01
2.089200019836425781e-01,1.000000000000000000e+00,-3.516154479980468750e+01,4.799163436889648438e+01,3.031985473632812500e+01,1.087436447143554688e+02,9.575113677978515625e+01,-3.386298418045043945e+00,5.500712203979492188e+01,-2.090458106994628906e+01,-9.345405578613281250e+01,-1.180766754150390625e+02,6.585875701904296875e+01,-2.980446624755859375e+01
2.122720032930374146e-01,1.000000000000000000e+00,-3.520064163208007812e+01,4.791478347778320312e+01,3.034051322937011719e+01,1.086738967895507812e+02,9.576985168457031250e+01,-3.407389402389526367e+00,5.500712203979492188e+01,-2.090458106994628906e+01,-9.345405578613281250e+01,-1.180766754150390625e+02,6.585875701904296875e+01,-2.980446624755859375e+01
2.160390019416809082e-01,1.000000000000000000e+00,-3.523988342285156250e+01,4.783772659301757812e+01,3.036119270324707031e+01,1.086038970947265625e+02,9.578792572021484375e+01,-3.428412675857543945e+00,5.500723266601562500e+01,-2.090458106994628906e+01,-9.345405578613281250e+01,-1.180766754150390625e+02,6.585875701904296875e+01,-2.980424880981445312e+01
2.206790000200271606e-01,1.000000000000000000e+00,-3.527955627441406250e+01,4.776042175292968750e+01,3.038164520263671875e+01,1.085341033935546875e+02,9.580546569824218750e+01,-3.449910640716552734e+00,5.500723266601562500e+01,-2.090458106994628906e+01,-9.345405578613281250e+01,-1.180766754150390625e+02,6.585875701904296875e+01,-2.980424880981445312e+01
2.242749929428100586e-01,1.000000000000000000e+00,-3.531917190551757812e+01,4.768341064453125000e+01,3.040213966369628906e+01,1.084638366699218750e+02,9.582317352294921875e+01,-3.471408367156982422e+00,5.500723266601562500e+01,-2.090458106994628906e+01,-9.345405578613281250e+01,-1.180766754150390625e+02,6.585875701904296875e+01,-2.980424880981445312e+01
2.280180007219314575e-01,1.000000000000000000e+00,-3.535853195190429688e+01,4.760613250732421875e+01,3.042293930053710938e+01,1.083937225341796875e+02,9.584113311767578125e+01,-3.493245363235473633e+00,5.500723266601562500e+01,-2.090458106994628906e+01,-9.345405578613281250e+01,-1.180766754150390625e+02,6.585875701904296875e+01,-2.980424880981445312e+01
2.333640009164810181e-01,1.000000000000000000e+00,-3.539802932739257812e+01,4.752923965454101562e+01,3.044386100769042969e+01,1.083235092163085938e+02,9.585936737060546875e+01,-3.515489339828491211e+00,5.500723266601562500e+01,-2.090458106994628906e+01,-9.345405578613281250e+01,-1.180766754150390625e+02,6.585875701904296875e+01,-2.980424880981445312e+01
2.348639965057373047e-01,1.000000000000000000e+00,-3.543741607666015625e+01,4.745252227783203125e+01,3.046471977233886719e+01,1.082539825439453125e+02,9.587818908691406250e+01,-3.537326335906982422e+00,5.500723266601562500e+01,-2.090458106994628906e+01,-9.345405578613281250e+01,-1.180766754150390625e+02,6.585875701904296875e+01,-2.980424880981445312e+01
2.388920038938522339e-01,1.000000000000000000e+00,-3.547697448730468750e+01,4.737607955932617188e+01,3.048548126220703125e+01,1.081837158203125000e+02,9.589737701416015625e+01,-3.558417558670043945e+00,5.500723266601562500e+01,-2.090458106994628906e+01,-9.345405578613281250e+01,-1.180766754150390625e+02,6.585875701904296875e+01,-2.980424880981445312e+01
2.429279983043670654e-01,1.000000000000000000e+00,-3.551627349853515625e+01,4.729994964599609375e+01,3.050603675842285156e+01,1.081140289306640625e+02,9.591609191894531250e+01,-3.579101562500000000e+00,5.500723266601562500e+01,-2.090458106994628906e+01,-9.345405578613281250e+01,-1.180766754150390625e+02,6.585875701904296875e+01,-2.980424880981445312e+01
2.485740035772323608e-01,1.000000000000000000e+00,-3.555568695068359375e+01,4.722327804565429688e+01,3.052669143676757812e+01,1.080437011718750000e+02,9.593412017822265625e+01,-3.600328445434570312e+00,5.500723266601562500e+01,-2.090458106994628906e+01,-9.345405578613281250e+01,-1.180766754150390625e+02,6.585875701904296875e+01,-2.980424880981445312e+01
2.524519860744476318e-01,1.000000000000000000e+00,-3.559490203857421875e+01,4.714631652832031250e+01,3.054753303527832031e+01,1.079735412597656250e+02,9.595187377929687500e+01,-3.621758699417114258e+00,5.500723266601562500e+01,-2.090458106994628906e+01,-9.345405578613281250e+01,-1.180766754150390625e+02,6.585875701904296875e+01,-2.980424880981445312e+01
2.564870119094848633e-01,1.000000000000000000e+00,-3.563397216796875000e+01,4.706917190551757812e+01,3.056857681274414062e+01,1.079031143188476562e+02,9.596968078613281250e+01,-3.642985105514526367e+00,5.500723266601562500e+01,-2.090448951721191406e+01,-9.345405578613281250e+01,-1.180766754150390625e+02,6.585875701904296875e+01,-2.980424880981445312e+01
2.588669955730438232e-01,1.000000000000000000e+00,-3.567312622070312500e+01,4.699240875244140625e+01,3.058953857421875000e+01,1.078332214355468750e+02,9.598786163330078125e+01,-3.664347410202026367e+00,5.500723266601562500e+01,-2.090458106994628906e+01,-9.345405578613281250e+01,-1.180766754150390625e+02,6.585875701904296875e+01,-2.980424880981445312e+01
2.629700005054473877e-01,1.000000000000000000e+00,-3.571222686767578125e+01,4.691546630859375000e+01,3.061052131652832031e+01,1.077626876831054688e+02,9.600652313232421875e+01,-3.686320066452026367e+00,5.500723266601562500e+01,-2.090458106994628906e+01,-9.345405578613281250e+01,-1.180766754150390625e+02,6.585875701904296875e+01,-2.980424880981445312e+01
2.669439911842346191e-01,1.000000000000000000e+00,-3.575138092041015625e+01,4.683823013305664062e+01,3.063135910034179688e+01,1.076922607421875000e+02,9.602523803710937500e+01,-3.708631753921508789e+00,5.500723266601562500e+01,-2.090458106994628906e+01,-9.345405578613281250e+01,-1.180766754150390625e+02,6.585875701904296875e+01,-2.980424880981445312e+01
2.728140056133270264e-01,1.000000000000000000e+00,-3.579001998901367188e+01,4.676108932495117188e+01,3.065216064453125000e+01,1.076215744018554688e+02,9.604432678222656250e+01,-3.730536699295043945e+00,5.500734329223632812e+01,-2.090458106994628906e+01,-9.345405578613281250e+01,-1.180766754150390625e+02,6.585875701904296875e+01,-2.980424880981445312e+01
2.765800058841705322e-01,1.000000000000000000e+00,-3.582834625244140625e+01,4.668403244018554688e+01,3.067318153381347656e+01,1.075512542724609375e+02,9.606340789794921875e+01,-3.751424312591552734e+00,5.500723266601562500e+01,-2.090458106994628906e+01,-9.345405578613281250e+01,-1.180766754150390625e+02,6.585875701904296875e+01,-2.980402946472167969e+01
2.804659903049468994e-01,1.000000000000000000e+00,-3.586706924438476562e+01,4.660724639892578125e+01,3.069420433044433594e+01,1.074803009033203125e+02,9.608143615722656250e+01,-3.772040843963623047e+00,5.500723266601562500e+01,-2.090458106994628906e+01,-9.345405578613281250e+01,-1.180766754150390625e+02,6.585875701904296875e+01,-2.980424880981445312e+01
2.828629910945892334e-01,1.000000000000000000e+00,-3.590576934814453125e+01,4.653001022338867188e+01,3.071490287780761719e+01,1.074100875854492188e+02,9.609918212890625000e+01,-3.793673992156982422e+00,5.500723266601562500e+01,-2.090448951721191406e+01,-9.345405578613281250e+01,-1.180766754150390625e+02,6.585875701904296875e+01,-2.980424880981445312e+01
2.868930101394653320e-01,1.000000000000000000e+00,-3.594454956054687500e+01,4.645268630981445312e+01,3.073568344116210938e+01,1.073393478393554688e+02,9.611715698242187500e+01,-3.815172195434570312e+00,5.500723266601562500e+01,-2.090458106994628906e+01,-9.345405578613281250e+01,-1.180766754150390625e+02,6.585875701904296875e+01,-2.980424880981445312e+01
2.909249961376190186e-01,1.000000000000000000e+00,-3.598316192626953125e+01,4.637528991699218750e+01,3.075654411315917969e+01,1.072696075439453125e+02,9.613538360595703125e+01,-3.836263418197631836e+00,5.500723266601562500e+01,-2.090458106994628906e+01,-9.345405578613281250e+01,-1.180766754150390625e+02,6.585875701904296875e+01,-2.980424880981445312e+01
2.969569861888885498e-01,1.000000000000000000e+00,-3.602188491821289062e+01,4.629744338989257812e+01,3.077762794494628906e+01,1.071981353759765625e+02,9.615377807617187500e+01,-3.857964515686035156e+00,5.500723266601562500e+01,-2.090458106994628906e+01,-9.345405578613281250e+01,-1.180766754150390625e+02,6.585875701904296875e+01,-2.980424880981445312e+01
2.989000082015991211e-01,1.000000000000000000e+00,-3.606029510498046875e+01,4.621955108642578125e+01,3.079883193969726562e+01,1.071279220581054688e+02,9.617259979248046875e+01,-3.880479812622070312e+00,5.500734329223632812e+01,-2.090458106994628906e+01,-9.345405578613281250e+01,-1.180766754150390625e+02,6.585875701904296875e+01,-2.980424880981445312e+01
3.029209971427917480e-01,1.000000000000000000e+00,-3.609893798828125000e+01,4.614156723022460938e+01,3.081983566284179688e+01,1.070569686889648438e+02,9.619190216064453125e+01,-3.902587890625000000e+00,5.500723266601562500e+01,-2.090458106994628906e+01,-9.345405578613281250e+01,-1.180766754150390625e+02,6.585875701904296875e+01,-2.980402946472167969e+01
3.068909943103790283e-01,1.000000000000000000e+00,-3.613754653930664062e+01,4.606370162963867188e+01,3.084085845947265625e+01,1.069867553710937500e+02,9.621040344238281250e+01,-3.923950195312500000e+00,5.500723266601562500e+01,-2.090458106994628906e+01,-9.345405578613281250e+01,-1.180766754150390625e+02,6.585875701904296875e+01,-2.980424880981445312e+01
3.108949959278106689e-01,1.000000000000000000e+00,-3.617627334594726562e+01,4.598560333251953125e+01,3.086165618896484375e+01,1.069153213500976562e+02,9.622831726074218750e+01,-3.944837808609008789e+00,5.500723266601562500e+01,-2.090458106994628906e+01,-9.345405578613281250e+01,-1.180766754150390625e+02,6.585875701904296875e+01,-2.980424880981445312e+01
3.149369955062866211e-01,1.000000000000000000e+00,-3.621511077880859375e+01,4.590773391723632812e+01,3.088249969482421875e+01,1.068448486328125000e+02,9.624623107910156250e+01,-3.965928792953491211e+00,5.500723266601562500e+01,-2.090458106994628906e+01,-9.345405578613281250e+01,-1.180766754150390625e+02,6.585875701904296875e+01,-2.980424880981445312e+01
3.210889995098114014e-01,1.000000000000000000e+00,-3.625409317016601562e+01,4.583002471923828125e+01,3.090368270874023438e+01,1.067730484008789062e+02,9.626467895507812500e+01,-3.987291097640991211e+00,5.500734329223632812e+01,-2.090458106994628906e+01,-9.345405578613281250e+01,-1.180766754150390625e+02,6.585875701904296875e+01,-2.980424880981445312e+01
3.228560090065002441e-01,1.000000000000000000e+00,-3.629325103759765625e+01,4.575208663940429688e+01,3.092468643188476562e+01,1.067029418945312500e+02,9.628275299072265625e+01,-4.008585453033447266e+00,5.500723266601562500e+01,-2.090458106994628906e+01,-9.345405578613281250e+01,-1.180766754150390625e+02,6.585875701904296875e+01,-2.980424880981445312e+01
3.269349932670593262e-01,1.000000000000000000e+00,-3.633252334594726562e+01,4.567385482788085938e+01,3.094573020935058594e+01,1.066316680908203125e+02,9.630104064941406250e+01,-4.029947757720947266e+00,5.500723266601562500e+01,-2.090458106994628906e+01,-9.345405578613281250e+01,-1.180766754150390625e+02,6.585875701904296875e+01,-2.980424880981445312e+01
3.331890106201171875e-01,1.000000000000000000e+00,-3.637179183959960938e+01,4.559564590454101562e+01,3.096671295166015625e+01,1.065608291625976562e+02,9.632028198242187500e+01,-4.052056312561035156e+00,5.500723266601562500e+01,-2.090458106994628906e+01,-9.345405578613281250e+01,-1.180766754150390625e+02,6.585875701904296875e+01,-2.980424880981445312e+01
3.348590135574340820e-01,1.000000000000000000e+00,-3.641117858886718750e+01,4.551745986938476562e+01,3.098773574829101562e+01,1.064894561767578125e+02,9.633953094482421875e+01,-4.074571609497070312e+00,5.500723266601562500e+01,-2.090458106994628906e+01,-9.345405578613281250e+01,-1.180766754150390625e+02,6.585875701904296875e+01,-2.980424880981445312e+01
3.415989875793457031e-01,1.000000000000000000e+00,-3.645079421997070312e+01,4.543915939331054688e+01,3.100892257690429688e+01,1.064185562133789062e+02,9.635819244384765625e+01,-4.096476554870605469e+00,5.500723266601562500e+01,-2.090448951721191406e+01,-9.345405578613281250e+01,-1.180766754150390625e+02,6.585875701904296875e+01,-2.980424880981445312e+01
3.451730012893676758e-01,1.000000000000000000e+00,-3.649052429199218750e+01,4.536061096191406250e+01,3.103006553649902344e+01,1.063475494384765625e+02,9.637599945068359375e+01,-4.117838859558105469e+00,5.500723266601562500e+01,-2.090458106994628906e+01,-9.345405578613281250e+01,-1.180766754150390625e+02,6.585875701904296875e+01,-2.980424880981445312e+01
3.468550145626068115e-01,1.000000000000000000e+00,-3.653019714355468750e+01,4.528213119506835938e+01,3.105102729797363281e+01,1.062765960693359375e+02,9.639396667480468750e+01,-4.138862133026123047e+00,5.500723266601562500e+01,-2.090458106994628906e+01,-9.345405578613281250e+01,-1.180766754150390625e+02,6.585875701904296875e+01,-2.980424880981445312e+01
3.509489893913269043e-01,1.000000000000000000e+00,-3.656983947753906250e+01,4.520398712158203125e+01,3.107205009460449219e+01,1.062052764892578125e+02,9.641220855712890625e+01,-4.160427570343017578e+00,5.500712203979492188e+01,-2.090458106994628906e+01,-9.345405578613281250e+01,-1.180766754150390625e+02,6.585875701904296875e+01,-2.980424880981445312e+01
3.549189865589141846e-01,1.000000000000000000e+00,-3.660965728759765625e+01,4.512600326538085938e+01,3.109315681457519531e+01,1.061344299316406250e+02,9.643033599853515625e+01,-4.182129383087158203e+00,5.500723266601562500e+01,-2.090458106994628906e+01,-9.345405578613281250e+01,-1.180766754150390625e+02,6.585875701904296875e+01,-2.980424880981445312e+01
3.588739931583404541e-01,1.000000000000000000e+00,-3.664970779418945312e+01,4.504761505126953125e+01,3.111440467834472656e+01,1.060629577636718750e+02,9.644888305664062500e+01,-4.203694820404052734e+00,5.500734329223632812e+01,-2.090458106994628906e+01,-9.345405578613281250e+01,-1.180766754150390625e+02,6.585875701904296875e+01,-2.980424880981445312e+01
3.658519983291625977e-01,1.000000000000000000e+00,-3.668980789184570312e+01,4.496929168701171875e+01,3.113556861877441406e+01,1.059915237426757812e+02,9.646802520751953125e+01,-4.225192546844482422e+00,5.500723266601562500e+01,-2.090458106994628906e+01,-9.345405578613281250e+01,-1.180766754150390625e+02,6.585875701904296875e+01,-2.980424880981445312e+01
3.678640127182006836e-01,1.000000000000000000e+00,-3.672967910766601562e+01,4.489106369018554688e+01,3.115673446655273438e+01,1.059196777343750000e+02,9.648722076416015625e+01,-4.247436523437500000e+00,5.500723266601562500e+01,-2.090458106994628906e+01,-9.345405578613281250e+01,-1.180766754150390625e+02,6.585875701904296875e+01,-2.980424880981445312e+01
3.708600103855133057e-01,1.000000000000000000e+00,-3.676967239379882812e+01,4.481246948242187500e+01,3.117775726318359375e+01,1.058486251831054688e+02,9.650577545166015625e+01,-4.269951820373535156e+00,5.500723266601562500e+01,-2.090458106994628906e+01,-9.345405578613281250e+01,-1.180766754150390625e+02,6.585875701904296875e+01,-2.980424880981445312e+01
3.771989941596984863e-01,1.000000000000000000e+00,-3.676967239379882812e+01,4.481246948242187500e+01,3.117775726318359375e+01,1.058486251831054688e+02,9.650577545166015625e+01,-4.269951820373535156e+00,5.500723266601562500e+01,-2.090458106994628906e+01,-9.345405578613281250e+01,-1.180766754150390625e+02,6.585875701904296875e+01,-2.980424880981445312e+01
3.794920146465301514e-01,1.000000000000000000e+00,-3.684990692138671875e+01,4.465489578247070312e+01,3.122012901306152344e+01,1.057057723999023438e+02,9.654181671142578125e+01,-4.312947750091552734e+00,5.500723266601562500e+01,-2.090448951721191406e+01,-9.345405578613281250e+01,-1.180766754150390625e+02,6.585875701904296875e+01,-2.980424880981445312e+01
3.839029967784881592e-01,1.000000000000000000e+00,-3.689006805419921875e+01,4.457643890380859375e+01,3.124141502380371094e+01,1.056340789794921875e+02,9.656009674072265625e+01,-4.334377765655517578e+00,5.500723266601562500e+01,-2.090458106994628906e+01,-9.345405578613281250e+01,-1.180765380859375000e+02,6.585875701904296875e+01,-2.980424880981445312e+01
3.869169950485229492e-01,1.000000000000000000e+00,-3.693008422851562500e+01,4.449779891967773438e+01,3.126264381408691406e+01,1.055630187988281250e+02,9.657860565185546875e+01,-4.355943202972412109e+00,5.500723266601562500e+01,-2.090458106994628906e+01,-9.345405578613281250e+01,-1.180766754150390625e+02,6.585875701904296875e+01,-2.980424880981445312e+01
3.939549922943115234e-01,1.000000000000000000e+00,-3.693008422851562500e+01,4.449779891967773438e+01,3.126264381408691406e+01,1.055630187988281250e+02,9.657860565185546875e+01,-4.355943202972412109e+00,5.500723266601562500e+01,-2.090458106994628906e+01,-9.345405578613281250e+01,-1.180766754150390625e+02,6.585875701904296875e+01,-2.980424880981445312e+01
3.959000110626220703e-01,1.000000000000000000e+00,-3.701020431518554688e+01,4.434063720703125000e+01,3.130501556396484375e+01,1.054201736450195312e+02,9.661672210693359375e+01,-4.399888992309570312e+00,5.500723266601562500e+01,-2.090458106994628906e+01,-9.345405578613281250e+01,-1.180766754150390625e+02,6.585875701904296875e+01,-2.980424880981445312e+01
3.989639878273010254e-01,1.000000000000000000e+00,-3.705013656616210938e+01,4.426206588745117188e+01,3.132623863220214844e+01,1.053479614257812500e+02,9.663613128662109375e+01,-4.421725749969482422e+00,5.500723266601562500e+01,-2.090458106994628906e+01,-9.345405578613281250e+01,-1.180766754150390625e+02,6.585875701904296875e+01,-2.980424880981445312e+01
4.039170145988464355e-01,1.000000000000000000e+00,-3.705013656616210938e+01,4.426206588745117188e+01,3.132623863220214844e+01,1.053479614257812500e+02,9.663613128662109375e+01,-4.421725749969482422e+00,5.500723266601562500e+01,-2.090458106994628906e+01,-9.345405578613281250e+01,-1.180766754150390625e+02,6.585875701904296875e+01,-2.980424880981445312e+01
4.068590104579925537e-01,1.000000000000000000e+00,-3.713005447387695312e+01,4.410415267944335938e+01,3.136881637573242188e+01,1.052048950195312500e+02,9.667270660400390625e+01,-4.467163085937500000e+00,5.500734329223632812e+01,-2.090458106994628906e+01,-9.345405578613281250e+01,-1.180766754150390625e+02,6.585875701904296875e+01,-2.980424880981445312e+01
4.119519889354705811e-01,1.000000000000000000e+00,-3.713005447387695312e+01,4.410415267944335938e+01,3.136881637573242188e+01,1.052048950195312500e+02,9.667270660400390625e+01,-4.467163085937500000e+00,5.500734329223632812e+01,-2.090458106994628906e+01,-9.345405578613281250e+01,-1.180766754150390625e+02,6.585875701904296875e+01,-2.980424880981445312e+01
4.158630073070526123e-01,1.000000000000000000e+00,-3.720983123779296875e+01,4.394565200805664062e+01,3.141135025024414062e+01,1.050612564086914062e+02,9.670906829833984375e+01,-4.509616851806640625e+00,5.500723266601562500e+01,-2.090458106994628906e+01,-9.345405578613281250e+01,-1.180766754150390625e+02,6.585860443115234375e+01,-2.980424880981445312e+01
4.188599884510040283e-01,1.000000000000000000e+00,-3.724956130981445312e+01,4.386642456054687500e+01,3.143269920349121094e+01,1.049893493652343750e+02,9.672751617431640625e+01,-4.531317710876464844e+00,5.500723266601562500e+01,-2.090448951721191406e+01,-9.345405578613281250e+01,-1.180766754150390625e+02,6.585875701904296875e+01,-2.980424880981445312e+01
4.239569902420043945e-01,1.000000000000000000e+00,-3.724956130981445312e+01,4.386642456054687500e+01,3.143269920349121094e+01,1.049893493652343750e+02,9.672751617431640625e+01,-4.531317710876464844e+00,5.500723266601562500e+01,-2.090448951721191406e+01,-9.345405578613281250e+01,-1.180766754150390625e+02,6.585875701904296875e+01,-2.980424880981445312e+01
4.268920123577117920e-01,1.000000000000000000e+00,-3.732965469360351562e+01,4.370814895629882812e+01,3.147553634643554688e+01,1.048456573486328125e+02,9.676595306396484375e+01,-4.574991703033447266e+00,5.500723266601562500e+01,-2.090458106994628906e+01,-9.345405578613281250e+01,-1.180766754150390625e+02,6.585875701904296875e+01,-2.980402946472167969e+01
4.319590032100677490e-01,1.000000000000000000e+00,-3.732965469360351562e+01,4.370814895629882812e+01,3.147553634643554688e+01,1.048456573486328125e+02,9.676595306396484375e+01,-4.574991703033447266e+00,5.500723266601562500e+01,-2.090458106994628906e+01,-9.345405578613281250e+01,-1.180766754150390625e+02,6.585875701904296875e+01,-2.980402946472167969e+01
4.349600076675415039e-01,1.000000000000000000e+00,-3.740966033935546875e+01,4.354972076416015625e+01,3.151795005798339844e+01,1.047021179199218750e+02,9.680381011962890625e+01,-4.619683265686035156e+00,5.500723266601562500e+01,-2.090458106994628906e+01,-9.345405578613281250e+01,-1.180766754150390625e+02,6.585875701904296875e+01,-2.980424880981445312e+01
4.399409890174865723e-01,1.000000000000000000e+00,-3.740966033935546875e+01,4.354972076416015625e+01,3.151795005798339844e+01,1.047021179199218750e+02,9.680381011962890625e+01,-4.619683265686035156e+00,5.500723266601562500e+01,-2.090458106994628906e+01,-9.345405578613281250e+01,-1.180766754150390625e+02,6.585875701904296875e+01,-2.980424880981445312e+01
4.428580105304718018e-01,1.000000000000000000e+00,-3.748974990844726562e+01,4.339122009277343750e+01,3.156066513061523438e+01,1.045581588745117188e+02,9.684011840820312500e+01,-4.664510250091552734e+00,5.500723266601562500e+01,-2.090448951721191406e+01,-9.345405578613281250e+01,-1.180765380859375000e+02,6.585875701904296875e+01,-2.980424880981445312e+01
4.480589926242828369e-01,1.000000000000000000e+00,-3.748974990844726562e+01,4.339122009277343750e+01,3.156066513061523438e+01,1.045581588745117188e+02,9.684011840820312500e+01,-4.664510250091552734e+00,5.500723266601562500e+01,-2.090448951721191406e+01,-9.345405578613281250e+01,-1.180765380859375000e+02,6.585875701904296875e+01,-2.980424880981445312e+01
4.515410065650939941e-01,1.000000000000000000e+00,-3.756990051269531250e+01,4.323199844360351562e+01,3.160360717773437500e+01,1.044140472412109375e+02,9.687728118896484375e+01,-4.706760406494140625e+00,5.500723266601562500e+01,-2.090448951721191406e+01,-9.345405578613281250e+01,-1.180766754150390625e+02,6.585875701904296875e+01,-2.980424880981445312e+01
4.580099880695343018e-01,1.000000000000000000e+00,-3.756990051269531250e+01,4.323199844360351562e+01,3.160360717773437500e+01,1.044140472412109375e+02,9.687728118896484375e+01,-4.706760406494140625e+00,5.500723266601562500e+01,-2.090448951721191406e+01,-9.345405578613281250e+01,-1.180766754150390625e+02,6.585875701904296875e+01,-2.980424880981445312e+01
4.594439864158630371e-01,1.000000000000000000e+00,-3.764999389648437500e+01,4.307263565063476562e+01,3.164640426635742188e+01,1.042698287963867188e+02,9.691603851318359375e+01,-4.750841140747070312e+00,5.500723266601562500e+01,-2.090458106994628906e+01,-9.345405578613281250e+01,-1.180766754150390625e+02,6.585875701904296875e+01,-2.980424880981445312e+01
4.629260003566741943e-01,1.000000000000000000e+00,-3.764999389648437500e+01,4.307263565063476562e+01,3.164640426635742188e+01,1.042698287963867188e+02,9.691603851318359375e+01,-4.750841140747070312e+00,5.500723266601562500e+01,-2.090458106994628906e+01,-9.345405578613281250e+01,-1.180766754150390625e+02,6.585875701904296875e+01,-2.980424880981445312e+01
4.679149985313415527e-01,1.000000000000000000e+00,-3.769009780883789062e+01,4.299297714233398438e+01,3.166793632507324219e+01,1.041970748901367188e+02,9.693523406982421875e+01,-4.772541999816894531e+00,5.500723266601562500e+01,-2.090458106994628906e+01,-9.345405578613281250e+01,-1.180766754150390625e+02,6.585875701904296875e+01,-2.980424880981445312e+01
4.708699882030487061e-01,1.000000000000000000e+00,-3.777027511596679688e+01,4.283456802368164062e+01,3.171073532104492188e+01,1.040521774291992188e+02,9.697186279296875000e+01,-4.817640781402587891e+00,5.500723266601562500e+01,-2.090458106994628906e+01,-9.345405578613281250e+01,-1.180766754150390625e+02,6.585875701904296875e+01,-2.980424880981445312e+01
4.759269952774047852e-01,1.000000000000000000e+00,-3.777027511596679688e+01,4.283456802368164062e+01,3.171073532104492188e+01,1.040521774291992188e+02,9.697186279296875000e+01,-4.817640781402587891e+00,5.500723266601562500e+01,-2.090458106994628906e+01,-9.345405578613281250e+01,-1.180766754150390625e+02,6.585875701904296875e+01,-2.980424880981445312e+01
4.788610041141510010e-01,1.000000000000000000e+00,-3.785088348388671875e+01,4.267591094970703125e+01,3.175338935852050781e+01,1.039074249267578125e+02,9.700865173339843750e+01,-4.861789226531982422e+00,5.500723266601562500e+01,-2.090458106994628906e+01,-9.345405578613281250e+01,-1.180766754150390625e+02,6.585875701904296875e+01,-2.980424880981445312e+01
4.839760065078735352e-01,1.000000000000000000e+00,-3.785088348388671875e+01,4.267591094970703125e+01,3.175338935852050781e+01,1.039074249267578125e+02,9.700865173339843750e+01,-4.861789226531982422e+00,5.500723266601562500e+01,-2.090458106994628906e+01,-9.345405578613281250e+01,-1.180766754150390625e+02,6.585875701904296875e+01,-2.980424880981445312e+01
4.878709912300109863e-01,1.000000000000000000e+00,-3.793160629272460938e+01,4.251618957519531250e+01,3.179677772521972656e+01,1.037625732421875000e+02,9.704666900634765625e+01,-4.904921054840087891e+00,5.500723266601562500e+01,-2.090458106994628906e+01,-9.345405578613281250e+01,-1.180766754150390625e+02,6.585875701904296875e+01,-2.980446624755859375e+01
4.929180145263671875e-01,1.000000000000000000e+00,-3.793160629272460938e+01,4.251618957519531250e+01,3.179677772521972656e+01,1.037625732421875000e+02,9.704666900634765625e+01,-4.904921054840087891e+00,5.500723266601562500e+01,-2.090458106994628906e+01,-9.345405578613281250e+01,-1.180766754150390625e+02,6.585875701904296875e+01,-2.980424880981445312e+01
4.955680072307586670e-01,1.000000000000000000e+00,-3.801210021972656250e+01,4.235569763183593750e+01,3.183975982666015625e+01,1.036178207397460938e+02,9.708531951904296875e+01,-4.948934078216552734e+00,5.500712203979492188e+01,-2.090458106994628906e+01,-9.345405578613281250e+01,-1.180766754150390625e+02,6.585875701904296875e+01,-2.980424880981445312e+01
4.999839961528778076e-01,1.000000000000000000e+00,-3.801210021972656250e+01,4.235569763183593750e+01,3.183975982666015625e+01,1.036178207397460938e+02,9.708531951904296875e+01,-4.948934078216552734e+00,5.500712203979492188e+01,-2.090458106994628906e+01,-9.345405578613281250e+01,-1.180766754150390625e+02,6.585875701904296875e+01,-2.980424880981445312e+01
5.049350261688232422e-01,1.000000000000000000e+00,-3.809293746948242188e+01,4.219572830200195312e+01,3.188257980346679688e+01,1.034721298217773438e+02,9.712194824218750000e+01,-4.993964672088623047e+00,5.500723266601562500e+01,-2.090458106994628906e+01,-9.345405578613281250e+01,-1.180766754150390625e+02,6.585875701904296875e+01,-2.980446624755859375e+01
5.074880123138427734e-01,1.000000000000000000e+00,-3.813330078125000000e+01,4.211611557006835938e+01,3.190431213378906250e+01,1.033997573852539062e+02,9.714066314697265625e+01,-5.016615390777587891e+00,5.500723266601562500e+01,-2.090458106994628906e+01,-9.345405578613281250e+01,-1.180765380859375000e+02,6.585875701904296875e+01,-2.980424880981445312e+01
5.119100213050842285e-01,1.000000000000000000e+00,-3.813330078125000000e+01,4.211611557006835938e+01,3.190431213378906250e+01,1.033997573852539062e+02,9.714066314697265625e+01,-5.016615390777587891e+00,5.500723266601562500e+01,-2.090458106994628906e+01,-9.345405578613281250e+01,-1.180765380859375000e+02,6.585875701904296875e+01,-2.980424880981445312e+01
5.169789791107177734e-01,1.000000000000000000e+00,-3.817371749877929688e+01,4.203616333007812500e+01,3.192588615417480469e+01,1.033264846801757812e+02,9.715927124023437500e+01,-5.038723468780517578e+00,5.500723266601562500e+01,-2.090458106994628906e+01,-9.345405578613281250e+01,-1.180766754150390625e+02,6.585875701904296875e+01,-2.980424880981445312e+01
5.195800065994262695e-01,1.000000000000000000e+00,-3.825450134277343750e+01,4.187630462646484375e+01,3.196888923645019531e+01,1.031809997558593750e+02,9.719781494140625000e+01,-5.081719398498535156e+00,5.500723266601562500e+01,-2.090458106994628906e+01,-9.345405578613281250e+01,-1.180766754150390625e+02,6.585875701904296875e+01,-2.980424880981445312e+01
5.239149928092956543e-01,1.000000000000000000e+00,-3.825450134277343750e+01,4.187630462646484375e+01,3.196888923645019531e+01,1.031809997558593750e+02,9.719781494140625000e+01,-5.081719398498535156e+00,5.500723266601562500e+01,-2.090458106994628906e+01,-9.345405578613281250e+01,-1.180766754150390625e+02,6.585875701904296875e+01,-2.980424880981445312e+01
5.279139876365661621e-01,1.000000000000000000e+00,-3.829494857788085938e+01,4.179553985595703125e+01,3.199045753479003906e+01,1.031082534790039062e+02,9.721775817871093750e+01,-5.103759765625000000e+00,5.500723266601562500e+01,-2.090458106994628906e+01,-9.345405578613281250e+01,-1.180766754150390625e+02,6.585875701904296875e+01,-2.980424880981445312e+01
5.319759845733642578e-01,1.000000000000000000e+00,-3.833536911010742188e+01,4.171456909179687500e+01,3.201223754882812500e+01,1.030351486206054688e+02,9.723652648925781250e+01,-5.125732421875000000e+00,5.500723266601562500e+01,-2.090458106994628906e+01,-9.345405578613281250e+01,-1.180766754150390625e+02,6.585875701904296875e+01,-2.980446624755859375e+01
5.359290242195129395e-01,1.000000000000000000e+00,-3.837598800659179688e+01,4.163371276855468750e+01,3.203392791748046875e+01,1.029625091552734375e+02,9.725481414794921875e+01,-5.148044109344482422e+00,5.500723266601562500e+01,-2.090458106994628906e+01,-9.345405578613281250e+01,-1.180766754150390625e+02,6.585875701904296875e+01,-2.980402946472167969e+01
5.399590134620666504e-01,1.000000000000000000e+00,-3.841643524169921875e+01,4.155297088623046875e+01,3.205566406250000000e+01,1.028894958496093750e+02,9.727310180664062500e+01,-5.170898437500000000e+00,5.500723266601562500e+01,-2.090448951721191406e+01,-9.345405578613281250e+01,-1.180766754150390625e+02,6.585875701904296875e+01,-2.980424880981445312e+01
5.429080128669738770e-01,1.000000000000000000e+00,-3.845671081542968750e+01,4.147245025634765625e+01,3.207715225219726562e+01,1.028163375854492188e+02,9.729170989990234375e+01,-5.193685054779052734e+00,5.500723266601562500e+01,-2.090458106994628906e+01,-9.345405578613281250e+01,-1.180766754150390625e+02,6.585860443115234375e+01,-2.980424880981445312e+01
5.479080080986022949e-01,1.000000000000000000e+00,-3.849704742431640625e+01,4.139222717285156250e+01,3.209880828857421875e+01,1.027433242797851562e+02,9.731037139892578125e+01,-5.216335773468017578e+00,5.500734329223632812e+01,-2.090448951721191406e+01,-9.345405578613281250e+01,-1.180766754150390625e+02,6.585875701904296875e+01,-2.980424880981445312e+01
5.519019961357116699e-01,1.000000000000000000e+00,-3.853766632080078125e+01,4.131198120117187500e+01,3.212062454223632812e+01,1.026704254150390625e+02,9.732961273193359375e+01,-5.238173007965087891e+00,5.500723266601562500e+01,-2.090458106994628906e+01,-9.345405578613281250e+01,-1.180766754150390625e+02,6.585875701904296875e+01,-2.980446624755859375e+01
5.559120178222656250e-01,1.000000000000000000e+00,-3.857839965820312500e+01,4.123155593872070312e+01,3.214242172241210938e+01,1.025973205566406250e+02,9.734939575195312500e+01,-5.259670734405517578e+00,5.500723266601562500e+01,-2.090458106994628906e+01,-9.345405578613281250e+01,-1.180765380859375000e+02,6.585875701904296875e+01,-2.980424880981445312e+01
5.600180029869079590e-01,1.000000000000000000e+00,-3.861873245239257812e+01,4.115079116821289062e+01,3.216409301757812500e+01,1.025239410400390625e+02,9.736917877197265625e+01,-5.282050609588623047e+00,5.500723266601562500e+01,-2.090458106994628906e+01,-9.345405578613281250e+01,-1.180766754150390625e+02,6.585875701904296875e+01,-2.980424880981445312e+01
5.630009770393371582e-01,1.000000000000000000e+00,-3.865909576416015625e+01,4.106984329223632812e+01,3.218570709228515625e+01,1.024497756958007812e+02,9.738772583007812500e+01,-5.304497718811035156e+00,5.500712203979492188e+01,-2.090458106994628906e+01,-9.345405578613281250e+01,-1.180766754150390625e+02,6.585875701904296875e+01,-2.980424880981445312e+01
5.679079890251159668e-01,1.000000000000000000e+00,-3.869965744018554688e+01,4.098871231079101562e+01,3.220732116699218750e+01,1.023770370483398438e+02,9.740607452392578125e+01,-5.326945304870605469e+00,5.500723266601562500e+01,-2.090458106994628906e+01,-9.345405578613281250e+01,-1.180766754150390625e+02,6.585875701904296875e+01,-2.980424880981445312e+01
5.720890164375305176e-01,1.000000000000000000e+00,-3.874030685424804688e+01,4.090760803222656250e+01,3.222925567626953125e+01,1.023033905029296875e+02,9.742462158203125000e+01,-5.349460124969482422e+00,5.500723266601562500e+01,-2.090458106994628906e+01,-9.345405578613281250e+01,-1.180766754150390625e+02,6.585875701904296875e+01,-2.980424880981445312e+01
5.751630067825317383e-01,1.000000000000000000e+00,-3.878092575073242188e+01,4.082641220092773438e+01,3.225111389160156250e+01,1.022305526733398438e+02,9.744355010986328125e+01,-5.372382164001464844e+00,5.500723266601562500e+01,-2.090458106994628906e+01,-9.345405578613281250e+01,-1.180766754150390625e+02,6.585875701904296875e+01,-2.980424880981445312e+01
5.790889859199523926e-01,1.000000000000000000e+00,-3.882168960571289062e+01,4.074560165405273438e+01,3.227301025390625000e+01,1.021566467285156250e+02,9.746247863769531250e+01,-5.395101070404052734e+00,5.500723266601562500e+01,-2.090458106994628906e+01,-9.345405578613281250e+01,-1.180766754150390625e+02,6.585875701904296875e+01,-2.980446624755859375e+01
5.836439728736877441e-01,1.000000000000000000e+00,-3.886251449584960938e+01,4.066503906250000000e+01,3.229480361938476562e+01,1.020836944580078125e+02,9.748215484619140625e+01,-5.417006015777587891e+00,5.500723266601562500e+01,-2.090458106994628906e+01,-9.345405578613281250e+01,-1.180766754150390625e+02,6.585875701904296875e+01,-2.980424880981445312e+01
5.879099965095520020e-01,1.000000000000000000e+00,-3.890324783325195312e+01,4.058436203002929688e+01,3.231652069091796875e+01,1.020098495483398438e+02,9.750203704833984375e+01,-5.438775062561035156e+00,5.500734329223632812e+01,-2.090458106994628906e+01,-9.345405578613281250e+01,-1.180766754150390625e+02,6.585875701904296875e+01,-2.980402946472167969e+01
5.919209718704223633e-01,1.000000000000000000e+00,-3.894415283203125000e+01,4.050382232666015625e+01,3.233835601806640625e+01,1.019368896484375000e+02,9.752176666259765625e+01,-5.461154460906982422e+00,5.500723266601562500e+01,-2.090458106994628906e+01,-9.345405578613281250e+01,-1.180765380859375000e+02,6.585875701904296875e+01,-2.980424880981445312e+01
5.961750149726867676e-01,1.000000000000000000e+00,-3.898526382446289062e+01,4.042305755615234375e+01,3.236023330688476562e+01,1.018629913330078125e+02,9.754026794433593750e+01,-5.483873367309570312e+00,5.500723266601562500e+01,-2.090458106994628906e+01,-9.345405578613281250e+01,-1.180766754150390625e+02,6.585875701904296875e+01,-2.980424880981445312e+01
5.992619991302490234e-01,1.000000000000000000e+00,-3.902640151977539062e+01,4.034170532226562500e+01,3.238198852539062500e+01,1.017896118164062500e+02,9.755866241455078125e+01,-5.506388664245605469e+00,5.500723266601562500e+01,-2.090467262268066406e+01,-9.345405578613281250e+01,-1.180766754150390625e+02,6.585875701904296875e+01,-2.980424880981445312e+01
6.031849980354309082e-01,1.000000000000000000e+00,-3.906742095947265625e+01,4.026014328002929688e+01,3.240378570556640625e+01,1.017157669067382812e+02,9.757726287841796875e+01,-5.529107093811035156e+00,5.500723266601562500e+01,-2.090448951721191406e+01,-9.345405578613281250e+01,-1.180766754150390625e+02,6.585875701904296875e+01,-2.980424880981445312e+01
6.077690124511718750e-01,1.000000000000000000e+00,-3.910838699340820312e+01,4.017829132080078125e+01,3.242565917968750000e+01,1.016422882080078125e+02,9.759597778320312500e+01,-5.552096843719482422e+00,5.500723266601562500e+01,-2.090448951721191406e+01,-9.345405578613281250e+01,-1.180766754150390625e+02,6.585875701904296875e+01,-2.980424880981445312e+01
6.119610071182250977e-01,1.000000000000000000e+00,-3.914957809448242188e+01,4.009666824340820312e+01,3.244763946533203125e+01,1.015679092407226562e+02,9.761528015136718750e+01,-5.575493812561035156e+00,5.500712203979492188e+01,-2.090458106994628906e+01,-9.345405578613281250e+01,-1.180766754150390625e+02,6.585875701904296875e+01,-2.980424880981445312e+01
6.159139871597290039e-01,1.000000000000000000e+00,-3.919088745117187500e+01,4.001528930664062500e+01,3.246955871582031250e+01,1.014944839477539062e+02,9.763516998291015625e+01,-5.597873210906982422e+00,5.500723266601562500e+01,-2.090448951721191406e+01,-9.345405578613281250e+01,-1.180766754150390625e+02,6.585875701904296875e+01,-2.980424880981445312e+01
6.206489801406860352e-01,1.000000000000000000e+00,-3.923222732543945312e+01,3.993427276611328125e+01,3.249143600463867188e+01,1.014203643798828125e+02,9.765522003173828125e+01,-5.619575023651123047e+00,5.500723266601562500e+01,-2.090458106994628906e+01,-9.345405578613281250e+01,-1.180766754150390625e+02,6.585875701904296875e+01,-2.980424880981445312e+01
6.248679757118225098e-01,1.000000000000000000e+00,-3.927333450317382812e+01,3.985350418090820312e+01,3.251316833496093750e+01,1.013467864990234375e+02,9.767456817626953125e+01,-5.641683101654052734e+00,5.500723266601562500e+01,-2.090458106994628906e+01,-9.345405578613281250e+01,-1.180766754150390625e+02,6.585875701904296875e+01,-2.980424880981445312e+01
6.288909912109375000e-01,1.000000000000000000e+00,-3.931476211547851562e+01,3.977258300781250000e+01,3.253494262695312500e+01,1.012728805541992188e+02,9.769296264648437500e+01,-5.664198398590087891e+00,5.500723266601562500e+01,-2.090458106994628906e+01,-9.345405578613281250e+01,-1.180766754150390625e+02,6.585875701904296875e+01,-2.980424880981445312e+01
6.339010000228881836e-01,1.000000000000000000e+00,-3.935621261596679688e+01,3.969118118286132812e+01,3.255686187744140625e+01,1.011991348266601562e+02,9.771183776855468750e+01,-5.686713695526123047e+00,5.500723266601562500e+01,-2.090458106994628906e+01,-9.345405578613281250e+01,-1.180766754150390625e+02,6.585875701904296875e+01,-2.980424880981445312e+01
6.367350220680236816e-01,1.000000000000000000e+00,-3.943900299072265625e+01,3.952750015258789062e+01,3.260090255737304688e+01,1.010511779785156250e+02,9.774969482421875000e+01,-5.732964515686035156e+00,5.500712203979492188e+01,-2.090458106994628906e+01,-9.345405578613281250e+01,-1.180766754150390625e+02,6.585875701904296875e+01,-2.980424880981445312e+01
6.399040222167968750e-01,1.000000000000000000e+00,-3.943900299072265625e+01,3.952750015258789062e+01,3.260090255737304688e+01,1.010511779785156250e+02,9.774969482421875000e+01,-5.732964515686035156e+00,5.500712203979492188e+01,-2.090458106994628906e+01,-9.345405578613281250e+01,-1.180766754150390625e+02,6.585875701904296875e+01,-2.980424880981445312e+01
6.453589797019958496e-01,1.000000000000000000e+00,-3.948036956787109375e+01,3.944542312622070312e+01,3.262298202514648438e+01,1.009770660400390625e+02,9.776926422119140625e+01,-5.756225585937500000e+00,5.500723266601562500e+01,-2.090458106994628906e+01,-9.345405578613281250e+01,-1.180766754150390625e+02,6.585875701904296875e+01,-2.980424880981445312e+01
6.481289863586425781e-01,1.000000000000000000e+00,-3.956330490112304688e+01,3.928153610229492188e+01,3.266714096069335938e+01,1.008288345336914062e+02,9.780924224853515625e+01,-5.800781726837158203e+00,5.500723266601562500e+01,-2.090458106994628906e+01,-9.345405578613281250e+01,-1.180766754150390625e+02,6.585875701904296875e+01,-2.980424880981445312e+01
6.515489816665649414e-01,1.000000000000000000e+00,-3.956330490112304688e+01,3.928153610229492188e+01,3.266714096069335938e+01,1.008288345336914062e+02,9.780924224853515625e+01,-5.800781726837158203e+00,5.500723266601562500e+01,-2.090458106994628906e+01,-9.345405578613281250e+01,-1.180766754150390625e+02,6.585875701904296875e+01,-2.980424880981445312e+01
6.562209725379943848e-01,1.000000000000000000e+00,-3.960466766357421875e+01,3.920004272460937500e+01,3.268910217285156250e+01,1.007540435791015625e+02,9.782812500000000000e+01,-5.822686195373535156e+00,5.500723266601562500e+01,-2.090458106994628906e+01,-9.345405578613281250e+01,-1.180766754150390625e+02,6.585875701904296875e+01,-2.980424880981445312e+01
6.596670150756835938e-01,1.000000000000000000e+00,-3.964606475830078125e+01,3.911857604980468750e+01,3.271093750000000000e+01,1.006799774169921875e+02,9.784667205810546875e+01,-5.845336914062500000e+00,5.500723266601562500e+01,-2.090458106994628906e+01,-9.345405578613281250e+01,-1.180766754150390625e+02,6.585875701904296875e+01,-2.980424880981445312e+01
6.639260053634643555e-01,1.000000000000000000e+00,-3.968766021728515625e+01,3.903715515136718750e+01,3.273283386230468750e+01,1.006052932739257812e+02,9.786528015136718750e+01,-5.868191242218017578e+00,5.500723266601562500e+01,-2.090458106994628906e+01,-9.345405578613281250e+01,-1.180766754150390625e+02,6.585875701904296875e+01,-2.980424880981445312e+01
6.679109930992126465e-01,1.000000000000000000e+00,-3.972911453247070312e+01,3.895555114746093750e+01,3.275491333007812500e+01,1.005312805175781250e+02,9.788426208496093750e+01,-5.890706539154052734e+00,5.500723266601562500e+01,-2.090458106994628906e+01,-9.345405578613281250e+01,-1.180766754150390625e+02,6.585875701904296875e+01,-2.980424880981445312e+01
6.719959974288940430e-01,1.000000000000000000e+00,-3.977050781250000000e+01,3.887338256835937500e+01,3.277716064453125000e+01,1.004566955566406250e+02,9.790335083007812500e+01,-5.913831710815429688e+00,5.500723266601562500e+01,-2.090448951721191406e+01,-9.345405578613281250e+01,-1.180766754150390625e+02,6.585875701904296875e+01,-2.980424880981445312e+01
6.759639978408813477e-01,1.000000000000000000e+00,-3.981196212768554688e+01,3.879100799560546875e+01,3.279938125610351562e+01,1.003827438354492188e+02,9.792318725585937500e+01,-5.937025547027587891e+00,5.500712203979492188e+01,-2.090448951721191406e+01,-9.345405578613281250e+01,-1.180766754150390625e+02,6.585875701904296875e+01,-2.980424880981445312e+01
6.802970170974731445e-01,1.000000000000000000e+00,-3.985338592529296875e+01,3.870834350585937500e+01,3.282139968872070312e+01,1.003075790405273438e+02,9.794328308105468750e+01,-5.960150718688964844e+00,5.500723266601562500e+01,-2.090448951721191406e+01,-9.345405578613281250e+01,-1.180766754150390625e+02,6.585875701904296875e+01,-2.980424880981445312e+01
6.839810013771057129e-01,1.000000000000000000e+00,-3.989492416381835938e+01,3.862576675415039062e+01,3.284339904785156250e+01,1.002335205078125000e+02,9.796290588378906250e+01,-5.982191562652587891e+00,5.500723266601562500e+01,-2.090458106994628906e+01,-9.345405578613281250e+01,-1.180765380859375000e+02,6.585875701904296875e+01,-2.980424880981445312e+01
6.879090070724487305e-01,1.000000000000000000e+00,-3.993634796142578125e+01,3.854330062866210938e+01,3.286541748046875000e+01,1.001589355468750000e+02,9.798150634765625000e+01,-6.003892898559570312e+00,5.500723266601562500e+01,-2.090458106994628906e+01,-9.345405578613281250e+01,-1.180766754150390625e+02,6.585875701904296875e+01,-2.980424880981445312e+01
6.919559836387634277e-01,1.000000000000000000e+00,-3.997791290283203125e+01,3.846126937866210938e+01,3.288766098022460938e+01,1.000846099853515625e+02,9.800038909912109375e+01,-6.026747226715087891e+00,5.500723266601562500e+01,-2.090448951721191406e+01,-9.345405578613281250e+01,-1.180766754150390625e+02,6.585875701904296875e+01,-2.980424880981445312e+01
6.962310075759887695e-01,1.000000000000000000e+00,-4.001927947998046875e+01,3.837966537475585938e+01,3.290992355346679688e+01,1.000094375610351562e+02,9.801931762695312500e+01,-6.049940586090087891e+00,5.500723266601562500e+01,-2.090458106994628906e+01,-9.345405578613281250e+01,-1.180766754150390625e+02,6.585875701904296875e+01,-2.980424880981445312e+01
6.999490261077880859e-01,1.000000000000000000e+00,-4.006082153320312500e+01,3.829776763916015625e+01,3.293198776245117188e+01,9.993475341796875000e+01,9.803882598876953125e+01,-6.072726726531982422e+00,5.500712203979492188e+01,-2.090458106994628906e+01,-9.345405578613281250e+01,-1.180766754150390625e+02,6.585875701904296875e+01,-2.980424880981445312e+01
7.044929862022399902e-01,1.000000000000000000e+00,-4.010235977172851562e+01,3.821557617187500000e+01,3.295408630371093750e+01,9.985958862304687500e+01,9.805834197998046875e+01,-6.095852375030517578e+00,5.500723266601562500e+01,-2.090448951721191406e+01,-9.345405578613281250e+01,-1.180766754150390625e+02,6.585875701904296875e+01,-2.980424880981445312e+01
7.082059979438781738e-01,1.000000000000000000e+00,-4.014398193359375000e+01,3.813297653198242188e+01,3.297614669799804688e+01,9.978510284423828125e+01,9.807859802246093750e+01,-6.119317054748535156e+00,5.500723266601562500e+01,-2.090458106994628906e+01,-9.345405578613281250e+01,-1.180766754150390625e+02,6.585875701904296875e+01,-2.980424880981445312e+01
7.120270133018493652e-01,1.000000000000000000e+00,-4.018563842773437500e+01,3.805022048950195312e+01,3.299852752685546875e+01,9.971009063720703125e+01,9.809880828857421875e+01,-6.142578125000000000e+00,5.500723266601562500e+01,-2.090458106994628906e+01,-9.345405578613281250e+01,-1.180766754150390625e+02,6.585875701904296875e+01,-2.980424880981445312e+01
7.160519957542419434e-01,1.000000000000000000e+00,-4.022717666625976562e+01,3.796723556518554688e+01,3.302089309692382812e+01,9.963497924804687500e+01,9.811811065673828125e+01,-6.164483070373535156e+00,5.500723266601562500e+01,-2.090458106994628906e+01,-9.345405578613281250e+01,-1.180766754150390625e+02,6.585875701904296875e+01,-2.980424880981445312e+01
7.201589941978454590e-01,1.000000000000000000e+00,-4.026882934570312500e+01,3.788415908813476562e+01,3.304306030273437500e+01,9.955986785888671875e+01,9.813666534423828125e+01,-6.186591148376464844e+00,5.500723266601562500e+01,-2.090458106994628906e+01,-9.345405578613281250e+01,-1.180766754150390625e+02,6.585875701904296875e+01,-2.980424880981445312e+01
7.240409851074218750e-01,1.000000000000000000e+00,-4.031045532226562500e+01,3.780156326293945312e+01,3.306507492065429688e+01,9.948528289794921875e+01,9.815547943115234375e+01,-6.209174156188964844e+00,5.500723266601562500e+01,-2.090458106994628906e+01,-9.345405578613281250e+01,-1.180766754150390625e+02,6.585875701904296875e+01,-2.980424880981445312e+01
7.285879850387573242e-01,1.000000000000000000e+00,-4.035219573974609375e+01,3.771932220458984375e+01,3.308721923828125000e+01,9.941027832031250000e+01,9.817462158203125000e+01,-6.231689453125000000e+00,5.500723266601562500e+01,-2.090458106994628906e+01,-9.345405578613281250e+01,-1.180766754150390625e+02,6.585875701904296875e+01,-2.980424880981445312e+01
7.322970032691955566e-01,1.000000000000000000e+00,-4.039402008056640625e+01,3.763685989379882812e+01,3.310956192016601562e+01,9.933505249023437500e+01,9.819408416748046875e+01,-6.254882812500000000e+00,5.500723266601562500e+01,-2.090458106994628906e+01,-9.345405578613281250e+01,-1.180766754150390625e+02,6.585875701904296875e+01,-2.980424880981445312e+01
7.348769903182983398e-01,1.000000000000000000e+00,-4.043587493896484375e+01,3.755451202392578125e+01,3.313194656372070312e+01,9.926004791259765625e+01,9.821450042724609375e+01,-6.278144359588623047e+00,5.500723266601562500e+01,-2.090458106994628906e+01,-9.345405578613281250e+01,-1.180766754150390625e+02,6.585875701904296875e+01,-2.980424880981445312e+01
7.388730049133300781e-01,1.000000000000000000e+00,-4.047764587402343750e+01,3.747186660766601562e+01,3.315427017211914062e+01,9.918515014648437500e+01,9.823460388183593750e+01,-6.301948070526123047e+00,5.500723266601562500e+01,-2.090458106994628906e+01,-9.345405578613281250e+01,-1.180766754150390625e+02,6.585875701904296875e+01,-2.980424880981445312e+01
7.443760037422180176e-01,1.000000000000000000e+00,-4.051938247680664062e+01,3.738890457153320312e+01,3.317631149291992188e+01,9.910997772216796875e+01,9.825417327880859375e+01,-6.325276851654052734e+00,5.500723266601562500e+01,-2.090458106994628906e+01,-9.345405578613281250e+01,-1.180766754150390625e+02,6.585875701904296875e+01,-2.980424880981445312e+01
7.469019889831542969e-01,1.000000000000000000e+00,-4.056132507324218750e+01,3.730548858642578125e+01,3.319837188720703125e+01,9.903386688232421875e+01,9.827315521240234375e+01,-6.348334312438964844e+00,5.500712203979492188e+01,-2.090458106994628906e+01,-9.345405578613281250e+01,-1.180765380859375000e+02,6.585875701904296875e+01,-2.980424880981445312e+01
7.508820295333862305e-01,1.000000000000000000e+00,-4.060340881347656250e+01,3.722189331054687500e+01,3.322083663940429688e+01,9.895854187011718750e+01,9.829207611083984375e+01,-6.370306968688964844e+00,5.500723266601562500e+01,-2.090448951721191406e+01,-9.345405578613281250e+01,-1.180766754150390625e+02,6.585875701904296875e+01,-2.980424880981445312e+01
7.565960288047790527e-01,1.000000000000000000e+00,-4.064549255371093750e+01,3.713853073120117188e+01,3.324334716796875000e+01,9.888316345214843750e+01,9.831137847900390625e+01,-6.392754554748535156e+00,5.500723266601562500e+01,-2.090448951721191406e+01,-9.345405578613281250e+01,-1.180766754150390625e+02,6.585875701904296875e+01,-2.980402946472167969e+01
7.603549957275390625e-01,1.000000000000000000e+00,-4.068743515014648438e+01,3.705522918701171875e+01,3.326576995849609375e+01,9.880815887451171875e+01,9.833084106445312500e+01,-6.416219234466552734e+00,5.500723266601562500e+01,-2.090458106994628906e+01,-9.345405578613281250e+01,-1.180766754150390625e+02,6.585875701904296875e+01,-2.980424880981445312e+01
7.629399895668029785e-01,1.000000000000000000e+00,-4.072960281372070312e+01,3.697237777709960938e+01,3.328813552856445312e+01,9.873241424560546875e+01,9.835083007812500000e+01,-6.439412593841552734e+00,5.500723266601562500e+01,-2.090458106994628906e+01,-9.345405578613281250e+01,-1.180766754150390625e+02,6.585875701904296875e+01,-2.980424880981445312e+01
7.685909867286682129e-01,1.000000000000000000e+00,-4.077180480957031250e+01,3.688982391357421875e+01,3.331031799316406250e+01,9.865719604492187500e+01,9.837146759033203125e+01,-6.462741851806640625e+00,5.500723266601562500e+01,-2.090458106994628906e+01,-9.345405578613281250e+01,-1.180766754150390625e+02,6.585875701904296875e+01,-2.980424880981445312e+01
7.724750041961669922e-01,1.000000000000000000e+00,-4.081380081176757812e+01,3.680720520019531250e+01,3.333276367187500000e+01,9.858155822753906250e+01,9.839172363281250000e+01,-6.486409664154052734e+00,5.500712203979492188e+01,-2.090448951721191406e+01,-9.345405578613281250e+01,-1.180766754150390625e+02,6.585875701904296875e+01,-2.980424880981445312e+01
7.773169875144958496e-01,1.000000000000000000e+00,-4.085582733154296875e+01,3.672403717041015625e+01,3.335519027709960938e+01,9.850659942626953125e+01,9.841118621826171875e+01,-6.509603023529052734e+00,5.500734329223632812e+01,-2.090458106994628906e+01,-9.345405578613281250e+01,-1.180766754150390625e+02,6.585875701904296875e+01,-2.980402946472167969e+01
7.788410186767578125e-01,1.000000000000000000e+00,-4.089805603027343750e+01,3.664067077636718750e+01,3.337755584716796875e+01,9.843032836914062500e+01,9.842990112304687500e+01,-6.532457351684570312e+00,5.500723266601562500e+01,-2.090458106994628906e+01,-9.345405578613281250e+01,-1.180766754150390625e+02,6.585875701904296875e+01,-2.980424880981445312e+01
7.828930020332336426e-01,1.000000000000000000e+00,-4.094042587280273438e+01,3.655705261230468750e+01,3.339994430541992188e+01,9.835516357421875000e+01,9.844908905029296875e+01,-6.554837226867675781e+00,5.500723266601562500e+01,-2.090458106994628906e+01,-9.345405578613281250e+01,-1.180766754150390625e+02,6.585875701904296875e+01,-2.980424880981445312e+01
7.868729829788208008e-01,1.000000000000000000e+00,-4.098242187500000000e+01,3.647309494018554688e+01,3.342236709594726562e+01,9.827889251708984375e+01,9.846871185302734375e+01,-6.577759265899658203e+00,5.500723266601562500e+01,-2.090458106994628906e+01,-9.345405578613281250e+01,-1.180766754150390625e+02,6.585875701904296875e+01,-2.980424880981445312e+01
7.908629775047302246e-01,1.000000000000000000e+00,-4.102447891235351562e+01,3.638909149169921875e+01,3.344501495361328125e+01,9.820388031005859375e+01,9.848865509033203125e+01,-6.600816726684570312e+00,5.500723266601562500e+01,-2.090458106994628906e+01,-9.345405578613281250e+01,-1.180766754150390625e+02,6.585875701904296875e+01,-2.980424880981445312e+01
7.948819994926452637e-01,1.000000000000000000e+00,-4.106665039062500000e+01,3.630558776855468750e+01,3.346766662597656250e+01,9.812729644775390625e+01,9.850901794433593750e+01,-6.624552726745605469e+00,5.500723266601562500e+01,-2.090458106994628906e+01,-9.345405578613281250e+01,-1.180766754150390625e+02,6.585875701904296875e+01,-2.980424880981445312e+01
7.988730072975158691e-01,1.000000000000000000e+00,-4.110890960693359375e+01,3.622262954711914062e+01,3.349015426635742188e+01,9.805159759521484375e+01,9.852970886230468750e+01,-6.648288726806640625e+00,5.500723266601562500e+01,-2.090458106994628906e+01,-9.345405578613281250e+01,-1.180766754150390625e+02,6.585875701904296875e+01,-2.980424880981445312e+01
8.049100041389465332e-01,1.000000000000000000e+00,-4.115113449096679688e+01,3.613934707641601562e+01,3.351251983642578125e+01,9.797563934326171875e+01,9.854927825927734375e+01,-6.672160148620605469e+00,5.500723266601562500e+01,-2.090458106994628906e+01,-9.345405578613281250e+01,-1.180766754150390625e+02,6.585875701904296875e+01,-2.980424880981445312e+01
8.087869882583618164e-01,1.000000000000000000e+00,-4.119344711303710938e+01,3.605613708496093750e+01,3.353475952148437500e+01,9.789984893798828125e+01,9.856873321533203125e+01,-6.695624828338623047e+00,5.500723266601562500e+01,-2.090458106994628906e+01,-9.345405578613281250e+01,-1.180766754150390625e+02,6.585875701904296875e+01,-2.980424880981445312e+01
8.126500248908996582e-01,1.000000000000000000e+00,-4.123556137084960938e+01,3.597270202636718750e+01,3.355728912353515625e+01,9.782399749755859375e+01,9.858782958984375000e+01,-6.718479156494140625e+00,5.500723266601562500e+01,-2.090448951721191406e+01,-9.345405578613281250e+01,-1.180766754150390625e+02,6.585875701904296875e+01,-2.980424880981445312e+01
8.170560002326965332e-01,1.000000000000000000e+00,-4.127753067016601562e+01,3.588876724243164062e+01,3.358003997802734375e+01,9.774819946289062500e+01,9.860749816894531250e+01,-6.740790843963623047e+00,5.500723266601562500e+01,-2.090458106994628906e+01,-9.345405578613281250e+01,-1.180766754150390625e+02,6.585875701904296875e+01,-2.980424880981445312e+01
8.188670277595520020e-01,1.000000000000000000e+00,-4.131967163085937500e+01,3.580460739135742188e+01,3.360266876220703125e+01,9.767213439941406250e+01,9.862733459472656250e+01,-6.763916492462158203e+00,5.500723266601562500e+01,-2.090448951721191406e+01,-9.345405578613281250e+01,-1.180765380859375000e+02,6.585875701904296875e+01,-2.980424880981445312e+01
8.229709863662719727e-01,1.000000000000000000e+00,-4.136175537109375000e+01,3.572026443481445312e+01,3.362533950805664062e+01,9.759576416015625000e+01,9.864759063720703125e+01,-6.787312984466552734e+00,5.500723266601562500e+01,-2.090458106994628906e+01,-9.345405578613281250e+01,-1.180766754150390625e+02,6.585875701904296875e+01,-2.980424880981445312e+01
8.292000293731689453e-01,1.000000000000000000e+00,-4.140407180786132812e+01,3.563590240478515625e+01,3.364782714843750000e+01,9.751985931396484375e+01,9.866833496093750000e+01,-6.810709953308105469e+00,5.500723266601562500e+01,-2.090458106994628906e+01,-9.345405578613281250e+01,-1.180766754150390625e+02,6.585875701904296875e+01,-2.980424880981445312e+01
8.309069871902465820e-01,1.000000000000000000e+00,-4.144615554809570312e+01,3.555185317993164062e+01,3.367047500610351562e+01,9.744364166259765625e+01,9.868859100341796875e+01,-6.834445953369140625e+00,5.500723266601562500e+01,-2.090448951721191406e+01,-9.345405578613281250e+01,-1.180766754150390625e+02,6.585875701904296875e+01,-2.980424880981445312e+01
8.372539877891540527e-01,1.000000000000000000e+00,-4.148818206787109375e+01,3.546818923950195312e+01,3.369310379028320312e+01,9.736752319335937500e+01,9.870793914794921875e+01,-6.858385086059570312e+00,5.500723266601562500e+01,-2.090458106994628906e+01,-9.345405578613281250e+01,-1.180766754150390625e+02,6.585875701904296875e+01,-2.980424880981445312e+01
8.388609886169433594e-01,1.000000000000000000e+00,-4.153012084960937500e+01,3.538482284545898438e+01,3.371561431884765625e+01,9.729082489013671875e+01,9.872687530517578125e+01,-6.882188796997070312e+00,5.500723266601562500e+01,-2.090458106994628906e+01,-9.345405578613281250e+01,-1.180766754150390625e+02,6.585875701904296875e+01,-2.980424880981445312e+01
8.428419828414916992e-01,1.000000000000000000e+00,-4.157237625122070312e+01,3.530113601684570312e+01,3.373805618286132812e+01,9.721450805664062500e+01,9.874622344970703125e+01,-6.905043125152587891e+00,5.500712203979492188e+01,-2.090458106994628906e+01,-9.345405578613281250e+01,-1.180766754150390625e+02,6.585875701904296875e+01,-2.980424880981445312e+01
8.495650291442871094e-01,1.000000000000000000e+00,-4.161452102661132812e+01,3.521695327758789062e+01,3.376060867309570312e+01,9.713775634765625000e+01,9.876600646972656250e+01,-6.927693843841552734e+00,5.500723266601562500e+01,-2.090458106994628906e+01,-9.345405578613281250e+01,-1.180766754150390625e+02,6.585875701904296875e+01,-2.980424880981445312e+01
8.532699942588806152e-01,1.000000000000000000e+00,-4.165680694580078125e+01,3.513258743286132812e+01,3.378334045410156250e+01,9.706169891357421875e+01,9.878636932373046875e+01,-6.950412750244140625e+00,5.500723266601562500e+01,-2.090458106994628906e+01,-9.345405578613281250e+01,-1.180766754150390625e+02,6.585875701904296875e+01,-2.980424880981445312e+01
8.548960089683532715e-01,1.000000000000000000e+00,-4.169905853271484375e+01,3.504793167114257812e+01,3.380612945556640625e+01,9.698510742187500000e+01,9.880722045898437500e+01,-6.973741531372070312e+00,5.500723266601562500e+01,-2.090458106994628906e+01,-9.345405578613281250e+01,-1.180766754150390625e+02,6.585889434814453125e+01,-2.980424880981445312e+01
8.589140176773071289e-01,1.000000000000000000e+00,-4.174123001098632812e+01,3.496297836303710938e+01,3.382881927490234375e+01,9.690898895263671875e+01,9.882747650146484375e+01,-6.997680664062500000e+00,5.500723266601562500e+01,-2.090458106994628906e+01,-9.345405578613281250e+01,-1.180766754150390625e+02,6.585875701904296875e+01,-2.980424880981445312e+01
8.638780117034912109e-01,1.000000000000000000e+00,-4.178354644775390625e+01,3.487818527221679688e+01,3.385138702392578125e+01,9.683193206787109375e+01,9.884688568115234375e+01,-7.021145343780517578e+00,5.500723266601562500e+01,-2.090458106994628906e+01,-9.345405578613281250e+01,-1.180766754150390625e+02,6.585875701904296875e+01,-2.980424880981445312e+01
8.668460249900817871e-01,1.000000000000000000e+00,-4.182608795166015625e+01,3.479386520385742188e+01,3.387403488159179688e+01,9.675566101074218750e+01,9.886618041992187500e+01,-7.045220375061035156e+00,5.500723266601562500e+01,-2.090448951721191406e+01,-9.345405578613281250e+01,-1.180766754150390625e+02,6.585875701904296875e+01,-2.980424880981445312e+01
8.731330037117004395e-01,1.000000000000000000e+00,-4.182608795166015625e+01,3.479386520385742188e+01,3.387403488159179688e+01,9.675566101074218750e+01,9.886618041992187500e+01,-7.045220375061035156e+00,5.500723266601562500e+01,-2.090448951721191406e+01,-9.345405578613281250e+01,-1.180766754150390625e+02,6.585875701904296875e+01,-2.980424880981445312e+01
8.749129772186279297e-01,1.000000000000000000e+00,-4.191120529174804688e+01,3.462556457519531250e+01,3.391931915283203125e+01,9.660221862792968750e+01,9.890553283691406250e+01,-7.091810703277587891e+00,5.500734329223632812e+01,-2.090458106994628906e+01,-9.345405578613281250e+01,-1.180766754150390625e+02,6.585875701904296875e+01,-2.980424880981445312e+01
8.813980221748352051e-01,1.000000000000000000e+00,-4.191120529174804688e+01,3.462556457519531250e+01,3.391931915283203125e+01,9.660221862792968750e+01,9.890553283691406250e+01,-7.091810703277587891e+00,5.500723266601562500e+01,-2.090448951721191406e+01,-9.345405578613281250e+01,-1.180766754150390625e+02,6.585875701904296875e+01,-2.980424880981445312e+01
8.828470110893249512e-01,1.000000000000000000e+00,-4.199666595458984375e+01,3.445701599121093750e+01,3.396483993530273438e+01,9.644852447509765625e+01,9.894658660888671875e+01,-7.137722969055175781e+00,5.500723266601562500e+01,-2.090458106994628906e+01,-9.345405578613281250e+01,-1.180766754150390625e+02,6.585875701904296875e+01,-2.980424880981445312e+01
8.900480270385742188e-01,1.000000000000000000e+00,-4.199666595458984375e+01,3.445701599121093750e+01,3.396483993530273438e+01,9.644852447509765625e+01,9.894658660888671875e+01,-7.137722969055175781e+00,5.500723266601562500e+01,-2.090458106994628906e+01,-9.345405578613281250e+01,-1.180766754150390625e+02,6.585875701904296875e+01,-2.980424880981445312e+01
8.915110230445861816e-01,1.000000000000000000e+00,-4.208229827880859375e+01,3.428665924072265625e+01,3.401056671142578125e+01,9.629465484619140625e+01,9.898726654052734375e+01,-7.184990882873535156e+00,5.500723266601562500e+01,-2.090458106994628906e+01,-9.345405578613281250e+01,-1.180766754150390625e+02,6.585875701904296875e+01,-2.980446624755859375e+01
8.959209918975830078e-01,1.000000000000000000e+00,-4.212532806396484375e+01,3.420132064819335938e+01,3.403329467773437500e+01,9.621743774414062500e+01,9.900640869140625000e+01,-7.208862781524658203e+00,5.500723266601562500e+01,-2.090458106994628906e+01,-9.345405578613281250e+01,-1.180765380859375000e+02,6.585875701904296875e+01,-2.980424880981445312e+01
8.989289999008178711e-01,1.000000000000000000e+00,-4.216833114624023438e+01,3.411623382568359375e+01,3.405608749389648438e+01,9.614043426513671875e+01,9.902597808837890625e+01,-7.232870101928710938e+00,5.500723266601562500e+01,-2.090458106994628906e+01,-9.345405578613281250e+01,-1.180766754150390625e+02,6.585875701904296875e+01,-2.980424880981445312e+01
9.039679765701293945e-01,1.000000000000000000e+00,-4.216833114624023438e+01,3.411623382568359375e+01,3.405608749389648438e+01,9.614043426513671875e+01,9.902597808837890625e+01,-7.232870101928710938e+00,5.500723266601562500e+01,-2.090458106994628906e+01,-9.345405578613281250e+01,-1.180766754150390625e+02,6.585875701904296875e+01,-2.980424880981445312e+01
9.068419933319091797e-01,1.000000000000000000e+00,-4.225442123413085938e+01,3.394729995727539062e+01,3.410183715820312500e+01,9.598641204833984375e+01,9.906532287597656250e+01,-7.279188632965087891e+00,5.500723266601562500e+01,-2.090448951721191406e+01,-9.345405578613281250e+01,-1.180766754150390625e+02,6.585875701904296875e+01,-2.980424880981445312e+01
9.119110107421875000e-01,1.000000000000000000e+00,-4.225442123413085938e+01,3.394729995727539062e+01,3.410183715820312500e+01,9.598641204833984375e+01,9.906532287597656250e+01,-7.279188632965087891e+00,5.500723266601562500e+01,-2.090448951721191406e+01,-9.345405578613281250e+01,-1.180766754150390625e+02,6.585875701904296875e+01,-2.980424880981445312e+01
9.148749709129333496e-01,1.000000000000000000e+00,-4.234085845947265625e+01,3.377832412719726562e+01,3.414764404296875000e+01,9.583191680908203125e+01,9.910690307617187500e+01,-7.325439453125000000e+00,5.500723266601562500e+01,-2.090448951721191406e+01,-9.345405578613281250e+01,-1.180766754150390625e+02,6.585875701904296875e+01,-2.980424880981445312e+01
9.199609756469726562e-01,1.000000000000000000e+00,-4.234085845947265625e+01,3.377832412719726562e+01,3.414764404296875000e+01,9.583191680908203125e+01,9.910690307617187500e+01,-7.325439453125000000e+00,5.500723266601562500e+01,-2.090448951721191406e+01,-9.345405578613281250e+01,-1.180766754150390625e+02,6.585875701904296875e+01,-2.980424880981445312e+01
9.229199886322021484e-01,1.000000000000000000e+00,-4.242715072631835938e+01,3.360794448852539062e+01,3.419318771362304688e+01,9.567758178710937500e+01,9.914657592773437500e+01,-7.372504711151123047e+00,5.500723266601562500e+01,-2.090458106994628906e+01,-9.345405578613281250e+01,-1.180766754150390625e+02,6.585875701904296875e+01,-2.980424880981445312e+01
9.279000163078308105e-01,1.000000000000000000e+00,-4.242715072631835938e+01,3.360794448852539062e+01,3.419318771362304688e+01,9.567758178710937500e+01,9.914657592773437500e+01,-7.372504711151123047e+00,5.500723266601562500e+01,-2.090458106994628906e+01,-9.345405578613281250e+01,-1.180766754150390625e+02,6.585875701904296875e+01,-2.980424880981445312e+01
9.308450222015380859e-01,1.000000000000000000e+00,-4.251390457153320312e+01,3.343688583374023438e+01,3.423931884765625000e+01,9.552203369140625000e+01,9.918602752685546875e+01,-7.420857906341552734e+00,5.500723266601562500e+01,-2.090458106994628906e+01,-9.345405578613281250e+01,-1.180766754150390625e+02,6.585875701904296875e+01,-2.980424880981445312e+01
9.359229803085327148e-01,1.000000000000000000e+00,-4.251390457153320312e+01,3.343688583374023438e+01,3.423931884765625000e+01,9.552203369140625000e+01,9.918602752685546875e+01,-7.420857906341552734e+00,5.500723266601562500e+01,-2.090458106994628906e+01,-9.345405578613281250e+01,-1.180766754150390625e+02,6.585875701904296875e+01,-2.980424880981445312e+01
9.388939738273620605e-01,1.000000000000000000e+00,-4.260025405883789062e+01,3.326670837402343750e+01,3.428522872924804688e+01,9.536759948730468750e+01,9.922660827636718750e+01,-7.467651844024658203e+00,5.500723266601562500e+01,-2.090448951721191406e+01,-9.345405578613281250e+01,-1.180766754150390625e+02,6.585875701904296875e+01,-2.980424880981445312e+01
9.439489841461181641e-01,1.000000000000000000e+00,-4.260025405883789062e+01,3.326670837402343750e+01,3.428522872924804688e+01,9.536759948730468750e+01,9.922660827636718750e+01,-7.467651844024658203e+00,5.500723266601562500e+01,-2.090448951721191406e+01,-9.345405578613281250e+01,-1.180766754150390625e+02,6.585875701904296875e+01,-2.980424880981445312e+01
9.478510022163391113e-01,1.000000000000000000e+00,-4.268663406372070312e+01,3.309671020507812500e+01,3.433101654052734375e+01,9.521252441406250000e+01,9.926877593994140625e+01,-7.514377117156982422e+00,5.500734329223632812e+01,-2.090458106994628906e+01,-9.345405578613281250e+01,-1.180766754150390625e+02,6.585875701904296875e+01,-2.980424880981445312e+01
9.508399963378906250e-01,1.000000000000000000e+00,-4.272972106933593750e+01,3.301153182983398438e+01,3.435419464111328125e+01,9.513446044921875000e+01,9.928845214843750000e+01,-7.538045406341552734e+00,5.500723266601562500e+01,-2.090458106994628906e+01,-9.345405578613281250e+01,-1.180766754150390625e+02,6.585875701904296875e+01,-2.980424880981445312e+01
9.559429883956909180e-01,1.000000000000000000e+00,-4.272972106933593750e+01,3.301153182983398438e+01,3.435419464111328125e+01,9.513446044921875000e+01,9.928845214843750000e+01,-7.538045406341552734e+00,5.500723266601562500e+01,-2.090458106994628906e+01,-9.345405578613281250e+01,-1.180766754150390625e+02,6.585875701904296875e+01,-2.980424880981445312e+01
9.605330228805541992e-01,1.000000000000000000e+00,-4.281624221801757812e+01,3.283974838256835938e+01,3.439989852905273438e+01,9.497944641113281250e+01,9.932726287841796875e+01,-7.586466312408447266e+00,5.500734329223632812e+01,-2.090458106994628906e+01,-9.345405578613281250e+01,-1.180766754150390625e+02,6.585875701904296875e+01,-2.980424880981445312e+01
9.638749957084655762e-01,1.000000000000000000e+00,-4.285939025878906250e+01,3.275330352783203125e+01,3.442293548583984375e+01,9.490211486816406250e+01,9.934720611572265625e+01,-7.610880851745605469e+00,5.500723266601562500e+01,-2.090448951721191406e+01,-9.345405578613281250e+01,-1.180766754150390625e+02,6.585875701904296875e+01,-2.980424880981445312e+01
9.668589830398559570e-01,1.000000000000000000e+00,-4.290253448486328125e+01,3.266685485839843750e+01,3.444615554809570312e+01,9.482363128662109375e+01,9.936794281005859375e+01,-7.634210109710693359e+00,5.500723266601562500e+01,-2.090458106994628906e+01,-9.345405578613281250e+01,-1.180766754150390625e+02,6.585875701904296875e+01,-2.980402946472167969e+01
9.719690084457397461e-01,1.000000000000000000e+00,-4.290253448486328125e+01,3.266685485839843750e+01,3.444615554809570312e+01,9.482363128662109375e+01,9.936794281005859375e+01,-7.634210109710693359e+00,5.500723266601562500e+01,-2.090458106994628906e+01,-9.345405578613281250e+01,-1.180766754150390625e+02,6.585875701904296875e+01,-2.980402946472167969e+01
9.749259948730468750e-01,1.000000000000000000e+00,-4.298914718627929688e+01,3.249536514282226562e+01,3.449245071411132812e+01,9.466777038574218750e+01,9.940963745117187500e+01,-7.680460929870605469e+00,5.500723266601562500e+01,-2.090448951721191406e+01,-9.345405578613281250e+01,-1.180766754150390625e+02,6.585875701904296875e+01,-2.980424880981445312e+01
9.799060225486755371e-01,1.000000000000000000e+00,-4.298914718627929688e+01,3.249536514282226562e+01,3.449245071411132812e+01,9.466777038574218750e+01,9.940963745117187500e+01,-7.680460929870605469e+00,5.500723266601562500e+01,-2.090448951721191406e+01,-9.345405578613281250e+01,-1.180766754150390625e+02,6.585875701904296875e+01,-2.980424880981445312e+01
9.846609830856323242e-01,1.000000000000000000e+00,-4.307552337646484375e+01,3.232446670532226562e+01,3.453809356689453125e+01,9.451180267333984375e+01,9.944915008544921875e+01,-7.728271961212158203e+00,5.500723266601562500e+01,-2.090448951721191406e+01,-9.345405578613281250e+01,-1.180766754150390625e+02,6.585875701904296875e+01,-2.980424880981445312e+01
9.874380230903625488e-01,1.000000000000000000e+00,-4.311890029907226562e+01,3.223842620849609375e+01,3.456127166748046875e+01,9.443410491943359375e+01,9.946903228759765625e+01,-7.752414226531982422e+00,5.500723266601562500e+01,-2.090458106994628906e+01,-9.345405578613281250e+01,-1.180766754150390625e+02,6.585875701904296875e+01,-2.980424880981445312e+01
9.908869862556457520e-01,1.000000000000000000e+00,-4.311890029907226562e+01,3.223842620849609375e+01,3.456127166748046875e+01,9.443410491943359375e+01,9.946903228759765625e+01,-7.752414226531982422e+00,5.500723266601562500e+01,-2.090458106994628906e+01,-9.345405578613281250e+01,-1.180766754150390625e+02,6.585875701904296875e+01,-2.980424880981445312e+01
9.959620237350463867e-01,1.000000000000000000e+00,-4.316207504272460938e+01,3.215238571166992188e+01,3.458441162109375000e+01,9.435609436035156250e+01,9.948892211914062500e+01,-7.777099132537841797e+00,5.500723266601562500e+01,-2.090458106994628906e+01,-9.345405578613281250e+01,-1.180766754150390625e+02,6.585875701904296875e+01,-2.980424880981445312e+01
1.000861048698425293e+00,1.000000000000000000e+00,-4.324868392944335938e+01,3.197872352600097656e+01,3.463087081909179688e+01,9.419986724853515625e+01,9.953066253662109375e+01,-7.825113773345947266e+00,5.500723266601562500e+01,-2.090448951721191406e+01,-9.345405578613281250e+01,-1.180766754150390625e+02,6.585875701904296875e+01,-2.980424880981445312e+01
1.003487944602966309e+00,1.000000000000000000e+00,-4.329208755493164062e+01,3.189232254028320312e+01,3.465396499633789062e+01,9.412148284912109375e+01,9.955178070068359375e+01,-7.848374843597412109e+00,5.500723266601562500e+01,-2.090458106994628906e+01,-9.345405578613281250e+01,-1.180766754150390625e+02,6.585875701904296875e+01,-2.980424880981445312e+01
1.008649945259094238e+00,1.000000000000000000e+00,-4.329208755493164062e+01,3.189232254028320312e+01,3.465396499633789062e+01,9.412148284912109375e+01,9.955178070068359375e+01,-7.848374843597412109e+00,5.500723266601562500e+01,-2.090458106994628906e+01,-9.345405578613281250e+01,-1.180766754150390625e+02,6.585875701904296875e+01,-2.980424880981445312e+01
1.011443018913269043e+00,1.000000000000000000e+00,-4.337918472290039062e+01,3.172020149230957031e+01,3.470056915283203125e+01,9.396498870849609375e+01,9.959165954589843750e+01,-7.895576000213623047e+00,5.500723266601562500e+01,-2.090458106994628906e+01,-9.345405578613281250e+01,-1.180765380859375000e+02,6.585875701904296875e+01,-2.980424880981445312e+01
1.014901041984558105e+00,1.000000000000000000e+00,-4.337918472290039062e+01,3.172020149230957031e+01,3.470056915283203125e+01,9.396498870849609375e+01,9.959165954589843750e+01,-7.895576000213623047e+00,5.500723266601562500e+01,-2.090458106994628906e+01,-9.345405578613281250e+01,-1.180765380859375000e+02,6.585875701904296875e+01,-2.980424880981445312e+01
1.019994020462036133e+00,1.000000000000000000e+00,-4.342290496826171875e+01,3.163431930541992188e+01,3.472364425659179688e+01,9.388661193847656250e+01,9.961117553710937500e+01,-7.919786453247070312e+00,5.500723266601562500e+01,-2.090458106994628906e+01,-9.345405578613281250e+01,-1.180766754150390625e+02,6.585875701904296875e+01,-2.980424880981445312e+01
1.024862051010131836e+00,1.000000000000000000e+00,-4.346659851074218750e+01,3.154835128784179688e+01,3.474671936035156250e+01,9.380765533447265625e+01,9.963106536865234375e+01,-7.944268226623535156e+00,5.500723266601562500e+01,-2.090458106994628906e+01,-9.345405578613281250e+01,-1.180766754150390625e+02,6.585875701904296875e+01,-2.980424880981445312e+01
1.027479052543640137e+00,1.000000000000000000e+00,-4.355409622192382812e+01,3.137543487548828125e+01,3.479344177246093750e+01,9.365089416503906250e+01,9.967264556884765625e+01,-7.993029117584228516e+00,5.500723266601562500e+01,-2.090458106994628906e+01,-9.345405578613281250e+01,-1.180766754150390625e+02,6.585875701904296875e+01,-2.980424880981445312e+01
1.031280040740966797e+00,1.000000000000000000e+00,-4.355409622192382812e+01,3.137543487548828125e+01,3.479344177246093750e+01,9.365089416503906250e+01,9.967264556884765625e+01,-7.993029117584228516e+00,5.500723266601562500e+01,-2.090458106994628906e+01,-9.345405578613281250e+01,-1.180766754150390625e+02,6.585875701904296875e+01,-2.980424880981445312e+01
1.036926984786987305e+00,1.000000000000000000e+00,-4.359790039062500000e+01,3.128830718994140625e+01,3.481680297851562500e+01,9.357219696044921875e+01,9.969371032714843750e+01,-8.016560554504394531e+00,5.500723266601562500e+01,-2.090458106994628906e+01,-9.345405578613281250e+01,-1.180766754150390625e+02,6.585875701904296875e+01,-2.980424880981445312e+01
1.039710998535156250e+00,1.000000000000000000e+00,-4.368568801879882812e+01,3.111414909362792969e+01,3.486334228515625000e+01,9.341497039794921875e+01,9.973385620117187500e+01,-8.063558578491210938e+00,5.500723266601562500e+01,-2.090458106994628906e+01,-9.345405578613281250e+01,-1.180766754150390625e+02,6.585875701904296875e+01,-2.980424880981445312e+01
1.044005990028381348e+00,1.000000000000000000e+00,-4.368568801879882812e+01,3.111414909362792969e+01,3.486334228515625000e+01,9.341497039794921875e+01,9.973385620117187500e+01,-8.063558578491210938e+00,5.500723266601562500e+01,-2.090458106994628906e+01,-9.345405578613281250e+01,-1.180766754150390625e+02,6.585875701904296875e+01,-2.980424880981445312e+01
1.047894001007080078e+00,1.000000000000000000e+00,-4.372980880737304688e+01,3.102763366699218750e+01,3.488656234741210938e+01,9.333664703369140625e+01,9.975379180908203125e+01,-8.087565422058105469e+00,5.500712203979492188e+01,-2.090448951721191406e+01,-9.345405578613281250e+01,-1.180765380859375000e+02,6.585875701904296875e+01,-2.980424880981445312e+01
1.051888942718505859e+00,1.000000000000000000e+00,-4.377387237548828125e+01,3.094154930114746094e+01,3.491008377075195312e+01,9.325763702392578125e+01,9.977394866943359375e+01,-8.112047195434570312e+00,5.500723266601562500e+01,-2.090448951721191406e+01,-9.345405578613281250e+01,-1.180766754150390625e+02,6.585875701904296875e+01,-2.980424880981445312e+01
1.056664943695068359e+00,1.000000000000000000e+00,-4.381771087646484375e+01,3.085530853271484375e+01,3.493342590332031250e+01,9.317909240722656250e+01,9.979436492919921875e+01,-8.136461257934570312e+00,5.500712203979492188e+01,-2.090458106994628906e+01,-9.345405578613281250e+01,-1.180766754150390625e+02,6.585875701904296875e+01,-2.980424880981445312e+01
1.059506058692932129e+00,1.000000000000000000e+00,-4.390583801269531250e+01,3.068164634704589844e+01,3.498012924194335938e+01,9.302091217041015625e+01,9.983691406250000000e+01,-8.185086250305175781e+00,5.500723266601562500e+01,-2.090458106994628906e+01,-9.345405578613281250e+01,-1.180766754150390625e+02,6.585875701904296875e+01,-2.980424880981445312e+01
1.063891053199768066e+00,1.000000000000000000e+00,-4.390583801269531250e+01,3.068164634704589844e+01,3.498012924194335938e+01,9.302091217041015625e+01,9.983691406250000000e+01,-8.185086250305175781e+00,5.500723266601562500e+01,-2.090458106994628906e+01,-9.345405578613281250e+01,-1.180766754150390625e+02,6.585875701904296875e+01,-2.980424880981445312e+01
1.067957997322082520e+00,1.000000000000000000e+00,-4.395001983642578125e+01,3.059429168701171875e+01,3.500353240966796875e+01,9.294132232666015625e+01,9.985759735107421875e+01,-8.208415031433105469e+00,5.500712203979492188e+01,-2.090448951721191406e+01,-9.345405578613281250e+01,-1.180766754150390625e+02,6.585860443115234375e+01,-2.980424880981445312e+01
1.071892976760864258e+00,1.000000000000000000e+00,-4.399411392211914062e+01,3.050642204284667969e+01,3.502713775634765625e+01,9.286273193359375000e+01,9.987743377685546875e+01,-8.232014656066894531e+00,5.500723266601562500e+01,-2.090458106994628906e+01,-9.345405578613281250e+01,-1.180765380859375000e+02,6.585875701904296875e+01,-2.980424880981445312e+01
1.075903058052062988e+00,1.000000000000000000e+00,-4.403826141357421875e+01,3.041888999938964844e+01,3.505045318603515625e+01,9.278330230712890625e+01,9.989715576171875000e+01,-8.255818367004394531e+00,5.500723266601562500e+01,-2.090458106994628906e+01,-9.345405578613281250e+01,-1.180766754150390625e+02,6.585875701904296875e+01,-2.980424880981445312e+01
1.081429004669189453e+00,1.000000000000000000e+00,-4.408224105834960938e+01,3.033158302307128906e+01,3.507383728027343750e+01,9.270381927490234375e+01,9.991725921630859375e+01,-8.279893875122070312e+00,5.500723266601562500e+01,-2.090458106994628906e+01,-9.345405578613281250e+01,-1.180766754150390625e+02,6.585875701904296875e+01,-2.980424880981445312e+01
1.084241986274719238e+00,1.000000000000000000e+00,-4.417026138305664062e+01,3.015789794921875000e+01,3.512072372436523438e+01,9.254600524902343750e+01,9.995874023437500000e+01,-8.329535484313964844e+00,5.500723266601562500e+01,-2.090458106994628906e+01,-9.345405578613281250e+01,-1.180766754150390625e+02,6.585889434814453125e+01,-2.980424880981445312e+01
1.087049007415771484e+00,1.000000000000000000e+00,-4.417026138305664062e+01,3.015789794921875000e+01,3.512072372436523438e+01,9.254600524902343750e+01,9.995874023437500000e+01,-8.329535484313964844e+00,5.500723266601562500e+01,-2.090458106994628906e+01,-9.345405578613281250e+01,-1.180766754150390625e+02,6.585889434814453125e+01,-2.980424880981445312e+01
1.090965986251831055e+00,1.000000000000000000e+00,-4.421429443359375000e+01,3.007100105285644531e+01,3.514424514770507812e+01,9.246673583984375000e+01,9.998011779785156250e+01,-8.354085922241210938e+00,5.500723266601562500e+01,-2.090448951721191406e+01,-9.345405578613281250e+01,-1.180766754150390625e+02,6.585875701904296875e+01,-2.980424880981445312e+01
1.095971941947937012e+00,1.000000000000000000e+00,-4.425838851928710938e+01,2.998366928100585938e+01,3.516770935058593750e+01,9.238719940185546875e+01,1.000010223388671875e+02,-8.378092765808105469e+00,5.500723266601562500e+01,-2.090458106994628906e+01,-9.345405578613281250e+01,-1.180765380859375000e+02,6.585875701904296875e+01,-2.980424880981445312e+01
1.099195957183837891e+00,1.000000000000000000e+00,-4.430213928222656250e+01,2.989575195312500000e+01,3.519109344482421875e+01,9.230812835693359375e+01,1.000209655761718750e+02,-8.401353836059570312e+00,5.500712203979492188e+01,-2.090458106994628906e+01,-9.345405578613281250e+01,-1.180766754150390625e+02,6.585875701904296875e+01,-2.980424880981445312e+01
1.103636026382446289e+00,1.000000000000000000e+00,-4.434626007080078125e+01,2.980772399902343750e+01,3.521451187133789062e+01,9.222864532470703125e+01,1.000408020019531250e+02,-8.425225257873535156e+00,5.500723266601562500e+01,-2.090458106994628906e+01,-9.345405578613281250e+01,-1.180766754150390625e+02,6.585875701904296875e+01,-2.980424880981445312e+01
1.110980987548828125e+00,1.000000000000000000e+00,-4.439032363891601562e+01,2.971969413757324219e+01,3.523811721801757812e+01,9.214868927001953125e+01,1.000612106323242188e+02,-8.449299812316894531e+00,5.500723266601562500e+01,-2.090458106994628906e+01,-9.345405578613281250e+01,-1.180766754150390625e+02,6.585875701904296875e+01,-2.980424880981445312e+01
1.112383961677551270e+00,1.000000000000000000e+00,-4.447819519042968750e+01,2.954426765441894531e+01,3.528543090820312500e+01,9.198934173583984375e+01,1.001031265258789062e+02,-8.498127937316894531e+00,5.500712203979492188e+01,-2.090458106994628906e+01,-9.345405578613281250e+01,-1.180766754150390625e+02,6.585875701904296875e+01,-2.980424880981445312e+01
