rpiRobotics/ARM-21-02-F-19-Robot-Motion-Program/data_performance_abb/curve_2/baseline/100L/realrobot/bisect/run_1realrobot_curve_exe_v200.0_z10.csv
timestamp, cmd_num, J1, J2, J3, J4, J5, J6
0.000399, -1, 39.6336, 32.4443, 11.8324, 12.5483, 113.716, -48.8694
0.004406, -1, 39.6336, 32.4443, 11.8324, 12.5483, 113.716, -48.8694
0.007686, -1, 39.6336, 32.4443, 11.8324, 12.5483, 113.716, -48.8694
0.028423, -1, 39.6336, 32.4443, 11.8324, 12.5483, 113.716, -48.8694
0.031348, -1, 39.6336, 32.4443, 11.8324, 12.5483, 113.716, -48.8694
0.034577, -1, 39.6336, 32.4443, 11.8324, 12.5483, 113.716, -48.8694
0.039543, -1, 39.6336, 32.4443, 11.8324, 12.5483, 113.716, -48.8694
0.047486, -1, 39.6335, 32.4443, 11.8324, 12.5483, 113.716, -48.8694
0.055571, -1, 39.6329, 32.4442, 11.8324, 12.5483, 113.716, -48.8694
0.063469, -1, 39.6305, 32.4438, 11.8324, 12.5483, 113.716, -48.8695
0.071474, -1, 39.6252, 32.4423, 11.8324, 12.5483, 113.716, -48.8698
0.079549, -1, 39.6162, 32.4392, 11.8323, 12.5482, 113.715, -48.8713
0.087508, -1, 39.603, 32.4338, 11.8322, 12.5482, 113.714, -48.8757
0.095473, -1, 39.5834, 32.4252, 11.8323, 12.5482, 113.711, -48.8858
0.103537, -1, 39.5549, 32.4125, 11.8328, 12.5481, 113.704, -48.906
0.11151, -1, 39.5166, 32.3947, 11.835, 12.5481, 113.692, -48.939
0.119473, -1, 39.4674, 32.3708, 11.84, 12.5481, 113.673, -48.9891
0.127542, -1, 39.4056, 32.3403, 11.8485, 12.5481, 113.646, -49.0604
0.135508, -1, 39.3305, 32.3024, 11.8614, 12.5482, 113.609, -49.1544
0.143518, -1, 39.2417, 32.2567, 11.8793, 12.5484, 113.562, -49.274
0.151621, -1, 39.1389, 32.203, 11.9018, 12.549, 113.505, -49.4189
0.159565, -1, 39.0219, 32.1416, 11.9285, 12.5499, 113.438, -49.5885
0.167633, -1, 38.8914, 32.0728, 11.9592, 12.5514, 113.362, -49.7809
0.175663, -1, 38.7486, 31.9974, 11.9932, 12.5531, 113.278, -49.9929
0.183576, -1, 38.5944, 31.9161, 12.0295, 12.5551, 113.188, -50.2209
0.191475, -1, 38.4301, 31.8299, 12.0672, 12.5573, 113.093, -50.4609
0.199598, -1, 38.2579, 31.7396, 12.106, 12.5598, 112.995, -50.7094
0.207508, -1, 38.0795, 31.6464, 12.1451, 12.5621, 112.895, -50.963
0.215559, -1, 37.8959, 31.551, 12.1839, 12.5645, 112.794, -51.2199
0.223898, -1, 37.7083, 31.4541, 12.2228, 12.5669, 112.692, -51.4785
0.231614, -1, 37.5181, 31.3564, 12.2616, 12.5694, 112.589, -51.7381
0.239794, -1, 37.3264, 31.2585, 12.3004, 12.5719, 112.486, -51.9977
0.247802, -1, 37.1343, 31.1606, 12.3393, 12.5744, 112.384, -52.2577
0.255847, -1, 36.9421, 31.0629, 12.378, 12.5771, 112.281, -52.5177
0.264118, -1, 36.7503, 30.9651, 12.4168, 12.5796, 112.177, -52.7781
0.272312, -1, 36.5586, 30.8674, 12.4557, 12.5822, 112.075, -53.0386
0.280016, -1, 36.3671, 30.7698, 12.4945, 12.5848, 111.971, -53.2989
0.288098, -1, 36.1756, 30.6721, 12.5333, 12.5874, 111.868, -53.5595
0.296324, -1, 35.9841, 30.5742, 12.5722, 12.59, 111.766, -53.8201
0.304092, -1, 35.7926, 30.4762, 12.6112, 12.5926, 111.663, -54.0809
0.312156, -1, 35.6009, 30.3782, 12.6501, 12.5951, 111.56, -54.3412
0.320281, -1, 35.5049, 30.3291, 12.6695, 12.5965, 111.508, -54.4714
0.327464, -1, 35.3128, 30.2308, 12.7083, 12.5991, 111.405, -54.732
0.335506, -1, 35.1202, 30.1325, 12.7472, 12.6017, 111.302, -54.9927
0.34346, -1, 34.9278, 30.0341, 12.7861, 12.6043, 111.199, -55.2535
0.351476, -1, 34.7355, 29.9356, 12.8249, 12.6069, 111.095, -55.5141
0.359607, -1, 34.5432, 29.8372, 12.8638, 12.6094, 110.992, -55.775
0.367463, -1, 34.351, 29.7388, 12.9028, 12.612, 110.889, -56.0359
0.37546, -1, 34.1588, 29.6405, 12.9417, 12.6147, 110.786, -56.2968
0.383505, -1, 33.9668, 29.5423, 12.9807, 12.6173, 110.683, -56.5576
0.39151, -1, 33.7751, 29.4441, 13.0197, 12.62, 110.58, -56.8184
0.399457, -1, 33.5831, 29.3458, 13.0585, 12.6226, 110.477, -57.0794
0.408966, -1, 33.2947, 29.1983, 13.117, 12.6267, 110.322, -57.4711
0.417406, -1, 33.1021, 29.0998, 13.1558, 12.6293, 110.219, -57.7321
0.423499, -1, 33.0057, 29.0506, 13.1752, 12.6307, 110.167, -57.8626
0.431519, -1, 32.8128, 28.9521, 13.2142, 12.6333, 110.064, -58.1238
0.441148, -1, 32.6194, 28.8534, 13.2725, 12.6374, 109.91, -58.5158
0.447511, -1, 32.4258, 28.7548, 13.2919, 12.6388, 109.858, -58.6463
0.456439, -1, 32.2319, 28.6561, 13.3309, 12.6415, 109.755, -58.9074
0.463457, -1, 32.0378, 28.5573, 13.3697, 12.6442, 109.652, -59.1685
0.471457, -1, 31.8439, 28.4585, 13.4086, 12.647, 109.549, -59.43
0.47952, -1, 31.6503, 28.3598, 13.4476, 12.6497, 109.446, -59.6914
0.487503, -1, 31.4568, 28.2611, 13.4866, 12.6526, 109.343, -59.9526
0.495526, -1, 31.2636, 28.1625, 13.5255, 12.6552, 109.24, -60.214
0.629179, -1, 28.0761, 26.5339, 14.1681, 12.6985, 107.535, -64.5299
0.63123, -1, 27.9797, 26.4845, 14.1876, 12.6998, 107.484, -64.6607
0.633348, -1, 27.9797, 26.4845, 14.1876, 12.6998, 107.484, -64.6607
0.635418, -1, 27.8832, 26.4351, 14.2071, 12.701, 107.432, -64.7916
0.636911, -1, 27.8832, 26.4351, 14.2071, 12.701, 107.432, -64.7916
0.63876, -1, 27.7869, 26.3857, 14.2266, 12.7021, 107.381, -64.9226
0.640219, -1, 27.7869, 26.3857, 14.2266, 12.7021, 107.381, -64.9226
0.643605, -1, 27.6905, 26.3363, 14.246, 12.7033, 107.329, -65.0536
0.78235, -1, 24.4056, 24.6563, 14.9081, 12.7428, 105.573, -69.5031
0.784386, -1, 24.3094, 24.6069, 14.9276, 12.744, 105.522, -69.6339
0.785611, -1, 24.3094, 24.6069, 14.9276, 12.744, 105.522, -69.6339
0.78679, -1, 24.3094, 24.6069, 14.9276, 12.744, 105.522, -69.6339
0.788981, -1, 24.2132, 24.5575, 14.9471, 12.7452, 105.47, -69.7646
0.790316, -1, 24.2132, 24.5575, 14.9471, 12.7452, 105.47, -69.7646
0.792192, -1, 24.1169, 24.5081, 14.9666, 12.7463, 105.419, -69.8953
0.797071, -1, 24.0206, 24.4587, 14.9861, 12.7475, 105.367, -70.0261
0.79837, -1, 24.0206, 24.4587, 14.9861, 12.7475, 105.367, -70.0261
0.801192, -1, 23.9242, 24.4093, 15.0056, 12.7487, 105.315, -70.1569
0.802521, -1, 23.9242, 24.4093, 15.0056, 12.7487, 105.315, -70.1569
0.804699, -1, 23.8277, 24.3599, 15.0251, 12.7499, 105.263, -70.2877
0.805995, -1, 23.8277, 24.3599, 15.0251, 12.7499, 105.263, -70.2877
0.807187, -1, 23.8277, 24.3599, 15.0251, 12.7499, 105.263, -70.2877
0.809239, -1, 23.7313, 24.3104, 15.0445, 12.7511, 105.212, -70.4185
0.812053, -1, 23.7313, 24.261, 15.064, 12.7523, 105.16, -70.5494
0.813429, -1, 23.6348, 24.261, 15.064, 12.7523, 105.16, -70.5494
0.814756, -1, 23.6348, 24.261, 15.064, 12.7523, 105.16, -70.5494
0.816712, -1, 23.5382, 24.2116, 15.0834, 12.7535, 105.108, -70.6804
0.818002, -1, 23.5382, 24.2116, 15.0834, 12.7535, 105.108, -70.6804
0.819243, -1, 23.5382, 24.2116, 15.0834, 12.7535, 105.108, -70.6804
0.821939, -1, 23.4415, 24.1622, 15.1029, 12.7546, 105.057, -70.8112
0.826465, -1, 23.3447, 24.1127, 15.1224, 12.7559, 105.005, -70.9419
0.828357, -1, 23.2478, 24.0632, 15.1418, 12.7571, 104.953, -71.0728
0.829773, -1, 23.2478, 24.0632, 15.1418, 12.7571, 104.953, -71.0728
0.83095, -1, 23.2478, 24.0632, 15.1418, 12.7571, 104.953, -71.0728
0.833009, -1, 23.1508, 24.0138, 15.1612, 12.7584, 104.901, -71.2037
0.834312, -1, 23.1508, 24.0138, 15.1612, 12.7584, 104.901, -71.2037
0.836187, -1, 23.1508, 24.0138, 15.1612, 12.7584, 104.901, -71.3347
0.83754, -1, 23.0538, 23.9643, 15.1806, 12.7596, 104.85, -71.3347
0.839023, -1, 23.0538, 23.9643, 15.1806, 12.7596, 104.85, -71.3347
0.840991, -1, 22.9568, 23.9149, 15.2001, 12.7608, 104.798, -71.4656
0.842294, -1, 22.9568, 23.9149, 15.2001, 12.7608, 104.798, -71.4656
0.84354, -1, 22.9568, 23.9149, 15.2001, 12.7608, 104.798, -71.4656
0.846294, -1, 22.8597, 23.8655, 15.2196, 12.762, 104.746, -71.5964
0.849194, -1, 22.8597, 23.8655, 15.2196, 12.762, 104.746, -71.5964
0.855434, -1, 22.6657, 23.7667, 15.2586, 12.7645, 104.643, -71.8583
0.863448, -1, 22.4719, 23.6681, 15.2976, 12.767, 104.54, -72.1198
0.871443, -1, 22.2784, 23.5695, 15.3366, 12.7695, 104.436, -72.3811
0.880764, -1, 21.9886, 23.4214, 15.3949, 12.7734, 104.281, -72.7735
0.888856, -1, 21.7959, 23.3228, 15.4339, 12.776, 104.178, -73.035
0.895459, -1, 21.6997, 23.2734, 15.4534, 12.7773, 104.126, -73.1656
0.903449, -1, 21.5076, 23.1746, 15.4923, 12.7801, 104.023, -73.427
0.912972, -1, 21.2192, 23.0266, 15.5508, 12.784, 103.869, -73.8193
0.922503, -1, 21.0268, 22.928, 15.5897, 12.7868, 103.766, -74.0806
0.927465, -1, 20.9306, 22.8786, 15.6092, 12.7881, 103.714, -74.2112
0.936989, -1, 20.7382, 22.78, 15.6481, 12.7922, 103.559, -74.603
0.943454, -1, 20.5455, 22.6814, 15.687, 12.7935, 103.508, -74.7337
0.952423, -1, 20.3524, 22.5828, 15.7258, 12.7963, 103.405, -74.995
0.959505, -1, 20.1586, 22.484, 15.7648, 12.799, 103.302, -75.2562
0.96848, -1, 19.9649, 22.3853, 15.8037, 12.8017, 103.199, -75.5173
0.976423, -1, 19.7713, 22.2867, 15.8424, 12.8044, 103.096, -75.7784
0.983507, -1, 19.5775, 22.1881, 15.8813, 12.8071, 102.993, -76.0398
0.991428, -1, 19.384, 22.0895, 15.9202, 12.8099, 102.89, -76.301
0.999435, -1, 19.191, 21.9909, 15.9591, 12.8125, 102.787, -76.5618
1.00743, -1, 18.9982, 21.8922, 15.998, 12.8152, 102.683, -76.8227
1.01543, -1, 18.8057, 21.7936, 16.0369, 12.8179, 102.58, -77.0836
1.02351, -1, 18.6136, 21.6949, 16.0756, 12.8206, 102.478, -77.3446
1.03143, -1, 18.4218, 21.5963, 16.1146, 12.8232, 102.375, -77.6053
1.03944, -1, 18.2299, 21.4978, 16.1534, 12.8258, 102.272, -77.8661
1.0475, -1, 18.0381, 21.3993, 16.1922, 12.8284, 102.169, -78.1269
1.0555, -1, 17.8463, 21.301, 16.2311, 12.8309, 102.066, -78.3877
1.06347, -1, 17.6541, 21.2027, 16.27, 12.8334, 101.963, -78.6482
1.0715, -1, 17.4618, 21.1044, 16.3088, 12.8359, 101.86, -78.9086
1.07944, -1, 17.269, 21.0061, 16.3477, 12.8383, 101.757, -79.1694
1.08743, -1, 17.0758, 20.9078, 16.3865, 12.8406, 101.654, -79.43
1.09554, -1, 16.8827, 20.8096, 16.4253, 12.843, 101.551, -79.6905
1.10344, -1, 16.6896, 20.7115, 16.4641, 12.8454, 101.448, -79.951
1.11143, -1, 16.4966, 20.6132, 16.5027, 12.8477, 101.346, -80.2115
1.11954, -1, 16.3037, 20.515, 16.5415, 12.85, 101.243, -80.4721
1.12743, -1, 16.1113, 20.4166, 16.5803, 12.8522, 101.141, -80.7327
1.1355, -1, 15.9194, 20.3182, 16.619, 12.8545, 101.038, -80.9928
1.14348, -1, 15.7278, 20.2197, 16.6578, 12.8568, 100.935, -81.2528
1.15152, -1, 15.5365, 20.1213, 16.6964, 12.8592, 100.833, -81.513
1.15959, -1, 15.3453, 20.0231, 16.7351, 12.8615, 100.73, -81.7732
1.16753, -1, 15.1542, 19.9248, 16.7739, 12.8638, 100.627, -82.0329
1.17553, -1, 14.9631, 19.8266, 16.8126, 12.866, 100.525, -82.2929
1.1836, -1, 14.7717, 19.7285, 16.8513, 12.8683, 100.422, -82.5528
1.19154, -1, 14.5802, 19.6304, 16.8901, 12.8705, 100.32, -82.8128
1.19944, -1, 14.3883, 19.5323, 16.9288, 12.8729, 100.217, -83.0725
1.20752, -1, 14.1961, 19.4343, 16.9676, 12.8751, 100.115, -83.332
1.21547, -1, 14.0037, 19.3363, 17.0063, 12.8773, 100.012, -83.5916
1.22355, -1, 13.8112, 19.2385, 17.0449, 12.8797, 99.9096, -83.8513
1.23163, -1, 13.6186, 19.1407, 17.0836, 12.882, 99.807, -84.1107
1.23986, -1, 13.4262, 19.0428, 17.1223, 12.8843, 99.7044, -84.37
1.24777, -1, 13.2342, 18.9449, 17.1608, 12.8866, 99.6022, -84.6293
1.2557, -1, 13.0426, 18.847, 17.1995, 12.889, 99.4998, -84.8886
1.26396, -1, 12.8514, 18.749, 17.2382, 12.8913, 99.3974, -85.148
1.27189, -1, 12.6605, 18.6511, 17.2767, 12.8937, 99.2953, -85.407
1.28061, -1, 12.4698, 18.5533, 17.3153, 12.8961, 99.1929, -85.6658
1.28846, -1, 12.2797, 18.4555, 17.3539, 12.8985, 99.0906, -85.9248
1.296, -1, 12.0896, 18.3578, 17.3924, 12.901, 98.9887, -86.1837
1.30488, -1, 11.8993, 18.2602, 17.431, 12.9034, 98.8864, -86.4426
1.31208, -1, 11.7088, 18.1626, 17.4696, 12.9058, 98.7844, -86.7012
1.32011, -1, 11.6134, 18.1138, 17.508, 12.9083, 98.6827, -86.9598
1.32741, -1, 11.4225, 18.0162, 17.5273, 12.9095, 98.6316, -87.0891
1.33544, -1, 11.2313, 17.9186, 17.5659, 12.9119, 98.5297, -87.3476
1.3435, -1, 11.0398, 17.8211, 17.6044, 12.9144, 98.428, -87.6059
1.35143, -1, 10.8482, 17.7237, 17.6429, 12.9169, 98.3259, -87.8642
1.35944, -1, 10.6564, 17.6263, 17.6814, 12.9194, 98.2238, -88.1224
1.36747, -1, 10.4649, 17.5288, 17.7197, 12.9219, 98.1222, -88.3808
1.37542, -1, 10.2738, 17.4313, 17.7582, 12.9245, 98.0202, -88.639
1.38349, -1, 10.083, 17.3337, 17.7966, 12.9271, 97.9182, -88.897
1.39142, -1, 9.8926, 17.2361, 17.8349, 12.9298, 97.8165, -89.1551
1.39946, -1, 9.70246, 17.1386, 17.8732, 12.9324, 97.7145, -89.4133
1.40757, -1, 9.51285, 17.0412, 17.9116, 12.9352, 97.6125, -89.6713
1.41542, -1, 9.3236, 16.9439, 17.9499, 12.9379, 97.5108, -89.9289
1.42581, -1, 9.03969, 16.7979, 18.0075, 12.9419, 97.3579, -90.3152
1.43154, -1, 8.94499, 16.7493, 18.0266, 12.9432, 97.3071, -90.444
1.43943, -1, 8.75544, 16.6522, 18.0649, 12.9459, 97.2054, -90.7016
1.44977, -1, 8.56579, 16.5551, 18.1034, 12.9485, 97.1036, -90.9588
1.45553, -1, 8.37606, 16.458, 18.1417, 12.9512, 97.0022, -91.216
1.46446, -1, 8.18575, 16.3611, 18.1799, 12.9539, 96.9007, -91.4732
1.47142, -1, 7.99514, 16.2642, 18.2183, 12.9564, 96.7991, -91.7304
1.47951, -1, 7.80457, 16.1673, 18.2566, 12.9591, 96.6977, -91.9873
1.48742, -1, 7.614, 16.0704, 18.2948, 12.9617, 96.5962, -92.2439
1.49542, -1, 7.42352, 15.9735, 18.3332, 12.9642, 96.4947, -92.5007
1.50343, -1, 7.23333, 15.8766, 18.3713, 12.9667, 96.3935, -92.7575
1.51142, -1, 7.0435, 15.7795, 18.4095, 12.9692, 96.2921, -93.0142
1.51952, -1, 6.85406, 15.6826, 18.4478, 12.9718, 96.1908, -93.2706
1.52753, -1, 6.66518, 15.5858, 18.4858, 12.9743, 96.0901, -93.5269
1.53542, -1, 6.47667, 15.489, 18.5238, 12.9769, 95.9889, -93.7834
1.54348, -1, 6.28848, 15.3922, 18.562, 12.9793, 95.8879, -94.0398
1.55144, -1, 6.10047, 15.2955, 18.6001, 12.9817, 95.7872, -94.2957
1.55942, -1, 5.91225, 15.1988, 18.6383, 12.984, 95.6862, -94.5516
1.56751, -1, 5.72385, 15.1022, 18.6765, 12.9863, 95.5852, -94.8076
1.57543, -1, 5.5354, 15.0056, 18.7145, 12.9886, 95.4846, -95.0636
1.58341, -1, 5.34663, 14.9091, 18.7526, 12.9908, 95.3837, -95.3193
1.59149, -1, 5.15741, 14.8127, 18.7908, 12.9931, 95.2829, -95.5747
1.59947, -1, 4.96793, 14.7164, 18.8288, 12.9954, 95.1824, -95.8302
1.60741, -1, 4.77855, 14.62, 18.8669, 12.9976, 95.0816, -96.0856
1.61548, -1, 4.58915, 14.5236, 18.905, 12.9998, 94.9808, -96.3408
1.62392, -1, 4.39982, 14.4273, 18.943, 13.002, 94.8802, -96.5958
1.6324, -1, 4.21085, 14.3309, 18.981, 13.0042, 94.7793, -96.8507
1.6395, -1, 4.02225, 14.2345, 19.019, 13.0065, 94.6785, -97.1058
1.64818, -1, 3.83419, 14.1383, 19.0569, 13.0087, 94.5776, -97.3608
1.65556, -1, 3.64666, 14.0421, 19.0949, 13.0109, 94.4768, -97.6155
1.66371, -1, 3.45952, 13.9459, 19.1328, 13.0133, 94.3762, -97.8702
1.67227, -1, 3.27263, 13.8499, 19.1706, 13.0156, 94.2755, -98.1249
1.67959, -1, 3.08566, 13.7539, 19.2085, 13.0178, 94.1748, -98.3797
1.68795, -1, 2.89867, 13.6578, 19.2464, 13.02, 94.0743, -98.6341
1.69641, -1, 2.71163, 13.5618, 19.2844, 13.0223, 93.9736, -98.8883
1.70359, -1, 2.52435, 13.4659, 19.3223, 13.0245, 93.8732, -99.1423
1.71225, -1, 2.33695, 13.37, 19.36, 13.0268, 93.7729, -99.3966
1.72028, -1, 2.14906, 13.2742, 19.3979, 13.0291, 93.6725, -99.6506
1.72755, -1, 1.96087, 13.1784, 19.4358, 13.0313, 93.5723, -99.9041
1.73638, -1, 1.77276, 13.0825, 19.4735, 13.0336, 93.4724, -100.158
1.74444, -1, 1.58452, 12.9867, 19.5112, 13.0359, 93.3723, -100.412
1.75173, -1, 1.39634, 12.8909, 19.549, 13.0381, 93.2722, -100.665
1.76058, -1, 1.2085, 12.7951, 19.5868, 13.0405, 93.1724, -100.918
1.76785, -1, 1.02111, 12.6993, 19.6245, 13.0428, 93.0722, -101.171
1.77593, -1, 0.834318, 12.6037, 19.6623, 13.0452, 92.9723, -101.424
1.78477, -1, 0.647962, 12.5081, 19.6999, 13.0476, 92.8726, -101.677
1.79193, -1, 0.462019, 12.4127, 19.7375, 13.0501, 92.7726, -101.93
1.80051, -1, 0.276433, 12.3174, 19.7752, 13.0526, 92.6729, -102.183
1.80881, -1, 0.0910783, 12.222, 19.8128, 13.055, 92.5737, -102.436
1.816, -1, -0.00162059, 12.1744, 19.8503, 13.0574, 92.474, -102.688
1.82403, -1, -0.187176, 12.0791, 19.8692, 13.0599, 92.3744, -102.941
1.8314, -1, -0.372898, 11.9839, 19.9068, 13.0611, 92.3248, -103.067
1.83941, -1, -0.558995, 11.8888, 19.9443, 13.0636, 92.2253, -103.319
1.84745, -1, -0.745369, 11.7938, 19.9819, 13.0661, 92.1258, -103.571
1.85544, -1, -0.931849, 11.6988, 20.0194, 13.0686, 92.0265, -103.823
1.8634, -1, -1.11862, 11.6037, 20.0568, 13.0712, 91.9271, -104.075
1.87145, -1, -1.30558, 11.5086, 20.0944, 13.0738, 91.8277, -104.326
1.8794, -1, -1.49248, 11.4136, 20.1319, 13.0763, 91.7286, -104.578
1.88745, -1, -1.67911, 11.3184, 20.1692, 13.0788, 91.6294, -104.83
1.8954, -1, -1.86538, 11.2234, 20.2067, 13.0814, 91.5301, -105.081
1.90344, -1, -2.05108, 11.1284, 20.2442, 13.0841, 91.4312, -105.332
1.91146, -1, -2.23623, 11.0335, 20.2815, 13.0867, 91.332, -105.583
1.92096, -1, -2.51338, 10.8913, 20.3376, 13.0907, 91.1832, -105.96
1.92979, -1, -2.69744, 10.7965, 20.3749, 13.0934, 91.0842, -106.211
1.93551, -1, -2.78938, 10.7492, 20.3935, 13.0947, 91.0346, -106.336
1.94501, -1, -2.97335, 10.6544, 20.4496, 13.0986, 90.8861, -106.712
1.95142, -1, -3.15743, 10.5597, 20.4682, 13.0999, 90.8367, -106.837
1.96043, -1, -3.34172, 10.4652, 20.5054, 13.1024, 90.7377, -107.088
1.9674, -1, -3.52636, 10.3708, 20.5426, 13.105, 90.6388, -107.339
1.97541, -1, -3.71105, 10.2764, 20.5799, 13.1075, 90.5402, -107.589
1.98346, -1, -3.8961, 10.1821, 20.6172, 13.1099, 90.4413, -107.839
1.99141, -1, -4.08147, 10.0877, 20.6545, 13.1123, 90.3427, -108.089
1.9994, -1, -4.26699, 9.99349, 20.6916, 13.1147, 90.2442, -108.339
2.00741, -1, -4.45264, 9.89919, 20.7288, 13.1171, 90.1453, -108.588
2.0154, -1, -4.638, 9.80483, 20.7661, 13.1195, 90.0467, -108.838
2.0235, -1, -4.82301, 9.71062, 20.8032, 13.1218, 89.9484, -109.087
2.0314, -1, -5.00751, 9.61653, 20.8402, 13.1242, 89.8498, -109.337
2.0394, -1, -5.19124, 9.52247, 20.8774, 13.1265, 89.7514, -109.586
2.04747, -1, -5.3746, 9.42841, 20.9145, 13.1288, 89.6533, -109.835
2.0554, -1, -5.55751, 9.33453, 20.9516, 13.1311, 89.5549, -110.084
2.0634, -1, -5.74002, 9.24062, 20.9887, 13.1334, 89.4566, -110.332
2.0715, -1, -5.92237, 9.1467, 21.0257, 13.1357, 89.3586, -110.581
2.07949, -1, -6.10476, 9.0529, 21.0627, 13.1379, 89.2603, -110.83
2.08746, -1, -6.28744, 8.95916, 21.0998, 13.1401, 89.1622, -111.078
2.09546, -1, -6.47034, 8.86552, 21.1366, 13.1423, 89.0646, -111.327
2.10343, -1, -6.65349, 8.77189, 21.1733, 13.1444, 88.9665, -111.575
2.1114, -1, -6.83703, 8.67828, 21.2103, 13.1466, 88.8685, -111.823
2.11947, -1, -7.02096, 8.58472, 21.2472, 13.1486, 88.7708, -112.071
2.12741, -1, -7.20513, 8.49117, 21.284, 13.1508, 88.6729, -112.318
2.13547, -1, -7.38927, 8.39756, 21.3209, 13.1529, 88.575, -112.566
2.1434, -1, -7.57312, 8.30393, 21.3577, 13.155, 88.4775, -112.814
2.15145, -1, -7.75671, 8.21049, 21.3944, 13.1571, 88.3798, -113.061
2.15955, -1, -7.93985, 8.11707, 21.4312, 13.1594, 88.2824, -113.308
2.16751, -1, -8.12243, 8.02369, 21.468, 13.1617, 88.1851, -113.556
2.17549, -1, -8.30427, 7.93047, 21.5046, 13.1639, 88.0876, -113.803
2.18356, -1, -8.48562, 7.83721, 21.5415, 13.1662, 87.9903, -114.05
2.19154, -1, -8.66662, 7.74401, 21.5783, 13.1685, 87.8931, -114.296
2.19946, -1, -8.84735, 7.65084, 21.615, 13.1708, 87.7956, -114.543
2.20765, -1, -9.02811, 7.55777, 21.6518, 13.1729, 87.6981, -114.789
2.21543, -1, -9.20926, 7.46476, 21.6885, 13.1752, 87.6009, -115.036
2.22344, -1, -9.39048, 7.37195, 21.7251, 13.1774, 87.5037, -115.282
2.2316, -1, -9.57203, 7.27915, 21.7618, 13.1796, 87.4065, -115.528
2.23954, -1, -9.75398, 7.18635, 21.7985, 13.1819, 87.3095, -115.774
2.24767, -1, -9.93631, 7.09363, 21.8349, 13.1841, 87.2122, -116.02
2.25598, -1, -10.1188, 7.00089, 21.8715, 13.1863, 87.115, -116.266
2.26447, -1, -10.3015, 6.90811, 21.9081, 13.1886, 87.018, -116.512
2.27194, -1, -10.484, 6.81534, 21.9447, 13.1907, 86.9209, -116.757
2.28052, -1, -10.6663, 6.72263, 21.9813, 13.193, 86.8238, -117.003
2.2879, -1, -10.8482, 6.63005, 22.0178, 13.1954, 86.7269, -117.248
2.29651, -1, -11.0295, 6.53746, 22.0541, 13.1979, 86.6299, -117.493
2.30422, -1, -11.2099, 6.445, 22.0907, 13.2002, 86.5333, -117.738
2.31195, -1, -11.3898, 6.35251, 22.1272, 13.2027, 86.4367, -117.983
2.32049, -1, -11.5695, 6.26009, 22.1636, 13.2051, 86.3399, -118.228
2.32796, -1, -11.6591, 6.21389, 22.1818, 13.2063, 86.2916, -118.35
2.33539, -1, -11.8384, 6.12157, 22.2183, 13.2088, 86.1952, -118.595
2.34445, -1, -12.1073, 5.98321, 22.273, 13.2125, 86.0502, -118.961
2.35139, -1, -12.197, 5.93716, 22.2912, 13.2138, 86.002, -119.083
2.35942, -1, -12.3766, 5.84514, 22.3277, 13.2162, 85.9057, -119.327
2.36743, -1, -12.5567, 5.75312, 22.3639, 13.2187, 85.8092, -119.572
2.37538, -1, -12.7371, 5.66117, 22.4002, 13.2212, 85.7129, -119.815
2.38339, -1, -12.918, 5.56925, 22.4366, 13.2237, 85.617, -120.059
2.393, -1, -13.1897, 5.4313, 22.4909, 13.2273, 85.473, -120.425
2.40185, -1, -13.371, 5.33932, 22.5272, 13.2297, 85.377, -120.668
2.40747, -1, -13.4615, 5.29337, 22.5454, 13.2309, 85.3294, -120.79
2.41696, -1, -13.7323, 5.15555, 22.5997, 13.2348, 85.1856, -121.155
2.42581, -1, -13.9123, 5.06367, 22.6358, 13.2373, 85.0898, -121.398
2.43145, -1, -14.0019, 5.0178, 22.654, 13.2386, 85.0421, -121.519
2.44098, -1, -14.2698, 4.88026, 22.7081, 13.2425, 84.8985, -121.884
2.45007, -1, -14.359, 4.83443, 22.7443, 13.2451, 84.803, -122.126
2.45637, -1, -14.5369, 4.74281, 22.7624, 13.2463, 84.7553, -122.247
2.46498, -1, -14.7145, 4.65123, 22.7986, 13.2488, 84.6596, -122.49
2.4714, -1, -14.8921, 4.55975, 22.8347, 13.2512, 84.5639, -122.732
2.47947, -1, -15.0698, 4.46832, 22.8708, 13.2537, 84.4683, -122.974
2.48738, -1, -15.2478, 4.37705, 22.907, 13.2561, 84.3727, -123.216
2.4954, -1, -15.4262, 4.28575, 22.943, 13.2585, 84.2769, -123.458
2.50339, -1, -15.6051, 4.19447, 22.9791, 13.2608, 84.1814, -123.7
2.51145, -1, -15.7843, 4.10328, 23.0151, 13.2631, 84.0858, -123.942
2.51948, -1, -15.9635, 4.01204, 23.051, 13.2653, 83.9903, -124.183
2.52741, -1, -16.143, 3.92077, 23.0871, 13.2674, 83.8949, -124.425
2.53538, -1, -16.3228, 3.82954, 23.123, 13.2696, 83.7994, -124.666
2.54346, -1, -16.5022, 3.73836, 23.1588, 13.2717, 83.704, -124.908
2.55138, -1, -16.6813, 3.64718, 23.1947, 13.2739, 83.6086, -125.149
2.5594, -1, -16.8598, 3.5561, 23.2305, 13.2761, 83.5133, -125.39
2.56788, -1, -17.0374, 3.4651, 23.2664, 13.2784, 83.4179, -125.631
2.57541, -1, -17.2143, 3.37413, 23.3022, 13.2806, 83.3227, -125.872
2.58338, -1, -17.3909, 3.28328, 23.3381, 13.2828, 83.2277, -126.112
2.59224, -1, -17.5671, 3.19244, 23.3738, 13.2849, 83.1324, -126.353
2.5994, -1, -17.7431, 3.10177, 23.4097, 13.2871, 83.0376, -126.593
2.60744, -1, -17.9191, 3.01119, 23.4456, 13.2891, 82.9429, -126.833
2.61618, -1, -18.0954, 2.92074, 23.4813, 13.2912, 82.848, -127.073
2.62338, -1, -18.2719, 2.83032, 23.5171, 13.2934, 82.7533, -127.313
2.63142, -1, -18.4488, 2.7399, 23.5528, 13.2954, 82.6588, -127.553
2.64019, -1, -18.6262, 2.64953, 23.5885, 13.2975, 82.564, -127.793
2.64741, -1, -18.8039, 2.55917, 23.6242, 13.2995, 82.4695, -128.032
2.65548, -1, -18.9819, 2.46873, 23.66, 13.3015, 82.3752, -128.272
2.66428, -1, -19.1602, 2.37826, 23.6956, 13.3035, 82.2805, -128.511
2.67148, -1, -19.3383, 2.28787, 23.7312, 13.3056, 82.1862, -128.75
2.67955, -1, -19.516, 2.19747, 23.7668, 13.3076, 82.0923, -128.989
2.68828, -1, -19.6932, 2.10705, 23.8023, 13.3098, 81.998, -129.228
2.69551, -1, -19.8698, 2.0168, 23.8377, 13.3119, 81.9038, -129.468
2.70355, -1, -20.0456, 1.92653, 23.8734, 13.3141, 81.81, -129.706
2.71231, -1, -20.2208, 1.8363, 23.9089, 13.3163, 81.7158, -129.945
2.71943, -1, -20.3957, 1.74621, 23.9443, 13.3185, 81.6218, -130.183
2.72747, -1, -20.5702, 1.65613, 23.9799, 13.3208, 81.528, -130.422
2.73637, -1, -20.7447, 1.56614, 24.0154, 13.3229, 81.4339, -130.66
2.74366, -1, -20.9193, 1.47631, 24.0507, 13.3251, 81.3401, -130.898
2.75158, -1, -21.0943, 1.38659, 24.0863, 13.3273, 81.2465, -131.136
2.75971, -1, -21.2697, 1.29681, 24.1217, 13.3295, 81.1526, -131.373
2.76781, -1, -21.4453, 1.20715, 24.157, 13.3316, 81.0587, -131.611
2.77581, -1, -21.6213, 1.11755, 24.1924, 13.3338, 80.965, -131.849
2.78646, -1, -21.7975, 1.02791, 24.2278, 13.336, 80.8712, -132.086
2.79191, -1, -21.9739, 0.938266, 24.2632, 13.3382, 80.7774, -132.324
2.8005, -1, -22.1504, 0.848717, 24.2986, 13.3403, 80.6838, -132.561
2.80874, -1, -22.327, 0.7592, 24.334, 13.3425, 80.5901, -132.798
2.81596, -1, -22.4151, 0.66971, 24.3692, 13.3448, 80.4964, -133.035
2.82396, -1, -22.591, 0.624929, 24.3868, 13.3472, 80.4028, -133.272
2.83296, -1, -22.8538, 0.490801, 24.4397, 13.3496, 80.3092, -133.509
2.83938, -1, -22.9409, 0.44611, 24.4573, 13.3507, 80.2623, -133.627
2.84737, -1, -23.1147, 0.356714, 24.4924, 13.3532, 80.1689, -133.864
2.8572, -1, -23.3748, 0.222765, 24.5451, 13.3569, 80.0288, -134.219
2.86455, -1, -23.5478, 0.133545, 24.5803, 13.3593, 79.9354, -134.455
2.87136, -1, -23.6344, 0.088981, 24.5979, 13.3605, 79.8888, -134.573
2.88152, -1, -23.8945, -0.0446247, 24.6507, 13.3641, 79.7491, -134.927
2.88737, -1, -23.9812, -0.0890888, 24.6683, 13.3653, 79.7023, -135.045
2.89542, -1, -24.1548, -0.178011, 24.7033, 13.3678, 79.6092, -135.281
2.90559, -1, -24.4157, -0.31142, 24.756, 13.3715, 79.4698, -135.635
2.91139, -1, -24.5029, -0.355833, 24.7736, 13.3727, 79.4232, -135.752
2.92088, -1, -24.7649, -0.489171, 24.8261, 13.3762, 79.2835, -136.106
2.92969, -1, -24.9399, -0.578061, 24.8612, 13.3786, 79.1908, -136.341
2.93537, -1, -25.0275, -0.622477, 24.8788, 13.3798, 79.1442, -136.459
2.94499, -1, -25.2898, -0.755696, 24.9313, 13.3833, 79.0048, -136.811
2.95143, -1, -25.3771, -0.800096, 24.9488, 13.3845, 78.9585, -136.929
2.95937, -1, -25.5513, -0.888938, 24.9839, 13.3869, 78.8658, -137.164
2.96838, -1, -25.7249, -0.977633, 25.0188, 13.3895, 78.7728, -137.399
2.97544, -1, -25.8978, -1.06631, 25.0536, 13.3918, 78.6802, -137.633
2.98337, -1, -26.0703, -1.15499, 25.0887, 13.3943, 78.588, -137.868
2.99136, -1, -26.2423, -1.24356, 25.1236, 13.3967, 78.4953, -138.103
2.99943, -1, -26.414, -1.33206, 25.1584, 13.3991, 78.4028, -138.337
3.00741, -1, -26.5858, -1.42045, 25.1933, 13.4014, 78.3106, -138.571
3.01537, -1, -26.7578, -1.50878, 25.2282, 13.4036, 78.2179, -138.806
3.02343, -1, -26.9301, -1.59701, 25.2631, 13.4059, 78.1255, -139.039
3.03141, -1, -27.1025, -1.68518, 25.2979, 13.4081, 78.0334, -139.273
3.03936, -1, -27.2749, -1.77341, 25.3328, 13.4102, 77.9411, -139.507
3.04742, -1, -27.4478, -1.86153, 25.3676, 13.4124, 77.8491, -139.741
3.05536, -1, -27.621, -1.94963, 25.4023, 13.4145, 77.7571, -139.974
3.06344, -1, -27.7943, -2.03782, 25.4372, 13.4166, 77.665, -140.208
3.07136, -1, -27.9677, -2.12582, 25.4719, 13.4186, 77.573, -140.441
3.0794, -1, -28.141, -2.21385, 25.5066, 13.4206, 77.4811, -140.674
3.08742, -1, -28.3141, -2.30184, 25.5414, 13.4226, 77.3891, -140.907
3.09536, -1, -28.4869, -2.38988, 25.5762, 13.4247, 77.297, -141.14
3.10338, -1, -28.6593, -2.47782, 25.6108, 13.4269, 77.2049, -141.373
3.11142, -1, -28.8312, -2.56579, 25.6455, 13.429, 77.1129, -141.606
3.11937, -1, -29.0022, -2.65375, 25.6802, 13.4311, 77.0209, -141.839
3.12737, -1, -29.1728, -2.74161, 25.7147, 13.4333, 76.9289, -142.071
3.13543, -1, -29.3433, -2.8294, 25.7493, 13.4353, 76.8372, -142.304
3.14337, -1, -29.5139, -2.91708, 25.784, 13.4374, 76.7453, -142.536
3.1514, -1, -29.6847, -3.00465, 25.8184, 13.4394, 76.6535, -142.769
3.1595, -1, -29.8558, -3.0922, 25.853, 13.4414, 76.5619, -143.001
3.16744, -1, -30.0268, -3.17968, 25.8876, 13.4436, 76.47, -143.233
3.17596, -1, -30.1977, -3.26719, 25.9221, 13.4456, 76.3783, -143.465
3.18445, -1, -30.3689, -3.35456, 25.9567, 13.4477, 76.2868, -143.697
3.19146, -1, -30.5404, -3.44199, 25.9912, 13.4497, 76.1951, -143.929
3.20014, -1, -30.7122, -3.52949, 26.0257, 13.4518, 76.1036, -144.161
3.20737, -1, -30.8841, -3.6168, 26.0601, 13.4539, 76.0123, -144.392
3.21538, -1, -31.056, -3.70416, 26.0947, 13.4557, 75.9209, -144.623
3.22435, -1, -31.2277, -3.79143, 26.1291, 13.4578, 75.8296, -144.855
3.2314, -1, -31.3991, -3.87874, 26.1635, 13.4599, 75.7384, -145.086
3.23948, -1, -31.57, -3.96602, 26.198, 13.462, 75.6472, -145.317
3.24845, -1, -31.7404, -4.05321, 26.2324, 13.4642, 75.5559, -145.548
3.2556, -1, -31.9103, -4.14047, 26.2667, 13.4664, 75.4647, -145.779
3.26371, -1, -32.0799, -4.22769, 26.3011, 13.4686, 75.3737, -146.01
3.27271, -1, -32.2493, -4.31474, 26.3355, 13.4709, 75.2824, -146.241
3.27978, -1, -32.4187, -4.4018, 26.3698, 13.4729, 75.1913, -146.471
3.2879, -1, -32.5884, -4.48878, 26.4041, 13.4751, 75.1008, -146.702
3.29695, -1, -32.7582, -4.57568, 26.4386, 13.4772, 75.0097, -146.932
3.30448, -1, -32.9278, -4.66259, 26.4728, 13.4794, 74.9189, -147.163
3.3121, -1, -33.0975, -4.74949, 26.507, 13.4815, 74.8285, -147.393
3.32094, -1, -33.1824, -4.8363, 26.5414, 13.4838, 74.7377, -147.623
3.32843, -1, -33.4373, -4.92315, 26.5756, 13.486, 74.6471, -147.853
3.33594, -1, -33.5225, -4.96661, 26.5928, 13.4871, 74.6017, -148.083
3.34517, -1, -33.778, -5.09682, 26.6442, 13.4904, 74.466, -148.312
3.35135, -1, -33.8631, -5.14018, 26.6613, 13.4916, 74.4206, -148.427
3.36043, -1, -34.1185, -5.27028, 26.7125, 13.4949, 74.2849, -148.772
3.36738, -1, -34.2035, -5.31366, 26.7296, 13.496, 74.2398, -148.886
3.37657, -1, -34.4586, -5.44363, 26.7811, 13.4995, 74.1038, -149.23
3.38335, -1, -34.5434, -5.48697, 26.7982, 13.5007, 74.0585, -149.345
3.39136, -1, -34.7127, -5.57365, 26.8322, 13.503, 73.9681, -149.574
3.39941, -1, -34.8813, -5.66022, 26.8664, 13.5054, 73.8776, -149.803
3.40735, -1, -35.0497, -5.74675, 26.9006, 13.508, 73.787, -150.032
3.41787, -1, -35.3021, -5.87645, 26.9517, 13.5116, 73.6516, -150.376
3.4234, -1, -35.3863, -5.91961, 26.9688, 13.5128, 73.6063, -150.49
3.43293, -1, -35.6392, -6.04892, 27.02, 13.5163, 73.4707, -150.834
3.44182, -1, -35.8076, -6.13513, 27.054, 13.5186, 73.3806, -151.062
3.44741, -1, -35.8919, -6.17821, 27.0711, 13.5198, 73.3354, -151.177
3.45692, -1, -36.0604, -6.26435, 27.1052, 13.5234, 73.1997, -151.519
3.46436, -1, -36.2289, -6.3504, 27.1392, 13.5246, 73.1544, -151.634
3.47237, -1, -36.3976, -6.43662, 27.1731, 13.527, 73.0643, -151.862
3.4804, -1, -36.5665, -6.52284, 27.2071, 13.5293, 72.9737, -152.09
3.48835, -1, -36.7354, -6.60902, 27.2411, 13.5316, 72.8836, -152.318
3.4954, -1, -36.9043, -6.69517, 27.275, 13.534, 72.7935, -152.546
3.50335, -1, -37.0734, -6.78139, 27.309, 13.5362, 72.7033, -152.775
3.5144, -1, -37.2421, -6.8675, 27.343, 13.5385, 72.6133, -153.003
3.51936, -1, -37.4106, -6.95353, 27.3768, 13.5407, 72.5235, -153.23
3.52741, -1, -37.5787, -7.03963, 27.4108, 13.5429, 72.4336, -153.458
3.53538, -1, -37.7464, -7.12566, 27.4448, 13.5452, 72.3438, -153.685
3.54334, -1, -37.914, -7.21167, 27.4786, 13.5474, 72.254, -153.913
3.55141, -1, -38.0815, -7.29758, 27.5125, 13.5496, 72.1644, -154.14
3.55936, -1, -38.249, -7.38345, 27.5465, 13.5518, 72.0745, -154.368
3.56734, -1, -38.4163, -7.46917, 27.5803, 13.5539, 71.9848, -154.595
3.57542, -1, -38.5836, -7.55488, 27.6142, 13.556, 71.8954, -154.822
3.58336, -1, -38.7508, -7.6406, 27.6481, 13.558, 71.8056, -155.049
3.59134, -1, -38.9181, -7.72627, 27.6819, 13.5601, 71.7161, -155.276
3.59943, -1, -39.0854, -7.81186, 27.7156, 13.5622, 71.627, -155.503
3.60734, -1, -39.2529, -7.89753, 27.7495, 13.5642, 71.5374, -155.729
3.61534, -1, -39.4205, -7.98324, 27.7833, 13.5661, 71.4482, -155.956
3.62342, -1, -39.5881, -8.06881, 27.8169, 13.5681, 71.3589, -156.183
3.63134, -1, -39.7558, -8.15436, 27.8505, 13.5701, 71.2696, -156.41
3.63936, -1, -39.9234, -8.23986, 27.8843, 13.572, 71.1802, -156.636
3.64754, -1, -40.091, -8.32531, 27.918, 13.5739, 71.0908, -156.862
3.65538, -1, -40.2585, -8.41068, 27.9516, 13.5759, 71.0017, -157.089
3.66342, -1, -40.4257, -8.49607, 27.9854, 13.5778, 70.9121, -157.315
3.67169, -1, -40.5927, -8.58144, 28.019, 13.5798, 70.8229, -157.541
3.67948, -1, -40.7596, -8.66682, 28.0526, 13.5817, 70.7339, -157.767
3.68744, -1, -40.9261, -8.75211, 28.0863, 13.5838, 70.6447, -157.992
3.69584, -1, -41.0926, -8.83741, 28.12, 13.5858, 70.5556, -158.218
3.70355, -1, -41.2588, -8.92262, 28.1535, 13.5878, 70.4666, -158.444
3.71135, -1, -41.425, -9.00774, 28.187, 13.5898, 70.3774, -158.67
3.72009, -1, -41.5912, -9.09291, 28.2207, 13.5918, 70.2881, -158.896
3.7284, -1, -41.7574, -9.17799, 28.2543, 13.5939, 70.1991, -159.121
3.73538, -1, -41.9238, -9.26305, 28.2878, 13.5958, 70.11, -159.347
3.74447, -1, -42.0902, -9.34809, 28.3216, 13.5979, 70.0209, -159.572
3.75156, -1, -42.2566, -9.43318, 28.3551, 13.5999, 69.9318, -159.797
3.75965, -1, -42.4229, -9.5182, 28.3886, 13.6019, 69.8431, -160.023
3.76845, -1, -42.5892, -9.60312, 28.4222, 13.6039, 69.7541, -160.248
3.7757, -1, -42.7556, -9.68808, 28.4557, 13.606, 69.6652, -160.473
3.78384, -1, -42.922, -9.77305, 28.4891, 13.608, 69.5768, -160.698
3.79249, -1, -43.0883, -9.85795, 28.5226, 13.6101, 69.4878, -160.923
3.80064, -1, -43.2545, -9.94287, 28.5561, 13.6121, 69.3992, -161.148
3.80795, -1, -43.4207, -10.0278, 28.5896, 13.6142, 69.3105, -161.372
3.8165, -1, -43.5867, -10.1127, 28.6231, 13.6162, 69.2218, -161.597
3.82468, -1, -43.6696, -10.1552, 28.6566, 13.6184, 69.1332, -161.822
3.83196, -1, -43.8356, -10.24, 28.69, 13.6206, 69.0448, -162.046
3.84041, -1, -44.084, -10.3672, 28.7233, 13.6226, 68.9563, -162.271
3.84737, -1, -44.1667, -10.4095, 28.7401, 13.6237, 68.9119, -162.383
3.85539, -1, -44.3318, -10.4941, 28.7736, 13.6259, 68.8233, -162.607
3.86333, -1, -44.4971, -10.5786, 28.8069, 13.6282, 68.7348, -162.832
3.87136, -1, -44.6622, -10.6632, 28.8403, 13.6303, 68.6462, -163.056
3.87939, -1, -44.8275, -10.7476, 28.8738, 13.6325, 68.5577, -163.28
3.88869, -1, -45.0756, -10.8743, 28.9239, 13.6358, 68.4251, -163.616
3.89534, -1, -45.1582, -10.9166, 28.9406, 13.6369, 68.3809, -163.728
3.90338, -1, -45.3235, -11.0011, 28.974, 13.6391, 68.2922, -163.952
3.9129, -1, -45.5714, -11.1278, 29.0239, 13.6425, 68.1598, -164.288
3.9209, -1, -45.7367, -11.2122, 29.0571, 13.6448, 68.0715, -164.511
3.92932, -1, -45.9017, -11.2965, 29.0906, 13.647, 67.9831, -164.735
3.93534, -1, -45.9836, -11.3383, 29.1073, 13.6482, 67.9389, -164.847
3.94494, -1, -46.2243, -11.4608, 29.1574, 13.6516, 67.8072, -165.181
3.95139, -1, -46.3022, -11.5001, 29.1742, 13.6528, 67.7635, -165.291
3.95933, -1, -46.4527, -11.5752, 29.2078, 13.6552, 67.6783, -165.507
3.96836, -1, -46.5941, -11.6453, 29.2401, 13.6575, 67.5966, -165.713
3.97541, -1, -46.7241, -11.7088, 29.27, 13.6597, 67.5217, -165.903
3.98334, -1, -46.8395, -11.7651, 29.2965, 13.6617, 67.4545, -166.072
3.99133, -1, -46.9387, -11.8144, 29.3187, 13.6633, 67.3984, -166.215
3.9994, -1, -47.0217, -11.8575, 29.3354, 13.6646, 67.3532, -166.329
4.00733, -1, -47.0893, -11.8945, 29.3468, 13.6653, 67.3194, -166.414
4.01537, -1, -47.142, -11.9241, 29.3541, 13.6657, 67.2958, -166.474
4.0234, -1, -47.1812, -11.9464, 29.3581, 13.666, 67.2805, -166.512
4.03128, -1, -47.2091, -11.962, 29.3599, 13.6661, 67.2715, -166.534
4.03936, -1, -47.2276, -11.9721, 29.3607, 13.6662, 67.2668, -166.547
4.04739, -1, -47.2388, -11.9781, 29.3611, 13.6663, 67.2643, -166.553
4.05533, 2, -47.2446, -11.981, 29.3613, 13.6663, 67.2632, -166.555
4.06332, 2, -47.2468, -11.9824, 29.3615, 13.6664, 67.2626, -166.557
4.07139, 2, -47.2469, -11.9829, 29.3616, 13.6664, 67.2624, -166.557
4.07933, 2, -47.2466, -11.9831, 29.3616, 13.6664, 67.2623, -166.557
4.08735, 2, -47.2465, -11.9832, 29.3617, 13.6664, 67.2623, -166.558
4.0954, 2, -47.2468, -11.9833, 29.3617, 13.6664, 67.2623, -166.558
4.10332, 2, -47.2477, -11.9835, 29.3617, 13.6664, 67.2623, -166.558
4.11142, 2, -47.249, -11.984, 29.3617, 13.6664, 67.2622, -166.558
4.11939, 2, -47.2509, -11.9847, 29.3617, 13.6664, 67.2622, -166.558
4.12733, 2, -47.2526, -11.9856, 29.3617, 13.6664, 67.2622, -166.558
4.13533, 2, -47.254, -11.9865, 29.3617, 13.6664, 67.2622, -166.558
4.1434, 2, -47.2551, -11.9871, 29.3617, 13.6664, 67.2622, -166.558
4.15134, 2, -47.2556, -11.9875, 29.3617, 13.6664, 67.2622, -166.558
4.15936, 2, -47.2558, -11.9878, 29.3617, 13.6664, 67.2622, -166.558
4.16747, 2, -47.2558, -11.9878, 29.3617, 13.6664, 67.2622, -166.558
4.17543, 2, -47.2555, -11.9878, 29.3617, 13.6665, 67.2622, -166.558
4.18345, 2, -47.255, -11.9878, 29.3618, 13.6664, 67.2623, -166.558
4.19149, 2, -47.2545, -11.9878, 29.3618, 13.6664, 67.2623, -166.558
4.19943, 2, -47.2541, -11.9878, 29.3618, 13.6664, 67.2622, -166.558
4.20745, 2, -47.2539, -11.9878, 29.3618, 13.6664, 67.2623, -166.558
4.21551, 2, -47.2538, -11.9878, 29.3618, 13.6664, 67.2622, -166.558
4.22335, 2, -47.2539, -11.988, 29.3618, 13.6664, 67.2622, -166.558
4.23136, 2, -47.2541, -11.9883, 29.3618, 13.6664, 67.2622, -166.558
4.2398, 2, -47.2546, -11.9886, 29.3618, 13.6664, 67.2623, -166.558
4.24745, 2, -47.2553, -11.989, 29.3618, 13.6664, 67.2623, -166.558
4.25555, 2, -47.2557, -11.9892, 29.3618, 13.6664, 67.2623, -166.558
4.26374, 2, -47.2559, -11.9893, 29.3618, 13.6663, 67.2623, -166.558
4.27162, 2, -47.2559, -11.9893, 29.3618, 13.6663, 67.2623, -166.558
4.27968, 2, -47.2558, -11.9892, 29.3618, 13.6664, 67.2623, -166.558
4.28825, 2, -47.2557, -11.9892, 29.3618, 13.6664, 67.2623, -166.558
4.29585, 2, -47.2553, -11.9892, 29.3618, 13.6664, 67.2623, -166.557
4.30441, 2, -47.2548, -11.9891, 29.3618, 13.6664, 67.2623, -166.557
4.31207, 2, -47.2545, -11.9891, 29.3618, 13.6664, 67.2623, -166.557
4.31988, 2, -47.2542, -11.9891, 29.3618, 13.6664, 67.2623, -166.558
4.32842, 2, -47.254, -11.9892, 29.3618, 13.6664, 67.2624, -166.558
4.33619, 2, -47.254, -11.9892, 29.3618, 13.6664, 67.2623, -166.558
4.34331, 2, -47.2539, -11.9892, 29.3618, 13.6664, 67.2623, -166.558
4.35236, 2, -47.2539, -11.9893, 29.3618, 13.6664, 67.2624, -166.558
4.35939, 2, -47.2539, -11.9893, 29.3618, 13.6664, 67.2624, -166.558
4.36731, 2, -47.2539, -11.9893, 29.3618, 13.6664, 67.2623, -166.558
4.37535, 2, -47.254, -11.9894, 29.3618, 13.6664, 67.2623, -166.557
4.38487, 2, -47.254, -11.9893, 29.3618, 13.6663, 67.2623, -166.557
4.39131, 2, -47.254, -11.9893, 29.3618, 13.6664, 67.2623, -166.557
4.40065, 2, -47.2539, -11.9892, 29.3618, 13.6663, 67.2623, -166.557
4.40737, 2, -47.2538, -11.9892, 29.3618, 13.6663, 67.2623, -166.557
4.41532, 2, -47.2537, -11.9892, 29.3618, 13.6664, 67.2623, -166.557
4.42484, 2, -47.2535, -11.9891, 29.3618, 13.6663, 67.2624, -166.557
4.43316, 2, -47.2533, -11.9892, 29.3618, 13.6664, 67.2624, -166.557
4.43931, 2, -47.2532, -11.9892, 29.3618, 13.6664, 67.2624, -166.557
4.44889, 2, -47.2532, -11.9892, 29.3618, 13.6663, 67.2623, -166.557
4.45702, 2, -47.2531, -11.9892, 29.3618, 13.6663, 67.2624, -166.557
4.46331, 2, -47.253, -11.9892, 29.3618, 13.6663, 67.2624, -166.557
4.47231, 2, -47.253, -11.9892, 29.3618, 13.6663, 67.2624, -166.557
4.47937, 2, -47.2529, -11.9892, 29.3618, 13.6664, 67.2624, -166.557
4.48733, 2, -47.2529, -11.9892, 29.3618, 13.6664, 67.2624, -166.557
4.49532, 2, -47.2528, -11.9891, 29.3618, 13.6663, 67.2624, -166.557
4.50339, 2, -47.2527, -11.9891, 29.3618, 13.6663, 67.2624, -166.557
4.51137, 2, -47.2526, -11.989, 29.3618, 13.6663, 67.2624, -166.557
4.51934, 2, -47.2526, -11.989, 29.3618, 13.6663, 67.2624, -166.557
4.52738, 2, -47.2525, -11.9889, 29.3618, 13.6663, 67.2625, -166.557
4.53532, 2, -47.2524, -11.9889, 29.3618, 13.6663, 67.2625, -166.557
4.54335, 2, -47.2523, -11.9889, 29.3618, 13.6663, 67.2625, -166.557
4.55138, 2, -47.2522, -11.9889, 29.3618, 13.6663, 67.2625, -166.557
4.55931, 2, -47.2521, -11.9889, 29.3618, 13.6663, 67.2625, -166.557
4.56731, 2, -47.252, -11.9889, 29.3618, 13.6662, 67.2625, -166.557
4.57539, 2, -47.2519, -11.9889, 29.3618, 13.6663, 67.2625, -166.557
4.58331, 2, -47.2518, -11.9889, 29.3618, 13.6663, 67.2625, -166.557
4.59134, 2, -47.2517, -11.9889, 29.3618, 13.6663, 67.2625, -166.557
4.59938, 2, -47.2516, -11.9889, 29.3618, 13.6663, 67.2625, -166.557
4.60731, 2, -47.2515, -11.9888, 29.3618, 13.6663, 67.2625, -166.557
4.61532, 2, -47.2514, -11.9888, 29.3618, 13.6663, 67.2625, -166.557
4.62338, 2, -47.2513, -11.9887, 29.3618, 13.6663, 67.2625, -166.557
4.63131, 2, -47.2512, -11.9887, 29.3618, 13.6663, 67.2626, -166.557
4.63931, 2, -47.251, -11.9886, 29.3618, 13.6663, 67.2626, -166.557
4.64738, 2, -47.2509, -11.9886, 29.3618, 13.6663, 67.2626, -166.557
4.65534, 2, -47.2508, -11.9886, 29.3618, 13.6663, 67.2626, -166.557
4.66335, 2, -47.2507, -11.9886, 29.3618, 13.6663, 67.2626, -166.557
4.67147, 2, -47.2507, -11.9886, 29.3617, 13.6663, 67.2626, -166.557
4.6794, 2, -47.2506, -11.9887, 29.3618, 13.6663, 67.2626, -166.557
4.68744, 2, -47.2506, -11.9886, 29.3618, 13.6663, 67.2626, -166.557
4.69548, 2, -47.2505, -11.9886, 29.3618, 13.6663, 67.2626, -166.557
4.70341, 2, -47.2504, -11.9886, 29.3618, 13.6662, 67.2626, -166.557
4.71144, 2, -47.2504, -11.9885, 29.3618, 13.6663, 67.2627, -166.557
4.71944, 2, -47.2503, -11.9884, 29.3618, 13.6663, 67.2627, -166.557
4.72734, 2, -47.2502, -11.9884, 29.3618, 13.6662, 67.2627, -166.557
4.73535, 2, -47.2501, -11.9883, 29.3618, 13.6662, 67.2627, -166.557
4.74376, 2, -47.2501, -11.9883, 29.3618, 13.6662, 67.2627, -166.557
4.75143, 2, -47.25, -11.9883, 29.3618, 13.6662, 67.2627, -166.556
4.75951, 2, -47.25, -11.9883, 29.3618, 13.6662, 67.2627, -166.556
4.76795, 2, -47.2499, -11.9883, 29.3618, 13.6662, 67.2627, -166.556
4.77637, 2, -47.2499, -11.9883, 29.3618, 13.6662, 67.2627, -166.556
4.78368, 2, -47.2498, -11.9883, 29.3618, 13.6661, 67.2627, -166.556
4.79225, 2, -47.2498, -11.9883, 29.3618, 13.6661, 67.2628, -166.556
4.79981, 2, -47.2497, -11.9883, 29.3618, 13.6661, 67.2627, -166.556
4.80839, 2, -47.2497, -11.9882, 29.3618, 13.6661, 67.2627, -166.556
4.8163, 2, -47.2496, -11.9881, 29.3618, 13.6661, 67.2628, -166.556
4.82386, 2, -47.2496, -11.9881, 29.3618, 13.6661, 67.2628, -166.556
4.83241, 2, -47.2495, -11.988, 29.3618, 13.6661, 67.2628, -166.556
4.84017, 2, -47.2494, -11.988, 29.3618, 13.6661, 67.2628, -166.556
4.84729, 2, -47.2494, -11.9879, 29.3618, 13.6661, 67.2628, -166.556
4.85634, 2, -47.2493, -11.9879, 29.3618, 13.6661, 67.2628, -166.556
4.86421, 2, -47.2492, -11.9879, 29.3618, 13.666, 67.2628, -166.556
4.87129, 2, -47.2492, -11.9879, 29.3618, 13.666, 67.2629, -166.556
4.88045, 2, -47.2491, -11.9879, 29.3618, 13.666, 67.2629, -166.556
4.88734, 2, -47.2491, -11.9879, 29.3618, 13.666, 67.2629, -166.556
4.8953, 2, -47.2491, -11.9879, 29.3618, 13.6661, 67.2629, -166.556
4.90329, 2, -47.249, -11.9879, 29.3618, 13.666, 67.2629, -166.556
4.91316, 2, -47.249, -11.9878, 29.3618, 13.666, 67.2629, -166.556
4.91929, 2, -47.249, -11.9878, 29.3618, 13.666, 67.263, -166.556
4.92881, 2, -47.2489, -11.9877, 29.3618, 13.666, 67.263, -166.556
4.93704, 2, -47.2488, -11.9876, 29.3618, 13.666, 67.263, -166.556
4.94328, 2, -47.2488, -11.9876, 29.3618, 13.666, 67.263, -166.556
4.95288, 2, -47.2487, -11.9876, 29.3617, 13.666, 67.263, -166.556
4.95936, 2, -47.2486, -11.9876, 29.3617, 13.666, 67.263, -166.556
4.96728, 2, -47.2486, -11.9876, 29.3617, 13.666, 67.263, -166.556
4.97634, 2, -47.2485, -11.9876, 29.3618, 13.6659, 67.263, -166.556
4.98335, 2, -47.2484, -11.9876, 29.3617, 13.6659, 67.263, -166.556
4.99234, 2, -47.2484, -11.9876, 29.3617, 13.6658, 67.263, -166.556
5.0003, 2, -47.2484, -11.9875, 29.3618, 13.6658, 67.2631, -166.556
5.00736, 2, -47.2484, -11.9875, 29.3618, 13.6658, 67.2631, -166.556
5.01529, 2, -47.2483, -11.9875, 29.3618, 13.6658, 67.263, -166.556
5.02332, 2, -47.2483, -11.9874, 29.3618, 13.6658, 67.2631, -166.556
5.03135, 2, -47.2483, -11.9874, 29.3617, 13.6658, 67.263, -166.556
5.03928, 2, -47.2482, -11.9873, 29.3617, 13.6657, 67.2631, -166.556
5.04732, 2, -47.2482, -11.9873, 29.3617, 13.6657, 67.2631, -166.556
5.05554, 2, -47.2481, -11.9873, 29.3617, 13.6658, 67.2631, -166.556
5.06327, 2, -47.2479, -11.9873, 29.3617, 13.6657, 67.2631, -166.556
5.07135, 2, -47.2479, -11.9872, 29.3617, 13.6657, 67.2631, -166.556
5.07927, 2, -47.2478, -11.9872, 29.3618, 13.6657, 67.2631, -166.556
5.08729, 2, -47.2477, -11.9872, 29.3617, 13.6657, 67.2631, -166.556
5.09538, 2, -47.2477, -11.9872, 29.3617, 13.6657, 67.2631, -166.556
5.10328, 2, -47.2477, -11.9872, 29.3617, 13.6657, 67.2631, -166.556
5.11128, 2, -47.2477, -11.9872, 29.3617, 13.6657, 67.2631, -166.556
5.11935, 2, -47.2476, -11.9872, 29.3618, 13.6657, 67.2631, -166.556
5.12728, 2, -47.2477, -11.9871, 29.3618, 13.6656, 67.2631, -166.556
5.13552, 2, -47.2476, -11.9871, 29.3618, 13.6657, 67.2631, -166.556
5.14336, 4, -47.2475, -11.987, 29.3618, 13.6656, 67.2631, -166.556
5.15128, 4, -47.2475, -11.987, 29.3617, 13.6656, 67.2631, -166.556
5.15933, 4, -47.2475, -11.9869, 29.3617, 13.6656, 67.2631, -166.556
5.16741, 4, -47.2474, -11.9869, 29.3617, 13.6656, 67.2631, -166.556
5.17539, 4, -47.2474, -11.9869, 29.3617, 13.6656, 67.2631, -166.556
5.1834, 4, -47.2473, -11.9869, 29.3617, 13.6656, 67.2631, -166.556
5.19148, 4, -47.2472, -11.9869, 29.3617, 13.6656, 67.2631, -166.556
5.19939, 4, -47.2472, -11.9869, 29.3617, 13.6655, 67.2631, -166.555
5.20745, 4, -47.2471, -11.9869, 29.3617, 13.6655, 67.2631, -166.555
5.21546, 4, -47.2471, -11.9869, 29.3618, 13.6655, 67.2631, -166.556
5.22329, 4, -47.2471, -11.9868, 29.3618, 13.6655, 67.2631, -166.556
5.23139, 4, -47.2471, -11.9868, 29.3617, 13.6655, 67.2631, -166.556
5.23969, 4, -47.2471, -11.9867, 29.3617, 13.6655, 67.2632, -166.555
5.26622, 4, -47.2469, -11.9866, 29.3617, 13.6654, 67.2632, -166.555
5.26886, 4, -47.2469, -11.9866, 29.3617, 13.6654, 67.2632, -166.555
5.27064, 4, -47.2469, -11.9866, 29.3617, 13.6654, 67.2632, -166.555
5.27326, 4, -47.2468, -11.9866, 29.3617, 13.6654, 67.2631, -166.555
5.2805, 4, -47.2468, -11.9866, 29.3617, 13.6654, 67.2632, -166.555
5.2877, 4, -47.2467, -11.9866, 29.3618, 13.6654, 67.2632, -166.555
5.29583, 4, -47.2469, -11.9867, 29.3618, 13.6654, 67.2632, -166.555
5.30479, 4, -47.2478, -11.9871, 29.3622, 13.6656, 67.2633, -166.555
5.31181, 4, -47.25, -11.9887, 29.3639, 13.6673, 67.2639, -166.555
5.32044, 4, -47.2535, -11.9921, 29.3687, 13.6764, 67.266, -166.554
5.32871, 4, -47.2584, -11.9977, 29.3785, 13.698, 67.2712, -166.55
5.33587, 4, -47.2615, -12.0013, 29.3858, 13.7348, 67.281, -166.542
5.34461, 4, -47.274, -12.0164, 29.4197, 13.7907, 67.2962, -166.53
5.35126, 5, -47.2794, -12.0229, 29.4352, 13.8264, 67.306, -166.521
5.36034, 5, -47.2984, -12.047, 29.4933, 13.9597, 67.3437, -166.49
5.36727, 5, -47.3057, -12.0564, 29.5161, 14.0124, 67.3584, -166.478
5.37725, 5, -47.33, -12.0875, 29.5921, 14.1859, 67.4064, -166.436
5.38336, 5, -47.339, -12.0991, 29.6192, 14.2471, 67.4232, -166.421
5.39127, 5, -47.3579, -12.1235, 29.6748, 14.3723, 67.4583, -166.391
5.40077, 5, -47.3882, -12.1617, 29.7606, 14.5633, 67.5121, -166.346
5.40943, 5, -47.4093, -12.188, 29.8185, 14.6917, 67.5472, -166.316
5.41525, 5, -47.4201, -12.2013, 29.8475, 14.756, 67.5648, -166.3
5.4248, 5, -47.4525, -12.2415, 29.9352, 14.9489, 67.618, -166.254
5.43363, 5, -47.4743, -12.2683, 29.9941, 15.0779, 67.6536, -166.223
5.43951, 5, -47.4853, -12.2817, 30.0236, 15.1423, 67.6711, -166.208
5.44724, 5, -47.5072, -12.3087, 30.083, 15.2711, 67.7057, -166.178
5.4577, 5, -47.5289, -12.3493, 30.1726, 15.4649, 67.7583, -166.133
5.46334, 5, -47.5508, -12.3629, 30.2026, 15.5295, 67.776, -166.118
5.47299, 5, -47.5725, -12.3899, 30.2627, 15.6586, 67.8107, -166.073
5.47926, 5, -47.594, -12.417, 30.3231, 15.7878, 67.8448, -166.057
5.48749, 5, -47.6154, -12.4441, 30.3836, 15.9168, 67.879, -166.027
5.49527, 5, -47.6371, -12.4715, 30.4444, 16.046, 67.9136, -165.998
5.50326, 5, -47.6591, -12.4989, 30.5054, 16.1751, 67.948, -165.968
5.51127, 5, -47.6812, -12.5264, 30.5666, 16.3042, 67.9817, -165.939
5.51926, 5, -47.7036, -12.5542, 30.6281, 16.4333, 68.0152, -165.909
5.52738, 5, -47.7262, -12.582, 30.6897, 16.5624, 68.0493, -165.879
5.53528, 5, -47.7487, -12.61, 30.7517, 16.6914, 68.0834, -165.85
5.54334, 5, -47.7711, -12.638, 30.814, 16.8204, 68.1166, -165.821
5.55129, 5, -47.7936, -12.666, 30.8764, 16.9494, 68.1493, -165.792
5.55944, 5, -47.8162, -12.694, 30.9392, 17.0786, 68.1824, -165.763
5.56809, 5, -47.8387, -12.7222, 31.0021, 17.2078, 68.2157, -165.734
5.57527, 5, -47.8614, -12.7503, 31.0652, 17.3369, 68.2484, -165.705
5.58425, 5, -47.8842, -12.7784, 31.1286, 17.4659, 68.2808, -165.676
5.59132, 5, -47.9069, -12.8066, 31.1921, 17.5951, 68.313, -165.648
5.59929, 5, -47.9293, -12.8349, 31.256, 17.7242, 68.3459, -165.619
5.60805, 5, -47.9518, -12.8633, 31.32, 17.8533, 68.3784, -165.591
5.61634, 5, -47.9744, -12.8918, 31.3843, 17.9827, 68.4104, -165.563
5.62326, 5, -47.9969, -12.9204, 31.4488, 18.1119, 68.4419, -165.535
5.63211, 5, -48.0197, -12.949, 31.5135, 18.2412, 68.4737, -165.506
5.64035, 5, -48.0427, -12.9779, 31.5784, 18.3703, 68.5058, -165.478
5.64726, 5, -48.0658, -13.0067, 31.6436, 18.4996, 68.5373, -165.45
5.65632, 5, -48.0889, -13.0356, 31.7089, 18.6288, 68.5685, -165.422
5.66345, 5, -48.1122, -13.0644, 31.7744, 18.7581, 68.5996, -165.395
5.67134, 5, -48.1355, -13.0934, 31.8401, 18.8874, 68.6311, -165.367
5.68124, 5, -48.1585, -13.1224, 31.906, 19.0168, 68.6627, -165.34
5.68826, 5, -48.1818, -13.1515, 31.9723, 19.1462, 68.6936, -165.312
5.69551, 5, -48.2051, -13.1806, 32.0387, 19.2755, 68.724, -165.284
5.70338, 5, -48.2283, -13.2097, 32.1054, 19.4047, 68.7545, -165.257
5.71138, 5, -48.2514, -13.2391, 32.1723, 19.5341, 68.7854, -165.23
5.7195, 5, -48.2747, -13.2683, 32.2395, 19.6634, 68.8162, -165.204
5.72728, 5, -48.2979, -13.2977, 32.3069, 19.7928, 68.8463, -165.177
5.73534, 5, -48.3212, -13.3271, 32.3744, 19.9222, 68.8763, -165.149
5.74337, 5, -48.3447, -13.3566, 32.4421, 20.0515, 68.9063, -165.122
5.75141, 5, -48.3682, -13.386, 32.51, 20.1809, 68.9368, -165.095
5.76039, 5, -48.3915, -13.4156, 32.5781, 20.31, 68.9668, -165.069
5.7676, 5, -48.4149, -13.4451, 32.6465, 20.4394, 68.9963, -165.043
5.77568, 5, -48.4386, -13.4749, 32.7152, 20.5687, 69.0254, -165.016
5.78427, 5, -48.4623, -13.5046, 32.7841, 20.6983, 69.0548, -164.99
5.79254, 5, -48.486, -13.5343, 32.8533, 20.8276, 69.0845, -164.963
5.79976, 5, -48.5098, -13.5641, 32.9226, 20.957, 69.1138, -164.937
5.80836, 5, -48.5335, -13.5941, 32.9921, 21.0865, 69.1427, -164.91
5.81675, 5, -48.557, -13.624, 33.0618, 21.2159, 69.1713, -164.885
5.82383, 5, -48.5806, -13.654, 33.1316, 21.3451, 69.2001, -164.859
5.83215, 5, -48.6043, -13.6842, 33.2017, 21.4748, 69.2294, -164.833
5.8407, 5, -48.6279, -13.7144, 33.272, 21.6044, 69.2582, -164.808
5.84786, 5, -48.6398, -13.7295, 33.3073, 21.6691, 69.2724, -164.782
5.85636, 5, -48.6753, -13.7748, 33.4134, 21.8633, 69.3145, -164.755
5.86328, 5, -48.687, -13.7898, 33.4489, 21.928, 69.3285, -164.743
5.8713, 5, -48.7097, -13.8198, 33.5198, 22.0571, 69.357, -164.717
5.88052, 5, -48.7425, -13.8646, 33.6261, 22.2493, 69.4001, -164.676
5.88729, 5, -48.7531, -13.8793, 33.6613, 22.3128, 69.4144, -164.661
5.89652, 5, -48.7832, -13.9226, 33.7657, 22.5004, 69.4578, -164.612
5.90337, 5, -48.7927, -13.9368, 33.8001, 22.5616, 69.4726, -164.594
5.91154, 6, -48.8108, -13.9648, 33.8679, 22.6819, 69.5033, -164.554
5.91925, 6, -48.8275, -13.9921, 33.9345, 22.7987, 69.535, -164.509
5.92881, 6, -48.8496, -14.0315, 34.0316, 22.9671, 69.5833, -164.432
5.93678, 6, -48.8618, -14.0567, 34.0946, 23.0747, 69.6164, -164.373
5.94484, 6, -48.8721, -14.081, 34.156, 23.1785, 69.6509, -164.309
5.95289, 6, -48.8804, -14.1046, 34.2157, 23.2787, 69.6866, -164.239
5.96089, 6, -48.8871, -14.1271, 34.2741, 23.375, 69.7226, -164.163
5.96888, 6, -48.8898, -14.138, 34.3027, 23.422, 69.7591, -164.083
5.97627, 6, -48.894, -14.1594, 34.3587, 23.5135, 69.7779, -164.04
5.98324, 6, -48.8967, -14.1799, 34.4136, 23.6023, 69.8165, -163.953
5.99124, 6, -48.898, -14.1998, 34.4673, 23.6881, 69.8553, -163.861
6.00159, 7, -48.8981, -14.2286, 34.546, 23.8131, 69.9136, -163.718
6.00839, 7, -48.8976, -14.2378, 34.5717, 23.8539, 69.9336, -163.668
6.01626, 7, -48.8958, -14.2558, 34.6225, 23.9342, 69.9742, -163.567
6.02431, 7, -48.893, -14.2735, 34.6725, 24.0127, 70.0146, -163.464
6.03227, 7, -48.8892, -14.2907, 34.7217, 24.0895, 70.0555, -163.358
6.04028, 7, -48.8845, -14.3072, 34.7701, 24.1651, 70.0976, -163.249
6.04724, 7, -48.8789, -14.3233, 34.8177, 24.2388, 70.14, -163.138
6.05625, 7, -48.8725, -14.3393, 34.8645, 24.3116, 70.182, -163.025
6.06426, 7, -48.8654, -14.3547, 34.9107, 24.3828, 70.2248, -162.91
6.07231, 7, -48.8578, -14.3695, 34.9562, 24.4535, 70.2685, -162.793
6.08026, 7, -48.8496, -14.3839, 35.0013, 24.5228, 70.3116, -162.674
6.08821, 8, -48.8408, -14.3984, 35.0457, 24.5917, 70.3552, -162.555
6.09528, 8, -48.8313, -14.4124, 35.0899, 24.6601, 70.3999, -162.434
6.10342, 8, -48.8214, -14.4259, 35.1335, 24.728, 70.4442, -162.312
6.11129, 8, -48.811, -14.4393, 35.1767, 24.7956, 70.4884, -162.189
6.11925, 8, -48.7999, -14.4526, 35.2197, 24.8625, 70.5338, -162.066
6.12743, 8, -48.7885, -14.4659, 35.2623, 24.9296, 70.579, -161.942
6.13528, 8, -48.7769, -14.4788, 35.3046, 24.9959, 70.624, -161.817
6.14332, 8, -48.7651, -14.4913, 35.3464, 25.0626, 70.6699, -161.691
6.15125, 8, -48.753, -14.5038, 35.3881, 25.1282, 70.7159, -161.565
6.15926, 8, -48.7408, -14.5162, 35.4296, 25.1946, 70.7611, -161.438
6.16762, 8, -48.7284, -14.5286, 35.4707, 25.26, 70.807, -161.312
6.17585, 9, -48.7157, -14.5406, 35.5117, 25.3264, 70.8533, -161.185
6.18356, 9, -48.7029, -14.5523, 35.5527, 25.392, 70.8989, -161.058
6.19142, 9, -48.69, -14.564, 35.5934, 25.4584, 70.945, -160.931
6.19946, 9, -48.677, -14.5758, 35.6341, 25.5245, 70.9917, -160.804
6.20735, 9, -48.6639, -14.5876, 35.6746, 25.591, 71.0374, -160.677
6.21582, 9, -48.6506, -14.5991, 35.7148, 25.6575, 71.0833, -160.55
6.22549, 9, -48.6372, -14.6104, 35.7551, 25.724, 71.1302, -160.424
6.23225, 9, -48.6238, -14.6217, 35.7952, 25.7911, 71.1762, -160.297
6.23928, 9, -48.6103, -14.633, 35.835, 25.858, 71.2223, -160.17
6.24732, 9, -48.5967, -14.6445, 35.875, 25.9258, 71.2695, -160.043
6.25551, 9, -48.5832, -14.6559, 35.9148, 25.9929, 71.3159, -159.917
6.26345, 10, -48.5695, -14.667, 35.9546, 26.0611, 71.3618, -159.79
6.27167, 10, -48.5559, -14.6781, 35.9945, 26.1287, 71.4088, -159.665
6.27989, 10, -48.5423, -14.6892, 36.0341, 26.1974, 71.4555, -159.539
6.28932, 10, -48.5288, -14.7003, 36.0738, 26.2654, 71.5015, -159.413
6.29584, 10, -48.5152, -14.7117, 36.1135, 26.3344, 71.5485, -159.288
6.30443, 10, -48.5015, -14.7228, 36.153, 26.4033, 71.5951, -159.163
6.31176, 10, -48.4877, -14.7336, 36.1926, 26.4729, 71.641, -159.038
6.32036, 10, -48.4739, -14.7446, 36.2322, 26.5422, 71.6875, -158.913
6.32783, 10, -48.46, -14.7556, 36.2717, 26.6122, 71.7341, -158.789
6.33584, 10, -48.4462, -14.7668, 36.3111, 26.6821, 71.7798, -158.665
6.34431, 10, -48.4324, -14.7781, 36.3505, 26.7524, 71.8262, -158.541
6.35196, 11, -48.4255, -14.7836, 36.3701, 26.7878, 71.8728, -158.418
6.36007, 11, -48.4117, -14.7946, 36.4095, 26.8936, 71.9185, -158.295
6.36864, 11, -48.391, -14.8112, 36.4684, 26.9646, 71.9644, -158.171
6.37529, 11, -48.3841, -14.8167, 36.488, 27, 71.9877, -158.11
6.38328, 11, -48.3703, -14.8279, 36.5272, 27.0714, 72.0339, -157.987
6.39257, 11, -48.3495, -14.8447, 36.5859, 27.1783, 72.1025, -157.803
6.40076, 11, -48.3355, -14.8556, 36.6251, 27.2499, 72.1491, -157.681
6.40723, 11, -48.3284, -14.8611, 36.6447, 27.2856, 72.1721, -157.62
6.41535, 11, -48.3143, -14.8721, 36.6837, 27.3579, 72.2175, -157.498
6.42323, 11, -48.3, -14.8831, 36.7227, 27.4296, 72.2634, -157.377
6.43124, 11, -48.2858, -14.8942, 36.7618, 27.5023, 72.3097, -157.256
6.44082, 12, -48.2643, -14.9107, 36.82, 27.6109, 72.3776, -157.074
6.44878, 12, -48.2499, -14.9215, 36.8589, 27.6834, 72.4238, -156.952
6.4556, 12, -48.2427, -14.9269, 36.8783, 27.7196, 72.4469, -156.892
6.4632, 12, -48.2283, -14.9379, 36.917, 27.7927, 72.4921, -156.771
6.47282, 12, -48.2138, -14.949, 36.9557, 27.8653, 72.5373, -156.59
6.48085, 12, -48.1992, -14.9603, 36.9943, 27.9386, 72.5832, -156.53
6.48824, 12, -48.1845, -14.9713, 37.0327, 28.0112, 72.6285, -156.41
6.49627, 12, -48.1695, -14.9821, 37.0712, 28.0847, 72.6735, -156.291
6.50722, 12, -48.1469, -14.9986, 37.1287, 28.1943, 72.7422, -156.111
6.51122, 12, -48.1394, -15.004, 37.1478, 28.231, 72.7648, -156.051
6.51923, 12, -48.1241, -15.0152, 37.1859, 28.3041, 72.8094, -155.932
6.52743, 13, -48.1087, -15.0263, 37.224, 28.3778, 72.8547, -155.812
6.53798, 13, -48.0854, -15.0425, 37.281, 28.4879, 72.9223, -155.633
6.54323, 13, -48.0776, -15.0479, 37.3, 28.5247, 72.9444, -155.574
6.55126, 13, -48.0619, -15.0588, 37.3378, 28.5979, 72.9894, -155.454
6.55925, 13, -48.046, -15.0698, 37.3755, 28.6715, 73.0349, -155.335
6.56723, 13, -48.0301, -15.0808, 37.4132, 28.7448, 73.0792, -155.217
6.5763, 13, -48.0138, -15.0918, 37.4508, 28.8184, 73.1237, -155.098
6.58322, 13, -47.9974, -15.1024, 37.4881, 28.8916, 73.169, -154.979
6.59129, 13, -47.9808, -15.1131, 37.5255, 28.9651, 73.2136, -154.86
6.60007, 13, -47.9642, -15.1239, 37.5629, 29.0384, 73.258, -154.741
6.60825, 13, -47.9475, -15.1348, 37.6, 29.1118, 73.3031, -154.623
6.61623, 14, -47.9305, -15.1459, 37.6371, 29.1851, 73.3478, -154.504
6.62485, 14, -47.9135, -15.1567, 37.674, 29.2585, 73.3916, -154.386
6.63139, 14, -47.8965, -15.1673, 37.7107, 29.3318, 73.4361, -154.268
6.64125, 14, -47.8793, -15.178, 37.7475, 29.4052, 73.4806, -154.15
6.6483, 14, -47.8618, -15.1888, 37.7841, 29.4783, 73.5244, -154.032
6.65528, 14, -47.844, -15.1997, 37.8205, 29.5516, 73.5686, -153.914
6.66329, 14, -47.8261, -15.2107, 37.8569, 29.6248, 73.6133, -153.796
6.67127, 14, -47.8081, -15.2213, 37.8932, 29.6977, 73.6571, -153.679
6.67931, 14, -47.79, -15.2319, 37.9294, 29.7705, 73.7008, -153.561
6.6874, 14, -47.7717, -15.2426, 37.9655, 29.8436, 73.7453, -153.443
6.69537, 14, -47.7533, -15.2533, 38.0015, 29.9164, 73.7891, -153.325
6.70359, 15, -47.7348, -15.2642, 38.0372, 29.9892, 73.8325, -153.208
6.71233, 15, -47.7161, -15.275, 38.0731, 30.0618, 73.8767, -153.091
6.71929, 15, -47.6971, -15.2855, 38.1088, 30.1345, 73.9207, -152.973
6.72737, 15, -47.6779, -15.2961, 38.1443, 30.2072, 73.9639, -152.856
6.73531, 15, -47.6586, -15.3067, 38.1797, 30.2797, 74.0076, -152.739
6.74326, 15, -47.6392, -15.3175, 38.2151, 30.3522, 74.0515, -152.622
6.75134, 15, -47.6194, -15.3284, 38.2503, 30.4246, 74.0947, -152.504
6.75944, 15, -47.5996, -15.3392, 38.2855, 30.497, 74.1378, -152.388
6.76747, 15, -47.5797, -15.3498, 38.3207, 30.5689, 74.1816, -152.271
6.77553, 15, -47.5596, -15.3604, 38.3555, 30.6412, 74.2247, -152.154
6.78365, 15, -47.5393, -15.3712, 38.3903, 30.713, 74.2672, -152.038
6.79164, 16, -47.5187, -15.3821, 38.4251, 30.7852, 74.3104, -151.922
6.80044, 16, -47.498, -15.393, 38.4597, 30.8569, 74.3535, -151.806
6.80915, 16, -47.4772, -15.4038, 38.4941, 30.929, 74.3957, -151.69
6.81576, 16, -47.4562, -15.4145, 38.5286, 31.0006, 74.4382, -151.575
6.82433, 16, -47.4351, -15.4252, 38.563, 31.0727, 74.4813, -151.459
6.83188, 16, -47.4139, -15.4361, 38.5972, 31.1442, 74.5233, -151.344
6.84044, 16, -47.3926, -15.4472, 38.6314, 31.2159, 74.5649, -151.228
6.84948, 16, -47.3708, -15.4582, 38.6655, 31.2874, 74.6074, -151.113
6.8558, 16, -47.36, -15.4637, 38.6825, 31.3231, 74.6286, -151.056
6.86432, 16, -47.3273, -15.4799, 38.7334, 31.4303, 74.6908, -150.884
6.87124, 16, -47.3164, -15.4853, 38.7504, 31.4658, 74.7115, -150.827
6.87936, 17, -47.2942, -15.4963, 38.7842, 31.5375, 74.7537, -150.712
6.88721, 17, -47.2719, -15.5075, 38.8178, 31.6085, 74.7956, -150.598
6.89659, 17, -47.2382, -15.5244, 38.8684, 31.7154, 74.8569, -150.427
6.90323, 17, -47.2268, -15.5299, 38.8852, 31.7508, 74.8776, -150.37
6.91258, 17, -47.1923, -15.5466, 38.9354, 31.8579, 74.9398, -150.199
6.91925, 17, -47.1809, -15.5522, 38.9522, 31.8933, 74.9601, -150.143
6.92873, 17, -47.1463, -15.5694, 39.0023, 31.9999, 75.021, -149.973
6.93683, 17, -47.1229, -15.581, 39.0355, 32.0708, 75.0623, -149.86
6.94479, 17, -47.0994, -15.5925, 39.0687, 32.1417, 75.1027, -149.748
6.95279, 17, -47.0757, -15.6038, 39.1019, 32.2125, 75.1424, -149.636
6.96087, 17, -47.0516, -15.6154, 39.1348, 32.2833, 75.1827, -149.524
6.96881, 18, -47.0395, -15.6212, 39.1513, 32.3185, 75.2228, -149.412
6.97705, 18, -47.0154, -15.633, 39.2008, 32.4247, 75.2622, -149.3
6.98324, 18, -46.9913, -15.645, 39.2172, 32.4598, 75.2817, -149.245
6.99222, 18, -46.9669, -15.6566, 39.2501, 32.5307, 75.3212, -149.133
7.00022, 18, -46.9425, -15.6683, 39.2829, 32.6007, 75.361, -149.022
7.0083, 18, -46.9178, -15.6803, 39.3157, 32.6716, 75.3998, -148.912
7.01521, 18, -46.8929, -15.6926, 39.3484, 32.7417, 75.4383, -148.801
7.0235, 18, -46.8678, -15.7048, 39.381, 32.8126, 75.4772, -148.691
7.0312, 18, -46.8426, -15.717, 39.4137, 32.8825, 75.5159, -148.581
7.03926, 18, -46.8173, -15.7291, 39.4462, 32.9533, 75.5539, -148.471
7.04939, 18, -46.7919, -15.7414, 39.4786, 33.0232, 75.5919, -148.362
7.05635, 19, -46.7662, -15.754, 39.511, 33.0937, 75.6304, -148.253
7.06425, 19, -46.7404, -15.7668, 39.5435, 33.1634, 75.6685, -148.144
7.07123, 19, -46.7144, -15.7792, 39.5758, 33.2335, 75.7057, -148.035
7.07921, 19, -46.6883, -15.7918, 39.6081, 33.3033, 75.7429, -147.926
7.08728, 19, -46.6621, -15.8046, 39.6404, 33.3735, 75.7806, -147.818
7.09521, 19, -46.6356, -15.8177, 39.6725, 33.4431, 75.8177, -147.71
7.10431, 19, -46.6088, -15.8309, 39.7045, 33.513, 75.8542, -147.603
7.11222, 19, -46.5817, -15.8438, 39.7366, 33.5826, 75.8907, -147.496
7.12021, 19, -46.5546, -15.8569, 39.7687, 33.6523, 75.9278, -147.389
7.12724, 19, -46.5275, -15.8702, 39.8005, 33.7218, 75.9642, -147.283
7.1352, 19, -46.5003, -15.8837, 39.8323, 33.7913, 75.9999, -147.177
7.14329, 20, -46.4729, -15.8973, 39.8643, 33.8608, 76.0355, -147.071
7.15137, 20, -46.4452, -15.9107, 39.8961, 33.9301, 76.0716, -146.965
7.15926, 20, -46.4173, -15.9244, 39.9278, 33.9994, 76.1072, -146.859
7.16723, 20, -46.3893, -15.9383, 39.9596, 34.0683, 76.1421, -146.754
7.17524, 20, -46.3612, -15.9524, 39.9913, 34.1376, 76.1769, -146.649
7.18338, 20, -46.3329, -15.9663, 40.0228, 34.2062, 76.2122, -146.544
7.1913, 20, -46.3046, -15.9802, 40.0543, 34.2753, 76.2472, -146.439
7.19937, 20, -46.276, -15.9944, 40.0859, 34.3437, 76.2814, -146.336
7.20734, 20, -46.2471, -16.0088, 40.1173, 34.4128, 76.3152, -146.232
7.21539, 20, -46.2183, -16.0231, 40.1486, 34.4811, 76.3496, -146.128
7.22352, 20, -46.1892, -16.0374, 40.1798, 34.5501, 76.3838, -146.024
7.23335, 21, -46.1598, -16.052, 40.2111, 34.6181, 76.4172, -145.921
7.24028, 21, -46.1302, -16.0668, 40.2423, 34.6868, 76.4502, -145.818
7.24724, 21, -46.1003, -16.0816, 40.2733, 34.7546, 76.4836, -145.715
7.25534, 21, -46.0703, -16.0963, 40.3044, 34.8232, 76.5172, -145.613
7.26338, 21, -46.0403, -16.1111, 40.3354, 34.8907, 76.55, -145.51
7.27322, 21, -46.0101, -16.1263, 40.3661, 34.9588, 76.5822, -145.409
7.27961, 21, -45.9796, -16.1415, 40.3969, 35.0263, 76.6144, -145.307
7.28811, 21, -45.9488, -16.1566, 40.4277, 35.0941, 76.647, -145.206
7.29567, 21, -45.918, -16.1718, 40.4583, 35.1615, 76.6795, -145.105
7.30369, 21, -45.887, -16.1873, 40.4887, 35.2288, 76.7113, -145.004
7.31186, 21, -45.8559, -16.2029, 40.5192, 35.2962, 76.7428, -144.903
7.32195, 22, -45.8245, -16.2182, 40.5496, 35.3632, 76.7744, -144.802
7.32998, 22, -45.7928, -16.2337, 40.5798, 35.4305, 76.8064, -144.702
7.33603, 22, -45.7769, -16.2416, 40.61, 35.497, 76.8376, -144.602
7.34379, 22, -45.745, -16.2575, 40.6251, 35.564, 76.8682, -144.502
7.35222, 22, -45.6968, -16.2811, 40.6702, 35.6301, 76.8985, -144.402
7.35925, 22, -45.6806, -16.2889, 40.6851, 35.6635, 76.9138, -144.352
7.37208, 22, -45.6316, -16.3131, 40.7299, 35.7958, 76.9751, -144.153
7.37518, 22, -45.6152, -16.3212, 40.7448, 35.7958, 76.9751, -144.153
7.38463, 22, -45.5656, -16.3452, 40.7891, 35.8946, 77.0198, -144.004
7.39119, 22, -45.5491, -16.3533, 40.8038, 35.9275, 77.0345, -143.955
7.3994, 22, -45.5158, -16.3695, 40.8332, 35.9935, 77.0643, -143.856
7.40719, 23, -45.4821, -16.386, 40.8627, 36.0584, 77.0945, -143.757
7.41725, 23, -45.4313, -16.4103, 40.9063, 36.1566, 77.1386, -143.609
7.4232, 23, -45.4144, -16.4185, 40.9209, 36.1888, 77.153, -143.56
7.43305, 23, -45.3631, -16.4434, 40.9644, 36.2868, 77.1958, -143.412
7.44156, 23, -45.3285, -16.4599, 40.9932, 36.351, 77.225, -143.314
7.44723, 23, -45.3111, -16.4681, 41.0075, 36.3836, 77.2395, -143.265
7.45757, 23, -45.2589, -16.493, 41.0501, 36.4797, 77.2822, -143.118
7.46323, 23, -45.2413, -16.5015, 41.0644, 36.512, 77.2962, -143.07
7.47284, 23, -45.206, -16.5182, 41.1069, 36.6078, 77.338, -142.924
7.4818, 23, -45.1703, -16.5348, 41.1209, 36.6394, 77.352, -142.875
7.48826, 23, -45.1345, -16.5516, 41.1488, 36.7034, 77.3805, -142.778
7.49692, 24, -45.0986, -16.5687, 41.1767, 36.7663, 77.4086, -142.681
7.50401, 24, -45.0624, -16.5855, 41.2045, 36.8298, 77.4362, -142.584
7.51119, 24, -45.026, -16.6022, 41.232, 36.8923, 77.4633, -142.487
7.5193, 24, -44.9893, -16.6192, 41.2594, 36.955, 77.4904, -142.39
7.52719, 24, -44.9525, -16.6363, 41.2867, 37.0176, 77.5178, -142.293
7.53528, 24, -44.9155, -16.6532, 41.3139, 37.0795, 77.5452, -142.197
7.54644, 24, -44.8594, -16.6788, 41.3542, 37.1725, 77.5853, -142.052
7.55119, 24, -44.8406, -16.6874, 41.3675, 37.2031, 77.5984, -142.004
7.55923, 24, -44.8028, -16.7045, 41.3941, 37.2651, 77.6246, -141.908
7.56726, 24, -44.7648, -16.7214, 41.4207, 37.326, 77.6513, -141.811
7.57521, 24, -44.7265, -16.7384, 41.4469, 37.3873, 77.678, -141.716
7.5832, 25, -44.6879, -16.7557, 41.473, 37.448, 77.7042, -141.619
7.59125, 25, -44.649, -16.7727, 41.4988, 37.5082, 77.7299, -141.523
7.59941, 25, -44.61, -16.7897, 41.5246, 37.5688, 77.7553, -141.427
7.61025, 25, -44.5509, -16.8156, 41.5628, 37.6582, 77.7935, -141.283
7.61527, 25, -44.5311, -16.8241, 41.5755, 37.6884, 77.8064, -141.235
7.62327, 25, -44.4914, -16.8411, 41.6007, 37.7476, 77.8322, -141.14
7.63122, 25, -44.4516, -16.8581, 41.6257, 37.8068, 77.8574, -141.044
7.63923, 25, -44.4114, -16.8754, 41.6506, 37.8662, 77.8822, -140.949
7.64725, 25, -44.3708, -16.8924, 41.6751, 37.9245, 77.9068, -140.853
7.65519, 25, -44.3301, -16.9092, 41.6994, 37.9835, 77.9316, -140.758
7.66319, 25, -44.2892, -16.9264, 41.7236, 38.0413, 77.9567, -140.662
7.67138, 26, -44.2481, -16.9436, 41.7477, 38.0993, 77.9818, -140.567
7.68019, 26, -44.2065, -16.9604, 41.7715, 38.1572, 78.0061, -140.472
7.68736, 26, -44.1649, -16.9773, 41.795, 38.2142, 78.0301, -140.377
7.69528, 26, -44.123, -16.9944, 41.8184, 38.2719, 78.0538, -140.281
7.7033, 26, -44.0807, -17.0114, 41.8415, 38.3283, 78.0777, -140.186
7.71139, 26, -44.0382, -17.0282, 41.8645, 38.3849, 78.1019, -140.091
7.71999, 26, -43.9956, -17.0451, 41.8872, 38.4415, 78.1259, -139.995
7.72826, 26, -43.9528, -17.0622, 41.9098, 38.497, 78.1495, -139.9
7.73519, 26, -43.9095, -17.079, 41.9321, 38.5532, 78.1727, -139.805
7.74423, 26, -43.8661, -17.0956, 41.9543, 38.6084, 78.1957, -139.71
7.75125, 26, -43.8226, -17.1124, 41.9763, 38.6633, 78.2189, -139.615
7.75935, 27, -43.7787, -17.1293, 41.9979, 38.7188, 78.2425, -139.52
7.76907, 27, -43.7344, -17.1458, 42.0192, 38.773, 78.266, -139.425
7.77806, 27, -43.69, -17.1623, 42.0405, 38.8278, 78.289, -139.33
7.78425, 27, -43.6454, -17.1791, 42.0614, 38.8821, 78.3118, -139.234
7.79151, 27, -43.6003, -17.1958, 42.0824, 38.9354, 78.334, -139.139
7.79978, 27, -43.5552, -17.2121, 42.103, 38.9894, 78.3564, -139.044
7.8085, 27, -43.5098, -17.2285, 42.1233, 39.0424, 78.379, -138.949
7.81573, 27, -43.4642, -17.245, 42.1434, 39.0952, 78.4018, -138.854
7.82375, 27, -43.4182, -17.2614, 42.1632, 39.1483, 78.4243, -138.759
7.83269, 27, -43.372, -17.2775, 42.1829, 39.2001, 78.4464, -138.664
7.83985, 27, -43.3256, -17.2937, 42.2025, 39.2524, 78.4683, -138.57
7.84846, 28, -43.2789, -17.3101, 42.2216, 39.3045, 78.49, -138.475
7.85679, 28, -43.232, -17.3262, 42.2406, 39.3554, 78.5118, -138.381
7.86424, 28, -43.1849, -17.3421, 42.2594, 39.4071, 78.5339, -138.286
7.87123, 28, -43.1613, -17.35, 42.2687, 39.4328, 78.545, -138.238
7.88107, 28, -43.09, -17.3742, 42.2963, 39.5081, 78.5779, -138.096
7.88834, 28, -43.0421, -17.39, 42.3145, 39.559, 78.5992, -138.002
7.89518, 28, -43.0181, -17.3979, 42.3234, 39.5842, 78.6098, -137.954
7.90324, 28, -42.9699, -17.4136, 42.341, 39.6337, 78.6308, -137.859
7.91257, 28, -42.8971, -17.4375, 42.3671, 39.7088, 78.6623, -137.717
7.91924, 28, -42.8726, -17.4453, 42.3756, 39.7335, 78.673, -137.67
7.92863, 28, -42.799, -17.4684, 42.4008, 39.8066, 78.705, -137.527
7.93518, 29, -42.7744, -17.4762, 42.4092, 39.8312, 78.7155, -137.48
7.94564, 29, -42.7002, -17.4996, 42.4342, 39.9039, 78.7465, -137.338
7.95135, 29, -42.6752, -17.5072, 42.4423, 39.9278, 78.7567, -137.291
7.95923, 29, -42.6252, -17.5223, 42.4583, 39.976, 78.777, -137.196
7.96956, 29, -42.5752, -17.5375, 42.4819, 40.0473, 78.8077, -137.054
7.97517, 29, -42.5249, -17.5528, 42.4895, 40.0706, 78.818, -137.006
7.98566, 29, -42.4742, -17.5679, 42.5046, 40.1177, 78.8388, -136.912
7.99444, 29, -42.3978, -17.5902, 42.5271, 40.188, 78.8696, -136.77
7.99922, 29, -42.3722, -17.5976, 42.5347, 40.2109, 78.8796, -136.722
8.00819, 29, -42.3207, -17.6126, 42.5492, 40.2572, 78.8995, -136.628
8.01625, 29, -42.2691, -17.6273, 42.5634, 40.3036, 78.9191, -136.533
8.02332, 30, -42.2173, -17.6418, 42.5776, 40.3486, 78.9387, -136.439
8.03216, 30, -42.1652, -17.6563, 42.5915, 40.3939, 78.9585, -136.345
8.03923, 30, -42.1129, -17.671, 42.605, 40.4396, 78.9786, -136.25
8.04725, 30, -42.0605, -17.6855, 42.6183, 40.4841, 78.9985, -136.156
8.05524, 30, -42.0078, -17.6997, 42.6316, 40.5283, 79.0182, -136.061
8.06319, 30, -41.9548, -17.7138, 42.6446, 40.5731, 79.0375, -135.967
8.07124, 30, -41.9016, -17.7281, 42.6572, 40.6169, 79.0566, -135.872
8.07925, 30, -41.8481, -17.7423, 42.6695, 40.6601, 79.0756, -135.778
8.08717, 30, -41.7945, -17.7562, 42.6816, 40.7039, 79.0949, -135.683
8.09524, 30, -41.7405, -17.7699, 42.6934, 40.7472, 79.1143, -135.589
8.10322, 30, -41.6864, -17.7837, 42.7051, 40.7896, 79.1339, -135.494
8.11119, 31, -41.632, -17.7977, 42.7164, 40.8323, 79.1532, -135.401
8.11943, 31, -41.5775, -17.8114, 42.7275, 40.8749, 79.1721, -135.306
8.12815, 31, -41.5227, -17.8248, 42.7386, 40.9166, 79.1907, -135.212
8.13527, 31, -41.4677, -17.8381, 42.7494, 40.958, 79.209, -135.118
8.14318, 31, -41.4124, -17.8515, 42.7599, 40.9999, 79.2273, -135.024
8.15117, 31, -41.3569, -17.865, 42.7702, 41.0409, 79.2457, -134.929
8.15954, 31, -41.3012, -17.878, 42.7802, 41.0812, 79.2644, -134.835
8.16838, 31, -41.2452, -17.8909, 42.7899, 41.122, 79.2831, -134.74
8.1752, 31, -41.1892, -17.9038, 42.7994, 41.1628, 79.3016, -134.646
8.1836, 31, -41.133, -17.9168, 42.8086, 41.2025, 79.3198, -134.551
8.19126, 31, -41.0765, -17.9297, 42.8175, 41.2419, 79.3377, -134.457
8.19956, 32, -41.0198, -17.9423, 42.8263, 41.282, 79.3555, -134.363
8.20826, 32, -40.9628, -17.9548, 42.8348, 41.3215, 79.3732, -134.269
8.21531, 32, -40.9055, -17.9673, 42.8431, 41.3601, 79.391, -134.175
8.22337, 32, -40.8481, -17.9798, 42.8513, 41.3989, 79.4091, -134.081
8.23193, 32, -40.7904, -17.9923, 42.8592, 41.438, 79.4273, -133.987
8.24021, 32, -40.7325, -18.0043, 42.8669, 41.4762, 79.4452, -133.893
8.24818, 32, -40.6746, -18.0163, 42.8745, 41.5136, 79.4627, -133.799
8.25554, 32, -40.6164, -18.0284, 42.8816, 41.5514, 79.48, -133.705
8.26328, 32, -40.558, -18.0404, 42.8884, 41.5893, 79.497, -133.611
8.27225, 32, -40.4993, -18.0524, 42.895, 41.6263, 79.5139, -133.518
8.27956, 32, -40.4403, -18.064, 42.9014, 41.6628, 79.5309, -133.424
8.28753, 33, -40.3812, -18.0754, 42.9077, 41.6998, 79.5481, -133.33
8.29648, 33, -40.3219, -18.0869, 42.9137, 41.7366, 79.5654, -133.236
8.30422, 33, -40.2623, -18.0983, 42.9195, 41.7724, 79.5826, -133.143
8.31171, 33, -40.2028, -18.1099, 42.925, 41.8078, 79.5995, -133.049
8.3206, 33, -40.1429, -18.1211, 42.9303, 41.8435, 79.6161, -132.956
8.32775, 33, -40.083, -18.1321, 42.9353, 41.8793, 79.6324, -132.862
8.33659, 33, -40.0227, -18.1431, 42.94, 41.9142, 79.6487, -132.769
8.34378, 33, -39.9622, -18.1541, 42.9444, 41.9485, 79.6649, -132.675
8.35234, 33, -39.9014, -18.1651, 42.9487, 41.9832, 79.6813, -132.581
8.35916, 33, -39.8709, -18.1706, 42.9507, 42.0007, 79.6896, -132.534
8.36852, 34, -39.7792, -18.1866, 42.9567, 42.0518, 79.7147, -132.394
8.37658, 34, -39.7179, -18.1969, 42.9603, 42.0851, 79.7313, -132.301
8.38319, 34, -39.6872, -18.2021, 42.9621, 42.1017, 79.7395, -132.254
8.39121, 34, -39.6256, -18.2124, 42.9655, 42.1355, 79.7556, -132.161
8.40077, 34, -39.5327, -18.2279, 42.9701, 42.1856, 79.7793, -132.021
8.40928, 34, -39.4705, -18.2381, 42.9729, 42.2181, 79.7948, -131.928
8.41775, 34, -39.4082, -18.248, 42.9754, 42.2505, 79.8103, -131.835
8.42322, 34, -39.3769, -18.2528, 42.9765, 42.2668, 79.818, -131.789
8.43116, 34, -39.3143, -18.2625, 42.9787, 42.2995, 79.8337, -131.696
8.44073, 34, -39.2201, -18.277, 42.9815, 42.3472, 79.8577, -131.556
8.44722, 34, -39.1886, -18.2818, 42.9824, 42.3628, 79.8657, -131.51
8.45675, 34, -39.0938, -18.2963, 42.9845, 42.4096, 79.8893, -131.37
8.46317, 35, -39.062, -18.301, 42.9851, 42.4253, 79.897, -131.324
8.47129, 35, -38.9985, -18.3102, 42.986, 42.4565, 79.9123, -131.231
8.47915, 35, -38.9347, -18.3192, 42.9868, 42.487, 79.9274, -131.138
8.48819, 35, -38.8707, -18.3281, 42.9874, 42.517, 79.9424, -131.045
8.49621, 35, -38.8065, -18.3371, 42.9877, 42.547, 79.9574, -130.953
8.50416, 35, -38.7421, -18.346, 42.9878, 42.5774, 79.9724, -130.86
8.51217, 35, -38.6776, -18.3548, 42.9879, 42.6073, 79.9877, -130.768
8.52021, 35, -38.6128, -18.3635, 42.9879, 42.6364, 80.003, -130.675
8.5282, 35, -38.5478, -18.3719, 42.9879, 42.665, 80.0184, -130.582
8.53618, 35, -38.4828, -18.3801, 42.9878, 42.6937, 80.0335, -130.489
8.54332, 35, -38.4176, -18.3882, 42.9876, 42.7228, 80.0482, -130.397
8.55361, 36, -38.3522, -18.3964, 42.9873, 42.7513, 80.0627, -130.258
8.56029, 36, -38.2866, -18.4044, 42.9867, 42.7792, 80.077, -130.212
8.56715, 36, -38.2208, -18.4124, 42.9859, 42.8067, 80.0911, -130.119
8.57523, 36, -38.1548, -18.4205, 42.9849, 42.8344, 80.1052, -130.027
8.58319, 36, -38.0886, -18.4282, 42.9835, 42.8621, 80.1195, -129.935
8.59219, 36, -38.0223, -18.4356, 42.9819, 42.8896, 80.134, -129.843
8.60026, 36, -37.9558, -18.4428, 42.9799, 42.9163, 80.1486, -129.751
8.60816, 36, -37.8891, -18.45, 42.9776, 42.9425, 80.1631, -129.659
8.61628, 36, -37.8221, -18.4572, 42.9751, 42.9686, 80.1775, -129.567
8.6242, 36, -37.7551, -18.4642, 42.9722, 42.995, 80.1916, -129.476
8.63218, 36, -37.6879, -18.4713, 42.9691, 43.0214, 80.2055, -129.383
8.64088, 37, -37.6205, -18.4784, 42.9657, 43.0471, 80.2192, -129.292
8.6473, 37, -37.553, -18.4852, 42.962, 43.0724, 80.2326, -129.2
8.65523, 37, -37.4852, -18.4918, 42.9579, 43.0972, 80.2461, -129.108
8.66317, 37, -37.4172, -18.4981, 42.9536, 43.1221, 80.2596, -129.017
8.67133, 37, -37.3491, -18.5043, 42.9489, 43.1473, 80.2733, -128.925
8.67919, 37, -37.2808, -18.5105, 42.944, 43.1723, 80.2871, -128.833
8.68749, 37, -37.2123, -18.5166, 42.9389, 43.1965, 80.301, -128.742
8.69616, 37, -37.1437, -18.5226, 42.9336, 43.2202, 80.3148, -128.651
8.70336, 37, -37.0749, -18.5284, 42.9281, 43.2435, 80.3282, -128.56
8.71165, 37, -37.0059, -18.5344, 42.9224, 43.2668, 80.3413, -128.468
8.71953, 37, -36.9367, -18.5402, 42.9164, 43.2903, 80.3543, -128.377
8.72824, 38, -36.8673, -18.546, 42.9101, 43.3138, 80.367, -128.286
8.73563, 38, -36.7977, -18.5515, 42.9035, 43.3365, 80.3797, -128.194
8.74332, 38, -36.728, -18.5567, 42.8966, 43.3587, 80.3923, -128.103
8.75121, 38, -36.658, -18.5617, 42.8895, 43.3806, 80.405, -128.012
8.76006, 38, -36.588, -18.5666, 42.8824, 43.4023, 80.4179, -127.921
8.7673, 38, -36.5178, -18.5714, 42.875, 43.4243, 80.431, -127.83
8.77607, 38, -36.4474, -18.5762, 42.8674, 43.4463, 80.4441, -127.739
8.78351, 38, -36.3769, -18.5808, 42.8595, 43.4679, 80.4571, -127.648
8.7915, 38, -36.3062, -18.5852, 42.8514, 43.4888, 80.4699, -127.558
8.80045, 38, -36.2352, -18.5895, 42.8428, 43.5092, 80.4824, -127.467
8.80765, 38, -36.1641, -18.5937, 42.834, 43.5292, 80.4948, -127.377
8.81639, 39, -36.0929, -18.5979, 42.8251, 43.5492, 80.507, -127.287
8.82525, 39, -36.0215, -18.6021, 42.8161, 43.5693, 80.5192, -127.196
8.8317, 39, -35.95, -18.6061, 42.8068, 43.5895, 80.5313, -127.106
8.8403, 39, -35.8782, -18.61, 42.7973, 43.6095, 80.5434, -127.016
8.84857, 39, -35.8423, -18.6138, 42.7876, 43.6287, 80.5557, -126.925
8.85579, 39, -35.7702, -18.6156, 42.7776, 43.6477, 80.5682, -126.835
8.86613, 39, -35.662, -18.6208, 42.7676, 43.6663, 80.5807, -126.745
8.87121, 39, -35.6258, -18.6224, 42.7624, 43.6755, 80.587, -126.7
8.88029, 39, -35.5171, -18.6271, 42.7467, 43.7031, 80.6057, -126.564
8.88717, 39, -35.4808, -18.6286, 42.7413, 43.7124, 80.6118, -126.52
8.8967, 40, -35.3715, -18.6328, 42.7248, 43.7401, 80.6298, -126.385
8.90314, 40, -35.335, -18.6342, 42.7192, 43.7492, 80.6356, -126.34
8.91305, 40, -35.2254, -18.638, 42.7021, 43.7755, 80.6529, -126.205
8.91916, 40, -35.1887, -18.6392, 42.6963, 43.784, 80.6585, -126.161
8.92854, 40, -35.0787, -18.6427, 42.6785, 43.8091, 80.6755, -126.026
8.93739, 40, -35.005, -18.6449, 42.6665, 43.8255, 80.6867, -125.937
8.9431, 40, -34.9681, -18.646, 42.6605, 43.8336, 80.6924, -125.892
8.9512, 40, -34.8942, -18.6481, 42.6482, 43.8501, 80.7038, -125.802
8.96075, 40, -34.783, -18.6511, 42.6293, 43.8748, 80.721, -125.668
8.96872, 40, -34.7088, -18.653, 42.6163, 43.8912, 80.7327, -125.579
8.97685, 40, -34.6716, -18.6549, 42.6032, 43.9069, 80.7443, -125.489
8.98516, 41, -34.5599, -18.6566, 42.59, 43.9222, 80.7557, -125.4
8.99136, 41, -34.5227, -18.6574, 42.5833, 43.9298, 80.7613, -125.356
8.99911, 41, -34.4479, -18.659, 42.5696, 43.9444, 80.7725, -125.267
9.00815, 41, -34.3729, -18.6604, 42.5558, 43.9589, 80.7834, -125.178
9.01614, 41, -34.2979, -18.6618, 42.542, 43.9732, 80.7941, -125.089
9.02422, 41, -34.2227, -18.663, 42.5278, 43.9874, 80.8047, -125.001
9.03215, 41, -34.1473, -18.6642, 42.5134, 44.0016, 80.8153, -124.911
9.04021, 41, -34.0719, -18.6652, 42.4987, 44.0158, 80.8259, -124.823
9.04823, 41, -33.9962, -18.6661, 42.4839, 44.0299, 80.8364, -124.734
9.05616, 41, -33.9203, -18.6669, 42.4689, 44.0436, 80.8471, -124.646
9.06539, 41, -33.8443, -18.6676, 42.4537, 44.0568, 80.8579, -124.557
9.07227, 42, -33.7681, -18.6681, 42.4384, 44.0696, 80.8689, -124.469
9.08019, 42, -33.6917, -18.6686, 42.423, 44.082, 80.8799, -124.381
9.08824, 42, -33.6152, -18.6689, 42.4072, 44.094, 80.8907, -124.293
9.09614, 42, -33.5386, -18.6691, 42.3912, 44.1058, 80.9015, -124.205
9.10414, 42, -33.4618, -18.6692, 42.375, 44.1175, 80.9119, -124.117
9.11114, 42, -33.3849, -18.6692, 42.3587, 44.1291, 80.9222, -124.029
9.12025, 42, -33.3079, -18.6692, 42.3421, 44.1406, 80.9323, -123.942
9.12816, 42, -33.2307, -18.6692, 42.3255, 44.1521, 80.9422, -123.853
9.13519, 42, -33.1534, -18.6692, 42.3087, 44.1636, 80.952, -123.766
9.14316, 42, -33.0758, -18.6692, 42.2916, 44.1748, 80.9617, -123.678
9.15126, 42, -32.998, -18.6691, 42.2743, 44.1856, 80.9714, -123.59
9.15936, 43, -32.9201, -18.669, 42.2568, 44.1961, 80.9811, -123.503
9.16728, 43, -32.8422, -18.6688, 42.2391, 44.2062, 80.9908, -123.415
9.17538, 43, -32.7641, -18.6685, 42.2211, 44.2158, 81.0006, -123.328
9.18323, 43, -32.6859, -18.6682, 42.2032, 44.2252, 81.0105, -123.241
9.19121, 43, -32.6075, -18.6676, 42.1849, 44.2342, 81.0205, -123.155
9.19955, 43, -32.529, -18.667, 42.1663, 44.243, 81.0304, -123.068
9.20726, 43, -32.4503, -18.6661, 42.1478, 44.2515, 81.0402, -122.981
9.21566, 43, -32.3715, -18.665, 42.1288, 44.2599, 81.0499, -122.894
9.22328, 43, -32.2926, -18.6637, 42.1098, 44.2682, 81.0593, -122.808
9.23125, 43, -32.2135, -18.6623, 42.0907, 44.2763, 81.0685, -122.721
9.24001, 43, -32.1342, -18.6606, 42.0713, 44.2843, 81.0777, -122.634
9.24818, 44, -32.0548, -18.6586, 42.0516, 44.2922, 81.0866, -122.547
9.25519, 44, -31.9752, -18.6565, 42.0319, 44.3, 81.0956, -122.461
9.26412, 44, -31.8955, -18.6543, 42.0119, 44.3076, 81.1045, -122.375
9.27232, 44, -31.8157, -18.6518, 41.9917, 44.315, 81.1133, -122.288
9.27938, 44, -31.7358, -18.6493, 41.9714, 44.322, 81.122, -122.202
9.28828, 44, -31.6558, -18.6465, 41.9508, 44.3288, 81.1308, -122.116
9.29552, 44, -31.5756, -18.6437, 41.9302, 44.3352, 81.1397, -122.03
9.3036, 44, -31.4952, -18.6407, 41.9093, 44.3413, 81.1487, -121.944
9.3124, 44, -31.4147, -18.6376, 41.8881, 44.347, 81.1578, -121.858
9.32, 44, -31.334, -18.6343, 41.8668, 44.3524, 81.1669, -121.772
9.32826, 44, -31.2532, -18.6308, 41.8452, 44.3575, 81.176, -121.686
9.33753, 45, -31.1722, -18.6272, 41.8235, 44.3622, 81.185, -121.6
9.34618, 45, -31.0911, -18.6235, 41.8017, 44.3667, 81.1938, -121.515
9.3517, 45, -31.0505, -18.6217, 41.7907, 44.3689, 81.2025, -121.429
9.36034, 45, -30.9285, -18.616, 41.7575, 44.375, 81.2108, -121.343
9.36717, 45, -30.8878, -18.614, 41.7463, 44.377, 81.215, -121.301
9.37624, 45, -30.7653, -18.608, 41.7123, 44.3823, 81.2272, -121.172
9.38313, 45, -30.7243, -18.6059, 41.7009, 44.3839, 81.2312, -121.13
9.39415, 45, -30.6014, -18.5992, 41.6665, 44.3886, 81.2431, -121.002
9.39913, 45, -30.5603, -18.5969, 41.655, 44.39, 81.2471, -120.96
9.40836, 45, -30.437, -18.5897, 41.62, 44.394, 81.2589, -120.832
9.41512, 45, -30.3959, -18.5873, 41.6082, 44.3952, 81.2628, -120.79
9.4231, 46, -30.3133, -18.5823, 41.5846, 44.3973, 81.2707, -120.705
9.43263, 46, -30.1893, -18.5745, 41.5487, 44.4003, 81.2825, -120.578
9.44051, 46, -30.1478, -18.5718, 41.5367, 44.4011, 81.2865, -120.493
9.44869, 46, -30.0232, -18.5636, 41.5001, 44.4033, 81.2987, -120.409
9.45671, 46, -29.9399, -18.558, 41.4756, 44.4044, 81.3069, -120.324
9.46505, 46, -29.8565, -18.5524, 41.4509, 44.4053, 81.3151, -120.24
9.47119, 46, -29.8148, -18.5496, 41.4385, 44.4057, 81.3193, -120.198
9.48085, 46, -29.6894, -18.5409, 41.4009, 44.4064, 81.3314, -120.071
9.4887, 46, -29.6476, -18.5378, 41.3883, 44.4066, 81.3354, -120.029
9.49613, 46, -29.5637, -18.5315, 41.3629, 44.4067, 81.3434, -119.944
9.50419, 46, -29.4797, -18.5252, 41.3372, 44.4068, 81.3511, -119.861
9.51224, 47, -29.3956, -18.5187, 41.3114, 44.4069, 81.3587, -119.777
9.5193, 47, -29.3113, -18.512, 41.2853, 44.4068, 81.3662, -119.693
9.52813, 47, -29.2268, -18.5052, 41.2591, 44.4067, 81.3736, -119.609
9.53613, 47, -29.1421, -18.4983, 41.2328, 44.4063, 81.3809, -119.525
9.54419, 47, -29.0574, -18.4913, 41.2062, 44.4057, 81.3882, -119.441
9.55217, 47, -28.9725, -18.4842, 41.1793, 44.4046, 81.3954, -119.357
9.56201, 47, -28.8449, -18.473, 41.1387, 44.4022, 81.4063, -119.231
9.56816, 47, -28.8023, -18.4691, 41.1251, 44.4012, 81.4099, -119.189
9.57619, 47, -28.7169, -18.4613, 41.0978, 44.3989, 81.4172, -119.106
9.58559, 47, -28.6314, -18.4535, 41.0702, 44.3963, 81.4283, -118.98
9.5912, 47, -28.5459, -18.4456, 41.0424, 44.3933, 81.4321, -118.938
9.59908, 48, -28.4601, -18.4375, 41.0143, 44.39, 81.4397, -118.855
9.60712, 48, -28.3743, -18.4296, 40.9862, 44.3864, 81.4473, -118.771
9.61532, 48, -28.2881, -18.4215, 40.9577, 44.3824, 81.455, -118.688
9.62617, 48, -28.1587, -18.4087, 40.9147, 44.376, 81.4667, -118.564
9.6312, 48, -28.1155, -18.4043, 40.9002, 44.3736, 81.4705, -118.522
9.63913, 48, -28.0291, -18.3954, 40.8712, 44.3687, 81.4782, -118.439
9.64712, 48, -27.9425, -18.3863, 40.8419, 44.3635, 81.4857, -118.357
9.65522, 48, -27.8558, -18.3771, 40.8124, 44.358, 81.4931, -118.273
9.66319, 48, -27.7687, -18.3679, 40.7827, 44.3522, 81.5004, -118.19
9.67113, 48, -27.6814, -18.3586, 40.7529, 44.3461, 81.5076, -118.107
9.67945, 48, -27.594, -18.349, 40.7227, 44.3394, 81.5147, -118.024
9.68736, 49, -27.5064, -18.339, 40.6923, 44.3325, 81.5216, -117.941
9.6961, 49, -27.4187, -18.329, 40.6618, 44.3251, 81.5286, -117.858
9.70332, 49, -27.3309, -18.319, 40.631, 44.3172, 81.5356, -117.775
9.71126, 49, -27.243, -18.3088, 40.5999, 44.3088, 81.5425, -117.692
9.71922, 49, -27.155, -18.2986, 40.5687, 44.3001, 81.5495, -117.61
9.72772, 49, -27.0667, -18.2881, 40.5373, 44.291, 81.5564, -117.526
9.73616, 49, -26.9783, -18.2772, 40.5055, 44.2816, 81.5636, -117.444
9.74313, 49, -26.8897, -18.2662, 40.4736, 44.272, 81.5708, -117.361
9.75116, 49, -26.8008, -18.255, 40.4416, 44.2623, 81.5781, -117.279
9.76014, 49, -26.7119, -18.2439, 40.4092, 44.2524, 81.5856, -117.196
9.76723, 49, -26.6228, -18.2326, 40.3766, 44.2423, 81.5932, -117.113
9.77527, 50, -26.5336, -18.2209, 40.3439, 44.232, 81.6009, -117.031
9.78504, 50, -26.4442, -18.209, 40.311, 44.2215, 81.6087, -116.948
9.79397, 50, -26.3547, -18.197, 40.2777, 44.2108, 81.6165, -116.865
9.7996, 50, -26.2649, -18.185, 40.2443, 44.1995, 81.6241, -116.782
9.80823, 50, -26.175, -18.1729, 40.2107, 44.188, 81.6317, -116.7
9.81568, 50, -26.0849, -18.1603, 40.1768, 44.1759, 81.6392, -116.617
9.82427, 50, -25.9947, -18.1475, 40.1427, 44.1634, 81.6468, -116.535
9.83171, 50, -25.9042, -18.1346, 40.1084, 44.1503, 81.6541, -116.452
9.83966, 50, -25.8137, -18.1216, 40.0739, 44.1368, 81.6615, -116.37
9.84823, 50, -25.723, -18.1085, 40.039, 44.1233, 81.6688, -116.288
9.8558, 50, -25.6324, -18.095, 40.004, 44.1097, 81.6762, -116.205
9.86438, 51, -25.5416, -18.0813, 39.9688, 44.0961, 81.6836, -116.123
9.87288, 51, -25.4504, -18.0675, 39.9333, 44.0822, 81.6911, -116.04
9.88026, 51, -25.359, -18.0538, 39.8977, 44.068, 81.6986, -115.958
9.88712, 51, -25.3133, -18.0468, 39.8797, 44.0608, 81.7024, -115.917
9.89626, 51, -25.1758, -18.0251, 39.8254, 44.0382, 81.714, -115.793
9.90312, 51, -25.1299, -18.0177, 39.8073, 44.0304, 81.7179, -115.752
9.91246, 51, -24.9923, -17.9959, 39.7526, 44.0061, 81.7299, -115.628
9.91911, 51, -24.9463, -17.9886, 39.7342, 43.9978, 81.734, -115.587
9.9285, 51, -24.8081, -17.9659, 39.6786, 43.9726, 81.7465, -115.463
9.93511, 51, -24.7619, -17.9581, 39.6601, 43.9642, 81.7507, -115.423
9.94464, 51, -24.6228, -17.9351, 39.6039, 43.9387, 81.7635, -115.299
9.95267, 52, -24.5297, -17.9197, 39.5662, 43.9214, 81.7719, -115.217
9.96112, 52, -24.4366, -17.9036, 39.5283, 43.9035, 81.7803, -115.135
9.96858, 52, -24.3899, -17.8955, 39.5092, 43.8944, 81.7844, -115.053
9.9751, 52, -24.2967, -17.8792, 39.4708, 43.8756, 81.7926, -115.012
9.98464, 52, -24.2034, -17.8632, 39.4324, 43.8562, 81.8007, -114.888
9.99212, 52, -24.1099, -17.8465, 39.3936, 43.8368, 81.8088, -114.847
10.0002, 52, -24.0161, -17.8296, 39.3545, 43.8173, 81.8168, -114.764
10.0093, 52, -23.875, -17.8043, 39.2956, 43.7879, 81.8289, -114.641
10.0152, 52, -23.8278, -17.7957, 39.2758, 43.778, 81.833, -114.6
10.0231, 52, -23.7334, -17.7782, 39.2361, 43.7577, 81.8412, -114.518
10.0311, 52, -23.6388, -17.7604, 39.1961, 43.7366, 81.8495, -114.436
10.0415, 53, -23.4967, -17.734, 39.1356, 43.7039, 81.8621, -114.313
10.0481, 53, -23.4493, -17.725, 39.1154, 43.693, 81.8664, -114.272
10.0561, 53, -23.3544, -17.7066, 39.0747, 43.6711, 81.8752, -114.19
10.0642, 53, -23.2594, -17.6883, 39.0338, 43.6491, 81.8842, -114.108
10.0721, 53, -23.1642, -17.6699, 38.9927, 43.6268, 81.8934, -114.026
10.0801, 53, -23.0685, -17.6511, 38.9513, 43.6037, 81.9026, -113.945
10.0906, 53, -22.9249, -17.6225, 38.889, 43.568, 81.9166, -113.821
10.0951, 53, -22.8769, -17.6129, 38.868, 43.5559, 81.9212, -113.78
10.1031, 53, -22.7808, -17.5935, 38.8259, 43.5319, 81.9303, -113.698
10.1112, 53, -22.6846, -17.5739, 38.7837, 43.5078, 81.9394, -113.616
10.1191, 53, -22.5883, -17.5541, 38.7412, 43.4835, 81.9484, -113.534
10.1271, 54, -22.4918, -17.5342, 38.6984, 43.4583, 81.9575, -113.451
10.1354, 54, -22.3951, -17.5139, 38.6555, 43.4323, 81.9665, -113.37
10.1442, 54, -22.2984, -17.4935, 38.6123, 43.4062, 81.9757, -113.287
10.1511, 54, -22.2013, -17.473, 38.5688, 43.3799, 81.9849, -113.205
10.1601, 54, -22.104, -17.4523, 38.5251, 43.3536, 81.9942, -113.123
10.1671, 54, -22.0067, -17.4315, 38.4812, 43.3268, 82.0036, -113.041
10.1752, 54, -21.9092, -17.4102, 38.4371, 43.2991, 82.0132, -112.959
10.1836, 54, -21.8116, -17.3889, 38.3927, 43.2708, 82.0231, -112.877
10.1912, 54, -21.7136, -17.3674, 38.3481, 43.2429, 82.0332, -112.795
10.1992, 54, -21.6154, -17.3454, 38.3034, 43.2147, 82.0435, -112.712
10.2088, 54, -21.5169, -17.3234, 38.2584, 43.1861, 82.0539, -112.631
10.2163, 55, -21.4184, -17.3013, 38.2133, 43.1566, 82.0641, -112.548
10.2241, 55, -21.3197, -17.2787, 38.1678, 43.1265, 82.0743, -112.466
10.2312, 55, -21.2208, -17.2562, 38.1221, 43.0965, 82.0843, -112.384
10.2391, 55, -21.1217, -17.2334, 38.0763, 43.0665, 82.0943, -112.302
10.2472, 55, -21.0226, -17.2104, 38.0302, 43.0358, 82.1043, -112.22
10.2551, 55, -20.9232, -17.1874, 37.9838, 43.004, 82.1142, -112.137
10.2641, 55, -20.8235, -17.1641, 37.9373, 42.9721, 82.1241, -112.056
10.2712, 55, -20.7235, -17.1405, 37.8904, 42.9404, 82.134, -111.974
10.2793, 55, -20.6235, -17.117, 37.8433, 42.9085, 82.1443, -111.893
10.2877, 55, -20.5234, -17.0931, 37.7961, 42.8756, 82.1546, -111.81
10.2955, 55, -20.4231, -17.0692, 37.7486, 42.8419, 82.1652, -111.729
10.3035, 56, -20.3227, -17.045, 37.7009, 42.8085, 82.176, -111.647
10.3119, 56, -20.222, -17.0205, 37.6532, 42.7749, 82.1869, -111.565
10.3222, 56, -20.1211, -16.996, 37.6051, 42.7407, 82.198, -111.483
10.3283, 56, -20.0199, -16.971, 37.5569, 42.7055, 82.209, -111.401
10.3359, 56, -19.9184, -16.9461, 37.5084, 42.6707, 82.22, -111.319
10.3442, 56, -19.8168, -16.9209, 37.4597, 42.6358, 82.2308, -111.237
10.3517, 56, -19.7659, -16.8955, 37.4108, 42.6003, 82.2416, -111.155
10.3603, 56, -19.6132, -16.8701, 37.3616, 42.5636, 82.2523, -111.073
10.3671, 56, -19.5624, -16.8572, 37.337, 42.5452, 82.2577, -111.032
10.3761, 56, -19.4096, -16.8187, 37.2627, 42.4903, 82.2739, -110.91
10.3841, 56, -19.3586, -16.8057, 37.2379, 42.4718, 82.2793, -110.828
10.3932, 57, -19.205, -16.7665, 37.1629, 42.4145, 82.296, -110.747
10.4003, 57, -19.1023, -16.7402, 37.1127, 42.3766, 82.3075, -110.665
10.4071, 57, -19.0508, -16.7269, 37.0876, 42.3577, 82.3133, -110.624
10.4163, 57, -18.8962, -16.6871, 37.0117, 42.2994, 82.3309, -110.501
10.4231, 57, -18.8446, -16.6737, 36.9864, 42.2794, 82.3369, -110.46
10.4328, 57, -18.6895, -16.6332, 36.9101, 42.22, 82.3546, -110.337
10.4414, 57, -18.5859, -16.6059, 36.859, 42.1801, 82.3665, -110.256
10.4472, 57, -18.534, -16.5922, 36.8333, 42.1596, 82.3723, -110.215
10.4568, 57, -18.3777, -16.5509, 36.7561, 42.0977, 82.3897, -110.092
10.4656, 57, -18.2732, -16.5231, 36.7043, 42.0569, 82.4011, -110.011
10.4712, 57, -18.2208, -16.5092, 36.6783, 42.0361, 82.4069, -109.97
10.4816, 58, -18.0637, -16.4671, 36.6002, 41.972, 82.4242, -109.848
10.4902, 58, -18.0113, -16.4389, 36.5477, 41.9297, 82.4359, -109.766
10.4951, 58, -17.9063, -16.4247, 36.5214, 41.9084, 82.4418, -109.726
10.5041, 58, -17.8011, -16.3962, 36.4687, 41.8648, 82.4538, -109.644
10.5121, 58, -17.6958, -16.3677, 36.4159, 41.8208, 82.4661, -109.563
10.5191, 58, -17.5902, -16.339, 36.3628, 41.7774, 82.4787, -109.482
10.5271, 58, -17.4844, -16.3101, 36.3096, 41.733, 82.4913, -109.4
10.5361, 58, -17.3783, -16.2809, 36.2563, 41.6875, 82.5039, -109.319
10.5441, 58, -17.2721, -16.2517, 36.2027, 41.6426, 82.5163, -109.237
10.5521, 58, -17.1657, -16.2221, 36.1489, 41.5972, 82.5287, -109.156
10.5602, 58, -17.059, -16.1926, 36.095, 41.5503, 82.541, -109.074
10.5672, 59, -16.952, -16.1627, 36.0407, 41.5041, 82.5533, -108.992
10.5751, 59, -16.8449, -16.1327, 35.9864, 41.4575, 82.5657, -108.911
10.5831, 59, -16.7376, -16.1026, 35.9319, 41.4093, 82.5782, -108.829
10.5911, 59, -16.6302, -16.0723, 35.8771, 41.3616, 82.5909, -108.748
10.5991, 59, -16.5225, -16.0418, 35.822, 41.3137, 82.6039, -108.667
10.6081, 59, -16.4147, -16.0111, 35.767, 41.2642, 82.6171, -108.586
10.6161, 59, -16.3067, -15.9804, 35.7116, 41.2152, 82.6306, -108.504
10.6241, 59, -16.1985, -15.9495, 35.6561, 41.1659, 82.644, -108.423
10.6321, 59, -16.09, -15.9184, 35.6005, 41.1152, 82.6573, -108.342
10.6402, 59, -15.9813, -15.8871, 35.5447, 41.0651, 82.6705, -108.26
10.6471, 59, -15.8726, -15.8555, 35.4887, 41.014, 82.6835, -108.179
10.6567, 60, -15.7637, -15.8239, 35.4325, 40.9622, 82.6965, -108.097
10.6649, 60, -15.6546, -15.7919, 35.376, 40.9109, 82.7095, -108.016
10.6711, 60, -15.5451, -15.7597, 35.3194, 40.8585, 82.7226, -107.934
10.6791, 60, -15.4353, -15.7274, 35.2626, 40.8055, 82.7359, -107.853
10.6871, 60, -15.3252, -15.6951, 35.2055, 40.7529, 82.7495, -107.771
10.6961, 60, -15.2148, -15.6624, 35.1482, 40.6988, 82.7634, -107.69
10.7074, 60, -15.0487, -15.6132, 35.062, 40.6181, 82.7845, -107.568
10.7113, 60, -14.9933, -15.5967, 35.0332, 40.5908, 82.7916, -107.527
10.7192, 60, -14.8823, -15.5638, 34.9755, 40.5354, 82.8056, -107.446
10.7272, 60, -14.7712, -15.5305, 34.9176, 40.4804, 82.8195, -107.365
10.7352, 60, -14.6599, -15.497, 34.8595, 40.4241, 82.8334, -107.284
10.7431, 61, -14.5482, -15.4634, 34.8013, 40.3676, 82.8473, -107.202
10.7511, 61, -14.4365, -15.4296, 34.7428, 40.3112, 82.8612, -107.121
10.7594, 61, -14.3245, -15.3956, 34.6841, 40.2534, 82.8754, -107.039
10.7682, 61, -14.2122, -15.3613, 34.6252, 40.1962, 82.8898, -106.957
10.7753, 61, -14.0997, -15.327, 34.5662, 40.1376, 82.9046, -106.876
10.7833, 61, -13.9869, -15.2925, 34.5069, 40.0791, 82.9197, -106.794
10.7913, 61, -13.874, -15.2578, 34.4476, 40.0204, 82.9348, -106.713
10.7995, 61, -13.7608, -15.223, 34.388, 39.9603, 82.9498, -106.631
10.8075, 61, -13.6472, -15.188, 34.3282, 39.9008, 82.9645, -106.55
10.8161, 61, -13.5336, -15.1528, 34.2684, 39.8399, 82.9793, -106.468
10.8237, 61, -13.4198, -15.1174, 34.2083, 39.7791, 82.994, -106.387
10.8323, 62, -13.3058, -15.0819, 34.1481, 39.7179, 83.0088, -106.305
10.845, 62, -13.1342, -15.0281, 34.0574, 39.6247, 83.0315, -106.183
10.8483, 62, -13.0769, -15.0101, 34.027, 39.5936, 83.0393, -106.142
10.8556, 62, -13.0196, -14.9921, 33.9661, 39.5299, 83.055, -106.06
10.8641, 62, -12.8474, -14.9378, 33.9051, 39.4671, 83.071, -105.979
10.8711, 62, -12.7899, -14.9196, 33.8745, 39.4351, 83.0789, -105.938
10.882, 62, -12.6171, -14.8647, 33.7824, 39.3385, 83.1027, -105.815
10.8882, 62, -12.5015, -14.828, 33.7208, 39.2734, 83.1184, -105.733
10.8951, 62, -12.4435, -14.8095, 33.6899, 39.2406, 83.1263, -105.692
10.9069, 62, -12.2689, -14.7538, 33.5971, 39.1426, 83.1501, -105.57
10.9129, 62, -12.152, -14.7165, 33.5349, 39.0758, 83.1663, -105.488
10.9192, 63, -12.0936, -14.6977, 33.5038, 39.0427, 83.1746, -105.447
10.929, 63, -11.918, -14.6412, 33.4101, 38.9416, 83.1998, -105.325
10.9351, 63, -11.8594, -14.6222, 33.3787, 38.908, 83.2084, -105.284
10.9445, 63, -11.6833, -14.5652, 33.2844, 38.8054, 83.2343, -105.161
10.9512, 63, -11.6245, -14.546, 33.2528, 38.7711, 83.2429, -105.12
10.9591, 63, -11.5066, -14.5075, 33.1895, 38.702, 83.2598, -105.039
10.9694, 63, -11.3291, -14.4495, 33.0944, 38.5976, 83.2853, -104.915
10.9751, 63, -11.2698, -14.43, 33.0625, 38.5623, 83.2938, -104.874
10.9847, 63, -11.1512, -14.3909, 32.9988, 38.4561, 83.3199, -104.751
10.9935, 63, -11.0324, -14.3516, 32.9348, 38.4204, 83.3288, -104.71
10.9991, 63, -10.9133, -14.312, 32.8707, 38.3486, 83.3469, -104.627
11.0089, 64, -10.794, -14.2723, 32.8065, 38.2767, 83.3653, -104.504
11.015, 64, -10.6743, -14.2323, 32.7421, 38.2038, 83.3835, -104.462
11.0231, 64, -10.5542, -14.192, 32.6774, 38.1308, 83.4016, -104.379
11.0321, 64, -10.4338, -14.1514, 32.6125, 38.0571, 83.4198, -104.298
11.0401, 64, -10.3131, -14.1107, 32.5474, 37.983, 83.4381, -104.215
11.0481, 64, -10.1923, -14.0698, 32.482, 37.9081, 83.4567, -104.132
11.0561, 64, -10.0715, -14.0287, 32.4166, 37.8327, 83.4756, -104.05
11.0631, 64, -9.9505, -13.9874, 32.351, 37.7569, 83.4951, -103.967
11.0711, 64, -9.8294, -13.9459, 32.2853, 37.6806, 83.5149, -103.884
11.0801, 64, -9.70817, -13.9043, 32.2193, 37.6035, 83.5343, -103.801
11.0881, 64, -9.58658, -13.8624, 32.1531, 37.5261, 83.5538, -103.718
11.0961, 65, -9.46448, -13.8202, 32.0868, 37.4485, 83.5732, -103.634
11.1043, 65, -9.34193, -13.7778, 32.0202, 37.37, 83.5928, -103.552
11.1159, 65, -9.15758, -13.7137, 31.9199, 37.2514, 83.623, -103.427
11.1201, 65, -9.09598, -13.6922, 31.8864, 37.2117, 83.6334, -103.385
11.1281, 65, -8.97256, -13.649, 31.8193, 37.1319, 83.6543, -103.301
11.1362, 65, -8.84894, -13.6056, 31.752, 37.0513, 83.6752, -103.218
11.1431, 65, -8.72492, -13.5619, 31.6846, 36.9702, 83.6961, -103.135
11.1542, 65, -8.53819, -13.496, 31.5831, 36.8479, 83.7275, -103.01
11.1591, 65, -8.47577, -13.4739, 31.5492, 36.8067, 83.7381, -102.968
11.1671, 65, -8.35082, -13.4296, 31.4813, 36.7242, 83.7597, -102.885
11.1751, 65, -8.22597, -13.385, 31.4132, 36.6412, 83.7817, -102.801
11.1842, 66, -8.10092, -13.3403, 31.3448, 36.5577, 83.8041, -102.717
11.1921, 66, -7.97575, -13.2954, 31.2763, 36.4736, 83.8262, -102.634
11.2001, 66, -7.85041, -13.2502, 31.2075, 36.3889, 83.8483, -102.549
11.2072, 66, -7.72462, -13.2047, 31.1386, 36.304, 83.8704, -102.465
11.2152, 66, -7.59835, -13.1591, 31.0696, 36.2182, 83.8928, -102.381
11.2232, 66, -7.47183, -13.1133, 31.0006, 36.1321, 83.9158, -102.297
11.2317, 66, -7.34495, -13.0672, 30.9314, 36.0453, 83.9393, -102.212
11.2401, 66, -7.21788, -13.0208, 30.8619, 35.9582, 83.9627, -102.128
11.2472, 66, -7.09058, -12.9743, 30.7924, 35.8703, 83.9861, -102.044
11.2561, 66, -6.96304, -12.9274, 30.7227, 35.782, 84.0096, -101.959
11.2641, 66, -6.83528, -12.8802, 30.6528, 35.6933, 84.0332, -101.875
11.2712, 67, -6.70731, -12.8327, 30.5828, 35.604, 84.0576, -101.79
11.2802, 67, -6.57905, -12.785, 30.5125, 35.5141, 84.0825, -101.706
11.2882, 67, -6.45063, -12.7371, 30.4422, 35.4238, 84.1074, -101.62
11.2954, 67, -6.32195, -12.6888, 30.3718, 35.333, 84.1322, -101.535
11.3045, 67, -6.19298, -12.6404, 30.3012, 35.2414, 84.1569, -101.45
11.3114, 67, -6.06364, -12.5919, 30.2306, 35.1496, 84.1818, -101.365
11.3203, 67, -5.93402, -12.543, 30.1598, 35.0569, 84.2075, -101.279
11.3284, 67, -5.80414, -12.4939, 30.0889, 34.964, 84.2337, -101.194
11.3356, 67, -5.67373, -12.4447, 30.0177, 34.8706, 84.2598, -101.109
11.3445, 67, -5.54296, -12.3952, 29.9464, 34.7766, 84.2858, -101.023
11.3534, 67, -5.41191, -12.3455, 29.8749, 34.6821, 84.3118, -100.939
11.3603, 68, -5.28052, -12.2955, 29.8032, 34.5872, 84.3385, -100.853
11.3686, 68, -5.14904, -12.2453, 29.7315, 34.4915, 84.366, -100.768
11.3751, 68, -5.08323, -12.2201, 29.6957, 34.4436, 84.3798, -100.725
11.3841, 68, -4.8856, -12.1441, 29.588, 34.2989, 84.4209, -100.596
11.391, 68, -4.81962, -12.1186, 29.5521, 34.2504, 84.4345, -100.553
11.3991, 68, -4.68746, -12.0674, 29.4801, 34.1529, 84.4619, -100.467
11.4091, 68, -4.48874, -11.9902, 29.3718, 34.0061, 84.5042, -100.338
11.4163, 68, -4.35595, -11.9383, 29.2995, 33.9075, 84.5328, -100.252
11.4231, 68, -4.28943, -11.9123, 29.2633, 33.858, 84.547, -100.209
11.4333, 68, -4.0896, -11.834, 29.1544, 33.709, 84.5898, -100.079
11.4391, 68, -4.02284, -11.8077, 29.1181, 33.6589, 84.604, -100.036
11.4489, 69, -3.82222, -11.7289, 29.0092, 33.5081, 84.6482, -99.906
11.4552, 69, -3.75527, -11.7025, 28.9728, 33.4577, 84.6631, -99.8631
11.4646, 69, -3.55388, -11.6232, 28.8635, 33.3056, 84.7077, -99.7331
11.4727, 69, -3.41932, -11.5699, 28.7905, 33.2036, 84.7372, -99.6468
11.4816, 69, -3.2844, -11.5164, 28.7174, 33.1012, 84.7671, -99.5598
11.4871, 69, -3.21684, -11.4896, 28.6808, 33.0499, 84.7824, -99.5166
11.4977, 69, -3.08161, -11.4356, 28.6075, 32.9466, 84.8288, -99.386
11.507, 69, -2.8783, -11.3542, 28.4973, 32.791, 84.8595, -99.2992
11.512, 69, -2.81031, -11.3269, 28.4606, 32.7389, 84.8748, -99.2555
11.5201, 69, -2.67422, -11.2721, 28.3871, 32.6342, 84.9057, -99.168
11.5282, 69, -2.53777, -11.217, 28.3137, 32.5291, 84.9375, -99.081
11.5352, 70, -2.40092, -11.1616, 28.2402, 32.4236, 84.9698, -98.9932
11.5441, 70, -2.26389, -11.1062, 28.1666, 32.3177, 85.0016, -98.906
11.5511, 70, -2.12673, -11.0504, 28.0929, 32.2113, 85.0333, -98.8182
11.559, 70, -1.98931, -10.9945, 28.0191, 32.1043, 85.0655, -98.7311
11.5681, 70, -1.85161, -10.9385, 27.9452, 31.997, 85.0987, -98.6434
11.5776, 70, -1.64478, -10.854, 27.8342, 31.835, 85.1481, -98.5124
11.5841, 70, -1.57574, -10.8258, 27.7972, 31.7807, 85.1646, -98.4682
11.5921, 70, -1.43746, -10.7692, 27.7232, 31.6719, 85.1977, -98.3808
11.6015, 70, -1.29916, -10.7123, 27.6492, 31.5627, 85.2318, -98.2485
11.6081, 70, -1.16052, -10.6552, 27.5752, 31.4531, 85.2663, -98.2046
11.6163, 71, -1.02167, -10.5976, 27.5012, 31.343, 85.3002, -98.1161
11.6264, 71, -0.812955, -10.511, 27.3901, 31.177, 85.3515, -97.9841
11.6322, 71, -0.743293, -10.4819, 27.3529, 31.1215, 85.369, -97.9396
11.6401, 71, -0.603898, -10.4236, 27.2787, 31.01, 85.4044, -97.8512
11.648, 71, -0.464177, -10.3651, 27.2044, 30.898, 85.4393, -97.7626
11.6551, 71, -0.324305, -10.3064, 27.1302, 30.7857, 85.4744, -97.674
11.6631, 71, -0.184184, -10.2475, 27.056, 30.6729, 85.5101, -97.5855
11.6711, 71, -0.0435886, -10.1885, 26.9818, 30.5599, 85.5466, -97.4968
11.6791, 71, 0.0972908, -10.1294, 26.9076, 30.4464, 85.5827, -97.4082
11.6871, 71, 0.238351, -10.0699, 26.8333, 30.3324, 85.6186, -97.3192
11.6954, 71, 0.379607, -10.0103, 26.7591, 30.2182, 85.6552, -97.2306
11.7034, 71, 0.521191, -9.95043, 26.6848, 30.1034, 85.6924, -97.1411
11.7125, 72, 0.662999, -9.89029, 26.6104, 29.9883, 85.7292, -97.0522
11.7194, 72, 0.805018, -9.82975, 26.5361, 29.8729, 85.7661, -96.9625
11.7272, 72, 0.94732, -9.76904, 26.4618, 29.7571, 85.8038, -96.8735
11.7352, 72, 1.08977, -9.70794, 26.3876, 29.641, 85.8421, -96.7839
11.7437, 72, 1.23226, -9.64664, 26.3135, 29.5244, 85.8798, -96.6948
11.7521, 72, 1.37486, -9.58509, 26.2395, 29.4076, 85.9176, -96.6049
11.7602, 72, 1.51773, -9.52329, 26.1654, 29.2902, 85.9562, -96.5159
11.7671, 72, 1.66081, -9.46132, 26.0914, 29.1724, 85.9954, -96.4264
11.776, 72, 1.80395, -9.3992, 26.0173, 29.0544, 86.034, -96.3373
