rpiRobotics/ARM-21-02-F-19-Robot-Motion-Program/data_performance_abb/curve_2/baseline/100L/realrobot/bisect/run_2realrobot_curve_exe_v400_z10.csv
timestamp, cmd_num, J1, J2, J3, J4, J5, J6
0.00048, -1, 39.633, 32.4444, 11.8321, 12.5482, 113.716, -48.8694
0.00448, -1, 39.633, 32.4444, 11.8321, 12.5483, 113.716, -48.8694
0.008744, -1, 39.633, 32.4444, 11.8321, 12.5482, 113.716, -48.8694
0.029761, -1, 39.633, 32.4444, 11.8321, 12.5483, 113.716, -48.8694
0.03301, -1, 39.633, 32.4444, 11.8321, 12.5483, 113.716, -48.8694
0.034265, -1, 39.633, 32.4444, 11.8321, 12.5483, 113.716, -48.8694
0.039015, -1, 39.633, 32.4444, 11.8321, 12.5483, 113.716, -48.8694
0.04706, -1, 39.633, 32.4444, 11.8321, 12.5483, 113.716, -48.8695
0.056952, -1, 39.6316, 32.4442, 11.8321, 12.5483, 113.716, -48.8695
0.065448, -1, 39.6278, 32.4433, 11.832, 12.5483, 113.716, -48.8695
0.071123, -1, 39.6248, 32.4424, 11.832, 12.5482, 113.716, -48.8698
0.080664, -1, 39.6098, 32.4371, 11.8319, 12.5482, 113.715, -48.8732
0.089466, -1, 39.5936, 32.4303, 11.8319, 12.5482, 113.712, -48.8801
0.095099, -1, 39.5827, 32.4255, 11.8319, 12.5482, 113.71, -48.8866
0.104841, -1, 39.5542, 32.4129, 11.8324, 12.5482, 113.699, -48.9218
0.112007, -1, 39.5158, 32.3952, 11.8346, 12.5481, 113.692, -48.9403
0.119082, -1, 39.4665, 32.3713, 11.8396, 12.5482, 113.673, -48.9906
0.128061, -1, 39.4045, 32.3408, 11.848, 12.5482, 113.646, -49.062
0.136081, -1, 39.3292, 32.3029, 11.8608, 12.5482, 113.608, -49.1563
0.143069, -1, 39.2403, 32.2571, 11.8787, 12.5484, 113.562, -49.276
0.15201, -1, 39.1374, 32.2036, 11.9012, 12.549, 113.505, -49.421
0.160011, -1, 39.0204, 32.1421, 11.9279, 12.5499, 113.438, -49.5905
0.167017, -1, 38.8899, 32.0733, 11.9586, 12.5514, 113.362, -49.7829
0.176146, -1, 38.7472, 31.998, 11.9926, 12.5532, 113.278, -49.995
0.184004, -1, 38.593, 31.9168, 12.0289, 12.5552, 113.188, -50.223
0.191007, -1, 38.4287, 31.8306, 12.0666, 12.5575, 113.093, -50.463
0.200032, -1, 38.2565, 31.7403, 12.1054, 12.5598, 112.995, -50.7114
0.208005, -1, 38.0782, 31.6472, 12.1445, 12.5622, 112.895, -50.9648
0.215003, -1, 37.8947, 31.5518, 12.1833, 12.5647, 112.793, -51.2216
0.223335, -1, 37.7072, 31.455, 12.2222, 12.5671, 112.691, -51.4801
0.231007, -1, 37.5171, 31.3573, 12.261, 12.5695, 112.589, -51.7396
0.240012, -1, 37.3255, 31.2594, 12.2998, 12.572, 112.486, -51.9992
0.249012, -1, 37.1334, 31.1615, 12.3387, 12.5744, 112.383, -52.259
0.256135, -1, 36.9412, 31.0637, 12.3774, 12.577, 112.28, -52.5191
0.263028, -1, 36.7492, 30.9659, 12.4162, 12.5796, 112.177, -52.7794
0.272024, -1, 36.5577, 30.8682, 12.4551, 12.5822, 112.074, -53.0397
0.280074, -1, 36.3662, 30.7705, 12.4939, 12.5848, 111.971, -53.3
0.287021, -1, 36.1747, 30.6727, 12.5327, 12.5874, 111.868, -53.5604
0.296119, -1, 35.9832, 30.5749, 12.5716, 12.59, 111.765, -53.821
0.303047, -1, 35.7918, 30.4769, 12.6106, 12.5926, 111.662, -54.0817
0.31109, -1, 35.6, 30.3789, 12.6495, 12.5952, 111.559, -54.342
0.32002, -1, 35.408, 30.2807, 12.6884, 12.5979, 111.456, -54.6024
0.328037, -1, 35.2156, 30.1824, 12.7272, 12.6005, 111.353, -54.8629
0.336057, -1, 35.0232, 30.0841, 12.7661, 12.603, 111.25, -55.1237
0.344098, -1, 34.8309, 29.9856, 12.805, 12.6057, 111.147, -55.3843
0.35205, -1, 34.6385, 29.8872, 12.8438, 12.6082, 111.043, -55.6451
0.360013, -1, 34.4462, 29.7887, 12.8828, 12.6108, 110.941, -55.9059
0.368121, -1, 34.254, 29.6904, 12.9217, 12.6134, 110.837, -56.1668
0.375049, -1, 34.062, 29.5921, 12.9606, 12.616, 110.734, -56.4277
0.383097, -1, 33.8703, 29.4939, 12.9997, 12.6187, 110.631, -56.6884
0.392067, -1, 33.6785, 29.3956, 13.0385, 12.6214, 110.528, -56.9493
0.399294, -1, 33.4865, 29.2973, 13.0774, 12.624, 110.425, -57.2104
0.407308, -1, 33.2941, 29.1989, 13.1164, 12.6266, 110.322, -57.4715
0.416217, -1, 33.1014, 29.1003, 13.1552, 12.6293, 110.219, -57.7324
0.423505, -1, 32.9087, 29.0018, 13.194, 12.632, 110.116, -57.9936
0.432129, -1, 32.7155, 28.9033, 13.233, 12.6347, 110.013, -58.2548
0.439523, -1, 32.522, 28.8046, 13.2719, 12.6373, 109.91, -58.5161
0.447645, -1, 32.3283, 28.7059, 13.3107, 12.64, 109.807, -58.7771
0.45626, -1, 32.1342, 28.6073, 13.3496, 12.6427, 109.704, -59.0382
0.463576, -1, 31.9402, 28.5085, 13.3885, 12.6454, 109.601, -59.2995
0.471703, -1, 31.7463, 28.4097, 13.4274, 12.6481, 109.497, -59.561
0.480191, -1, 31.5528, 28.311, 13.4664, 12.651, 109.394, -59.8221
0.487009, -1, 31.4561, 28.2616, 13.4859, 12.6524, 109.343, -59.9527
0.495049, -1, 31.263, 28.1631, 13.5248, 12.6551, 109.24, -60.2141
0.504136, -1, 30.9741, 28.0154, 13.5834, 12.6594, 109.085, -60.6063
0.6416, -1, 27.6898, 26.3367, 14.2455, 12.7033, 107.329, -65.0538
0.642831, -1, 27.6898, 26.3367, 14.2455, 12.7033, 107.329, -65.0538
0.64408, -1, 27.6898, 26.3367, 14.2455, 12.7033, 107.329, -65.0538
0.646083, -1, 27.5936, 26.2873, 14.2649, 12.7045, 107.277, -65.1846
0.647384, -1, 27.5936, 26.2873, 14.2649, 12.7045, 107.277, -65.1846
0.650025, -1, 27.4975, 26.2378, 14.2844, 12.7057, 107.226, -65.3153
0.651278, -1, 27.4975, 26.2378, 14.2844, 12.7057, 107.226, -65.3153
0.654083, -1, 27.4014, 26.1883, 14.3039, 12.7069, 107.174, -65.4462
0.792055, -1, 24.1164, 24.5083, 14.9662, 12.7463, 105.419, -69.8953
0.793249, -1, 24.1164, 24.5083, 14.9662, 12.7463, 105.419, -69.8953
0.796027, -1, 24.0201, 24.459, 14.9857, 12.7475, 105.367, -70.026
0.797256, -1, 24.0201, 24.459, 14.9857, 12.7475, 105.367, -70.026
0.799292, -1, 23.9237, 24.4096, 15.0052, 12.7486, 105.315, -70.1568
0.800511, -1, 23.9237, 24.4096, 15.0052, 12.7486, 105.315, -70.1568
0.80251, -1, 23.8272, 24.3602, 15.0246, 12.7498, 105.263, -70.2877
0.807181, -1, 23.7308, 24.3107, 15.0441, 12.751, 105.212, -70.4185
0.808415, -1, 23.7308, 24.3107, 15.0441, 12.751, 105.212, -70.4185
0.810266, -1, 23.7308, 24.3107, 15.0441, 12.751, 105.212, -70.4185
0.811633, -1, 23.6343, 24.2613, 15.0635, 12.7522, 105.16, -70.5495
0.812961, -1, 23.6343, 24.2613, 15.0635, 12.7522, 105.16, -70.5495
0.814923, -1, 23.5377, 24.2119, 15.083, 12.7534, 105.108, -70.6804
0.816281, -1, 23.5377, 24.2119, 15.083, 12.7534, 105.108, -70.6804
0.817502, -1, 23.5377, 24.2119, 15.083, 12.7534, 105.108, -70.6804
0.822448, -1, 23.441, 24.1625, 15.122, 12.7558, 105.005, -70.9421
0.823816, -1, 23.3441, 24.1131, 15.122, 12.7558, 105.005, -70.9421
0.825072, -1, 23.3441, 24.1131, 15.122, 12.7558, 105.005, -70.9421
0.827933, -1, 23.2472, 24.0636, 15.1414, 12.7571, 104.953, -71.073
0.829165, -1, 23.2472, 24.0636, 15.1414, 12.7571, 104.953, -71.073
0.831406, -1, 23.1503, 24.0141, 15.1608, 12.7583, 104.901, -71.2038
0.832614, -1, 23.1503, 24.0141, 15.1608, 12.7583, 104.901, -71.2038
0.835075, -1, 23.0533, 23.9647, 15.1802, 12.7595, 104.85, -71.3347
0.836381, -1, 23.0533, 23.9647, 15.1802, 12.7595, 104.85, -71.3347
0.837701, -1, 23.0533, 23.9647, 15.1802, 12.7595, 104.85, -71.3347
0.839642, -1, 22.9563, 23.9152, 15.1997, 12.7607, 104.798, -71.4656
0.840942, -1, 22.9563, 23.9152, 15.1997, 12.7607, 104.798, -71.4656
0.843555, -1, 22.8592, 23.8658, 15.2192, 12.7619, 104.747, -71.5966
0.844805, -1, 22.8592, 23.8658, 15.2192, 12.7619, 104.747, -71.5966
0.846715, -1, 22.7622, 23.8164, 15.2387, 12.7631, 104.695, -71.7275
0.849682, -1, 22.7622, 23.8164, 15.2387, 12.7631, 104.695, -71.7275
0.852699, -1, 22.6653, 23.767, 15.2582, 12.7644, 104.643, -71.8583
0.853885, -1, 22.6653, 23.767, 15.2582, 12.7644, 104.643, -71.8583
0.856076, -1, 22.5684, 23.7177, 15.2777, 12.7656, 104.591, -71.9891
0.857303, -1, 22.5684, 23.7177, 15.2777, 12.7656, 104.591, -71.9891
0.85944, -1, 22.4715, 23.6684, 15.2972, 12.7669, 104.54, -72.1198
0.862986, -1, 22.3747, 23.6191, 15.3167, 12.7681, 104.488, -72.2505
0.873106, -1, 22.1814, 23.5204, 15.3556, 12.7706, 104.385, -72.5119
0.880984, -1, 21.9883, 23.4217, 15.3946, 12.7733, 104.281, -72.7736
0.888046, -1, 21.7955, 23.323, 15.4336, 12.7759, 104.178, -73.0351
0.896026, -1, 21.6033, 23.2242, 15.4725, 12.7786, 104.075, -73.2964
0.903306, -1, 21.4111, 23.1255, 15.5114, 12.7813, 103.972, -73.5578
0.911288, -1, 21.2188, 23.0268, 15.5505, 12.784, 103.869, -73.8194
0.91939, -1, 21.0264, 22.9282, 15.5894, 12.7866, 103.766, -74.0808
0.927754, -1, 20.8339, 22.8296, 15.6283, 12.7894, 103.663, -74.3419
0.936165, -1, 20.6414, 22.731, 15.6673, 12.7921, 103.559, -74.603
0.943597, -1, 20.4485, 22.6324, 15.7061, 12.7948, 103.456, -74.8643
0.952467, -1, 20.255, 22.5337, 15.745, 12.7975, 103.353, -75.1256
0.959546, -1, 20.0612, 22.435, 15.784, 12.8002, 103.25, -75.3868
0.968084, -1, 19.8675, 22.3363, 15.8228, 12.8029, 103.147, -75.648
0.976906, -1, 19.6738, 22.2376, 15.8616, 12.8056, 103.044, -75.9091
0.983992, -1, 19.4802, 22.139, 15.9005, 12.8084, 102.941, -76.1705
0.991612, -1, 19.3835, 22.0897, 15.92, 12.8097, 102.89, -76.3011
1.00083, -1, 19.0941, 21.9417, 15.9783, 12.8137, 102.735, -76.6924
1.00803, -1, 18.9015, 21.8431, 16.0172, 12.8165, 102.632, -76.9532
1.01502, -1, 18.8053, 21.7937, 16.0366, 12.8179, 102.58, -77.0837
1.02516, -1, 18.5174, 21.6457, 16.0948, 12.8218, 102.426, -77.4753
1.03103, -1, 18.4215, 21.5965, 16.1143, 12.8232, 102.375, -77.6056
1.04035, -1, 18.1336, 21.4487, 16.1725, 12.827, 102.221, -77.9967
1.04699, -1, 18.0377, 21.3995, 16.1919, 12.8283, 102.169, -78.127
1.05505, -1, 17.8458, 21.3012, 16.2308, 12.8308, 102.066, -78.3878
1.06452, -1, 17.5576, 21.1537, 16.2891, 12.8345, 101.912, -78.7786
1.07352, -1, 17.365, 21.0554, 16.328, 12.837, 101.809, -79.039
1.07907, -1, 17.2685, 21.0063, 16.3475, 12.8382, 101.757, -79.1694
1.08858, -1, 16.9788, 20.8589, 16.4056, 12.8418, 101.603, -79.5604
1.09751, -1, 16.7857, 20.7607, 16.4445, 12.8441, 101.5, -79.8208
1.10307, -1, 16.6892, 20.7116, 16.4639, 12.8452, 101.448, -79.951
1.11256, -1, 16.4961, 20.6134, 16.5025, 12.8475, 101.346, -80.3418
1.12001, -1, 16.3032, 20.5151, 16.5413, 12.8499, 101.243, -80.4722
1.12805, -1, 16.1109, 20.4167, 16.5801, 12.8521, 101.141, -80.7328
1.13604, -1, 15.919, 20.3183, 16.6189, 12.8545, 101.038, -80.9928
1.14397, -1, 15.7274, 20.2198, 16.6577, 12.8568, 100.935, -81.2529
1.15097, -1, 15.5361, 20.1214, 16.6963, 12.8591, 100.833, -81.513
1.15997, -1, 15.345, 20.0232, 16.735, 12.8614, 100.73, -81.7732
1.16798, -1, 15.1539, 19.9249, 16.7738, 12.8637, 100.627, -82.033
1.17624, -1, 14.9628, 19.8268, 16.8125, 12.8659, 100.525, -82.293
1.18402, -1, 14.7714, 19.7287, 16.8512, 12.8682, 100.423, -82.5528
1.19197, -1, 14.5799, 19.6305, 16.89, 12.8705, 100.32, -82.8128
1.19898, -1, 14.388, 19.5324, 16.9286, 12.8728, 100.217, -83.0725
1.20799, -1, 14.1957, 19.4344, 16.9674, 12.8751, 100.115, -83.332
1.21602, -1, 14.0034, 19.3364, 17.0061, 12.8773, 100.012, -83.5917
1.22405, -1, 13.8108, 19.2386, 17.0447, 12.8797, 99.9097, -83.8513
1.23197, -1, 13.6182, 19.1407, 17.0834, 12.8819, 99.8071, -84.1109
1.23997, -1, 13.4258, 19.0429, 17.1221, 12.8842, 99.7045, -84.3701
1.24898, -1, 13.2339, 18.945, 17.1606, 12.8866, 99.6023, -84.6294
1.25601, -1, 13.0423, 18.8471, 17.1992, 12.8889, 99.4998, -84.8888
1.26497, -1, 12.851, 18.7492, 17.2379, 12.8912, 99.3974, -85.1482
1.27099, -1, 12.6601, 18.6512, 17.2764, 12.8936, 99.2953, -85.4071
1.27996, -1, 12.4695, 18.5534, 17.315, 12.8961, 99.193, -85.666
1.28797, -1, 12.2793, 18.4556, 17.3536, 12.8985, 99.0907, -85.9249
1.29604, -1, 12.0892, 18.3579, 17.3921, 12.9009, 98.9887, -86.184
1.30321, -1, 11.8989, 18.2603, 17.4307, 12.9033, 98.8864, -86.4427
1.31243, -1, 11.7084, 18.1626, 17.4693, 12.9058, 98.7845, -86.7013
1.31907, -1, 11.5175, 18.0649, 17.5077, 12.9082, 98.6828, -86.9599
1.32797, -1, 11.3265, 17.9674, 17.5463, 12.9106, 98.5807, -87.2185
1.33683, -1, 11.1353, 17.8699, 17.5849, 12.913, 98.4789, -87.4769
1.34397, -1, 10.9437, 17.7725, 17.6234, 12.9155, 98.3771, -87.7351
1.35203, -1, 10.752, 17.6751, 17.6619, 12.9181, 98.275, -87.9935
1.36075, -1, 10.5603, 17.5776, 17.7003, 12.9206, 98.1731, -88.2517
1.36796, -1, 10.369, 17.4801, 17.7387, 12.9231, 98.0713, -88.5101
1.37608, -1, 10.1779, 17.3826, 17.7772, 12.9256, 97.9693, -88.7681
1.38475, -1, 9.9873, 17.285, 17.8155, 12.9284, 97.8675, -89.0261
1.39197, -1, 9.79703, 17.1874, 17.8539, 12.9309, 97.7655, -89.2843
1.39997, -1, 9.60709, 17.0899, 17.8922, 12.9336, 97.6636, -89.5424
1.40877, -1, 9.41777, 16.9926, 17.9305, 12.9364, 97.5618, -89.8001
1.41602, -1, 9.22853, 16.8952, 17.9689, 12.9391, 97.4599, -90.0577
1.42414, -1, 9.03922, 16.798, 18.0072, 12.9417, 97.3581, -90.3153
1.4314, -1, 8.84979, 16.7008, 18.0455, 12.9444, 97.2565, -90.5729
1.43959, -1, 8.66026, 16.6036, 18.0839, 12.947, 97.1546, -90.8304
1.44833, -1, 8.47067, 16.5065, 18.1223, 12.9497, 97.053, -91.0875
1.45551, -1, 8.28066, 16.4095, 18.1606, 12.9524, 96.9516, -91.3447
1.46411, -1, 8.09019, 16.3126, 18.1989, 12.955, 96.8499, -91.6019
1.47251, -1, 7.89958, 16.2158, 18.2372, 12.9576, 96.7484, -91.859
1.48048, -1, 7.80429, 16.1189, 18.2754, 12.9602, 96.6471, -92.1157
1.48797, -1, 7.51842, 16.022, 18.3138, 12.9628, 96.5455, -92.3724
1.49678, -1, 7.32808, 15.9251, 18.352, 12.9654, 96.4441, -92.6292
1.50489, -1, 7.13803, 15.8282, 18.3901, 12.9679, 96.3429, -92.886
1.51202, -1, 6.94837, 15.7312, 18.4284, 12.9705, 96.2415, -93.1425
1.51897, -1, 6.8537, 15.6827, 18.4476, 12.9717, 96.1909, -93.2707
1.52701, -1, 6.66478, 15.5859, 18.4856, 12.9742, 96.0902, -93.527
1.53498, -1, 6.47629, 15.4891, 18.5236, 12.9768, 95.989, -93.7835
1.5451, -1, 6.19408, 15.344, 18.5809, 12.9805, 95.8377, -94.1678
1.55315, -1, 6.00599, 15.2473, 18.619, 12.9828, 95.7367, -94.4238
1.55895, -1, 5.91185, 15.199, 18.6381, 12.9839, 95.6862, -94.5518
1.56931, -1, 5.62923, 15.054, 18.6953, 12.9874, 95.5349, -94.9357
1.57501, -1, 5.53494, 15.0057, 18.7143, 12.9885, 95.4846, -95.0636
1.58453, -1, 5.25174, 14.861, 18.7715, 12.992, 95.3333, -95.4469
1.59335, -1, 5.06244, 14.7647, 18.8096, 12.9942, 95.2327, -95.7025
1.59901, -1, 4.9677, 14.7165, 18.8286, 12.9953, 95.1824, -95.8303
1.60859, -1, 4.77823, 14.6201, 18.8666, 12.9987, 95.0312, -96.2134
1.61732, -1, 4.58879, 14.5237, 18.9047, 12.9997, 94.9808, -96.3409
1.62302, -1, 4.39955, 14.4274, 18.9428, 13.0019, 94.8802, -96.5958
1.633, -1, 4.11615, 14.2828, 18.9998, 13.0052, 94.7288, -96.9783
1.63996, -1, 4.02186, 14.2346, 19.0188, 13.0064, 94.6785, -97.1059
1.64702, -1, 3.83379, 14.1384, 19.0567, 13.0086, 94.5776, -97.3608
1.65605, -1, 3.64629, 14.0422, 19.0946, 13.0108, 94.4767, -97.6155
1.66395, -1, 3.45913, 13.946, 19.1325, 13.0132, 94.3762, -97.8705
1.67195, -1, 3.27218, 13.85, 19.1703, 13.0155, 94.2756, -98.1252
1.68001, -1, 3.0852, 13.754, 19.2082, 13.0178, 94.1749, -98.3799
1.68807, -1, 2.89831, 13.6579, 19.2461, 13.02, 94.0743, -98.6342
1.69601, -1, 2.71121, 13.5619, 19.284, 13.0223, 93.9737, -98.8883
1.7055, -1, 2.43023, 13.418, 19.3408, 13.0256, 93.823, -99.2695
1.71197, -1, 2.33652, 13.37, 19.3597, 13.0268, 93.7729, -99.3966
1.71995, -1, 2.14873, 13.2743, 19.3975, 13.0291, 93.6726, -99.6505
1.72801, -1, 1.96055, 13.1784, 19.4354, 13.0312, 93.5723, -99.9042
1.73602, -1, 1.77235, 13.0826, 19.4731, 13.0336, 93.4724, -100.158
1.74395, -1, 1.58408, 12.9868, 19.5108, 13.0358, 93.3722, -100.412
1.75198, -1, 1.39592, 12.891, 19.5487, 13.038, 93.2723, -100.665
1.75995, -1, 1.20807, 12.7951, 19.5864, 13.0404, 93.1725, -100.918
1.76798, -1, 1.02066, 12.6994, 19.6241, 13.0428, 93.0723, -101.171
1.77603, -1, 0.833974, 12.6038, 19.6619, 13.0451, 92.9724, -101.424
1.78395, -1, 0.647575, 12.5083, 19.6995, 13.0475, 92.8726, -101.678
1.79201, -1, 0.461606, 12.4128, 19.7371, 13.05, 92.7727, -101.931
1.80002, -1, 0.276023, 12.3175, 19.7748, 13.0525, 92.6729, -102.183
1.80795, -1, 0.0906276, 12.2221, 19.8124, 13.0549, 92.5737, -102.436
1.81607, -1, -0.0948196, 12.1268, 19.8499, 13.0574, 92.474, -102.688
1.82305, -1, -0.280446, 12.0315, 19.8876, 13.0598, 92.3745, -102.941
1.83196, -1, -0.466329, 11.9363, 19.9252, 13.0623, 92.2752, -103.193
1.84001, -1, -0.65252, 11.8413, 19.9627, 13.0648, 92.1756, -103.445
1.84795, -1, -0.83894, 11.7463, 20.0003, 13.0673, 92.0762, -103.697
1.85604, -1, -1.02563, 11.6513, 20.0377, 13.0698, 91.9769, -103.949
1.86401, -1, -1.21245, 11.5562, 20.0751, 13.0724, 91.8774, -104.201
1.87196, -1, -1.3994, 11.4613, 20.1127, 13.0749, 91.7781, -104.452
1.87998, -1, -1.58618, 11.3661, 20.1501, 13.0774, 91.6791, -104.704
1.88801, -1, -1.77266, 11.271, 20.1874, 13.08, 91.5798, -104.956
1.896, -1, -1.95864, 11.1761, 20.2249, 13.0826, 91.4807, -105.207
1.90396, -1, -2.14401, 11.0812, 20.2623, 13.0853, 91.3816, -105.458
1.91202, -1, -2.32898, 10.9863, 20.2996, 13.0879, 91.2824, -105.709
1.91995, -1, -2.51371, 10.8914, 20.337, 13.0907, 91.1833, -105.96
1.92811, -1, -2.69782, 10.7967, 20.3742, 13.0933, 91.0842, -106.211
1.93604, -1, -2.88167, 10.702, 20.4115, 13.0959, 90.9851, -106.462
1.94385, -1, -3.0657, 10.6072, 20.4489, 13.0985, 90.8861, -106.712
1.9523, -1, -3.24988, 10.5126, 20.4861, 13.1011, 90.7872, -106.963
1.95949, -1, -3.43438, 10.4181, 20.5233, 13.1036, 90.6884, -107.214
1.96809, -1, -3.61906, 10.3237, 20.5606, 13.1062, 90.5896, -107.464
1.97656, -1, -3.80387, 10.2294, 20.5978, 13.1087, 90.4907, -107.714
1.984, -1, -3.98914, 10.135, 20.6351, 13.1111, 90.392, -107.964
1.99094, -1, -4.08179, 10.0879, 20.6538, 13.1123, 90.3426, -108.089
2.0007, -1, -4.36009, 9.94647, 20.7095, 13.1159, 90.1947, -108.464
2.00799, -1, -4.54559, 9.85211, 20.7467, 13.1182, 90.0961, -108.713
2.01611, -1, -4.73077, 9.7579, 20.7839, 13.1205, 89.9976, -108.963
2.023, -1, -4.82319, 9.71082, 20.8024, 13.1216, 89.9484, -109.088
2.03097, -1, -5.00768, 9.61671, 20.8395, 13.124, 89.8499, -109.337
2.04039, -1, -5.28316, 9.47558, 20.8952, 13.1275, 89.7024, -109.711
2.04903, -1, -5.46635, 9.38161, 20.9323, 13.1298, 89.604, -109.96
2.05498, -1, -5.55775, 9.33467, 20.9508, 13.131, 89.5548, -110.084
2.06448, -1, -5.83143, 9.19378, 21.0065, 13.1345, 89.4076, -110.457
2.07323, -1, -6.01391, 9.09985, 21.0434, 13.1367, 89.3094, -110.706
2.07894, -1, -6.10518, 9.05292, 21.0619, 13.1378, 89.2602, -110.83
2.08884, -1, -6.3793, 8.91232, 21.1175, 13.1411, 89.1135, -111.203
2.0973, -1, -6.56228, 8.81869, 21.1543, 13.1432, 89.0154, -111.451
2.10293, -1, -6.65389, 8.77186, 21.1727, 13.1443, 88.9664, -111.575
2.11249, -1, -6.83749, 8.67827, 21.2097, 13.1465, 88.8684, -111.823
2.11994, -1, -7.02139, 8.58471, 21.2466, 13.1486, 88.7709, -112.071
2.12693, -1, -7.20548, 8.49118, 21.2835, 13.1508, 88.6729, -112.319
2.13603, -1, -7.3896, 8.39756, 21.3204, 13.1529, 88.575, -112.566
2.14395, -1, -7.57346, 8.30394, 21.3573, 13.155, 88.4775, -112.814
2.15093, -1, -7.75704, 8.21048, 21.394, 13.1571, 88.3797, -113.061
2.15994, -1, -7.9401, 8.11707, 21.4309, 13.1594, 88.2824, -113.309
2.16793, -1, -8.12262, 8.02367, 21.4677, 13.1617, 88.1851, -113.556
2.17494, -1, -8.30454, 7.93037, 21.5044, 13.1639, 88.0876, -113.803
2.18394, -1, -8.48597, 7.83712, 21.5412, 13.1662, 87.9903, -114.05
2.19198, -1, -8.66698, 7.74394, 21.578, 13.1684, 87.893, -114.296
2.19897, -1, -8.84775, 7.65071, 21.6148, 13.1707, 87.7955, -114.543
2.20794, -1, -9.02858, 7.55765, 21.6516, 13.1729, 87.698, -114.789
2.216, -1, -9.20962, 7.46468, 21.6883, 13.1751, 87.6009, -115.036
2.22293, -1, -9.39087, 7.37188, 21.7249, 13.1774, 87.5037, -115.282
2.23194, -1, -9.57248, 7.27906, 21.7616, 13.1795, 87.4064, -115.528
2.23999, -1, -9.75436, 7.18631, 21.7983, 13.1819, 87.3095, -115.774
2.24893, -1, -9.93676, 7.0936, 21.8348, 13.184, 87.2122, -116.02
2.25598, -1, -10.1193, 7.00088, 21.8714, 13.1862, 87.1151, -116.266
2.26494, -1, -10.3019, 6.90813, 21.908, 13.1885, 87.018, -116.512
2.27093, -1, -10.4844, 6.81537, 21.9445, 13.1907, 86.9208, -116.757
2.27994, -1, -10.6667, 6.72267, 21.9811, 13.193, 86.8237, -117.003
2.28804, -1, -10.8485, 6.63006, 22.0175, 13.1953, 86.7269, -117.248
2.29599, -1, -11.0298, 6.53744, 22.0539, 13.1978, 86.6299, -117.494
2.30321, -1, -11.2103, 6.44492, 22.0905, 13.2002, 86.5332, -117.738
2.31098, -1, -11.3902, 6.35244, 22.127, 13.2026, 86.4367, -117.983
2.31993, -1, -11.5699, 6.26002, 22.1634, 13.205, 86.3399, -118.228
2.32794, -1, -11.7492, 6.16762, 22.1999, 13.2075, 86.2434, -118.473
2.33605, -1, -11.9285, 6.0753, 22.2364, 13.21, 86.1469, -118.717
2.34393, -1, -12.1077, 5.98309, 22.2728, 13.2124, 86.0502, -118.961
2.35194, -1, -12.2872, 5.89102, 22.3093, 13.215, 85.9537, -119.206
2.36004, -1, -12.467, 5.79898, 22.3457, 13.2175, 85.8574, -119.45
2.36793, -1, -12.6472, 5.70699, 22.3819, 13.2199, 85.761, -119.694
2.37599, -1, -12.8279, 5.61503, 22.4183, 13.2224, 85.6648, -119.938
2.38401, -1, -13.0089, 5.52318, 22.4547, 13.2249, 85.569, -120.181
2.39193, -1, -13.19, 5.43116, 22.4908, 13.2273, 85.473, -120.425
2.40171, -1, -13.3712, 5.33916, 22.5272, 13.2297, 85.377, -120.669
2.4072, -1, -13.552, 5.24727, 22.5635, 13.2323, 85.2815, -120.912
2.41519, -1, -13.7326, 5.15538, 22.5996, 13.2348, 85.1855, -121.155
2.42404, -1, -13.9126, 5.0635, 22.6358, 13.2373, 85.0898, -121.398
2.43201, -1, -14.0917, 4.97175, 22.672, 13.2399, 84.9943, -121.641
2.44004, -1, -14.2702, 4.88004, 22.7081, 13.2425, 84.8985, -121.884
2.44823, -1, -14.4484, 4.78839, 22.7442, 13.245, 84.803, -122.126
2.45608, -1, -14.6261, 4.69677, 22.7805, 13.2475, 84.7075, -122.369
2.46409, -1, -14.8037, 4.60524, 22.8166, 13.25, 84.6117, -122.611
2.47231, -1, -14.9813, 4.51375, 22.8527, 13.2525, 84.516, -122.854
2.47954, -1, -15.1591, 4.42243, 22.8889, 13.2549, 84.4206, -123.096
2.4881, -1, -15.3374, 4.33116, 22.925, 13.2573, 84.3248, -123.337
2.49493, -1, -15.4266, 4.28549, 22.9431, 13.2584, 84.2769, -123.458
2.50297, -1, -15.6054, 4.19424, 22.9791, 13.2608, 84.1814, -123.7
2.51202, -1, -15.8742, 4.05743, 23.0331, 13.2642, 84.038, -124.063
2.52158, -1, -16.0535, 3.96619, 23.0691, 13.2664, 83.9425, -124.304
2.52815, -1, -16.2332, 3.87493, 23.1051, 13.2685, 83.8473, -124.546
2.53496, -1, -16.3231, 3.82933, 23.1231, 13.2696, 83.7994, -124.666
2.54636, -1, -16.5921, 3.69254, 23.1768, 13.2728, 83.6563, -125.029
2.55238, -1, -16.7709, 3.60141, 23.2127, 13.275, 83.5611, -125.27
2.55892, -1, -16.8601, 3.55588, 23.2306, 13.2761, 83.5133, -125.39
2.56914, -1, -17.1263, 3.41937, 23.2843, 13.2794, 83.3702, -125.751
2.57656, -1, -17.303, 3.32843, 23.3202, 13.2816, 83.2753, -125.992
2.58445, -1, -17.4794, 3.23757, 23.356, 13.2838, 83.18, -126.233
2.59326, -1, -17.6556, 3.14684, 23.3918, 13.286, 83.085, -126.473
2.59892, -1, -17.7435, 3.10153, 23.4097, 13.2871, 83.0376, -126.593
2.60851, -1, -17.9195, 3.01095, 23.4456, 13.2891, 82.8953, -126.953
2.61735, -1, -18.0957, 2.92048, 23.4813, 13.2923, 82.8006, -127.194
2.62291, -1, -18.2722, 2.8301, 23.517, 13.2933, 82.7533, -127.314
2.63307, -1, -18.5378, 2.69453, 23.5706, 13.2964, 82.6113, -127.673
2.63898, -1, -18.6265, 2.64935, 23.5884, 13.2974, 82.564, -127.793
2.64797, -1, -18.8042, 2.55904, 23.6241, 13.2995, 82.4694, -128.032
2.65597, -1, -18.9822, 2.46859, 23.6599, 13.3015, 82.3751, -128.272
2.66391, -1, -19.1604, 2.37812, 23.6954, 13.3035, 82.2806, -128.511
2.67197, -1, -19.3386, 2.2878, 23.731, 13.3055, 82.1862, -128.751
2.67991, -1, -19.5163, 2.19742, 23.7667, 13.3076, 82.0923, -128.99
2.68791, -1, -19.6935, 2.107, 23.8021, 13.3098, 81.998, -129.229
2.69499, -1, -19.8701, 2.01676, 23.8375, 13.3119, 81.9038, -129.468
2.70297, -1, -20.0459, 1.92652, 23.8731, 13.314, 81.81, -129.707
2.71193, -1, -20.2211, 1.83628, 23.9086, 13.3163, 81.7157, -129.945
2.71993, -1, -20.396, 1.74618, 23.944, 13.3185, 81.6217, -130.183
2.72791, -1, -20.5706, 1.65609, 23.9796, 13.3207, 81.5279, -130.422
2.73606, -1, -20.745, 1.56612, 24.0151, 13.3229, 81.4338, -130.66
2.74291, -1, -20.9197, 1.47627, 24.0505, 13.325, 81.34, -130.898
2.75191, -1, -21.0946, 1.38653, 24.0861, 13.3273, 81.2465, -131.136
2.75998, -1, -21.27, 1.29677, 24.1216, 13.3295, 81.1525, -131.374
2.76791, -1, -21.4456, 1.2071, 24.1569, 13.3316, 81.0587, -131.612
2.77598, -1, -21.6215, 1.11751, 24.1923, 13.3338, 80.965, -131.849
2.78398, -1, -21.7977, 1.02789, 24.2277, 13.3359, 80.8712, -132.086
2.79191, -1, -21.9741, 0.938261, 24.2631, 13.3381, 80.7773, -132.324
2.8, -1, -22.1507, 0.848687, 24.2985, 13.3402, 80.6837, -132.561
2.80795, -1, -22.3273, 0.759137, 24.3339, 13.3424, 80.59, -132.798
2.81602, -1, -22.5034, 0.669649, 24.3691, 13.3447, 80.4963, -133.035
2.82391, -1, -22.6791, 0.580161, 24.4043, 13.3471, 80.4027, -133.272
2.83193, -1, -22.8541, 0.490778, 24.4396, 13.3495, 80.3092, -133.509
2.83997, -1, -23.0282, 0.401346, 24.4748, 13.3519, 80.2156, -133.746
2.84791, -1, -23.2018, 0.312016, 24.5099, 13.3544, 80.1222, -133.983
2.85598, -1, -23.375, 0.22272, 24.5451, 13.3569, 80.0288, -134.219
2.86298, -1, -23.5481, 0.133517, 24.5804, 13.3593, 79.9354, -134.456
2.87095, -1, -23.7214, 0.0443667, 24.6155, 13.3617, 79.842, -134.692
2.87992, -1, -23.8947, -0.0446677, 24.6508, 13.3641, 79.749, -134.928
2.888, -1, -24.0682, -0.133626, 24.6859, 13.3666, 79.6557, -135.164
2.89595, -1, -24.242, -0.22261, 24.721, 13.3691, 79.5626, -135.399
2.90392, -1, -24.4161, -0.311523, 24.7562, 13.3714, 79.4696, -135.635
2.91199, -1, -24.5905, -0.400323, 24.7913, 13.3739, 79.3765, -135.871
2.91992, -1, -24.7652, -0.489233, 24.8263, 13.3762, 79.2835, -136.106
2.92814, -1, -24.9403, -0.578112, 24.8614, 13.3786, 79.1907, -136.342
2.93534, -1, -25.1155, -0.666934, 24.8965, 13.381, 79.0975, -136.577
2.94397, -1, -25.2903, -0.755674, 24.9315, 13.3833, 79.0047, -136.812
2.95229, -1, -25.4646, -0.844481, 24.9666, 13.3857, 78.9121, -137.047
2.95964, -1, -25.6386, -0.933257, 25.0016, 13.3882, 78.8192, -137.282
2.96802, -1, -25.8119, -1.0219, 25.0364, 13.3906, 78.7265, -137.516
2.97652, -1, -25.9845, -1.11064, 25.0714, 13.393, 78.6341, -137.751
2.98402, -1, -26.1567, -1.19929, 25.1064, 13.3955, 78.5415, -137.985
2.99191, -1, -26.3286, -1.28786, 25.1412, 13.3978, 78.449, -138.22
3.00063, -1, -26.5003, -1.37633, 25.1761, 13.4001, 78.3566, -138.455
3.00814, -1, -26.6721, -1.46468, 25.2111, 13.4024, 78.2642, -138.689
3.01496, -1, -26.7582, -1.50883, 25.2285, 13.4035, 78.2178, -138.806
3.02482, -1, -27.0167, -1.64112, 25.2808, 13.4069, 78.0793, -139.157
3.0322, -1, -27.1891, -1.7293, 25.3157, 13.4091, 77.9873, -139.391
3.03899, -1, -27.2754, -1.7734, 25.3331, 13.4102, 77.9411, -139.508
3.04906, -1, -27.5348, -1.9055, 25.3852, 13.4134, 77.8029, -139.858
3.0567, -1, -27.708, -1.99369, 25.4201, 13.4155, 77.7111, -140.091
3.06432, -1, -27.8814, -2.08178, 25.4549, 13.4176, 77.6189, -140.325
3.07095, -1, -27.968, -2.12576, 25.4723, 13.4186, 77.5729, -140.441
3.07892, -1, -28.1413, -2.21379, 25.5069, 13.4205, 77.4811, -140.675
3.08845, -1, -28.4009, -2.34588, 25.5591, 13.4236, 77.3429, -141.024
3.0973, -1, -28.5736, -2.43386, 25.5938, 13.4257, 77.2508, -141.257
3.10291, -1, -28.6597, -2.47782, 25.6111, 13.4268, 77.2048, -141.374
3.1125, -1, -28.8315, -2.56579, 25.6458, 13.4289, 77.0667, -141.723
3.1199, -1, -29.0025, -2.6538, 25.6805, 13.4311, 77.0208, -141.839
3.12691, -1, -29.1731, -2.74167, 25.715, 13.4333, 76.9288, -142.072
3.13706, -1, -29.4289, -2.87331, 25.767, 13.4364, 76.791, -142.421
3.14297, -1, -29.5142, -2.91714, 25.7843, 13.4374, 76.7452, -142.537
3.15193, -1, -29.6851, -3.00467, 25.8188, 13.4394, 76.6534, -142.769
3.1599, -1, -29.8562, -3.09222, 25.8533, 13.4414, 76.5619, -143.002
3.16793, -1, -30.0271, -3.17968, 25.8879, 13.4435, 76.4699, -143.234
3.17597, -1, -30.198, -3.26715, 25.9224, 13.4455, 76.3783, -143.466
3.18391, -1, -30.3692, -3.35457, 25.957, 13.4476, 76.2867, -143.698
3.19194, -1, -30.5407, -3.442, 25.9915, 13.4497, 76.195, -143.93
3.19996, -1, -30.7125, -3.52953, 26.0259, 13.4516, 76.1036, -144.161
3.20795, -1, -30.8844, -3.61688, 26.0603, 13.4538, 76.0122, -144.392
3.21594, -1, -31.0562, -3.70429, 26.0949, 13.4557, 75.9208, -144.624
3.22394, -1, -31.228, -3.79161, 26.1293, 13.4578, 75.8295, -144.855
3.23197, -1, -31.3994, -3.87893, 26.1636, 13.4599, 75.7383, -145.086
3.23989, -1, -31.5703, -3.96623, 26.1981, 13.462, 75.647, -145.318
3.24981, -1, -31.7408, -4.05344, 26.2325, 13.4642, 75.5558, -145.549
3.25601, -1, -31.9107, -4.14068, 26.2669, 13.4663, 75.4646, -145.779
3.26495, -1, -32.0803, -4.2279, 26.3012, 13.4685, 75.3736, -146.01
3.27191, -1, -32.2497, -4.31498, 26.3357, 13.4708, 75.2824, -146.241
3.27996, -1, -32.419, -4.40202, 26.3699, 13.4729, 75.1912, -146.472
3.28789, -1, -32.5888, -4.48897, 26.4042, 13.475, 75.1007, -146.702
3.29596, -1, -32.7584, -4.57587, 26.4387, 13.4772, 75.0096, -146.932
3.30396, -1, -32.9281, -4.66282, 26.4729, 13.4794, 74.9187, -147.163
3.31192, -1, -33.0978, -4.74975, 26.507, 13.4816, 74.8283, -147.393
3.31992, -1, -33.2676, -4.83656, 26.5413, 13.4838, 74.7376, -147.623
3.32796, -1, -33.4375, -4.92343, 26.5756, 13.486, 74.647, -147.853
3.33594, -1, -33.6079, -5.01043, 26.6098, 13.4882, 74.5564, -148.083
3.34472, -1, -33.7782, -5.09718, 26.6441, 13.4904, 74.4659, -148.313
3.35193, -1, -33.9485, -5.18391, 26.6783, 13.4927, 74.3752, -148.543
3.35991, -1, -34.1188, -5.27067, 26.7123, 13.4949, 74.2847, -148.772
3.36868, -1, -34.2889, -5.35738, 26.7466, 13.4972, 74.1943, -149.001
3.37593, -1, -34.4589, -5.44398, 26.7808, 13.4994, 74.1037, -149.231
3.38389, -1, -34.6284, -5.53064, 26.8148, 13.5018, 74.0131, -149.46
3.39204, -1, -34.7973, -5.61727, 26.8489, 13.5042, 73.9228, -149.689
3.39996, -1, -34.9658, -5.70386, 26.8831, 13.5067, 73.8321, -149.918
3.40789, -1, -35.1342, -5.79035, 26.9172, 13.5091, 73.7416, -150.147
3.4172, -1, -35.3024, -5.8768, 26.9512, 13.5116, 73.6515, -150.376
3.42389, -1, -35.4709, -5.96307, 26.9854, 13.514, 73.5609, -150.605
3.43196, -1, -35.6394, -6.04929, 27.0195, 13.5163, 73.4705, -150.834
3.44005, -1, -35.8079, -6.1355, 27.0535, 13.5187, 73.3804, -151.063
3.44796, -1, -35.9764, -6.2216, 27.0876, 13.5211, 73.2899, -151.291
3.45609, -1, -36.1449, -6.30771, 27.1217, 13.5235, 73.1996, -151.52
3.46425, -1, -36.3135, -6.39386, 27.1556, 13.5258, 73.1093, -151.748
3.4715, -1, -36.4823, -6.48003, 27.1896, 13.5282, 73.0189, -151.977
3.48011, -1, -36.6512, -6.56621, 27.2236, 13.5305, 72.9287, -152.205
3.48823, -1, -36.7357, -6.6093, 27.2406, 13.5317, 72.8384, -152.433
3.49605, -1, -36.9892, -6.73851, 27.2915, 13.5351, 72.7484, -152.661
3.50397, -1, -37.1581, -6.8247, 27.3255, 13.5373, 72.6582, -152.889
3.51271, -1, -37.3267, -6.91074, 27.3594, 13.5396, 72.5683, -153.117
3.51995, -1, -37.4951, -6.99676, 27.3933, 13.5418, 72.4785, -153.344
3.52805, -1, -37.6629, -7.08281, 27.4274, 13.5441, 72.3885, -153.572
3.53488, -1, -37.7468, -7.12581, 27.4443, 13.5452, 72.3437, -153.686
3.543, -1, -37.9144, -7.21177, 27.4781, 13.5474, 72.2539, -153.913
3.55226, -1, -38.1656, -7.34061, 27.529, 13.5507, 72.1193, -154.254
3.55888, -1, -38.2493, -7.38353, 27.546, 13.5518, 72.0744, -154.368
3.56693, -1, -38.4167, -7.46924, 27.5798, 13.5539, 71.9847, -154.595
3.57655, -1, -38.6675, -7.59782, 27.6307, 13.557, 71.8503, -154.936
3.58442, -1, -38.8349, -7.68348, 27.6646, 13.5591, 71.7607, -155.163
3.59244, -1, -39.0021, -7.76916, 27.6983, 13.5611, 71.6714, -155.39
3.60067, -1, -39.1695, -7.85475, 27.7321, 13.5632, 71.5821, -155.617
3.60848, -1, -39.2533, -7.8976, 27.766, 13.5651, 71.4927, -155.843
3.61654, -1, -39.4209, -7.98331, 27.7997, 13.5671, 71.4033, -156.07
3.6245, -1, -39.5885, -8.06887, 27.8165, 13.5681, 71.3587, -156.297
3.63188, -1, -39.7562, -8.15436, 27.8501, 13.57, 71.2695, -156.41
3.63988, -1, -39.9238, -8.23988, 27.8839, 13.5719, 71.1801, -156.637
3.64797, -1, -40.0914, -8.32531, 27.9176, 13.5739, 71.0907, -156.863
3.65594, -1, -40.259, -8.41068, 27.9513, 13.5758, 71.0015, -157.089
3.66389, -1, -40.4262, -8.49608, 27.9851, 13.5778, 70.912, -157.315
3.67188, -1, -40.5931, -8.58144, 28.0187, 13.5798, 70.8228, -157.541
3.67988, -1, -40.7599, -8.66682, 28.0523, 13.5817, 70.7338, -157.767
3.68793, -1, -40.9265, -8.75217, 28.086, 13.5838, 70.6445, -157.993
3.69594, -1, -41.0929, -8.83746, 28.1197, 13.5858, 70.5554, -158.219
3.70393, -1, -41.2591, -8.92269, 28.1532, 13.5878, 70.4665, -158.445
3.71197, -1, -41.4254, -9.00786, 28.1868, 13.5897, 70.3772, -158.67
3.71988, -1, -41.5916, -9.09299, 28.2205, 13.5918, 70.288, -158.896
3.7279, -1, -41.7579, -9.17806, 28.254, 13.5938, 70.1989, -159.121
3.736, -1, -41.9242, -9.26312, 28.2876, 13.5958, 70.1097, -159.347
3.7439, -1, -42.0907, -9.34815, 28.3214, 13.5979, 70.0207, -159.572
3.75287, -1, -42.257, -9.43324, 28.3549, 13.5999, 69.9317, -159.798
3.75994, -1, -42.4233, -9.51828, 28.3884, 13.6019, 69.843, -160.023
3.76893, -1, -42.5897, -9.60324, 28.422, 13.6039, 69.7539, -160.248
3.77593, -1, -42.7561, -9.6882, 28.4555, 13.6059, 69.6651, -160.473
3.78399, -1, -42.9225, -9.77317, 28.4889, 13.608, 69.5765, -160.698
3.79187, -1, -43.0888, -9.85809, 28.5224, 13.61, 69.4876, -160.923
3.79991, -1, -43.2549, -9.94303, 28.5559, 13.6121, 69.399, -161.148
3.80794, -1, -43.421, -10.0279, 28.5894, 13.6141, 69.3103, -161.373
3.81594, -1, -43.587, -10.1128, 28.6229, 13.6162, 69.2216, -161.598
3.82389, -1, -43.753, -10.1978, 28.6565, 13.6183, 69.1331, -161.822
3.83194, -1, -43.9188, -10.2825, 28.6899, 13.6205, 69.0446, -162.047
3.83987, -1, -44.0845, -10.3673, 28.7233, 13.6226, 68.9561, -162.271
3.84788, -1, -44.2498, -10.452, 28.7569, 13.6248, 68.8674, -162.495
3.85599, -1, -44.415, -10.5366, 28.7903, 13.627, 68.7788, -162.72
3.86388, -1, -44.5802, -10.6211, 28.8236, 13.6292, 68.6904, -162.944
3.87192, -1, -44.7453, -10.7056, 28.857, 13.6313, 68.6017, -163.168
3.87998, -1, -44.9107, -10.79, 28.8905, 13.6335, 68.5132, -163.392
3.88787, -1, -45.076, -10.8745, 28.9239, 13.6357, 68.4249, -163.616
3.89595, -1, -45.2413, -10.959, 28.9573, 13.6379, 68.3363, -163.84
3.90395, -1, -45.4066, -11.0434, 28.9908, 13.6401, 68.2479, -164.064
3.91187, -1, -45.5718, -11.1279, 29.024, 13.6424, 68.1596, -164.288
3.91987, -1, -45.7371, -11.2123, 29.0572, 13.6447, 68.0713, -164.512
3.92795, -1, -45.902, -11.2965, 29.0906, 13.647, 67.983, -164.735
3.93592, -1, -46.0651, -11.3798, 29.1241, 13.6493, 67.8945, -164.959
3.94391, -1, -46.2247, -11.4608, 29.1575, 13.6516, 67.807, -165.181
3.95202, -1, -46.3788, -11.5382, 29.1912, 13.654, 67.7203, -165.4
3.95997, -1, -46.525, -11.6109, 29.2242, 13.6563, 67.6365, -165.612
3.96796, -1, -46.6611, -11.6779, 29.2555, 13.6586, 67.5582, -165.811
3.9761, -1, -46.7841, -11.7377, 29.2838, 13.6606, 67.4867, -165.991
3.98346, -1, -46.8915, -11.7905, 29.3083, 13.6626, 67.4249, -166.147
3.99193, -1, -46.9825, -11.8366, 29.3279, 13.6641, 67.3742, -166.276
4.00005, -1, -47.0576, -11.8768, 29.3418, 13.6651, 67.3348, -166.375
4.0079, -1, -47.1176, -11.9102, 29.351, 13.6656, 67.3063, -166.447
4.01595, -1, -47.1634, -11.9361, 29.3566, 13.666, 67.2872, -166.495
4.02434, -1, -47.1968, -11.955, 29.3593, 13.6661, 67.2753, -166.525
4.03097, -1, -47.2094, -11.962, 29.36, 13.6662, 67.2715, -166.534
4.04011, -1, -47.2343, -11.9755, 29.3611, 13.6663, 67.2654, -166.55
4.04687, -1, -47.239, -11.978, 29.3612, 13.6663, 67.2644, -166.553
4.05626, 2, -47.2462, -11.9818, 29.3615, 13.6664, 67.2629, -166.556
4.06292, 2, -47.2469, -11.9823, 29.3616, 13.6664, 67.2627, -166.557
4.07287, 2, -47.2467, -11.983, 29.3617, 13.6664, 67.2624, -166.557
4.08038, 2, -47.2465, -11.9831, 29.3617, 13.6665, 67.2623, -166.558
4.08839, 2, -47.2466, -11.9832, 29.3618, 13.6666, 67.2623, -166.558
4.09699, 2, -47.2473, -11.9833, 29.3618, 13.6666, 67.2622, -166.558
4.10444, 2, -47.2483, -11.9837, 29.3618, 13.6666, 67.2622, -166.558
4.11247, 2, -47.2491, -11.9843, 29.3618, 13.6665, 67.2622, -166.558
4.1211, 2, -47.2518, -11.9851, 29.3619, 13.6665, 67.2622, -166.558
4.12785, 2, -47.2526, -11.9856, 29.3619, 13.6665, 67.2622, -166.558
4.13596, 2, -47.2541, -11.9864, 29.3619, 13.6665, 67.2622, -166.558
4.1439, 2, -47.255, -11.9871, 29.3619, 13.6665, 67.2622, -166.558
4.15187, 2, -47.2555, -11.9875, 29.3619, 13.6665, 67.2622, -166.558
4.1599, 2, -47.2558, -11.9877, 29.3619, 13.6665, 67.2622, -166.558
4.16788, 2, -47.2558, -11.9878, 29.3619, 13.6665, 67.2622, -166.558
4.17592, 2, -47.2556, -11.9878, 29.3619, 13.6665, 67.2622, -166.558
4.1839, 2, -47.2551, -11.9878, 29.3619, 13.6665, 67.2623, -166.558
4.19189, 2, -47.2545, -11.9877, 29.3619, 13.6665, 67.2622, -166.558
4.19986, 2, -47.254, -11.9877, 29.3619, 13.6665, 67.2622, -166.558
4.208, 2, -47.2538, -11.9877, 29.3619, 13.6665, 67.2623, -166.558
4.21608, 2, -47.2537, -11.9878, 29.3619, 13.6665, 67.2622, -166.558
4.22386, 2, -47.2538, -11.9879, 29.3619, 13.6665, 67.2623, -166.558
4.23191, 2, -47.254, -11.9882, 29.3619, 13.6665, 67.2623, -166.558
4.23989, 2, -47.2545, -11.9886, 29.3619, 13.6665, 67.2623, -166.558
4.2479, 2, -47.2552, -11.9889, 29.3619, 13.6664, 67.2623, -166.558
4.25686, 2, -47.2556, -11.9891, 29.3619, 13.6664, 67.2623, -166.558
4.26389, 2, -47.2558, -11.9892, 29.3619, 13.6664, 67.2623, -166.558
4.27288, 2, -47.2559, -11.9892, 29.3619, 13.6664, 67.2622, -166.558
4.27989, 2, -47.2558, -11.9892, 29.3619, 13.6664, 67.2623, -166.558
4.28789, 2, -47.2556, -11.9891, 29.3619, 13.6664, 67.2623, -166.558
4.29592, 2, -47.2552, -11.9891, 29.3619, 13.6664, 67.2623, -166.558
4.3039, 2, -47.2548, -11.9891, 29.3619, 13.6664, 67.2622, -166.558
4.31188, 2, -47.2544, -11.9891, 29.3619, 13.6664, 67.2623, -166.558
4.31986, 2, -47.2541, -11.9891, 29.3619, 13.6664, 67.2623, -166.557
4.32789, 2, -47.2539, -11.9891, 29.3619, 13.6664, 67.2623, -166.558
4.33594, 2, -47.2539, -11.9891, 29.3619, 13.6664, 67.2623, -166.558
4.34387, 2, -47.2538, -11.9892, 29.3619, 13.6664, 67.2623, -166.558
4.35189, 2, -47.2538, -11.9893, 29.3619, 13.6664, 67.2623, -166.558
4.35989, 2, -47.2538, -11.9893, 29.3619, 13.6664, 67.2623, -166.557
4.36786, 2, -47.2538, -11.9893, 29.3619, 13.6664, 67.2623, -166.557
4.376, 2, -47.2539, -11.9893, 29.3619, 13.6664, 67.2623, -166.557
4.38393, 2, -47.2539, -11.9893, 29.3619, 13.6664, 67.2623, -166.557
4.39185, 2, -47.2538, -11.9892, 29.3619, 13.6664, 67.2623, -166.557
4.39991, 2, -47.2538, -11.9892, 29.3619, 13.6664, 67.2623, -166.557
4.40789, 2, -47.2536, -11.9891, 29.3619, 13.6664, 67.2623, -166.557
4.41591, 2, -47.2535, -11.9891, 29.3619, 13.6664, 67.2623, -166.557
4.42389, 2, -47.2534, -11.9891, 29.3619, 13.6664, 67.2623, -166.557
4.43189, 2, -47.2532, -11.9891, 29.3619, 13.6664, 67.2623, -166.557
4.43986, 2, -47.2531, -11.9891, 29.3619, 13.6664, 67.2623, -166.557
4.44793, 2, -47.253, -11.9892, 29.3619, 13.6664, 67.2623, -166.557
4.45603, 2, -47.253, -11.9892, 29.3619, 13.6664, 67.2624, -166.557
4.46396, 2, -47.2529, -11.9891, 29.3619, 13.6664, 67.2624, -166.557
4.47199, 2, -47.2529, -11.9892, 29.3619, 13.6664, 67.2624, -166.557
4.47999, 2, -47.2528, -11.9891, 29.3619, 13.6664, 67.2624, -166.557
4.48745, 2, -47.2527, -11.9891, 29.3619, 13.6664, 67.2624, -166.557
4.49605, 2, -47.2527, -11.9891, 29.3619, 13.6664, 67.2624, -166.557
4.5039, 2, -47.2526, -11.989, 29.3619, 13.6664, 67.2624, -166.557
4.51189, 2, -47.2526, -11.9889, 29.3619, 13.6664, 67.2624, -166.557
4.51992, 2, -47.2525, -11.989, 29.3619, 13.6664, 67.2624, -166.557
4.52806, 2, -47.2523, -11.989, 29.3619, 13.6664, 67.2624, -166.557
4.53488, 2, -47.2523, -11.9889, 29.3619, 13.6664, 67.2624, -166.557
4.54415, 2, -47.2522, -11.9889, 29.3619, 13.6664, 67.2624, -166.557
4.55086, 2, -47.2522, -11.9889, 29.3619, 13.6664, 67.2624, -166.557
4.56017, 2, -47.252, -11.9889, 29.3619, 13.6664, 67.2624, -166.557
4.56686, 2, -47.252, -11.9889, 29.3619, 13.6664, 67.2625, -166.557
4.57646, 2, -47.2519, -11.9889, 29.3619, 13.6664, 67.2625, -166.557
4.58438, 2, -47.2518, -11.9889, 29.3619, 13.6663, 67.2625, -166.557
4.59239, 2, -47.2517, -11.9889, 29.3619, 13.6663, 67.2625, -166.557
4.60049, 2, -47.2516, -11.9889, 29.3619, 13.6663, 67.2625, -166.557
4.60842, 2, -47.2514, -11.9888, 29.3619, 13.6663, 67.2625, -166.557
4.61651, 2, -47.2513, -11.9887, 29.3619, 13.6663, 67.2625, -166.557
4.62458, 2, -47.2513, -11.9887, 29.3619, 13.6663, 67.2625, -166.557
4.63184, 2, -47.2512, -11.9887, 29.3619, 13.6663, 67.2625, -166.557
4.63987, 2, -47.251, -11.9887, 29.3619, 13.6663, 67.2625, -166.557
4.6479, 2, -47.2509, -11.9887, 29.3619, 13.6663, 67.2625, -166.557
4.65591, 2, -47.2508, -11.9887, 29.3619, 13.6663, 67.2625, -166.557
4.66388, 2, -47.2508, -11.9887, 29.3619, 13.6663, 67.2625, -166.557
4.67187, 2, -47.2507, -11.9887, 29.3619, 13.6662, 67.2626, -166.557
4.67984, 2, -47.2506, -11.9887, 29.3619, 13.6662, 67.2626, -166.557
4.68787, 2, -47.2505, -11.9886, 29.3619, 13.6662, 67.2627, -166.557
4.69594, 2, -47.2505, -11.9886, 29.3619, 13.6663, 67.2627, -166.557
4.70385, 2, -47.2504, -11.9886, 29.3619, 13.6663, 67.2627, -166.557
4.71192, 2, -47.2503, -11.9885, 29.3619, 13.6662, 67.2627, -166.557
4.7199, 2, -47.2502, -11.9884, 29.3619, 13.6662, 67.2627, -166.557
4.72784, 2, -47.2502, -11.9884, 29.3619, 13.6662, 67.2627, -166.557
4.73595, 2, -47.2501, -11.9884, 29.3619, 13.6662, 67.2627, -166.557
4.74387, 2, -47.25, -11.9884, 29.3619, 13.6662, 67.2627, -166.557
4.75184, 2, -47.2499, -11.9884, 29.3619, 13.6662, 67.2627, -166.557
4.75987, 2, -47.2498, -11.9884, 29.3619, 13.6662, 67.2627, -166.557
4.76787, 2, -47.2498, -11.9884, 29.3619, 13.6661, 67.2627, -166.556
4.77687, 2, -47.2497, -11.9884, 29.3619, 13.6662, 67.2626, -166.556
4.78387, 2, -47.2497, -11.9884, 29.3619, 13.6661, 67.2627, -166.556
4.79187, 2, -47.2497, -11.9884, 29.3619, 13.6661, 67.2627, -166.556
4.79989, 2, -47.2496, -11.9883, 29.3619, 13.6661, 67.2627, -166.556
4.80787, 2, -47.2496, -11.9883, 29.3619, 13.6661, 67.2627, -166.556
4.81593, 2, -47.2495, -11.9882, 29.3619, 13.6661, 67.2628, -166.556
4.82384, 2, -47.2495, -11.9881, 29.3619, 13.6661, 67.2628, -166.556
4.83191, 2, -47.2495, -11.9881, 29.3619, 13.666, 67.2627, -166.556
4.83987, 2, -47.2493, -11.9881, 29.3619, 13.666, 67.2627, -166.556
4.84784, 2, -47.2493, -11.988, 29.3619, 13.666, 67.2628, -166.556
4.85593, 2, -47.2492, -11.988, 29.3619, 13.666, 67.2628, -166.556
4.86387, 2, -47.2491, -11.988, 29.3619, 13.666, 67.2628, -166.556
4.87184, 2, -47.2491, -11.988, 29.3619, 13.666, 67.2628, -166.556
4.87992, 2, -47.249, -11.988, 29.3619, 13.666, 67.2628, -166.556
4.88791, 2, -47.2491, -11.988, 29.3619, 13.666, 67.2629, -166.556
4.8959, 2, -47.249, -11.988, 29.3619, 13.666, 67.2629, -166.556
4.9039, 2, -47.249, -11.988, 29.3619, 13.666, 67.2629, -166.556
4.91187, 2, -47.249, -11.9879, 29.3619, 13.666, 67.2629, -166.556
4.91984, 2, -47.2489, -11.9878, 29.3619, 13.6659, 67.2629, -166.556
4.92787, 2, -47.2489, -11.9878, 29.3619, 13.6659, 67.2629, -166.556
4.93595, 2, -47.2488, -11.9878, 29.3619, 13.6659, 67.263, -166.556
4.94385, 2, -47.2487, -11.9877, 29.3619, 13.6659, 67.263, -166.556
4.95191, 2, -47.2487, -11.9877, 29.3619, 13.6659, 67.263, -166.556
4.95997, 2, -47.2486, -11.9877, 29.3619, 13.6659, 67.263, -166.556
4.96793, 2, -47.2486, -11.9877, 29.3619, 13.6659, 67.263, -166.556
4.97602, 2, -47.2485, -11.9877, 29.3619, 13.6658, 67.263, -166.556
4.98398, 2, -47.2485, -11.9876, 29.3619, 13.6658, 67.263, -166.556
4.99194, 2, -47.2484, -11.9876, 29.3619, 13.6658, 67.263, -166.556
4.99998, 2, -47.2484, -11.9876, 29.3619, 13.6658, 67.263, -166.556
5.00788, 2, -47.2483, -11.9876, 29.3619, 13.6658, 67.263, -166.556
5.01619, 2, -47.2484, -11.9876, 29.3619, 13.6658, 67.263, -166.556
5.02285, 2, -47.2484, -11.9875, 29.3619, 13.6657, 67.263, -166.556
5.03197, 2, -47.2483, -11.9875, 29.3619, 13.6658, 67.2631, -166.556
5.03886, 2, -47.2483, -11.9874, 29.3619, 13.6657, 67.2631, -166.556
5.04812, 2, -47.2481, -11.9874, 29.3619, 13.6657, 67.263, -166.556
5.05498, 2, -47.248, -11.9874, 29.3619, 13.6657, 67.2631, -166.556
5.06427, 2, -47.2479, -11.9874, 29.3619, 13.6657, 67.263, -166.556
5.07225, 2, -47.2479, -11.9874, 29.3619, 13.6657, 67.2631, -166.556
5.08034, 2, -47.2478, -11.9873, 29.3619, 13.6657, 67.2631, -166.556
5.08881, 2, -47.2478, -11.9873, 29.3619, 13.6656, 67.2631, -166.556
5.09644, 2, -47.2478, -11.9873, 29.3619, 13.6656, 67.2631, -166.556
5.10443, 2, -47.2477, -11.9873, 29.3619, 13.6656, 67.2631, -166.556
5.11274, 2, -47.2477, -11.9873, 29.3619, 13.6656, 67.2631, -166.556
5.12035, 2, -47.2476, -11.9873, 29.3619, 13.6656, 67.2631, -166.556
5.12839, 2, -47.2476, -11.9872, 29.3619, 13.6656, 67.2631, -166.556
5.13693, 2, -47.2476, -11.9872, 29.3619, 13.6656, 67.2631, -166.556
5.14284, 4, -47.2476, -11.9871, 29.3619, 13.6656, 67.2631, -166.556
5.15185, 4, -47.2476, -11.9871, 29.3619, 13.6655, 67.2631, -166.556
5.15985, 4, -47.2475, -11.9871, 29.3619, 13.6655, 67.2631, -166.556
5.16783, 4, -47.2474, -11.987, 29.3618, 13.6655, 67.2631, -166.556
5.17591, 4, -47.2473, -11.987, 29.3618, 13.6655, 67.2631, -166.556
5.18386, 4, -47.2472, -11.987, 29.3618, 13.6654, 67.2631, -166.556
5.19182, 4, -47.2472, -11.987, 29.3618, 13.6654, 67.2631, -166.556
5.19985, 4, -47.2472, -11.987, 29.3619, 13.6654, 67.2631, -166.556
5.20787, 4, -47.2471, -11.987, 29.3619, 13.6654, 67.2631, -166.556
5.21592, 4, -47.2471, -11.987, 29.3619, 13.6655, 67.2631, -166.556
5.22389, 4, -47.2471, -11.987, 29.3619, 13.6654, 67.2631, -166.555
5.23186, 4, -47.247, -11.9869, 29.3619, 13.6654, 67.2631, -166.555
5.23984, 4, -47.247, -11.9868, 29.3618, 13.6654, 67.2631, -166.556
5.26217, 4, -47.247, -11.9868, 29.3619, 13.6654, 67.2631, -166.556
5.26398, 4, -47.2469, -11.9867, 29.3619, 13.6654, 67.2631, -166.556
5.26661, 4, -47.2468, -11.9867, 29.3619, 13.6654, 67.2631, -166.555
5.27203, 4, -47.2468, -11.9867, 29.3619, 13.6654, 67.2631, -166.555
5.28217, 4, -47.2467, -11.9867, 29.3619, 13.6654, 67.2631, -166.555
5.28798, 4, -47.2467, -11.9867, 29.3619, 13.6654, 67.2631, -166.555
5.29604, 4, -47.2472, -11.9869, 29.362, 13.6654, 67.2631, -166.555
5.30867, 4, -47.2501, -11.989, 29.3641, 13.6673, 67.2638, -166.555
5.31194, 4, -47.2519, -11.9906, 29.3662, 13.6707, 67.2647, -166.555
5.32132, 4, -47.2569, -11.9963, 29.3743, 13.687, 67.2686, -166.552
5.32796, 4, -47.2645, -12.0055, 29.3901, 13.7202, 67.2773, -166.545
5.33707, 5, -47.2754, -12.019, 29.4168, 13.7777, 67.293, -166.533
5.34396, 5, -47.2905, -12.0378, 29.4567, 13.8662, 67.3175, -166.512
5.35108, 5, -47.3101, -12.0624, 29.5112, 13.9881, 67.3519, -166.484
5.35982, 5, -47.3343, -12.0921, 29.5805, 14.1446, 67.3948, -166.446
5.36904, 5, -47.3628, -12.1272, 29.6632, 14.3317, 67.4463, -166.402
5.37511, 5, -47.3951, -12.1674, 29.7573, 14.5438, 67.5053, -166.352
5.38482, 5, -47.4305, -12.212, 29.8601, 14.7741, 67.5676, -166.297
5.39298, 5, -47.4683, -12.26, 29.9697, 15.0167, 67.6342, -166.24
5.40065, 5, -47.5081, -12.3106, 30.0841, 15.2667, 67.7015, -166.181
5.40786, 5, -47.5498, -12.3632, 30.2015, 15.5208, 67.7704, -166.122
5.418, 5, -47.5928, -12.4171, 30.3207, 15.7769, 67.8387, -166.062
5.42339, 5, -47.6367, -12.4716, 30.4411, 16.0339, 67.9072, -166.003
5.43189, 5, -47.6811, -12.5266, 30.5624, 16.2913, 67.9751, -165.944
5.43983, 5, -47.7259, -12.5819, 30.6849, 16.5489, 68.0424, -165.884
5.45299, 5, -47.793, -12.665, 30.871, 16.9357, 68.1424, -165.797
5.45598, 5, -47.8154, -12.6928, 30.9336, 17.0649, 68.1755, -165.768
5.46391, 5, -47.8599, -12.7486, 31.0594, 17.3232, 68.2417, -165.71
5.47209, 5, -47.9043, -12.8044, 31.1859, 17.5815, 68.3065, -165.652
5.48, 5, -47.9487, -12.8604, 31.3132, 17.8398, 68.3718, -165.596
5.48793, 5, -47.9932, -12.9167, 31.4415, 18.0983, 68.4354, -165.539
5.49598, 5, -48.0384, -12.9735, 31.5709, 18.3566, 68.4992, -165.482
5.50399, 5, -48.0841, -13.0306, 31.7012, 18.6152, 68.5622, -165.426
5.51185, 5, -48.1301, -13.0882, 31.8323, 18.8739, 68.6249, -165.371
5.51992, 5, -48.1764, -13.1462, 31.9642, 19.1326, 68.6872, -165.315
5.52787, 5, -48.2229, -13.2044, 32.097, 19.3913, 68.7483, -165.261
5.53597, 5, -48.2693, -13.263, 32.2307, 19.65, 68.8099, -165.207
5.54441, 5, -48.316, -13.3218, 32.3654, 19.9088, 68.8702, -165.152
5.55237, 5, -48.363, -13.3808, 32.5009, 20.1677, 68.9307, -165.099
5.56013, 5, -48.41, -13.4399, 32.6375, 20.4265, 68.9902, -165.046
5.5682, 5, -48.457, -13.4991, 32.7749, 20.6855, 69.0491, -164.993
5.57858, 5, -48.5041, -13.5584, 32.9132, 20.9445, 69.1081, -164.94
5.5843, 5, -48.5507, -13.6177, 33.0523, 21.2035, 69.1658, -164.888
5.59316, 5, -48.5961, -13.6769, 33.192, 21.4622, 69.2241, -164.836
5.59881, 5, -48.6182, -13.7064, 33.2621, 21.5913, 69.2531, -164.809
5.60923, 5, -48.6814, -13.7938, 33.4722, 21.9753, 69.3394, -164.723
5.61863, 5, -48.7208, -13.8509, 33.6109, 22.2266, 69.3988, -164.66
5.62465, 6, -48.757, -13.9066, 33.7473, 22.4711, 69.4586, -164.585
5.63181, 6, -48.7737, -13.9339, 33.8143, 22.5901, 69.4897, -164.542
5.6389, 6, -48.8037, -13.9868, 33.9455, 22.8202, 69.554, -164.446
5.64891, 6, -48.8396, -14.0619, 34.1336, 23.143, 69.6548, -164.268
5.65586, 6, -48.8488, -14.0856, 34.1938, 23.2444, 69.6903, -164.199
5.66386, 6, -48.8626, -14.131, 34.3103, 23.4379, 69.7626, -164.048
5.67194, 7, -48.8706, -14.1736, 34.4218, 23.6202, 69.8385, -163.879
5.67978, 7, -48.8734, -14.2135, 34.5287, 23.7922, 69.9158, -163.695
5.68786, 7, -48.8716, -14.2509, 34.6315, 23.9557, 69.996, -163.497
5.69594, 7, -48.8655, -14.2859, 34.7308, 24.1121, 70.078, -163.288
5.70282, 7, -48.8556, -14.3189, 34.8271, 24.2626, 70.1619, -163.07
5.71178, 8, -48.8425, -14.3503, 34.9208, 24.4082, 70.247, -162.843
5.72001, 8, -48.8269, -14.3802, 35.012, 24.5499, 70.3336, -162.61
5.72926, 8, -48.8092, -14.4089, 35.1448, 24.7568, 70.4658, -162.25
5.73481, 8, -48.7895, -14.4365, 35.1882, 24.8247, 70.5105, -162.127
5.74571, 8, -48.7576, -14.4765, 35.3161, 25.0265, 70.6457, -161.756
5.7537, 9, -48.7466, -14.4895, 35.3582, 25.1598, 70.7365, -161.506
5.75987, 9, -48.7239, -14.5149, 35.4419, 25.2262, 70.7821, -161.38
5.77144, 9, -48.6884, -14.5519, 35.5659, 25.4254, 70.9198, -161.001
5.77585, 9, -48.6762, -14.564, 35.6068, 25.4919, 70.966, -160.875
5.78481, 9, -48.6513, -14.5879, 35.6881, 25.6251, 71.0579, -160.621
5.79084, 9, -48.6255, -14.6112, 35.7687, 25.7589, 71.1505, -160.368
5.8, 10, -48.5992, -14.6342, 35.849, 25.8934, 71.2433, -160.115
5.80781, 10, -48.5726, -14.6569, 35.929, 26.0288, 71.3359, -159.862
5.81586, 10, -48.5458, -14.6793, 36.009, 26.165, 71.4289, -159.611
5.82386, 10, -48.5187, -14.7018, 36.0887, 26.302, 71.5219, -159.359
5.83187, 10, -48.4916, -14.7241, 36.1682, 26.4402, 71.6148, -159.109
5.83982, 10, -48.4644, -14.7463, 36.2475, 26.5792, 71.7072, -158.86
5.84797, 11, -48.4372, -14.7687, 36.3265, 26.7192, 71.7999, -158.612
5.85523, 11, -48.4101, -14.791, 36.4053, 26.8601, 71.8923, -158.365
5.86293, 11, -48.3829, -14.8133, 36.4839, 27.0017, 71.9845, -158.118
5.87187, 11, -48.3556, -14.8357, 36.5623, 27.1442, 72.0766, -157.873
5.87981, 11, -48.3278, -14.8579, 36.6406, 27.2873, 72.1687, -157.629
5.88786, 12, -48.2996, -14.8801, 36.7188, 27.4313, 72.2604, -157.385
5.89612, 12, -48.2713, -14.9023, 36.7968, 27.5759, 72.3519, -157.142
5.90379, 12, -48.2426, -14.9242, 36.8746, 27.7209, 72.4435, -156.9
5.91182, 12, -48.2133, -14.9463, 36.9522, 27.8663, 72.5345, -156.658
5.92088, 12, -48.1837, -14.9683, 37.0294, 28.0122, 72.6254, -156.418
5.92876, 12, -48.1536, -14.9901, 37.1062, 28.1583, 72.7164, -156.178
5.93585, 13, -48.1232, -15.012, 37.1826, 28.3047, 72.8067, -155.938
5.94581, 13, -48.0924, -15.0339, 37.2588, 28.4513, 72.897, -155.699
5.95186, 13, -48.0612, -15.0556, 37.3346, 28.5979, 72.9869, -155.461
5.96031, 13, -48.0296, -15.0777, 37.4101, 28.7445, 73.0766, -155.223
5.96733, 13, -47.9974, -15.0995, 37.4853, 28.8913, 73.1662, -154.985
5.97786, 14, -47.9646, -15.1213, 37.56, 29.0378, 73.2555, -154.747
5.98433, 14, -47.9313, -15.1432, 37.6343, 29.1845, 73.3447, -154.51
5.99138, 14, -47.8974, -15.1648, 37.7082, 29.3312, 73.4333, -154.274
6.0018, 14, -47.8626, -15.1864, 37.7815, 29.4775, 73.5218, -154.037
6.00676, 14, -47.8449, -15.1973, 37.818, 29.5507, 73.5661, -153.919
6.0162, 15, -47.7909, -15.2295, 37.9269, 29.7696, 73.6983, -153.566
6.02361, 15, -47.7726, -15.2401, 37.963, 29.8425, 73.7422, -153.448
6.03193, 15, -47.7167, -15.2724, 38.0708, 30.061, 73.8737, -153.096
6.03885, 15, -47.6977, -15.283, 38.1066, 30.1337, 73.9174, -152.978
6.04876, 15, -47.6399, -15.3153, 38.2132, 30.351, 74.0479, -152.627
6.05653, 15, -47.6007, -15.3369, 38.2837, 30.4958, 74.1346, -152.393
6.06416, 16, -47.5607, -15.3584, 38.3537, 30.64, 74.2208, -152.16
6.07093, 16, -47.5405, -15.3692, 38.3885, 30.7121, 74.2636, -152.044
6.0803, 16, -47.4789, -15.4018, 38.4924, 30.9281, 74.3919, -151.696
6.08834, 16, -47.437, -15.4235, 38.5613, 31.0718, 74.4772, -151.465
6.09671, 16, -47.3944, -15.4455, 38.6297, 31.215, 74.5611, -151.234
6.1049, 17, -47.3508, -15.4675, 38.6979, 31.3581, 74.6454, -151.005
6.11236, 17, -47.3068, -15.4895, 38.7658, 31.5009, 74.7288, -150.776
6.12146, 17, -47.2622, -15.5119, 38.8333, 31.6434, 74.812, -150.547
6.12842, 17, -47.2395, -15.5231, 38.867, 31.7147, 74.8531, -150.319
6.13726, 17, -47.1937, -15.5455, 38.9342, 31.9281, 74.9763, -150.093
6.14282, 18, -47.1473, -15.5684, 39.001, 31.9991, 75.0172, -149.98
6.15387, 18, -47.0766, -15.6028, 39.1007, 32.2117, 75.1385, -149.642
6.15986, 18, -47.0527, -15.6145, 39.1338, 32.2824, 75.1785, -149.53
6.16779, 18, -47.0046, -15.638, 39.1997, 32.4238, 75.2582, -149.307
6.17584, 18, -46.956, -15.6617, 39.2654, 32.565, 75.3374, -149.084
6.18386, 18, -46.9066, -15.6858, 39.3309, 32.7059, 75.4154, -148.863
6.19206, 19, -46.8566, -15.7104, 39.3963, 32.8468, 75.493, -148.642
6.19997, 19, -46.806, -15.735, 39.4615, 32.9873, 75.5697, -148.423
6.20692, 19, -46.7546, -15.7602, 39.5264, 33.1275, 75.646, -148.204
6.21591, 19, -46.7025, -15.7855, 39.5911, 33.2676, 75.7211, -147.987
6.22384, 19, -46.6497, -15.8112, 39.6556, 33.4073, 75.7959, -147.771
6.23189, 19, -46.5962, -15.8373, 39.7198, 33.5469, 75.8695, -147.556
6.23979, 20, -46.5421, -15.8637, 39.7839, 33.6861, 75.9429, -147.342
6.24797, 20, -46.4874, -15.8905, 39.8476, 33.825, 76.0146, -147.129
6.25669, 20, -46.4319, -15.9177, 39.9112, 33.9637, 76.0862, -146.918
6.26378, 20, -46.3759, -15.9454, 39.9745, 34.1017, 76.1565, -146.707
6.27194, 20, -46.3194, -15.9734, 40.0377, 34.2397, 76.2268, -146.497
6.28004, 21, -46.2621, -16.0017, 40.1006, 34.3773, 76.2953, -146.289
6.28779, 21, -46.2042, -16.0305, 40.1634, 34.5146, 76.3638, -146.081
6.2968, 21, -46.1455, -16.0597, 40.2259, 34.6513, 76.4308, -145.875
6.30379, 21, -46.0859, -16.0892, 40.2881, 34.7876, 76.4976, -145.669
6.31181, 21, -46.0257, -16.1192, 40.3499, 34.9236, 76.5633, -145.465
6.3208, 21, -45.9645, -16.1493, 40.4114, 35.0589, 76.6281, -145.262
6.33428, 22, -45.84, -16.2108, 40.5333, 35.3284, 76.7559, -144.857
6.33668, 22, -45.84, -16.2108, 40.5333, 35.3284, 76.7559, -144.857
6.34288, 22, -45.7766, -16.242, 40.5939, 35.4623, 76.8192, -144.656
6.35178, 22, -45.7125, -16.2735, 40.654, 35.5955, 76.8804, -144.456
6.35985, 22, -45.6476, -16.3053, 40.7138, 35.7281, 76.9418, -144.257
6.36799, 23, -45.582, -16.3375, 40.7732, 35.8601, 77.0022, -144.058
6.376, 23, -45.5154, -16.3698, 40.8321, 35.9914, 77.0617, -143.86
6.38385, 23, -45.4479, -16.4023, 40.8906, 36.1222, 77.1212, -143.662
6.39184, 23, -45.3796, -16.4352, 40.9487, 36.2523, 77.1787, -143.466
6.39982, 23, -45.3105, -16.4682, 41.0061, 36.3815, 77.2367, -143.269
6.40778, 23, -45.2405, -16.5014, 41.063, 36.5099, 77.2933, -143.074
6.41592, 24, -45.1695, -16.5348, 41.1194, 36.6374, 77.3494, -142.88
6.424, 24, -45.0977, -16.5684, 41.1751, 36.7642, 77.4057, -142.685
6.43105, 24, -45.0249, -16.6021, 41.2304, 36.8901, 77.4601, -142.491
6.43911, 24, -44.9511, -16.6359, 41.285, 37.0152, 77.5148, -142.297
6.44759, 24, -44.8766, -16.6699, 41.3389, 37.1393, 77.5687, -142.104
6.45691, 25, -44.8011, -16.704, 41.3922, 37.2624, 77.6215, -141.912
6.46386, 25, -44.7246, -16.7381, 41.4449, 37.3848, 77.6748, -141.72
6.47237, 25, -44.6473, -16.7723, 41.4968, 37.5059, 77.7265, -141.527
6.47933, 25, -44.5691, -16.8065, 41.5481, 37.6261, 77.7776, -141.335
6.48826, 25, -44.4899, -16.8406, 41.5986, 37.7453, 77.8291, -141.144
6.49538, 25, -44.45, -16.8748, 41.6484, 37.8635, 77.879, -140.952
6.50408, 26, -44.3284, -16.9088, 41.6973, 37.9809, 77.9288, -140.761
6.51242, 26, -44.2461, -16.9429, 41.7455, 38.0969, 77.9788, -140.571
6.52185, 26, -44.1628, -16.9768, 41.7928, 38.212, 78.027, -140.38
6.52878, 26, -44.0787, -17.0107, 41.8392, 38.326, 78.0751, -140.189
6.53591, 26, -43.9935, -17.0445, 41.885, 38.4388, 78.1233, -139.998
6.54425, 27, -43.9075, -17.0782, 41.9298, 38.5505, 78.1701, -139.808
6.55234, 27, -43.8204, -17.1117, 41.9739, 38.6612, 78.2167, -139.618
6.55878, 27, -43.7765, -17.1283, 41.9956, 38.7161, 78.2403, -139.523
6.56812, 27, -43.6434, -17.1783, 42.0593, 38.8793, 78.3093, -139.238
6.57476, 27, -43.5986, -17.1948, 42.0801, 38.9331, 78.3317, -139.142
6.58283, 27, -43.5082, -17.2277, 42.1211, 39.0397, 78.3769, -138.953
6.59237, 28, -43.3707, -17.2765, 42.1807, 39.1977, 78.4442, -138.668
6.60204, 28, -43.2776, -17.309, 42.2195, 39.3016, 78.4879, -138.479
6.60833, 28, -43.1837, -17.3411, 42.2572, 39.4043, 78.5319, -138.289
6.61639, 28, -43.0887, -17.3729, 42.2941, 39.5059, 78.5757, -138.099
6.62437, 28, -43.0409, -17.3887, 42.33, 39.6064, 78.6181, -137.91
6.6324, 29, -42.9444, -17.4203, 42.3475, 39.6563, 78.6605, -137.72
6.64038, 29, -42.8469, -17.4515, 42.3819, 39.7551, 78.6819, -137.625
6.64871, 29, -42.7485, -17.4825, 42.4155, 39.8528, 78.7446, -137.341
6.65728, 29, -42.599, -17.5284, 42.4639, 39.9971, 78.7856, -137.152
6.66277, 29, -42.5487, -17.5436, 42.4796, 40.0445, 78.8062, -137.057
6.67192, 29, -42.4474, -17.5738, 42.5102, 40.1386, 78.8475, -136.868
6.67985, 30, -42.3451, -17.6036, 42.5398, 40.2317, 78.8878, -136.679
6.68783, 30, -42.242, -17.633, 42.5685, 40.3236, 78.9273, -136.489
6.69573, 30, -42.138, -17.6621, 42.5962, 40.4142, 78.9671, -136.301
6.70382, 30, -42.0331, -17.691, 42.623, 40.5039, 79.0068, -136.112
6.71185, 30, -41.9272, -17.7194, 42.6489, 40.5924, 79.0454, -135.923
6.71994, 31, -41.8202, -17.7475, 42.6737, 40.6797, 79.0838, -135.734
6.72917, 31, -41.7124, -17.7753, 42.6975, 40.766, 79.1419, -135.451
6.73478, 31, -41.6037, -17.8028, 42.7204, 40.8513, 79.1609, -135.356
6.74523, 31, -41.4941, -17.8298, 42.7424, 40.9351, 79.198, -135.074
6.75178, 31, -41.3835, -17.8564, 42.7635, 41.018, 79.235, -134.979
6.75978, 31, -41.2721, -17.8827, 42.7835, 41.0997, 79.2723, -134.79
6.76958, 32, -41.1599, -17.9086, 42.8027, 41.1806, 79.3271, -134.508
6.77594, 32, -41.0469, -17.9343, 42.8209, 41.26, 79.3449, -134.414
6.78375, 32, -40.9331, -17.9594, 42.8379, 41.3388, 79.3806, -134.226
6.79586, 32, -40.7607, -17.9965, 42.862, 41.4549, 79.4347, -133.944
6.79995, 32, -40.7028, -18.0086, 42.8696, 41.4928, 79.4523, -133.85
6.80796, 33, -40.5864, -18.0326, 42.8838, 41.5682, 79.4868, -133.662
6.81585, 33, -40.469, -18.0564, 42.8971, 41.6425, 79.521, -133.474
6.82378, 33, -40.3508, -18.0796, 42.9097, 41.716, 79.5555, -133.287
6.83183, 33, -40.2319, -18.1025, 42.9211, 41.7881, 79.5897, -133.1
6.83977, 33, -40.1124, -18.125, 42.9316, 41.8594, 79.6229, -132.912
6.84799, 33, -39.9919, -18.1469, 42.9411, 41.9294, 79.6558, -132.725
6.85487, 34, -39.8706, -18.1687, 42.9497, 41.9985, 79.6888, -132.538
6.86377, 34, -39.7485, -18.1899, 42.9576, 42.0665, 79.722, -132.351
6.87184, 34, -39.6253, -18.2106, 42.9645, 42.1334, 79.7542, -132.165
6.87977, 34, -39.5013, -18.2311, 42.9704, 42.1998, 79.7858, -131.978
6.88777, 34, -39.3765, -18.2509, 42.9754, 42.2647, 79.8171, -131.792
6.89608, 35, -39.2511, -18.2704, 42.9795, 42.3291, 79.8488, -131.606
6.90776, 35, -39.0616, -18.299, 42.9839, 42.4231, 79.8956, -131.327
6.91178, 35, -38.998, -18.3083, 42.985, 42.4542, 79.9108, -131.234
6.91977, 35, -38.8703, -18.3264, 42.9863, 42.5147, 79.9411, -131.049
6.92798, 35, -38.7419, -18.3442, 42.9869, 42.5751, 79.9712, -130.863
6.93577, 35, -38.6124, -18.3616, 42.987, 42.6339, 80.0018, -130.678
6.94433, 36, -38.4823, -18.3784, 42.9865, 42.6917, 80.0316, -130.493
6.95357, 36, -38.3515, -18.3947, 42.985, 42.7491, 80.0609, -130.308
6.95929, 36, -38.2201, -18.4107, 42.9828, 42.8047, 80.0895, -130.123
6.96976, 36, -38.088, -18.4263, 42.9795, 42.8601, 80.1183, -129.939
6.97588, 36, -37.9551, -18.4411, 42.9752, 42.9141, 80.1473, -129.755
6.98394, 37, -37.8216, -18.4554, 42.9699, 42.9666, 80.1758, -129.571
6.99187, 37, -37.6874, -18.4694, 42.9636, 43.0193, 80.2037, -129.387
7.00003, 37, -37.5524, -18.4832, 42.9563, 43.0701, 80.2312, -129.203
7.00793, 37, -37.4167, -18.4961, 42.948, 43.1201, 80.2586, -129.02
7.01642, 37, -37.2803, -18.5085, 42.9388, 43.1699, 80.2861, -128.837
7.02425, 37, -37.1433, -18.5206, 42.9287, 43.2179, 80.3134, -128.654
7.03187, 38, -37.0056, -18.5324, 42.9176, 43.2648, 80.3399, -128.472
7.03877, 38, -36.9365, -18.5382, 42.9116, 43.2884, 80.353, -128.38
7.04679, 38, -36.7978, -18.5494, 42.8991, 43.3343, 80.3787, -128.198
7.05595, 38, -36.5881, -18.5646, 42.8789, 43.4006, 80.4173, -127.924
7.06416, 38, -36.4475, -18.5743, 42.8642, 43.4444, 80.4433, -127.743
7.07092, 39, -36.3769, -18.5789, 42.8564, 43.4658, 80.4561, -127.652
7.08047, 39, -36.1639, -18.592, 42.8317, 43.5275, 80.4937, -127.38
7.08676, 39, -36.0926, -18.5962, 42.823, 43.5477, 80.506, -127.29
7.09636, 39, -35.8779, -18.6082, 42.7958, 43.6078, 80.5426, -127.019
7.1051, 39, -35.7339, -18.6154, 42.7766, 43.6459, 80.5673, -126.838
7.11078, 39, -35.6617, -18.6188, 42.7667, 43.6646, 80.5796, -126.748
7.12079, 40, -35.4441, -18.628, 42.7356, 43.7202, 80.6161, -126.478
7.12696, 40, -35.3713, -18.6309, 42.7247, 43.7384, 80.6279, -126.388
7.13627, 40, -35.225, -18.6364, 42.7023, 43.7735, 80.6512, -126.209
7.14688, 40, -35.0046, -18.6437, 42.6672, 43.8238, 80.6855, -125.94
7.15261, 40, -34.9309, -18.6459, 42.6551, 43.8403, 80.7085, -125.761
7.16179, 41, -34.7084, -18.6518, 42.6175, 43.8892, 80.7315, -125.582
7.16777, 41, -34.6341, -18.6536, 42.6046, 43.9048, 80.7429, -125.493
7.17573, 41, -34.4851, -18.6567, 42.5781, 43.935, 80.7652, -125.315
7.18376, 41, -34.3352, -18.6594, 42.5508, 43.9641, 80.7871, -125.137
7.19175, 41, -34.1847, -18.6617, 42.5226, 43.9928, 80.8085, -124.96
7.1999, 41, -34.0338, -18.6636, 42.4936, 44.0209, 80.8299, -124.782
7.20673, 42, -33.8823, -18.6651, 42.4638, 44.0478, 80.8513, -124.605
7.21576, 42, -33.7301, -18.6661, 42.4333, 44.0734, 80.8729, -124.429
7.22377, 42, -33.5772, -18.6666, 42.4019, 44.0979, 80.8942, -124.253
7.23181, 42, -33.4235, -18.6668, 42.3697, 44.1215, 80.9149, -124.077
7.23877, 42, -33.2693, -18.6668, 42.3368, 44.1447, 80.9352, -123.901
7.2479, 43, -33.1145, -18.6665, 42.3032, 44.1672, 80.955, -123.725
7.25581, 43, -32.9591, -18.6658, 42.2687, 44.1886, 80.9747, -123.55
7.26275, 43, -32.803, -18.6645, 42.2335, 44.2087, 80.9944, -123.376
7.27176, 43, -32.6465, -18.6628, 42.1975, 44.2276, 81.0142, -123.201
7.28076, 43, -32.4892, -18.6605, 42.1606, 44.2455, 81.0337, -123.027
7.28782, 43, -32.3313, -18.6577, 42.123, 44.2626, 81.0528, -122.854
7.29596, 44, -32.173, -18.6543, 42.0847, 44.279, 81.0714, -122.68
7.30375, 44, -32.0141, -18.6505, 42.0455, 44.2946, 81.0896, -122.507
7.31183, 44, -31.8547, -18.6461, 42.0056, 44.3095, 81.1077, -122.334
7.32007, 44, -31.6949, -18.6412, 41.965, 44.3235, 81.1255, -122.162
7.32775, 44, -31.5346, -18.6357, 41.9235, 44.3361, 81.1434, -121.99
7.33573, 45, -31.3738, -18.6296, 41.8813, 44.3476, 81.1614, -121.818
7.34481, 45, -31.2124, -18.6231, 41.8384, 44.3579, 81.1792, -121.647
7.3519, 45, -31.0502, -18.6161, 41.7947, 44.3671, 81.1966, -121.475
7.35897, 45, -30.8873, -18.6087, 41.7502, 44.3754, 81.2135, -121.304
7.37117, 45, -30.6421, -18.5964, 41.6821, 44.3858, 81.2381, -121.048
7.37589, 45, -30.5599, -18.5919, 41.659, 44.3888, 81.2461, -120.963
7.38377, 46, -30.3952, -18.5828, 41.6123, 44.3939, 81.2621, -120.793
7.39183, 46, -30.2299, -18.5731, 41.5648, 44.398, 81.2782, -120.624
7.39976, 46, -30.0641, -18.563, 41.5165, 44.4012, 81.2944, -120.454
7.40786, 46, -29.8977, -18.5524, 41.4674, 44.4033, 81.3106, -120.285
7.41577, 46, -29.7307, -18.5413, 41.4176, 44.4045, 81.3266, -120.116
7.42399, 47, -29.5629, -18.5294, 41.3669, 44.4051, 81.3423, -119.948
7.43176, 47, -29.3946, -18.5169, 41.3155, 44.4051, 81.3577, -119.779
7.43982, 47, -29.2256, -18.5037, 41.2632, 44.4046, 81.3727, -119.612
7.44782, 47, -29.0561, -18.4902, 41.2102, 44.4027, 81.3876, -119.444
7.45591, 47, -28.8861, -18.4762, 41.1563, 44.3996, 81.4023, -119.276
7.46385, 47, -28.7157, -18.4612, 41.1017, 44.3952, 81.4171, -119.108
7.47171, 48, -28.5445, -18.4457, 41.0462, 44.3896, 81.432, -118.941
7.48098, 48, -28.3729, -18.4299, 40.99, 44.3828, 81.447, -118.774
7.48787, 48, -28.2007, -18.4136, 40.933, 44.3748, 81.4623, -118.608
7.49587, 48, -28.0281, -18.3963, 40.8751, 44.3656, 81.4774, -118.442
7.50388, 48, -27.855, -18.3785, 40.8164, 44.3552, 81.4922, -118.275
7.51193, 49, -27.6809, -18.3602, 40.7568, 44.3434, 81.5067, -118.109
7.52002, 49, -27.5059, -18.3411, 40.6963, 44.3302, 81.521, -117.943
7.52869, 49, -27.3301, -18.3212, 40.6349, 44.3155, 81.5352, -117.777
7.53585, 49, -27.1538, -18.3008, 40.5727, 44.2992, 81.5495, -117.612
7.54525, 49, -26.9771, -18.2796, 40.5095, 44.2815, 81.5639, -117.446
7.55402, 50, -26.7996, -18.2576, 40.4455, 44.2628, 81.5785, -117.281
7.56003, 50, -26.6216, -18.235, 40.3807, 44.2431, 81.5935, -117.115
7.56674, 50, -26.5323, -18.2235, 40.3479, 44.2328, 81.601, -117.033
7.57774, 50, -26.2634, -18.1878, 40.2484, 44.2002, 81.6237, -116.785
7.58501, 50, -26.0831, -18.163, 40.1809, 44.1765, 81.6387, -116.62
7.59221, 50, -25.9022, -18.1375, 40.1125, 44.151, 81.6536, -116.455
7.59888, 51, -25.8115, -18.1245, 40.0779, 44.1379, 81.6611, -116.373
7.60914, 51, -25.5388, -18.0843, 39.9728, 44.0972, 81.6836, -116.125
7.61482, 51, -25.4478, -18.0705, 39.9373, 44.0831, 81.6911, -116.043
7.62434, 51, -25.1741, -18.0282, 39.8293, 44.0386, 81.7143, -115.796
7.6324, 51, -24.9908, -17.9989, 39.7563, 44.0063, 81.7302, -115.631
7.64034, 51, -24.8988, -17.984, 39.7194, 43.9898, 81.7465, -115.467
7.64857, 52, -24.7142, -17.9537, 39.6451, 43.9563, 81.7631, -115.302
7.65577, 52, -24.5285, -17.9225, 39.5698, 43.9216, 81.7714, -115.22
7.66378, 52, -24.342, -17.8904, 39.4936, 43.8851, 81.7879, -115.056
7.67179, 52, -24.1548, -17.8575, 39.4164, 43.8467, 81.8044, -114.891
7.67873, 52, -23.9669, -17.8239, 39.3383, 43.8078, 81.8208, -114.727
7.68772, 53, -23.7785, -17.7895, 39.2591, 43.7676, 81.8373, -114.562
7.69589, 53, -23.5894, -17.7542, 39.179, 43.7252, 81.8542, -114.398
7.70522, 53, -23.3998, -17.6998, 39.0571, 43.6596, 81.8804, -114.152
7.71073, 53, -23.2095, -17.6814, 39.0161, 43.6373, 81.8894, -114.07
7.72131, 53, -22.9223, -17.6247, 38.8917, 43.5669, 81.9168, -113.823
7.72929, 53, -22.8262, -17.6054, 38.8498, 43.519, 81.9349, -113.659
7.73575, 54, -22.6334, -17.5663, 38.7652, 43.4946, 81.944, -113.577
7.74639, 54, -22.3436, -17.5061, 38.6364, 43.4176, 81.9714, -113.33
7.75181, 54, -22.2468, -17.4856, 38.593, 43.3915, 81.9807, -113.248
7.75974, 54, -22.0528, -17.4442, 38.5054, 43.3385, 81.9996, -113.084
7.7668, 54, -21.8583, -17.4019, 38.4171, 43.2829, 82.019, -112.92
7.77596, 55, -21.6627, -17.3588, 38.328, 43.2269, 82.039, -112.756
7.78274, 55, -21.4662, -17.3149, 38.2381, 43.1692, 82.0592, -112.592
7.79173, 55, -21.2686, -17.2702, 38.1472, 43.1094, 82.0792, -112.428
7.79982, 55, -21.0699, -17.2246, 38.0555, 43.049, 82.0993, -112.264
7.80791, 55, -20.8706, -17.1784, 37.9627, 42.9858, 82.1194, -112.099
7.81576, 55, -20.6708, -17.1312, 37.869, 42.9224, 82.1398, -111.936
7.82391, 56, -20.4706, -17.0834, 37.7744, 42.8565, 82.1608, -111.772
7.83181, 56, -20.2696, -17.035, 37.6791, 42.7895, 82.1823, -111.608
7.83974, 56, -20.0675, -16.9858, 37.5831, 42.7209, 82.2041, -111.445
7.84774, 56, -19.8645, -16.9359, 37.4863, 42.6508, 82.2257, -111.281
7.85576, 56, -19.6606, -16.8853, 37.3885, 42.5793, 82.2474, -111.117
7.86374, 57, -19.4563, -16.834, 37.2898, 42.5059, 82.2691, -110.954
7.87253, 57, -19.2517, -16.7821, 37.19, 42.4311, 82.2913, -110.79
7.87906, 57, -19.0468, -16.7295, 37.0896, 42.3547, 82.314, -110.627
7.88773, 57, -18.8414, -16.6762, 36.9885, 42.2765, 82.3373, -110.463
7.89592, 57, -18.6353, -16.6222, 36.8867, 42.197, 82.3606, -110.299
7.9039, 57, -18.4281, -16.5674, 36.7842, 42.1156, 82.3838, -110.136
7.91177, 58, -18.2193, -16.5118, 36.6807, 42.0329, 82.407, -109.973
7.92085, 58, -18.0092, -16.4555, 36.5763, 41.9482, 82.4305, -109.81
7.92774, 58, -17.7982, -16.3986, 36.4709, 41.862, 82.4546, -109.647
7.93583, 58, -17.5868, -16.3409, 36.3649, 41.7744, 82.4793, -109.484
7.94374, 58, -17.3749, -16.2827, 36.2584, 41.6848, 82.504, -109.321
7.95517, 59, -17.0554, -16.1942, 36.0973, 41.5475, 82.5411, -109.076
7.95996, 59, -16.9483, -16.1644, 36.0432, 41.5009, 82.5535, -108.995
7.96783, 59, -16.7336, -16.1043, 35.9342, 41.4064, 82.5786, -108.832
7.97591, 59, -16.518, -16.0436, 35.8242, 41.3101, 82.6044, -108.669
7.98384, 59, -16.3014, -15.9822, 35.7136, 41.2121, 82.6309, -108.506
7.99193, 59, -16.0844, -15.9202, 35.6024, 41.1122, 82.6572, -108.344
7.99948, 60, -15.8675, -15.8576, 35.4907, 41.0105, 82.6834, -108.181
8.00784, 60, -15.6508, -15.7942, 35.3782, 40.9073, 82.7096, -108.018
8.01593, 60, -15.433, -15.7299, 35.2647, 40.8023, 82.7365, -107.855
8.02445, 60, -15.2135, -15.6649, 35.1502, 40.6954, 82.7641, -107.692
8.03183, 60, -14.9922, -15.5992, 35.035, 40.587, 82.7919, -107.53
8.04, 61, -14.7698, -15.5327, 34.9194, 40.4765, 82.8197, -107.367
8.04693, 61, -14.6582, -15.4991, 34.8614, 40.4205, 82.8337, -107.286
8.05599, 61, -14.3217, -15.3977, 34.6863, 40.25, 82.8761, -107.041
8.06398, 61, -14.0961, -15.3292, 34.5683, 40.1341, 82.9054, -106.878
8.07212, 61, -13.8698, -15.26, 34.4495, 40.0164, 82.9351, -106.715
8.08055, 62, -13.6425, -15.1902, 34.3299, 39.8967, 82.9648, -106.552
8.08859, 62, -13.414, -15.1196, 34.2099, 39.7753, 82.9944, -106.39
8.09731, 62, -13.1849, -15.0484, 34.0893, 39.6518, 83.0248, -106.226
8.10425, 62, -12.9558, -14.9765, 33.9679, 39.5262, 83.0561, -106.063
8.11315, 62, -12.7268, -14.9037, 33.8454, 39.3987, 83.0876, -105.899
8.11872, 62, -12.6121, -14.867, 33.7838, 39.3343, 83.1034, -105.818
8.12693, 63, -12.3819, -14.7931, 33.6602, 39.204, 83.1351, -105.654
8.13472, 63, -12.1503, -14.7183, 33.536, 39.0718, 83.1675, -105.49
8.1443, 63, -11.9176, -14.6428, 33.4112, 38.9376, 83.2011, -105.327
8.15173, 63, -11.6835, -14.5665, 33.2857, 38.8013, 83.2351, -105.163
8.15974, 63, -11.4477, -14.4894, 33.1592, 38.663, 83.2689, -104.999
8.16859, 64, -11.2103, -14.4114, 33.0319, 38.5227, 83.3209, -104.752
8.17588, 64, -10.9719, -14.3327, 32.9039, 38.3804, 83.3389, -104.67
8.18373, 64, -10.732, -14.2531, 32.7753, 38.2362, 83.3752, -104.505
8.19177, 64, -10.4904, -14.1726, 32.646, 38.0899, 83.4115, -104.34
8.2019, 64, -10.1255, -14.0502, 32.4506, 37.8663, 83.4671, -104.093
8.20783, 64, -10.0038, -14.009, 32.3851, 37.7907, 83.4864, -104.01
8.21573, 65, -9.76072, -13.9259, 32.2535, 37.6379, 83.5253, -103.844
8.22387, 65, -9.51803, -13.8418, 32.1212, 37.4832, 83.564, -103.678
8.23177, 65, -9.27533, -13.7569, 31.9882, 37.3263, 83.6036, -103.512
8.23972, 65, -9.03178, -13.671, 31.8545, 37.1675, 83.6448, -103.345
8.24781, 65, -8.78645, -13.5841, 31.7202, 37.0065, 83.6865, -103.178
8.25576, 66, -8.53907, -13.4963, 31.5851, 36.8434, 83.7282, -103.012
8.26372, 66, -8.2903, -13.4076, 31.4493, 36.6784, 83.7714, -102.844
8.27188, 66, -8.04049, -13.3181, 31.3128, 36.5113, 83.8157, -102.677
8.27999, 66, -7.78899, -13.2276, 31.1756, 36.3422, 83.8598, -102.509
8.28772, 66, -7.53512, -13.1362, 31.038, 36.1709, 83.905, -102.341
8.2959, 66, -7.2794, -13.0438, 30.8997, 35.9974, 83.9517, -102.172
8.304, 67, -7.02273, -12.9504, 30.7607, 35.8219, 83.9983, -102.004
8.31174, 67, -6.76578, -12.8561, 30.6209, 35.6443, 84.0462, -101.834
8.32059, 67, -6.509, -12.7608, 30.4805, 35.4647, 84.0956, -101.665
8.32774, 67, -6.25247, -12.6644, 30.3398, 35.2828, 84.1448, -101.495
8.33572, 67, -5.99531, -12.5671, 30.1985, 35.0989, 84.1952, -101.324
8.34475, 68, -5.73691, -12.4689, 30.0567, 34.9131, 84.2472, -101.154
8.35586, 68, -5.34701, -12.3198, 29.8426, 34.6304, 84.3254, -100.898
8.35972, 68, -5.21654, -12.2697, 29.771, 34.5351, 84.3526, -100.812
8.37024, 68, -4.95445, -12.1176, 29.5557, 34.2463, 84.4343, -100.555
8.37573, 68, -4.69033, -12.0664, 29.4837, 34.149, 84.4617, -100.469
8.38379, 68, -4.42418, -11.9634, 29.3392, 33.9528, 84.5184, -100.297
8.39173, 69, -4.15603, -11.8594, 29.1943, 33.7549, 84.5752, -100.124
8.40156, 69, -3.88648, -11.7545, 29.0492, 33.5546, 84.6332, -99.9514
8.40779, 69, -3.61668, -11.6488, 28.9038, 33.3526, 84.6926, -99.7785
8.41575, 69, -3.34737, -11.5421, 28.7579, 33.1486, 84.7518, -99.6051
8.42394, 69, -3.07784, -11.4342, 28.6115, 32.9429, 84.8133, -99.4313
8.43126, 70, -2.80712, -11.3254, 28.4646, 32.7351, 84.8747, -99.2571
8.43973, 70, -2.53539, -11.2157, 28.3178, 32.5253, 84.9377, -99.0827
8.44779, 70, -2.26302, -11.1051, 28.1707, 32.3139, 85.0015, -98.908
8.45574, 70, -1.99, -10.9937, 28.0232, 32.1004, 85.0657, -98.7329
8.46395, 70, -1.71585, -10.8814, 27.8753, 31.8852, 85.1317, -98.5579
8.47202, 70, -1.44026, -10.768, 27.7276, 31.6682, 85.1978, -98.3824
8.48047, 71, -1.16241, -10.6535, 27.5799, 31.4494, 85.2662, -98.2064
8.48817, 71, -0.882537, -10.5382, 27.4319, 31.229, 85.3342, -98.0301
8.49532, 71, -0.602233, -10.422, 27.2836, 31.0065, 85.4043, -97.8536
8.50384, 71, -0.321804, -10.305, 27.1351, 30.7824, 85.4745, -97.6766
8.51191, 71, -0.040902, -10.1872, 26.9869, 30.5567, 85.5466, -97.4996
8.51992, 72, 0.240715, -10.0683, 26.8385, 30.3294, 85.6188, -97.322
8.52805, 72, 0.523098, -9.94846, 26.6901, 30.1005, 85.6926, -97.1441
8.53583, 72, 0.806139, -9.82773, 26.5415, 29.87, 85.767, -96.9658
8.54451, 72, 1.08939, -9.70613, 26.3931, 29.638, 85.8426, -96.7871
8.55271, 72, 1.37309, -9.58369, 26.2449, 29.4046, 85.9186, -96.6083
8.5599, 72, 1.65835, -9.46037, 26.0966, 29.1696, 85.9963, -96.4294
8.56906, 73, 1.9454, -9.33617, 25.9485, 28.9333, 86.0746, -96.2502
8.58015, 73, 2.23346, -9.21075, 25.8004, 28.5761, 86.1941, -95.9804
8.58425, 73, 2.52195, -9.0844, 25.6528, 28.4564, 86.2345, -95.8904
8.59222, 73, 2.81089, -8.95715, 25.5053, 28.2161, 86.3162, -95.71
8.60082, 73, 3.10013, -8.82895, 25.3579, 27.9745, 86.399, -95.5293
8.60826, 74, 3.39048, -8.69989, 25.2105, 27.7318, 86.4827, -95.3485
8.6163, 74, 3.68187, -8.56969, 25.0637, 27.4877, 86.5675, -95.167
8.62495, 74, 3.97324, -8.43847, 24.9174, 27.2424, 86.6533, -94.9852
8.63228, 74, 4.11875, -8.3725, 24.7711, 26.996, 86.7405, -94.8029
8.64037, 74, 4.40993, -8.23973, 24.6249, 26.7488, 86.8285, -94.6205
8.64856, 74, 4.70195, -8.03907, 24.4792, 26.5006, 86.9179, -94.4375
8.65568, 75, 4.99491, -7.97175, 24.4065, 26.3762, 86.963, -94.346
8.66374, 75, 5.28885, -7.8363, 24.2616, 26.1267, 87.054, -94.163
8.67173, 75, 5.58307, -7.69964, 24.1171, 25.8764, 87.1464, -93.9793
8.67976, 75, 5.87705, -7.56191, 23.9728, 25.6252, 87.2399, -93.7952
8.68671, 75, 6.1711, -7.42318, 23.8288, 25.3735, 87.3346, -93.6108
8.69586, 76, 6.46615, -7.2836, 23.6855, 25.1211, 87.4303, -93.4262
8.70589, 76, 6.76187, -7.07207, 23.4716, 24.7414, 87.5766, -93.1487
8.71172, 76, 7.05732, -7.00094, 23.4005, 24.6146, 87.6258, -93.056
8.72113, 76, 7.50002, -6.78589, 23.1878, 24.2334, 87.7754, -92.7769
8.72673, 76, 7.64757, -6.7137, 23.1171, 24.1061, 87.8261, -92.6836
8.73571, 76, 7.94328, -6.56867, 22.9764, 23.8512, 87.9283, -92.4966
8.74537, 77, 8.38859, -6.34916, 22.7665, 23.4684, 88.0842, -92.2156
8.75191, 77, 8.53694, -6.27532, 22.6968, 23.3406, 88.1368, -92.1219
8.7597, 77, 8.83286, -6.12671, 22.5578, 23.085, 88.2427, -91.934
8.77184, 77, 9.27635, -5.90166, 22.3506, 22.702, 88.4045, -91.6512
8.77586, 77, 9.42443, -5.82623, 22.2819, 22.5743, 88.459, -91.5566
8.78369, 78, 9.72104, -5.67441, 22.1449, 22.3187, 88.569, -91.3672
8.79178, 78, 10.0174, -5.52101, 22.0087, 22.0634, 88.6805, -91.1773
8.79973, 78, 10.3129, -5.36646, 21.873, 21.8083, 88.7931, -90.9871
8.80782, 78, 10.6075, -5.21077, 21.738, 21.5535, 88.907, -90.7963
8.81571, 78, 10.9022, -5.05422, 21.6037, 21.299, 89.0226, -90.6049
8.82393, 78, 11.1975, -4.89664, 21.4702, 21.045, 89.1391, -90.413
8.83175, 79, 11.4928, -4.73753, 21.3374, 20.7913, 89.2572, -90.2206
8.83971, 79, 11.7871, -4.57722, 21.2053, 20.5382, 89.3765, -90.0278
8.84777, 79, 12.0805, -4.41601, 21.074, 20.2856, 89.497, -89.8346
8.85571, 79, 12.3735, -4.25385, 20.9434, 20.0337, 89.6193, -89.6409
8.86372, 79, 12.6661, -4.09001, 20.8136, 19.7827, 89.7427, -89.4466
8.87194, 80, 12.9582, -3.92441, 20.6846, 19.5325, 89.8677, -89.2514
8.87968, 80, 13.249, -3.75758, 20.5564, 19.2833, 89.9938, -89.056
8.8877, 80, 13.5386, -3.5899, 20.4289, 19.0349, 90.1214, -88.8599
8.89571, 80, 13.8278, -3.42102, 20.3022, 18.7875, 90.2505, -88.6635
8.90378, 80, 14.1176, -3.25024, 20.1763, 18.5414, 90.3809, -88.4661
8.91171, 80, 14.4069, -3.07795, 20.0514, 18.2965, 90.5129, -88.268
8.91991, 81, 14.6951, -2.90473, 19.9272, 18.0526, 90.6461, -88.0692
8.92845, 81, 14.9819, -2.73069, 19.8037, 17.8102, 90.7809, -87.8698
8.93572, 81, 15.2675, -2.5549, 19.6809, 17.5693, 90.9167, -87.67
8.94492, 81, 15.5523, -2.37722, 19.559, 17.3297, 91.0544, -87.4696
8.95375, 81, 15.8364, -2.19825, 19.4379, 17.0916, 91.1933, -87.2684
8.95977, 82, 16.1191, -2.01862, 19.3176, 16.8548, 91.3339, -87.0663
8.96775, 82, 16.4, -1.83766, 19.1979, 16.6198, 91.476, -86.8637
8.97599, 82, 16.6797, -1.65458, 19.0788, 16.3865, 91.6196, -86.6602
8.98386, 82, 16.9591, -1.46978, 18.9607, 16.155, 91.7645, -86.4561
8.99201, 82, 17.2381, -1.28406, 18.8435, 15.9255, 91.9111, -86.251
9, 82, 17.5161, -1.09698, 18.7272, 15.698, 92.0589, -86.0452
9.0079, 83, 17.7928, -0.907694, 18.6116, 15.4722, 92.2087, -85.8383
9.01629, 83, 18.0672, -0.716546, 18.4964, 15.2485, 92.3596, -85.6309
9.02382, 83, 18.3396, -0.524593, 18.3818, 15.027, 92.5124, -85.4226
9.03249, 83, 18.6106, -0.331436, 18.2682, 14.8076, 92.6663, -85.2137
9.03977, 83, 18.8801, -0.136312, 18.1556, 14.5904, 92.822, -85.0036
9.04811, 84, 19.1475, 0.0603036, 18.0437, 14.3755, 92.9789, -84.7924
9.05687, 84, 19.4129, 0.257823, 17.9323, 14.1629, 93.1377, -84.5807
9.06392, 84, 19.6774, 0.457061, 17.8213, 13.9528, 93.2977, -84.3681
9.07198, 84, 19.9413, 0.65846, 17.7111, 13.7449, 93.4591, -84.1549
9.07873, 84, 20.073, 0.759774, 17.6564, 13.6419, 93.5403, -84.0478
9.0881, 84, 20.467, 1.06515, 17.4936, 13.3368, 93.7863, -83.7249
9.09649, 85, 20.7274, 1.27066, 17.3862, 13.1365, 93.9519, -83.5085
9.10538, 85, 20.9853, 1.47811, 17.2791, 12.939, 94.1189, -83.2911
9.11223, 85, 21.2407, 1.68678, 17.1725, 12.744, 94.2871, -83.0732
9.12109, 85, 21.4942, 1.89687, 17.0667, 12.5519, 94.4564, -82.8543
9.12669, 85, 21.6204, 2.00265, 17.0142, 12.4569, 94.5416, -82.7443
9.1362, 86, 21.8707, 2.21552, 16.91, 12.2691, 94.799, -82.4132
9.14525, 86, 22.2414, 2.53636, 16.7553, 11.9927, 94.9723, -82.1912
9.15335, 86, 22.364, 2.64399, 16.6528, 11.812, 95.1468, -81.9685
9.15969, 86, 22.6084, 2.86069, 16.6018, 11.7227, 95.2344, -81.8568
9.17011, 86, 22.9731, 3.18797, 16.4498, 11.4596, 95.4993, -81.5199
9.1759, 86, 23.0941, 3.2977, 16.3997, 11.3733, 95.588, -81.4072
9.18369, 87, 23.3353, 3.51868, 16.3003, 11.2031, 95.7665, -81.1814
9.1917, 87, 23.5743, 3.74117, 16.202, 11.0359, 95.9458, -80.9548
9.19969, 87, 23.8102, 3.96411, 16.1044, 10.8718, 96.1258, -80.7274
9.2077, 87, 24.0433, 4.18802, 16.0074, 10.7108, 96.3067, -80.4988
9.21468, 87, 24.2742, 4.41327, 15.9112, 10.5529, 96.488, -80.2695
9.22384, 88, 24.5029, 4.63884, 15.8159, 10.3981, 96.67, -80.0396
9.23168, 88, 24.7292, 4.86504, 15.7219, 10.2463, 96.8525, -79.8093
9.23874, 88, 24.9533, 5.09275, 15.629, 10.0977, 97.0353, -79.5779
9.24769, 88, 25.1756, 5.3212, 15.5371, 9.95227, 97.2186, -79.3457
9.25582, 88, 25.3963, 5.54993, 15.4461, 9.81004, 97.4022, -79.1127
9.26393, 89, 25.6152, 5.77977, 15.3559, 9.67095, 97.5861, -78.8792
9.27185, 89, 25.8323, 6.01032, 15.2667, 9.53524, 97.7701, -78.6453
9.27974, 89, 26.048, 6.24119, 15.1787, 9.40239, 97.954, -78.4109
9.28874, 89, 26.2615, 6.47318, 15.0918, 9.27293, 98.1382, -78.1754
9.29569, 89, 26.4729, 6.70613, 15.0061, 9.14668, 98.3225, -77.9395
9.30371, 89, 26.682, 6.93902, 14.9215, 9.02362, 98.5072, -77.703
9.3118, 90, 26.8887, 7.17254, 14.838, 8.90384, 98.6916, -77.4662
9.31985, 90, 27.093, 7.40681, 14.7556, 8.78711, 98.8763, -77.2284
9.32873, 90, 27.2952, 7.64124, 14.6742, 8.6738, 99.0607, -76.9901
9.33571, 90, 27.4947, 7.87648, 14.5939, 8.56352, 99.2449, -76.7514
9.34641, 90, 27.7897, 8.23106, 14.4754, 8.40402, 99.5208, -76.3926
9.35189, 91, 27.887, 8.34908, 14.4365, 8.35236, 99.6126, -76.2726
9.35981, 91, 28.0802, 8.58527, 14.3596, 8.25157, 99.7962, -76.0322
9.3677, 91, 28.2714, 8.82219, 14.2837, 8.15406, 99.9795, -75.7912
9.37572, 91, 28.4607, 9.05901, 14.2089, 8.05989, 100.163, -75.5497
9.38371, 91, 28.6486, 9.29612, 14.1351, 7.96877, 100.346, -75.308
9.39175, 91, 28.8347, 9.5344, 14.0623, 7.88078, 100.528, -75.0654
9.39968, 92, 29.0188, 9.77283, 13.9904, 7.79608, 100.711, -74.822
9.4077, 92, 29.2009, 10.0112, 13.9194, 7.71435, 100.894, -74.5781
9.41576, 92, 29.3808, 10.2502, 13.8494, 7.63578, 101.076, -74.3337
9.42381, 92, 29.5589, 10.4895, 13.7804, 7.56062, 101.258, -74.0889
9.43169, 92, 29.7348, 10.7289, 13.7124, 7.4885, 101.44, -73.8429
9.43991, 93, 29.9083, 10.9695, 13.6454, 7.41943, 101.622, -73.5962
9.44776, 93, 30.0795, 11.2104, 13.5793, 7.35388, 101.803, -73.3488
9.45569, 93, 30.2482, 11.451, 13.5139, 7.29114, 101.985, -73.1008
9.46378, 93, 30.4145, 11.6922, 13.4495, 7.23251, 102.166, -72.8517
9.47191, 93, 30.5786, 11.934, 13.386, 7.17589, 102.347, -72.6018
9.47982, 93, 30.7405, 12.1761, 13.3234, 7.12346, 102.528, -72.3513
9.48783, 94, 30.9004, 12.4195, 13.2616, 7.0741, 102.709, -72.0999
9.49608, 94, 31.0587, 12.6639, 13.2007, 7.02717, 102.889, -71.848
9.50331, 94, 31.215, 12.9081, 13.1406, 6.9844, 103.07, -71.595
9.51186, 94, 31.3696, 13.1526, 13.0815, 6.94481, 103.25, -71.3411
9.52046, 94, 31.5223, 13.3972, 13.0233, 6.9077, 103.429, -71.0866
9.52769, 95, 31.6732, 13.6415, 12.9661, 6.87381, 103.609, -70.8315
9.53571, 95, 31.8222, 13.8865, 12.9098, 6.84375, 103.788, -70.5753
9.54465, 95, 31.9695, 14.1319, 12.8544, 6.81697, 103.966, -70.3183
9.55175, 95, 32.1152, 14.3768, 12.7999, 6.79324, 104.144, -70.0608
9.56065, 95, 32.2589, 14.622, 12.7463, 6.77213, 104.321, -69.8027
9.56879, 95, 32.4006, 14.8673, 12.6937, 6.75398, 104.498, -69.5438
9.57594, 96, 32.54, 15.1121, 12.6422, 6.73869, 104.674, -69.284
9.58494, 96, 32.6769, 15.3571, 12.5918, 6.72666, 104.849, -69.0236
9.5921, 96, 32.8118, 15.6025, 12.5422, 6.71781, 105.023, -68.7627
9.60018, 96, 32.9448, 15.8472, 12.4937, 6.71209, 105.197, -68.5011
9.60822, 96, 33.0758, 16.0919, 12.4463, 6.70917, 105.369, -68.2389
9.61733, 97, 33.2045, 16.3366, 12.4, 6.70826, 105.541, -67.9762
9.62432, 97, 33.3313, 16.5806, 12.3549, 6.70976, 105.711, -67.7132
9.63227, 97, 33.4559, 16.8248, 12.3109, 6.71453, 105.881, -67.4499
9.64027, 97, 33.5175, 16.9471, 12.2679, 6.72247, 106.05, -67.1858
9.64666, 97, 33.6396, 17.1914, 12.2469, 6.72762, 106.134, -67.0535
9.65472, 97, 33.7604, 17.4348, 12.2054, 6.74041, 106.301, -66.7888
9.66563, 98, 33.939, 17.7999, 12.1453, 6.76585, 106.55, -66.391
9.67174, 98, 33.9978, 17.9211, 12.1259, 6.77576, 106.632, -66.2581
9.67871, 98, 34.1141, 18.1632, 12.0877, 6.79744, 106.796, -65.9919
9.68768, 98, 34.2288, 18.4057, 12.0504, 6.82147, 106.959, -65.7253
9.69468, 98, 34.3419, 18.6481, 12.0144, 6.84793, 107.121, -65.4584
9.70364, 99, 34.4537, 18.8894, 11.9793, 6.87754, 107.281, -65.1912
9.7117, 99, 34.5642, 19.1307, 11.9452, 6.9105, 107.441, -64.923
9.71871, 99, 34.6733, 19.3714, 11.9122, 6.94561, 107.599, -64.6544
9.72767, 99, 34.7809, 19.6113, 11.8802, 6.98269, 107.757, -64.3856
9.73573, 99, 34.8865, 19.8512, 11.8491, 7.02234, 107.913, -64.1163
9.74404, 99, 34.9903, 20.0906, 11.8192, 7.06538, 108.067, -63.8463
9.75174, 100, 35.0923, 20.3284, 11.7905, 7.10997, 108.221, -63.5763
9.75973, 100, 35.193, 20.5656, 11.7629, 7.15707, 108.372, -63.3062
9.76679, 100, 35.2922, 20.8019, 11.7364, 7.20726, 108.523, -63.0364
9.77573, 100, 35.3901, 21.037, 11.7113, 7.25883, 108.671, -62.7665
9.78527, 100, 35.4867, 21.2715, 11.6875, 7.31246, 108.818, -62.4967
9.79164, 101, 35.5818, 21.5056, 11.665, 7.36893, 108.962, -62.2273
9.79978, 101, 35.6755, 21.7379, 11.6439, 7.42613, 109.104, -61.9588
9.80768, 101, 35.7679, 21.9685, 11.6243, 7.48622, 109.244, -61.6908
9.81573, 101, 35.8591, 22.1979, 11.6062, 7.54729, 109.381, -61.4239
9.82373, 101, 35.9494, 22.4252, 11.5894, 7.61038, 109.515, -61.1582
9.83166, 101, 36.0388, 22.6506, 11.574, 7.67509, 109.647, -60.8937
9.8397, 102, 36.1271, 22.8749, 11.5601, 7.7411, 109.776, -60.6301
9.84774, 102, 36.2144, 23.0977, 11.5476, 7.80895, 109.902, -60.3671
9.85567, 102, 36.3004, 23.3186, 11.5364, 7.87758, 110.026, -60.1053
9.86367, 102, 36.3854, 23.5389, 11.5261, 7.94838, 110.147, -59.8441
9.8717, 102, 36.4694, 23.7588, 11.5169, 8.02026, 110.267, -59.5833
9.87966, 103, 36.5522, 23.9778, 11.5085, 8.09451, 110.386, -59.3219
9.8877, 103, 36.6343, 24.1964, 11.5009, 8.17041, 110.504, -59.06
9.89571, 103, 36.7155, 24.4145, 11.494, 8.24897, 110.622, -58.7975
9.90366, 103, 36.7959, 24.6304, 11.4878, 8.32962, 110.739, -58.5341
9.9117, 103, 36.8756, 24.8433, 11.4826, 8.41251, 110.855, -58.27
9.91971, 103, 36.9544, 25.0538, 11.4786, 8.49752, 110.969, -58.0065
9.92771, 104, 37.0323, 25.2612, 11.4761, 8.58427, 111.079, -57.745
9.9357, 104, 37.1092, 25.4656, 11.4753, 8.67262, 111.183, -57.4871
9.9437, 104, 37.185, 25.6679, 11.4765, 8.76185, 111.281, -57.2331
9.9517, 104, 37.2596, 25.8687, 11.4801, 8.85205, 111.372, -56.9839
9.95969, 104, 37.3333, 26.0664, 11.4859, 8.94286, 111.457, -56.7396
9.96771, 104, 37.4063, 26.2602, 11.4934, 9.03401, 111.535, -56.4991
9.97577, 104, 37.4787, 26.4512, 11.5023, 9.12617, 111.61, -56.2622
9.98379, 104, 37.5506, 26.6398, 11.5122, 9.21898, 111.681, -56.027
9.99178, 104, 37.6221, 26.8251, 11.5224, 9.31233, 111.751, -55.7934
9.99982, 104, 37.6931, 27.0081, 11.5329, 9.40673, 111.819, -55.5607
10.0078, 104, 37.7637, 27.1905, 11.5436, 9.50185, 111.887, -55.329
10.0158, 104, 37.8338, 27.3726, 11.5542, 9.59773, 111.954, -55.0975
10.0238, 104, 37.9035, 27.5542, 11.5648, 9.69454, 112.022, -54.8661
10.0317, 104, 37.9729, 27.7356, 11.5753, 9.79225, 112.088, -54.6353
10.0397, 104, 38.0421, 27.9176, 11.5857, 9.89069, 112.155, -54.405
10.0478, 104, 38.1111, 28.1001, 11.5961, 9.98975, 112.221, -54.1753
10.0558, 104, 38.1798, 28.2825, 11.6064, 10.0901, 112.287, -53.9458
10.0639, 104, 38.2484, 28.4651, 11.6168, 10.191, 112.353, -53.7164
10.0721, 104, 38.3165, 28.6485, 11.6271, 10.293, 112.419, -53.4874
10.0787, 104, 38.3504, 28.7405, 11.6321, 10.3443, 112.452, -53.373
10.0881, 104, 38.4517, 29.0163, 11.6475, 10.499, 112.549, -53.0307
10.0961, 104, 38.5188, 29.1997, 11.6576, 10.6034, 112.615, -52.8027
10.1048, 104, 38.5856, 29.3837, 11.6677, 10.7084, 112.679, -52.5751
10.1124, 104, 38.6518, 29.5679, 11.6776, 10.8143, 112.744, -52.3478
10.1206, 104, 38.7178, 29.7518, 11.6874, 10.921, 112.808, -52.121
10.1282, 104, 38.7832, 29.9356, 11.6971, 11.0283, 112.872, -51.8947
10.1363, 104, 38.8482, 30.1199, 11.7067, 11.1367, 112.937, -51.6683
10.1443, 104, 38.8806, 30.2122, 11.7115, 11.2459, 113, -51.4422
10.1523, 104, 38.9449, 30.3967, 11.721, 11.3007, 113.064, -51.2165
10.1597, 104, 39.0086, 30.5803, 11.7305, 11.411, 113.095, -51.1038
10.1677, 104, 39.071, 30.7625, 11.7397, 11.5218, 113.158, -50.8792
10.1757, 104, 39.1316, 30.9419, 11.7484, 11.633, 113.222, -50.6555
10.1838, 104, 39.1898, 31.1159, 11.7567, 11.7434, 113.283, -50.4343
10.1917, 104, 39.2456, 31.2822, 11.7644, 11.8521, 113.344, -50.2183
10.1997, 104, 39.299, 31.4406, 11.7714, 11.9573, 113.402, -50.0104
10.2077, 104, 39.3494, 31.5896, 11.7778, 12.0571, 113.457, -49.8146
10.2157, 104, 39.3964, 31.7271, 11.7837, 12.1495, 113.508, -49.6342
10.2237, 104, 39.4395, 31.8528, 11.7893, 12.233, 113.552, -49.4725
10.2317, 104, 39.4783, 31.9661, 11.7946, 12.3056, 113.591, -49.3316
10.2397, 104, 39.5129, 32.0662, 11.7995, 12.3679, 113.624, -49.2124
10.2477, 104, 39.5422, 32.1517, 11.804, 12.4184, 113.651, -49.115
10.2557, 104, 39.5668, 32.2229, 11.8083, 12.458, 113.672, -49.0376
10.2637, 104, 39.5869, 32.2808, 11.8122, 12.4885, 113.687, -48.9794
10.2717, 104, 39.6023, 32.327, 11.8157, 12.5109, 113.698, -48.9373
10.2812, 104, 39.6135, 32.3622, 11.8186, 12.5265, 113.706, -48.9083
10.2877, 104, 39.6213, 32.3881, 11.821, 12.5369, 113.71, -48.8893
10.2967, 104, 39.6265, 32.4066, 11.8229, 12.5432, 113.713, -48.8779
10.3037, 104, 39.6302, 32.4193, 11.8244, 12.5467, 113.715, -48.8717
10.3116, 105, 39.6328, 32.4273, 11.8255, 12.5485, 113.715, -48.8687
10.3197, 105, 39.6336, 32.432, 11.8263, 12.5494, 113.716, -48.8674
10.3277, 105, 39.6333, 32.4348, 11.827, 12.5499, 113.716, -48.8667
10.3357, 105, 39.6325, 32.4364, 11.8275, 12.5501, 113.716, -48.8664
10.3437, 105, 39.6317, 32.4376, 11.8279, 12.5502, 113.716, -48.8663
10.3517, 105, 39.6313, 32.4385, 11.8283, 12.5502, 113.716, -48.8663
10.3597, 105, 39.6312, 32.4395, 11.8288, 12.5502, 113.716, -48.8664
10.3677, 105, 39.6314, 32.4405, 11.8292, 12.5502, 113.716, -48.8665
10.3757, 105, 39.6318, 32.4414, 11.8297, 12.5502, 113.716, -48.8666
10.3837, 105, 39.6325, 32.4421, 11.8301, 12.5502, 113.716, -48.8667
10.3917, 105, 39.6331, 32.4427, 11.8304, 12.5502, 113.716, -48.8667
10.3997, 105, 39.6337, 32.4432, 11.8306, 12.5502, 113.716, -48.8669
10.4077, 105, 39.6348, 32.4435, 11.8307, 12.5502, 113.716, -48.8669
