rpiRobotics/ARM-21-02-F-19-Robot-Motion-Program/data_performance_abb/curve_2/baseline/100L/realrobot/bisect/run_3realrobot_curve_exe_v300.0_z10.csv
timestamp, cmd_num, J1, J2, J3, J4, J5, J6
0.001045, -1, 39.6331, 32.4441, 11.8323, 12.5482, 113.716, -48.8694
0.004141, -1, 39.6331, 32.4441, 11.8323, 12.5482, 113.716, -48.8694
0.007808, -1, 39.6331, 32.4441, 11.8323, 12.5482, 113.716, -48.8694
0.028458, -1, 39.633, 32.4441, 11.8323, 12.5483, 113.716, -48.8693
0.033185, -1, 39.633, 32.4442, 11.8323, 12.5483, 113.716, -48.8693
0.034685, -1, 39.6331, 32.4441, 11.8323, 12.5483, 113.716, -48.8693
0.039619, -1, 39.6331, 32.4441, 11.8323, 12.5483, 113.716, -48.8694
0.048608, -1, 39.633, 32.4441, 11.8323, 12.5483, 113.716, -48.8695
0.055623, -1, 39.6325, 32.4441, 11.8323, 12.5482, 113.716, -48.8694
0.063559, -1, 39.6301, 32.4436, 11.8322, 12.5483, 113.716, -48.8695
0.071575, -1, 39.6247, 32.4421, 11.8322, 12.5482, 113.716, -48.8698
0.079557, -1, 39.6158, 32.439, 11.8321, 12.5482, 113.715, -48.8713
0.087572, -1, 39.6025, 32.4336, 11.8321, 12.5482, 113.714, -48.8756
0.095555, -1, 39.5828, 32.425, 11.8321, 12.5481, 113.71, -48.8859
0.10357, -1, 39.5543, 32.4123, 11.8326, 12.5481, 113.704, -48.9062
0.11162, -1, 39.516, 32.3946, 11.8348, 12.5481, 113.692, -48.9392
0.119559, -1, 39.4667, 32.3707, 11.8398, 12.5481, 113.673, -48.9893
0.127584, -1, 39.4047, 32.3402, 11.8482, 12.5482, 113.645, -49.0605
0.135657, -1, 39.3295, 32.3023, 11.861, 12.5483, 113.608, -49.1546
0.143555, -1, 39.2406, 32.2566, 11.8788, 12.5485, 113.562, -49.2742
0.151567, -1, 39.1377, 32.2029, 11.9014, 12.5491, 113.505, -49.4192
0.159717, -1, 39.0207, 32.1415, 11.9282, 12.55, 113.438, -49.5888
0.167577, -1, 38.8903, 32.0726, 11.9588, 12.5514, 113.362, -49.7813
0.175596, -1, 38.7475, 31.9973, 11.9929, 12.5532, 113.278, -49.9934
0.183617, -1, 38.5933, 31.916, 12.0291, 12.5552, 113.188, -50.2213
0.191582, -1, 38.4291, 31.8298, 12.0669, 12.5574, 113.093, -50.4614
0.19964, -1, 38.2569, 31.7395, 12.1057, 12.5598, 112.995, -50.7099
0.207579, -1, 38.0785, 31.6463, 12.1447, 12.5623, 112.895, -50.9635
0.215562, -1, 37.8949, 31.5509, 12.1836, 12.5647, 112.793, -51.2204
0.224278, -1, 37.7073, 31.454, 12.2225, 12.567, 112.691, -51.4789
0.231594, -1, 37.5172, 31.3563, 12.2613, 12.5695, 112.589, -51.7385
0.239635, -1, 37.3255, 31.2584, 12.3001, 12.572, 112.486, -51.9981
0.248462, -1, 37.1334, 31.1605, 12.339, 12.5744, 112.383, -52.258
0.255651, -1, 36.9412, 31.0628, 12.3777, 12.5771, 112.28, -52.5182
0.263658, -1, 36.7493, 30.965, 12.4165, 12.5797, 112.177, -52.7785
0.272532, -1, 36.5576, 30.8673, 12.4554, 12.5822, 112.074, -53.0389
0.279661, -1, 36.3661, 30.7697, 12.4942, 12.5849, 111.971, -53.2993
0.28758, -1, 36.1746, 30.6719, 12.533, 12.5875, 111.868, -53.5598
0.29653, -1, 35.9831, 30.574, 12.5719, 12.5901, 111.765, -53.8205
0.303628, -1, 35.7917, 30.4761, 12.6109, 12.5927, 111.662, -54.0811
0.311644, -1, 35.6, 30.3781, 12.6498, 12.5952, 111.559, -54.3415
0.320564, -1, 35.408, 30.2799, 12.6886, 12.5979, 111.456, -54.6018
0.327856, -1, 35.2156, 30.1816, 12.7274, 12.6005, 111.353, -54.8625
0.335916, -1, 35.0231, 30.0832, 12.7663, 12.603, 111.25, -55.1234
0.344783, -1, 34.8308, 29.9848, 12.8052, 12.6057, 111.147, -55.3841
0.352049, -1, 34.6385, 29.8863, 12.844, 12.6082, 111.044, -55.6448
0.359989, -1, 34.4461, 29.7879, 12.8829, 12.6108, 110.941, -55.9056
0.368058, -1, 34.2539, 29.6896, 12.9219, 12.6134, 110.838, -56.1666
0.376195, -1, 34.0619, 29.5914, 12.9608, 12.616, 110.735, -56.4274
0.384106, -1, 33.8701, 29.4931, 12.9998, 12.6187, 110.632, -56.6882
0.392101, -1, 33.6784, 29.3948, 13.0387, 12.6214, 110.528, -56.9492
0.400243, -1, 33.4863, 29.2965, 13.0775, 12.6241, 110.425, -57.2102
0.408111, -1, 33.3901, 29.2474, 13.097, 12.6254, 110.374, -57.4713
0.416117, -1, 33.1976, 29.1489, 13.136, 12.628, 110.271, -57.6016
0.424412, -1, 33.0049, 29.0504, 13.1747, 12.632, 110.116, -57.9932
0.431544, -1, 32.8119, 28.9518, 13.2137, 12.6333, 110.064, -58.1239
0.439539, -1, 32.6186, 28.8532, 13.2526, 12.636, 109.961, -58.3852
0.447602, -1, 32.425, 28.7546, 13.2914, 12.6387, 109.858, -58.6463
0.455545, -1, 32.2311, 28.6559, 13.3303, 12.6414, 109.755, -58.9074
0.463555, -1, 32.037, 28.5572, 13.3691, 12.6441, 109.652, -59.1685
0.471577, -1, 31.8431, 28.4584, 13.408, 12.6469, 109.549, -59.4299
0.479568, -1, 31.6494, 28.3597, 13.447, 12.6496, 109.446, -59.6913
0.619712, -1, 28.2686, 26.6326, 14.1287, 12.696, 107.639, -64.2684
0.62092, -1, 28.2686, 26.6326, 14.1287, 12.696, 107.639, -64.2684
0.623141, -1, 28.172, 26.5832, 14.1481, 12.6972, 107.587, -64.3992
0.624416, -1, 28.172, 26.5832, 14.1481, 12.6972, 107.587, -64.3992
0.626969, -1, 28.0755, 26.5338, 14.1676, 12.6984, 107.536, -64.53
0.628311, -1, 28.0755, 26.5338, 14.1676, 12.6984, 107.536, -64.53
0.630126, -1, 27.979, 26.4844, 14.1871, 12.6997, 107.484, -64.6609
0.634255, -1, 27.8825, 26.435, 14.2066, 12.7009, 107.433, -64.7918
0.77321, -1, 24.5973, 24.7551, 14.8687, 12.7403, 105.677, -69.2413
0.775079, -1, 24.5973, 24.7551, 14.8687, 12.7403, 105.625, -69.3722
0.776537, -1, 24.5011, 24.7057, 14.8882, 12.7415, 105.625, -69.3722
0.777885, -1, 24.5011, 24.7057, 14.8882, 12.7415, 105.625, -69.3722
0.779839, -1, 24.405, 24.6562, 14.9078, 12.7427, 105.573, -69.5032
0.781935, -1, 24.405, 24.6562, 14.9078, 12.7427, 105.573, -69.5032
0.784075, -1, 24.3088, 24.6067, 14.9273, 12.7439, 105.522, -69.634
0.789631, -1, 24.2125, 24.5573, 14.9468, 12.7451, 105.47, -69.7647
0.791565, -1, 24.1163, 24.5079, 14.9663, 12.7462, 105.419, -69.8955
0.792979, -1, 24.1163, 24.5079, 14.9663, 12.7462, 105.419, -69.8955
0.794159, -1, 24.1163, 24.5079, 14.9663, 12.7462, 105.419, -69.8955
0.796846, -1, 24.02, 24.4586, 14.9858, 12.7474, 105.367, -70.0263
0.798114, -1, 24.02, 24.4586, 14.9858, 12.7474, 105.367, -70.0263
0.800184, -1, 23.9236, 24.4091, 15.0053, 12.7485, 105.315, -70.157
0.801499, -1, 23.9236, 24.4091, 15.0053, 12.7485, 105.315, -70.157
0.803848, -1, 23.8271, 24.3597, 15.0247, 12.7497, 105.263, -70.2878
0.806003, -1, 23.8271, 24.3597, 15.0247, 12.7497, 105.263, -70.2878
0.808071, -1, 23.7306, 24.3103, 15.0442, 12.751, 105.212, -70.4186
0.809288, -1, 23.7306, 24.3103, 15.0442, 12.751, 105.212, -70.4186
0.810604, -1, 23.7306, 24.3103, 15.0442, 12.751, 105.212, -70.4186
0.812595, -1, 23.6341, 24.2609, 15.0636, 12.7522, 105.16, -70.5495
0.813871, -1, 23.6341, 24.2609, 15.0636, 12.7522, 105.16, -70.5495
0.817538, -1, 23.5375, 24.2115, 15.0831, 12.7534, 105.108, -70.6805
0.818775, -1, 23.5375, 24.2115, 15.0831, 12.7534, 105.108, -70.6805
0.821485, -1, 23.4409, 24.162, 15.1026, 12.7545, 105.057, -70.8113
0.822744, -1, 23.4409, 24.162, 15.1026, 12.7545, 105.057, -70.8113
0.824716, -1, 23.3441, 24.1126, 15.122, 12.7558, 105.005, -70.942
0.825995, -1, 23.3441, 24.1126, 15.122, 12.7558, 105.005, -70.942
0.827853, -1, 23.2472, 24.0632, 15.1414, 12.757, 104.953, -71.0729
0.830105, -1, 23.2472, 24.0632, 15.1414, 12.757, 104.953, -71.0729
0.832587, -1, 23.1502, 24.0137, 15.1608, 12.7582, 104.901, -71.2038
0.833781, -1, 23.1502, 24.0137, 15.1608, 12.7582, 104.901, -71.2038
0.835676, -1, 23.0532, 23.9642, 15.1803, 12.7594, 104.85, -71.3348
0.837035, -1, 23.0532, 23.9642, 15.1803, 12.7594, 104.85, -71.3348
0.838401, -1, 23.0532, 23.9642, 15.1803, 12.7594, 104.85, -71.3348
0.840471, -1, 22.9562, 23.9148, 15.1997, 12.7606, 104.798, -71.4657
0.841683, -1, 22.9562, 23.9148, 15.1997, 12.7606, 104.798, -71.4657
0.849553, -1, 22.7621, 23.816, 15.2387, 12.7631, 104.695, -71.7275
0.855951, -1, 22.5683, 23.7173, 15.2777, 12.7656, 104.591, -71.9891
0.864158, -1, 22.3746, 23.6187, 15.3167, 12.7681, 104.488, -72.2505
0.87218, -1, 22.1813, 23.52, 15.3556, 12.7707, 104.385, -72.5121
0.88007, -1, 21.9882, 23.4213, 15.3945, 12.7733, 104.281, -72.7736
0.888111, -1, 21.7954, 23.3227, 15.4335, 12.7759, 104.178, -73.0351
0.896162, -1, 21.6031, 23.2239, 15.4725, 12.7786, 104.075, -73.2963
0.90412, -1, 21.5071, 23.1745, 15.5114, 12.7813, 103.972, -73.5577
0.912351, -1, 21.3148, 23.0758, 15.5309, 12.7826, 103.92, -73.6884
0.920093, -1, 21.1224, 22.9771, 15.5699, 12.7852, 103.817, -73.95
0.927531, -1, 20.93, 22.8785, 15.6088, 12.788, 103.714, -74.2113
0.935541, -1, 20.7375, 22.7799, 15.6478, 12.7907, 103.611, -74.4724
0.943576, -1, 20.5449, 22.6813, 15.6867, 12.7935, 103.508, -74.7336
0.951546, -1, 20.3518, 22.5827, 15.7256, 12.7962, 103.405, -74.9949
0.959574, -1, 20.1581, 22.484, 15.7646, 12.7988, 103.302, -75.2562
0.967518, -1, 19.9643, 22.3853, 15.8034, 12.8016, 103.199, -75.5174
0.975636, -1, 19.7706, 22.2867, 15.8421, 12.8043, 103.096, -75.7785
0.983565, -1, 19.577, 22.1881, 15.8811, 12.807, 102.993, -76.0398
0.991518, -1, 19.3835, 22.0895, 15.92, 12.8098, 102.89, -76.301
0.999571, -1, 19.1905, 21.9908, 15.9588, 12.8124, 102.787, -76.5619
1.00758, -1, 18.9977, 21.8922, 15.9978, 12.8152, 102.684, -76.8227
1.01557, -1, 18.8053, 21.7935, 16.0366, 12.8179, 102.58, -77.0837
1.02353, -1, 18.6132, 21.6948, 16.0753, 12.8205, 102.478, -77.3448
1.03167, -1, 18.4213, 21.5963, 16.1143, 12.8232, 102.375, -77.6055
1.03952, -1, 18.2295, 21.4977, 16.1531, 12.8258, 102.272, -77.8663
1.04851, -1, 18.0376, 21.3993, 16.1919, 12.8283, 102.169, -78.127
1.0556, -1, 17.8457, 21.3009, 16.2308, 12.8308, 102.066, -78.3879
1.06352, -1, 17.6537, 21.2026, 16.2697, 12.8333, 101.963, -78.6485
1.07152, -1, 17.4613, 21.1044, 16.3086, 12.8357, 101.86, -78.909
1.07965, -1, 17.2684, 21.006, 16.3475, 12.8381, 101.757, -79.1695
1.08752, -1, 17.0753, 20.9078, 16.3862, 12.8405, 101.654, -79.4301
1.09553, -1, 16.8822, 20.8096, 16.425, 12.8428, 101.551, -79.6907
1.10353, -1, 16.6891, 20.7114, 16.4639, 12.8452, 101.448, -79.9512
1.11152, -1, 16.496, 20.6132, 16.5025, 12.8475, 101.346, -80.2117
1.1196, -1, 16.3032, 20.5149, 16.5413, 12.8498, 101.243, -80.4722
1.12752, -1, 16.1109, 20.4165, 16.5801, 12.8521, 101.141, -80.7327
1.13553, -1, 15.9189, 20.3181, 16.6189, 12.8544, 101.038, -80.9928
1.14363, -1, 15.7273, 20.2196, 16.6576, 12.8567, 100.935, -81.2529
1.15152, -1, 15.536, 20.1212, 16.6962, 12.859, 100.833, -81.513
1.15952, -1, 15.3448, 20.0229, 16.7349, 12.8614, 100.73, -81.7732
1.16762, -1, 15.1537, 19.9247, 16.7737, 12.8635, 100.627, -82.0331
1.17552, -1, 14.9626, 19.8265, 16.8125, 12.8658, 100.525, -82.2929
1.18355, -1, 14.7712, 19.7284, 16.8512, 12.8681, 100.422, -82.5528
1.19159, -1, 14.5797, 19.6303, 16.89, 12.8704, 100.32, -82.8129
1.19953, -1, 14.3879, 19.5322, 16.9287, 12.8727, 100.217, -83.0726
1.20752, -1, 14.1956, 19.4342, 16.9675, 12.875, 100.115, -83.332
1.2157, -1, 14.0033, 19.3363, 17.0062, 12.8772, 100.012, -83.5916
1.22352, -1, 13.8108, 19.2385, 17.0448, 12.8796, 99.9096, -83.8513
1.23161, -1, 13.6182, 19.1406, 17.0835, 12.8818, 99.8071, -84.1108
1.24044, -1, 13.4258, 19.0427, 17.1223, 12.8842, 99.7044, -84.37
1.24761, -1, 13.2338, 18.9448, 17.1607, 12.8865, 99.6023, -84.6293
1.25568, -1, 13.0422, 18.8469, 17.1994, 12.8889, 99.4998, -84.8887
1.26437, -1, 12.851, 18.7489, 17.238, 12.8912, 99.3974, -85.148
1.27162, -1, 12.66, 18.651, 17.2766, 12.8936, 99.2953, -85.407
1.27974, -1, 12.4694, 18.5532, 17.3152, 12.896, 99.1929, -85.6659
1.28885, -1, 12.2792, 18.4554, 17.3538, 12.8984, 99.0906, -85.9249
1.29553, -1, 12.0891, 18.3577, 17.3923, 12.9008, 98.9887, -86.1839
1.30431, -1, 11.8988, 18.2601, 17.4309, 12.9033, 98.8864, -86.4426
1.31158, -1, 11.7083, 18.1625, 17.4695, 12.9057, 98.7845, -86.7012
1.31973, -1, 11.5175, 18.0649, 17.5079, 12.9082, 98.6827, -86.9599
1.3285, -1, 11.3264, 17.9673, 17.5465, 12.9107, 98.5807, -87.2187
1.33578, -1, 11.1351, 17.8698, 17.5851, 12.9131, 98.4789, -87.4772
1.34388, -1, 10.9436, 17.7724, 17.6236, 12.9156, 98.377, -87.7354
1.35271, -1, 10.7519, 17.6749, 17.6621, 12.9181, 98.2749, -87.9937
1.35996, -1, 10.5603, 17.5774, 17.7005, 12.9207, 98.1731, -88.2519
1.36803, -1, 10.3689, 17.4799, 17.739, 12.9232, 98.0712, -88.5103
1.37689, -1, 10.1779, 17.3823, 17.7774, 12.9257, 97.9692, -88.7682
1.38405, -1, 9.98737, 17.2847, 17.8158, 12.9284, 97.8675, -89.0263
1.39212, -1, 9.79705, 17.1872, 17.8541, 12.931, 97.7655, -89.2844
1.40098, -1, 9.6071, 17.0897, 17.8925, 12.9337, 97.6636, -89.5425
1.40809, -1, 9.51236, 17.0411, 17.9116, 12.9365, 97.5619, -89.8002
1.41616, -1, 9.32309, 16.9437, 17.95, 12.9378, 97.4599, -90.0578
1.4235, -1, 9.13387, 16.8464, 17.9884, 12.9405, 97.409, -90.1866
1.43151, -1, 8.94453, 16.7493, 18.0267, 12.9431, 97.3072, -90.4441
1.43961, -1, 8.75503, 16.6521, 18.0651, 12.9458, 97.2056, -90.7016
1.44751, -1, 8.56546, 16.555, 18.1035, 12.9484, 97.1038, -90.9589
1.4555, -1, 8.37572, 16.4579, 18.1418, 12.9512, 97.0022, -91.2161
1.46478, -1, 8.09017, 16.3125, 18.1993, 12.9551, 96.8499, -91.6019
1.47152, -1, 7.99488, 16.2641, 18.2185, 12.9564, 96.7991, -91.7306
1.47964, -1, 7.80423, 16.1672, 18.2567, 12.9591, 96.6978, -91.9874
1.4875, -1, 7.6136, 16.0703, 18.295, 12.9616, 96.5963, -92.2441
1.4955, -1, 7.42307, 15.9733, 18.3333, 12.9641, 96.4948, -92.5009
1.50359, -1, 7.23288, 15.8764, 18.3714, 12.9667, 96.3936, -92.7577
1.5115, -1, 7.04309, 15.7794, 18.4096, 12.9692, 96.2921, -93.0143
1.51959, -1, 6.8537, 15.6824, 18.4479, 12.9717, 96.1908, -93.2706
1.52759, -1, 6.66478, 15.5856, 18.486, 12.9742, 96.0901, -93.527
1.53551, -1, 6.47633, 15.4888, 18.524, 12.9768, 95.9889, -93.7834
1.5445, -1, 6.28817, 15.3921, 18.5622, 12.9792, 95.8879, -94.0398
1.55157, -1, 6.10011, 15.2954, 18.6003, 12.9817, 95.7873, -94.2957
1.55956, -1, 5.91185, 15.1987, 18.6385, 12.984, 95.6862, -94.5517
1.5685, -1, 5.72349, 15.102, 18.6767, 12.9863, 95.5852, -94.8075
1.57556, -1, 5.535, 15.0054, 18.7147, 12.9886, 95.4846, -95.0635
1.58359, -1, 5.3462, 14.9089, 18.7528, 12.9909, 95.3836, -95.3192
1.59151, -1, 5.15708, 14.8125, 18.791, 12.9931, 95.2829, -95.5747
1.59957, -1, 4.96757, 14.7162, 18.8289, 12.9954, 95.1824, -95.8303
1.60752, -1, 4.77817, 14.6198, 18.867, 12.9976, 95.0816, -96.0858
1.61556, -1, 4.58872, 14.5234, 18.9051, 12.9997, 94.9808, -96.341
1.62351, -1, 4.39946, 14.4271, 18.9431, 13.0019, 94.8802, -96.5958
1.6315, -1, 4.21047, 14.3306, 18.9811, 13.0041, 94.7793, -96.8508
1.63962, -1, 4.02176, 14.2342, 19.0191, 13.0064, 94.6785, -97.106
1.64753, -1, 3.83374, 14.138, 19.057, 13.0087, 94.5776, -97.361
1.6555, -1, 3.6462, 14.0418, 19.0949, 13.0109, 94.4768, -97.6157
1.66357, -1, 3.45897, 13.9457, 19.1329, 13.0133, 94.3762, -97.8704
1.67153, -1, 3.2721, 13.8497, 19.1706, 13.0155, 94.2755, -98.1251
1.67955, -1, 3.08514, 13.7537, 19.2085, 13.0178, 94.1748, -98.3798
1.68762, -1, 2.89822, 13.6577, 19.2464, 13.02, 94.0743, -98.6342
1.6955, -1, 2.71119, 13.5617, 19.2843, 13.0223, 93.9737, -98.8883
1.70352, -1, 2.52395, 13.4658, 19.3223, 13.0246, 93.8731, -99.1426
1.71162, -1, 2.33653, 13.3699, 19.36, 13.0269, 93.7729, -99.3967
1.71955, -1, 2.14862, 13.2741, 19.3978, 13.0291, 93.6726, -99.6507
1.7275, -1, 1.96048, 13.1783, 19.4357, 13.0313, 93.5724, -99.9042
1.73591, -1, 1.77231, 13.0824, 19.4734, 13.0337, 93.4724, -100.158
1.74358, -1, 1.58405, 12.9866, 19.5111, 13.0359, 93.3722, -100.412
1.7516, -1, 1.39591, 12.8908, 19.5489, 13.0382, 93.2722, -100.665
1.76, -1, 1.20807, 12.7949, 19.5866, 13.0405, 93.1724, -100.918
1.76767, -1, 1.02066, 12.6992, 19.6243, 13.0429, 93.0722, -101.171
1.7756, -1, 0.83393, 12.6036, 19.6621, 13.0452, 92.9723, -101.424
1.78431, -1, 0.647545, 12.508, 19.6997, 13.0476, 92.8726, -101.678
1.79151, -1, 0.461611, 12.4126, 19.7373, 13.0501, 92.7726, -101.931
1.79958, -1, 0.27604, 12.3173, 19.775, 13.0526, 92.6729, -102.183
1.80836, -1, 0.0906553, 12.222, 19.8126, 13.055, 92.5736, -102.436
1.81553, -1, -0.0947896, 12.1267, 19.8501, 13.0574, 92.4739, -102.688
1.82366, -1, -0.280457, 12.0314, 19.8878, 13.0599, 92.3743, -102.941
1.83268, -1, -0.466374, 11.9362, 19.9254, 13.0623, 92.2752, -103.193
1.83982, -1, -0.652661, 11.8412, 19.9629, 13.0648, 92.1756, -103.445
1.84786, -1, -0.839092, 11.7462, 20.0005, 13.0674, 92.076, -103.697
1.85675, -1, -1.02569, 11.6511, 20.038, 13.0699, 91.9769, -103.949
1.86391, -1, -1.21254, 11.556, 20.0754, 13.0724, 91.8773, -104.201
1.87206, -1, -1.39953, 11.461, 20.113, 13.0749, 91.7781, -104.453
1.88109, -1, -1.58632, 11.3658, 20.1504, 13.0775, 91.679, -104.704
1.88806, -1, -1.77273, 11.2707, 20.1877, 13.08, 91.5798, -104.956
1.89609, -1, -1.95877, 11.1757, 20.2252, 13.0827, 91.4806, -105.207
1.90494, -1, -2.05153, 11.0808, 20.2626, 13.0853, 91.3816, -105.458
1.91202, -1, -2.23669, 11.0334, 20.2813, 13.0867, 91.2823, -105.709
1.92015, -1, -2.42161, 10.9385, 20.3187, 13.0893, 91.2327, -105.96
1.92749, -1, -2.60595, 10.8438, 20.356, 13.092, 91.1337, -106.085
1.93653, -1, -2.88169, 10.7017, 20.4119, 13.096, 90.985, -106.462
1.94355, -1, -2.97366, 10.6543, 20.4306, 13.0973, 90.9354, -106.587
1.9515, -1, -3.15777, 10.5596, 20.4679, 13.0998, 90.8366, -106.838
1.95949, -1, -3.34213, 10.465, 20.5051, 13.1024, 90.7376, -107.088
1.96749, -1, -3.52684, 10.3706, 20.5424, 13.1049, 90.6388, -107.339
1.97548, -1, -3.71147, 10.2762, 20.5797, 13.1075, 90.5402, -107.589
1.9849, -1, -3.98922, 10.1347, 20.6356, 13.1111, 90.392, -107.964
1.9915, -1, -4.08193, 10.0875, 20.6542, 13.1123, 90.3426, -108.089
1.99954, -1, -4.26742, 9.9933, 20.6914, 13.1147, 90.2441, -108.339
2.00751, -1, -4.4531, 9.89897, 20.7285, 13.117, 90.1452, -108.589
2.01569, -1, -4.63841, 9.80466, 20.7658, 13.1194, 90.0467, -108.838
2.02352, -1, -4.82334, 9.71048, 20.8029, 13.1216, 89.9484, -109.088
2.03148, -1, -5.0079, 9.61638, 20.8399, 13.1241, 89.8498, -109.337
2.04028, -1, -5.19165, 9.52235, 20.8771, 13.1264, 89.7514, -109.586
2.04995, -1, -5.37496, 9.42831, 20.9142, 13.1287, 89.6533, -109.96
2.05549, -1, -5.55787, 9.33442, 20.9513, 13.131, 89.5548, -110.084
2.06429, -1, -5.74039, 9.24049, 20.9884, 13.1333, 89.4566, -110.333
2.07148, -1, -5.92274, 9.14659, 21.0254, 13.1356, 89.3586, -110.582
2.0795, -1, -6.10517, 9.05272, 21.0624, 13.1377, 89.2602, -110.83
2.08828, -1, -6.28787, 8.95894, 21.0995, 13.14, 89.1621, -111.079
2.09653, -1, -6.47074, 8.86532, 21.1364, 13.1422, 89.0645, -111.327
2.10349, -1, -6.65387, 8.77167, 21.1731, 13.1443, 88.9664, -111.575
2.11233, -1, -6.83749, 8.67809, 21.2101, 13.1465, 88.8684, -111.823
2.11949, -1, -7.02134, 8.58453, 21.247, 13.1486, 88.7708, -112.071
2.12748, -1, -7.20551, 8.49101, 21.2838, 13.1508, 88.6728, -112.319
2.13632, -1, -7.38975, 8.39738, 21.3208, 13.1529, 88.575, -112.566
2.14349, -1, -7.57355, 8.30377, 21.3576, 13.155, 88.4775, -112.814
2.15148, -1, -7.75712, 8.21034, 21.3943, 13.1571, 88.3798, -113.062
2.16029, -1, -7.94021, 8.11693, 21.4312, 13.1594, 88.2823, -113.309
2.16748, -1, -8.12275, 8.02357, 21.468, 13.1616, 88.1851, -113.556
2.17552, -1, -8.30458, 7.93035, 21.5046, 13.1639, 88.0876, -113.803
2.18429, -1, -8.48598, 7.83713, 21.5415, 13.1662, 87.9902, -114.05
2.19151, -1, -8.667, 7.74393, 21.5782, 13.1684, 87.8929, -114.297
2.1995, -1, -8.84771, 7.6508, 21.6149, 13.1707, 87.7954, -114.543
2.20829, -1, -9.02852, 7.5577, 21.6517, 13.1729, 87.6979, -114.79
2.21552, -1, -9.20956, 7.46472, 21.6884, 13.1752, 87.6008, -115.036
2.22348, -1, -9.39078, 7.37192, 21.725, 13.1774, 87.5036, -115.282
2.23229, -1, -9.57242, 7.27908, 21.7617, 13.1796, 87.4064, -115.529
2.23953, -1, -9.75431, 7.18633, 21.7983, 13.1819, 87.3094, -115.775
2.24757, -1, -9.93669, 7.09363, 21.8348, 13.1841, 87.2121, -116.021
2.25637, -1, -10.1193, 7.00089, 21.8714, 13.1863, 87.115, -116.267
2.26363, -1, -10.3019, 6.90811, 21.908, 13.1886, 87.0179, -116.512
2.27158, -1, -10.4844, 6.81537, 21.9446, 13.1907, 86.9208, -116.758
2.2804, -1, -10.6667, 6.72269, 21.9811, 13.193, 86.8236, -117.003
2.28759, -1, -10.8486, 6.63008, 22.0176, 13.1953, 86.7269, -117.248
2.29549, -1, -11.03, 6.53745, 22.0539, 13.1978, 86.6299, -117.494
2.30448, -1, -11.2104, 6.44494, 22.0905, 13.2002, 86.5332, -117.738
2.31152, -1, -11.3903, 6.35249, 22.127, 13.2027, 86.4367, -117.983
2.31969, -1, -11.5699, 6.26008, 22.1634, 13.2051, 86.3399, -118.228
2.32846, -1, -11.7492, 6.16765, 22.1998, 13.2075, 86.2433, -118.473
2.33566, -1, -11.9285, 6.07538, 22.2363, 13.2101, 86.1468, -118.717
2.34403, -1, -12.1077, 5.98319, 22.2727, 13.2125, 86.0502, -118.961
2.35263, -1, -12.2872, 5.8911, 22.3091, 13.215, 85.9538, -119.206
2.35987, -1, -12.4671, 5.79907, 22.3455, 13.2175, 85.8575, -119.45
2.368, -1, -12.6473, 5.70709, 22.3816, 13.22, 85.761, -119.694
2.37663, -1, -12.8279, 5.61514, 22.418, 13.2225, 85.6648, -119.938
2.38409, -1, -13.0089, 5.52324, 22.4543, 13.2249, 85.5689, -120.181
2.39209, -1, -13.1901, 5.43123, 22.4905, 13.2273, 85.4729, -120.425
2.40264, -1, -13.3713, 5.33924, 22.5267, 13.2297, 85.377, -120.669
2.40798, -1, -13.4618, 5.29328, 22.5449, 13.2309, 85.2814, -120.912
2.41604, -1, -13.6425, 5.20136, 22.5811, 13.2335, 85.1855, -121.155
2.42493, -1, -13.8228, 5.10949, 22.6172, 13.236, 85.1376, -121.276
2.43147, -1, -14.0023, 5.01768, 22.6534, 13.2386, 85.042, -121.519
2.43947, -1, -14.181, 4.92595, 22.6896, 13.2411, 84.9463, -121.762
2.44753, -1, -14.3594, 4.83426, 22.7256, 13.2437, 84.8507, -122.005
2.45548, -1, -14.5374, 4.74264, 22.7619, 13.2462, 84.7552, -122.248
2.46347, -1, -14.715, 4.65106, 22.7981, 13.2487, 84.6595, -122.49
2.47152, -1, -14.8926, 4.55957, 22.8341, 13.2512, 84.5638, -122.732
2.47947, -1, -15.0702, 4.46812, 22.8703, 13.2537, 84.4682, -122.975
2.48747, -1, -15.2482, 4.37685, 22.9064, 13.2561, 84.3726, -123.217
2.49553, -1, -15.4266, 4.28553, 22.9424, 13.2584, 84.2769, -123.458
2.50348, -1, -15.6055, 4.19426, 22.9785, 13.2608, 84.1814, -123.7
2.5115, -1, -15.7847, 4.10302, 23.0145, 13.263, 84.0858, -123.942
2.52178, -1, -16.0536, 3.96616, 23.0684, 13.2663, 83.9424, -124.304
2.5275, -1, -16.1435, 3.92052, 23.0864, 13.2674, 83.8948, -124.425
2.53548, -1, -16.3233, 3.82932, 23.1224, 13.2695, 83.7994, -124.666
2.54353, -1, -16.5027, 3.7381, 23.1582, 13.2717, 83.704, -124.908
2.5515, -1, -16.6817, 3.64695, 23.194, 13.2739, 83.6086, -125.149
2.55953, -1, -16.8602, 3.55587, 23.2299, 13.2762, 83.5133, -125.39
2.56747, -1, -17.0379, 3.46486, 23.2658, 13.2783, 83.4178, -125.631
2.57548, -1, -17.2147, 3.37391, 23.3017, 13.2806, 83.3226, -125.872
2.58353, -1, -17.3912, 3.28304, 23.3375, 13.2827, 83.2275, -126.112
2.59147, -1, -17.5675, 3.1922, 23.3733, 13.2849, 83.1323, -126.353
2.59948, -1, -17.7436, 3.10155, 23.4091, 13.287, 83.0375, -126.593
2.60754, -1, -17.9195, 3.01094, 23.4451, 13.2891, 82.9428, -126.833
2.61551, -1, -18.0958, 2.9205, 23.4808, 13.2913, 82.8479, -127.073
2.62347, -1, -18.2723, 2.8301, 23.5165, 13.2934, 82.7533, -127.314
2.63155, -1, -18.4493, 2.73967, 23.5523, 13.2954, 82.6588, -127.553
2.63946, -1, -18.6268, 2.64927, 23.588, 13.2974, 82.5639, -127.793
2.64747, -1, -18.8044, 2.55896, 23.6237, 13.2995, 82.4694, -128.032
2.65554, -1, -18.9824, 2.46853, 23.6595, 13.3015, 82.3751, -128.272
2.66347, -1, -19.1607, 2.37803, 23.6951, 13.3034, 82.2805, -128.512
2.67146, -1, -19.3389, 2.28768, 23.7307, 13.3055, 82.1861, -128.751
2.67955, -1, -19.5166, 2.19728, 23.7664, 13.3076, 82.0922, -128.99
2.68746, -1, -19.6937, 2.10687, 23.8018, 13.3097, 81.9979, -129.229
2.69557, -1, -19.8703, 2.01659, 23.8372, 13.3119, 81.9037, -129.468
2.70354, -1, -20.0461, 1.92633, 23.8729, 13.3141, 81.8099, -129.707
2.71146, -1, -20.2212, 1.83611, 23.9085, 13.3163, 81.7157, -129.945
2.71947, -1, -20.3961, 1.74599, 23.9439, 13.3185, 81.6216, -130.183
2.72754, -1, -20.5706, 1.65589, 23.9796, 13.3207, 81.5279, -130.422
2.73549, -1, -20.7451, 1.56591, 24.0152, 13.3229, 81.4338, -130.66
2.7435, -1, -20.9198, 1.47606, 24.0506, 13.325, 81.34, -130.898
2.75161, -1, -21.0948, 1.38634, 24.0862, 13.3272, 81.2463, -131.136
2.75955, -1, -21.2702, 1.29657, 24.1217, 13.3294, 81.1525, -131.374
2.76763, -1, -21.4458, 1.2069, 24.157, 13.3316, 81.0586, -131.612
2.77557, -1, -21.6218, 1.11732, 24.1925, 13.3338, 80.9649, -131.849
2.78397, -1, -21.7979, 1.02767, 24.228, 13.3359, 80.8711, -132.087
2.79157, -1, -21.9743, 0.938044, 24.2634, 13.3382, 80.7773, -132.324
2.79956, -1, -22.1509, 0.84847, 24.2988, 13.3403, 80.6836, -132.561
2.80823, -1, -22.3274, 0.75892, 24.3343, 13.3425, 80.5899, -132.799
2.81551, -1, -22.5035, 0.669436, 24.3695, 13.3447, 80.4963, -133.036
2.82353, -1, -22.6792, 0.579925, 24.4048, 13.3471, 80.4027, -133.272
2.8324, -1, -22.8542, 0.490536, 24.4401, 13.3495, 80.3091, -133.509
2.83967, -1, -23.0282, 0.401136, 24.4753, 13.3519, 80.2156, -133.746
2.84805, -1, -23.2018, 0.311794, 24.5104, 13.3545, 80.1221, -133.983
2.85661, -1, -23.3751, 0.222493, 24.5457, 13.3568, 80.0287, -134.219
2.86389, -1, -23.5482, 0.133285, 24.5809, 13.3593, 79.9352, -134.456
2.87251, -1, -23.7215, 0.0441613, 24.6161, 13.3616, 79.8419, -134.692
2.8808, -1, -23.8949, -0.0448917, 24.6514, 13.364, 79.7489, -134.928
2.88801, -1, -24.0684, -0.133843, 24.6865, 13.3665, 79.6556, -135.164
2.89625, -1, -24.2422, -0.222803, 24.7215, 13.369, 79.5625, -135.4
2.90492, -1, -24.4162, -0.311723, 24.7567, 13.3714, 79.4696, -135.635
2.91205, -1, -24.5034, -0.356137, 24.7918, 13.3738, 79.3764, -135.871
2.9201, -1, -24.678, -0.444995, 24.8093, 13.3762, 79.2834, -136.106
2.92745, -1, -24.8529, -0.533883, 24.8443, 13.3774, 79.237, -136.224
2.93546, -1, -25.028, -0.622693, 24.8795, 13.3798, 79.144, -136.459
2.9435, -1, -25.203, -0.7115, 24.9145, 13.3822, 79.051, -136.694
2.95151, -1, -25.3775, -0.800251, 24.9495, 13.3845, 78.9582, -136.929
2.95946, -1, -25.5517, -0.889073, 24.9846, 13.3869, 78.8657, -137.164
2.9675, -1, -25.7253, -0.977778, 25.0194, 13.3894, 78.7728, -137.399
2.97545, -1, -25.8982, -1.06645, 25.0542, 13.3918, 78.6801, -137.634
2.98352, -1, -26.0706, -1.15509, 25.0893, 13.3943, 78.5879, -137.868
2.99145, -1, -26.2427, -1.2437, 25.1241, 13.3967, 78.4952, -138.103
2.99946, -1, -26.4144, -1.33218, 25.1589, 13.399, 78.4026, -138.337
3.00753, -1, -26.5862, -1.42056, 25.1938, 13.4013, 78.3105, -138.572
3.01547, -1, -26.7583, -1.50887, 25.2287, 13.4035, 78.2178, -138.806
3.02344, -1, -26.9305, -1.59704, 25.2636, 13.4058, 78.1254, -139.04
3.03155, -1, -27.1029, -1.68519, 25.2984, 13.408, 78.0333, -139.274
3.03945, -1, -27.2754, -1.77341, 25.3333, 13.4101, 77.941, -139.508
3.04746, -1, -27.4483, -1.86151, 25.368, 13.4123, 77.8489, -139.741
3.0565, -1, -27.6215, -1.94961, 25.4027, 13.4144, 77.757, -139.975
3.06345, -1, -27.7948, -2.03781, 25.4376, 13.4165, 77.6649, -140.208
3.07245, -1, -27.9681, -2.12583, 25.4723, 13.4186, 77.5729, -140.441
3.07951, -1, -28.1415, -2.21386, 25.5069, 13.4206, 77.481, -140.675
3.08746, -1, -28.3146, -2.30185, 25.5417, 13.4226, 77.389, -140.908
3.09545, -1, -28.4874, -2.38989, 25.5765, 13.4246, 77.2968, -141.141
3.10347, -1, -28.6597, -2.47785, 25.6111, 13.4267, 77.2047, -141.374
3.11151, -1, -28.8315, -2.5658, 25.6458, 13.4289, 77.1127, -141.607
3.11948, -1, -29.0026, -2.65376, 25.6805, 13.4311, 77.0207, -141.84
3.12746, -1, -29.1732, -2.74162, 25.715, 13.4333, 76.9287, -142.072
3.13552, -1, -29.3437, -2.82941, 25.7497, 13.4353, 76.8371, -142.305
3.14346, -1, -29.5144, -2.9171, 25.7843, 13.4374, 76.7451, -142.537
3.15146, -1, -29.6852, -3.00467, 25.8188, 13.4394, 76.6533, -142.769
3.15951, -1, -29.8562, -3.09224, 25.8534, 13.4414, 76.5618, -143.002
3.16745, -1, -30.0271, -3.17971, 25.888, 13.4436, 76.4698, -143.234
3.1758, -1, -30.1981, -3.26723, 25.9225, 13.4456, 76.3781, -143.466
3.18348, -1, -30.3693, -3.35466, 25.957, 13.4477, 76.2867, -143.698
3.19145, -1, -30.5408, -3.44209, 25.9916, 13.4497, 76.1949, -143.93
3.20074, -1, -30.7126, -3.52965, 26.0261, 13.4517, 76.1035, -144.162
3.20845, -1, -30.8845, -3.61698, 26.0605, 13.4538, 76.0122, -144.393
3.21552, -1, -31.0563, -3.70433, 26.0951, 13.4557, 75.9208, -144.624
3.22346, -1, -31.228, -3.79166, 26.1295, 13.4578, 75.8295, -144.855
3.23145, -1, -31.3993, -3.87896, 26.1639, 13.4599, 75.7382, -145.087
3.23952, -1, -31.5702, -3.96625, 26.1984, 13.462, 75.647, -145.318
3.24765, -1, -31.7407, -4.05349, 26.2328, 13.4642, 75.5557, -145.549
3.25554, -1, -31.9107, -4.14075, 26.2671, 13.4664, 75.4645, -145.78
3.26361, -1, -32.0803, -4.22798, 26.3016, 13.4686, 75.3735, -146.01
3.27182, -1, -32.2497, -4.31509, 26.336, 13.4709, 75.2823, -146.241
3.27955, -1, -32.4191, -4.40216, 26.3702, 13.473, 75.1912, -146.472
3.28764, -1, -32.5888, -4.4891, 26.4046, 13.4751, 75.1006, -146.702
3.29599, -1, -32.7584, -4.576, 26.4391, 13.4772, 75.0095, -146.932
3.30347, -1, -32.9281, -4.66292, 26.4733, 13.4794, 74.9187, -147.163
3.31154, -1, -33.0978, -4.74983, 26.5075, 13.4816, 74.8284, -147.393
3.321, -1, -33.2676, -4.83664, 26.5418, 13.4838, 74.7375, -147.623
3.32753, -1, -33.4377, -4.92351, 26.5761, 13.486, 74.647, -147.853
3.33565, -1, -33.608, -5.01042, 26.6103, 13.4883, 74.5564, -148.083
3.34585, -1, -33.7783, -5.09717, 26.6446, 13.4905, 74.4658, -148.313
3.35244, -1, -33.9486, -5.18392, 26.6788, 13.4927, 74.3752, -148.543
3.35976, -1, -34.1189, -5.27065, 26.7129, 13.495, 74.2847, -148.772
3.36863, -1, -34.289, -5.35734, 26.7471, 13.4972, 74.1942, -149.001
3.376, -1, -34.459, -5.44396, 26.7814, 13.4995, 74.1036, -149.231
3.38464, -1, -34.6286, -5.53061, 26.8154, 13.5019, 74.013, -149.46
3.3928, -1, -34.7975, -5.61725, 26.8495, 13.5042, 73.9227, -149.689
3.40003, -1, -34.966, -5.7038, 26.8837, 13.5067, 73.8321, -149.918
3.40798, -1, -35.1343, -5.79028, 26.9178, 13.5092, 73.7416, -150.147
3.41684, -1, -35.2185, -5.83351, 26.9348, 13.5116, 73.6515, -150.376
3.42399, -1, -35.3868, -5.91984, 26.969, 13.5128, 73.6061, -150.491
3.43368, -1, -35.6395, -6.04912, 27.0201, 13.5163, 73.4705, -150.834
3.4395, -1, -35.7238, -6.09223, 27.0371, 13.5175, 73.4254, -150.948
3.44743, -1, -35.8923, -6.17837, 27.0711, 13.5198, 73.3352, -151.177
3.45547, -1, -36.0608, -6.26446, 27.1053, 13.5222, 73.2447, -151.406
3.46349, -1, -36.2293, -6.35053, 27.1392, 13.5246, 73.1543, -151.634
3.47144, -1, -36.398, -6.43674, 27.1731, 13.527, 73.0642, -151.863
3.47942, -1, -36.5669, -6.52296, 27.2072, 13.5293, 72.9736, -152.091
3.48956, -1, -36.8201, -6.65222, 27.2581, 13.5328, 72.8383, -152.433
3.49548, -1, -36.9046, -6.6953, 27.275, 13.5339, 72.7934, -152.547
3.5035, -1, -37.0736, -6.78149, 27.309, 13.5362, 72.7032, -152.775
3.51147, -1, -37.2424, -6.86765, 27.3429, 13.5384, 72.6132, -153.003
3.51948, -1, -37.4111, -6.9537, 27.3767, 13.5407, 72.5234, -153.23
3.52743, -1, -37.5791, -7.03977, 27.4107, 13.5429, 72.4334, -153.458
3.53552, -1, -37.7469, -7.12581, 27.4447, 13.5452, 72.3436, -153.686
3.54344, -1, -37.9145, -7.21177, 27.4784, 13.5474, 72.2539, -153.913
3.55143, -1, -38.082, -7.29767, 27.5123, 13.5496, 72.1642, -154.141
3.55949, -1, -38.2494, -7.38351, 27.5463, 13.5518, 72.0744, -154.368
3.56847, -1, -38.4168, -7.46926, 27.5801, 13.5539, 71.9847, -154.595
3.57544, -1, -38.5839, -7.55496, 27.614, 13.556, 71.8952, -154.822
3.5835, -1, -38.7512, -7.64068, 27.648, 13.5581, 71.8054, -155.049
3.59141, -1, -38.9186, -7.72638, 27.6817, 13.5601, 71.7159, -155.276
3.59945, -1, -39.0859, -7.81198, 27.7154, 13.5622, 71.6268, -155.503
3.6075, -1, -39.2534, -7.89764, 27.7493, 13.5641, 71.5373, -155.73
3.61543, -1, -39.4209, -7.98337, 27.7831, 13.5661, 71.448, -155.957
3.62348, -1, -39.5886, -8.06893, 27.8167, 13.568, 71.3587, -156.184
3.6315, -1, -39.7563, -8.15449, 27.8504, 13.57, 71.2694, -156.41
3.63944, -1, -39.9239, -8.23996, 27.8841, 13.5719, 71.1801, -156.637
3.64744, -1, -40.0915, -8.32539, 27.9178, 13.5739, 71.0906, -156.863
3.6555, -1, -40.2589, -8.41074, 27.9515, 13.5759, 71.0015, -157.089
3.66342, -1, -40.4261, -8.49614, 27.9853, 13.5778, 70.9119, -157.315
3.67144, -1, -40.5932, -8.58152, 28.0189, 13.5798, 70.8227, -157.541
3.67949, -1, -40.76, -8.66691, 28.0524, 13.5817, 70.7337, -157.767
3.68746, -1, -40.9265, -8.75224, 28.0861, 13.5838, 70.6445, -157.993
3.69544, -1, -41.0929, -8.83753, 28.1198, 13.5858, 70.5554, -158.219
3.70354, -1, -41.2592, -8.92279, 28.1533, 13.5878, 70.4664, -158.445
3.71142, -1, -41.4254, -9.00793, 28.1869, 13.5898, 70.3772, -158.671
3.71962, -1, -41.5916, -9.09307, 28.2206, 13.5918, 70.288, -158.896
3.72742, -1, -41.7579, -9.17814, 28.2541, 13.5938, 70.1989, -159.122
3.73544, -1, -41.9243, -9.26321, 28.2877, 13.5958, 70.1097, -159.347
3.74382, -1, -42.0907, -9.34827, 28.3214, 13.5978, 70.0207, -159.573
3.75149, -1, -42.257, -9.43334, 28.355, 13.5999, 69.9317, -159.798
3.75953, -1, -42.4233, -9.51838, 28.3884, 13.6019, 69.843, -160.023
3.76798, -1, -42.5897, -9.60337, 28.422, 13.6039, 69.7539, -160.248
3.77553, -1, -42.7561, -9.68835, 28.4555, 13.6059, 69.665, -160.473
3.78353, -1, -42.9225, -9.7733, 28.4888, 13.608, 69.5765, -160.699
3.79163, -1, -43.0889, -9.85819, 28.5223, 13.6101, 69.4876, -160.923
3.79999, -1, -43.255, -9.94311, 28.5558, 13.6121, 69.399, -161.148
3.80847, -1, -43.4211, -10.028, 28.5894, 13.6142, 69.3104, -161.373
3.81574, -1, -43.5871, -10.1129, 28.6229, 13.6163, 69.2217, -161.598
3.82435, -1, -43.753, -10.1979, 28.6564, 13.6183, 69.1331, -161.822
3.83151, -1, -43.9188, -10.2827, 28.6897, 13.6205, 69.0445, -162.047
3.83967, -1, -44.0845, -10.3675, 28.7231, 13.6226, 68.956, -162.271
3.84829, -1, -44.2498, -10.4522, 28.7566, 13.6247, 68.8674, -162.495
3.85576, -1, -44.415, -10.5368, 28.79, 13.627, 68.7788, -162.72
3.86431, -1, -44.5801, -10.6213, 28.8233, 13.6291, 68.6904, -162.944
3.87251, -1, -44.7453, -10.7058, 28.8567, 13.6313, 68.6017, -163.168
3.8799, -1, -44.9107, -10.7902, 28.8902, 13.6335, 68.5132, -163.392
3.88806, -1, -45.076, -10.8747, 28.9235, 13.6357, 68.4249, -163.616
3.89605, -1, -45.2414, -10.9593, 28.9569, 13.6379, 68.3362, -163.84
3.904, -1, -45.4066, -11.0437, 28.9904, 13.6402, 68.2478, -164.064
3.91228, -1, -45.5718, -11.1281, 29.0235, 13.6425, 68.1595, -164.288
3.92002, -1, -45.6544, -11.1703, 29.0567, 13.6448, 68.0713, -164.512
3.92835, -1, -45.9021, -11.2968, 29.0901, 13.6471, 67.9829, -164.736
3.93607, -1, -45.984, -11.3386, 29.1068, 13.6482, 67.9387, -164.847
3.94345, -1, -46.1455, -11.421, 29.1402, 13.6505, 67.8507, -165.071
3.95233, -1, -46.3025, -11.5004, 29.1737, 13.6541, 67.7202, -165.4
3.96057, -1, -46.453, -11.5755, 29.2072, 13.6552, 67.678, -165.507
3.9674, -1, -46.5945, -11.6455, 29.2395, 13.6575, 67.5964, -165.713
3.97541, -1, -46.7244, -11.7091, 29.2694, 13.6597, 67.5215, -165.904
3.98347, -1, -46.8398, -11.7653, 29.2958, 13.6617, 67.4543, -166.073
3.99141, -1, -46.939, -11.8146, 29.318, 13.6634, 67.3982, -166.215
3.99942, -1, -47.022, -11.8577, 29.3348, 13.6646, 67.3531, -166.329
4.0093, -1, -47.1177, -11.9104, 29.3503, 13.6656, 67.3063, -166.447
4.01541, -1, -47.1422, -11.9243, 29.3535, 13.6658, 67.2957, -166.474
4.02344, -1, -47.1815, -11.9465, 29.3575, 13.666, 67.2804, -166.512
4.03145, -1, -47.2093, -11.9621, 29.3593, 13.6661, 67.2716, -166.535
4.04102, -1, -47.2341, -11.9757, 29.3604, 13.6662, 67.2653, -166.55
4.0474, -1, -47.2389, -11.9782, 29.3606, 13.6663, 67.2643, -166.553
4.05546, 2, -47.2446, -11.9811, 29.3608, 13.6663, 67.2632, -166.555
4.06519, 2, -47.2467, -11.9824, 29.361, 13.6663, 67.2625, -166.557
4.0714, 2, -47.2468, -11.983, 29.3611, 13.6664, 67.2624, -166.557
4.0804, 2, -47.2465, -11.9831, 29.3612, 13.6664, 67.2623, -166.557
4.0874, 2, -47.2463, -11.9832, 29.3612, 13.6665, 67.2622, -166.558
4.09541, 2, -47.2467, -11.9833, 29.3613, 13.6665, 67.2622, -166.557
4.10349, 2, -47.2476, -11.9835, 29.3613, 13.6665, 67.2622, -166.558
4.11145, 2, -47.2489, -11.984, 29.3613, 13.6665, 67.2622, -166.558
4.11942, 2, -47.2508, -11.9847, 29.3613, 13.6664, 67.2622, -166.558
4.12751, 2, -47.2525, -11.9856, 29.3613, 13.6664, 67.2622, -166.558
4.13541, 2, -47.254, -11.9865, 29.3613, 13.6664, 67.2622, -166.558
4.1434, 2, -47.255, -11.9871, 29.3613, 13.6665, 67.2622, -166.558
4.15148, 2, -47.2554, -11.9875, 29.3613, 13.6664, 67.2622, -166.558
4.15941, 2, -47.2556, -11.9878, 29.3613, 13.6664, 67.2622, -166.558
4.16741, 2, -47.2557, -11.9878, 29.3613, 13.6664, 67.2622, -166.558
4.17549, 2, -47.2554, -11.9878, 29.3613, 13.6664, 67.2622, -166.558
4.1834, 2, -47.2548, -11.9878, 29.3614, 13.6665, 67.2622, -166.558
4.19144, 2, -47.2543, -11.9878, 29.3614, 13.6665, 67.2623, -166.558
4.19949, 2, -47.2539, -11.9878, 29.3614, 13.6665, 67.2623, -166.558
4.20744, 2, -47.2536, -11.9878, 29.3614, 13.6665, 67.2623, -166.558
4.21541, 2, -47.2535, -11.9878, 29.3614, 13.6665, 67.2623, -166.558
4.22347, 2, -47.2536, -11.988, 29.3614, 13.6664, 67.2622, -166.558
4.2314, 2, -47.2538, -11.9883, 29.3613, 13.6664, 67.2623, -166.558
4.23941, 2, -47.2544, -11.9886, 29.3614, 13.6664, 67.2623, -166.558
4.24751, 2, -47.2551, -11.989, 29.3614, 13.6664, 67.2622, -166.558
4.25549, 2, -47.2555, -11.9892, 29.3614, 13.6664, 67.2622, -166.558
4.26349, 2, -47.2557, -11.9893, 29.3614, 13.6664, 67.2622, -166.558
4.27156, 2, -47.2558, -11.9893, 29.3614, 13.6664, 67.2622, -166.558
4.27951, 2, -47.2557, -11.9893, 29.3614, 13.6664, 67.2623, -166.558
4.28751, 2, -47.2555, -11.9892, 29.3614, 13.6664, 67.2623, -166.558
4.29571, 2, -47.2551, -11.9891, 29.3614, 13.6664, 67.2623, -166.558
4.30341, 2, -47.2546, -11.9891, 29.3614, 13.6664, 67.2623, -166.558
4.31149, 2, -47.2543, -11.9891, 29.3614, 13.6664, 67.2623, -166.557
4.31952, 2, -47.254, -11.9891, 29.3614, 13.6664, 67.2623, -166.558
4.32745, 2, -47.2538, -11.9892, 29.3614, 13.6664, 67.2622, -166.558
4.33554, 2, -47.2538, -11.9892, 29.3614, 13.6664, 67.2623, -166.557
4.34363, 2, -47.2537, -11.9893, 29.3614, 13.6664, 67.2623, -166.557
4.35162, 2, -47.2537, -11.9893, 29.3614, 13.6664, 67.2623, -166.558
4.36001, 2, -47.2537, -11.9893, 29.3614, 13.6664, 67.2623, -166.558
4.36842, 2, -47.2538, -11.9893, 29.3614, 13.6664, 67.2623, -166.558
4.37584, 2, -47.2539, -11.9894, 29.3614, 13.6664, 67.2623, -166.557
4.38454, 2, -47.2539, -11.9893, 29.3614, 13.6664, 67.2623, -166.557
4.39195, 2, -47.2539, -11.9892, 29.3614, 13.6664, 67.2624, -166.557
4.4006, 2, -47.2538, -11.9892, 29.3614, 13.6664, 67.2623, -166.557
4.40802, 2, -47.2536, -11.9891, 29.3614, 13.6664, 67.2623, -166.557
4.41602, 2, -47.2535, -11.9891, 29.3614, 13.6664, 67.2623, -166.557
4.42395, 2, -47.2534, -11.9891, 29.3614, 13.6664, 67.2623, -166.557
4.43139, 2, -47.2532, -11.9891, 29.3614, 13.6664, 67.2623, -166.557
4.43946, 2, -47.2531, -11.9891, 29.3614, 13.6664, 67.2624, -166.557
4.44739, 2, -47.253, -11.9891, 29.3614, 13.6664, 67.2624, -166.557
4.4554, 2, -47.2529, -11.9891, 29.3614, 13.6664, 67.2624, -166.557
4.46348, 2, -47.2529, -11.9892, 29.3614, 13.6663, 67.2624, -166.557
4.47139, 2, -47.2528, -11.9892, 29.3614, 13.6663, 67.2624, -166.557
4.47939, 2, -47.2528, -11.9892, 29.3614, 13.6663, 67.2624, -166.557
4.48748, 2, -47.2528, -11.9891, 29.3614, 13.6663, 67.2624, -166.557
4.49539, 2, -47.2527, -11.9891, 29.3614, 13.6663, 67.2624, -166.557
4.50497, 2, -47.2526, -11.989, 29.3614, 13.6663, 67.2624, -166.557
4.51144, 2, -47.2525, -11.989, 29.3614, 13.6663, 67.2624, -166.557
4.52096, 2, -47.2524, -11.9889, 29.3614, 13.6664, 67.2624, -166.557
4.52901, 2, -47.2523, -11.9889, 29.3614, 13.6663, 67.2624, -166.557
4.53546, 2, -47.2522, -11.9889, 29.3614, 13.6663, 67.2624, -166.557
4.54509, 2, -47.2521, -11.9889, 29.3614, 13.6663, 67.2624, -166.557
4.55139, 2, -47.2521, -11.9889, 29.3614, 13.6663, 67.2624, -166.557
4.56039, 2, -47.2521, -11.9889, 29.3614, 13.6663, 67.2625, -166.557
4.56848, 2, -47.2519, -11.9889, 29.3614, 13.6663, 67.2625, -166.557
4.57539, 2, -47.2519, -11.9889, 29.3614, 13.6663, 67.2625, -166.557
4.58346, 2, -47.2518, -11.9889, 29.3614, 13.6663, 67.2625, -166.557
4.59138, 2, -47.2517, -11.9889, 29.3614, 13.6663, 67.2625, -166.557
4.5994, 2, -47.2516, -11.9889, 29.3614, 13.6663, 67.2625, -166.557
4.60757, 2, -47.2514, -11.9888, 29.3614, 13.6663, 67.2625, -166.557
4.61539, 2, -47.2513, -11.9887, 29.3614, 13.6663, 67.2625, -166.557
4.62339, 2, -47.2512, -11.9887, 29.3614, 13.6663, 67.2625, -166.557
4.63149, 2, -47.2511, -11.9886, 29.3614, 13.6663, 67.2625, -166.557
4.63939, 2, -47.251, -11.9886, 29.3614, 13.6662, 67.2625, -166.557
4.64739, 2, -47.2509, -11.9886, 29.3614, 13.6662, 67.2626, -166.557
4.65547, 2, -47.2508, -11.9886, 29.3614, 13.6662, 67.2626, -166.557
4.66338, 2, -47.2507, -11.9886, 29.3614, 13.6663, 67.2626, -166.557
4.67138, 2, -47.2506, -11.9886, 29.3614, 13.6662, 67.2626, -166.557
4.67947, 2, -47.2506, -11.9886, 29.3614, 13.6662, 67.2626, -166.557
4.68738, 2, -47.2505, -11.9886, 29.3614, 13.6662, 67.2626, -166.557
4.69541, 2, -47.2504, -11.9886, 29.3614, 13.6662, 67.2626, -166.557
4.70346, 2, -47.2503, -11.9885, 29.3614, 13.6662, 67.2626, -166.557
4.71141, 2, -47.2503, -11.9884, 29.3614, 13.6662, 67.2626, -166.557
4.7194, 2, -47.2502, -11.9884, 29.3614, 13.6662, 67.2626, -166.557
4.72746, 2, -47.2501, -11.9883, 29.3614, 13.6661, 67.2626, -166.557
4.73539, 2, -47.25, -11.9883, 29.3614, 13.6662, 67.2626, -166.557
4.74339, 2, -47.25, -11.9883, 29.3614, 13.6662, 67.2627, -166.557
4.75149, 2, -47.2499, -11.9883, 29.3614, 13.6661, 67.2627, -166.557
4.75948, 2, -47.2498, -11.9883, 29.3614, 13.6661, 67.2627, -166.557
4.7675, 2, -47.2498, -11.9883, 29.3614, 13.666, 67.2627, -166.557
4.77555, 2, -47.2498, -11.9883, 29.3614, 13.666, 67.2627, -166.557
4.7835, 2, -47.2497, -11.9883, 29.3614, 13.6661, 67.2627, -166.557
4.79149, 2, -47.2497, -11.9883, 29.3614, 13.666, 67.2627, -166.557
4.7996, 2, -47.2497, -11.9882, 29.3614, 13.666, 67.2627, -166.557
4.80739, 2, -47.2496, -11.9882, 29.3614, 13.666, 67.2627, -166.557
4.81541, 2, -47.2495, -11.9881, 29.3614, 13.666, 67.2627, -166.556
4.82349, 2, -47.2495, -11.9881, 29.3614, 13.666, 67.2627, -166.556
4.8316, 2, -47.2494, -11.988, 29.3614, 13.6661, 67.2627, -166.556
4.83953, 2, -47.2493, -11.988, 29.3614, 13.666, 67.2627, -166.556
4.84761, 2, -47.2492, -11.988, 29.3614, 13.666, 67.2628, -166.556
4.85576, 2, -47.2492, -11.9879, 29.3614, 13.666, 67.2628, -166.556
4.86416, 2, -47.2491, -11.9879, 29.3614, 13.666, 67.2628, -166.556
4.87179, 2, -47.2491, -11.9879, 29.3614, 13.666, 67.2628, -166.556
4.8802, 2, -47.249, -11.9879, 29.3614, 13.666, 67.2628, -166.556
4.8882, 2, -47.249, -11.9879, 29.3614, 13.666, 67.2628, -166.556
4.89595, 2, -47.249, -11.9879, 29.3614, 13.666, 67.2629, -166.556
4.90464, 2, -47.2489, -11.9879, 29.3614, 13.666, 67.2629, -166.556
4.91216, 2, -47.2489, -11.9878, 29.3614, 13.666, 67.2629, -166.556
4.92002, 2, -47.2488, -11.9878, 29.3614, 13.666, 67.2629, -166.556
4.92822, 2, -47.2488, -11.9877, 29.3614, 13.666, 67.2629, -166.556
4.93619, 2, -47.2488, -11.9877, 29.3614, 13.6659, 67.2629, -166.556
4.94342, 2, -47.2487, -11.9877, 29.3614, 13.6659, 67.2629, -166.556
4.95139, 2, -47.2487, -11.9876, 29.3614, 13.6659, 67.263, -166.556
4.96015, 2, -47.2485, -11.9876, 29.3614, 13.6659, 67.263, -166.556
4.96746, 2, -47.2485, -11.9876, 29.3614, 13.6659, 67.263, -166.556
4.97537, 2, -47.2484, -11.9876, 29.3614, 13.6659, 67.263, -166.556
4.98337, 2, -47.2484, -11.9876, 29.3614, 13.6659, 67.2631, -166.556
4.99141, 2, -47.2484, -11.9876, 29.3614, 13.6659, 67.263, -166.556
5.00086, 2, -47.2483, -11.9876, 29.3614, 13.6658, 67.263, -166.556
5.00736, 2, -47.2483, -11.9876, 29.3614, 13.6658, 67.2631, -166.556
5.01542, 2, -47.2482, -11.9875, 29.3614, 13.6658, 67.2631, -166.556
5.02533, 2, -47.2482, -11.9874, 29.3614, 13.6658, 67.2631, -166.556
5.03139, 2, -47.2482, -11.9874, 29.3614, 13.6658, 67.2631, -166.556
5.03945, 2, -47.2481, -11.9874, 29.3614, 13.6658, 67.2631, -166.556
5.04901, 2, -47.248, -11.9873, 29.3614, 13.6658, 67.2631, -166.556
5.05552, 2, -47.248, -11.9873, 29.3614, 13.6658, 67.2631, -166.556
5.06497, 2, -47.2479, -11.9873, 29.3614, 13.6657, 67.2631, -166.556
5.07143, 2, -47.2478, -11.9873, 29.3614, 13.6657, 67.2631, -166.556
5.08042, 2, -47.2478, -11.9873, 29.3614, 13.6657, 67.2631, -166.556
5.08737, 2, -47.2477, -11.9873, 29.3614, 13.6657, 67.2631, -166.556
5.09545, 2, -47.2476, -11.9873, 29.3614, 13.6656, 67.2631, -166.556
5.10348, 2, -47.2476, -11.9872, 29.3614, 13.6656, 67.2631, -166.556
5.11137, 2, -47.2476, -11.9872, 29.3614, 13.6657, 67.2631, -166.556
5.1195, 2, -47.2475, -11.9872, 29.3614, 13.6657, 67.2631, -166.556
5.12737, 2, -47.2475, -11.9871, 29.3614, 13.6657, 67.2631, -166.556
5.13545, 2, -47.2475, -11.9871, 29.3614, 13.6656, 67.2631, -166.556
5.14343, 4, -47.2475, -11.987, 29.3614, 13.6656, 67.2632, -166.556
5.15136, 4, -47.2474, -11.987, 29.3614, 13.6656, 67.2631, -166.556
5.15938, 4, -47.2473, -11.987, 29.3614, 13.6655, 67.2631, -166.556
5.16745, 4, -47.2473, -11.987, 29.3614, 13.6655, 67.2631, -166.556
5.17537, 4, -47.2472, -11.987, 29.3614, 13.6656, 67.2631, -166.556
5.18336, 4, -47.2472, -11.9869, 29.3614, 13.6656, 67.2631, -166.556
5.19142, 4, -47.2471, -11.9869, 29.3614, 13.6656, 67.2631, -166.556
5.1994, 4, -47.2471, -11.9869, 29.3614, 13.6655, 67.2631, -166.556
5.20736, 4, -47.2471, -11.9869, 29.3614, 13.6656, 67.2631, -166.556
5.21548, 4, -47.247, -11.9869, 29.3614, 13.6656, 67.2631, -166.556
5.22337, 4, -47.247, -11.9868, 29.3614, 13.6655, 67.2631, -166.556
5.23137, 4, -47.247, -11.9868, 29.3614, 13.6655, 67.2631, -166.556
5.2396, 4, -47.247, -11.9868, 29.3614, 13.6654, 67.2631, -166.556
5.26365, 4, -47.2468, -11.9867, 29.3614, 13.6654, 67.2631, -166.556
5.26562, 4, -47.2468, -11.9867, 29.3614, 13.6654, 67.2631, -166.556
5.26842, 4, -47.2468, -11.9867, 29.3614, 13.6654, 67.2632, -166.556
5.27337, 4, -47.2468, -11.9867, 29.3614, 13.6654, 67.2632, -166.556
5.28351, 4, -47.2467, -11.9867, 29.3614, 13.6655, 67.2631, -166.556
5.29164, 4, -47.2469, -11.9867, 29.3614, 13.6655, 67.2631, -166.556
5.29916, 4, -47.2478, -11.9872, 29.3618, 13.6656, 67.2633, -166.556
5.30444, 4, -47.2487, -11.9878, 29.3625, 13.666, 67.2634, -166.556
5.31137, 4, -47.2519, -11.9906, 29.3658, 13.6707, 67.2647, -166.555
5.31939, 4, -47.2568, -11.9961, 29.3739, 13.687, 67.2685, -166.552
5.32844, 4, -47.2639, -12.0046, 29.3892, 13.7195, 67.277, -166.546
5.33736, 5, -47.2738, -12.0167, 29.4143, 13.7743, 67.2919, -166.533
5.34348, 5, -47.2871, -12.0331, 29.4508, 13.8564, 67.3145, -166.515
5.35165, 5, -47.3039, -12.0541, 29.4991, 13.9655, 67.3454, -166.489
5.35966, 5, -47.3241, -12.0789, 29.5587, 14.1012, 67.3828, -166.457
5.36773, 5, -47.347, -12.1076, 29.6276, 14.258, 67.4258, -166.419
5.37614, 5, -47.3723, -12.1397, 29.7038, 14.4303, 67.474, -166.378
5.38432, 5, -47.4, -12.175, 29.7851, 14.6124, 67.5244, -166.335
5.39187, 5, -47.4296, -12.2125, 29.8696, 14.7998, 67.5753, -166.291
5.40047, 5, -47.4602, -12.2513, 29.9562, 14.9901, 67.628, -166.245
5.40798, 5, -47.4919, -12.291, 30.0442, 15.182, 67.6802, -166.2
5.41606, 5, -47.5243, -12.3314, 30.1331, 15.3747, 67.732, -166.155
5.42415, 5, -47.5572, -12.3721, 30.2227, 15.5678, 67.7848, -166.11
5.4329, 5, -47.5905, -12.4131, 30.3128, 15.761, 67.8361, -166.064
5.43935, 5, -47.6071, -12.4336, 30.3581, 15.8576, 67.8616, -166.042
5.44735, 5, -47.6403, -12.4746, 30.4489, 16.0512, 67.9135, -165.997
5.45645, 5, -47.6901, -12.5363, 30.5862, 16.3415, 67.9897, -165.931
5.46335, 5, -47.7066, -12.5569, 30.6322, 16.4382, 68.0149, -165.908
5.47313, 5, -47.7558, -12.6189, 30.7713, 16.7286, 68.0911, -165.842
5.47936, 5, -47.7722, -12.6395, 30.818, 16.8254, 68.116, -165.82
5.4887, 5, -47.8217, -12.7018, 30.959, 17.1159, 68.1904, -165.755
5.49535, 5, -47.8385, -12.7228, 31.0061, 17.2128, 68.2154, -165.733
5.5058, 5, -47.8892, -12.7858, 31.1481, 17.5033, 68.2885, -165.668
5.51135, 5, -47.9063, -12.8069, 31.1957, 17.6002, 68.3128, -165.647
5.52086, 5, -47.9573, -12.8706, 31.3392, 17.8908, 68.3862, -165.583
5.529, 5, -47.9915, -12.9134, 31.4357, 18.0848, 68.4337, -165.54
5.53702, 5, -48.0258, -12.9564, 31.5327, 18.2786, 68.4816, -165.498
5.54342, 5, -48.043, -12.9779, 31.5815, 18.3755, 68.5057, -165.477
5.55436, 5, -48.0948, -13.0426, 31.7282, 18.6664, 68.5761, -165.415
5.55938, 5, -48.1121, -13.0642, 31.7772, 18.7634, 68.5995, -165.394
5.56738, 5, -48.1467, -13.1076, 31.8757, 18.9575, 68.6468, -165.352
5.5773, 5, -48.1815, -13.1511, 31.9748, 19.1515, 68.7161, -165.29
5.58334, 5, -48.2163, -13.1946, 32.0746, 19.3455, 68.739, -165.27
5.59137, 5, -48.2509, -13.2383, 32.1751, 19.5397, 68.7853, -165.23
5.59959, 5, -48.2855, -13.2821, 32.276, 19.7337, 68.8312, -165.189
5.60822, 5, -48.3202, -13.3261, 32.3773, 19.9279, 68.8761, -165.148
5.61535, 5, -48.3552, -13.3701, 32.4788, 20.1219, 68.9215, -165.108
5.62341, 5, -48.3902, -13.4143, 32.5808, 20.3159, 68.9666, -165.068
5.63135, 5, -48.4254, -13.4587, 32.6835, 20.51, 69.0107, -165.029
5.63939, 5, -48.4609, -13.5033, 32.7869, 20.7043, 69.0549, -164.989
5.64768, 5, -48.4965, -13.548, 32.8909, 20.8984, 69.0994, -164.949
5.6578, 5, -48.5323, -13.5928, 33.0476, 21.1897, 69.1642, -164.891
5.66436, 5, -48.5678, -13.6377, 33.0999, 21.2868, 69.1858, -164.871
5.67148, 5, -48.6031, -13.6827, 33.2048, 21.4811, 69.2296, -164.833
5.67935, 5, -48.6378, -13.7277, 33.3101, 21.6753, 69.2726, -164.793
5.68735, 5, -48.6713, -13.7723, 33.4159, 21.8688, 69.3148, -164.753
5.69542, 5, -48.7037, -13.8167, 33.5217, 22.0611, 69.3581, -164.712
5.70338, 5, -48.7346, -13.8605, 33.627, 22.2511, 69.402, -164.667
5.71135, 5, -48.7636, -13.9034, 33.7308, 22.4376, 69.446, -164.615
5.72289, 6, -48.8026, -13.9656, 33.8827, 22.7074, 69.5153, -164.523
5.72761, 6, -48.8142, -13.9856, 33.9321, 22.7941, 69.5394, -164.488
5.73636, 6, -48.8351, -14.0246, 34.0289, 22.962, 69.5879, -164.408
5.74338, 6, -48.8526, -14.062, 34.1227, 23.1219, 69.6386, -164.317
5.75156, 6, -48.8662, -14.0978, 34.2135, 23.2742, 69.692, -164.214
5.75939, 6, -48.8764, -14.1317, 34.301, 23.4188, 69.7461, -164.099
5.76748, 6, -48.8831, -14.1638, 34.3852, 23.5566, 69.8026, -163.974
5.77575, 7, -48.8866, -14.1944, 34.4666, 23.6883, 69.8603, -163.84
5.7839, 7, -48.8872, -14.2236, 34.5455, 23.8144, 69.9189, -163.697
5.79237, 7, -48.885, -14.2512, 34.6223, 23.9361, 69.9795, -163.548
5.7997, 7, -48.8802, -14.2776, 34.6972, 24.0538, 70.0403, -163.392
5.80862, 7, -48.8733, -14.3029, 34.7703, 24.1681, 70.1031, -163.23
5.81635, 7, -48.8647, -14.3272, 34.8416, 24.2789, 70.1661, -163.064
5.82371, 7, -48.8546, -14.3507, 34.9113, 24.3872, 70.2301, -162.893
5.83258, 8, -48.8432, -14.3732, 34.9797, 24.4933, 70.2951, -162.718
5.8394, 8, -48.8305, -14.3951, 35.0468, 24.5974, 70.3603, -162.54
5.84783, 8, -48.8167, -14.4163, 35.113, 24.7003, 70.4271, -162.359
5.85554, 8, -48.8019, -14.4368, 35.1781, 24.8018, 70.4934, -162.175
5.86364, 8, -48.7861, -14.4569, 35.2424, 24.9027, 70.5612, -161.99
5.87379, 8, -48.7697, -14.4765, 35.306, 25.0029, 70.6288, -161.803
5.88014, 8, -48.7525, -14.4955, 35.369, 25.1025, 70.6974, -161.615
5.88933, 8, -48.7347, -14.5142, 35.4315, 25.2018, 70.7654, -161.426
5.89606, 9, -48.7163, -14.5326, 35.4935, 25.3011, 70.8346, -161.237
5.90396, 9, -48.6975, -14.5506, 35.5551, 25.4002, 70.9032, -161.046
5.91254, 9, -48.6783, -14.5684, 35.6163, 25.4996, 70.9727, -160.856
5.91994, 9, -48.6687, -14.5862, 35.6771, 25.5994, 71.0415, -160.666
5.92847, 9, -48.6393, -14.6036, 35.7376, 25.6992, 71.1109, -160.476
5.93586, 9, -48.6294, -14.6122, 35.7678, 25.7494, 71.1459, -160.381
5.94442, 9, -48.5996, -14.6378, 35.858, 25.9007, 71.25, -160.096
5.95269, 10, -48.5798, -14.6549, 35.9179, 26.0019, 71.3198, -159.906
5.96127, 10, -48.5598, -14.6717, 35.9777, 26.1038, 71.3893, -159.717
5.96733, 10, -48.5497, -14.68, 36.0075, 26.1549, 71.4245, -159.623
5.97536, 10, -48.5297, -14.6968, 36.067, 26.2575, 71.4939, -159.434
5.98555, 10, -48.4996, -14.7222, 36.1563, 26.4124, 71.5989, -159.152
5.99134, 10, -48.4894, -14.7305, 36.186, 26.4645, 71.6334, -159.058
5.9995, 10, -48.4689, -14.747, 36.2455, 26.5687, 71.7032, -158.871
6.0089, 10, -48.4483, -14.7722, 36.3343, 26.7264, 71.807, -158.592
6.0179, 11, -48.4172, -14.7888, 36.3933, 26.832, 71.8767, -158.407
6.02486, 11, -48.3963, -14.8053, 36.4522, 26.9382, 71.9454, -158.222
6.03291, 11, -48.3755, -14.822, 36.5111, 27.0448, 72.0149, -158.038
6.042, 11, -48.3547, -14.8388, 36.5698, 27.1517, 72.0836, -157.854
6.04968, 11, -48.3338, -14.8554, 36.6285, 27.259, 72.153, -157.671
6.06013, 11, -48.3127, -14.8718, 36.6871, 27.3669, 72.2216, -157.488
6.0633, 11, -48.3022, -14.8801, 36.7164, 27.4209, 72.256, -157.396
6.07133, 12, -48.2811, -14.8968, 36.7749, 27.5292, 72.325, -157.214
6.07939, 12, -48.2598, -14.9134, 36.8332, 27.6381, 72.3933, -157.032
6.08839, 12, -48.2383, -14.9296, 36.8915, 27.747, 72.4621, -156.851
6.09531, 12, -48.2165, -14.9462, 36.9496, 27.8562, 72.5299, -156.67
6.10339, 12, -48.1946, -14.9629, 37.0075, 27.9656, 72.5985, -156.49
6.11135, 12, -48.1723, -14.9793, 37.0652, 28.0751, 72.6662, -156.31
6.11933, 12, -48.1495, -14.9956, 37.1228, 28.1848, 72.7348, -156.13
6.12851, 13, -48.1267, -15.0122, 37.18, 28.2946, 72.8021, -155.95
6.13589, 13, -48.1037, -15.0287, 37.2372, 28.4047, 72.8702, -155.771
6.14444, 13, -48.0803, -15.045, 37.2942, 28.5148, 72.9373, -155.592
6.15233, 13, -48.0567, -15.0614, 37.3509, 28.6248, 73.005, -155.413
6.16037, 13, -48.0329, -15.078, 37.4075, 28.7351, 73.0722, -155.235
6.1684, 13, -48.0087, -15.0944, 37.4639, 28.845, 73.1392, -155.057
6.1765, 13, -47.9841, -15.1106, 37.52, 28.9551, 73.2065, -154.879
6.18359, 14, -47.9594, -15.1268, 37.576, 29.0652, 73.2732, -154.7
6.19135, 14, -47.9344, -15.1432, 37.6317, 29.1751, 73.3406, -154.523
6.19934, 14, -47.9088, -15.1594, 37.6871, 29.2851, 73.4066, -154.345
6.20742, 14, -47.8829, -15.1753, 37.7423, 29.395, 73.4734, -154.168
6.21535, 14, -47.8566, -15.1915, 37.7972, 29.5049, 73.5394, -153.991
6.2247, 14, -47.8298, -15.2078, 37.8517, 29.6146, 73.6061, -153.814
6.2331, 14, -47.8026, -15.2239, 37.9062, 29.7241, 73.6719, -153.638
6.24033, 14, -47.7753, -15.2399, 37.9605, 29.8334, 73.738, -153.461
6.24733, 15, -47.7477, -15.256, 38.0144, 29.9427, 73.8038, -153.285
6.25535, 15, -47.7198, -15.2723, 38.0683, 30.0518, 73.8694, -153.109
6.26344, 15, -47.6913, -15.2883, 38.1218, 30.1608, 73.9351, -152.933
6.27142, 15, -47.6625, -15.3042, 38.175, 30.2696, 74.0002, -152.757
6.27944, 15, -47.6334, -15.3204, 38.2281, 30.3782, 74.0658, -152.581
6.2875, 15, -47.6039, -15.3366, 38.2809, 30.4868, 74.1304, -152.406
6.29543, 15, -47.574, -15.3526, 38.3335, 30.5951, 74.1957, -152.231
6.30454, 16, -47.5436, -15.3686, 38.3858, 30.7032, 74.2597, -152.056
6.31216, 16, -47.5127, -15.3848, 38.438, 30.8112, 74.3244, -151.882
6.31939, 16, -47.4816, -15.4011, 38.4897, 30.919, 74.3881, -151.708
6.32736, 16, -47.4501, -15.4171, 38.5413, 31.0269, 74.4521, -151.535
6.33628, 16, -47.4182, -15.4334, 38.5928, 31.1345, 74.5158, -151.361
6.34344, 16, -47.3858, -15.45, 38.644, 31.2419, 74.5785, -151.189
6.35181, 16, -47.3531, -15.4665, 38.6951, 31.3492, 74.6421, -151.016
6.36036, 17, -47.3203, -15.4829, 38.746, 31.4563, 74.7042, -150.845
6.36863, 17, -47.2871, -15.4995, 38.7967, 31.5633, 74.7673, -150.673
6.37573, 17, -47.2537, -15.5164, 38.8471, 31.67, 74.829, -150.502
6.38378, 17, -47.2198, -15.5331, 38.8976, 31.7768, 74.891, -150.331
6.39275, 17, -47.1854, -15.5499, 38.9478, 31.8836, 74.9528, -150.161
6.4007, 17, -47.1506, -15.567, 38.9979, 31.9901, 75.0138, -149.991
6.40929, 17, -47.1155, -15.5844, 39.0478, 32.0965, 75.0751, -149.822
6.41594, 17, -47.08, -15.6015, 39.0975, 32.2028, 75.1351, -149.654
6.42451, 18, -47.044, -15.6188, 39.147, 32.3089, 75.1956, -149.486
6.43191, 18, -47.0259, -15.6276, 39.1717, 32.362, 75.2551, -149.318
6.44034, 18, -46.9713, -15.6544, 39.2457, 32.5208, 75.3144, -149.151
6.44731, 18, -46.9528, -15.6633, 39.2704, 32.5736, 75.3443, -149.068
6.45532, 18, -46.9156, -15.6813, 39.3195, 32.6794, 75.4028, -148.901
6.46438, 18, -46.8593, -15.7089, 39.393, 32.838, 75.4901, -148.654
6.47131, 18, -46.8404, -15.7181, 39.4175, 32.8906, 75.519, -148.571
6.47951, 19, -46.8024, -15.7365, 39.4662, 32.9961, 75.576, -148.407
6.48733, 19, -46.764, -15.7552, 39.5149, 33.1014, 75.6336, -148.243
6.49672, 19, -46.7056, -15.7837, 39.5877, 33.2587, 75.7179, -147.998
6.50332, 19, -46.686, -15.7932, 39.612, 33.3112, 75.746, -147.917
6.5128, 19, -46.6265, -15.8222, 39.6844, 33.4684, 75.8298, -147.674
6.52083, 19, -46.5862, -15.8418, 39.7325, 33.573, 75.8847, -147.513
6.53266, 19, -46.5456, -15.8616, 39.7805, 33.6775, 75.9672, -147.273
6.53527, 20, -46.5252, -15.8716, 39.8044, 33.7296, 75.9672, -147.273
6.54342, 20, -46.4841, -15.8918, 39.8521, 33.8338, 76.0205, -147.114
6.55293, 20, -46.4215, -15.9226, 39.9236, 33.9897, 76.1012, -146.876
6.56086, 20, -46.4005, -15.9329, 39.9474, 34.0415, 76.1536, -146.718
6.56832, 20, -46.3584, -15.9538, 39.9949, 34.145, 76.1799, -146.639
6.57697, 20, -46.3159, -15.9749, 40.0421, 34.2485, 76.2327, -146.482
6.58749, 20, -46.2512, -16.007, 40.1129, 34.4032, 76.3095, -146.248
6.59128, 20, -46.2296, -16.0177, 40.1364, 34.4547, 76.3352, -146.17
6.59939, 21, -46.186, -16.0392, 40.1832, 34.5575, 76.3865, -146.015
6.60732, 21, -46.1418, -16.0613, 40.23, 34.66, 76.4363, -145.86
6.61537, 21, -46.0971, -16.0834, 40.2767, 34.7624, 76.4863, -145.706
6.62337, 21, -46.0521, -16.1056, 40.3231, 34.8643, 76.5363, -145.552
6.63132, 21, -46.0068, -16.1282, 40.3693, 34.9662, 76.5847, -145.399
6.63938, 21, -45.9608, -16.1509, 40.4154, 35.0677, 76.6334, -145.247
6.65093, 21, -45.8912, -16.1854, 40.4842, 35.2194, 76.7058, -145.019
6.65547, 22, -45.8678, -16.197, 40.507, 35.2699, 76.7294, -144.944
6.66359, 22, -45.8207, -16.2202, 40.5526, 35.3707, 76.7769, -144.792
6.67139, 22, -45.7731, -16.2437, 40.5979, 35.4709, 76.8244, -144.642
6.67931, 22, -45.7251, -16.2675, 40.6431, 35.571, 76.8704, -144.492
6.68731, 22, -45.6766, -16.2912, 40.688, 35.6706, 76.9162, -144.342
6.69537, 22, -45.6276, -16.3154, 40.7327, 35.7698, 76.9622, -144.193
6.70356, 22, -45.5783, -16.3394, 40.7773, 35.8689, 77.007, -144.044
6.71235, 23, -45.5284, -16.3636, 40.8214, 35.9674, 77.0515, -143.896
6.71931, 23, -45.478, -16.3881, 40.8655, 36.0656, 77.0966, -143.747
6.72742, 23, -45.4272, -16.4125, 40.9092, 36.1635, 77.1405, -143.599
6.73538, 23, -45.376, -16.4373, 40.9527, 36.261, 77.1834, -143.452
6.74331, 23, -45.3241, -16.4621, 40.9959, 36.358, 77.227, -143.305
6.75172, 23, -45.2717, -16.4869, 41.0387, 36.4545, 77.27, -143.158
6.76036, 23, -45.2189, -16.512, 41.0813, 36.5507, 77.3119, -143.012
6.76744, 23, -45.1655, -16.5371, 41.1235, 36.6462, 77.354, -142.866
6.77547, 24, -45.1117, -16.5623, 41.1653, 36.7413, 77.3964, -142.72
6.78341, 24, -45.0574, -16.5876, 41.207, 36.8361, 77.4377, -142.575
6.79148, 24, -45.0026, -16.613, 41.2482, 36.93, 77.4783, -142.429
6.79951, 24, -44.9474, -16.6385, 41.2892, 37.0238, 77.5194, -142.284
6.80749, 24, -44.8917, -16.6639, 41.3298, 37.1171, 77.5601, -142.14
6.81549, 24, -44.8354, -16.6896, 41.3699, 37.2095, 77.5997, -141.995
6.82611, 24, -44.7786, -16.7151, 41.4098, 37.3017, 77.6394, -141.851
6.83171, 25, -44.7211, -16.7406, 41.4493, 37.3934, 77.6794, -141.706
6.8404, 25, -44.663, -16.7662, 41.4882, 37.4843, 77.7183, -141.562
6.84744, 25, -44.6046, -16.7918, 41.5269, 37.5746, 77.7565, -141.418
6.85555, 25, -44.5455, -16.8176, 41.5653, 37.6645, 77.795, -141.274
6.86463, 25, -44.4859, -16.8432, 41.6031, 37.7537, 77.8336, -141.13
6.87161, 25, -44.4259, -16.8688, 41.6405, 37.8425, 77.8711, -140.987
6.88012, 25, -44.3651, -16.8944, 41.6775, 37.9307, 77.9082, -140.844
6.88785, 26, -44.3039, -16.9199, 41.7139, 38.0184, 77.9457, -140.7
6.8968, 26, -44.242, -16.9455, 41.75, 38.1052, 77.9831, -140.557
6.90388, 26, -44.1797, -16.9709, 41.7856, 38.1915, 78.0194, -140.414
6.91249, 26, -44.1169, -16.9964, 41.8206, 38.2773, 78.0552, -140.271
6.92076, 26, -44.0535, -17.0217, 41.8553, 38.3623, 78.0914, -140.128
6.92858, 26, -43.9896, -17.0471, 41.8895, 38.4469, 78.1274, -139.985
6.93683, 26, -43.9251, -17.0724, 41.9232, 38.5306, 78.1626, -139.843
6.94471, 27, -43.8601, -17.0974, 41.9564, 38.6138, 78.1973, -139.7
6.95132, 27, -43.8274, -17.1099, 41.9729, 38.6551, 78.2147, -139.629
6.96056, 27, -43.7283, -17.1474, 42.0214, 38.7787, 78.2676, -139.415
6.96736, 27, -43.6951, -17.1598, 42.0373, 38.8195, 78.2849, -139.344
6.9753, 27, -43.6281, -17.1848, 42.0688, 38.9006, 78.3187, -139.201
6.9848, 27, -43.5265, -17.2218, 42.1151, 39.0211, 78.3693, -138.987
6.9913, 27, -43.4923, -17.2341, 42.1303, 39.0607, 78.3864, -138.916
7.00175, 27, -43.389, -17.2708, 42.175, 39.1793, 78.437, -138.702
7.00758, 28, -43.3543, -17.2829, 42.1898, 39.2183, 78.4534, -138.631
7.01683, 28, -43.2494, -17.3194, 42.2329, 39.3349, 78.5025, -138.418
7.02481, 28, -43.1788, -17.3433, 42.2611, 39.4119, 78.5356, -138.276
7.03286, 28, -43.1076, -17.3673, 42.2888, 39.4879, 78.5686, -138.134
7.0393, 28, -43.0719, -17.3792, 42.3025, 39.5258, 78.5847, -138.063
7.04887, 28, -42.9637, -17.4147, 42.3425, 39.6385, 78.6323, -137.85
7.05543, 28, -42.9274, -17.4265, 42.3555, 39.6759, 78.6481, -137.778
7.06339, 29, -42.8542, -17.45, 42.3812, 39.7501, 78.68, -137.636
7.07378, 29, -42.7805, -17.4732, 42.4065, 39.8234, 78.7118, -137.494
7.0793, 29, -42.7064, -17.4964, 42.4312, 39.8964, 78.7428, -137.352
7.08742, 29, -42.6316, -17.5193, 42.4553, 39.9684, 78.7736, -137.21
7.09636, 29, -42.5563, -17.5421, 42.4789, 40.04, 78.8042, -137.068
7.10444, 29, -42.4805, -17.5648, 42.5019, 40.1104, 78.8354, -136.926
7.11158, 29, -42.404, -17.5872, 42.5245, 40.1808, 78.866, -136.784
7.11952, 30, -42.327, -17.6095, 42.5465, 40.2502, 78.896, -136.642
7.12735, 30, -42.2496, -17.6315, 42.5678, 40.3193, 78.9255, -136.5
7.1353, 30, -42.1716, -17.6533, 42.5888, 40.3871, 78.9552, -136.359
7.1433, 30, -42.0931, -17.6752, 42.6092, 40.4551, 78.9852, -136.217
7.15136, 30, -42.0141, -17.6966, 42.6292, 40.5216, 79.0147, -136.075
7.1593, 30, -41.9346, -17.7178, 42.6486, 40.5884, 79.0437, -135.934
7.16735, 30, -41.8546, -17.7391, 42.6672, 40.6536, 79.0724, -135.792
7.17712, 30, -41.7742, -17.76, 42.6855, 40.7191, 79.1013, -135.65
7.18343, 31, -41.6932, -17.7807, 42.7032, 40.7831, 79.1305, -135.508
7.19258, 31, -41.6116, -17.8014, 42.7202, 40.8473, 79.1592, -135.367
7.19929, 31, -41.5295, -17.8217, 42.7368, 40.9102, 79.1873, -135.226
7.20735, 31, -41.4469, -17.8418, 42.7531, 40.9726, 79.2149, -135.084
7.21542, 31, -41.3637, -17.8618, 42.7688, 41.0347, 79.2426, -134.943
7.2233, 31, -41.2801, -17.8813, 42.7836, 41.0955, 79.2706, -134.801
7.23145, 31, -41.1961, -17.9008, 42.7981, 41.1568, 79.2983, -134.66
7.23936, 32, -41.1116, -17.9203, 42.8121, 41.2163, 79.3256, -134.518
7.24757, 32, -41.0267, -17.9393, 42.8253, 41.2761, 79.3523, -134.377
7.25529, 32, -40.9413, -17.9581, 42.8379, 41.3349, 79.3791, -134.236
7.2634, 32, -40.8553, -17.9768, 42.8503, 41.3931, 79.4062, -134.095
7.27163, 32, -40.769, -17.9953, 42.8621, 41.4513, 79.4332, -133.954
7.27956, 32, -40.6821, -18.0135, 42.8735, 41.5077, 79.4597, -133.813
7.28828, 32, -40.5947, -18.0315, 42.8842, 41.5646, 79.4856, -133.672
7.29567, 33, -40.5068, -18.0494, 42.8942, 41.6206, 79.5111, -133.532
7.30341, 33, -40.4184, -18.067, 42.9039, 41.6756, 79.5368, -133.391
7.3114, 33, -40.3296, -18.0842, 42.9129, 41.7309, 79.5627, -133.25
7.31942, 33, -40.2404, -18.1013, 42.9216, 41.7845, 79.5883, -133.11
7.32737, 33, -40.1508, -18.1183, 42.9297, 41.838, 79.6134, -132.97
7.33533, 33, -40.0606, -18.1349, 42.9372, 41.8914, 79.6381, -132.829
7.34344, 33, -39.9699, -18.1513, 42.9441, 41.9431, 79.6625, -132.689
7.35267, 33, -39.8789, -18.1677, 42.9504, 41.9952, 79.6873, -132.549
7.36086, 34, -39.7873, -18.1838, 42.9564, 42.0464, 79.7123, -132.408
7.3693, 34, -39.6953, -18.1993, 42.9619, 42.0964, 79.7369, -132.268
7.37563, 34, -39.6027, -18.2148, 42.9669, 42.1471, 79.7609, -132.128
7.38373, 34, -39.5098, -18.2303, 42.9714, 42.1967, 79.7846, -131.989
7.39183, 34, -39.4164, -18.2454, 42.9753, 42.2452, 79.8079, -131.849
7.40366, 34, -39.3227, -18.2599, 42.9787, 42.2943, 79.8435, -131.64
7.40827, 34, -39.2285, -18.2744, 42.9815, 42.342, 79.8554, -131.57
7.41587, 35, -39.1337, -18.289, 42.9838, 42.3888, 79.8789, -131.43
7.42488, 35, -39.0385, -18.3031, 42.9856, 42.436, 79.9021, -131.291
7.43247, 35, -38.9429, -18.3167, 42.987, 42.482, 79.9248, -131.152
7.4399, 35, -38.8949, -18.3234, 42.9874, 42.5045, 79.9361, -131.012
7.44912, 35, -38.7505, -18.3435, 42.9881, 42.5724, 79.9699, -130.874
7.4561, 35, -38.7021, -18.3502, 42.9882, 42.5949, 79.9813, -130.735
7.46326, 35, -38.605, -18.3632, 42.9882, 42.6387, 80.0042, -130.665
7.47238, 36, -38.4588, -18.3819, 42.9876, 42.7036, 80.0378, -130.457
7.47929, 36, -38.4098, -18.388, 42.9872, 42.7254, 80.0488, -130.388
7.48861, 36, -38.2623, -18.4062, 42.9853, 42.7885, 80.0812, -130.18
7.49537, 36, -38.2129, -18.4122, 42.9843, 42.8092, 80.0919, -130.11
7.50329, 36, -38.1136, -18.424, 42.9819, 42.8508, 80.1134, -129.972
7.51269, 36, -37.9641, -18.4406, 42.9772, 42.9119, 80.146, -129.765
7.51928, 36, -37.9142, -18.446, 42.9754, 42.9316, 80.1568, -129.696
7.52925, 36, -37.7635, -18.462, 42.9692, 42.9907, 80.1888, -129.489
7.53544, 37, -37.7131, -18.4673, 42.9668, 43.0106, 80.1993, -129.42
7.54488, 37, -37.5615, -18.4829, 42.9587, 43.0681, 80.2301, -129.214
7.55147, 37, -37.5108, -18.4879, 42.9557, 43.0868, 80.2403, -129.145
7.56095, 37, -37.3579, -18.5022, 42.9457, 43.1431, 80.2711, -128.939
7.56904, 37, -37.3068, -18.5069, 42.9422, 43.1802, 80.2918, -128.801
7.5787, 37, -37.1527, -18.5206, 42.9309, 43.216, 80.3124, -128.664
7.58706, 37, -37.1012, -18.5251, 42.9268, 43.2511, 80.3324, -128.527
7.59126, 38, -36.9977, -18.5339, 42.9183, 43.2688, 80.3423, -128.459
7.59935, 38, -36.8939, -18.5425, 42.9093, 43.304, 80.3617, -128.322
7.60729, 38, -36.7896, -18.5508, 42.8997, 43.3382, 80.3808, -128.185
7.61528, 38, -36.6847, -18.5586, 42.8895, 43.3714, 80.4, -128.048
7.62335, 38, -36.5795, -18.5659, 42.8791, 43.4043, 80.4194, -127.912
7.63149, 38, -36.4741, -18.5731, 42.868, 43.4373, 80.4388, -127.775
7.64034, 38, -36.3683, -18.58, 42.8564, 43.4695, 80.4581, -127.639
7.64832, 39, -36.2621, -18.5867, 42.8442, 43.5006, 80.4771, -127.504
7.65634, 39, -36.1556, -18.5931, 42.8314, 43.5309, 80.4956, -127.368
7.66435, 39, -36.0488, -18.5995, 42.8182, 43.5612, 80.514, -127.232
7.67232, 39, -35.9415, -18.6056, 42.8044, 43.5914, 80.5323, -127.096
7.6804, 39, -35.8337, -18.6113, 42.7902, 43.6207, 80.5507, -126.961
7.6884, 39, -35.7256, -18.6166, 42.7756, 43.6492, 80.5692, -126.826
7.69628, 39, -35.6171, -18.6216, 42.7606, 43.6771, 80.5878, -126.69
7.70448, 39, -35.5084, -18.6262, 42.745, 43.7048, 80.6062, -126.556
7.71242, 40, -35.3993, -18.6306, 42.7287, 43.7324, 80.6242, -126.421
7.71934, 40, -35.2897, -18.6349, 42.712, 43.7592, 80.6418, -126.286
7.72812, 40, -35.1798, -18.6389, 42.6949, 43.785, 80.6591, -126.152
7.73531, 40, -35.0696, -18.6425, 42.6773, 43.8101, 80.6761, -126.017
7.74329, 40, -34.9591, -18.6458, 42.6593, 43.835, 80.6932, -125.883
7.75317, 40, -34.848, -18.6489, 42.641, 43.8597, 80.7104, -125.748
7.76029, 40, -34.7367, -18.6517, 42.6219, 43.8842, 80.7277, -125.614
7.76737, 41, -34.6253, -18.6543, 42.6024, 43.9077, 80.7449, -125.48
7.77563, 41, -34.5136, -18.6567, 42.5825, 43.9305, 80.7617, -125.347
7.7836, 41, -34.4014, -18.6589, 42.5621, 43.9525, 80.7783, -125.213
7.79235, 41, -34.2889, -18.6609, 42.5413, 43.9741, 80.7945, -125.08
7.79982, 41, -34.1761, -18.6627, 42.52, 43.9955, 80.8105, -124.947
7.80738, 41, -34.0629, -18.6643, 42.4981, 44.0167, 80.8265, -124.814
7.81545, 41, -33.9493, -18.6656, 42.476, 44.0374, 80.8425, -124.681
7.82328, 42, -33.8352, -18.6666, 42.4533, 44.0572, 80.8586, -124.549
7.83239, 42, -33.7209, -18.6673, 42.4303, 44.0762, 80.8749, -124.416
7.83937, 42, -33.6062, -18.6677, 42.4068, 44.0945, 80.891, -124.284
7.84735, 42, -33.491, -18.668, 42.3828, 44.1123, 80.9068, -124.152
7.8566, 42, -33.3756, -18.668, 42.3584, 44.1298, 80.9223, -124.02
7.86426, 42, -33.26, -18.6681, 42.3336, 44.147, 80.9374, -123.889
7.87161, 42, -33.1439, -18.668, 42.3084, 44.1641, 80.9522, -123.757
7.87985, 42, -33.0276, -18.6678, 42.2826, 44.1805, 80.9669, -123.626
7.88836, 43, -32.9107, -18.6674, 42.2566, 44.1962, 80.9816, -123.494
7.8958, 43, -32.7936, -18.6668, 42.23, 44.2111, 80.9963, -123.363
7.90453, 43, -32.6763, -18.666, 42.2031, 44.2253, 81.0112, -123.232
7.91259, 43, -32.5587, -18.6648, 42.1755, 44.2389, 81.026, -123.102
7.91986, 43, -32.4408, -18.6634, 42.1475, 44.2519, 81.0406, -122.972
7.92922, 43, -32.3225, -18.6616, 42.1192, 44.2646, 81.0548, -122.842
7.93587, 43, -32.2633, -18.6606, 42.1049, 44.2768, 81.0688, -122.711
7.94428, 44, -32.0849, -18.6568, 42.0613, 44.2887, 81.0825, -122.581
7.95129, 44, -32.0252, -18.6554, 42.0465, 44.2946, 81.0893, -122.517
7.96005, 44, -31.9055, -18.6521, 42.0166, 44.3115, 81.1094, -122.322
7.96844, 44, -31.7256, -18.6466, 41.9711, 44.3221, 81.1227, -122.193
7.97526, 44, -31.6655, -18.6446, 41.9557, 44.3271, 81.1294, -122.128
7.98331, 44, -31.5453, -18.6404, 41.9246, 44.3365, 81.1427, -121.999
7.99265, 44, -31.3644, -18.6335, 41.8772, 44.3495, 81.1629, -121.806
7.99923, 45, -31.304, -18.631, 41.8611, 44.3534, 81.1697, -121.742
8.01027, 45, -31.1219, -18.6233, 41.8122, 44.3644, 81.1897, -121.549
8.01531, 45, -31.061, -18.6206, 41.7958, 44.3677, 81.1962, -121.484
8.0251, 45, -30.8778, -18.6124, 41.7457, 44.3768, 81.2151, -121.292
8.0314, 45, -30.8167, -18.6095, 41.7288, 44.3796, 81.2214, -121.228
8.04081, 45, -30.6327, -18.6002, 41.6775, 44.387, 81.2397, -121.036
8.04907, 45, -30.5095, -18.5934, 41.6428, 44.3913, 81.2516, -120.909
8.05534, 45, -30.4477, -18.5899, 41.6252, 44.3931, 81.2576, -120.845
8.06561, 46, -30.324, -18.5827, 41.5898, 44.3966, 81.2756, -120.654
8.07127, 46, -30.1997, -18.5752, 41.554, 44.3995, 81.2816, -120.591
8.08109, 46, -30.0751, -18.5673, 41.5177, 44.4018, 81.2997, -120.4
8.08809, 46, -29.9503, -18.5591, 41.481, 44.4036, 81.3058, -120.337
8.09526, 46, -29.8252, -18.5508, 41.4439, 44.4049, 81.318, -120.21
8.10328, 46, -29.6998, -18.5422, 41.4064, 44.4056, 81.33, -120.084
8.11133, 46, -29.5742, -18.5331, 41.3683, 44.4059, 81.3419, -119.957
8.11926, 47, -29.4483, -18.5237, 41.3298, 44.406, 81.3535, -119.831
8.13045, 47, -29.2587, -18.509, 41.2713, 44.4058, 81.3704, -119.642
8.13551, 47, -29.1952, -18.504, 41.2515, 44.4055, 81.376, -119.579
8.14631, 47, -29.0043, -18.4885, 41.1916, 44.4035, 81.3926, -119.39
8.15126, 47, -28.9405, -18.4832, 41.1714, 44.4024, 81.398, -119.328
8.15932, 47, -28.8128, -18.4722, 41.1306, 44.3996, 81.409, -119.202
8.16726, 47, -28.6847, -18.4607, 41.0895, 44.3961, 81.42, -119.076
8.17527, 48, -28.5564, -18.4489, 41.0479, 44.3919, 81.4311, -118.951
8.18328, 48, -28.4279, -18.4368, 41.0058, 44.387, 81.4425, -118.825
8.19132, 48, -28.2988, -18.4246, 40.9633, 44.3814, 81.4539, -118.701
8.19926, 48, -28.1694, -18.4119, 40.9203, 44.3752, 81.4654, -118.576
8.20747, 48, -28.0398, -18.3987, 40.8768, 44.3682, 81.4767, -118.451
8.21631, 48, -27.91, -18.3852, 40.8329, 44.3605, 81.4879, -118.326
8.22333, 48, -27.7797, -18.3715, 40.7884, 44.3522, 81.4989, -118.202
8.23135, 48, -27.649, -18.3575, 40.7435, 44.343, 81.5097, -118.077
8.23928, 49, -27.5179, -18.343, 40.698, 44.3329, 81.5204, -117.952
8.24726, 49, -27.3863, -18.328, 40.6521, 44.322, 81.531, -117.828
8.25635, 49, -27.2541, -18.3128, 40.6058, 44.3101, 81.5415, -117.704
8.26514, 49, -27.1217, -18.2975, 40.5588, 44.2973, 81.5521, -117.58
8.27129, 49, -26.9891, -18.2815, 40.5114, 44.2837, 81.5628, -117.456
8.27941, 49, -26.856, -18.2649, 40.4635, 44.2695, 81.5736, -117.332
8.28734, 49, -26.7226, -18.2482, 40.4152, 44.255, 81.5847, -117.208
8.29626, 50, -26.5891, -18.2312, 40.3663, 44.2398, 81.596, -117.084
8.30746, 50, -26.3879, -18.2046, 40.2922, 44.216, 81.6133, -116.898
8.31249, 50, -26.3207, -18.1956, 40.2672, 44.2077, 81.619, -116.836
8.32026, 50, -26.186, -18.1775, 40.2169, 44.1905, 81.6304, -116.712
8.32733, 50, -26.0509, -18.1587, 40.166, 44.1722, 81.6417, -116.588
8.33529, 50, -25.9154, -18.1394, 40.1147, 44.153, 81.6529, -116.464
8.3433, 50, -25.7796, -18.1198, 40.0628, 44.1331, 81.664, -116.341
8.35145, 51, -25.6435, -18.0997, 40.0104, 44.1128, 81.6752, -116.217
8.36023, 51, -25.5069, -18.0791, 39.9575, 44.0919, 81.6864, -116.094
8.36746, 51, -25.3699, -18.0583, 39.9041, 44.0707, 81.6978, -115.97
8.37559, 51, -25.2327, -18.0369, 39.8501, 44.0484, 81.7093, -115.846
8.38458, 51, -25.095, -18.0151, 39.7956, 44.0249, 81.7211, -115.723
8.39271, 51, -24.957, -17.993, 39.7406, 44.0005, 81.7331, -115.599
8.39977, 51, -24.8189, -17.9704, 39.6851, 43.9755, 81.7455, -115.476
8.40947, 52, -24.6804, -17.9473, 39.6291, 43.95, 81.7581, -115.353
8.41578, 52, -24.5414, -17.924, 39.5727, 43.9241, 81.7706, -115.229
8.42437, 52, -24.402, -17.8999, 39.5157, 43.897, 81.7831, -115.106
8.43358, 52, -24.2619, -17.8755, 39.4582, 43.8686, 81.7953, -114.983
8.44529, 52, -24.051, -17.8379, 39.3709, 43.8251, 81.8137, -114.797
8.44721, 52, -24.051, -17.8379, 39.3709, 43.8251, 81.8137, -114.797
8.4563, 52, -23.8392, -17.7996, 39.2823, 43.7807, 81.8321, -114.612
8.46329, 52, -23.7684, -17.7865, 39.2526, 43.7655, 81.8383, -114.551
8.47241, 53, -23.5555, -17.7467, 39.1624, 43.7175, 81.8572, -114.366
8.47926, 53, -23.4843, -17.7333, 39.1321, 43.7012, 81.8636, -114.304
8.48737, 53, -23.3417, -17.7059, 39.0711, 43.6684, 81.8769, -114.181
8.49528, 53, -23.1989, -17.6783, 39.0096, 43.635, 81.8904, -114.058
8.50325, 53, -23.0557, -17.6501, 38.9476, 43.6005, 81.9042, -113.935
8.51264, 53, -22.8403, -17.607, 38.8537, 43.5465, 81.9247, -113.751
8.51931, 53, -22.7684, -17.5925, 38.8221, 43.5286, 81.9315, -113.689
8.52933, 54, -22.5517, -17.5481, 38.7266, 43.4735, 81.9519, -113.504
8.53526, 54, -22.4793, -17.533, 38.6945, 43.4544, 81.9588, -113.443
8.5433, 54, -22.3343, -17.5025, 38.6298, 43.4152, 81.9725, -113.319
8.55289, 54, -22.1158, -17.4561, 38.5319, 43.3563, 81.9933, -113.135
8.5617, 54, -21.9696, -17.4246, 38.466, 43.3156, 82.0076, -113.012
8.5711, 54, -21.8231, -17.3926, 38.3996, 43.2735, 82.0222, -112.889
8.57691, 54, -21.7497, -17.3765, 38.3662, 43.2524, 82.0373, -112.766
8.5842, 55, -21.6024, -17.3438, 38.299, 43.2104, 82.0449, -112.704
8.5913, 55, -21.4548, -17.3108, 38.2315, 43.1667, 82.0602, -112.581
8.59924, 55, -21.3068, -17.2772, 38.1634, 43.1218, 82.0754, -112.458
8.61045, 55, -21.0841, -17.2261, 38.0603, 43.0542, 82.0979, -112.273
8.61548, 55, -21.0097, -17.2089, 38.0257, 43.0309, 82.1054, -112.211
8.62555, 55, -20.7858, -17.1565, 37.921, 42.9594, 82.128, -112.027
8.63124, 55, -20.7109, -17.1388, 37.8858, 42.9357, 82.1356, -111.966
8.63932, 55, -20.5607, -17.103, 37.815, 42.8871, 82.1511, -111.843
8.6483, 56, -20.4101, -17.0671, 37.7439, 42.8369, 82.167, -111.72
8.65624, 56, -20.2589, -17.0306, 37.6724, 42.7869, 82.1833, -111.597
8.66447, 56, -20.1073, -16.9938, 37.6004, 42.7355, 82.1996, -111.474
8.67153, 56, -19.9554, -16.9565, 37.5279, 42.6829, 82.2159, -111.352
8.67924, 56, -19.803, -16.9189, 37.4549, 42.6306, 82.2322, -111.229
8.6873, 56, -19.6504, -16.8808, 37.3814, 42.5763, 82.2484, -111.106
8.69535, 56, -19.4977, -16.8424, 37.3075, 42.5213, 82.2647, -110.983
8.70326, 57, -19.3446, -16.8036, 37.233, 42.466, 82.2811, -110.861
8.71299, 57, -19.191, -16.7643, 37.158, 42.4087, 82.2978, -110.738
8.71939, 57, -19.037, -16.7247, 37.0826, 42.3518, 82.3151, -110.616
8.72824, 57, -18.8825, -16.6847, 37.0069, 42.2932, 82.3326, -110.493
8.73525, 57, -18.7276, -16.6443, 36.9307, 42.2338, 82.3502, -110.37
8.74326, 57, -18.5722, -16.6035, 36.8541, 42.1738, 82.3677, -110.248
8.75131, 57, -18.4163, -16.5623, 36.777, 42.1121, 82.3852, -110.125
8.76286, 58, -18.1811, -16.4997, 36.6604, 42.0191, 82.4112, -109.941
8.76832, 58, -18.1025, -16.4787, 36.6213, 41.987, 82.4199, -109.88
8.77529, 58, -17.9449, -16.4362, 36.5426, 41.9235, 82.4377, -109.758
8.78339, 58, -17.7869, -16.3935, 36.4636, 41.8584, 82.4557, -109.636
8.79163, 58, -17.6286, -16.3504, 36.3842, 41.7927, 82.4743, -109.514
8.80031, 58, -17.4698, -16.307, 36.3045, 41.7262, 82.493, -109.391
8.80736, 58, -17.3105, -16.2632, 36.2243, 41.6583, 82.5116, -109.269
8.8154, 58, -17.1509, -16.2191, 36.1437, 41.5901, 82.5301, -109.147
8.82324, 59, -16.9909, -16.1746, 36.0626, 41.5202, 82.5486, -109.025
8.83132, 59, -16.8303, -16.1297, 35.981, 41.4501, 82.5673, -108.902
8.83954, 59, -16.6693, -16.0845, 35.8989, 41.3783, 82.5863, -108.78
8.84848, 59, -16.5078, -16.0388, 35.8164, 41.3061, 82.6057, -108.658
8.85537, 59, -16.3459, -15.9928, 35.7336, 41.2323, 82.6256, -108.536
8.86337, 59, -16.1837, -15.9464, 35.6505, 41.1583, 82.6455, -108.414
8.87161, 59, -16.0209, -15.8997, 35.567, 41.0826, 82.6652, -108.292
8.88041, 60, -15.8578, -15.8524, 35.483, 41.0062, 82.6848, -108.17
8.89172, 60, -15.6123, -15.7808, 35.3561, 40.8901, 82.7144, -107.987
8.89654, 60, -15.53, -15.7567, 35.3136, 40.8507, 82.7244, -107.926
8.90375, 60, -15.3651, -15.7083, 35.2282, 40.7714, 82.7447, -107.803
8.91253, 60, -15.1996, -15.6594, 35.1422, 40.691, 82.7654, -107.681
8.91981, 60, -15.0337, -15.6101, 35.056, 40.6099, 82.7864, -107.559
8.92835, 60, -14.8674, -15.5606, 34.9695, 40.5273, 82.8073, -107.438
8.93689, 61, -14.7007, -15.5106, 34.8826, 40.4439, 82.8282, -107.316
8.94635, 61, -14.5334, -15.4602, 34.7952, 40.3594, 82.8491, -107.193
8.95249, 61, -14.3655, -15.4095, 34.7075, 40.2739, 82.8703, -107.071
8.95923, 61, -14.2813, -15.384, 34.6634, 40.2307, 82.8811, -107.01
8.96874, 61, -14.1123, -15.3328, 34.5748, 40.1437, 82.9031, -106.888
8.9767, 61, -13.9428, -15.2551, 34.4412, 40.0115, 82.9367, -106.705
8.98327, 61, -13.7728, -15.2289, 34.3966, 39.9667, 82.9478, -106.643
8.9937, 62, -13.5171, -15.1501, 34.2621, 39.8311, 82.9812, -106.46
8.99927, 62, -13.4317, -15.1236, 34.2171, 39.7854, 82.9923, -106.399
9.00864, 62, -13.1752, -15.0433, 34.0814, 39.6465, 83.0262, -106.215
9.01744, 62, -13.0036, -14.9894, 33.9902, 39.5524, 83.0495, -106.093
9.02563, 62, -12.8316, -14.935, 33.8986, 39.4574, 83.0733, -105.97
9.03122, 62, -12.7453, -14.9076, 33.8526, 39.4094, 83.0852, -105.909
9.04112, 62, -12.4853, -14.825, 33.7141, 39.2639, 83.1206, -105.725
9.04729, 62, -12.3983, -14.7972, 33.6678, 39.215, 83.1326, -105.663
9.05692, 63, -12.1361, -14.7134, 33.5284, 39.0663, 83.1689, -105.479
9.06907, 63, -11.8729, -14.6285, 33.3878, 38.9151, 83.2068, -105.295
9.07136, 63, -11.8729, -14.6285, 33.3878, 38.9151, 83.2068, -105.295
9.0795, 63, -11.6967, -14.5715, 33.2934, 38.8128, 83.2324, -105.173
9.08722, 63, -11.5198, -14.5139, 33.1985, 38.7093, 83.2578, -105.05
9.09622, 63, -11.3423, -14.4559, 33.1033, 38.6048, 83.2833, -104.926
9.10423, 63, -11.1642, -14.3974, 33.0077, 38.4991, 83.3091, -104.803
9.11228, 64, -10.9855, -14.3384, 32.9118, 38.3922, 83.3359, -104.68
9.11923, 64, -10.8062, -14.2788, 32.8156, 38.2844, 83.3631, -104.556
9.12722, 64, -10.6264, -14.2187, 32.7188, 38.1752, 83.3904, -104.432
9.13531, 64, -10.4462, -14.158, 32.6215, 38.065, 83.4176, -104.309
9.1434, 64, -10.2656, -14.0969, 32.5237, 37.9535, 83.4451, -104.185
9.15464, 64, -9.99432, -14.0042, 32.3763, 37.784, 83.488, -103.999
9.15922, 64, -9.9036, -13.9731, 32.3271, 37.7269, 83.5026, -103.937
9.16752, 65, -9.72174, -13.9106, 32.2284, 37.6118, 83.5317, -103.812
9.17523, 65, -9.53907, -13.8476, 32.1293, 37.4958, 83.5609, -103.688
9.18322, 65, -9.35552, -13.7841, 32.0297, 37.3785, 83.5904, -103.563
9.19373, 65, -9.17107, -13.7202, 31.9294, 37.26, 83.6207, -103.438
9.19936, 65, -8.98596, -13.6557, 31.8287, 37.1406, 83.6518, -103.313
9.20832, 65, -8.80036, -13.5906, 31.7277, 37.0196, 83.6831, -103.188
9.2163, 65, -8.61422, -13.5251, 31.6265, 36.8976, 83.7143, -103.063
9.22322, 65, -8.42757, -13.4589, 31.525, 36.7744, 83.7462, -102.938
9.23135, 66, -8.24049, -13.3922, 31.4232, 36.6501, 83.779, -102.813
9.23923, 66, -8.05256, -13.3248, 31.3208, 36.5249, 83.8124, -102.687
9.24739, 66, -7.86373, -13.2569, 31.2179, 36.3982, 83.8455, -102.561
9.2553, 66, -7.67413, -13.1885, 31.1145, 36.2705, 83.8787, -102.435
9.26322, 66, -7.48423, -13.1197, 31.011, 36.1415, 83.9129, -102.309
9.27125, 66, -7.29409, -13.0502, 30.9073, 36.0113, 83.9481, -102.182
9.27934, 66, -7.1036, -12.9804, 30.8032, 35.8799, 83.9831, -102.056
9.28751, 67, -6.91278, -12.9101, 30.6988, 35.7474, 84.0184, -101.929
9.29566, 67, -6.72145, -12.8392, 30.5937, 35.6137, 84.0545, -101.802
9.30333, 67, -6.52935, -12.7678, 30.4881, 35.4789, 84.0918, -101.675
9.31134, 67, -6.33661, -12.6957, 30.3824, 35.3429, 84.1289, -101.548
9.32003, 67, -6.14289, -12.623, 30.2766, 35.2057, 84.166, -101.42
9.32819, 67, -5.94822, -12.5498, 30.1707, 35.0673, 84.2042, -101.292
9.33525, 67, -5.75293, -12.476, 30.0643, 34.9278, 84.2434, -101.164
9.34421, 68, -5.55727, -12.4016, 29.9575, 34.7871, 84.2822, -101.036
9.35125, 68, -5.36113, -12.3268, 29.8501, 34.6453, 84.3215, -100.908
9.35936, 68, -5.16413, -12.2513, 29.7425, 34.5022, 84.3622, -100.779
9.36772, 68, -4.96632, -12.1754, 29.6349, 34.358, 84.4033, -100.651
9.37645, 68, -4.76771, -12.099, 29.5271, 34.2127, 84.4441, -100.522
9.38355, 68, -4.56863, -12.0221, 29.4191, 34.0663, 84.4859, -100.393
9.39157, 68, -4.36908, -11.9446, 29.3107, 33.9188, 84.5287, -100.264
9.39979, 68, -4.16916, -11.8665, 29.2017, 33.7701, 84.5714, -100.135
9.40839, 69, -3.96903, -11.7879, 29.0927, 33.6202, 84.6144, -100.005
9.41758, 69, -3.76907, -11.7089, 28.9836, 33.4691, 84.6589, -99.8755
9.42408, 69, -3.56886, -11.6294, 28.8745, 33.3171, 84.7034, -99.7458
9.43239, 69, -3.36776, -11.5493, 28.7652, 33.1641, 84.7478, -99.6155
9.43984, 69, -3.26675, -11.509, 28.6555, 33.01, 84.7936, -99.4855
9.44829, 69, -2.96203, -11.3873, 28.5454, 32.855, 84.8398, -99.3549
9.45523, 69, -2.85999, -11.3465, 28.4902, 32.777, 84.8628, -99.2896
9.46424, 70, -2.55351, -11.2231, 28.3247, 32.5412, 84.9333, -99.0934
9.47134, 70, -2.45111, -11.1818, 28.2696, 32.4622, 84.9574, -99.0278
9.47927, 70, -2.24587, -11.0987, 28.1593, 32.3033, 85.0051, -98.8965
9.48843, 70, -1.93655, -10.9731, 27.9937, 32.0629, 85.0777, -98.6997
9.49521, 70, -1.83299, -10.931, 27.9382, 31.9824, 85.1026, -98.6341
9.50325, 70, -1.62534, -10.8463, 27.8271, 31.8204, 85.1519, -98.5027
9.51259, 70, -1.31263, -10.7183, 27.6606, 31.5754, 85.2273, -98.305
9.51941, 71, -1.20832, -10.6754, 27.6051, 31.4933, 85.2531, -98.239
9.52958, 71, -0.895507, -10.546, 27.4389, 31.2454, 85.3296, -98.0406
9.53521, 71, -0.79148, -10.5026, 27.3834, 31.1623, 85.3556, -97.9745
9.54516, 71, -0.479401, -10.3717, 27.2164, 30.9111, 85.4348, -97.7756
9.55356, 71, -0.374985, -10.3278, 27.1605, 30.827, 85.461, -97.6428
9.55921, 71, -0.165601, -10.2396, 27.049, 30.658, 85.5146, -97.5764
9.56967, 71, 0.150137, -10.1065, 26.8822, 30.4029, 85.5959, -97.3768
9.58099, 72, 0.361709, -10.017, 26.7711, 30.2318, 85.6505, -97.1765
9.58424, 72, 0.467838, -9.97202, 26.7155, 30.1458, 85.6784, -97.1765
9.59221, 72, 0.6807, -9.88179, 26.6041, 29.9733, 85.7338, -97.0428
9.59927, 72, 0.89407, -9.79101, 26.4925, 29.8, 85.7897, -96.9088
9.60721, 72, 1.10777, -9.69961, 26.381, 29.6257, 85.8469, -96.7748
9.6152, 72, 1.32215, -9.60778, 26.2698, 29.4508, 85.9036, -96.6407
9.62335, 72, 1.5375, -9.51542, 26.1589, 29.275, 85.9617, -96.5067
9.63219, 72, 1.75358, -9.42258, 26.048, 29.0982, 86.02, -96.3725
9.64028, 73, 1.96963, -9.32913, 25.9368, 28.9208, 86.0786, -96.2381
9.64822, 73, 2.18517, -9.23515, 25.8255, 28.7425, 86.1387, -96.1035
9.65621, 73, 2.40028, -9.14059, 25.7143, 28.5635, 86.1981, -95.9685
9.66425, 73, 2.615, -9.04558, 25.6037, 28.3836, 86.2592, -95.8333
9.67227, 73, 2.82997, -8.95007, 25.4932, 28.203, 86.3204, -95.6979
9.6802, 73, 3.04534, -8.854, 25.3829, 28.0219, 86.3824, -95.5623
9.6883, 73, 3.26181, -8.75749, 25.2724, 27.84, 86.4452, -95.4266
9.69639, 74, 3.47944, -8.66039, 25.1618, 27.6574, 86.5079, -95.2909
9.7044, 74, 3.69769, -8.56267, 25.0515, 27.474, 86.5721, -95.1547
9.71121, 74, 3.91624, -8.46442, 24.9415, 27.2901, 86.6359, -95.0185
9.7192, 74, 4.13523, -8.36558, 24.832, 27.1056, 86.7014, -94.882
9.72727, 74, 4.35524, -8.26617, 24.7226, 26.9206, 86.7667, -94.7452
9.73527, 74, 4.57637, -8.16617, 24.6131, 26.735, 86.8332, -94.6083
9.74514, 74, 4.79795, -8.06565, 24.5036, 26.5489, 86.9001, -94.471
9.75139, 74, 5.01897, -7.96459, 24.3943, 26.3622, 86.9675, -94.3337
9.76029, 75, 5.23948, -7.86305, 24.2855, 26.1751, 87.0362, -94.1964
9.76721, 75, 5.45943, -7.76082, 24.1771, 25.9876, 87.1047, -94.0589
9.7753, 75, 5.67877, -7.65796, 24.069, 25.7993, 87.1749, -93.9212
9.78328, 75, 5.89757, -7.5546, 23.9609, 25.6108, 87.2448, -93.7833
9.7913, 75, 6.11659, -7.4506, 23.8527, 25.422, 87.3162, -93.6449
9.80036, 75, 6.33651, -7.34606, 23.7448, 25.2327, 87.3872, -93.5066
9.80821, 75, 6.55727, -7.2411, 23.6375, 25.0432, 87.4597, -93.3679
9.81533, 76, 6.77826, -7.1355, 23.5307, 24.8533, 87.5325, -93.2291
9.82394, 76, 6.99946, -7.02922, 23.4242, 24.6632, 87.6065, -93.0902
9.83221, 76, 7.22147, -6.92228, 23.3177, 24.4727, 87.6804, -92.9509
9.83923, 76, 7.44454, -6.8147, 23.2111, 24.2821, 87.7556, -92.8113
9.84805, 76, 7.66822, -6.70649, 23.1049, 24.0912, 87.8313, -92.6714
9.85531, 76, 7.89213, -6.59772, 22.9994, 23.9, 87.9082, -92.531
9.86357, 76, 8.11603, -6.48838, 22.8943, 23.7086, 87.9855, -92.3907
9.87175, 77, 8.33947, -6.37839, 22.7897, 23.5171, 88.0638, -92.2501
9.88063, 77, 8.56184, -6.26768, 22.6852, 23.3254, 88.1428, -92.1095
9.8892, 77, 8.78283, -6.15624, 22.5807, 23.1337, 88.222, -91.9687
9.89558, 77, 9.00313, -6.04418, 22.4765, 22.9419, 88.3024, -91.8277
9.90458, 77, 9.22339, -5.93161, 22.3729, 22.7502, 88.3834, -91.6864
9.91206, 77, 9.44389, -5.81845, 22.27, 22.5585, 88.4654, -91.5445
9.92062, 77, 9.66458, -5.70473, 22.1675, 22.3669, 88.5477, -91.4025
9.92917, 77, 9.88557, -5.59017, 22.0652, 22.1752, 88.6311, -91.2602
9.93584, 78, 10.1072, -5.47489, 21.963, 21.9838, 88.7152, -91.1175
9.94454, 78, 10.3294, -5.35896, 21.8611, 21.7925, 88.7998, -90.975
9.95177, 78, 10.4407, -5.30072, 21.8102, 21.6969, 88.8423, -90.832
9.96025, 78, 10.775, -5.12516, 21.6589, 21.4104, 88.9714, -90.6887
9.9672, 78, 10.8865, -5.06638, 21.6087, 21.315, 89.015, -90.6171
9.97533, 78, 11.1096, -4.94835, 21.5087, 21.1244, 89.1022, -90.4732
9.98318, 78, 11.3321, -4.82951, 21.409, 20.934, 89.1902, -90.3289
9.99236, 79, 11.6637, -4.64968, 21.2597, 20.6488, 89.3238, -90.1124
9.99919, 79, 11.7737, -4.58942, 21.2101, 20.5538, 89.3686, -90.0399
10.0088, 79, 12.1026, -4.40772, 21.0623, 20.2695, 89.5042, -89.8224
10.0165, 79, 12.3209, -4.28587, 20.9645, 20.0805, 89.5958, -89.6773
10.0232, 79, 12.4298, -4.22468, 20.9158, 19.9862, 89.6419, -89.6044
10.0328, 79, 12.7563, -4.03973, 20.7702, 19.7037, 89.7812, -89.3858
10.0407, 79, 12.9744, -3.91541, 20.6735, 19.5161, 89.8752, -89.2393
10.0492, 80, 13.1926, -3.79034, 20.5771, 19.329, 89.9697, -89.0928
10.0552, 80, 13.3017, -3.72759, 20.5291, 19.2357, 90.0173, -89.0194
10.0648, 80, 13.6296, -3.53845, 20.3859, 18.9567, 90.1613, -88.7987
10.0728, 80, 13.8487, -3.41142, 20.2912, 18.7713, 90.2582, -88.6512
10.0802, 80, 13.9584, -3.34758, 20.244, 18.6789, 90.3069, -88.5773
10.0873, 80, 14.1771, -3.21923, 20.1499, 18.4946, 90.4052, -88.4291
10.0968, 80, 14.3945, -3.09012, 20.0562, 18.3108, 90.5042, -88.2805
10.1042, 80, 14.6109, -2.9603, 19.9628, 18.1278, 90.6039, -88.1312
10.1112, 81, 14.8263, -2.82991, 19.8698, 17.9454, 90.7045, -87.9819
10.1192, 81, 15.0406, -2.69876, 19.7773, 17.7638, 90.806, -87.8321
10.1272, 81, 15.2537, -2.56664, 19.6854, 17.5829, 90.9078, -87.6822
10.1353, 81, 15.466, -2.43366, 19.594, 17.403, 91.0108, -87.5321
10.1466, 81, 15.7838, -2.23273, 19.4576, 17.1344, 91.1666, -87.3062
10.154, 81, 15.8896, -2.16549, 19.4124, 17.0454, 91.219, -87.2305
10.1592, 81, 16.101, -2.0304, 19.3221, 16.8679, 91.3246, -87.0788
10.1673, 82, 16.312, -1.8944, 19.2322, 16.6913, 91.4308, -86.927
10.1752, 82, 16.523, -1.75735, 19.1427, 16.5158, 91.5381, -86.7746
10.1832, 82, 16.7343, -1.61944, 19.0538, 16.3412, 91.6462, -86.6217
10.1913, 82, 16.9453, -1.48076, 18.9654, 16.1676, 91.7549, -86.4688
10.1992, 82, 17.1554, -1.34142, 18.8775, 15.9952, 91.8647, -86.315
10.2072, 82, 17.3646, -1.20116, 18.79, 15.8238, 91.9752, -86.161
10.2152, 82, 17.5729, -1.05983, 18.7028, 15.6535, 92.0864, -86.0063
10.2234, 83, 17.78, -0.917625, 18.6159, 15.4843, 92.1989, -85.851
10.2322, 83, 17.9855, -0.774675, 18.5294, 15.316, 92.3118, -85.6955
10.2392, 83, 18.1896, -0.631143, 18.4434, 15.1492, 92.4259, -85.5393
10.2473, 83, 18.3925, -0.486924, 18.3579, 14.9834, 92.5408, -85.383
10.2554, 83, 18.5947, -0.341639, 18.2729, 14.819, 92.6562, -85.2262
10.2632, 83, 18.7963, -0.19533, 18.1882, 14.6557, 92.7729, -85.069
10.2716, 83, 18.9974, -0.0482269, 18.1039, 14.4937, 92.8901, -84.9111
10.2804, 84, 19.198, 0.0995494, 18.02, 14.333, 93.0081, -84.7526
10.2873, 84, 19.3984, 0.248143, 17.9364, 14.1737, 93.1273, -84.5939
10.2955, 84, 19.5983, 0.397932, 17.8532, 14.0157, 93.2471, -84.4346
10.3034, 84, 19.7979, 0.548809, 17.7705, 13.8591, 93.3679, -84.2748
10.3113, 84, 19.9963, 0.700491, 17.6883, 13.7037, 93.4894, -84.1146
10.322, 84, 20.194, 0.852764, 17.6066, 13.5498, 93.6115, -83.9537
10.3275, 84, 20.3906, 1.00586, 17.5252, 13.3973, 93.7347, -83.7922
10.3362, 84, 20.5862, 1.16014, 17.4442, 13.2461, 93.8584, -83.63
10.3432, 85, 20.7802, 1.31536, 17.3636, 13.0966, 93.9831, -83.4675
10.3513, 85, 20.9726, 1.47125, 17.2832, 12.9484, 94.1082, -83.3045
10.3592, 85, 21.1637, 1.62754, 17.2033, 12.8017, 94.2344, -83.1412
10.3673, 85, 21.3533, 1.78474, 17.124, 12.6567, 94.3609, -82.9773
10.3757, 85, 21.5417, 1.943, 17.045, 12.5131, 94.4883, -82.8129
10.3834, 85, 21.7295, 2.10222, 16.9664, 12.3713, 94.6163, -82.6477
10.3915, 85, 21.9164, 2.26192, 16.8884, 12.2311, 94.745, -82.4821
10.4, 86, 22.1026, 2.42204, 16.8107, 12.0925, 94.8746, -82.316
10.4091, 86, 22.2882, 2.58322, 16.7335, 11.9554, 95.0049, -82.1494
10.4163, 86, 22.4732, 2.74563, 16.6566, 11.8199, 95.136, -81.9824
10.4238, 86, 22.6573, 2.9088, 16.5802, 11.6863, 95.2676, -81.8147
10.4327, 86, 22.8405, 3.07232, 16.5043, 11.5543, 95.4001, -81.6466
10.4398, 86, 23.0228, 3.23658, 16.4289, 11.424, 95.5329, -81.4776
10.4485, 86, 23.2041, 3.40203, 16.354, 11.2953, 95.6664, -81.3085
10.457, 87, 23.3841, 3.56845, 16.2797, 11.1684, 95.8006, -81.1388
10.4651, 87, 23.5628, 3.73525, 16.2057, 11.0431, 95.9353, -80.9687
10.4712, 87, 23.6517, 3.81865, 16.169, 10.9811, 96.0029, -80.8836
10.4802, 87, 23.9151, 4.06958, 16.0594, 10.7977, 96.2058, -80.6274
10.4872, 87, 24.0021, 4.1537, 16.0231, 10.7375, 96.2738, -80.5417
10.4976, 87, 24.2607, 4.40677, 15.9148, 10.5593, 96.4777, -80.284
10.5085, 87, 24.4317, 4.66001, 15.8077, 10.3851, 96.6827, -80.0254
10.5111, 87, 24.5169, 4.66001, 15.8077, 10.3851, 96.6827, -80.0254
10.5205, 88, 24.7711, 4.91496, 15.7019, 10.2147, 96.8882, -79.766
10.5272, 88, 24.8555, 5.00046, 15.6669, 10.1589, 96.9567, -79.6794
10.5367, 88, 25.1071, 5.25742, 15.563, 9.99378, 97.1628, -79.4183
10.5447, 88, 25.2736, 5.4288, 15.4945, 9.88599, 97.3003, -79.2437
10.5528, 88, 25.4395, 5.601, 15.4265, 9.78013, 97.4382, -79.0688
10.5608, 88, 25.6044, 5.77418, 15.3589, 9.67594, 97.5761, -78.8935
10.5688, 88, 25.7683, 5.94769, 15.292, 9.5738, 97.7142, -78.718
10.5754, 89, 25.85, 6.03431, 15.2588, 9.52333, 97.7832, -78.6302
10.5837, 89, 26.0125, 6.20769, 15.1928, 9.42367, 97.9211, -78.4542
10.5912, 89, 26.1735, 6.38181, 15.1274, 9.32569, 98.0593, -78.2778
10.6002, 89, 26.3329, 6.55665, 15.0626, 9.22969, 98.1974, -78.1011
10.6082, 89, 26.491, 6.73146, 14.9985, 9.13529, 98.3358, -77.9241
10.6162, 89, 26.6472, 6.90579, 14.9351, 9.04286, 98.4742, -77.7466
10.6243, 89, 26.8021, 7.08065, 14.8721, 8.9523, 98.6128, -77.5692
10.6315, 90, 26.9555, 7.25633, 14.8099, 8.86339, 98.7511, -77.3913
10.6392, 90, 27.1074, 7.4322, 14.7482, 8.77629, 98.8897, -77.2129
10.6472, 90, 27.2581, 7.60767, 14.6871, 8.69131, 99.0279, -77.034
10.6553, 90, 27.4076, 7.78354, 14.6267, 8.60769, 99.1663, -76.855
10.6632, 90, 27.5559, 7.96041, 14.5668, 8.52619, 99.3044, -76.6757
10.6736, 90, 27.7034, 8.13769, 14.5076, 8.44595, 99.5115, -76.4065
10.6793, 90, 27.8501, 8.31453, 14.4491, 8.36809, 99.5802, -76.3166
10.6872, 90, 27.9962, 8.49123, 14.3911, 8.2916, 99.7178, -76.1363
10.6952, 91, 28.1416, 8.66874, 14.3338, 8.21718, 99.8555, -75.9559
10.7032, 91, 28.286, 8.84675, 14.277, 8.14452, 99.9928, -75.775
10.7112, 91, 28.4294, 9.02436, 14.2209, 8.07394, 100.13, -75.594
10.7192, 91, 28.5717, 9.20182, 14.1654, 8.00463, 100.268, -75.4128
10.7272, 91, 28.7127, 9.38002, 14.1104, 7.93753, 100.405, -75.2314
10.7353, 91, 28.8525, 9.559, 14.0559, 7.87163, 100.542, -75.0492
10.7432, 91, 28.9908, 9.7378, 14.002, 7.8085, 100.679, -74.8667
10.7513, 92, 29.1279, 9.91621, 13.9487, 7.74596, 100.816, -74.6839
10.7594, 92, 29.2637, 10.0952, 13.8959, 7.68614, 100.953, -74.5007
10.7672, 92, 29.3981, 10.2749, 13.8435, 7.62754, 101.089, -74.3174
10.7752, 92, 29.5309, 10.4546, 13.7918, 7.57078, 101.226, -74.1337
10.7837, 92, 29.6623, 10.6338, 13.7405, 7.51648, 101.362, -73.9496
10.7912, 92, 29.7921, 10.8135, 13.6899, 7.46262, 101.499, -73.7649
10.7994, 92, 29.9203, 10.9941, 13.6398, 7.41167, 101.635, -73.5798
10.8081, 93, 30.0476, 11.1747, 13.5902, 7.36231, 101.771, -73.3944
10.8159, 93, 30.174, 11.3548, 13.541, 7.31412, 101.907, -73.2085
10.8242, 93, 30.2996, 11.5352, 13.4923, 7.26886, 102.043, -73.0223
10.8312, 93, 30.4242, 11.7167, 13.4442, 7.2253, 102.179, -72.8355
10.84, 93, 30.5479, 11.8985, 13.3965, 7.18247, 102.315, -72.6481
10.8485, 93, 30.6707, 12.0799, 13.3494, 7.14212, 102.451, -72.4604
10.8563, 93, 30.7925, 12.2617, 13.3028, 7.10425, 102.586, -72.2723
10.8642, 93, 30.9134, 12.4448, 13.2567, 7.06749, 102.722, -72.0838
10.8713, 94, 31.0333, 12.6282, 13.2111, 7.03206, 102.857, -71.895
10.8797, 94, 31.1522, 12.8111, 13.1658, 6.99913, 102.993, -71.7056
10.8875, 94, 31.2699, 12.994, 13.1212, 6.96828, 103.128, -71.5156
10.8955, 94, 31.3862, 13.1775, 13.077, 6.93902, 103.263, -71.3249
10.9037, 94, 31.5012, 13.361, 13.0332, 6.91104, 103.398, -71.1343
10.9124, 94, 31.615, 13.5438, 12.9902, 6.8846, 103.532, -70.943
10.9197, 94, 31.7274, 13.7267, 12.9474, 6.86054, 103.667, -70.7514
10.9281, 95, 31.8387, 13.9103, 12.9053, 6.83849, 103.801, -70.5592
10.9363, 95, 31.9489, 14.0944, 12.8636, 6.81833, 103.935, -70.3664
10.9438, 95, 32.0578, 14.2779, 12.8225, 6.79979, 104.068, -70.1733
10.9523, 95, 32.1655, 14.4612, 12.782, 6.78281, 104.202, -69.9797
10.9592, 95, 32.2189, 14.5532, 12.762, 6.77483, 104.268, -69.8829
10.9682, 95, 32.3769, 14.8297, 12.7025, 6.75333, 104.468, -69.5919
10.9752, 95, 32.429, 14.9217, 12.683, 6.74701, 104.534, -69.4946
10.9831, 96, 32.5326, 15.1052, 12.6445, 6.73569, 104.666, -69.2997
10.9932, 96, 32.6862, 15.3813, 12.5877, 6.72234, 104.863, -69.0067
10.9992, 96, 32.7369, 15.4736, 12.569, 6.71876, 104.928, -68.9089
11.0084, 96, 32.8874, 15.7496, 12.5138, 6.71072, 105.124, -68.6152
11.0152, 96, 32.937, 15.8413, 12.4958, 6.70895, 105.188, -68.517
11.0248, 96, 33.084, 16.1166, 12.4426, 6.7059, 105.382, -68.222
11.0326, 96, 33.1809, 16.3005, 12.4078, 6.70527, 105.511, -68.0249
11.0392, 96, 33.229, 16.3922, 12.3906, 6.70522, 105.576, -67.9263
11.0497, 97, 33.3721, 16.6667, 12.3402, 6.7075, 105.767, -67.6302
11.0552, 97, 33.4194, 16.7584, 12.3237, 6.70927, 105.831, -67.5316
11.0648, 97, 33.5597, 17.0339, 12.275, 6.71715, 106.021, -67.2346
11.0739, 97, 33.6059, 17.2168, 12.2434, 6.72463, 106.147, -67.036
11.0808, 97, 33.6975, 17.3991, 12.2124, 6.73399, 106.273, -66.8375
11.0888, 97, 33.7882, 17.4904, 12.197, 6.73938, 106.335, -66.6387
11.0962, 97, 33.8779, 17.6731, 12.1668, 6.75163, 106.46, -66.5393
11.1042, 98, 33.9668, 17.8555, 12.1372, 6.76579, 106.584, -66.3404
11.1122, 98, 34.0546, 18.0371, 12.1083, 6.78156, 106.707, -66.1409
11.1202, 98, 34.1414, 18.2186, 12.0799, 6.79866, 106.83, -65.9412
11.1272, 98, 34.2273, 18.4007, 12.0521, 6.81702, 106.952, -65.7411
11.1352, 98, 34.3122, 18.5826, 12.0248, 6.83661, 107.073, -65.5409
11.1436, 98, 34.3961, 18.7635, 11.9982, 6.85784, 107.194, -65.3405
11.1522, 98, 34.4791, 18.9441, 11.9721, 6.88089, 107.314, -65.1399
11.1601, 99, 34.5612, 19.1252, 11.9466, 6.9059, 107.434, -64.9389
11.1682, 99, 34.6425, 19.3062, 11.9217, 6.93216, 107.553, -64.7376
11.1751, 99, 34.7229, 19.4863, 11.8974, 6.95947, 107.671, -64.5359
11.1831, 99, 34.8025, 19.6661, 11.8737, 6.98785, 107.789, -64.3341
11.1923, 99, 34.8811, 19.8462, 11.8504, 7.0178, 107.906, -64.1321
11.1991, 99, 34.9589, 20.0263, 11.8278, 7.04987, 108.022, -63.9298
11.2071, 99, 35.0358, 20.2053, 11.8058, 7.0831, 108.138, -63.7271
11.2152, 99, 35.112, 20.3836, 11.7845, 7.11717, 108.253, -63.5245
11.2231, 100, 35.1873, 20.5621, 11.7639, 7.15259, 108.366, -63.3218
11.2312, 100, 35.2619, 20.7405, 11.7438, 7.19007, 108.479, -63.1194
11.2405, 100, 35.3357, 20.9179, 11.7245, 7.2285, 108.591, -62.9169
11.2471, 100, 35.4086, 21.0946, 11.7059, 7.26754, 108.702, -62.7143
11.2552, 100, 35.4807, 21.2712, 11.688, 7.30795, 108.812, -62.5117
11.2632, 100, 35.5522, 21.4477, 11.6711, 7.35028, 108.921, -62.3094
11.2721, 100, 35.623, 21.6229, 11.6548, 7.39299, 109.029, -62.1077
11.2792, 101, 35.6933, 21.7968, 11.6393, 7.43657, 109.135, -61.9064
11.2872, 101, 35.7629, 21.9701, 11.6246, 7.48198, 109.24, -61.7053
11.2962, 101, 35.8317, 22.1428, 11.6108, 7.52782, 109.343, -61.5047
11.3032, 101, 35.8998, 22.314, 11.5977, 7.574, 109.445, -61.3049
11.3113, 101, 35.9672, 22.4836, 11.5854, 7.6221, 109.545, -61.1057
11.3193, 101, 36.0342, 22.6525, 11.574, 7.67083, 109.643, -60.9073
11.3273, 101, 36.1007, 22.8209, 11.5635, 7.71986, 109.74, -60.7096
11.3351, 102, 36.1668, 22.9882, 11.5537, 7.77053, 109.836, -60.5122
11.3442, 102, 36.2324, 23.154, 11.5447, 7.82145, 109.93, -60.3155
11.3512, 102, 36.2974, 23.319, 11.5365, 7.87295, 110.022, -60.1193
11.3592, 102, 36.3617, 23.4842, 11.5287, 7.92597, 110.113, -59.9235
11.3682, 102, 36.4253, 23.6491, 11.5216, 7.97896, 110.203, -59.7284
11.3753, 102, 36.4882, 23.8132, 11.5151, 8.03321, 110.292, -59.5331
11.3834, 102, 36.5505, 23.9768, 11.5092, 8.08878, 110.38, -59.3378
11.3917, 103, 36.6121, 24.141, 11.5037, 8.14475, 110.468, -59.142
11.4002, 103, 36.6731, 24.3056, 11.4984, 8.20304, 110.556, -58.9457
11.4076, 103, 36.7334, 24.4699, 11.4935, 8.26188, 110.644, -58.7486
11.4156, 103, 36.7934, 24.6329, 11.4888, 8.32252, 110.733, -58.5506
11.4244, 103, 36.8528, 24.7949, 11.4844, 8.38468, 110.821, -58.3517
11.4318, 103, 36.9117, 24.9565, 11.4804, 8.4475, 110.909, -58.1524
11.4403, 103, 36.9701, 25.1168, 11.4772, 8.51251, 110.996, -57.9536
11.4485, 103, 36.9992, 25.2751, 11.4748, 8.57753, 111.079, -57.756
11.4562, 104, 37.0854, 25.431, 11.4737, 8.64453, 111.161, -57.5607
11.4631, 104, 37.1139, 25.5082, 11.4734, 8.67784, 111.199, -57.4641
11.4728, 104, 37.1984, 25.7373, 11.4746, 8.77882, 111.309, -57.1781
11.4802, 104, 37.2539, 25.8872, 11.4774, 8.84627, 111.376, -56.9916
11.4871, 104, 37.2815, 25.9612, 11.4794, 8.8802, 111.408, -56.8995
11.4972, 104, 37.3636, 26.179, 11.4872, 8.98267, 111.499, -56.6275
11.5032, 104, 37.3907, 26.2505, 11.4903, 9.01668, 111.527, -56.5381
11.5124, 104, 37.472, 26.4623, 11.5008, 9.12027, 111.61, -56.2726
11.5191, 104, 37.499, 26.532, 11.5045, 9.15467, 111.636, -56.1847
11.5272, 104, 37.5528, 26.67, 11.5121, 9.22465, 111.688, -56.0093
11.5367, 104, 37.6331, 26.8747, 11.5237, 9.32954, 111.766, -55.7474
11.5455, 104, 37.6862, 27.0107, 11.5316, 9.40046, 111.816, -55.5731
11.5512, 104, 37.7127, 27.0786, 11.5357, 9.43573, 111.841, -55.4862
11.5607, 104, 37.7921, 27.2826, 11.5477, 9.54326, 111.918, -55.2257
11.5696, 104, 37.8447, 27.4187, 11.5558, 9.61533, 111.968, -55.0523
11.5752, 104, 37.871, 27.4868, 11.5598, 9.65178, 111.993, -54.9656
11.5849, 104, 37.9497, 27.6912, 11.5718, 9.76115, 112.069, -54.7057
11.5921, 104, 37.9758, 27.7595, 11.5757, 9.79805, 112.093, -54.6193
11.5992, 104, 38.028, 27.8966, 11.5836, 9.87144, 112.143, -54.4465
11.6082, 104, 38.08, 28.0339, 11.5916, 9.94591, 112.193, -54.274
11.6161, 104, 38.1319, 28.1711, 11.5995, 10.0203, 112.242, -54.1018
11.6232, 104, 38.1835, 28.3081, 11.6075, 10.0958, 112.292, -53.9297
11.6311, 104, 38.235, 28.4451, 11.6154, 10.1711, 112.342, -53.7577
11.6391, 104, 38.2862, 28.5825, 11.6231, 10.2476, 112.391, -53.5858
11.6472, 104, 38.337, 28.7199, 11.6307, 10.324, 112.44, -53.4143
11.6551, 104, 38.3877, 28.8572, 11.6384, 10.4013, 112.489, -53.243
11.6632, 104, 38.438, 28.9943, 11.6461, 10.4786, 112.538, -53.072
11.6711, 104, 38.4882, 29.1316, 11.6538, 10.5568, 112.587, -52.901
11.6791, 104, 38.5382, 29.2689, 11.6614, 10.6353, 112.636, -52.73
11.6873, 104, 38.5879, 29.4065, 11.669, 10.7142, 112.684, -52.5594
11.6951, 104, 38.6373, 29.5441, 11.6765, 10.7936, 112.732, -52.3888
11.7031, 104, 38.6867, 29.6819, 11.6838, 10.8733, 112.781, -52.2186
11.7112, 104, 38.7359, 29.8197, 11.6911, 10.9535, 112.829, -52.0487
11.7191, 104, 38.7848, 29.9578, 11.6985, 11.034, 112.877, -51.8789
11.7271, 104, 38.8336, 30.0962, 11.7059, 11.1156, 112.926, -51.7093
11.7352, 104, 38.8823, 30.2348, 11.7132, 11.1971, 112.973, -51.5396
11.7431, 104, 38.9308, 30.3736, 11.7205, 11.2794, 113.02, -51.3702
11.7511, 104, 38.9792, 30.5122, 11.7278, 11.3619, 113.069, -51.2008
11.7592, 104, 39.0274, 30.6506, 11.735, 11.4448, 113.115, -51.0315
11.7671, 104, 39.0754, 30.7893, 11.742, 11.5283, 113.163, -50.8629
11.7751, 104, 39.1231, 30.9279, 11.749, 11.612, 113.211, -50.6942
11.7832, 104, 39.1704, 31.0659, 11.7561, 11.6964, 113.258, -50.5258
11.7912, 104, 39.217, 31.2028, 11.7632, 11.781, 113.304, -50.3575
11.7992, 104, 39.2625, 31.338, 11.77, 11.8655, 113.351, -50.1902
11.8073, 104, 39.3066, 31.4703, 11.7764, 11.9499, 113.397, -50.0242
11.8153, 104, 39.3489, 31.5975, 11.7822, 12.0332, 113.442, -49.8612
