rpiRobotics/ARM-21-02-F-19-Robot-Motion-Program/data_performance_abb/curve_2/baseline/100L/realrobot/bisect/run_4realrobot_curve_exe_v300.0_z10.csv
timestamp, cmd_num, J1, J2, J3, J4, J5, J6
0.000485, -1, 39.633, 32.444, 11.8322, 12.5483, 113.716, -48.8694
0.004376, -1, 39.6331, 32.444, 11.8323, 12.5483, 113.716, -48.8694
0.008399, -1, 39.633, 32.444, 11.8323, 12.5483, 113.716, -48.8694
0.029647, -1, 39.6331, 32.444, 11.8323, 12.5483, 113.716, -48.8693
0.032911, -1, 39.633, 32.444, 11.8323, 12.5483, 113.716, -48.8694
0.034164, -1, 39.633, 32.444, 11.8323, 12.5483, 113.716, -48.8694
0.038915, -1, 39.633, 32.444, 11.8323, 12.5483, 113.716, -48.8694
0.04848, -1, 39.6329, 32.4439, 11.8322, 12.5483, 113.716, -48.8694
0.056554, -1, 39.6315, 32.4437, 11.8322, 12.5483, 113.716, -48.8694
0.06449, -1, 39.6277, 32.4428, 11.8322, 12.5483, 113.716, -48.8695
0.072607, -1, 39.6206, 32.4406, 11.8322, 12.5482, 113.716, -48.8702
0.080506, -1, 39.6097, 32.4364, 11.8321, 12.5482, 113.715, -48.873
0.089444, -1, 39.6024, 32.4334, 11.8321, 12.5482, 113.713, -48.8797
0.096645, -1, 39.5827, 32.4189, 11.8322, 12.5482, 113.708, -48.895
0.104517, -1, 39.5542, 32.412, 11.8326, 12.5481, 113.704, -48.9065
0.111912, -1, 39.5159, 32.3942, 11.8348, 12.5481, 113.692, -48.9396
0.119975, -1, 39.4665, 32.3703, 11.8398, 12.5481, 113.673, -48.9898
0.127916, -1, 39.4047, 32.3398, 11.8482, 12.5481, 113.646, -49.0612
0.135979, -1, 39.3294, 32.3019, 11.861, 12.5482, 113.608, -49.1553
0.143964, -1, 39.2406, 32.2561, 11.8789, 12.5484, 113.562, -49.2749
0.151909, -1, 39.1378, 32.2025, 11.9014, 12.549, 113.505, -49.4199
0.159918, -1, 39.0208, 32.141, 11.9282, 12.5499, 113.438, -49.5897
0.166917, -1, 38.8903, 32.0722, 11.9589, 12.5514, 113.362, -49.782
0.175976, -1, 38.7476, 31.9968, 11.9929, 12.5532, 113.278, -49.994
0.183975, -1, 38.5934, 31.9155, 12.0291, 12.5553, 113.188, -50.2219
0.191984, -1, 38.4291, 31.8293, 12.0669, 12.5575, 113.093, -50.462
0.199921, -1, 38.2569, 31.7391, 12.1057, 12.5598, 112.995, -50.7104
0.207913, -1, 38.0785, 31.6459, 12.1448, 12.5622, 112.895, -50.9639
0.214909, -1, 37.8949, 31.5506, 12.1837, 12.5646, 112.793, -51.2206
0.223917, -1, 37.7073, 31.4537, 12.2225, 12.567, 112.691, -51.4791
0.231981, -1, 37.5171, 31.356, 12.2613, 12.5695, 112.589, -51.7386
0.240977, -1, 37.3255, 31.2581, 12.3001, 12.5719, 112.486, -51.9983
0.247918, -1, 37.1334, 31.1602, 12.339, 12.5743, 112.383, -52.2581
0.256031, -1, 36.9412, 31.0624, 12.3778, 12.5771, 112.28, -52.5183
0.263945, -1, 36.7492, 30.9647, 12.4165, 12.5796, 112.177, -52.7786
0.271926, -1, 36.5576, 30.867, 12.4554, 12.5822, 112.074, -53.0391
0.279982, -1, 36.3661, 30.7693, 12.4943, 12.5848, 111.971, -53.2994
0.287916, -1, 36.1746, 30.6715, 12.5331, 12.5874, 111.868, -53.5599
0.295976, -1, 35.9831, 30.5737, 12.572, 12.5901, 111.765, -53.8206
0.303983, -1, 35.7916, 30.4757, 12.6109, 12.5927, 111.662, -54.0812
0.311906, -1, 35.5998, 30.3777, 12.6499, 12.5952, 111.559, -54.3416
0.319925, -1, 35.4078, 30.2795, 12.6887, 12.5979, 111.456, -54.602
0.327988, -1, 35.2155, 30.1813, 12.7275, 12.6004, 111.353, -54.8626
0.335961, -1, 35.023, 30.083, 12.7665, 12.603, 111.25, -55.1234
0.343913, -1, 34.8306, 29.9845, 12.8053, 12.6057, 111.147, -55.3841
0.35203, -1, 34.6383, 29.886, 12.8441, 12.6082, 111.043, -55.6448
0.359919, -1, 34.446, 29.7876, 12.8831, 12.6108, 110.94, -55.9057
0.367926, -1, 34.2539, 29.6893, 12.922, 12.6134, 110.837, -56.1667
0.37603, -1, 34.0618, 29.5911, 12.961, 12.616, 110.734, -56.4275
0.383906, -1, 33.87, 29.4928, 13, 12.6187, 110.631, -56.6883
0.391979, -1, 33.6782, 29.3945, 13.0388, 12.6213, 110.528, -56.9492
0.399916, -1, 33.4863, 29.2962, 13.0777, 12.624, 110.425, -57.2103
0.408046, -1, 33.2939, 29.1978, 13.1167, 12.6266, 110.322, -57.4713
0.416273, -1, 33.1012, 29.0992, 13.1555, 12.6293, 110.219, -57.7323
0.423489, -1, 32.9084, 29.0008, 13.1944, 12.6319, 110.116, -57.9934
0.432093, -1, 32.7152, 28.9022, 13.2333, 12.6346, 110.013, -58.2547
0.440812, -1, 32.5217, 28.8036, 13.2722, 12.6373, 109.909, -58.5161
0.44802, -1, 32.328, 28.7049, 13.3111, 12.64, 109.807, -58.777
0.456124, -1, 32.1339, 28.6063, 13.35, 12.6427, 109.703, -59.0381
0.463507, -1, 32.0369, 28.5569, 13.3888, 12.6455, 109.6, -59.2993
0.47161, -1, 31.843, 28.4581, 13.4083, 12.6482, 109.497, -59.5608
0.479989, -1, 31.5526, 28.3101, 13.4669, 12.651, 109.394, -59.8221
0.488851, -1, 31.3593, 28.2114, 13.5057, 12.6539, 109.291, -60.0834
0.622499, -1, 28.1719, 26.583, 14.1487, 12.6972, 107.587, -64.3992
0.62379, -1, 28.1719, 26.583, 14.1487, 12.6972, 107.587, -64.3992
0.62654, -1, 28.0753, 26.5336, 14.1682, 12.6984, 107.535, -64.5301
0.62777, -1, 28.0753, 26.5336, 14.1682, 12.6984, 107.535, -64.5301
0.629831, -1, 27.9789, 26.4842, 14.1877, 12.6996, 107.484, -64.6609
0.631017, -1, 27.9789, 26.4842, 14.1877, 12.6996, 107.484, -64.6609
0.632878, -1, 27.9789, 26.4348, 14.2072, 12.7009, 107.432, -64.7918
0.635971, -1, 27.8825, 26.4348, 14.2072, 12.7009, 107.432, -64.7918
0.774711, -1, 24.5011, 24.7055, 14.8886, 12.7415, 105.625, -69.3721
0.775937, -1, 24.5011, 24.7055, 14.8886, 12.7415, 105.625, -69.3721
0.777258, -1, 24.5011, 24.7055, 14.8886, 12.7415, 105.625, -69.3721
0.780112, -1, 24.4049, 24.656, 14.9081, 12.7427, 105.573, -69.503
0.781306, -1, 24.4049, 24.656, 14.9081, 12.7427, 105.573, -69.503
0.783342, -1, 24.3088, 24.6065, 14.9277, 12.7439, 105.522, -69.6338
0.784551, -1, 24.3088, 24.6065, 14.9277, 12.7439, 105.522, -69.6338
0.787983, -1, 24.2125, 24.5571, 14.9472, 12.7451, 105.47, -69.7646
0.790117, -1, 24.2125, 24.5571, 14.9472, 12.7451, 105.419, -69.8953
0.791512, -1, 24.1163, 24.5077, 14.9666, 12.7462, 105.419, -69.8953
0.792841, -1, 24.1163, 24.5077, 14.9666, 12.7462, 105.419, -69.8953
0.795506, -1, 24.0199, 24.4583, 14.9861, 12.7474, 105.367, -70.026
0.79678, -1, 24.0199, 24.4583, 14.9861, 12.7474, 105.367, -70.026
0.798842, -1, 23.9235, 24.4089, 15.0056, 12.7485, 105.315, -70.1568
0.80007, -1, 23.9235, 24.4089, 15.0056, 12.7485, 105.315, -70.1568
0.807178, -1, 23.7307, 24.3101, 15.0445, 12.751, 105.212, -70.4185
0.808389, -1, 23.7307, 24.3101, 15.0445, 12.751, 105.212, -70.4185
0.810209, -1, 23.7307, 24.3101, 15.0445, 12.751, 105.212, -70.4185
0.811734, -1, 23.6342, 24.2607, 15.064, 12.7522, 105.16, -70.5494
0.813008, -1, 23.6342, 24.2607, 15.064, 12.7522, 105.16, -70.5494
0.815227, -1, 23.5376, 24.2113, 15.0834, 12.7533, 105.108, -70.6804
0.816506, -1, 23.5376, 24.2113, 15.0834, 12.7533, 105.108, -70.6804
0.819848, -1, 23.4409, 24.1618, 15.1029, 12.7546, 105.057, -70.8113
0.821104, -1, 23.4409, 24.1618, 15.1029, 12.7546, 105.057, -70.8113
0.823129, -1, 23.3441, 24.1124, 15.1224, 12.7558, 105.005, -70.942
0.824336, -1, 23.3441, 24.1124, 15.1224, 12.7558, 105.005, -70.942
0.825625, -1, 23.3441, 24.1124, 15.1224, 12.7558, 105.005, -70.942
0.828433, -1, 23.2472, 24.063, 15.1418, 12.757, 104.953, -71.0729
0.829675, -1, 23.2472, 24.063, 15.1418, 12.757, 104.953, -71.0729
0.831764, -1, 23.1503, 24.0135, 15.1612, 12.7582, 104.901, -71.2038
0.833268, -1, 23.1503, 24.0135, 15.1612, 12.7582, 104.901, -71.2038
0.835402, -1, 23.0533, 23.9641, 15.1806, 12.7594, 104.85, -71.3347
0.836741, -1, 23.0533, 23.9641, 15.1806, 12.7594, 104.85, -71.3347
0.838592, -1, 22.9563, 23.9147, 15.2001, 12.7606, 104.798, -71.4656
0.840026, -1, 22.9563, 23.9147, 15.2001, 12.7606, 104.798, -71.4656
0.841313, -1, 22.9563, 23.9147, 15.2001, 12.7606, 104.798, -71.4656
0.847882, -1, 22.7622, 23.8158, 15.2391, 12.7631, 104.695, -71.7275
0.855945, -1, 22.5683, 23.7171, 15.278, 12.7656, 104.591, -71.989
0.863953, -1, 22.3746, 23.6185, 15.317, 12.768, 104.488, -72.2504
0.871887, -1, 22.1814, 23.5198, 15.3559, 12.7706, 104.385, -72.5118
0.879892, -1, 21.9882, 23.4211, 15.3948, 12.7733, 104.281, -72.7735
0.887945, -1, 21.7954, 23.3224, 15.4338, 12.7758, 104.178, -73.035
0.895887, -1, 21.6031, 23.2237, 15.4728, 12.7785, 104.075, -73.2962
0.903912, -1, 21.4109, 23.1249, 15.5116, 12.7812, 103.972, -73.5576
0.911942, -1, 21.2187, 23.0263, 15.5506, 12.7838, 103.869, -73.8192
0.919932, -1, 21.0262, 22.9277, 15.5896, 12.7865, 103.765, -74.0807
0.928092, -1, 20.8338, 22.829, 15.6285, 12.7893, 103.663, -74.3418
0.935971, -1, 20.6414, 22.7305, 15.6675, 12.792, 103.559, -74.603
0.943505, -1, 20.4485, 22.6318, 15.7063, 12.7947, 103.456, -74.8642
0.952355, -1, 20.2551, 22.5332, 15.7452, 12.7975, 103.353, -75.1256
0.959683, -1, 20.0612, 22.4345, 15.7841, 12.8001, 103.25, -75.3866
0.967946, -1, 19.8675, 22.3358, 15.8228, 12.8029, 103.147, -75.6479
0.97674, -1, 19.6739, 22.2372, 15.8616, 12.8056, 103.044, -75.9091
0.9839, -1, 19.4803, 22.1386, 15.9006, 12.8084, 102.941, -76.1705
0.991915, -1, 19.2871, 22.04, 15.9394, 12.8111, 102.838, -76.4314
1.00084, -1, 19.0941, 21.9413, 15.9783, 12.8139, 102.735, -76.6923
1.00816, -1, 18.9015, 21.8427, 16.0172, 12.8166, 102.632, -76.9532
1.01494, -1, 18.8053, 21.7934, 16.0366, 12.8179, 102.58, -77.0837
1.02502, -1, 18.5173, 21.6453, 16.0947, 12.822, 102.426, -77.4753
1.03222, -1, 18.3255, 21.5468, 16.1336, 12.8246, 102.323, -77.7359
1.03888, -1, 18.2295, 21.4976, 16.153, 12.8259, 102.272, -77.8663
1.04926, -1, 17.9418, 21.3499, 16.2112, 12.8297, 102.118, -78.2575
1.05496, -1, 17.8458, 21.3007, 16.2307, 12.8309, 102.066, -78.3879
1.06445, -1, 17.5576, 21.1532, 16.289, 12.8347, 101.912, -78.7787
1.07326, -1, 17.365, 21.0549, 16.3279, 12.8371, 101.809, -79.0391
1.07894, -1, 17.2685, 21.0058, 16.3473, 12.8383, 101.757, -79.1693
1.08854, -1, 16.9788, 20.8584, 16.4054, 12.8418, 101.603, -79.5604
1.09736, -1, 16.8823, 20.8093, 16.4248, 12.843, 101.5, -79.8207
1.10294, -1, 16.6893, 20.7112, 16.4636, 12.8453, 101.448, -79.951
1.11292, -1, 16.3996, 20.5638, 16.5216, 12.8488, 101.295, -80.3419
1.11989, -1, 16.3033, 20.5147, 16.541, 12.8499, 101.243, -80.4721
1.12694, -1, 16.111, 20.4163, 16.5798, 12.8522, 101.14, -80.7325
1.13592, -1, 15.9191, 20.3179, 16.6186, 12.8546, 101.038, -80.9926
1.14388, -1, 15.7274, 20.2194, 16.6574, 12.8568, 100.935, -81.2528
1.15095, -1, 15.5361, 20.121, 16.6959, 12.8592, 100.833, -81.5129
1.1599, -1, 15.3449, 20.0227, 16.7346, 12.8615, 100.73, -81.7732
1.16791, -1, 15.1538, 19.9244, 16.7735, 12.8637, 100.627, -82.033
1.1749, -1, 14.9626, 19.8262, 16.8122, 12.866, 100.525, -82.2928
1.18387, -1, 14.7712, 19.7281, 16.8509, 12.8683, 100.422, -82.5527
1.19188, -1, 14.5797, 19.63, 16.8896, 12.8705, 100.32, -82.8128
1.19887, -1, 14.3878, 19.5319, 16.9283, 12.8729, 100.217, -83.0725
1.20787, -1, 14.1956, 19.434, 16.9671, 12.8751, 100.115, -83.332
1.21593, -1, 14.0032, 19.336, 17.0059, 12.8773, 100.012, -83.5916
1.22286, -1, 13.8107, 19.2382, 17.0444, 12.8798, 99.9096, -83.8512
1.23187, -1, 13.6182, 19.1404, 17.0831, 12.882, 99.807, -84.1107
1.24088, -1, 13.4258, 19.0425, 17.1219, 12.8843, 99.7044, -84.37
1.24687, -1, 13.2338, 18.9447, 17.1603, 12.8866, 99.6022, -84.6294
1.25593, -1, 13.0423, 18.8468, 17.1989, 12.889, 99.4998, -84.8887
1.26488, -1, 12.8511, 18.7488, 17.2376, 12.8913, 99.3972, -85.1481
1.27088, -1, 12.6601, 18.6508, 17.2761, 12.8937, 99.2952, -85.4069
1.27988, -1, 12.4696, 18.553, 17.3147, 12.8961, 99.1928, -85.6658
1.28791, -1, 12.2794, 18.4552, 17.3533, 12.8985, 99.0905, -85.9248
1.29592, -1, 12.0893, 18.3575, 17.3918, 12.9009, 98.9886, -86.1839
1.30388, -1, 11.8989, 18.2599, 17.4305, 12.9033, 98.8863, -86.4427
1.31239, -1, 11.7084, 18.1623, 17.469, 12.9058, 98.7844, -86.7013
1.31902, -1, 11.5176, 18.0646, 17.5075, 12.9083, 98.6826, -86.9599
1.32787, -1, 11.3266, 17.9671, 17.5461, 12.9106, 98.5806, -87.2187
1.33676, -1, 11.1352, 17.8696, 17.5847, 12.9131, 98.4787, -87.4771
1.34387, -1, 10.9436, 17.7721, 17.6232, 12.9156, 98.3769, -87.7354
1.35188, -1, 10.7519, 17.6747, 17.6617, 12.918, 98.2748, -87.9937
1.36075, -1, 10.5603, 17.5773, 17.7001, 12.9206, 98.173, -88.252
1.36787, -1, 10.3689, 17.4798, 17.7386, 12.9231, 98.0711, -88.5103
1.37589, -1, 10.1779, 17.3822, 17.7771, 12.9256, 97.9691, -88.7682
1.38466, -1, 9.98735, 17.2847, 17.8154, 12.9284, 97.8674, -89.0262
1.39187, -1, 9.79707, 17.1871, 17.8537, 12.931, 97.7653, -89.2845
1.39994, -1, 9.60713, 17.0896, 17.8921, 12.9337, 97.6634, -89.5425
1.40865, -1, 9.41786, 16.9923, 17.9304, 12.9365, 97.5617, -89.8001
1.41588, -1, 9.22862, 16.8949, 17.9688, 12.9392, 97.4597, -90.0578
1.4242, -1, 9.03926, 16.7976, 18.0072, 12.9418, 97.3579, -90.3152
1.43133, -1, 8.8498, 16.7005, 18.0455, 12.9445, 97.2563, -90.5728
1.43946, -1, 8.66031, 16.6033, 18.084, 12.9471, 97.1545, -90.8303
1.4483, -1, 8.47068, 16.5062, 18.1224, 12.9498, 97.0528, -91.0874
1.45544, -1, 8.28066, 16.4092, 18.1606, 12.9525, 96.9515, -91.3445
1.46397, -1, 8.09013, 16.3123, 18.199, 12.9551, 96.8498, -91.6018
1.47248, -1, 7.89949, 16.2155, 18.2373, 12.9577, 96.7483, -91.8588
1.48086, -1, 7.70887, 16.1186, 18.2756, 12.9604, 96.647, -92.1156
1.4879, -1, 7.5183, 16.0217, 18.3139, 12.9629, 96.5454, -92.3723
1.49676, -1, 7.32794, 15.9248, 18.3522, 12.9654, 96.444, -92.6291
1.50485, -1, 7.13796, 15.8278, 18.3903, 12.9679, 96.3428, -92.8859
1.512, -1, 6.94835, 15.7308, 18.4286, 12.9705, 96.2413, -93.1424
1.52089, -1, 6.75916, 15.6339, 18.4668, 12.9729, 96.1403, -93.3987
1.52902, -1, 6.5705, 15.5371, 18.5048, 12.9754, 96.0395, -93.6552
1.53622, -1, 6.38221, 15.4403, 18.5429, 12.9779, 95.9384, -93.9116
1.54286, -1, 6.28819, 15.3919, 18.562, 12.9791, 95.8879, -94.0398
1.55092, -1, 6.10016, 15.2952, 18.6001, 12.9816, 95.7872, -94.2957
1.56043, -1, 5.81767, 15.1502, 18.6574, 12.9851, 95.6357, -94.6796
1.56921, -1, 5.6293, 15.0536, 18.6955, 12.9874, 95.5348, -94.9357
1.57492, -1, 5.53501, 15.0053, 18.7145, 12.9885, 95.4845, -95.0636
1.58497, -1, 5.25175, 14.8606, 18.7717, 12.992, 95.3332, -95.4468
1.59335, -1, 5.06237, 14.7643, 18.8098, 12.9942, 95.2326, -95.7024
1.59892, -1, 4.9676, 14.7161, 18.8288, 12.9954, 95.1823, -95.8301
1.6089, -1, 4.68349, 14.5715, 18.8859, 12.9987, 95.0311, -96.2133
1.61586, -1, 4.58874, 14.5233, 18.905, 12.9997, 94.9808, -96.3408
1.62292, -1, 4.39947, 14.427, 18.9429, 13.002, 94.8802, -96.5957
1.63191, -1, 4.21052, 14.3306, 18.981, 13.0041, 94.7793, -96.8507
1.63985, -1, 4.02183, 14.2342, 19.0189, 13.0064, 94.6784, -97.1058
1.6469, -1, 3.83376, 14.1379, 19.0568, 13.0087, 94.5775, -97.3608
1.65591, -1, 3.64626, 14.0418, 19.0948, 13.0109, 94.4767, -97.6155
1.66386, -1, 3.45911, 13.9456, 19.1327, 13.0132, 94.3761, -97.8703
1.67192, -1, 3.27219, 13.8496, 19.1705, 13.0155, 94.2754, -98.125
1.67989, -1, 3.08523, 13.7536, 19.2084, 13.0178, 94.1747, -98.3798
1.68786, -1, 2.89828, 13.6576, 19.2463, 13.02, 94.0742, -98.6342
1.69587, -1, 2.7113, 13.5616, 19.2843, 13.0223, 93.9736, -98.8884
1.70545, -1, 2.43038, 13.4177, 19.341, 13.0257, 93.8229, -99.2696
1.71188, -1, 2.33665, 13.3698, 19.3599, 13.0268, 93.7729, -99.3967
1.71987, -1, 2.14871, 13.274, 19.3977, 13.0291, 93.6725, -99.6507
1.72794, -1, 1.96049, 13.1782, 19.4356, 13.0313, 93.5723, -99.9042
1.73586, -1, 1.77234, 13.0823, 19.4733, 13.0336, 93.4723, -100.158
1.74485, -1, 1.58409, 12.9865, 19.511, 13.0358, 93.3722, -100.411
1.75084, -1, 1.39595, 12.8906, 19.5488, 13.0381, 93.2722, -100.665
1.75992, -1, 1.20808, 12.7948, 19.5865, 13.0404, 93.1723, -100.918
1.76787, -1, 1.02068, 12.6991, 19.6242, 13.0428, 93.0722, -101.171
1.77585, -1, 0.833994, 12.6035, 19.662, 13.0451, 92.9723, -101.424
1.78386, -1, 0.647649, 12.5079, 19.6996, 13.0475, 92.8726, -101.677
1.79192, -1, 0.461687, 12.4125, 19.7372, 13.05, 92.7726, -101.93
1.79985, -1, 0.276062, 12.3172, 19.7749, 13.0525, 92.6729, -102.183
1.80787, -1, 0.0906468, 12.2218, 19.8125, 13.0549, 92.5736, -102.436
1.81592, -1, -0.0947237, 12.1265, 19.85, 13.0573, 92.4739, -102.688
1.82385, -1, -0.280388, 12.0313, 19.8877, 13.0598, 92.3743, -102.941
1.83186, -1, -0.466352, 11.9361, 19.9253, 13.0623, 92.2751, -103.193
1.83995, -1, -0.652576, 11.841, 19.9628, 13.0647, 92.1755, -103.445
1.84786, -1, -0.839005, 11.746, 20.0004, 13.0673, 92.076, -103.697
1.85586, -1, -1.02563, 11.651, 20.0379, 13.0698, 91.9769, -103.949
1.86391, -1, -1.21249, 11.5559, 20.0753, 13.0723, 91.8773, -104.201
1.87185, -1, -1.39945, 11.4609, 20.1129, 13.0749, 91.7781, -104.452
1.87986, -1, -1.58623, 11.3657, 20.1503, 13.0775, 91.679, -104.704
1.88793, -1, -1.77263, 11.2706, 20.1876, 13.08, 91.5797, -104.956
1.89585, -1, -1.95864, 11.1756, 20.2251, 13.0826, 91.4806, -105.207
1.90398, -1, -2.14405, 11.0807, 20.2625, 13.0853, 91.3815, -105.458
1.91185, -1, -2.32902, 10.9858, 20.2999, 13.0879, 91.2823, -105.709
1.91985, -1, -2.51374, 10.891, 20.3373, 13.0906, 91.1832, -105.96
1.92835, -1, -2.69786, 10.7963, 20.3746, 13.0932, 91.0841, -106.211
1.93533, -1, -2.88166, 10.7016, 20.4119, 13.0958, 90.985, -106.462
1.94346, -1, -3.06571, 10.6068, 20.4493, 13.0984, 90.886, -106.712
1.95229, -1, -3.2499, 10.5122, 20.4865, 13.1011, 90.7871, -106.963
1.95942, -1, -3.43437, 10.4177, 20.5237, 13.1036, 90.6882, -107.214
1.96796, -1, -3.61907, 10.3234, 20.561, 13.1062, 90.5894, -107.464
1.97681, -1, -3.80388, 10.229, 20.5982, 13.1087, 90.4906, -107.714
1.98387, -1, -3.98915, 10.1347, 20.6355, 13.1111, 90.3919, -107.964
1.99195, -1, -4.17458, 10.0404, 20.6728, 13.1136, 90.2933, -108.214
2.00071, -1, -4.36024, 9.9461, 20.7099, 13.1159, 90.1946, -108.464
2.00791, -1, -4.54572, 9.85175, 20.7472, 13.1182, 90.096, -108.713
2.016, -1, -4.73088, 9.7575, 20.7844, 13.1205, 89.9976, -108.963
2.02289, -1, -4.82326, 9.71041, 20.8029, 13.1216, 89.9484, -109.088
2.03216, -1, -5.09973, 9.56933, 20.8586, 13.1253, 89.8006, -109.462
2.03885, -1, -5.19153, 9.52227, 20.8772, 13.1264, 89.7514, -109.586
2.04904, -1, -5.46641, 9.38134, 20.9328, 13.1299, 89.6039, -109.96
2.05486, -1, -5.55783, 9.33439, 20.9514, 13.131, 89.5547, -110.084
2.06437, -1, -5.83155, 9.19354, 21.0071, 13.1344, 89.4076, -110.457
2.07332, -1, -6.01388, 9.09968, 21.044, 13.1367, 89.3093, -110.706
2.07884, -1, -6.10512, 9.05276, 21.0625, 13.1378, 89.2602, -110.83
2.08845, -1, -6.37923, 8.91217, 21.1182, 13.1412, 89.1134, -111.203
2.09733, -1, -6.56221, 8.81853, 21.155, 13.1433, 89.0153, -111.451
2.10284, -1, -6.65381, 8.77168, 21.1734, 13.1444, 88.9663, -111.575
2.11293, -1, -6.92938, 8.63127, 21.2288, 13.1476, 88.8196, -111.947
2.11985, -1, -7.02134, 8.58447, 21.2473, 13.1486, 88.7707, -112.071
2.12789, -1, -7.20547, 8.49094, 21.2841, 13.1508, 88.6728, -112.319
2.13584, -1, -7.38964, 8.39734, 21.3211, 13.1528, 88.5749, -112.566
2.14384, -1, -7.57342, 8.30371, 21.3579, 13.155, 88.4774, -112.814
2.15083, -1, -7.75697, 8.21029, 21.3947, 13.1572, 88.3796, -113.062
2.15985, -1, -7.94004, 8.11689, 21.4316, 13.1594, 88.2823, -113.309
2.16784, -1, -8.12258, 8.02355, 21.4684, 13.1616, 88.185, -113.556
2.17589, -1, -8.30454, 7.93027, 21.5051, 13.1638, 88.0875, -113.803
2.18384, -1, -8.48595, 7.83703, 21.542, 13.1661, 87.9902, -114.05
2.19183, -1, -8.66692, 7.74387, 21.5788, 13.1684, 87.8929, -114.297
2.19883, -1, -8.84764, 7.65069, 21.6155, 13.1707, 87.7954, -114.543
2.20784, -1, -9.02843, 7.55767, 21.6523, 13.1729, 87.698, -114.789
2.21583, -1, -9.20945, 7.4647, 21.689, 13.1752, 87.6008, -115.036
2.22397, -1, -9.39073, 7.37187, 21.7256, 13.1774, 87.5035, -115.282
2.23184, -1, -9.57236, 7.27902, 21.7623, 13.1795, 87.4063, -115.528
2.24083, -1, -9.75426, 7.18624, 21.799, 13.1818, 87.3094, -115.774
2.24683, -1, -9.93664, 7.09352, 21.8354, 13.1841, 87.2121, -116.021
2.25584, -1, -10.1192, 7.00075, 21.8721, 13.1862, 87.115, -116.267
2.26485, -1, -10.3018, 6.90799, 21.9087, 13.1885, 87.018, -116.512
2.27183, -1, -10.4844, 6.81522, 21.9452, 13.1906, 86.9208, -116.758
2.27985, -1, -10.6667, 6.72251, 21.9819, 13.193, 86.8237, -117.003
2.28798, -1, -10.8486, 6.62994, 22.0183, 13.1953, 86.7269, -117.248
2.29585, -1, -11.0299, 6.53733, 22.0547, 13.1978, 86.6298, -117.494
2.30385, -1, -11.2103, 6.44484, 22.0913, 13.2002, 86.5332, -117.738
2.3119, -1, -11.3902, 6.35236, 22.1278, 13.2027, 86.4367, -117.983
2.31983, -1, -11.5698, 6.25995, 22.1641, 13.2051, 86.3399, -118.228
2.3279, -1, -11.7491, 6.16752, 22.2007, 13.2075, 86.2433, -118.473
2.3359, -1, -11.9284, 6.07525, 22.2371, 13.21, 86.1468, -118.717
2.34393, -1, -12.1077, 5.98303, 22.2735, 13.2124, 86.0501, -118.961
2.35184, -1, -12.2871, 5.89093, 22.31, 13.2149, 85.9537, -119.206
2.35989, -1, -12.467, 5.7989, 22.3464, 13.2174, 85.8574, -119.45
2.36783, -1, -12.6472, 5.70689, 22.3825, 13.2199, 85.7609, -119.694
2.37584, -1, -12.8278, 5.61492, 22.4189, 13.2224, 85.6647, -119.938
2.3839, -1, -13.0088, 5.52303, 22.4552, 13.2248, 85.5689, -120.181
2.39183, -1, -13.19, 5.43102, 22.4914, 13.2273, 85.4729, -120.425
2.40159, -1, -13.3713, 5.33901, 22.5277, 13.2297, 85.3769, -120.669
2.40723, -1, -13.5522, 5.24708, 22.5639, 13.2322, 85.2814, -120.912
2.41515, -1, -13.7327, 5.15524, 22.6, 13.2348, 85.1855, -121.155
2.42401, -1, -13.9127, 5.06338, 22.6361, 13.2373, 85.0897, -121.398
2.43193, -1, -14.0918, 4.97165, 22.6724, 13.2399, 84.9943, -121.641
2.43998, -1, -14.2702, 4.87995, 22.7085, 13.2424, 84.8984, -121.884
2.44813, -1, -14.4484, 4.78829, 22.7446, 13.245, 84.8028, -122.126
2.45594, -1, -14.6262, 4.69668, 22.7809, 13.2475, 84.7074, -122.369
2.46399, -1, -14.8038, 4.60516, 22.8169, 13.25, 84.6116, -122.611
2.47239, -1, -14.9814, 4.51366, 22.853, 13.2524, 84.5159, -122.854
2.47946, -1, -15.0703, 4.46797, 22.8711, 13.2549, 84.4205, -123.096
2.4879, -1, -15.3374, 4.33104, 22.9253, 13.2573, 84.3247, -123.337
2.49747, -1, -15.516, 4.23974, 22.9613, 13.2596, 84.229, -123.579
2.50387, -1, -15.695, 4.14852, 22.9973, 13.2619, 84.1336, -123.821
2.51199, -1, -15.8743, 4.0573, 23.0333, 13.2642, 84.0379, -124.063
2.51882, -1, -15.9639, 4.0117, 23.0512, 13.2652, 83.9902, -124.183
2.52804, -1, -16.2333, 3.8748, 23.1053, 13.2684, 83.8471, -124.546
2.53483, -1, -16.3232, 3.82921, 23.1232, 13.2695, 83.7993, -124.666
2.54632, -1, -16.5922, 3.69244, 23.1769, 13.2727, 83.6562, -125.029
2.55233, -1, -16.7709, 3.60132, 23.2128, 13.275, 83.561, -125.27
2.55883, -1, -16.8601, 3.55582, 23.2307, 13.2761, 83.5132, -125.39
2.56909, -1, -17.1263, 3.41932, 23.2844, 13.2794, 83.3702, -125.751
2.57646, -1, -17.303, 3.32842, 23.3204, 13.2816, 83.2751, -125.992
2.58439, -1, -17.4793, 3.23761, 23.3561, 13.2838, 83.1799, -126.233
2.59325, -1, -17.6556, 3.14681, 23.3919, 13.2859, 83.0849, -126.473
2.59882, -1, -17.7436, 3.10151, 23.4098, 13.287, 83.0375, -126.593
2.60833, -1, -17.9196, 3.01092, 23.4457, 13.2891, 82.9428, -126.833
2.61584, -1, -18.0958, 2.92045, 23.4814, 13.2912, 82.8479, -127.074
2.62282, -1, -18.2723, 2.83005, 23.5171, 13.2933, 82.7532, -127.314
2.63182, -1, -18.4492, 2.73966, 23.5529, 13.2953, 82.6587, -127.553
2.63982, -1, -18.6266, 2.64929, 23.5885, 13.2974, 82.5639, -127.793
2.64787, -1, -18.8043, 2.55897, 23.6242, 13.2995, 82.4694, -128.033
2.65584, -1, -18.9822, 2.46854, 23.66, 13.3014, 82.375, -128.272
2.66381, -1, -19.1605, 2.37806, 23.6955, 13.3034, 82.2804, -128.512
2.67187, -1, -19.3387, 2.28771, 23.7311, 13.3055, 82.186, -128.751
2.67982, -1, -19.5165, 2.19734, 23.7667, 13.3076, 82.0922, -128.99
2.68782, -1, -19.6936, 2.1069, 23.8022, 13.3098, 81.9979, -129.229
2.69586, -1, -19.8701, 2.01663, 23.8375, 13.3119, 81.9037, -129.468
2.70385, -1, -20.0459, 1.92636, 23.8732, 13.3141, 81.8099, -129.707
2.71185, -1, -20.2212, 1.83614, 23.9087, 13.3163, 81.7157, -129.945
2.71882, -1, -20.3961, 1.74605, 23.9441, 13.3185, 81.6217, -130.183
2.72782, -1, -20.5706, 1.65597, 23.9797, 13.3207, 81.5279, -130.422
2.73589, -1, -20.7451, 1.566, 24.0152, 13.3228, 81.4338, -130.66
2.74282, -1, -20.9197, 1.4761, 24.0505, 13.325, 81.34, -130.898
2.75182, -1, -21.0947, 1.38637, 24.0861, 13.3273, 81.2464, -131.136
2.75988, -1, -21.27, 1.29662, 24.1215, 13.3294, 81.1525, -131.374
2.76788, -1, -21.4457, 1.20691, 24.1568, 13.3316, 81.0586, -131.612
2.77588, -1, -21.6217, 1.11733, 24.1922, 13.3338, 80.9649, -131.849
2.78389, -1, -21.7979, 1.02771, 24.2277, 13.3359, 80.871, -132.087
2.79181, -1, -21.9742, 0.938094, 24.2631, 13.3382, 80.7773, -132.324
2.79988, -1, -22.1508, 0.848564, 24.2984, 13.3403, 80.6836, -132.561
2.80782, -1, -22.3274, 0.759024, 24.3338, 13.3425, 80.5899, -132.798
2.81588, -1, -22.5035, 0.669546, 24.369, 13.3447, 80.4963, -133.035
2.82381, -1, -22.6791, 0.580058, 24.4042, 13.3471, 80.4027, -133.272
2.83183, -1, -22.8541, 0.490637, 24.4395, 13.3494, 80.309, -133.509
2.83989, -1, -23.0281, 0.401218, 24.4746, 13.3519, 80.2155, -133.746
2.84781, -1, -23.2018, 0.311863, 24.5096, 13.3544, 80.122, -133.983
2.85582, -1, -23.3751, 0.222528, 24.5448, 13.3568, 80.0287, -134.219
2.86388, -1, -23.5481, 0.133366, 24.58, 13.3593, 79.9353, -134.455
2.87183, -1, -23.7214, 0.0442377, 24.6152, 13.3616, 79.8419, -134.691
2.87983, -1, -23.8948, -0.0448187, 24.6504, 13.364, 79.749, -134.928
2.88788, -1, -24.0682, -0.133719, 24.6855, 13.3666, 79.6556, -135.164
2.8958, -1, -24.242, -0.22269, 24.7205, 13.369, 79.5625, -135.399
2.90387, -1, -24.4161, -0.311609, 24.7556, 13.3714, 79.4697, -135.635
2.91188, -1, -24.5905, -0.400449, 24.7907, 13.3738, 79.3764, -135.87
2.91982, -1, -24.7653, -0.489351, 24.8257, 13.3763, 79.2835, -136.106
2.92803, -1, -24.9403, -0.578208, 24.8607, 13.3786, 79.1906, -136.341
2.93593, -1, -25.1154, -0.667022, 24.8958, 13.381, 79.0975, -136.577
2.94391, -1, -25.2902, -0.755775, 24.9308, 13.3833, 79.0046, -136.812
2.95221, -1, -25.4646, -0.844573, 24.9659, 13.3857, 78.912, -137.047
2.95942, -1, -25.6386, -0.933305, 25.0008, 13.3882, 78.8192, -137.282
2.96794, -1, -25.8117, -1.02194, 25.0356, 13.3906, 78.7264, -137.516
2.97641, -1, -25.9844, -1.11066, 25.0705, 13.393, 78.6341, -137.751
2.98382, -1, -26.1567, -1.19934, 25.1055, 13.3955, 78.5415, -137.985
2.99187, -1, -26.3285, -1.28789, 25.1403, 13.3978, 78.449, -138.22
3.00062, -1, -26.5002, -1.37635, 25.1752, 13.4001, 78.3565, -138.455
3.00788, -1, -26.6721, -1.46472, 25.2101, 13.4023, 78.2641, -138.689
3.01595, -1, -26.8442, -1.553, 25.245, 13.4046, 78.1717, -138.923
3.02282, -1, -26.9304, -1.59707, 25.2625, 13.4058, 78.1254, -139.04
3.03081, -1, -27.1028, -1.68521, 25.2973, 13.408, 78.0333, -139.274
3.04028, -1, -27.3617, -1.81751, 25.3496, 13.4113, 77.8949, -139.624
3.04897, -1, -27.5347, -1.90553, 25.3843, 13.4134, 77.8029, -139.858
3.05629, -1, -27.7079, -1.99372, 25.4192, 13.4154, 77.711, -140.091
3.06437, -1, -27.8813, -2.08185, 25.454, 13.4175, 77.6189, -140.325
3.07314, -1, -28.0546, -2.16983, 25.4887, 13.4196, 77.5268, -140.558
3.0789, -1, -28.1413, -2.21387, 25.506, 13.4206, 77.4809, -140.675
3.08863, -1, -28.4009, -2.34594, 25.5582, 13.4237, 77.3429, -141.024
3.09732, -1, -28.4872, -2.43392, 25.5929, 13.4258, 77.2507, -141.257
3.10287, -1, -28.6596, -2.4779, 25.6102, 13.4268, 77.2047, -141.374
3.11247, -1, -28.8314, -2.56589, 25.645, 13.4289, 77.1127, -141.723
3.1198, -1, -29.0024, -2.65387, 25.6796, 13.4311, 77.0206, -141.84
3.12688, -1, -29.1731, -2.74174, 25.7142, 13.4333, 76.9287, -142.072
3.13592, -1, -29.3436, -2.82954, 25.7488, 13.4353, 76.837, -142.304
3.14382, -1, -29.5143, -2.91723, 25.7835, 13.4374, 76.7451, -142.537
3.15087, -1, -29.6851, -3.00482, 25.818, 13.4394, 76.6533, -142.769
3.15985, -1, -29.8561, -3.09236, 25.8526, 13.4415, 76.5617, -143.002
3.1678, -1, -30.0271, -3.17983, 25.8872, 13.4436, 76.4697, -143.234
3.17581, -1, -30.1981, -3.26732, 25.9218, 13.4455, 76.3782, -143.466
3.18386, -1, -30.3692, -3.35472, 25.9564, 13.4477, 76.2867, -143.698
3.1918, -1, -30.5408, -3.44214, 25.991, 13.4497, 76.195, -143.93
3.19981, -1, -30.7126, -3.52966, 26.0254, 13.4518, 76.1035, -144.161
3.20787, -1, -30.8845, -3.61697, 26.0599, 13.4539, 76.0122, -144.393
3.2158, -1, -31.0563, -3.70434, 26.0945, 13.4558, 75.9208, -144.624
3.22383, -1, -31.2279, -3.79168, 26.129, 13.4579, 75.8295, -144.855
3.23186, -1, -31.3993, -3.879, 26.1634, 13.46, 75.7382, -145.087
3.24137, -1, -31.5702, -3.96631, 26.1979, 13.462, 75.647, -145.318
3.24785, -1, -31.7407, -4.05353, 26.2324, 13.4642, 75.5557, -145.549
3.2568, -1, -31.9107, -4.1408, 26.2668, 13.4664, 75.4645, -145.779
3.264, -1, -32.0803, -4.22801, 26.3012, 13.4686, 75.3735, -146.01
3.27188, -1, -32.2496, -4.3151, 26.3357, 13.4709, 75.2822, -146.241
3.27987, -1, -32.4191, -4.40217, 26.3699, 13.473, 75.1911, -146.472
3.2878, -1, -32.5887, -4.48912, 26.4043, 13.4751, 75.1005, -146.702
3.29581, -1, -32.7584, -4.57602, 26.4388, 13.4772, 75.0095, -146.932
3.30387, -1, -32.928, -4.66292, 26.473, 13.4793, 74.9187, -147.163
3.31179, -1, -33.0977, -4.74984, 26.5072, 13.4815, 74.8284, -147.393
3.31991, -1, -33.2676, -4.83668, 26.5416, 13.4838, 74.7375, -147.623
3.32779, -1, -33.4377, -4.9235, 26.5758, 13.486, 74.647, -147.853
3.3358, -1, -33.608, -5.01044, 26.61, 13.4882, 74.5565, -148.083
3.3452, -1, -33.7784, -5.09721, 26.6444, 13.4904, 74.4658, -148.313
3.35179, -1, -33.9486, -5.18394, 26.6786, 13.4927, 74.3752, -148.543
3.35988, -1, -34.1189, -5.27066, 26.7127, 13.4949, 74.2847, -148.772
3.36781, -1, -34.289, -5.35739, 26.7469, 13.4972, 74.1942, -149.001
3.37579, -1, -34.4589, -5.44402, 26.7812, 13.4995, 74.1036, -149.231
3.38387, -1, -34.6284, -5.53068, 26.8153, 13.5018, 74.0131, -149.46
3.39181, -1, -34.7974, -5.61733, 26.8493, 13.5042, 73.9227, -149.689
3.39982, -1, -34.9659, -5.70391, 26.8836, 13.5066, 73.8321, -149.918
3.40786, -1, -35.1343, -5.7904, 26.9177, 13.5091, 73.7416, -150.147
3.41585, -1, -35.3025, -5.87684, 26.9518, 13.5116, 73.6514, -150.376
3.42387, -1, -35.4709, -5.96307, 26.9859, 13.514, 73.5609, -150.605
3.43182, -1, -35.6395, -6.04926, 27.02, 13.5162, 73.4705, -150.834
3.44029, -1, -35.808, -6.13547, 27.054, 13.5186, 73.3804, -151.063
3.4473, -1, -35.9765, -6.22158, 27.0881, 13.521, 73.2898, -151.291
3.45589, -1, -36.145, -6.30768, 27.1222, 13.5234, 73.1995, -151.52
3.46432, -1, -36.3136, -6.39383, 27.1561, 13.5258, 73.1092, -151.748
3.4719, -1, -36.4824, -6.48006, 27.19, 13.5282, 73.0188, -151.977
3.48004, -1, -36.6512, -6.56623, 27.224, 13.5305, 72.9286, -152.205
3.48846, -1, -36.8202, -6.65246, 27.2579, 13.5328, 72.8383, -152.433
3.49884, -1, -36.9892, -6.73859, 27.2918, 13.5351, 72.7483, -152.661
3.50383, -1, -37.158, -6.82478, 27.3258, 13.5373, 72.6581, -152.889
3.5127, -1, -37.3267, -6.91088, 27.3597, 13.5395, 72.5682, -153.117
3.52006, -1, -37.4951, -6.99691, 27.3936, 13.5418, 72.4785, -153.344
3.52678, -1, -37.5791, -7.03996, 27.4106, 13.5429, 72.4334, -153.458
3.53661, -1, -37.8307, -7.16899, 27.4615, 13.5463, 72.2987, -153.799
3.54417, -1, -37.9982, -7.25489, 27.4953, 13.5485, 72.2092, -154.027
3.55079, -1, -38.0819, -7.29783, 27.5122, 13.5496, 72.1643, -154.14
3.56105, -1, -38.3331, -7.42655, 27.5632, 13.5529, 72.0296, -154.481
3.56679, -1, -38.4168, -7.4694, 27.5801, 13.5539, 71.9847, -154.595
3.57644, -1, -38.6676, -7.59795, 27.6309, 13.5569, 71.8502, -154.936
3.58436, -1, -38.8348, -7.68359, 27.6648, 13.559, 71.7607, -155.163
3.59239, -1, -39.002, -7.76926, 27.6985, 13.5611, 71.6713, -155.39
3.60043, -1, -39.0857, -7.85487, 27.7323, 13.5632, 71.582, -155.617
3.60843, -1, -39.2533, -7.89773, 27.7662, 13.5651, 71.4927, -155.843
3.61641, -1, -39.4208, -7.98343, 27.7831, 13.5661, 71.448, -156.07
3.62379, -1, -39.5885, -8.06897, 27.8166, 13.568, 71.3587, -156.184
3.63178, -1, -39.7562, -8.15451, 27.8503, 13.57, 71.2694, -156.41
3.63985, -1, -39.9238, -8.23999, 27.8841, 13.572, 71.18, -156.636
3.64779, -1, -40.0914, -8.32539, 27.9178, 13.5739, 71.0906, -156.863
3.65579, -1, -40.2589, -8.41076, 27.9515, 13.5758, 71.0014, -157.089
3.66383, -1, -40.4261, -8.49612, 27.9853, 13.5778, 70.9119, -157.315
3.67179, -1, -40.5931, -8.58146, 28.0189, 13.5798, 70.8227, -157.541
3.67979, -1, -40.7599, -8.66682, 28.0524, 13.5818, 70.7338, -157.767
3.68783, -1, -40.9265, -8.75217, 28.0862, 13.5838, 70.6445, -157.993
3.6958, -1, -41.0929, -8.83748, 28.1198, 13.5859, 70.5554, -158.219
3.70381, -1, -41.2592, -8.92271, 28.1533, 13.5878, 70.4664, -158.445
3.71183, -1, -41.4254, -9.00788, 28.1869, 13.5898, 70.3772, -158.67
3.71978, -1, -41.5916, -9.09302, 28.2206, 13.5918, 70.288, -158.896
3.72778, -1, -41.7579, -9.1781, 28.2542, 13.5938, 70.1989, -159.121
3.73586, -1, -41.9243, -9.26315, 28.2877, 13.5959, 70.1098, -159.347
3.74538, -1, -42.0907, -9.34815, 28.3215, 13.5979, 70.0208, -159.573
3.75181, -1, -42.257, -9.43323, 28.355, 13.5999, 69.9317, -159.798
3.75985, -1, -42.4233, -9.51822, 28.3885, 13.6019, 69.8429, -160.023
3.76779, -1, -42.5897, -9.60318, 28.4221, 13.6039, 69.7539, -160.248
3.7759, -1, -42.7561, -9.68811, 28.4556, 13.6059, 69.665, -160.473
3.78379, -1, -42.9225, -9.77307, 28.489, 13.6079, 69.5765, -160.699
3.79179, -1, -43.0888, -9.85799, 28.5225, 13.61, 69.4875, -160.923
3.79986, -1, -43.255, -9.94294, 28.556, 13.612, 69.399, -161.148
3.80778, -1, -43.4211, -10.0279, 28.5895, 13.6141, 69.3103, -161.373
3.81578, -1, -43.5871, -10.1128, 28.623, 13.6162, 69.2216, -161.598
3.82386, -1, -43.753, -10.1977, 28.6566, 13.6182, 69.1331, -161.822
3.83178, -1, -43.9189, -10.2825, 28.6899, 13.6205, 69.0445, -162.047
3.83978, -1, -44.0845, -10.3673, 28.7233, 13.6226, 68.9562, -162.271
3.84786, -1, -44.2497, -10.452, 28.7569, 13.6248, 68.8675, -162.495
3.85578, -1, -44.4149, -10.5366, 28.7903, 13.627, 68.7788, -162.72
3.86378, -1, -44.5801, -10.6212, 28.8236, 13.6292, 68.6904, -162.944
3.87185, -1, -44.7453, -10.7057, 28.8571, 13.6314, 68.6017, -163.168
3.87978, -1, -44.9106, -10.7901, 28.8905, 13.6336, 68.5132, -163.392
3.88779, -1, -45.076, -10.8746, 28.9239, 13.6357, 68.4249, -163.616
3.89584, -1, -45.2413, -10.9592, 28.9573, 13.638, 68.3363, -163.84
3.90379, -1, -45.4065, -11.0436, 28.9908, 13.6403, 68.2478, -164.064
3.91178, -1, -45.5718, -11.128, 29.0239, 13.6425, 68.1596, -164.288
3.91987, -1, -45.7371, -11.2125, 29.0571, 13.6448, 68.0713, -164.512
3.92779, -1, -45.9021, -11.2968, 29.0905, 13.6471, 67.983, -164.735
3.93581, -1, -46.0651, -11.38, 29.1239, 13.6493, 67.8946, -164.959
3.94397, -1, -46.2247, -11.4611, 29.1574, 13.6516, 67.807, -165.181
3.95187, -1, -46.3788, -11.5385, 29.191, 13.654, 67.7203, -165.4
3.95987, -1, -46.5251, -11.6112, 29.2241, 13.6564, 67.6365, -165.612
3.96796, -1, -46.6611, -11.6782, 29.2553, 13.6586, 67.5583, -165.811
3.97588, -1, -46.784, -11.7381, 29.2837, 13.6607, 67.4867, -165.991
3.98389, -1, -46.8914, -11.7908, 29.3082, 13.6626, 67.4249, -166.147
3.9919, -1, -46.9823, -11.8369, 29.3277, 13.664, 67.3743, -166.276
3.99981, -1, -47.0574, -11.877, 29.3416, 13.6651, 67.3348, -166.375
4.008, -1, -47.1176, -11.9103, 29.3509, 13.6656, 67.3063, -166.447
4.01481, -1, -47.1421, -11.9242, 29.3541, 13.6658, 67.2957, -166.474
4.02399, -1, -47.1966, -11.955, 29.3591, 13.6661, 67.2753, -166.525
4.0308, -1, -47.2092, -11.9621, 29.3599, 13.6662, 67.2715, -166.535
4.04007, -1, -47.234, -11.9756, 29.3609, 13.6662, 67.2653, -166.55
4.04677, -1, -47.2387, -11.9781, 29.3611, 13.6663, 67.2643, -166.553
4.05641, 2, -47.246, -11.9818, 29.3614, 13.6663, 67.2628, -166.556
4.0643, 2, -47.2468, -11.9827, 29.3615, 13.6663, 67.2625, -166.557
4.07271, 2, -47.2465, -11.9829, 29.3616, 13.6664, 67.2623, -166.557
4.08034, 2, -47.2463, -11.9831, 29.3616, 13.6664, 67.2622, -166.558
4.08839, 2, -47.2464, -11.9832, 29.3617, 13.6664, 67.2622, -166.558
4.09665, 2, -47.2471, -11.9833, 29.3617, 13.6664, 67.2622, -166.558
4.10457, 2, -47.2476, -11.9835, 29.3617, 13.6664, 67.2622, -166.558
4.11248, 2, -47.2499, -11.9843, 29.3617, 13.6664, 67.2622, -166.558
4.12076, 2, -47.2517, -11.9851, 29.3617, 13.6664, 67.2622, -166.558
4.12778, 2, -47.2526, -11.9856, 29.3617, 13.6664, 67.2622, -166.558
4.13584, 2, -47.254, -11.9864, 29.3617, 13.6664, 67.2622, -166.558
4.14377, 2, -47.255, -11.987, 29.3617, 13.6664, 67.2622, -166.558
4.15177, 2, -47.2555, -11.9874, 29.3617, 13.6664, 67.2622, -166.558
4.15981, 2, -47.2557, -11.9876, 29.3617, 13.6664, 67.2622, -166.558
4.16778, 2, -47.2558, -11.9877, 29.3617, 13.6664, 67.2623, -166.558
4.17576, 2, -47.2555, -11.9877, 29.3618, 13.6664, 67.2622, -166.558
4.18382, 2, -47.2549, -11.9877, 29.3618, 13.6664, 67.2622, -166.558
4.19176, 2, -47.2544, -11.9877, 29.3618, 13.6664, 67.2622, -166.558
4.19977, 2, -47.2539, -11.9877, 29.3618, 13.6664, 67.2622, -166.558
4.20783, 2, -47.2537, -11.9877, 29.3618, 13.6664, 67.2622, -166.558
4.21577, 2, -47.2537, -11.9877, 29.3618, 13.6664, 67.2623, -166.558
4.22377, 2, -47.2538, -11.9879, 29.3618, 13.6664, 67.2622, -166.558
4.23183, 2, -47.2539, -11.9882, 29.3618, 13.6664, 67.2622, -166.558
4.23976, 2, -47.2545, -11.9885, 29.3618, 13.6664, 67.2622, -166.558
4.24783, 2, -47.2552, -11.9888, 29.3618, 13.6664, 67.2622, -166.558
4.25762, 2, -47.2557, -11.9891, 29.3618, 13.6664, 67.2622, -166.558
4.26377, 2, -47.2559, -11.9891, 29.3618, 13.6664, 67.2622, -166.558
4.27176, 2, -47.2559, -11.9891, 29.3618, 13.6664, 67.2622, -166.558
4.27989, 2, -47.2558, -11.9891, 29.3618, 13.6664, 67.2622, -166.558
4.28777, 2, -47.2557, -11.9891, 29.3618, 13.6664, 67.2623, -166.558
4.29576, 2, -47.2552, -11.989, 29.3618, 13.6664, 67.2623, -166.558
4.30383, 2, -47.2547, -11.989, 29.3618, 13.6665, 67.2623, -166.558
4.31176, 2, -47.2544, -11.989, 29.3618, 13.6664, 67.2623, -166.558
4.31976, 2, -47.2541, -11.989, 29.3618, 13.6664, 67.2623, -166.558
4.32784, 2, -47.254, -11.989, 29.3618, 13.6664, 67.2622, -166.558
4.33576, 2, -47.2539, -11.9891, 29.3618, 13.6664, 67.2622, -166.558
4.34377, 2, -47.2538, -11.9891, 29.3618, 13.6664, 67.2623, -166.558
4.35183, 2, -47.2538, -11.9892, 29.3618, 13.6664, 67.2623, -166.558
4.35976, 2, -47.2538, -11.9892, 29.3618, 13.6664, 67.2623, -166.558
4.36777, 2, -47.254, -11.9892, 29.3618, 13.6664, 67.2623, -166.557
4.37582, 2, -47.254, -11.9892, 29.3618, 13.6664, 67.2623, -166.557
4.38377, 2, -47.254, -11.9891, 29.3618, 13.6663, 67.2623, -166.557
4.39176, 2, -47.254, -11.9891, 29.3618, 13.6663, 67.2623, -166.557
4.39982, 2, -47.2538, -11.9891, 29.3618, 13.6663, 67.2623, -166.557
4.40777, 2, -47.2538, -11.989, 29.3618, 13.6663, 67.2623, -166.557
4.41576, 2, -47.2536, -11.989, 29.3618, 13.6663, 67.2623, -166.557
4.42387, 2, -47.2534, -11.989, 29.3618, 13.6663, 67.2623, -166.557
4.43176, 2, -47.2533, -11.989, 29.3618, 13.6663, 67.2624, -166.557
4.4398, 2, -47.2531, -11.989, 29.3618, 13.6664, 67.2624, -166.557
4.44797, 2, -47.2531, -11.989, 29.3618, 13.6664, 67.2624, -166.557
4.45585, 2, -47.253, -11.989, 29.3618, 13.6663, 67.2624, -166.557
4.46387, 2, -47.253, -11.989, 29.3618, 13.6663, 67.2624, -166.557
4.47192, 2, -47.2529, -11.989, 29.3618, 13.6663, 67.2624, -166.557
4.47987, 2, -47.2529, -11.989, 29.3618, 13.6664, 67.2624, -166.557
4.48787, 2, -47.2528, -11.989, 29.3618, 13.6664, 67.2624, -166.557
4.49589, 2, -47.2527, -11.989, 29.3618, 13.6663, 67.2624, -166.557
4.5038, 2, -47.2527, -11.9889, 29.3618, 13.6663, 67.2624, -166.557
4.51187, 2, -47.2526, -11.9889, 29.3618, 13.6663, 67.2624, -166.557
4.51986, 2, -47.2525, -11.9888, 29.3618, 13.6663, 67.2625, -166.557
4.52795, 2, -47.2524, -11.9888, 29.3618, 13.6663, 67.2625, -166.557
4.5348, 2, -47.2524, -11.9888, 29.3618, 13.6663, 67.2625, -166.557
4.54407, 2, -47.2523, -11.9889, 29.3618, 13.6663, 67.2624, -166.557
4.55082, 2, -47.2522, -11.9888, 29.3618, 13.6663, 67.2625, -166.557
4.56013, 2, -47.2521, -11.9889, 29.3618, 13.6663, 67.2625, -166.557
4.56675, 2, -47.2521, -11.9889, 29.3618, 13.6663, 67.2624, -166.557
4.57632, 2, -47.252, -11.9888, 29.3618, 13.6663, 67.2625, -166.557
4.58429, 2, -47.2519, -11.9888, 29.3618, 13.6663, 67.2625, -166.557
4.59237, 2, -47.2517, -11.9888, 29.3618, 13.6663, 67.2625, -166.557
4.60038, 2, -47.2516, -11.9888, 29.3618, 13.6663, 67.2625, -166.557
4.60837, 2, -47.2515, -11.9887, 29.3618, 13.6663, 67.2625, -166.557
4.61646, 2, -47.2514, -11.9886, 29.3618, 13.6663, 67.2625, -166.557
4.62376, 2, -47.2513, -11.9886, 29.3618, 13.6663, 67.2625, -166.557
4.63175, 2, -47.2513, -11.9886, 29.3618, 13.6663, 67.2625, -166.557
4.6398, 2, -47.2511, -11.9886, 29.3618, 13.6663, 67.2626, -166.557
4.64776, 2, -47.251, -11.9886, 29.3618, 13.6663, 67.2626, -166.557
4.65575, 2, -47.2509, -11.9886, 29.3618, 13.6663, 67.2626, -166.557
4.6638, 2, -47.2508, -11.9886, 29.3618, 13.6663, 67.2625, -166.557
4.67175, 2, -47.2507, -11.9886, 29.3618, 13.6663, 67.2626, -166.557
4.67975, 2, -47.2506, -11.9886, 29.3618, 13.6662, 67.2626, -166.557
4.68788, 2, -47.2505, -11.9886, 29.3618, 13.6662, 67.2627, -166.557
4.69576, 2, -47.2505, -11.9886, 29.3618, 13.6662, 67.2627, -166.557
4.70378, 2, -47.2504, -11.9885, 29.3618, 13.6662, 67.2626, -166.557
4.71181, 2, -47.2504, -11.9884, 29.3618, 13.6662, 67.2626, -166.557
4.71976, 2, -47.2503, -11.9884, 29.3618, 13.6662, 67.2626, -166.557
4.72776, 2, -47.2502, -11.9883, 29.3618, 13.6662, 67.2627, -166.557
4.73582, 2, -47.2501, -11.9883, 29.3618, 13.6661, 67.2627, -166.557
4.74375, 2, -47.25, -11.9883, 29.3618, 13.6661, 67.2627, -166.557
4.75282, 2, -47.2499, -11.9883, 29.3618, 13.6662, 67.2627, -166.557
4.75985, 2, -47.2499, -11.9883, 29.3618, 13.6662, 67.2627, -166.557
4.7688, 2, -47.2498, -11.9883, 29.3618, 13.6662, 67.2627, -166.557
4.77575, 2, -47.2498, -11.9883, 29.3618, 13.6662, 67.2627, -166.557
4.78389, 2, -47.2498, -11.9883, 29.3618, 13.6662, 67.2627, -166.557
4.79176, 2, -47.2497, -11.9882, 29.3618, 13.6661, 67.2627, -166.557
4.79975, 2, -47.2497, -11.9882, 29.3618, 13.6661, 67.2627, -166.557
4.80783, 2, -47.2497, -11.9882, 29.3618, 13.6661, 67.2627, -166.557
4.81576, 2, -47.2496, -11.9881, 29.3618, 13.6661, 67.2627, -166.556
4.82376, 2, -47.2496, -11.988, 29.3618, 13.6661, 67.2628, -166.556
4.83182, 2, -47.2495, -11.988, 29.3618, 13.6661, 67.2628, -166.556
4.83975, 2, -47.2494, -11.9879, 29.3618, 13.6661, 67.2628, -166.556
4.84775, 2, -47.2493, -11.9879, 29.3618, 13.6661, 67.2628, -166.556
4.85581, 2, -47.2492, -11.9879, 29.3618, 13.6661, 67.2628, -166.556
4.86376, 2, -47.2491, -11.9879, 29.3618, 13.666, 67.2628, -166.556
4.87178, 2, -47.2491, -11.9879, 29.3618, 13.666, 67.2629, -166.556
4.87982, 2, -47.249, -11.9879, 29.3618, 13.666, 67.2629, -166.556
4.88776, 2, -47.249, -11.9879, 29.3618, 13.666, 67.2629, -166.556
4.89575, 2, -47.249, -11.9879, 29.3618, 13.666, 67.2629, -166.556
4.90382, 2, -47.249, -11.9879, 29.3618, 13.666, 67.2629, -166.556
4.91175, 2, -47.2489, -11.9878, 29.3618, 13.666, 67.2629, -166.556
4.91975, 2, -47.2489, -11.9877, 29.3618, 13.6659, 67.263, -166.556
4.92786, 2, -47.2488, -11.9877, 29.3618, 13.6659, 67.2629, -166.556
4.93576, 2, -47.2488, -11.9876, 29.3618, 13.6659, 67.263, -166.556
4.94379, 2, -47.2487, -11.9876, 29.3618, 13.6659, 67.263, -166.556
4.95196, 2, -47.2486, -11.9876, 29.3618, 13.6659, 67.263, -166.556
4.95985, 2, -47.2485, -11.9876, 29.3618, 13.6659, 67.263, -166.556
4.96786, 2, -47.2484, -11.9876, 29.3618, 13.6659, 67.263, -166.556
4.97595, 2, -47.2484, -11.9876, 29.3617, 13.6659, 67.263, -166.556
4.98386, 2, -47.2483, -11.9876, 29.3618, 13.6659, 67.263, -166.556
4.99175, 2, -47.2483, -11.9875, 29.3617, 13.6658, 67.263, -166.556
4.99983, 2, -47.2483, -11.9875, 29.3617, 13.6658, 67.263, -166.556
5.00779, 2, -47.2483, -11.9875, 29.3618, 13.6658, 67.2631, -166.556
5.01579, 2, -47.2482, -11.9874, 29.3617, 13.6658, 67.2631, -166.556
5.02416, 2, -47.2482, -11.9874, 29.3617, 13.6658, 67.2631, -166.556
5.03073, 2, -47.2482, -11.9874, 29.3617, 13.6659, 67.2631, -166.556
5.03994, 2, -47.2481, -11.9873, 29.3617, 13.6658, 67.2631, -166.556
5.04673, 2, -47.248, -11.9873, 29.3618, 13.6658, 67.2631, -166.556
5.05687, 2, -47.2479, -11.9872, 29.3618, 13.6658, 67.2631, -166.556
5.06425, 2, -47.2479, -11.9872, 29.3618, 13.6658, 67.2631, -166.556
5.07261, 2, -47.2478, -11.9872, 29.3618, 13.6657, 67.2631, -166.556
5.08025, 2, -47.2478, -11.9872, 29.3618, 13.6657, 67.2631, -166.556
5.08844, 2, -47.2477, -11.9872, 29.3618, 13.6657, 67.2631, -166.556
5.0964, 2, -47.2477, -11.9872, 29.3618, 13.6657, 67.2631, -166.556
5.10432, 2, -47.2476, -11.9872, 29.3618, 13.6656, 67.2631, -166.556
5.11303, 2, -47.2476, -11.9871, 29.3617, 13.6656, 67.2631, -166.556
5.12069, 2, -47.2476, -11.9871, 29.3617, 13.6657, 67.2631, -166.556
5.12775, 2, -47.2475, -11.9871, 29.3617, 13.6656, 67.2631, -166.556
5.1358, 4, -47.2475, -11.987, 29.3617, 13.6656, 67.2631, -166.556
5.14374, 4, -47.2475, -11.987, 29.3617, 13.6656, 67.2631, -166.556
5.15174, 4, -47.2474, -11.987, 29.3617, 13.6656, 67.2631, -166.556
5.15979, 4, -47.2473, -11.9869, 29.3617, 13.6656, 67.2631, -166.556
5.16775, 4, -47.2473, -11.9869, 29.3617, 13.6655, 67.2631, -166.556
5.17573, 4, -47.2472, -11.9869, 29.3617, 13.6655, 67.2631, -166.556
5.1838, 4, -47.2472, -11.9869, 29.3617, 13.6655, 67.2631, -166.556
5.19184, 4, -47.2472, -11.9869, 29.3618, 13.6655, 67.2631, -166.556
5.19973, 4, -47.2471, -11.9869, 29.3618, 13.6655, 67.2631, -166.556
5.2078, 4, -47.2471, -11.9869, 29.3618, 13.6655, 67.2631, -166.556
5.21573, 4, -47.2471, -11.9868, 29.3617, 13.6655, 67.2631, -166.556
5.22374, 4, -47.247, -11.9868, 29.3618, 13.6655, 67.2631, -166.556
5.23178, 4, -47.247, -11.9868, 29.3618, 13.6655, 67.2631, -166.556
5.23989, 4, -47.247, -11.9867, 29.3617, 13.6655, 67.2632, -166.556
5.26286, 4, -47.2468, -11.9866, 29.3617, 13.6654, 67.2631, -166.556
5.2648, 4, -47.2468, -11.9866, 29.3617, 13.6654, 67.2631, -166.556
5.26766, 4, -47.2468, -11.9866, 29.3617, 13.6654, 67.2631, -166.556
5.27486, 4, -47.2468, -11.9866, 29.3617, 13.6654, 67.2631, -166.556
5.28392, 4, -47.2467, -11.9866, 29.3617, 13.6654, 67.2631, -166.556
5.28988, 4, -47.2468, -11.9866, 29.3617, 13.6654, 67.2631, -166.556
5.29712, 4, -47.2472, -11.9868, 29.3619, 13.6655, 67.2632, -166.556
5.30313, 4, -47.2487, -11.9878, 29.3628, 13.666, 67.2634, -166.555
5.3118, 4, -47.2519, -11.9905, 29.3661, 13.6707, 67.2647, -166.555
5.31973, 4, -47.2568, -11.9961, 29.3741, 13.6869, 67.2686, -166.552
5.32789, 4, -47.2639, -12.0046, 29.3894, 13.7194, 67.2771, -166.545
5.33581, 5, -47.2738, -12.0167, 29.4143, 13.7742, 67.292, -166.533
5.34375, 5, -47.2871, -12.0331, 29.4507, 13.8563, 67.3146, -166.514
5.35173, 5, -47.3039, -12.0541, 29.4989, 13.9654, 67.3454, -166.489
5.35986, 5, -47.3241, -12.079, 29.5584, 14.1011, 67.3829, -166.456
5.36773, 5, -47.347, -12.1077, 29.6273, 14.258, 67.4259, -166.419
5.37588, 5, -47.3723, -12.1399, 29.7034, 14.4303, 67.4741, -166.378
5.38276, 5, -47.4, -12.1752, 29.7846, 14.6123, 67.5244, -166.335
5.39173, 5, -47.4296, -12.2127, 29.869, 14.7998, 67.5753, -166.29
5.39973, 5, -47.4602, -12.2515, 29.9555, 14.9901, 67.6281, -166.245
5.4078, 5, -47.4918, -12.2913, 30.0434, 15.1821, 67.6802, -166.2
5.41574, 5, -47.5242, -12.3317, 30.1322, 15.3747, 67.7321, -166.155
5.4239, 5, -47.5571, -12.3724, 30.2216, 15.5678, 67.7848, -166.109
5.43254, 5, -47.5904, -12.4134, 30.3118, 15.7611, 67.8361, -166.064
5.43983, 5, -47.6236, -12.4544, 30.4023, 15.9545, 67.8874, -166.019
5.44777, 5, -47.6569, -12.4955, 30.4934, 16.1479, 67.9393, -165.975
5.45588, 5, -47.6901, -12.5366, 30.5851, 16.3415, 67.9898, -165.93
5.46391, 5, -47.723, -12.5779, 30.6773, 16.535, 68.0405, -165.885
5.47227, 5, -47.7557, -12.6193, 30.7702, 16.7286, 68.0912, -165.842
5.47934, 5, -47.7886, -12.6606, 30.8637, 16.9222, 68.1407, -165.798
5.48784, 5, -47.8217, -12.7023, 30.9577, 17.1159, 68.1904, -165.755
5.49682, 5, -47.8552, -12.7442, 31.0521, 17.3097, 68.24, -165.711
5.50353, 5, -47.8722, -12.7652, 31.0994, 17.5033, 68.2885, -165.668
5.51176, 5, -47.9232, -12.8284, 31.242, 17.6971, 68.3374, -165.625
5.5199, 5, -47.9572, -12.871, 31.3378, 17.8908, 68.3862, -165.583
5.52787, 5, -47.9914, -12.9137, 31.4342, 18.0848, 68.4337, -165.54
5.5359, 5, -48.0257, -12.9567, 31.5312, 18.2786, 68.4816, -165.498
5.54591, 5, -48.0601, -12.9998, 31.6288, 18.4725, 68.5294, -165.456
5.55212, 5, -48.0946, -13.0429, 31.7266, 18.6664, 68.5761, -165.414
5.55872, 5, -48.1119, -13.0645, 31.7757, 18.7634, 68.5995, -165.394
5.56812, 5, -48.164, -13.1296, 31.9237, 19.0545, 68.6703, -165.331
5.57488, 5, -48.1814, -13.1514, 31.9733, 19.1515, 68.6934, -165.311
5.58406, 5, -48.2162, -13.1949, 32.073, 19.3455, 68.7622, -165.25
5.59073, 5, -48.2509, -13.2386, 32.1735, 19.5397, 68.7854, -165.23
5.60077, 5, -48.3028, -13.3044, 32.325, 19.8308, 68.8537, -165.169
5.60925, 5, -48.3202, -13.3264, 32.4264, 20.0249, 68.8987, -165.128
5.61478, 5, -48.3552, -13.3704, 32.4772, 20.1219, 68.9215, -165.108
5.62446, 5, -48.3902, -13.4367, 32.6304, 20.4129, 68.9888, -165.048
5.63171, 5, -48.4255, -13.4589, 32.6819, 20.51, 69.0107, -165.029
5.63881, 5, -48.4609, -13.5035, 32.7852, 20.7043, 69.0549, -164.989
5.64912, 5, -48.5144, -13.5705, 32.9414, 20.9956, 69.1212, -164.929
5.65724, 5, -48.5323, -13.6153, 33.0458, 21.1898, 69.1643, -164.89
5.66281, 5, -48.5679, -13.6378, 33.0981, 21.2869, 69.1859, -164.871
5.67174, 5, -48.6031, -13.6828, 33.2031, 21.4811, 69.2297, -164.832
5.67976, 5, -48.6378, -13.7278, 33.3084, 21.6753, 69.2727, -164.793
5.68772, 5, -48.6714, -13.7724, 33.4142, 21.8688, 69.3149, -164.753
5.69577, 5, -48.7037, -13.8168, 33.5201, 22.0612, 69.3581, -164.711
5.70375, 5, -48.7346, -13.8606, 33.6254, 22.2511, 69.4021, -164.666
5.71172, 5, -48.7637, -13.9035, 33.7293, 22.4376, 69.446, -164.615
5.72217, 6, -48.8027, -13.9657, 33.8812, 22.7074, 69.5153, -164.524
5.72793, 6, -48.8143, -13.9857, 33.9307, 22.794, 69.5393, -164.488
5.73783, 6, -48.8443, -14.0436, 34.0748, 23.0429, 69.6128, -164.364
5.74373, 6, -48.8525, -14.0621, 34.1214, 23.122, 69.6386, -164.317
5.75178, 6, -48.8662, -14.0978, 34.2122, 23.2742, 69.6919, -164.214
5.7614, 6, -48.8763, -14.1317, 34.2998, 23.4188, 69.746, -164.038
5.76775, 6, -48.8831, -14.1638, 34.3842, 23.5566, 69.8026, -163.975
5.77579, 7, -48.8866, -14.1944, 34.4656, 23.6883, 69.8604, -163.84
5.78374, 7, -48.8872, -14.2235, 34.5446, 23.8144, 69.9189, -163.698
5.79184, 7, -48.885, -14.2511, 34.6215, 23.9362, 69.9794, -163.548
5.79985, 7, -48.8802, -14.2776, 34.6964, 24.0538, 70.0403, -163.392
5.8078, 7, -48.8733, -14.3028, 34.7696, 24.1681, 70.1032, -163.23
5.81571, 7, -48.8647, -14.3272, 34.8409, 24.2789, 70.1662, -163.064
5.82389, 7, -48.8547, -14.3507, 34.9107, 24.3872, 70.2301, -162.893
5.83464, 8, -48.837, -14.3841, 35.0128, 24.5455, 70.3274, -162.629
5.83971, 8, -48.8306, -14.395, 35.0462, 24.5974, 70.3603, -162.54
5.84772, 8, -48.8168, -14.4162, 35.1124, 24.7002, 70.427, -162.359
5.85578, 8, -48.8019, -14.4367, 35.1776, 24.8017, 70.4934, -162.175
5.86373, 8, -48.7862, -14.4568, 35.2419, 24.9026, 70.5612, -161.99
5.87353, 8, -48.7697, -14.4764, 35.3055, 25.0029, 70.6287, -161.803
5.87986, 8, -48.7526, -14.4954, 35.3685, 25.1024, 70.6974, -161.615
5.88871, 8, -48.7348, -14.5141, 35.431, 25.2018, 70.7654, -161.426
5.89684, 9, -48.7164, -14.5325, 35.4931, 25.3011, 70.8345, -161.237
5.90576, 9, -48.6976, -14.5505, 35.5547, 25.4003, 70.9032, -161.046
5.91178, 9, -48.6784, -14.5684, 35.6159, 25.4996, 70.9727, -160.856
5.91973, 9, -48.6591, -14.5861, 35.6767, 25.5994, 71.0415, -160.666
5.92772, 9, -48.6394, -14.6035, 35.7372, 25.6992, 71.111, -160.476
5.93582, 9, -48.6195, -14.6206, 35.7975, 25.7997, 71.1804, -160.286
5.94375, 9, -48.5997, -14.6377, 35.8576, 25.9007, 71.2501, -160.096
5.95157, 10, -48.5798, -14.6549, 35.9176, 26.0019, 71.3198, -159.906
5.96027, 10, -48.5598, -14.6717, 35.9773, 26.1038, 71.3893, -159.717
5.96782, 10, -48.5398, -14.6884, 36.0369, 26.2062, 71.4593, -159.528
5.97581, 10, -48.5198, -14.7053, 36.0965, 26.3089, 71.529, -159.34
5.98434, 10, -48.4997, -14.7222, 36.156, 26.4125, 71.5989, -159.152
5.99182, 10, -48.4792, -14.7388, 36.2155, 26.5165, 71.6681, -158.965
5.99999, 10, -48.4586, -14.7553, 36.2749, 26.6211, 71.7379, -158.778
6.00848, 11, -48.4379, -14.7722, 36.3341, 26.7264, 71.807, -158.592
6.01672, 11, -48.4172, -14.7889, 36.3931, 26.8319, 71.8768, -158.407
6.02377, 11, -48.3963, -14.8054, 36.4521, 26.9381, 71.9455, -158.222
6.03182, 11, -48.3755, -14.8221, 36.5109, 27.0448, 72.0149, -158.038
6.04109, 11, -48.3547, -14.839, 36.5697, 27.1517, 72.0836, -157.854
6.04905, 11, -48.3338, -14.8556, 36.6284, 27.259, 72.153, -157.671
6.0569, 11, -48.3127, -14.872, 36.687, 27.367, 72.2215, -157.488
6.06415, 11, -48.2917, -14.8886, 36.7456, 27.4751, 72.2906, -157.305
6.07211, 12, -48.2705, -14.9054, 36.804, 27.5837, 72.359, -157.123
6.07871, 12, -48.2598, -14.9136, 36.8331, 27.6381, 72.3933, -157.032
6.08859, 12, -48.2273, -14.9381, 36.9204, 27.8015, 72.4961, -156.76
6.09628, 12, -48.2055, -14.9548, 36.9784, 27.9108, 72.5644, -156.58
6.10439, 12, -48.1835, -14.9714, 37.0361, 28.0203, 72.6325, -156.4
6.11233, 12, -48.1722, -14.9877, 37.0938, 28.1299, 72.7005, -156.22
6.1203, 12, -48.1495, -14.9958, 37.1225, 28.1848, 72.7348, -156.04
6.12685, 13, -48.1267, -15.0124, 37.1798, 28.2946, 72.8021, -155.95
6.13568, 13, -48.1036, -15.029, 37.2369, 28.4047, 72.8702, -155.771
6.14375, 13, -48.0803, -15.0453, 37.2938, 28.5148, 72.9374, -155.592
6.15171, 13, -48.0566, -15.0617, 37.3505, 28.6249, 73.005, -155.413
6.1597, 13, -48.0329, -15.0782, 37.4071, 28.7351, 73.0722, -155.235
6.16781, 13, -48.0087, -15.0947, 37.4634, 28.845, 73.1392, -155.057
6.17586, 13, -47.9841, -15.1109, 37.5195, 28.9551, 73.2066, -154.878
6.18367, 14, -47.9594, -15.1271, 37.5755, 29.0651, 73.2733, -154.7
6.19176, 14, -47.9344, -15.1435, 37.6311, 29.1751, 73.3406, -154.522
6.1987, 14, -47.9088, -15.1596, 37.6865, 29.2852, 73.4066, -154.345
6.20772, 14, -47.8829, -15.1756, 37.7417, 29.3951, 73.4735, -154.168
6.21575, 14, -47.8566, -15.1917, 37.7966, 29.5049, 73.5394, -153.991
6.22501, 14, -47.8297, -15.2081, 37.8511, 29.6146, 73.6061, -153.814
6.23332, 14, -47.8026, -15.2242, 37.9055, 29.724, 73.6719, -153.549
6.23992, 15, -47.7753, -15.2402, 37.9598, 29.8334, 73.7379, -153.461
6.24777, 15, -47.7477, -15.2563, 38.0137, 29.9427, 73.8037, -153.284
6.25771, 15, -47.7057, -15.2806, 38.0943, 30.1063, 73.9025, -153.02
6.2637, 15, -47.6914, -15.2886, 38.121, 30.1609, 73.9351, -152.932
6.27188, 15, -47.6626, -15.3045, 38.1742, 30.2696, 74.0001, -152.757
6.2821, 15, -47.6187, -15.3289, 38.2537, 30.4326, 74.098, -152.493
6.28769, 15, -47.6039, -15.337, 38.2801, 30.4869, 74.1303, -152.406
6.29918, 15, -47.5589, -15.3609, 38.3589, 30.6491, 74.2278, -152.143
6.30387, 16, -47.5436, -15.3689, 38.385, 30.7031, 74.2597, -152.056
6.31186, 16, -47.5128, -15.3852, 38.4372, 30.8112, 74.3244, -151.882
6.31976, 16, -47.4816, -15.4015, 38.4889, 30.9191, 74.3882, -151.708
6.32769, 16, -47.4501, -15.4175, 38.5406, 31.0269, 74.4521, -151.535
6.3357, 16, -47.4182, -15.4337, 38.592, 31.1345, 74.5158, -151.361
6.34376, 16, -47.3858, -15.4504, 38.6433, 31.2418, 74.5785, -151.189
6.35194, 16, -47.3531, -15.4668, 38.6943, 31.3492, 74.6421, -151.016
6.35984, 17, -47.3203, -15.4832, 38.7452, 31.4562, 74.7042, -150.845
6.36771, 17, -47.2872, -15.4998, 38.796, 31.5632, 74.7673, -150.673
6.37576, 17, -47.2538, -15.5167, 38.8465, 31.67, 74.829, -150.502
6.3837, 17, -47.2198, -15.5335, 38.897, 31.7768, 74.891, -150.331
6.39171, 17, -47.1853, -15.5502, 38.9473, 31.8836, 74.9527, -150.161
6.40012, 17, -47.1506, -15.5673, 38.9974, 31.9901, 75.0137, -149.991
6.40851, 17, -47.1155, -15.5846, 39.0472, 32.0965, 75.0752, -149.822
6.41571, 17, -47.08, -15.6018, 39.097, 32.2028, 75.1352, -149.654
6.42377, 18, -47.044, -15.6191, 39.1465, 32.3088, 75.1956, -149.486
6.4317, 18, -47.0078, -15.6369, 39.1959, 32.4149, 75.2551, -149.318
6.4398, 18, -46.9712, -15.6546, 39.2453, 32.5207, 75.3144, -149.151
6.4478, 18, -46.9342, -15.6725, 39.2945, 32.6265, 75.3736, -148.985
6.45587, 18, -46.8969, -15.6907, 39.3436, 32.7323, 75.4316, -148.819
6.46393, 18, -46.8593, -15.7092, 39.3926, 32.838, 75.4901, -148.654
6.47537, 18, -46.8215, -15.7276, 39.4414, 32.9961, 75.576, -148.407
6.48003, 19, -46.7833, -15.7461, 39.4901, 33.0488, 75.6047, -148.325
6.48781, 19, -46.7447, -15.765, 39.5387, 33.1538, 75.6621, -148.161
6.49576, 19, -46.7056, -15.784, 39.5872, 33.2587, 75.7179, -147.998
6.50387, 19, -46.6663, -15.803, 39.6357, 33.3637, 75.7743, -147.836
6.51173, 19, -46.6265, -15.8225, 39.6839, 33.4684, 75.8299, -147.674
6.51973, 19, -46.5862, -15.8422, 39.732, 33.573, 75.8847, -147.513
6.52815, 19, -46.5456, -15.8619, 39.7801, 33.6774, 75.9399, -147.353
6.53615, 20, -46.5047, -15.882, 39.8278, 33.7817, 75.9938, -147.193
6.54274, 20, -46.4841, -15.8921, 39.8517, 33.8337, 76.0205, -147.114
6.552, 20, -46.4216, -15.9228, 39.9233, 33.9897, 76.1012, -146.876
6.55997, 20, -46.3795, -15.9437, 39.9708, 34.0933, 76.1536, -146.718
6.56673, 20, -46.3584, -15.9542, 39.9946, 34.145, 76.1799, -146.639
6.57651, 20, -46.2945, -15.9858, 40.0654, 34.3, 76.2586, -146.404
6.58652, 20, -46.2513, -16.0072, 40.1127, 34.4031, 76.3094, -146.248
6.59263, 21, -46.2079, -16.0287, 40.1597, 34.5061, 76.361, -146.092
6.60024, 21, -46.164, -16.0505, 40.2066, 34.6086, 76.4114, -145.937
6.60838, 21, -46.1195, -16.0725, 40.2534, 34.7112, 76.4612, -145.782
6.61626, 21, -46.0971, -16.0836, 40.3, 34.8134, 76.5115, -145.629
6.6243, 21, -46.0521, -16.1058, 40.3232, 34.8643, 76.5606, -145.475
6.63243, 21, -46.0068, -16.1284, 40.3695, 35.0169, 76.6089, -145.323
6.63969, 21, -45.9608, -16.151, 40.4157, 35.0676, 76.6334, -145.247
6.65012, 21, -45.8912, -16.1855, 40.4845, 35.2192, 76.7058, -145.019
6.65589, 22, -45.8678, -16.1971, 40.5073, 35.2698, 76.7294, -144.943
6.6637, 22, -45.8207, -16.2203, 40.5528, 35.3706, 76.777, -144.792
6.67168, 22, -45.7731, -16.2438, 40.5982, 35.4709, 76.8244, -144.642
6.67973, 22, -45.7251, -16.2675, 40.6434, 35.571, 76.8703, -144.492
6.68768, 22, -45.6766, -16.2912, 40.6883, 35.6707, 76.9161, -144.342
6.69568, 22, -45.6276, -16.3153, 40.733, 35.7699, 76.9622, -144.193
6.70917, 22, -45.5534, -16.3514, 40.7997, 35.9182, 77.0516, -143.896
6.71172, 23, -45.5284, -16.3635, 40.8217, 35.9674, 77.0516, -143.896
6.71969, 23, -45.478, -16.388, 40.8657, 36.0656, 77.0967, -143.747
6.72772, 23, -45.4272, -16.4124, 40.9094, 36.1635, 77.1405, -143.6
6.73573, 23, -45.376, -16.4371, 40.9529, 36.261, 77.1835, -143.452
6.74369, 23, -45.3241, -16.4619, 40.9961, 36.358, 77.227, -143.305
6.75109, 23, -45.2717, -16.4867, 41.0389, 36.4545, 77.27, -143.158
6.7605, 23, -45.2189, -16.5118, 41.0815, 36.5507, 77.3119, -143.012
6.76792, 24, -45.1655, -16.5369, 41.1237, 36.6462, 77.354, -142.866
6.77571, 24, -45.1117, -16.5621, 41.1655, 36.7413, 77.3964, -142.72
6.78369, 24, -45.0574, -16.5874, 41.2071, 36.8361, 77.4377, -142.575
6.79168, 24, -45.0026, -16.6128, 41.2483, 36.93, 77.4784, -142.429
6.79981, 24, -44.9474, -16.6382, 41.2892, 37.0239, 77.5194, -142.284
6.80768, 24, -44.8917, -16.6637, 41.3298, 37.1171, 77.5601, -142.14
6.81568, 24, -44.8354, -16.6893, 41.3699, 37.2096, 77.5997, -141.995
6.82626, 24, -44.7786, -16.7275, 41.4296, 37.3477, 77.6594, -141.779
6.83183, 25, -44.7211, -16.7404, 41.4493, 37.3934, 77.6793, -141.707
6.84008, 25, -44.6631, -16.766, 41.4882, 37.4843, 77.7184, -141.562
6.84768, 25, -44.6046, -16.7916, 41.5269, 37.5746, 77.7565, -141.418
6.85568, 25, -44.5455, -16.8173, 41.5652, 37.6645, 77.795, -141.274
6.86377, 25, -44.4859, -16.8429, 41.603, 37.7537, 77.8336, -141.131
6.87168, 25, -44.4259, -16.8686, 41.6404, 37.8425, 77.8711, -140.987
6.87982, 25, -44.3651, -16.8942, 41.6773, 37.9307, 77.9082, -140.844
6.88752, 26, -44.3039, -16.9197, 41.7137, 38.0183, 77.9457, -140.701
6.8957, 26, -44.2421, -16.9453, 41.7498, 38.1051, 77.9832, -140.558
6.9037, 26, -44.1797, -16.9707, 41.7854, 38.1915, 78.0194, -140.414
6.91175, 26, -44.117, -16.9962, 41.8204, 38.2774, 78.0551, -140.271
6.92074, 26, -44.0536, -17.0215, 41.855, 38.3623, 78.0913, -140.128
6.92783, 26, -43.9897, -17.0469, 41.8892, 38.4468, 78.1274, -139.985
6.93598, 26, -43.9252, -17.0723, 41.9229, 38.5306, 78.1626, -139.843
6.94401, 27, -43.8602, -17.0973, 41.9562, 38.6138, 78.1973, -139.7
6.95172, 27, -43.7945, -17.1224, 41.9889, 38.6965, 78.2324, -139.558
6.95976, 27, -43.7283, -17.1473, 42.0211, 38.7786, 78.2677, -139.415
6.96789, 27, -43.6617, -17.1723, 42.0528, 38.8601, 78.302, -139.272
6.97583, 27, -43.5943, -17.1972, 42.0841, 38.9409, 78.3357, -139.13
6.98379, 27, -43.5265, -17.2218, 42.1148, 39.021, 78.3693, -138.987
6.99185, 27, -43.4581, -17.2465, 42.145, 39.1005, 78.4035, -138.845
7.00106, 27, -43.3891, -17.2709, 42.1748, 39.1793, 78.437, -138.702
7.0097, 28, -43.3195, -17.2953, 42.2041, 39.2574, 78.4698, -138.56
7.01666, 28, -43.2494, -17.3196, 42.2327, 39.335, 78.5025, -138.418
7.02372, 28, -43.1789, -17.3435, 42.2609, 39.412, 78.5356, -138.276
7.03177, 28, -43.1077, -17.3675, 42.2886, 39.488, 78.5686, -138.134
7.0399, 28, -43.036, -17.3913, 42.3159, 39.5638, 78.6006, -137.992
7.04787, 28, -42.9637, -17.4149, 42.3424, 39.6386, 78.6323, -137.85
7.05652, 28, -42.8909, -17.4386, 42.3684, 39.7134, 78.664, -137.707
7.06402, 29, -42.8175, -17.4619, 42.3939, 39.7868, 78.6961, -137.565
7.07067, 29, -42.7806, -17.4735, 42.4065, 39.8235, 78.7119, -137.494
7.08015, 29, -42.669, -17.5081, 42.4434, 39.9324, 78.7583, -137.281
7.08666, 29, -42.6315, -17.5195, 42.4554, 39.9685, 78.7736, -137.21
7.09718, 29, -42.5184, -17.5539, 42.4906, 40.0751, 78.8198, -136.997
7.10287, 29, -42.4804, -17.5652, 42.5021, 40.1104, 78.8354, -136.926
7.11228, 29, -42.3655, -17.5987, 42.5358, 40.2154, 78.8811, -136.713
7.12027, 30, -42.327, -17.6099, 42.5574, 40.2849, 78.9108, -136.571
7.1293, 30, -42.2496, -17.6319, 42.5681, 40.3192, 78.9256, -136.5
7.13637, 30, -42.1716, -17.6537, 42.5891, 40.387, 78.9703, -136.288
7.14373, 30, -42.0931, -17.6756, 42.6095, 40.455, 78.9853, -136.217
7.15167, 30, -42.0141, -17.6971, 42.6295, 40.5216, 79.0148, -136.075
7.15971, 30, -41.9346, -17.7183, 42.6489, 40.5884, 79.0438, -135.933
7.16767, 30, -41.8546, -17.7397, 42.6675, 40.6536, 79.0725, -135.792
7.17705, 30, -41.7337, -17.7709, 42.6948, 40.7512, 79.116, -135.579
7.18381, 31, -41.6931, -17.7813, 42.7036, 40.7831, 79.1306, -135.508
7.19168, 31, -41.6116, -17.802, 42.7205, 40.8472, 79.1593, -135.367
7.1998, 31, -41.5295, -17.8222, 42.7371, 40.9102, 79.1873, -135.226
7.20767, 31, -41.4468, -17.8423, 42.7535, 40.9726, 79.2149, -135.084
7.21566, 31, -41.3637, -17.8623, 42.7691, 41.0348, 79.2426, -134.943
7.22719, 31, -41.2381, -17.8916, 42.7913, 41.1262, 79.2846, -134.73
7.2318, 31, -41.1961, -17.9014, 42.7985, 41.1568, 79.2984, -134.66
7.23964, 32, -41.1116, -17.9208, 42.8125, 41.2162, 79.3256, -134.518
7.24773, 32, -41.0266, -17.9399, 42.8257, 41.2761, 79.3524, -134.377
7.25567, 32, -40.9412, -17.9587, 42.8383, 41.3349, 79.3791, -134.236
7.26466, 32, -40.8552, -17.9774, 42.8506, 41.3931, 79.4061, -134.095
7.27173, 32, -40.7689, -17.9959, 42.8625, 41.4513, 79.4332, -133.954
7.27994, 32, -40.682, -18.0141, 42.8738, 41.5077, 79.4596, -133.813
7.28763, 32, -40.5946, -18.0321, 42.8844, 41.5647, 79.4855, -133.672
7.29564, 33, -40.5068, -18.0501, 42.8945, 41.6205, 79.5111, -133.532
7.3038, 33, -40.4183, -18.0677, 42.9042, 41.6756, 79.5367, -133.391
7.31168, 33, -40.3295, -18.0849, 42.9133, 41.7309, 79.5626, -133.25
7.31967, 33, -40.2403, -18.102, 42.9219, 41.7846, 79.5882, -133.11
7.32773, 33, -40.1507, -18.1191, 42.93, 41.8381, 79.6132, -132.97
7.33566, 33, -40.0605, -18.1357, 42.9375, 41.8915, 79.6379, -132.829
7.34366, 33, -39.9699, -18.152, 42.9444, 41.9432, 79.6624, -132.689
7.35202, 33, -39.8788, -18.1684, 42.9508, 41.9953, 79.6872, -132.549
7.36021, 34, -39.7873, -18.1845, 42.9568, 42.0466, 79.7121, -132.408
7.37036, 34, -39.649, -18.2078, 42.9648, 42.1218, 79.7488, -132.198
7.37578, 34, -39.6027, -18.2155, 42.9672, 42.1472, 79.7608, -132.128
7.38367, 34, -39.5097, -18.231, 42.9717, 42.1967, 79.7844, -131.989
7.39168, 34, -39.4163, -18.2461, 42.9756, 42.2453, 79.8078, -131.849
7.40303, 34, -39.2755, -18.2679, 42.9805, 42.3184, 79.8433, -131.64
7.40787, 34, -39.2284, -18.2751, 42.9818, 42.342, 79.8552, -131.57
7.41566, 35, -39.1337, -18.2897, 42.9841, 42.3888, 79.8788, -131.43
7.42384, 35, -39.0384, -18.3038, 42.9859, 42.436, 79.9019, -131.291
7.43168, 35, -38.9428, -18.3174, 42.9873, 42.4819, 79.9246, -131.152
7.43967, 35, -38.8468, -18.3308, 42.988, 42.5269, 79.9471, -131.013
7.44803, 35, -38.7504, -18.3442, 42.9884, 42.5724, 79.9697, -130.874
7.45595, 35, -38.6536, -18.3574, 42.9885, 42.6169, 79.9926, -130.735
7.4638, 35, -38.5563, -18.3702, 42.9884, 42.6602, 80.0154, -130.596
7.47181, 36, -38.4587, -18.3825, 42.9878, 42.7036, 80.0378, -130.457
7.48028, 36, -38.3607, -18.3948, 42.9868, 42.7467, 80.0596, -130.318
7.48777, 36, -38.2623, -18.4069, 42.9853, 42.7884, 80.0811, -130.18
7.49576, 36, -38.1633, -18.4188, 42.9832, 42.8298, 80.1025, -130.041
7.50457, 36, -38.064, -18.4303, 42.9805, 42.8714, 80.1241, -129.903
7.51167, 36, -37.9642, -18.4413, 42.9772, 42.9118, 80.146, -129.765
7.51969, 36, -37.8641, -18.4521, 42.9734, 42.9511, 80.1676, -129.627
7.52805, 36, -37.7635, -18.4627, 42.9691, 42.9907, 80.1888, -129.489
7.53613, 37, -37.6626, -18.4732, 42.9642, 43.0301, 80.2096, -129.351
7.54386, 37, -37.5615, -18.4836, 42.9586, 43.0681, 80.2301, -129.213
7.55187, 37, -37.4599, -18.4934, 42.9524, 43.1054, 80.2506, -129.076
7.55999, 37, -37.3579, -18.5029, 42.9456, 43.1431, 80.2712, -128.939
7.56806, 37, -37.2556, -18.5121, 42.9383, 43.1801, 80.2919, -128.801
7.5781, 37, -37.1528, -18.5212, 42.9307, 43.216, 80.3125, -128.664
7.58457, 37, -37.0495, -18.5301, 42.9224, 43.2511, 80.3325, -128.527
7.59221, 38, -36.9459, -18.5388, 42.9136, 43.2864, 80.3521, -128.391
7.60024, 38, -36.8418, -18.5473, 42.9044, 43.3212, 80.3714, -128.254
7.60823, 38, -36.7372, -18.5553, 42.8944, 43.3548, 80.3905, -128.117
7.61624, 38, -36.6322, -18.5628, 42.8841, 43.3877, 80.4098, -127.98
7.6243, 38, -36.5795, -18.57, 42.8734, 43.4207, 80.4292, -127.844
7.63252, 38, -36.4213, -18.5771, 42.862, 43.4536, 80.4487, -127.707
7.63969, 38, -36.3684, -18.5806, 42.8561, 43.4695, 80.4583, -127.639
7.64763, 39, -36.2622, -18.5872, 42.8439, 43.5006, 80.4772, -127.503
7.6557, 39, -36.1558, -18.5937, 42.8311, 43.5309, 80.4958, -127.368
7.66365, 39, -36.0489, -18.6, 42.8179, 43.5612, 80.5141, -127.232
7.67165, 39, -35.9416, -18.6061, 42.8042, 43.5915, 80.5324, -127.097
7.67965, 39, -35.8338, -18.6118, 42.79, 43.6208, 80.5507, -126.961
7.68771, 39, -35.7257, -18.6171, 42.7754, 43.6492, 80.5693, -126.826
7.69565, 39, -35.6172, -18.6221, 42.7605, 43.6771, 80.5879, -126.69
7.704, 40, -35.5084, -18.6267, 42.7448, 43.7048, 80.6063, -126.556
7.71573, 40, -35.3446, -18.6333, 42.7202, 43.746, 80.6331, -126.353
7.71966, 40, -35.2898, -18.6354, 42.7119, 43.7592, 80.6418, -126.286
7.72766, 40, -35.1799, -18.6393, 42.6948, 43.7851, 80.6591, -126.152
7.73565, 40, -35.0697, -18.6429, 42.6771, 43.8102, 80.6761, -126.017
7.74263, 40, -34.9591, -18.6462, 42.6592, 43.8349, 80.6933, -125.883
7.75254, 40, -34.8481, -18.6493, 42.6408, 43.8597, 80.7104, -125.748
7.75964, 40, -34.7368, -18.6521, 42.6217, 43.8841, 80.7278, -125.614
7.76772, 41, -34.6254, -18.6547, 42.6022, 43.9077, 80.745, -125.48
7.77789, 41, -34.4577, -18.6583, 42.5722, 43.9415, 80.7701, -125.28
7.7839, 41, -34.4016, -18.6593, 42.5619, 43.9525, 80.7783, -125.214
7.79171, 41, -34.289, -18.6614, 42.5411, 43.9741, 80.7946, -125.081
7.79964, 41, -34.1762, -18.6632, 42.5199, 43.9955, 80.8106, -124.947
7.8077, 41, -34.063, -18.6647, 42.498, 44.0167, 80.8266, -124.814
7.81564, 41, -33.9493, -18.666, 42.4758, 44.0374, 80.8426, -124.681
7.82373, 42, -33.8353, -18.667, 42.4532, 44.0572, 80.8587, -124.549
7.83166, 42, -33.7209, -18.6677, 42.4301, 44.0762, 80.875, -124.416
7.83971, 42, -33.6062, -18.6681, 42.4066, 44.0946, 80.8911, -124.284
7.84764, 42, -33.4911, -18.6683, 42.3826, 44.1124, 80.907, -124.152
7.8558, 42, -33.3757, -18.6684, 42.3582, 44.1299, 80.9224, -124.021
7.8637, 42, -33.2601, -18.6684, 42.3334, 44.1472, 80.9375, -123.889
7.87164, 42, -33.144, -18.6682, 42.3082, 44.1642, 80.9523, -123.757
7.8797, 43, -33.0276, -18.6679, 42.2824, 44.1806, 80.967, -123.625
7.88764, 43, -32.9107, -18.6674, 42.2563, 44.1963, 80.9817, -123.494
7.89565, 43, -32.7936, -18.6666, 42.2298, 44.2112, 80.9964, -123.363
7.90382, 43, -32.6763, -18.6655, 42.2028, 44.2254, 81.0112, -123.232
7.91186, 43, -32.5587, -18.6642, 42.1752, 44.2389, 81.026, -123.102
7.92164, 43, -32.4407, -18.6626, 42.1472, 44.2519, 81.0406, -122.972
7.92842, 43, -32.3225, -18.6606, 42.1189, 44.2645, 81.0549, -122.841
7.93564, 43, -32.2039, -18.6582, 42.0902, 44.2768, 81.0689, -122.711
7.94366, 44, -32.0848, -18.6554, 42.0609, 44.2887, 81.0825, -122.581
7.95341, 44, -31.9653, -18.6523, 42.0313, 44.3003, 81.0961, -122.452
7.95986, 44, -31.8455, -18.6488, 42.0012, 44.3115, 81.1095, -122.322
7.9678, 44, -31.7256, -18.6449, 41.9708, 44.322, 81.1228, -122.193
7.9758, 44, -31.6053, -18.6408, 41.9398, 44.332, 81.1361, -122.064
7.98382, 44, -31.485, -18.6364, 41.9086, 44.341, 81.1495, -121.935
7.99175, 44, -31.3644, -18.6317, 41.8768, 44.3495, 81.163, -121.806
7.99975, 45, -31.2433, -18.6267, 41.8446, 44.3573, 81.1765, -121.677
8.00829, 45, -31.1218, -18.6215, 41.8119, 44.3644, 81.1898, -121.548
8.01564, 45, -30.9998, -18.6162, 41.7788, 44.3709, 81.2027, -121.42
8.02386, 45, -30.8777, -18.6106, 41.7453, 44.3769, 81.2153, -121.292
8.03255, 45, -30.7553, -18.6047, 41.7114, 44.3822, 81.2276, -121.164
8.03975, 45, -30.6325, -18.5983, 41.6771, 44.387, 81.2397, -121.036
8.04789, 45, -30.5093, -18.5916, 41.6424, 44.3912, 81.2517, -120.908
8.05697, 46, -30.3858, -18.5846, 41.6072, 44.395, 81.2636, -120.781
8.06476, 46, -30.2618, -18.5772, 41.5716, 44.3982, 81.2756, -120.654
8.07226, 46, -30.1374, -18.5695, 41.5356, 44.4007, 81.2876, -120.527
8.08054, 46, -30.0127, -18.5616, 41.499, 44.4028, 81.2997, -120.4
8.08881, 46, -29.8877, -18.5534, 41.4622, 44.4043, 81.3119, -120.273
8.09632, 46, -29.7625, -18.5451, 41.4249, 44.4053, 81.324, -120.147
8.10418, 46, -29.6369, -18.5362, 41.387, 44.4058, 81.3359, -120.02
8.11296, 46, -29.5112, -18.5269, 41.3487, 44.4061, 81.3477, -119.894
8.12046, 47, -29.3851, -18.5174, 41.3101, 44.4061, 81.3592, -119.768
8.12971, 47, -29.2586, -18.5076, 41.2709, 44.4058, 81.3704, -119.642
8.13775, 47, -29.1316, -18.4976, 41.2313, 44.4051, 81.3816, -119.516
8.14443, 47, -29.068, -18.4924, 41.2114, 44.4044, 81.3871, -119.39
8.15163, 47, -28.9405, -18.482, 41.171, 44.4023, 81.398, -119.327
8.15964, 47, -28.8128, -18.471, 41.1303, 44.3997, 81.409, -119.202
8.16778, 47, -28.6846, -18.4595, 41.0892, 44.3962, 81.4201, -119.076
8.17559, 48, -28.5564, -18.4478, 41.0475, 44.3919, 81.4312, -118.951
8.18363, 48, -28.4278, -18.4358, 41.0055, 44.387, 81.4424, -118.825
8.19163, 48, -28.2988, -18.4236, 40.963, 44.3814, 81.4538, -118.7
8.19969, 48, -28.1694, -18.4109, 40.92, 44.3752, 81.4653, -118.576
8.20778, 48, -28.0398, -18.3978, 40.8766, 44.3682, 81.4767, -118.451
8.21568, 48, -27.91, -18.3844, 40.8326, 44.3606, 81.4879, -118.326
8.22363, 48, -27.7797, -18.3707, 40.7882, 44.3522, 81.4989, -118.202
8.23162, 49, -27.649, -18.3568, 40.7433, 44.343, 81.5097, -118.077
8.23863, 49, -27.5179, -18.3423, 40.6978, 44.3329, 81.5204, -117.953
8.24763, 49, -27.3863, -18.3273, 40.6519, 44.322, 81.531, -117.828
8.25578, 49, -27.2541, -18.3122, 40.6056, 44.3101, 81.5416, -117.704
8.26444, 49, -27.1217, -18.2969, 40.5587, 44.2973, 81.5522, -117.58
8.27162, 49, -26.9891, -18.2809, 40.5113, 44.2837, 81.5629, -117.456
8.27963, 49, -26.8561, -18.2644, 40.4634, 44.2695, 81.5737, -117.332
8.28773, 49, -26.7227, -18.2476, 40.4151, 44.255, 81.5848, -117.208
8.29857, 50, -26.5221, -18.222, 40.3416, 44.2321, 81.6018, -117.021
8.30674, 50, -26.3879, -18.2042, 40.2921, 44.2161, 81.6133, -116.898
8.31192, 50, -26.3207, -18.1953, 40.2671, 44.2078, 81.619, -116.836
8.32261, 50, -26.1185, -18.1679, 40.1915, 44.1815, 81.636, -116.65
8.32763, 50, -26.0509, -18.1585, 40.166, 44.1723, 81.6416, -116.588
8.3357, 50, -25.9155, -18.1392, 40.1146, 44.153, 81.6528, -116.464
8.34362, 50, -25.7796, -18.1197, 40.0628, 44.1331, 81.6639, -116.341
8.35174, 51, -25.6435, -18.0996, 40.0103, 44.1128, 81.6751, -116.217
8.35964, 51, -25.5069, -18.0791, 39.9575, 44.092, 81.6864, -116.094
8.36769, 51, -25.3699, -18.0582, 39.904, 44.0707, 81.6977, -115.97
8.37562, 51, -25.2327, -18.0369, 39.85, 44.0485, 81.7093, -115.846
8.38385, 51, -25.095, -18.0151, 39.7955, 44.0249, 81.721, -115.723
8.39155, 51, -24.9571, -17.993, 39.7406, 44.0005, 81.7331, -115.6
8.39962, 51, -24.8189, -17.9705, 39.6851, 43.9755, 81.7454, -115.476
8.4077, 52, -24.6804, -17.9475, 39.6291, 43.95, 81.7579, -115.353
8.41564, 52, -24.5414, -17.9241, 39.5727, 43.924, 81.7705, -115.23
8.42363, 52, -24.4019, -17.9, 39.5157, 43.897, 81.783, -115.106
8.43268, 52, -24.2619, -17.8757, 39.4581, 43.8686, 81.7953, -114.983
8.44143, 52, -24.1214, -17.8508, 39.4001, 43.8397, 81.8075, -114.859
8.44763, 52, -23.9805, -17.8254, 39.3415, 43.8105, 81.8198, -114.736
8.45576, 52, -23.8392, -17.7999, 39.2824, 43.7807, 81.8321, -114.612
8.46371, 52, -23.6976, -17.7736, 39.2227, 43.7499, 81.8445, -114.489
8.47172, 53, -23.5554, -17.747, 39.1624, 43.7175, 81.8571, -114.366
8.48384, 53, -23.3417, -17.7062, 39.0711, 43.6684, 81.8768, -114.181
8.48796, 53, -23.2703, -17.6925, 39.0404, 43.6518, 81.8835, -114.12
8.49584, 53, -23.1273, -17.6646, 38.9787, 43.618, 81.8972, -113.997
8.50381, 53, -22.9839, -17.6362, 38.9165, 43.5826, 81.9109, -113.874
8.51163, 53, -22.8402, -17.6074, 38.8537, 43.5465, 81.9246, -113.751
8.51964, 53, -22.6962, -17.5782, 38.7904, 43.5105, 81.9382, -113.627
8.52785, 54, -22.5517, -17.5486, 38.7266, 43.4735, 81.9519, -113.504
8.53655, 54, -22.4068, -17.5183, 38.6622, 43.4349, 81.9656, -113.381
8.5437, 54, -22.2615, -17.4876, 38.5973, 43.3956, 81.9793, -113.258
8.55193, 54, -22.1157, -17.4566, 38.5319, 43.3563, 81.9934, -113.135
8.56083, 54, -21.9695, -17.4251, 38.466, 43.3156, 82.0076, -113.012
8.56886, 54, -21.8231, -17.3932, 38.3996, 43.2735, 82.0222, -112.889
8.57603, 54, -21.6761, -17.3607, 38.3328, 43.2315, 82.0373, -112.766
8.58259, 55, -21.6024, -17.3443, 38.2992, 43.2104, 82.045, -112.704
8.59293, 55, -21.3808, -17.2946, 38.1975, 43.1442, 82.0679, -112.519
8.6002, 55, -21.2327, -17.2608, 38.1292, 43.0994, 82.0829, -112.396
8.60984, 55, -21.0841, -17.2267, 38.0604, 43.0542, 82.0979, -112.273
8.61797, 55, -20.9352, -17.1922, 37.991, 43.007, 82.1129, -112.15
8.62426, 55, -20.7858, -17.1571, 37.921, 42.9594, 82.128, -112.027
8.63215, 55, -20.7109, -17.1394, 37.8858, 42.9357, 82.1434, -111.904
8.63962, 55, -20.5608, -17.1037, 37.8151, 42.8871, 82.1512, -111.843
8.64841, 56, -20.4101, -17.0678, 37.7082, 42.8118, 82.1751, -111.659
8.65562, 56, -20.259, -17.0314, 37.6724, 42.7868, 82.1833, -111.597
8.66374, 56, -20.1074, -16.9945, 37.6005, 42.7354, 82.1997, -111.474
8.67165, 56, -19.9555, -16.9572, 37.5279, 42.6828, 82.216, -111.351
8.67962, 56, -19.8031, -16.9196, 37.455, 42.6305, 82.2322, -111.229
8.68768, 56, -19.6505, -16.8815, 37.3815, 42.5763, 82.2484, -111.106
8.69567, 56, -19.4977, -16.843, 37.3075, 42.5214, 82.2646, -110.983
8.70365, 57, -19.3447, -16.8042, 37.2331, 42.466, 82.281, -110.861
8.71305, 57, -19.1141, -16.7451, 37.1204, 42.3803, 82.3063, -110.677
8.72101, 57, -19.0371, -16.7253, 37.0827, 42.3519, 82.3237, -110.554
8.72667, 57, -18.8826, -16.6853, 37.0069, 42.2932, 82.3325, -110.493
8.73568, 57, -18.7277, -16.6449, 36.9308, 42.2337, 82.3502, -110.37
8.74361, 57, -18.5723, -16.6041, 36.8541, 42.1738, 82.3677, -110.247
8.75161, 57, -18.4163, -16.5629, 36.777, 42.1122, 82.3851, -110.125
8.76219, 58, -18.1812, -16.5003, 36.6604, 42.019, 82.4111, -109.941
8.76774, 58, -18.1027, -16.4793, 36.6213, 41.987, 82.4199, -109.88
8.77665, 58, -17.9451, -16.4369, 36.5427, 41.9234, 82.4376, -109.758
8.78361, 58, -17.787, -16.3941, 36.4636, 41.8583, 82.4556, -109.636
8.79181, 58, -17.6287, -16.3509, 36.3842, 41.7927, 82.4741, -109.514
8.80187, 58, -17.3903, -16.2856, 36.2645, 41.6922, 82.5022, -109.33
8.80773, 58, -17.3106, -16.2637, 36.2244, 41.6583, 82.5115, -109.269
8.81589, 59, -17.1509, -16.2196, 36.1438, 41.5901, 82.5299, -109.147
8.82362, 59, -16.9909, -16.1751, 36.0627, 41.5202, 82.5485, -109.025
8.83161, 59, -16.8303, -16.1302, 35.981, 41.4501, 82.5672, -108.903
8.83976, 59, -16.6693, -16.085, 35.899, 41.3783, 82.5862, -108.78
8.84766, 59, -16.5079, -16.0393, 35.8165, 41.306, 82.6057, -108.658
8.85561, 59, -16.346, -15.9932, 35.7337, 41.2322, 82.6256, -108.536
8.86363, 59, -16.1837, -15.9469, 35.6505, 41.1583, 82.6455, -108.414
8.87167, 59, -16.0209, -15.9001, 35.5671, 41.0826, 82.6652, -108.292
8.87961, 60, -15.8578, -15.8529, 35.4831, 41.0062, 82.6849, -108.17
8.89104, 60, -15.6123, -15.7813, 35.3562, 40.8901, 82.7144, -107.987
8.89623, 60, -15.5301, -15.7571, 35.3137, 40.8507, 82.7243, -107.925
8.90458, 60, -15.3651, -15.7087, 35.2283, 40.7714, 82.7446, -107.803
8.91168, 60, -15.1997, -15.6598, 35.1424, 40.691, 82.7655, -107.681
8.91961, 60, -15.0338, -15.6105, 35.0562, 40.6099, 82.7864, -107.56
8.92766, 60, -14.8675, -15.561, 34.9697, 40.5273, 82.8073, -107.438
8.93569, 61, -14.7007, -15.5109, 34.8828, 40.4439, 82.8282, -107.316
8.94392, 61, -14.5334, -15.4606, 34.7955, 40.3594, 82.8491, -107.193
8.9516, 61, -14.3654, -15.4099, 34.7077, 40.2739, 82.8703, -107.071
8.95968, 61, -14.1968, -15.3587, 34.6194, 40.1874, 82.8921, -106.949
8.96809, 61, -14.0275, -15.3073, 34.5305, 40.0998, 82.9144, -106.827
8.97648, 61, -13.8578, -15.2553, 34.4414, 40.0115, 82.9368, -106.705
8.98384, 61, -13.6876, -15.203, 34.3519, 39.9219, 82.959, -106.582
8.99245, 62, -13.5171, -15.1502, 34.2622, 39.8312, 82.9812, -106.46
8.99971, 62, -13.3463, -15.097, 34.172, 39.7395, 83.0035, -106.338
9.00783, 62, -13.1751, -15.0434, 34.0813, 39.6465, 83.0262, -106.215
9.01766, 62, -13.0037, -14.9894, 33.9902, 39.5524, 83.0496, -106.093
9.02392, 62, -12.8317, -14.9349, 33.8985, 39.4575, 83.0733, -105.97
9.03171, 62, -12.6589, -14.88, 33.8063, 39.3612, 83.097, -105.847
9.03982, 62, -12.4854, -14.8248, 33.7139, 39.264, 83.1207, -105.725
9.04782, 62, -12.3111, -14.7691, 33.6212, 39.1658, 83.1445, -105.602
9.05588, 63, -12.1361, -14.713, 33.528, 39.0663, 83.1689, -105.479
9.06393, 63, -11.9608, -14.6565, 33.4344, 38.9657, 83.194, -105.357
9.07211, 63, -11.7849, -14.5997, 33.3404, 38.864, 83.2196, -105.234
9.08006, 63, -11.6083, -14.5423, 33.2457, 38.7612, 83.2451, -105.111
9.08659, 63, -11.5198, -14.5135, 33.1982, 38.7093, 83.2578, -105.05
9.0961, 63, -11.2533, -14.4262, 33.0552, 38.552, 83.2962, -104.865
9.10419, 63, -11.0749, -14.3674, 32.9595, 38.4457, 83.3224, -104.742
9.11222, 64, -10.896, -14.3082, 32.8635, 38.3385, 83.3495, -104.618
9.12102, 64, -10.7164, -14.2483, 32.767, 38.2299, 83.3768, -104.494
9.12823, 64, -10.5364, -14.1878, 32.6699, 38.1202, 83.404, -104.37
9.13642, 64, -10.4462, -14.1574, 32.6212, 38.0094, 83.4314, -104.247
9.14499, 64, -10.2656, -14.0962, 32.4744, 37.8973, 83.4591, -104.123
9.15312, 64, -10.0848, -14.0346, 32.3761, 37.784, 83.488, -103.999
9.15859, 64, -9.9036, -13.9724, 32.3269, 37.7269, 83.5026, -103.937
9.16947, 65, -9.7218, -13.9099, 32.2282, 37.6118, 83.5317, -103.75
9.17566, 65, -9.53913, -13.847, 32.1291, 37.4957, 83.5609, -103.688
9.1836, 65, -9.35551, -13.7834, 32.0295, 37.3785, 83.5903, -103.563
9.19414, 65, -9.07858, -13.6873, 31.8789, 37.2005, 83.6362, -103.376
9.19982, 65, -8.98595, -13.655, 31.8285, 37.1406, 83.6518, -103.313
9.20763, 65, -8.8003, -13.5899, 31.7276, 37.0196, 83.683, -103.188
9.21559, 65, -8.61413, -13.5244, 31.6264, 36.8976, 83.7143, -103.063
9.22364, 65, -8.42755, -13.4583, 31.525, 36.7746, 83.7461, -102.938
9.23168, 66, -8.24041, -13.3915, 31.4232, 36.6502, 83.779, -102.813
9.2396, 66, -8.05241, -13.3242, 31.3208, 36.5249, 83.8123, -102.687
9.25144, 66, -7.7689, -13.2221, 31.1663, 36.3345, 83.862, -102.498
9.25454, 66, -7.67402, -13.1879, 31.1145, 36.2705, 83.8787, -102.435
9.26359, 66, -7.48414, -13.1191, 31.0111, 36.1415, 83.9129, -102.309
9.27258, 66, -7.29405, -13.0497, 30.9074, 36.0113, 83.9481, -102.182
9.27966, 66, -7.10359, -12.9799, 30.8033, 35.8799, 83.983, -102.056
9.28864, 67, -6.91274, -12.9096, 30.6989, 35.7474, 84.0184, -101.929
9.29585, 67, -6.72146, -12.8387, 30.5938, 35.6137, 84.0546, -101.802
9.30674, 67, -6.433, -12.7314, 30.4354, 35.411, 84.1105, -101.611
9.31159, 67, -6.33652, -12.6953, 30.3825, 35.3429, 84.1289, -101.548
9.31965, 67, -6.14276, -12.6227, 30.2767, 35.2057, 84.1661, -101.42
9.32771, 67, -5.94813, -12.5496, 30.1708, 35.0673, 84.2042, -101.292
9.3356, 67, -5.75295, -12.4758, 30.0645, 34.9278, 84.2434, -101.164
9.34614, 68, -5.4592, -12.3641, 29.904, 34.7164, 84.3017, -100.972
9.35175, 68, -5.36106, -12.3266, 29.8503, 34.6453, 84.3215, -100.908
9.35961, 68, -5.16415, -12.2511, 29.7427, 34.5022, 84.3622, -100.78
9.36765, 68, -4.9663, -12.1752, 29.6351, 34.358, 84.4033, -100.651
9.37565, 68, -4.76773, -12.0988, 29.5273, 34.2127, 84.4441, -100.522
9.38361, 68, -4.56855, -12.0219, 29.4193, 34.0663, 84.4859, -100.393
9.39159, 68, -4.36903, -11.9444, 29.3109, 33.9188, 84.5288, -100.264
9.39963, 68, -4.16916, -11.8663, 29.2019, 33.7701, 84.5714, -100.135
9.40767, 69, -3.96906, -11.7878, 29.0928, 33.6202, 84.6146, -100.005
9.4156, 69, -3.76902, -11.7087, 28.9837, 33.4691, 84.6589, -99.8754
9.42373, 69, -3.56883, -11.6293, 28.8747, 33.3171, 84.7034, -99.7455
9.43166, 69, -3.3677, -11.5491, 28.7654, 33.164, 84.7478, -99.6153
9.4396, 69, -3.16533, -11.4684, 28.6557, 33.01, 84.7937, -99.4852
9.44771, 69, -2.96189, -11.3871, 28.5455, 32.8549, 84.8399, -99.3547
9.4556, 69, -2.75782, -11.3053, 28.4352, 32.6986, 84.8859, -99.224
9.46458, 70, -2.5535, -11.2229, 28.3249, 32.5412, 84.9333, -99.0931
9.47208, 70, -2.34858, -11.14, 28.2146, 32.3828, 84.9814, -98.962
9.48048, 70, -2.14297, -11.0567, 28.1043, 32.2234, 85.0289, -98.8308
9.48785, 70, -1.93656, -10.9728, 27.9938, 32.063, 85.0777, -98.6995
9.49588, 70, -1.72931, -10.8884, 27.8828, 31.9016, 85.1273, -98.5683
9.5037, 70, -1.52124, -10.8035, 27.7717, 31.739, 85.1765, -98.4366
9.51177, 70, -1.3126, -10.718, 27.6607, 31.5754, 85.2273, -98.3048
9.52023, 71, -1.104, -10.6321, 27.5498, 31.4109, 85.2787, -98.1726
9.52851, 71, -0.895518, -10.5457, 27.4389, 31.2454, 85.3296, -98.0403
9.53569, 71, -0.687685, -10.4588, 27.3278, 31.0789, 85.382, -97.9079
9.54497, 71, -0.479575, -10.3714, 27.2164, 30.9111, 85.4347, -97.7753
9.55457, 71, -0.270531, -10.2835, 27.1048, 30.7427, 85.4874, -97.6427
9.55987, 71, -0.0606092, -10.1951, 26.9934, 30.5732, 85.5418, -97.5098
9.5679, 71, 0.150227, -10.1062, 26.8823, 30.4029, 85.5958, -97.3766
9.57622, 71, 0.361741, -10.0167, 26.7711, 30.2318, 85.6505, -97.2432
9.58397, 72, 0.574196, -9.92677, 26.6599, 30.0596, 85.7062, -97.1096
9.59213, 72, 0.787345, -9.83624, 26.5483, 29.8867, 85.7615, -96.9757
9.60008, 72, 1.00086, -9.74512, 26.4368, 29.713, 85.8183, -96.8417
9.60811, 72, 1.2148, -9.6535, 26.3254, 29.5384, 85.8751, -96.7077
9.61628, 72, 1.42964, -9.5614, 26.2144, 29.363, 85.9323, -96.5736
9.62443, 72, 1.64545, -9.46882, 26.1035, 29.1867, 85.9908, -96.4395
9.63249, 72, 1.8617, -9.37569, 25.9925, 29.0097, 86.049, -96.3053
9.64023, 73, 1.96972, -9.32889, 25.9369, 28.8318, 86.1086, -96.1708
9.64758, 73, 2.18527, -9.23495, 25.8256, 28.7425, 86.1386, -96.1035
9.65563, 73, 2.40024, -9.14044, 25.7144, 28.5635, 86.1981, -95.9685
9.66363, 73, 2.61495, -9.04546, 25.6037, 28.3835, 86.2592, -95.8334
9.67308, 73, 2.93753, -8.90203, 25.4382, 28.1126, 86.3511, -95.6302
9.68091, 73, 3.04535, -8.80576, 25.3278, 27.9311, 86.4139, -95.4945
9.68762, 73, 3.26185, -8.75743, 25.2725, 27.8401, 86.4452, -95.4268
9.69559, 74, 3.47947, -8.66036, 25.1619, 27.6575, 86.5079, -95.291
9.70366, 74, 3.69769, -8.56268, 25.0516, 27.4741, 86.5721, -95.1549
9.71164, 74, 3.91624, -8.46443, 24.9417, 27.2901, 86.636, -95.0187
9.71964, 74, 4.13518, -8.3656, 24.8321, 27.1057, 86.7015, -94.882
9.72757, 74, 4.35514, -8.26621, 24.7227, 26.9207, 86.7667, -94.7452
9.73563, 74, 4.57627, -8.16622, 24.6133, 26.7351, 86.8332, -94.6083
9.74691, 74, 4.90847, -8.01528, 24.449, 26.4556, 86.9336, -94.4024
9.75175, 74, 5.01894, -7.96471, 24.3944, 26.3623, 86.9677, -94.3339
9.75955, 75, 5.23954, -7.86314, 24.2857, 26.1751, 87.0362, -94.1967
9.76969, 75, 5.56926, -7.70961, 24.1232, 25.8936, 87.1398, -93.9903
9.77558, 75, 5.6788, -7.65813, 24.0692, 25.7994, 87.1748, -93.9214
9.78457, 75, 5.89754, -7.55478, 23.9611, 25.6108, 87.2447, -93.7833
9.79057, 75, 6.11663, -7.45077, 23.8528, 25.422, 87.3162, -93.6449
9.79983, 75, 6.33654, -7.34633, 23.7449, 25.2328, 87.3872, -93.5066
9.80755, 75, 6.55729, -7.24137, 23.6376, 25.0432, 87.4597, -93.3679
9.81557, 76, 6.77832, -7.13576, 23.5308, 24.8533, 87.5324, -93.2291
9.82372, 76, 6.99951, -7.02949, 23.4243, 24.6632, 87.6065, -93.0902
9.83158, 76, 7.22147, -6.92257, 23.3177, 24.4727, 87.6805, -92.9509
9.83958, 76, 7.44442, -6.81499, 23.2112, 24.2821, 87.7557, -92.8114
9.84766, 76, 7.66814, -6.70676, 23.105, 24.0912, 87.8314, -92.6715
9.85557, 76, 7.89208, -6.59798, 22.9994, 23.8999, 87.9083, -92.5311
9.86358, 76, 8.11602, -6.48865, 22.8944, 23.7086, 87.9856, -92.3907
9.87197, 77, 8.33939, -6.37867, 22.7898, 23.5171, 88.0638, -92.2501
9.87978, 77, 8.56176, -6.26788, 22.6853, 23.3254, 88.1428, -92.1095
9.88759, 77, 8.78283, -6.1564, 22.5808, 23.1336, 88.2221, -91.9688
9.8957, 77, 9.00311, -6.04432, 22.4765, 22.9419, 88.3025, -91.8278
9.90359, 77, 9.22338, -5.9317, 22.373, 22.7501, 88.3835, -91.6865
9.91158, 77, 9.44391, -5.81848, 22.27, 22.5585, 88.4654, -91.5447
9.92281, 77, 9.77509, -5.64757, 22.1164, 22.271, 88.5892, -91.3316
9.92782, 78, 9.88569, -5.59018, 22.0652, 22.1752, 88.631, -91.2604
9.93557, 78, 10.1073, -5.47486, 21.9631, 21.9838, 88.7151, -91.1177
9.94358, 78, 10.3297, -5.35892, 21.8611, 21.7925, 88.7997, -90.9752
9.95164, 78, 10.5523, -5.2423, 21.7596, 21.6014, 88.8852, -90.8323
9.9596, 78, 10.7751, -5.12513, 21.6589, 21.4104, 88.9714, -90.6889
9.96765, 78, 10.9982, -5.00736, 21.5587, 21.2197, 89.0586, -90.5453
9.9759, 78, 11.221, -4.88894, 21.4589, 21.0291, 89.146, -90.4011
9.98372, 78, 11.443, -4.76967, 21.3593, 20.8388, 89.2344, -90.2568
9.99176, 79, 11.6638, -4.64954, 21.2597, 20.6488, 89.3238, -90.1123
9.99974, 79, 11.8836, -4.52888, 21.1607, 20.459, 89.4134, -89.9674
10.0077, 79, 12.1027, -4.40755, 21.0623, 20.2695, 89.5041, -89.8223
10.0156, 79, 12.3211, -4.28568, 20.9646, 20.0805, 89.5958, -89.6772
10.0239, 79, 12.5388, -4.16308, 20.8673, 19.8919, 89.6881, -89.5316
10.0326, 79, 12.7565, -4.03953, 20.7703, 19.7037, 89.7812, -89.3856
10.0396, 79, 12.9745, -3.91521, 20.6735, 19.5161, 89.8751, -89.2393
10.0477, 80, 13.1927, -3.79015, 20.5772, 19.329, 89.9696, -89.0927
10.0568, 80, 13.411, -3.6645, 20.4812, 19.1426, 90.0649, -88.9457
10.0638, 80, 13.6296, -3.53823, 20.386, 18.9568, 90.1613, -88.7984
10.0719, 80, 13.8488, -3.41123, 20.2913, 18.7713, 90.2582, -88.6511
10.0809, 80, 14.0679, -3.2833, 20.197, 18.5867, 90.356, -88.5031
10.0879, 80, 14.286, -3.15456, 20.1031, 18.4026, 90.4546, -88.3547
10.098, 80, 14.5028, -3.02506, 20.0095, 18.2193, 90.5538, -88.2058
10.1064, 81, 14.7187, -2.89494, 19.9163, 18.0365, 90.6541, -88.0565
10.1131, 81, 14.9336, -2.76422, 19.8235, 17.8545, 90.7551, -87.907
10.1186, 81, 15.0406, -2.6985, 19.7774, 17.7638, 90.8059, -87.8321
10.1283, 81, 15.3599, -2.49999, 19.6397, 17.493, 90.9592, -87.607
10.1371, 81, 15.466, -2.3666, 19.5485, 17.3134, 91.0627, -87.4567
10.1426, 81, 15.6779, -2.29964, 19.5031, 17.2238, 91.1146, -87.3813
10.153, 81, 15.9953, -2.09782, 19.3673, 16.9566, 91.2716, -87.1545
10.1597, 81, 16.101, -2.03014, 19.3222, 16.8679, 91.3246, -87.0787
10.1675, 82, 16.3119, -1.89415, 19.2323, 16.6914, 91.4307, -86.9268
10.1756, 82, 16.523, -1.7571, 19.1428, 16.5159, 91.538, -86.7744
10.1836, 82, 16.7343, -1.61917, 19.0539, 16.3412, 91.6462, -86.6215
10.1916, 82, 16.9453, -1.48051, 18.9656, 16.1677, 91.7549, -86.4687
10.1996, 82, 17.1555, -1.34119, 18.8777, 15.9952, 91.8647, -86.315
10.2076, 82, 17.3646, -1.20094, 18.7901, 15.8238, 91.9751, -86.161
10.2156, 82, 17.5728, -1.05966, 18.7029, 15.6535, 92.0864, -86.0063
10.2238, 83, 17.7799, -0.91742, 18.616, 15.4844, 92.1989, -85.851
10.2317, 83, 17.9854, -0.774529, 18.5295, 15.3161, 92.3118, -85.6956
10.2396, 83, 18.1894, -0.631016, 18.4435, 15.1492, 92.4258, -85.5395
10.2476, 83, 18.3924, -0.486764, 18.3579, 14.9834, 92.5409, -85.3831
10.2556, 83, 18.5946, -0.341524, 18.2729, 14.819, 92.6562, -85.2264
10.2636, 83, 18.7962, -0.195178, 18.1882, 14.6557, 92.7729, -85.0692
10.274, 83, 19.0977, 0.0257405, 18.0619, 14.4132, 92.949, -84.832
10.2798, 84, 19.198, 0.0996691, 18.02, 14.333, 93.0081, -84.7527
10.2876, 84, 19.3983, 0.248252, 17.9364, 14.1737, 93.1274, -84.594
10.2956, 84, 19.5983, 0.398052, 17.8532, 14.0157, 93.2472, -84.4346
10.3037, 84, 19.7978, 0.548909, 17.7704, 13.8591, 93.368, -84.2748
10.3116, 84, 19.9963, 0.700591, 17.6882, 13.7038, 93.4894, -84.1147
10.3196, 84, 20.1939, 0.852869, 17.6065, 13.5497, 93.6116, -83.9537
10.3278, 84, 20.3906, 1.00599, 17.5251, 13.3972, 93.7347, -83.7923
10.3367, 85, 20.5862, 1.16023, 17.4441, 13.2461, 93.8585, -83.6301
10.3436, 85, 20.7802, 1.31547, 17.3634, 13.0966, 93.9831, -83.4676
10.3516, 85, 20.9726, 1.47136, 17.2831, 12.9484, 94.1082, -83.3046
10.3596, 85, 21.1636, 1.62765, 17.2032, 12.8017, 94.2344, -83.1412
10.3676, 85, 21.3532, 1.78485, 17.1238, 12.6566, 94.3609, -82.9773
10.3759, 85, 21.5417, 1.94308, 17.0449, 12.5131, 94.4883, -82.8129
10.3864, 85, 21.8229, 2.18213, 16.9272, 12.301, 94.6805, -82.565
10.3916, 85, 21.9163, 2.26205, 16.8883, 12.231, 94.745, -82.4822
10.3996, 86, 22.1027, 2.42221, 16.8107, 12.0925, 94.8747, -82.3161
10.4076, 86, 22.2882, 2.58334, 16.7335, 11.9553, 95.0049, -82.1495
10.4156, 86, 22.4731, 2.74573, 16.6566, 11.8199, 95.1361, -81.9825
10.4236, 86, 22.6573, 2.90898, 16.5802, 11.6863, 95.2675, -81.8147
10.4316, 86, 22.8405, 3.07252, 16.5043, 11.5543, 95.4001, -81.6466
10.4396, 86, 23.0228, 3.23672, 16.4289, 11.4239, 95.5329, -81.4776
10.4498, 86, 23.204, 3.40212, 16.3541, 11.2953, 95.6664, -81.3086
10.4557, 87, 23.384, 3.56856, 16.2797, 11.1684, 95.8005, -81.1389
10.4648, 87, 23.5627, 3.73533, 16.2058, 11.0431, 95.9352, -80.9688
10.4717, 87, 23.7399, 3.9022, 16.1324, 10.9194, 96.0704, -80.7984
10.4796, 87, 23.9151, 4.06968, 16.0595, 10.7977, 96.2057, -80.6275
10.488, 87, 24.0887, 4.23807, 15.987, 10.6775, 96.3418, -80.4559
10.4957, 87, 24.2608, 4.40694, 15.915, 10.5592, 96.4778, -80.2838
10.5048, 87, 24.4317, 4.57565, 15.8435, 10.4427, 96.6144, -80.1116
10.512, 88, 24.6019, 4.74478, 15.7725, 10.3279, 96.7511, -79.9389
10.5197, 88, 24.7712, 4.91506, 15.7021, 10.2147, 96.8882, -79.766
10.5276, 88, 24.9397, 5.08626, 15.6324, 10.1035, 97.0253, -79.5924
10.5356, 88, 25.1071, 5.25755, 15.5633, 9.9938, 97.1628, -79.4182
10.5436, 88, 25.2736, 5.42887, 15.4947, 9.88603, 97.3003, -79.2436
10.5517, 88, 25.4395, 5.60105, 15.4267, 9.78014, 97.4382, -79.0687
10.5597, 88, 25.6044, 5.77427, 15.3592, 9.67599, 97.5761, -78.8935
10.5678, 88, 25.7683, 5.94773, 15.2923, 9.57388, 97.7142, -78.718
10.5762, 89, 25.9314, 6.12092, 15.226, 9.4733, 97.8521, -78.5422
10.5857, 89, 26.0931, 6.29468, 15.1603, 9.37439, 97.9902, -78.3661
10.592, 89, 26.2533, 6.46923, 15.0952, 9.27756, 98.1283, -78.1894
10.5986, 89, 26.3329, 6.55672, 15.0628, 9.22966, 98.1974, -78.1011
10.6082, 89, 26.5693, 6.81866, 14.9668, 9.08879, 98.4051, -77.8353
10.6161, 89, 26.7248, 6.99309, 14.9036, 8.9974, 98.5435, -77.658
10.625, 89, 26.8789, 7.16837, 14.8411, 8.90753, 98.6819, -77.4803
10.6323, 90, 27.0316, 7.34424, 14.7791, 8.81968, 98.8204, -77.3022
10.6411, 90, 27.1829, 7.51995, 14.7176, 8.73342, 98.9588, -77.1235
10.6475, 90, 27.2581, 7.60768, 14.6872, 8.69124, 99.0279, -77.0341
10.6556, 90, 27.4076, 7.78358, 14.6267, 8.60765, 99.1663, -76.8551
10.6636, 90, 27.556, 7.96038, 14.5668, 8.52615, 99.3044, -76.6757
10.6706, 90, 27.7035, 8.13769, 14.5075, 8.44591, 99.4424, -76.4963
10.6797, 90, 27.8502, 8.3145, 14.449, 8.3681, 99.5802, -76.3167
10.6897, 91, 28.0691, 8.57984, 14.3622, 8.25424, 99.7868, -76.0463
10.6956, 91, 28.1417, 8.66872, 14.3336, 8.21719, 99.8555, -75.956
10.7036, 91, 28.286, 8.8467, 14.2769, 8.1445, 99.9929, -75.7752
10.7115, 91, 28.4295, 9.0243, 14.2208, 8.07391, 100.13, -75.5942
10.7196, 91, 28.5717, 9.20169, 14.1652, 8.00471, 100.268, -75.4128
10.7277, 91, 28.7128, 9.3799, 14.1102, 7.93761, 100.405, -75.2314
10.7355, 91, 28.8526, 9.55884, 14.0557, 7.87172, 100.542, -75.0493
10.7436, 91, 28.9909, 9.73761, 14.0018, 7.80856, 100.679, -74.8667
10.7516, 92, 29.1279, 9.91595, 13.9484, 7.74598, 100.816, -74.6839
10.7595, 92, 29.2637, 10.0948, 13.8956, 7.68619, 100.953, -74.5008
10.7691, 92, 29.3981, 10.2745, 13.8433, 7.5987, 101.158, -74.2257
10.7756, 92, 29.5309, 10.4542, 13.7915, 7.57077, 101.226, -74.1338
10.7845, 92, 29.6623, 10.6334, 13.7403, 7.51651, 101.362, -73.9497
10.7916, 92, 29.7921, 10.8131, 13.6896, 7.46265, 101.499, -73.765
10.8004, 92, 29.9203, 10.9936, 13.6395, 7.41174, 101.635, -73.58
10.8077, 93, 30.0476, 11.1742, 13.5899, 7.36234, 101.771, -73.3944
10.8156, 93, 30.174, 11.3543, 13.5408, 7.31412, 101.907, -73.2085
10.8237, 93, 30.2995, 11.5348, 13.4921, 7.26886, 102.043, -73.0225
10.8316, 93, 30.4241, 11.7162, 13.444, 7.22532, 102.179, -72.8357
10.8396, 93, 30.5479, 11.898, 13.3963, 7.18249, 102.315, -72.6483
10.851, 93, 30.7316, 12.1704, 13.3259, 7.12297, 102.518, -72.3666
10.8557, 93, 30.7924, 12.2615, 13.3026, 7.10424, 102.586, -72.2724
10.8645, 94, 30.9133, 12.4445, 13.2565, 7.06749, 102.722, -72.0839
10.8716, 94, 31.0332, 12.628, 13.2109, 7.03204, 102.857, -71.895
10.8795, 94, 31.1522, 12.811, 13.1657, 6.9992, 102.993, -71.7056
10.8875, 94, 31.2699, 12.9939, 13.1211, 6.96828, 103.128, -71.5155
10.8956, 94, 31.3862, 13.1774, 13.0768, 6.93908, 103.263, -71.325
10.9036, 94, 31.5012, 13.3611, 13.0331, 6.91105, 103.398, -71.1341
10.9115, 94, 31.6149, 13.5439, 12.9901, 6.88462, 103.532, -70.9429
10.9196, 94, 31.7274, 13.7267, 12.9473, 6.86051, 103.667, -70.7514
10.9275, 95, 31.8387, 13.9103, 12.9052, 6.83838, 103.801, -70.5592
10.9355, 95, 31.9489, 14.0944, 12.8636, 6.81828, 103.935, -70.3664
10.9436, 95, 32.0578, 14.2781, 12.8224, 6.79977, 104.069, -70.1732
10.9516, 95, 32.1655, 14.4615, 12.782, 6.78282, 104.202, -69.9797
10.9597, 95, 32.2717, 14.6455, 12.7419, 6.76728, 104.335, -69.786
10.9676, 95, 32.3768, 14.8298, 12.7024, 6.7534, 104.468, -69.5918
10.9768, 95, 32.4809, 15.0137, 12.6636, 6.74112, 104.6, -69.3972
10.9836, 96, 32.5839, 15.1973, 12.6253, 6.73078, 104.732, -69.2021
10.992, 96, 32.6861, 15.3815, 12.5876, 6.72229, 104.863, -69.0066
10.9997, 96, 32.7872, 15.566, 12.5504, 6.71552, 104.993, -68.8108
11.0076, 96, 32.8873, 15.7498, 12.5138, 6.71072, 105.124, -68.615
11.0163, 96, 32.9862, 15.9331, 12.4779, 6.7075, 105.253, -68.4186
11.0238, 96, 33.084, 16.1167, 12.4425, 6.70578, 105.382, -68.2218
11.0317, 96, 33.1809, 16.3007, 12.4077, 6.70516, 105.511, -68.0247
11.0399, 97, 33.2769, 16.484, 12.3736, 6.70549, 105.64, -67.8275
11.0486, 97, 33.3722, 16.6669, 12.3402, 6.70748, 105.767, -67.63
11.0557, 97, 33.4665, 16.8503, 12.3072, 6.71146, 105.895, -67.4324
11.0637, 97, 33.5597, 17.0341, 12.2749, 6.71709, 106.021, -67.2343
11.0728, 97, 33.6518, 17.217, 12.2433, 6.72459, 106.147, -67.0359
11.0799, 97, 33.743, 17.3993, 12.2122, 6.73402, 106.272, -66.8374
11.0879, 97, 33.8332, 17.5818, 12.1817, 6.74521, 106.397, -66.6387
11.096, 97, 33.9225, 17.7646, 12.1518, 6.75848, 106.522, -66.44
11.1041, 98, 34.0108, 17.9465, 12.1226, 6.77351, 106.645, -66.2408
11.112, 98, 34.0982, 18.128, 12.0939, 6.78994, 106.769, -66.0411
11.1203, 98, 34.1846, 18.3098, 12.0657, 6.8077, 106.891, -65.8411
11.1281, 98, 34.27, 18.492, 12.0382, 6.82671, 107.013, -65.641
11.1361, 98, 34.3123, 18.6734, 12.0113, 6.84707, 107.134, -65.4407
11.1443, 98, 34.3961, 18.7637, 11.985, 6.86919, 107.254, -65.2402
11.1515, 98, 34.4792, 18.9444, 11.972, 6.88096, 107.314, -65.1399
11.1595, 99, 34.5613, 19.1256, 11.9465, 6.90596, 107.434, -64.939
11.1676, 99, 34.6426, 19.3066, 11.9215, 6.93234, 107.553, -64.7377
11.1755, 99, 34.7231, 19.4866, 11.8972, 6.95954, 107.671, -64.536
11.1836, 99, 34.8026, 19.6664, 11.8735, 6.98787, 107.789, -64.3341
11.1915, 99, 34.8812, 19.8465, 11.8502, 7.01785, 107.906, -64.1322
11.1995, 99, 34.959, 20.0266, 11.8275, 7.04991, 108.022, -63.9297
11.2077, 99, 35.0359, 20.2056, 11.8056, 7.08314, 108.138, -63.7271
11.2155, 100, 35.112, 20.3838, 11.7844, 7.11716, 108.253, -63.5244
11.2235, 100, 35.1874, 20.5623, 11.7637, 7.1526, 108.366, -63.3218
11.2316, 100, 35.2619, 20.7408, 11.7436, 7.19007, 108.479, -63.1193
11.2395, 100, 35.3357, 20.9182, 11.7243, 7.22853, 108.591, -62.9168
11.2475, 100, 35.4086, 21.0949, 11.7057, 7.26759, 108.702, -62.7142
11.2556, 100, 35.4808, 21.2716, 11.6878, 7.30797, 108.812, -62.5117
11.2635, 100, 35.5522, 21.448, 11.6709, 7.35035, 108.921, -62.3095
11.2715, 100, 35.6231, 21.6232, 11.6547, 7.39308, 109.029, -62.1077
11.2805, 101, 35.6933, 21.7971, 11.6392, 7.4366, 109.135, -61.9063
11.2875, 101, 35.7629, 21.9704, 11.6245, 7.48201, 109.24, -61.7052
11.2955, 101, 35.8317, 22.143, 11.6106, 7.52785, 109.343, -61.5048
11.3036, 101, 35.8999, 22.3142, 11.5975, 7.57402, 109.445, -61.305
11.3116, 101, 35.9673, 22.4837, 11.5853, 7.62211, 109.544, -61.1059
11.3196, 101, 36.0342, 22.6526, 11.5738, 7.67076, 109.643, -60.9075
11.3276, 101, 36.1007, 22.821, 11.5634, 7.71983, 109.74, -60.7097
11.3355, 102, 36.1668, 22.9882, 11.5536, 7.77048, 109.836, -60.5123
11.3436, 102, 36.2324, 23.154, 11.5446, 7.82145, 109.93, -60.3155
11.3515, 102, 36.2974, 23.3191, 11.5364, 7.87295, 110.022, -60.1193
11.3595, 102, 36.3616, 23.4842, 11.5286, 7.92594, 110.113, -59.9235
11.3701, 102, 36.4568, 23.7313, 11.5182, 8.00574, 110.248, -59.6307
11.3756, 102, 36.4882, 23.8132, 11.515, 8.03324, 110.292, -59.5331
11.3836, 102, 36.5505, 23.9769, 11.5091, 8.08884, 110.38, -59.3379
11.3915, 103, 36.6121, 24.1411, 11.5036, 8.14477, 110.468, -59.142
11.3996, 103, 36.6731, 24.3057, 11.4984, 8.20296, 110.556, -58.9457
11.4076, 103, 36.7334, 24.47, 11.4934, 8.26183, 110.644, -58.7485
11.4155, 103, 36.7933, 24.6329, 11.4888, 8.32246, 110.733, -58.5506
11.4236, 103, 36.8528, 24.7949, 11.4844, 8.3847, 110.821, -58.3516
11.4316, 103, 36.9116, 24.9565, 11.4804, 8.4475, 110.909, -58.1523
11.4395, 103, 36.9701, 25.1169, 11.4771, 8.51258, 110.995, -57.9536
11.4476, 103, 37.028, 25.2751, 11.4748, 8.5776, 111.079, -57.7561
11.4556, 104, 37.0854, 25.431, 11.4737, 8.64461, 111.16, -57.5607
11.4635, 104, 37.1422, 25.5851, 11.4735, 8.71109, 111.237, -57.368
11.4718, 104, 37.1983, 25.7373, 11.4746, 8.77876, 111.309, -57.178
11.4797, 104, 37.2538, 25.8872, 11.4775, 8.84627, 111.376, -56.9914
11.4876, 104, 37.3089, 26.0344, 11.4817, 8.91458, 111.44, -56.808
11.496, 104, 37.3636, 26.179, 11.4873, 8.98269, 111.499, -56.6275
11.5036, 104, 37.4179, 26.3216, 11.4938, 9.05119, 111.555, -56.4491
11.5118, 104, 37.472, 26.4624, 11.501, 9.12027, 111.61, -56.2727
11.5201, 104, 37.5259, 26.6013, 11.5085, 9.18958, 111.662, -56.097
11.5275, 104, 37.5796, 26.7386, 11.5162, 9.25944, 111.714, -55.9219
11.5356, 104, 37.633, 26.8748, 11.5239, 9.32949, 111.766, -55.7476
11.5444, 104, 37.6861, 27.0107, 11.5319, 9.40044, 111.816, -55.5732
11.5516, 104, 37.7392, 27.1466, 11.5399, 9.47146, 111.867, -55.3992
11.5596, 104, 37.792, 27.2826, 11.548, 9.5433, 111.918, -55.2257
11.5685, 104, 37.8447, 27.4187, 11.556, 9.61536, 111.968, -55.0523
11.5758, 104, 37.8973, 27.5548, 11.5642, 9.68817, 112.018, -54.8789
11.5839, 104, 37.9497, 27.6912, 11.5721, 9.7612, 112.069, -54.7057
11.5928, 104, 38.0019, 27.8281, 11.58, 9.83476, 112.118, -54.5329
11.6, 104, 38.054, 27.9653, 11.588, 9.90851, 112.168, -54.3601
11.6081, 104, 38.106, 28.1025, 11.5959, 9.98295, 112.218, -54.188
11.6169, 104, 38.1576, 28.2396, 11.6038, 10.0579, 112.267, -54.0158
11.6241, 104, 38.2092, 28.3765, 11.6118, 10.1333, 112.317, -53.8438
11.6321, 104, 38.2607, 28.5138, 11.6196, 10.2093, 112.366, -53.6718
11.6409, 104, 38.2862, 28.6512, 11.6273, 10.2855, 112.415, -53.5001
11.6481, 104, 38.3371, 28.7199, 11.6311, 10.3239, 112.465, -53.3285
11.6561, 104, 38.3878, 28.8573, 11.6388, 10.4012, 112.489, -53.1574
11.6635, 104, 38.4381, 28.9944, 11.6465, 10.4786, 112.538, -53.072
11.6715, 104, 38.4882, 29.1316, 11.6542, 10.5567, 112.587, -52.9009
11.6796, 104, 38.5382, 29.2689, 11.6618, 10.6353, 112.636, -52.73
11.6875, 104, 38.5879, 29.4065, 11.6694, 10.7142, 112.684, -52.5593
11.6955, 104, 38.6373, 29.5441, 11.6769, 10.7935, 112.733, -52.3888
11.7035, 104, 38.6867, 29.6818, 11.6842, 10.8733, 112.781, -52.2186
11.7115, 104, 38.7359, 29.8197, 11.6915, 10.9536, 112.829, -52.0486
11.7196, 104, 38.7847, 29.9578, 11.6989, 11.0341, 112.877, -51.879
11.7275, 104, 38.8335, 30.0961, 11.7062, 11.1155, 112.926, -51.7093
11.7356, 104, 38.8822, 30.2347, 11.7136, 11.1972, 112.973, -51.5396
11.7435, 104, 38.9308, 30.3736, 11.7209, 11.2794, 113.02, -51.3702
11.7515, 104, 38.9792, 30.5122, 11.7282, 11.3619, 113.069, -51.2008
11.7596, 104, 39.0275, 30.6506, 11.7354, 11.4448, 113.115, -51.0316
11.7675, 104, 39.0755, 30.7892, 11.7424, 11.5283, 113.163, -50.8629
11.7755, 104, 39.1231, 30.9279, 11.7494, 11.612, 113.211, -50.6942
11.7845, 104, 39.1704, 31.0659, 11.7565, 11.6963, 113.257, -50.5258
11.7915, 104, 39.217, 31.2027, 11.7635, 11.7809, 113.304, -50.3576
11.8006, 104, 39.2624, 31.3378, 11.7703, 11.8654, 113.351, -50.1902
11.8075, 104, 39.3065, 31.4701, 11.7767, 11.9499, 113.397, -50.0242
11.8156, 104, 39.3489, 31.5973, 11.7826, 12.0331, 113.442, -49.8612
