rpiRobotics/ARM-21-02-F-19-Robot-Motion-Program/data_performance_abb/curve_2/baseline/100L/realrobot/bisect/run_1realrobot_curve_exe_v300.0_z10.csv
timestamp, cmd_num, J1, J2, J3, J4, J5, J6
0.000374, -1, 39.6331, 32.444, 11.8322, 12.5483, 113.716, -48.8693
0.004104, -1, 39.6331, 32.444, 11.8322, 12.5483, 113.716, -48.8694
0.007748, -1, 39.6331, 32.444, 11.8322, 12.5483, 113.716, -48.8694
0.028367, -1, 39.6331, 32.444, 11.8323, 12.5483, 113.716, -48.8694
0.03257, -1, 39.6331, 32.444, 11.8323, 12.5483, 113.716, -48.8694
0.034622, -1, 39.6331, 32.444, 11.8323, 12.5483, 113.716, -48.8694
0.039598, -1, 39.6331, 32.444, 11.8323, 12.5483, 113.716, -48.8694
0.047558, -1, 39.633, 32.444, 11.8323, 12.5482, 113.716, -48.8694
0.055602, -1, 39.6325, 32.444, 11.8322, 12.5482, 113.716, -48.8694
0.063525, -1, 39.6301, 32.4435, 11.8322, 12.5483, 113.716, -48.8695
0.071555, -1, 39.6247, 32.442, 11.8322, 12.5483, 113.716, -48.8697
0.079661, -1, 39.6158, 32.4389, 11.8321, 12.5482, 113.715, -48.8713
0.087534, -1, 39.6026, 32.4334, 11.832, 12.5482, 113.714, -48.8756
0.095535, -1, 39.5829, 32.4248, 11.832, 12.5481, 113.711, -48.886
0.103706, -1, 39.5544, 32.4121, 11.8326, 12.5481, 113.704, -48.9063
0.111532, -1, 39.5161, 32.3943, 11.8347, 12.5481, 113.692, -48.9395
0.119533, -1, 39.4667, 32.3704, 11.8397, 12.5481, 113.673, -48.9897
0.127651, -1, 39.4048, 32.3399, 11.8482, 12.5482, 113.646, -49.0611
0.135524, -1, 39.3296, 32.302, 11.861, 12.5483, 113.608, -49.1552
0.14353, -1, 39.2407, 32.2562, 11.8789, 12.5485, 113.562, -49.2747
0.151598, -1, 39.1379, 32.2026, 11.9014, 12.5491, 113.505, -49.4198
0.159531, -1, 39.0209, 32.1411, 11.9281, 12.55, 113.438, -49.5893
0.167554, -1, 38.8905, 32.0723, 11.9588, 12.5514, 113.362, -49.7818
0.175602, -1, 38.7477, 31.9969, 11.9928, 12.5533, 113.278, -49.9939
0.183557, -1, 38.5934, 31.9156, 12.0291, 12.5553, 113.188, -50.2219
0.191529, -1, 38.4293, 31.8294, 12.0668, 12.5576, 113.093, -50.462
0.199612, -1, 38.257, 31.7391, 12.1057, 12.56, 112.995, -50.7103
0.20758, -1, 38.0786, 31.6459, 12.1447, 12.5624, 112.895, -50.9639
0.21562, -1, 37.895, 31.5505, 12.1836, 12.5647, 112.793, -51.2208
0.223623, -1, 37.7075, 31.4537, 12.2224, 12.5671, 112.691, -51.4792
0.23163, -1, 37.5172, 31.356, 12.2612, 12.5695, 112.589, -51.7389
0.2397, -1, 37.3256, 31.2581, 12.3, 12.5721, 112.486, -51.9984
0.247673, -1, 37.1335, 31.1602, 12.3389, 12.5745, 112.383, -52.2583
0.255586, -1, 36.9412, 31.0625, 12.3776, 12.5772, 112.28, -52.5184
0.263768, -1, 36.7493, 30.9647, 12.4164, 12.5797, 112.177, -52.7787
0.271625, -1, 36.5577, 30.867, 12.4553, 12.5823, 112.074, -53.0391
0.279562, -1, 36.3661, 30.7693, 12.4941, 12.5849, 111.971, -53.2995
0.287753, -1, 36.1747, 30.6716, 12.5329, 12.5875, 111.868, -53.56
0.29573, -1, 35.9832, 30.5737, 12.5718, 12.5901, 111.765, -53.8207
0.303715, -1, 35.7917, 30.4757, 12.6108, 12.5928, 111.662, -54.0813
0.312217, -1, 35.6, 30.3778, 12.6497, 12.5953, 111.559, -54.3415
0.319872, -1, 35.4079, 30.2796, 12.6885, 12.598, 111.456, -54.602
0.328017, -1, 35.2155, 30.1813, 12.7273, 12.6006, 111.353, -54.8627
0.334592, -1, 35.1193, 30.1322, 12.7467, 12.6018, 111.302, -54.9931
0.344066, -1, 34.8308, 29.9845, 12.8051, 12.6058, 111.147, -55.3841
0.352292, -1, 34.6384, 29.8861, 12.8439, 12.6083, 111.044, -55.6448
0.360371, -1, 34.4461, 29.7877, 12.8829, 12.6109, 110.941, -55.9056
0.368116, -1, 34.254, 29.6893, 12.9218, 12.6135, 110.838, -56.1667
0.376186, -1, 34.062, 29.5911, 12.9607, 12.6161, 110.734, -56.4274
0.384104, -1, 33.9661, 29.542, 12.9802, 12.6174, 110.683, -56.5578
0.391523, -1, 33.7743, 29.4437, 13.0192, 12.6201, 110.58, -56.8187
0.399585, -1, 33.5824, 29.3454, 13.058, 12.6228, 110.477, -57.0798
0.40752, -1, 33.3903, 29.2471, 13.097, 12.6254, 110.374, -57.3409
0.415526, -1, 33.1977, 29.1486, 13.1359, 12.628, 110.27, -57.6018
0.423572, -1, 33.005, 29.0501, 13.1746, 12.6307, 110.167, -57.8629
0.431517, -1, 32.812, 28.9516, 13.2136, 12.6334, 110.064, -58.1242
0.439602, -1, 32.6187, 28.853, 13.2525, 12.6361, 109.961, -58.3855
0.447527, -1, 32.4251, 28.7544, 13.2913, 12.6388, 109.858, -58.6466
0.455527, -1, 32.2312, 28.6557, 13.3302, 12.6415, 109.755, -58.9076
0.46362, -1, 32.0371, 28.5569, 13.369, 12.6442, 109.652, -59.1688
0.471522, -1, 31.8432, 28.4582, 13.4079, 12.647, 109.549, -59.4302
0.479524, -1, 31.6495, 28.3594, 13.4469, 12.6496, 109.446, -59.6915
0.487593, -1, 31.4561, 28.2607, 13.4858, 12.6525, 109.343, -59.9526
0.495534, -1, 31.263, 28.1622, 13.5247, 12.6552, 109.24, -60.2141
0.631512, -1, 27.9791, 26.4842, 14.1869, 12.6996, 107.484, -64.6609
0.634212, -1, 27.9791, 26.4349, 14.2064, 12.7008, 107.432, -64.7918
0.635648, -1, 27.8827, 26.4349, 14.2064, 12.7008, 107.432, -64.7918
0.636842, -1, 27.8827, 26.4349, 14.2064, 12.7008, 107.432, -64.7918
0.638935, -1, 27.7863, 26.3854, 14.2259, 12.7021, 107.381, -64.9228
0.640155, -1, 27.7863, 26.3854, 14.2259, 12.7021, 107.381, -64.9228
0.641435, -1, 27.7863, 26.3854, 14.2259, 12.7021, 107.381, -64.9228
0.644625, -1, 27.6899, 26.336, 14.2454, 12.7033, 107.329, -65.0537
0.784157, -1, 24.3089, 24.6067, 14.9271, 12.744, 105.522, -69.6339
0.785385, -1, 24.3089, 24.6067, 14.9271, 12.744, 105.522, -69.6339
0.786697, -1, 24.3089, 24.6067, 14.9271, 12.744, 105.522, -69.6339
0.788643, -1, 24.2127, 24.5573, 14.9466, 12.7452, 105.47, -69.7646
0.78991, -1, 24.2127, 24.5573, 14.9466, 12.7452, 105.47, -69.7646
0.791736, -1, 24.1164, 24.5078, 14.9661, 12.7464, 105.419, -69.8953
0.793141, -1, 24.1164, 24.5078, 14.9661, 12.7464, 105.419, -69.8953
0.799796, -1, 23.9237, 24.4091, 15.0051, 12.7487, 105.315, -70.1568
0.801975, -1, 23.9237, 24.4091, 15.0051, 12.7487, 105.315, -70.1568
0.803866, -1, 23.8272, 24.3596, 15.0246, 12.7499, 105.264, -70.2876
0.805292, -1, 23.8272, 24.3596, 15.0246, 12.7499, 105.264, -70.2876
0.806496, -1, 23.8272, 24.3596, 15.0246, 12.7499, 105.264, -70.2876
0.808532, -1, 23.7308, 24.3102, 15.044, 12.7512, 105.212, -70.4185
0.809732, -1, 23.7308, 24.3102, 15.044, 12.7512, 105.212, -70.4185
0.811598, -1, 23.7308, 24.3102, 15.044, 12.7512, 105.212, -70.5494
0.813278, -1, 23.6343, 24.2608, 15.0634, 12.7523, 105.16, -70.5494
0.81459, -1, 23.6343, 24.2608, 15.0634, 12.7523, 105.16, -70.5494
0.816602, -1, 23.5377, 24.2114, 15.0829, 12.7535, 105.109, -70.6803
0.818044, -1, 23.5377, 24.2114, 15.0829, 12.7535, 105.109, -70.6803
0.820725, -1, 23.441, 24.1619, 15.1024, 12.7547, 105.057, -70.8111
0.821998, -1, 23.441, 24.1619, 15.1024, 12.7547, 105.057, -70.8111
0.823866, -1, 23.3442, 24.1125, 15.1218, 12.7559, 105.005, -70.9419
0.827901, -1, 23.2473, 24.063, 15.1413, 12.7571, 104.953, -71.0728
0.829351, -1, 23.2473, 24.063, 15.1413, 12.7571, 104.953, -71.0728
0.830554, -1, 23.2473, 24.063, 15.1413, 12.7571, 104.953, -71.0728
0.832583, -1, 23.1503, 24.0136, 15.1607, 12.7584, 104.902, -71.2037
0.833783, -1, 23.1503, 24.0136, 15.1607, 12.7584, 104.902, -71.2037
0.83496, -1, 23.1503, 24.0136, 15.1607, 12.7584, 104.902, -71.2037
0.837012, -1, 23.0534, 23.9641, 15.1802, 12.7596, 104.85, -71.3345
0.838445, -1, 23.0534, 23.9641, 15.1802, 12.7596, 104.85, -71.3345
0.840703, -1, 22.9563, 23.9147, 15.1996, 12.7608, 104.798, -71.4654
0.842055, -1, 22.9563, 23.9147, 15.1996, 12.7608, 104.798, -71.4654
0.844823, -1, 22.9563, 23.9147, 15.2191, 12.762, 104.747, -71.5964
0.846099, -1, 22.8593, 23.8653, 15.2191, 12.762, 104.747, -71.5964
0.847976, -1, 22.7622, 23.8159, 15.2386, 12.7632, 104.695, -71.7274
0.850114, -1, 22.7622, 23.8159, 15.2386, 12.7632, 104.695, -71.7274
0.856061, -1, 22.5684, 23.7172, 15.2776, 12.7658, 104.591, -71.989
0.864104, -1, 22.3747, 23.6186, 15.3166, 12.7683, 104.488, -72.2504
0.87217, -1, 22.1814, 23.5199, 15.3556, 12.7708, 104.385, -72.5118
0.880078, -1, 22.0848, 23.4706, 15.375, 12.7721, 104.281, -72.7734
0.888154, -1, 21.8918, 23.3719, 15.414, 12.7761, 104.178, -73.0349
0.895553, -1, 21.6993, 23.2732, 15.453, 12.7774, 104.126, -73.1654
0.903499, -1, 21.5072, 23.1744, 15.4919, 12.7801, 104.023, -73.4269
0.911511, -1, 21.3149, 23.0757, 15.5309, 12.7827, 103.92, -73.6883
0.919544, -1, 21.1226, 22.9771, 15.5699, 12.7854, 103.817, -73.95
0.927499, -1, 20.9302, 22.8784, 15.6088, 12.7881, 103.714, -74.2112
0.935496, -1, 20.7377, 22.7799, 15.6478, 12.7908, 103.611, -74.4724
0.943564, -1, 20.5451, 22.6813, 15.6867, 12.7935, 103.508, -74.7336
0.95151, -1, 20.3519, 22.5827, 15.7255, 12.7963, 103.405, -74.9949
0.959548, -1, 20.1582, 22.4839, 15.7645, 12.7989, 103.302, -75.2562
0.967523, -1, 19.9644, 22.3852, 15.8034, 12.8017, 103.199, -75.5173
0.975495, -1, 19.7708, 22.2865, 15.8421, 12.8044, 103.096, -75.7785
0.983566, -1, 19.577, 22.1879, 15.881, 12.8071, 102.993, -76.0398
0.99151, -1, 19.3836, 22.0893, 15.92, 12.8099, 102.89, -76.301
0.999495, -1, 19.1905, 21.9907, 15.9588, 12.8125, 102.787, -76.562
1.00905, -1, 18.9977, 21.892, 15.9977, 12.8153, 102.684, -76.9533
1.01549, -1, 18.8053, 21.7934, 16.0365, 12.8179, 102.58, -77.0838
1.0245, -1, 18.6131, 21.6947, 16.0753, 12.8206, 102.478, -77.3449
1.03158, -1, 18.4214, 21.5962, 16.1143, 12.8233, 102.375, -77.6056
1.0395, -1, 18.2295, 21.4976, 16.1531, 12.8258, 102.272, -77.8664
1.05048, -1, 17.9417, 21.35, 16.2114, 12.8297, 102.118, -78.2576
1.05556, -1, 17.8458, 21.3008, 16.2308, 12.8309, 102.066, -78.3881
1.06353, -1, 17.6537, 21.2025, 16.2697, 12.8334, 101.963, -78.6485
1.07151, -1, 17.4614, 21.1042, 16.3085, 12.8359, 101.86, -78.9089
1.0795, -1, 17.2685, 21.0059, 16.3474, 12.8383, 101.757, -79.1695
1.08749, -1, 17.0754, 20.9076, 16.3862, 12.8407, 101.654, -79.4301
1.09556, -1, 16.8823, 20.8094, 16.425, 12.843, 101.551, -79.6907
1.1035, -1, 16.6892, 20.7112, 16.4638, 12.8453, 101.448, -79.9511
1.11158, -1, 16.4962, 20.613, 16.5025, 12.8476, 101.346, -80.2115
1.11955, -1, 16.3033, 20.5148, 16.5412, 12.85, 101.243, -80.4721
1.12749, -1, 16.111, 20.4164, 16.58, 12.8522, 101.141, -80.7326
1.13553, -1, 15.919, 20.318, 16.6188, 12.8546, 101.038, -80.9927
1.14356, -1, 15.7274, 20.2195, 16.6576, 12.8568, 100.935, -81.2527
1.15151, -1, 15.5361, 20.1211, 16.6962, 12.8592, 100.833, -81.5129
1.15949, -1, 15.3449, 20.0228, 16.7348, 12.8616, 100.73, -81.773
1.16765, -1, 15.1538, 19.9246, 16.7737, 12.8638, 100.627, -82.033
1.17549, -1, 14.9627, 19.8264, 16.8124, 12.866, 100.525, -82.2928
1.18352, -1, 14.7713, 19.7282, 16.8511, 12.8683, 100.423, -82.5527
1.19157, -1, 14.5798, 19.6302, 16.8898, 12.8706, 100.32, -82.8127
1.19949, -1, 14.3879, 19.5321, 16.9285, 12.873, 100.217, -83.0724
1.20759, -1, 14.1956, 19.4341, 16.9673, 12.8752, 100.115, -83.3318
1.21555, -1, 14.0033, 19.3361, 17.0061, 12.8774, 100.012, -83.5916
1.22358, -1, 13.8109, 19.2383, 17.0446, 12.8798, 99.9097, -83.8511
1.23167, -1, 13.6183, 19.1405, 17.0833, 12.882, 99.8071, -84.1106
1.23965, -1, 13.4259, 19.0426, 17.122, 12.8844, 99.7045, -84.3699
1.24759, -1, 13.2339, 18.9447, 17.1605, 12.8867, 99.6023, -84.6292
1.25566, -1, 13.0424, 18.8468, 17.1992, 12.889, 99.4998, -84.8885
1.2635, -1, 12.8511, 18.7488, 17.2378, 12.8913, 99.3974, -85.148
1.27153, -1, 12.6601, 18.6509, 17.2764, 12.8937, 99.2953, -85.4069
1.27991, -1, 12.4695, 18.5531, 17.315, 12.8962, 99.193, -85.6659
1.28754, -1, 12.2794, 18.4553, 17.3536, 12.8986, 99.0906, -85.9248
1.29569, -1, 12.0893, 18.3576, 17.3921, 12.901, 98.9887, -86.1839
1.30454, -1, 11.8989, 18.26, 17.4307, 12.9034, 98.8864, -86.4426
1.31175, -1, 11.7084, 18.1624, 17.4693, 12.9058, 98.7845, -86.7011
1.31989, -1, 11.5175, 18.0648, 17.5078, 12.9083, 98.6827, -86.9598
1.32883, -1, 11.3265, 17.9672, 17.5464, 12.9107, 98.5807, -87.2184
1.33592, -1, 11.1352, 17.8697, 17.585, 12.9132, 98.4789, -87.4769
1.34403, -1, 10.9436, 17.7722, 17.6235, 12.9157, 98.3771, -87.7352
1.35294, -1, 10.7519, 17.6748, 17.662, 12.9183, 98.275, -87.9935
1.36012, -1, 10.5602, 17.5773, 17.7004, 12.9207, 98.1731, -88.2518
1.36809, -1, 10.369, 17.4798, 17.7388, 12.9233, 98.0712, -88.51
1.37702, -1, 10.2734, 17.3823, 17.7773, 12.9258, 97.9693, -88.7679
1.38408, -1, 10.0826, 17.3335, 17.7965, 12.9271, 97.8675, -89.0261
1.39208, -1, 9.89221, 17.2359, 17.8348, 12.9298, 97.8167, -89.2842
1.39953, -1, 9.7021, 17.1384, 17.8732, 12.9324, 97.7146, -89.4133
1.4075, -1, 9.51243, 17.041, 17.9116, 12.9352, 97.6127, -89.6713
1.41556, -1, 9.32319, 16.9436, 17.9499, 12.9379, 97.5109, -89.9289
1.42349, -1, 9.13388, 16.8463, 17.9883, 12.9406, 97.4089, -90.1865
1.43156, -1, 8.94452, 16.7491, 18.0267, 12.9432, 97.3072, -90.444
1.43954, -1, 8.75504, 16.6519, 18.065, 12.9458, 97.2055, -90.7016
1.44755, -1, 8.56548, 16.5548, 18.1035, 12.9485, 97.1036, -90.9588
1.45555, -1, 8.37574, 16.4577, 18.1418, 12.9512, 97.0022, -91.2161
1.46349, -1, 8.18545, 16.3608, 18.18, 12.9538, 96.9007, -91.4732
1.47151, -1, 7.99489, 16.2639, 18.2184, 12.9564, 96.7991, -91.7304
1.47962, -1, 7.80429, 16.1671, 18.2566, 12.9591, 96.6978, -91.9874
1.48748, -1, 7.61364, 16.0702, 18.2949, 12.9616, 96.5962, -92.2441
1.49548, -1, 7.42325, 15.9732, 18.3333, 12.9641, 96.4948, -92.5008
1.50357, -1, 7.23307, 15.8763, 18.3714, 12.9667, 96.3936, -92.7577
1.51148, -1, 7.04326, 15.7793, 18.4096, 12.9693, 96.2922, -93.0143
1.52048, -1, 6.8538, 15.6824, 18.4479, 12.9718, 96.1908, -93.2707
1.5285, -1, 6.66493, 15.5855, 18.4859, 12.9743, 96.0902, -93.5271
1.53551, -1, 6.4765, 15.4887, 18.524, 12.9768, 95.9891, -93.7835
1.5435, -1, 6.28829, 15.392, 18.5622, 12.9793, 95.888, -94.0399
1.55156, -1, 6.10025, 15.2953, 18.6003, 12.9817, 95.7873, -94.2958
1.55954, -1, 5.91199, 15.1986, 18.6385, 12.984, 95.6862, -94.5517
1.56748, -1, 5.72359, 15.1019, 18.6767, 12.9863, 95.5852, -94.8077
1.57549, -1, 5.53506, 15.0053, 18.7147, 12.9886, 95.4846, -95.0636
1.58356, -1, 5.3463, 14.9088, 18.7528, 12.991, 95.3837, -95.3193
1.59148, -1, 5.15711, 14.8124, 18.791, 12.9932, 95.2829, -95.5748
1.59957, -1, 4.96762, 14.7162, 18.829, 12.9954, 95.1824, -95.8302
1.60755, -1, 4.7782, 14.6198, 18.867, 12.9976, 95.0816, -96.0857
1.61554, -1, 4.58876, 14.5234, 18.9051, 12.9998, 94.9808, -96.3409
1.62378, -1, 4.39948, 14.4271, 18.9431, 13.002, 94.8803, -96.5958
1.63148, -1, 4.21056, 14.3307, 18.9811, 13.0042, 94.7794, -96.8507
1.63958, -1, 4.02193, 14.2342, 19.0191, 13.0064, 94.6785, -97.1058
1.64825, -1, 3.83386, 14.138, 19.057, 13.0087, 94.5776, -97.3608
1.65548, -1, 3.64637, 14.0418, 19.095, 13.0109, 94.4768, -97.6155
1.6635, -1, 3.45923, 13.9456, 19.1329, 13.0132, 94.3762, -97.8702
1.67227, -1, 3.27229, 13.8496, 19.1706, 13.0155, 94.2756, -98.1251
1.67955, -1, 3.0853, 13.7536, 19.2085, 13.0178, 94.1749, -98.3798
1.68752, -1, 2.89837, 13.6575, 19.2465, 13.02, 94.0744, -98.6342
1.69634, -1, 2.71129, 13.5615, 19.2844, 13.0223, 93.9737, -98.8883
1.70348, -1, 2.52399, 13.4656, 19.3223, 13.0245, 93.8732, -99.1424
1.71169, -1, 2.33658, 13.3697, 19.36, 13.0268, 93.7729, -99.3966
1.72047, -1, 2.14873, 13.274, 19.3978, 13.0291, 93.6725, -99.6505
1.72757, -1, 1.96052, 13.1781, 19.4357, 13.0313, 93.5723, -99.9042
1.73588, -1, 1.77234, 13.0823, 19.4734, 13.0336, 93.4725, -100.158
1.74444, -1, 1.58409, 12.9865, 19.5111, 13.0358, 93.3723, -100.412
1.75159, -1, 1.39597, 12.8907, 19.549, 13.0381, 93.2723, -100.665
1.76017, -1, 1.20813, 12.7949, 19.5867, 13.0405, 93.1725, -100.918
1.76838, -1, 1.02071, 12.6992, 19.6244, 13.0428, 93.0723, -101.171
1.77549, -1, 0.833984, 12.6036, 19.6622, 13.0452, 92.9724, -101.424
1.78446, -1, 0.647607, 12.508, 19.6998, 13.0476, 92.8727, -101.678
1.79153, -1, 0.461697, 12.4125, 19.7374, 13.05, 92.7727, -101.93
1.79964, -1, 0.276121, 12.3172, 19.7751, 13.0525, 92.673, -102.183
1.80851, -1, 0.0907532, 12.2218, 19.8127, 13.055, 92.5737, -102.436
1.81652, -1, -0.094664, 12.1265, 19.8502, 13.0574, 92.4739, -102.688
1.82384, -1, -0.280334, 12.0313, 19.8879, 13.0599, 92.3744, -102.941
1.83265, -1, -0.466217, 11.9361, 19.9255, 13.0624, 92.2752, -103.193
1.83995, -1, -0.652459, 11.8411, 19.963, 13.0649, 92.1757, -103.445
1.84804, -1, -0.838942, 11.7461, 20.0006, 13.0673, 92.0762, -103.697
1.85682, -1, -1.02561, 11.6511, 20.038, 13.0698, 91.9769, -103.949
1.86405, -1, -1.21247, 11.556, 20.0755, 13.0724, 91.8774, -104.201
1.87208, -1, -1.39942, 11.461, 20.1131, 13.0749, 91.7781, -104.452
1.88094, -1, -1.58623, 11.3658, 20.1505, 13.0775, 91.6791, -104.704
1.88803, -1, -1.67948, 11.3183, 20.1691, 13.0788, 91.5798, -104.956
1.89647, -1, -1.95869, 11.1757, 20.2253, 13.0827, 91.4807, -105.207
1.90347, -1, -2.05147, 11.1283, 20.244, 13.0841, 91.4312, -105.333
1.91147, -1, -2.23656, 11.0334, 20.2814, 13.0867, 91.332, -105.583
1.91958, -1, -2.42143, 10.9385, 20.3188, 13.0893, 91.2327, -105.834
1.92746, -1, -2.60585, 10.8437, 20.3561, 13.092, 91.1338, -106.085
1.93547, -1, -2.78972, 10.749, 20.3933, 13.0947, 91.0346, -106.336
1.94351, -1, -2.97365, 10.6542, 20.4307, 13.0973, 90.9354, -106.587
1.95153, -1, -3.1577, 10.5595, 20.468, 13.0999, 90.8368, -106.838
1.95959, -1, -3.34199, 10.465, 20.5052, 13.1025, 90.7377, -107.088
1.96751, -1, -3.52661, 10.3706, 20.5424, 13.105, 90.6388, -107.339
1.9755, -1, -3.71137, 10.2762, 20.5797, 13.1075, 90.5402, -107.589
1.98352, -1, -3.89646, 10.1819, 20.6169, 13.1099, 90.4413, -107.839
1.99304, -1, -4.17446, 10.0405, 20.6728, 13.1136, 90.2934, -108.214
1.99953, -1, -4.26726, 9.99334, 20.6914, 13.1147, 90.2442, -108.339
2.00753, -1, -4.45294, 9.89902, 20.7285, 13.117, 90.1453, -108.589
2.01697, -1, -4.63827, 9.80466, 20.7658, 13.1194, 90.0468, -108.838
2.02353, -1, -4.8232, 9.71048, 20.8029, 13.1217, 89.9485, -109.087
2.03253, -1, -5.00774, 9.61636, 20.8399, 13.1241, 89.8499, -109.337
2.03953, -1, -5.19147, 9.52227, 20.8771, 13.1264, 89.7515, -109.586
2.04752, -1, -5.37483, 9.42825, 20.9142, 13.1288, 89.6533, -109.835
2.05546, -1, -5.55777, 9.33438, 20.9513, 13.1311, 89.5548, -110.084
2.06347, -1, -5.74023, 9.24044, 20.9885, 13.1333, 89.4566, -110.333
2.07153, -1, -5.92259, 9.14654, 21.0255, 13.1356, 89.3586, -110.581
2.07953, -1, -6.10499, 9.05272, 21.0624, 13.1377, 89.2603, -110.83
2.08747, -1, -6.28771, 8.95897, 21.0995, 13.14, 89.1623, -111.078
2.09553, -1, -6.47065, 8.86533, 21.1365, 13.1422, 89.0645, -111.327
2.10346, -1, -6.65377, 8.77172, 21.1732, 13.1444, 88.9664, -111.575
2.11147, -1, -6.83736, 8.67812, 21.2102, 13.1466, 88.8685, -111.823
2.11965, -1, -7.02125, 8.58456, 21.2471, 13.1487, 88.7708, -112.071
2.12747, -1, -7.20537, 8.49103, 21.2839, 13.1508, 88.6728, -112.319
2.13546, -1, -7.38957, 8.3974, 21.3209, 13.1529, 88.575, -112.566
2.14356, -1, -7.5734, 8.30377, 21.3577, 13.1551, 88.4775, -112.814
2.15151, -1, -7.75698, 8.21036, 21.3944, 13.1572, 88.3798, -113.062
2.15953, -1, -7.9401, 8.11695, 21.4313, 13.1594, 88.2824, -113.309
2.16753, -1, -8.1227, 8.02357, 21.4681, 13.1617, 88.1851, -113.556
2.17546, -1, -8.30454, 7.93036, 21.5047, 13.1639, 88.0876, -113.803
2.18348, -1, -8.48592, 7.83713, 21.5416, 13.1662, 87.9903, -114.05
2.19153, -1, -8.66693, 7.74392, 21.5784, 13.1685, 87.893, -114.297
2.19953, -1, -8.8476, 7.65077, 21.6151, 13.1708, 87.7955, -114.543
2.20754, -1, -9.02839, 7.55772, 21.6519, 13.1729, 87.6981, -114.789
2.21552, -1, -9.20952, 7.46472, 21.6886, 13.1752, 87.6009, -115.036
2.22355, -1, -9.3908, 7.37193, 21.7252, 13.1774, 87.5037, -115.282
2.23162, -1, -9.57238, 7.27909, 21.7619, 13.1796, 87.4064, -115.528
2.23961, -1, -9.75428, 7.1863, 21.7985, 13.1819, 87.3094, -115.774
2.24756, -1, -9.9366, 7.0936, 21.8349, 13.1841, 87.2122, -116.021
2.25565, -1, -10.1191, 7.00085, 21.8715, 13.1863, 87.1151, -116.267
2.26353, -1, -10.3018, 6.90804, 21.9081, 13.1886, 87.018, -116.512
2.27147, -1, -10.4844, 6.8153, 21.9446, 13.1907, 86.9208, -116.758
2.27972, -1, -10.6667, 6.72257, 21.9812, 13.1931, 86.8237, -117.003
2.28756, -1, -10.8486, 6.62994, 22.0177, 13.1954, 86.7269, -117.248
2.29584, -1, -11.0298, 6.53737, 22.0541, 13.1979, 86.6298, -117.493
2.30364, -1, -11.2103, 6.44488, 22.0906, 13.2003, 86.5332, -117.738
2.31167, -1, -11.3902, 6.3524, 22.1271, 13.2027, 86.4367, -117.983
2.31996, -1, -11.5698, 6.25999, 22.1635, 13.2051, 86.3399, -118.228
2.3278, -1, -11.7491, 6.1676, 22.2, 13.2076, 86.2434, -118.473
2.3359, -1, -11.9284, 6.07528, 22.2364, 13.2101, 86.1469, -118.717
2.34429, -1, -12.1077, 5.98307, 22.2728, 13.2125, 86.0502, -118.961
2.352, -1, -12.2872, 5.891, 22.3093, 13.215, 85.9538, -119.205
2.35999, -1, -12.4671, 5.79896, 22.3457, 13.2175, 85.8575, -119.45
2.36814, -1, -12.6472, 5.70694, 22.3818, 13.2199, 85.761, -119.694
2.37601, -1, -12.8278, 5.61503, 22.4182, 13.2224, 85.6648, -119.938
2.38404, -1, -12.9183, 5.56909, 22.4546, 13.2249, 85.569, -120.181
2.39238, -1, -13.0994, 5.47715, 22.4907, 13.2273, 85.473, -120.425
2.39946, -1, -13.2807, 5.38513, 22.5088, 13.2285, 85.425, -120.547
2.40745, -1, -13.4617, 5.29321, 22.5452, 13.2309, 85.3293, -120.79
2.4155, -1, -13.6423, 5.20132, 22.5814, 13.2335, 85.2335, -121.033
2.42345, -1, -13.8227, 5.10947, 22.6175, 13.236, 85.1377, -121.276
2.43146, -1, -14.0023, 5.01765, 22.6538, 13.2386, 85.0421, -121.519
2.4395, -1, -14.181, 4.92597, 22.6899, 13.2411, 84.9464, -121.762
2.44745, -1, -14.3593, 4.83426, 22.726, 13.2438, 84.8507, -122.005
2.45556, -1, -14.5372, 4.74263, 22.7623, 13.2463, 84.7552, -122.247
2.46346, -1, -14.7148, 4.65104, 22.7985, 13.2489, 84.6596, -122.49
2.47147, -1, -14.8925, 4.55954, 22.8345, 13.2513, 84.5639, -122.732
2.47954, -1, -15.0701, 4.4681, 22.8707, 13.2537, 84.4683, -122.975
2.48745, -1, -15.2482, 4.37682, 22.9069, 13.2562, 84.3727, -123.217
2.49546, -1, -15.4266, 4.28549, 22.9429, 13.2585, 84.2769, -123.458
2.50356, -1, -15.6054, 4.19424, 22.979, 13.2608, 84.1814, -123.7
2.51146, -1, -15.7845, 4.10298, 23.0151, 13.2631, 84.0858, -123.942
2.51946, -1, -15.9638, 4.01175, 23.051, 13.2653, 83.9903, -124.183
2.52753, -1, -16.1433, 3.92049, 23.087, 13.2675, 83.8949, -124.425
2.5365, -1, -16.3231, 3.82924, 23.123, 13.2696, 83.7994, -124.666
2.54345, -1, -16.5026, 3.73801, 23.1588, 13.2717, 83.704, -124.908
2.55153, -1, -16.6816, 3.6469, 23.1947, 13.2739, 83.6086, -125.149
2.55944, -1, -16.8601, 3.55579, 23.2305, 13.2762, 83.5133, -125.39
2.56746, -1, -17.0377, 3.46479, 23.2664, 13.2784, 83.4179, -125.631
2.57544, -1, -17.2146, 3.37387, 23.3022, 13.2806, 83.3227, -125.872
2.58346, -1, -17.3912, 3.28302, 23.3381, 13.2829, 83.2277, -126.112
2.59154, -1, -17.5675, 3.1922, 23.3739, 13.2849, 83.1325, -126.353
2.59945, -1, -17.7435, 3.10156, 23.4097, 13.2871, 83.0376, -126.593
2.60745, -1, -17.9196, 3.01098, 23.4456, 13.2891, 82.9429, -126.833
2.61553, -1, -18.0958, 2.92049, 23.4813, 13.2913, 82.8479, -127.073
2.62351, -1, -18.2723, 2.83015, 23.517, 13.2934, 82.7532, -127.314
2.63145, -1, -18.4492, 2.73976, 23.5528, 13.2954, 82.6587, -127.553
2.63953, -1, -18.6266, 2.64937, 23.5884, 13.2975, 82.564, -127.793
2.64748, -1, -18.8043, 2.55903, 23.6241, 13.2996, 82.4694, -128.033
2.65544, -1, -18.9822, 2.46861, 23.6599, 13.3015, 82.3751, -128.272
2.66353, -1, -19.1605, 2.37813, 23.6954, 13.3035, 82.2805, -128.512
2.67146, -1, -19.3387, 2.28773, 23.731, 13.3055, 82.1861, -128.751
2.67945, -1, -19.5164, 2.19734, 23.7667, 13.3076, 82.0923, -128.99
2.68758, -1, -19.6935, 2.10693, 23.8021, 13.3098, 81.998, -129.229
2.69545, -1, -19.8701, 2.01665, 23.8375, 13.312, 81.9038, -129.468
2.70351, -1, -20.0459, 1.92638, 23.8731, 13.3141, 81.81, -129.707
2.71227, -1, -20.2211, 1.83616, 23.9086, 13.3163, 81.7158, -129.945
2.71948, -1, -20.3961, 1.74607, 23.9441, 13.3186, 81.6218, -130.183
2.72759, -1, -20.5706, 1.65604, 23.9797, 13.3207, 81.528, -130.422
2.73635, -1, -20.7451, 1.56607, 24.0153, 13.3229, 81.4338, -130.66
2.74355, -1, -20.9197, 1.47618, 24.0507, 13.3251, 81.34, -130.898
2.75162, -1, -21.0947, 1.38647, 24.0862, 13.3273, 81.2464, -131.136
2.75956, -1, -21.27, 1.29671, 24.1217, 13.3295, 81.1526, -131.374
2.76752, -1, -21.4456, 1.20699, 24.157, 13.3316, 81.0587, -131.612
2.77557, -1, -21.6216, 1.11739, 24.1925, 13.3338, 80.965, -131.849
2.78592, -1, -21.7978, 1.02773, 24.228, 13.336, 80.8712, -132.087
2.79162, -1, -21.9741, 0.938131, 24.2634, 13.3382, 80.7773, -132.324
2.7995, -1, -22.1507, 0.848563, 24.2988, 13.3403, 80.6837, -132.561
2.80835, -1, -22.3272, 0.759029, 24.3342, 13.3425, 80.59, -132.798
2.81574, -1, -22.5034, 0.669567, 24.3694, 13.3448, 80.4963, -133.035
2.82369, -1, -22.679, 0.580073, 24.4046, 13.3471, 80.4027, -133.272
2.83256, -1, -22.854, 0.490702, 24.4399, 13.3495, 80.3091, -133.509
2.83987, -1, -23.0281, 0.401295, 24.4751, 13.3519, 80.2156, -133.746
2.84855, -1, -23.2018, 0.311922, 24.5102, 13.3545, 80.1221, -133.983
2.85671, -1, -23.375, 0.222631, 24.5454, 13.3569, 80.0288, -134.219
2.86402, -1, -23.5481, 0.133416, 24.5806, 13.3593, 79.9354, -134.455
2.8726, -1, -23.7213, 0.0443057, 24.6158, 13.3617, 79.842, -134.691
2.88085, -1, -23.8947, -0.0447153, 24.651, 13.3641, 79.7491, -134.928
2.88807, -1, -24.0682, -0.133647, 24.6861, 13.3666, 79.6557, -135.164
2.89601, -1, -24.155, -0.178141, 24.7036, 13.3678, 79.6091, -135.399
2.90343, -1, -24.3289, -0.267101, 24.7387, 13.3703, 79.5161, -135.517
2.91148, -1, -24.5032, -0.355963, 24.7739, 13.3727, 79.4231, -135.753
2.91943, -1, -24.6777, -0.444822, 24.8089, 13.3751, 79.33, -135.988
2.92745, -1, -24.8527, -0.533755, 24.8439, 13.3775, 79.237, -136.224
2.93548, -1, -25.0279, -0.622611, 24.8791, 13.3798, 79.1442, -136.459
2.94343, -1, -25.2028, -0.711446, 24.9141, 13.3822, 79.0512, -136.694
2.95144, -1, -25.3774, -0.800175, 24.9491, 13.3845, 78.9584, -136.929
2.95954, -1, -25.5516, -0.88899, 24.9842, 13.387, 78.8658, -137.164
2.96744, -1, -25.7252, -0.977682, 25.0191, 13.3895, 78.7729, -137.399
2.97544, -1, -25.8981, -1.06636, 25.0539, 13.3918, 78.6802, -137.634
2.9835, -1, -26.0706, -1.155, 25.089, 13.3943, 78.588, -137.868
2.99143, -1, -26.2426, -1.24362, 25.1239, 13.3967, 78.4952, -138.103
3.00264, -1, -26.5002, -1.37633, 25.1761, 13.4002, 78.3566, -138.455
3.00743, -1, -26.5861, -1.42051, 25.1936, 13.4013, 78.3105, -138.572
3.01544, -1, -26.7581, -1.5089, 25.2286, 13.4036, 78.2179, -138.806
3.02443, -1, -26.9304, -1.59709, 25.2634, 13.4058, 78.1255, -139.04
3.03143, -1, -27.1028, -1.68525, 25.2983, 13.408, 78.0333, -139.274
3.04048, -1, -27.2753, -1.7735, 25.3332, 13.4102, 77.941, -139.508
3.0475, -1, -27.4482, -1.86159, 25.368, 13.4123, 77.849, -139.741
3.05543, -1, -27.6213, -1.94968, 25.4028, 13.4144, 77.757, -139.975
3.06345, -1, -27.7946, -2.03789, 25.4377, 13.4165, 77.6649, -140.208
3.0715, -1, -27.9679, -2.12591, 25.4725, 13.4186, 77.573, -140.441
3.07945, -1, -28.1412, -2.21394, 25.5071, 13.4206, 77.481, -140.675
3.08744, -1, -28.3144, -2.30198, 25.542, 13.4226, 77.389, -140.908
3.09549, -1, -28.4873, -2.39002, 25.5768, 13.4247, 77.2969, -141.141
3.10343, -1, -28.6597, -2.47793, 25.6114, 13.4268, 77.2048, -141.374
3.11143, -1, -28.8314, -2.5659, 25.6462, 13.4289, 77.1128, -141.607
3.11951, -1, -29.0024, -2.65385, 25.6809, 13.4311, 77.0208, -141.839
3.12749, -1, -29.173, -2.74169, 25.7154, 13.4333, 76.9288, -142.072
3.13549, -1, -29.3435, -2.82944, 25.75, 13.4353, 76.8371, -142.304
3.14343, -1, -29.5141, -2.91712, 25.7847, 13.4374, 76.7452, -142.537
3.15146, -1, -29.685, -3.00467, 25.8192, 13.4394, 76.6534, -142.769
3.1595, -1, -29.856, -3.09222, 25.8538, 13.4414, 76.5618, -143.002
3.16743, -1, -30.027, -3.17967, 25.8883, 13.4436, 76.4699, -143.234
3.17544, -1, -30.198, -3.2672, 25.9228, 13.4456, 76.3782, -143.466
3.18352, -1, -30.3692, -3.35462, 25.9574, 13.4477, 76.2868, -143.698
3.19143, -1, -30.5407, -3.44205, 25.9919, 13.4498, 76.195, -143.929
3.19952, -1, -30.7125, -3.52958, 26.0263, 13.4517, 76.1036, -144.161
3.20743, -1, -30.8844, -3.6169, 26.0608, 13.4538, 76.0122, -144.392
3.21544, -1, -31.0561, -3.70427, 26.0953, 13.4558, 75.9208, -144.624
3.22369, -1, -31.2279, -3.7916, 26.1298, 13.4578, 75.8295, -144.855
3.23151, -1, -31.3993, -3.87888, 26.1641, 13.4599, 75.7383, -145.086
3.23953, -1, -31.5702, -3.96617, 26.1986, 13.4621, 75.6471, -145.317
3.24788, -1, -31.7407, -4.05335, 26.233, 13.4642, 75.5558, -145.548
3.25553, -1, -31.9106, -4.14059, 26.2674, 13.4664, 75.4646, -145.779
3.26355, -1, -32.0802, -4.22781, 26.3018, 13.4686, 75.3736, -146.01
3.27208, -1, -32.2495, -4.31489, 26.3362, 13.4708, 75.2823, -146.241
3.28054, -1, -32.419, -4.40194, 26.3705, 13.473, 75.1912, -146.472
3.28746, -1, -32.5887, -4.48891, 26.4049, 13.4751, 75.1007, -146.702
3.29636, -1, -32.7584, -4.57584, 26.4393, 13.4773, 75.0095, -146.932
3.30347, -1, -32.928, -4.66276, 26.4735, 13.4794, 74.9188, -147.163
3.31192, -1, -33.0977, -4.74967, 26.5077, 13.4816, 74.8285, -147.393
3.3206, -1, -33.2675, -4.8365, 26.542, 13.4838, 74.7376, -147.623
3.32772, -1, -33.4376, -4.92336, 26.5763, 13.4861, 74.647, -147.853
3.33588, -1, -33.6079, -5.01031, 26.6105, 13.4883, 74.5565, -148.083
3.34466, -1, -33.7782, -5.09708, 26.6448, 13.4905, 74.4659, -148.313
3.35187, -1, -33.9484, -5.18383, 26.679, 13.4927, 74.3753, -148.543
3.36035, -1, -34.1188, -5.27057, 26.7131, 13.495, 74.2848, -148.772
3.3688, -1, -34.2889, -5.35729, 26.7473, 13.4972, 74.1943, -149.001
3.37601, -1, -34.4589, -5.44391, 26.7816, 13.4995, 74.1037, -149.231
3.38452, -1, -34.6284, -5.53055, 26.8156, 13.5019, 74.0131, -149.46
3.39284, -1, -34.7129, -5.5739, 26.8327, 13.5043, 73.9228, -149.689
3.39993, -1, -34.8816, -5.66052, 26.8668, 13.5055, 73.8774, -149.804
3.40747, -1, -35.05, -5.74708, 26.901, 13.508, 73.7869, -150.033
3.41543, -1, -35.2183, -5.83355, 26.9351, 13.5104, 73.6965, -150.262
3.42342, -1, -35.3866, -5.91991, 26.9692, 13.5128, 73.6061, -150.491
3.43146, -1, -35.5552, -6.00611, 27.0034, 13.5152, 73.5158, -150.72
3.43943, -1, -35.7236, -6.09235, 27.0374, 13.5175, 73.4254, -150.948
3.44747, -1, -35.8921, -6.17851, 27.0715, 13.5199, 73.3352, -151.177
3.45542, -1, -36.0607, -6.26465, 27.1056, 13.5222, 73.2447, -151.405
3.4635, -1, -36.2292, -6.35076, 27.1396, 13.5247, 73.1543, -151.634
3.47148, -1, -36.3979, -6.43697, 27.1735, 13.527, 73.0642, -151.863
3.48102, -1, -36.6513, -6.56629, 27.2245, 13.5305, 72.9286, -152.205
3.48743, -1, -36.7357, -6.6094, 27.2414, 13.5316, 72.8835, -152.319
3.49548, -1, -36.9047, -6.69559, 27.2753, 13.5339, 72.7935, -152.547
3.50342, -1, -37.0736, -6.78175, 27.3093, 13.5362, 72.7032, -152.775
3.51428, -1, -37.3267, -6.9109, 27.3601, 13.5396, 72.5682, -153.117
3.51948, -1, -37.411, -6.95389, 27.377, 13.5407, 72.5233, -153.23
3.52901, -1, -37.579, -7.03995, 27.411, 13.5429, 72.4335, -153.458
3.53543, -1, -37.7468, -7.12595, 27.4449, 13.5451, 72.3437, -153.686
3.54441, -1, -37.9144, -7.2119, 27.4786, 13.5474, 72.2539, -153.913
3.55246, -1, -38.0818, -7.29783, 27.5125, 13.5496, 72.1643, -154.141
3.55941, -1, -38.2493, -7.3837, 27.5465, 13.5517, 72.0745, -154.368
3.56741, -1, -38.4166, -7.46944, 27.5803, 13.5539, 71.9847, -154.595
3.57542, -1, -38.5838, -7.55513, 27.6141, 13.556, 71.8953, -154.822
3.58348, -1, -38.7511, -7.64086, 27.6481, 13.5581, 71.8054, -155.049
3.59142, -1, -38.9184, -7.7265, 27.6818, 13.5602, 71.7159, -155.276
3.59942, -1, -39.0858, -7.81212, 27.7155, 13.5622, 71.6269, -155.503
3.60748, -1, -39.2533, -7.89778, 27.7494, 13.5642, 71.5373, -155.73
3.61542, -1, -39.4209, -7.98348, 27.7832, 13.5661, 71.448, -155.957
3.62342, -1, -39.5885, -8.06905, 27.8168, 13.5681, 71.3588, -156.183
3.63154, -1, -39.7562, -8.15455, 27.8505, 13.57, 71.2694, -156.41
3.63941, -1, -39.9238, -8.24003, 27.8842, 13.5719, 71.1801, -156.636
3.64742, -1, -40.0914, -8.3255, 27.9179, 13.5739, 71.0905, -156.863
3.65548, -1, -40.2588, -8.41083, 27.9515, 13.5758, 71.0014, -157.089
3.66342, -1, -40.4259, -8.49618, 27.9853, 13.5778, 70.9119, -157.315
3.67143, -1, -40.5929, -8.58154, 28.0189, 13.5798, 70.8227, -157.541
3.67948, -1, -40.7597, -8.6669, 28.0524, 13.5818, 70.7338, -157.767
3.68741, -1, -40.9262, -8.7522, 28.0861, 13.5838, 70.6445, -157.993
3.69555, -1, -41.0927, -8.83751, 28.1198, 13.5858, 70.5555, -158.219
3.70341, -1, -41.259, -8.92274, 28.1533, 13.5878, 70.4665, -158.445
3.71142, -1, -41.4252, -9.0079, 28.1869, 13.5898, 70.3773, -158.67
3.71969, -1, -41.5915, -9.09304, 28.2206, 13.5918, 70.288, -158.896
3.72746, -1, -41.7578, -9.17819, 28.2541, 13.5938, 70.199, -159.121
3.7355, -1, -41.9241, -9.26323, 28.2877, 13.5958, 70.1098, -159.347
3.74391, -1, -42.0906, -9.34827, 28.3214, 13.5978, 70.0207, -159.573
3.75152, -1, -42.2569, -9.43334, 28.3549, 13.5999, 69.9317, -159.798
3.75951, -1, -42.4232, -9.51835, 28.3884, 13.6018, 69.8429, -160.023
3.768, -1, -42.5896, -9.60331, 28.4219, 13.6039, 69.7539, -160.248
3.77548, -1, -42.756, -9.68821, 28.4554, 13.6059, 69.665, -160.473
3.78342, -1, -42.9223, -9.77316, 28.4888, 13.608, 69.5766, -160.698
3.79152, -1, -43.0886, -9.8581, 28.5223, 13.61, 69.4876, -160.923
3.80041, -1, -43.2548, -9.94305, 28.5558, 13.612, 69.399, -161.148
3.80749, -1, -43.4209, -10.028, 28.5892, 13.6141, 69.3104, -161.373
3.81562, -1, -43.5869, -10.1129, 28.6227, 13.6162, 69.2217, -161.598
3.82449, -1, -43.7529, -10.1978, 28.6562, 13.6183, 69.1331, -161.822
3.83168, -1, -43.9188, -10.2826, 28.6896, 13.6205, 69.0446, -162.047
3.83983, -1, -44.0845, -10.3674, 28.7229, 13.6226, 68.9562, -162.271
3.84846, -1, -44.2498, -10.4521, 28.7564, 13.6248, 68.8675, -162.495
3.85587, -1, -44.4149, -10.5367, 28.7898, 13.627, 68.7788, -162.72
3.86404, -1, -44.5801, -10.6212, 28.8231, 13.6292, 68.6904, -162.944
3.87259, -1, -44.7453, -10.7057, 28.8566, 13.6314, 68.6017, -163.168
3.88016, -1, -44.9106, -10.7902, 28.89, 13.6336, 68.5132, -163.392
3.88806, -1, -45.0759, -10.8747, 28.9234, 13.6358, 68.4249, -163.616
3.89605, -1, -45.1586, -10.9169, 28.94, 13.638, 68.3363, -163.84
3.90398, -1, -45.3238, -11.0015, 28.9735, 13.6391, 68.2921, -164.064
3.91206, -1, -45.489, -11.0859, 29.0068, 13.6414, 68.2037, -164.176
3.91943, -1, -45.6543, -11.1703, 29.0399, 13.6436, 68.1157, -164.4
3.92838, -1, -45.8195, -11.2968, 29.09, 13.6471, 67.9831, -164.735
3.93545, -1, -45.9839, -11.3386, 29.1067, 13.6482, 67.9388, -164.847
3.9434, -1, -46.1454, -11.421, 29.14, 13.6505, 67.8508, -165.07
3.9514, -1, -46.3026, -11.5004, 29.1736, 13.6528, 67.7633, -165.291
3.95951, -1, -46.4531, -11.5755, 29.2071, 13.6552, 67.6781, -165.507
3.96743, -1, -46.5945, -11.6456, 29.2394, 13.6575, 67.5965, -165.713
3.97541, -1, -46.7245, -11.7091, 29.2693, 13.6597, 67.5216, -165.903
3.98493, -1, -46.8914, -11.7909, 29.3075, 13.6626, 67.4249, -166.147
3.99303, -1, -46.9824, -11.837, 29.3271, 13.664, 67.3742, -166.276
3.99941, -1, -47.0219, -11.8578, 29.3347, 13.6646, 67.3531, -166.329
4.00746, -1, -47.0894, -11.8947, 29.3461, 13.6654, 67.3193, -166.414
4.0154, -1, -47.1421, -11.9243, 29.3535, 13.6658, 67.2957, -166.474
4.02534, -1, -47.1966, -11.9551, 29.3585, 13.6661, 67.2754, -166.525
4.03149, -1, -47.2093, -11.9622, 29.3593, 13.6661, 67.2716, -166.534
4.03941, -1, -47.2277, -11.9723, 29.3602, 13.6662, 67.2667, -166.547
4.04839, -1, -47.2388, -11.9782, 29.3606, 13.6662, 67.2643, -166.553
4.0555, -1, -47.2446, -11.9811, 29.3608, 13.6663, 67.2632, -166.555
4.06349, 2, -47.2467, -11.9824, 29.361, 13.6663, 67.2626, -166.557
4.07139, 2, -47.2468, -11.9829, 29.3611, 13.6664, 67.2624, -166.557
4.07947, 2, -47.2465, -11.9831, 29.3612, 13.6664, 67.2623, -166.558
4.08739, 2, -47.2464, -11.9832, 29.3612, 13.6664, 67.2622, -166.558
4.0954, 2, -47.2468, -11.9833, 29.3613, 13.6664, 67.2622, -166.558
4.10347, 2, -47.2477, -11.9836, 29.3613, 13.6664, 67.2622, -166.558
4.11138, 2, -47.2489, -11.984, 29.3613, 13.6664, 67.2622, -166.558
4.11946, 2, -47.2507, -11.9848, 29.3613, 13.6664, 67.2622, -166.558
4.1275, 2, -47.2524, -11.9857, 29.3613, 13.6664, 67.2622, -166.558
4.13543, 2, -47.2539, -11.9865, 29.3613, 13.6664, 67.2622, -166.558
4.1434, 2, -47.2549, -11.9871, 29.3613, 13.6664, 67.2622, -166.558
4.15146, 2, -47.2554, -11.9875, 29.3613, 13.6663, 67.2622, -166.558
4.1594, 2, -47.2556, -11.9878, 29.3614, 13.6664, 67.2622, -166.558
4.1674, 2, -47.2557, -11.9878, 29.3614, 13.6664, 67.2622, -166.558
4.17546, 2, -47.2554, -11.9878, 29.3614, 13.6664, 67.2622, -166.558
4.18342, 2, -47.2549, -11.9878, 29.3614, 13.6664, 67.2622, -166.558
4.19141, 2, -47.2543, -11.9878, 29.3614, 13.6664, 67.2622, -166.558
4.1995, 2, -47.2539, -11.9877, 29.3614, 13.6663, 67.2622, -166.558
4.2074, 2, -47.2537, -11.9878, 29.3614, 13.6663, 67.2622, -166.558
4.21541, 2, -47.2536, -11.9878, 29.3614, 13.6664, 67.2623, -166.558
4.22353, 2, -47.2537, -11.988, 29.3614, 13.6664, 67.2622, -166.558
4.23146, 2, -47.2539, -11.9883, 29.3614, 13.6664, 67.2622, -166.558
4.2395, 2, -47.2544, -11.9886, 29.3614, 13.6664, 67.2622, -166.558
4.24764, 2, -47.255, -11.9889, 29.3614, 13.6664, 67.2622, -166.558
4.2555, 2, -47.2555, -11.9891, 29.3614, 13.6664, 67.2622, -166.558
4.26351, 2, -47.2557, -11.9892, 29.3614, 13.6664, 67.2623, -166.558
4.27156, 2, -47.2558, -11.9892, 29.3614, 13.6664, 67.2622, -166.558
4.27947, 2, -47.2557, -11.9892, 29.3614, 13.6664, 67.2622, -166.558
4.28742, 2, -47.2555, -11.9892, 29.3614, 13.6664, 67.2622, -166.558
4.2955, 2, -47.2551, -11.9891, 29.3615, 13.6664, 67.2622, -166.558
4.3035, 2, -47.2546, -11.9891, 29.3615, 13.6664, 67.2622, -166.558
4.31157, 2, -47.2543, -11.9891, 29.3615, 13.6664, 67.2622, -166.558
4.31961, 2, -47.254, -11.9891, 29.3614, 13.6664, 67.2622, -166.558
4.32778, 2, -47.2538, -11.9891, 29.3615, 13.6664, 67.2623, -166.558
4.33638, 2, -47.2538, -11.9892, 29.3614, 13.6664, 67.2623, -166.558
4.34381, 2, -47.2537, -11.9892, 29.3614, 13.6664, 67.2623, -166.558
4.35183, 2, -47.2537, -11.9893, 29.3614, 13.6664, 67.2622, -166.558
4.36051, 2, -47.2537, -11.9893, 29.3614, 13.6664, 67.2622, -166.558
4.368, 2, -47.2538, -11.9893, 29.3614, 13.6664, 67.2623, -166.558
4.37655, 2, -47.2539, -11.9893, 29.3615, 13.6664, 67.2623, -166.558
4.38403, 2, -47.2539, -11.9892, 29.3615, 13.6664, 67.2623, -166.557
4.39203, 2, -47.2538, -11.9892, 29.3615, 13.6664, 67.2623, -166.557
4.4, 2, -47.2538, -11.9892, 29.3615, 13.6663, 67.2623, -166.557
4.40738, 2, -47.2536, -11.9891, 29.3615, 13.6663, 67.2623, -166.557
4.41543, 2, -47.2535, -11.9891, 29.3615, 13.6663, 67.2623, -166.557
4.42476, 2, -47.2533, -11.9891, 29.3614, 13.6663, 67.2623, -166.557
4.43139, 2, -47.2532, -11.9891, 29.3614, 13.6663, 67.2623, -166.557
4.43944, 2, -47.2531, -11.9891, 29.3614, 13.6663, 67.2624, -166.557
4.44738, 2, -47.2531, -11.9891, 29.3614, 13.6663, 67.2624, -166.557
4.45539, 2, -47.253, -11.9891, 29.3614, 13.6663, 67.2624, -166.557
4.46344, 2, -47.253, -11.9891, 29.3615, 13.6664, 67.2624, -166.557
4.47142, 2, -47.2529, -11.9891, 29.3614, 13.6664, 67.2624, -166.557
4.4794, 2, -47.2529, -11.9891, 29.3614, 13.6663, 67.2624, -166.557
4.48886, 2, -47.2528, -11.9891, 29.3614, 13.6663, 67.2624, -166.557
4.49707, 2, -47.2527, -11.989, 29.3614, 13.6663, 67.2624, -166.557
4.50338, 2, -47.2527, -11.989, 29.3614, 13.6663, 67.2624, -166.557
4.51293, 2, -47.2525, -11.9889, 29.3614, 13.6663, 67.2625, -166.557
4.52124, 2, -47.2524, -11.9889, 29.3614, 13.6663, 67.2624, -166.557
4.52738, 2, -47.2524, -11.9889, 29.3614, 13.6663, 67.2625, -166.557
4.53637, 2, -47.2523, -11.9889, 29.3614, 13.6663, 67.2625, -166.557
4.54443, 2, -47.2522, -11.9889, 29.3614, 13.6663, 67.2625, -166.557
4.55138, 2, -47.2522, -11.9889, 29.3614, 13.6663, 67.2624, -166.557
4.5595, 2, -47.2521, -11.9889, 29.3614, 13.6663, 67.2624, -166.557
4.56842, 2, -47.252, -11.9889, 29.3614, 13.6663, 67.2625, -166.557
4.57539, 2, -47.252, -11.9889, 29.3614, 13.6663, 67.2625, -166.557
4.58345, 2, -47.2518, -11.9889, 29.3614, 13.6663, 67.2625, -166.557
4.59138, 2, -47.2517, -11.9889, 29.3614, 13.6663, 67.2625, -166.557
4.59939, 2, -47.2516, -11.9888, 29.3614, 13.6663, 67.2625, -166.557
4.60744, 2, -47.2515, -11.9887, 29.3614, 13.6663, 67.2625, -166.557
4.61538, 2, -47.2513, -11.9887, 29.3614, 13.6663, 67.2625, -166.557
4.62338, 2, -47.2512, -11.9886, 29.3614, 13.6663, 67.2625, -166.557
4.63144, 2, -47.2512, -11.9886, 29.3614, 13.6662, 67.2625, -166.557
4.63942, 2, -47.2511, -11.9886, 29.3614, 13.6663, 67.2626, -166.557
4.64738, 2, -47.2509, -11.9886, 29.3614, 13.6663, 67.2625, -166.557
4.65545, 2, -47.2508, -11.9886, 29.3614, 13.6663, 67.2626, -166.557
4.66338, 2, -47.2507, -11.9886, 29.3614, 13.6662, 67.2626, -166.557
4.67138, 2, -47.2506, -11.9886, 29.3614, 13.6662, 67.2626, -166.557
4.67945, 2, -47.2506, -11.9886, 29.3614, 13.6662, 67.2626, -166.557
4.68738, 2, -47.2505, -11.9886, 29.3614, 13.6662, 67.2626, -166.557
4.69539, 2, -47.2504, -11.9885, 29.3614, 13.6662, 67.2626, -166.557
4.70347, 2, -47.2504, -11.9885, 29.3614, 13.6662, 67.2626, -166.557
4.71138, 2, -47.2503, -11.9884, 29.3614, 13.6661, 67.2627, -166.557
4.7194, 2, -47.2502, -11.9883, 29.3614, 13.6662, 67.2627, -166.557
4.72751, 2, -47.2502, -11.9883, 29.3614, 13.6662, 67.2627, -166.557
4.73545, 2, -47.2501, -11.9883, 29.3614, 13.6661, 67.2627, -166.557
4.7435, 2, -47.25, -11.9883, 29.3614, 13.6662, 67.2627, -166.557
4.75154, 2, -47.2499, -11.9882, 29.3614, 13.6662, 67.2626, -166.557
4.75949, 2, -47.2498, -11.9882, 29.3614, 13.6662, 67.2626, -166.557
4.76749, 2, -47.2498, -11.9883, 29.3614, 13.6662, 67.2627, -166.557
4.77555, 2, -47.2497, -11.9882, 29.3614, 13.6662, 67.2627, -166.556
4.78338, 2, -47.2497, -11.9882, 29.3614, 13.6662, 67.2627, -166.556
4.79141, 2, -47.2497, -11.9882, 29.3614, 13.6661, 67.2627, -166.556
4.79949, 2, -47.2497, -11.9882, 29.3614, 13.6661, 67.2627, -166.556
4.80751, 2, -47.2496, -11.9882, 29.3614, 13.6661, 67.2627, -166.556
4.8155, 2, -47.2496, -11.9881, 29.3614, 13.6661, 67.2628, -166.556
4.8236, 2, -47.2495, -11.988, 29.3614, 13.6661, 67.2628, -166.556
4.83162, 2, -47.2494, -11.9879, 29.3614, 13.666, 67.2628, -166.556
4.84, 2, -47.2494, -11.9879, 29.3614, 13.6661, 67.2628, -166.556
4.84838, 2, -47.2493, -11.9879, 29.3614, 13.6661, 67.2628, -166.556
4.8558, 2, -47.2492, -11.9879, 29.3614, 13.6661, 67.2629, -166.556
4.86447, 2, -47.2491, -11.9879, 29.3614, 13.6661, 67.2628, -166.556
4.87199, 2, -47.2491, -11.9879, 29.3614, 13.666, 67.2629, -166.556
4.88056, 2, -47.2491, -11.9879, 29.3614, 13.666, 67.2629, -166.556
4.88817, 2, -47.2491, -11.9879, 29.3614, 13.666, 67.2629, -166.556
4.89602, 2, -47.2491, -11.9878, 29.3614, 13.666, 67.2629, -166.556
4.90455, 2, -47.249, -11.9878, 29.3614, 13.666, 67.2629, -166.556
4.91223, 2, -47.249, -11.9877, 29.3614, 13.666, 67.263, -166.556
4.91943, 2, -47.249, -11.9877, 29.3614, 13.666, 67.263, -166.556
4.92745, 2, -47.2489, -11.9877, 29.3614, 13.666, 67.263, -166.556
4.93615, 2, -47.2489, -11.9876, 29.3614, 13.6659, 67.263, -166.556
4.94341, 2, -47.2488, -11.9876, 29.3614, 13.666, 67.263, -166.556
4.95262, 2, -47.2487, -11.9875, 29.3614, 13.6659, 67.263, -166.556
4.95938, 2, -47.2486, -11.9875, 29.3614, 13.6659, 67.263, -166.556
4.96741, 2, -47.2485, -11.9875, 29.3614, 13.6659, 67.263, -166.556
4.9754, 2, -47.2484, -11.9875, 29.3614, 13.6659, 67.263, -166.556
4.98336, 2, -47.2484, -11.9875, 29.3614, 13.6659, 67.263, -166.556
4.99144, 2, -47.2484, -11.9875, 29.3614, 13.6659, 67.263, -166.556
5.00098, 2, -47.2484, -11.9875, 29.3614, 13.6659, 67.263, -166.556
5.00935, 2, -47.2484, -11.9875, 29.3614, 13.6659, 67.263, -166.556
5.01543, 2, -47.2483, -11.9874, 29.3614, 13.6659, 67.263, -166.556
5.025, 2, -47.2483, -11.9874, 29.3614, 13.6658, 67.2631, -166.556
5.03136, 2, -47.2482, -11.9873, 29.3614, 13.6658, 67.263, -166.556
5.03946, 2, -47.2482, -11.9873, 29.3614, 13.6658, 67.263, -166.556
5.0484, 2, -47.2481, -11.9872, 29.3614, 13.6658, 67.263, -166.556
5.05537, 2, -47.248, -11.9872, 29.3614, 13.6658, 67.263, -166.556
5.06454, 2, -47.248, -11.9872, 29.3614, 13.6658, 67.263, -166.556
5.07139, 2, -47.2479, -11.9872, 29.3614, 13.6658, 67.2631, -166.556
5.07947, 2, -47.2478, -11.9872, 29.3614, 13.6658, 67.2631, -166.556
5.08768, 2, -47.2478, -11.9872, 29.3614, 13.6657, 67.2631, -166.556
5.09635, 2, -47.2477, -11.9872, 29.3614, 13.6657, 67.2631, -166.556
5.10343, 2, -47.2477, -11.9872, 29.3614, 13.6657, 67.2631, -166.556
5.11147, 2, -47.2476, -11.9871, 29.3614, 13.6658, 67.263, -166.556
5.11937, 2, -47.2476, -11.9871, 29.3614, 13.6657, 67.2631, -166.556
5.12742, 2, -47.2476, -11.987, 29.3614, 13.6657, 67.2631, -166.556
5.13538, 2, -47.2476, -11.987, 29.3614, 13.6657, 67.2631, -166.556
5.14339, 4, -47.2475, -11.987, 29.3614, 13.6657, 67.2631, -166.556
5.15143, 4, -47.2475, -11.9869, 29.3614, 13.6656, 67.2631, -166.556
5.15937, 4, -47.2474, -11.9869, 29.3614, 13.6656, 67.2631, -166.556
5.16736, 4, -47.2473, -11.9869, 29.3614, 13.6656, 67.2631, -166.556
5.17544, 4, -47.2473, -11.9869, 29.3614, 13.6656, 67.2631, -166.556
5.18338, 4, -47.2472, -11.9869, 29.3614, 13.6656, 67.2631, -166.556
5.19136, 4, -47.2472, -11.9869, 29.3614, 13.6656, 67.2631, -166.556
5.19944, 4, -47.2472, -11.9868, 29.3614, 13.6656, 67.2631, -166.556
5.20739, 4, -47.2471, -11.9868, 29.3614, 13.6656, 67.2631, -166.556
5.21536, 4, -47.2471, -11.9868, 29.3614, 13.6656, 67.2631, -166.556
5.22343, 4, -47.2471, -11.9868, 29.3614, 13.6656, 67.2631, -166.556
5.23143, 4, -47.247, -11.9867, 29.3614, 13.6655, 67.2631, -166.556
5.2396, 4, -47.247, -11.9867, 29.3614, 13.6655, 67.2631, -166.556
5.27577, 4, -47.2468, -11.9866, 29.3614, 13.6655, 67.2631, -166.556
5.27762, 4, -47.2468, -11.9866, 29.3614, 13.6655, 67.2631, -166.556
5.28094, 4, -47.2468, -11.9866, 29.3614, 13.6655, 67.2631, -166.556
5.28531, 4, -47.2468, -11.9866, 29.3614, 13.6655, 67.2631, -166.555
5.28916, 4, -47.2468, -11.9866, 29.3614, 13.6655, 67.2632, -166.556
5.29096, 4, -47.2468, -11.9866, 29.3614, 13.6655, 67.2632, -166.556
5.29779, 4, -47.2472, -11.9868, 29.3616, 13.6655, 67.2632, -166.555
5.30453, 4, -47.2488, -11.9877, 29.3625, 13.666, 67.2635, -166.555
5.31432, 4, -47.2519, -11.9905, 29.3659, 13.6708, 67.2648, -166.555
5.31954, 4, -47.2568, -11.996, 29.374, 13.687, 67.2686, -166.552
5.32922, 4, -47.2638, -12.0046, 29.3893, 13.7195, 67.277, -166.545
5.33562, 5, -47.2738, -12.0166, 29.4144, 13.7742, 67.2919, -166.533
5.34384, 5, -47.287, -12.0331, 29.4508, 13.8563, 67.3145, -166.514
5.35178, 5, -47.3039, -12.0541, 29.4991, 13.9654, 67.3454, -166.488
5.35985, 5, -47.3241, -12.079, 29.5587, 14.1011, 67.3829, -166.456
5.36847, 5, -47.3469, -12.1077, 29.6276, 14.2579, 67.4258, -166.418
5.3766, 5, -47.3723, -12.1399, 29.7037, 14.4302, 67.4741, -166.378
5.38468, 5, -47.4, -12.1752, 29.785, 14.6122, 67.5245, -166.335
5.39246, 5, -47.4295, -12.2127, 29.8694, 14.7997, 67.5754, -166.29
5.40001, 5, -47.4602, -12.2515, 29.956, 14.99, 67.6281, -166.245
5.40792, 5, -47.4759, -12.2713, 29.9998, 15.0858, 67.6544, -166.2
5.41534, 5, -47.508, -12.3114, 30.0882, 15.2782, 67.7059, -166.177
5.42466, 5, -47.5571, -12.3724, 30.2223, 15.5678, 67.7847, -166.11
5.43342, 5, -47.5904, -12.4133, 30.3125, 15.7611, 67.8361, -166.064
5.43939, 5, -47.607, -12.4338, 30.3577, 15.8577, 67.8616, -166.042
5.44735, 5, -47.6402, -12.4749, 30.4486, 16.0511, 67.9134, -165.997
5.45665, 5, -47.69, -12.5366, 30.5858, 16.3414, 67.9897, -165.931
5.46336, 5, -47.7065, -12.5572, 30.6319, 16.4382, 68.0149, -165.908
5.47276, 5, -47.7557, -12.6192, 30.7711, 16.7287, 68.0912, -165.842
5.4794, 5, -47.7721, -12.6399, 30.8177, 16.8254, 68.116, -165.82
5.48738, 5, -47.8051, -12.6814, 30.9116, 17.0191, 68.1654, -165.777
5.49705, 5, -47.8552, -12.7443, 31.0531, 17.3097, 68.24, -165.712
5.5035, 5, -47.8722, -12.7653, 31.1005, 17.4065, 68.2643, -165.69
5.51136, 5, -47.9062, -12.8074, 31.1954, 17.6002, 68.3129, -165.647
5.52093, 5, -47.9573, -12.8711, 31.3389, 17.8908, 68.3862, -165.583
5.52735, 5, -47.9743, -12.8925, 31.3871, 17.9878, 68.41, -165.562
5.53633, 5, -48.0085, -12.9354, 31.4839, 18.1817, 68.4576, -165.519
5.54594, 5, -48.0601, -13, 31.6301, 18.4725, 68.5294, -165.456
5.55234, 5, -48.0774, -13.0216, 31.679, 18.5695, 68.5528, -165.435
5.56039, 5, -48.1119, -13.0648, 31.7769, 18.7634, 68.5995, -165.394
5.56738, 5, -48.1465, -13.1081, 31.8754, 18.9575, 68.6469, -165.352
5.57554, 5, -48.1813, -13.1516, 31.9744, 19.1515, 68.6933, -165.311
5.58333, 5, -48.2162, -13.1951, 32.0742, 19.3455, 68.739, -165.27
5.59138, 5, -48.2508, -13.2388, 32.1746, 19.5397, 68.7853, -165.229
5.59952, 5, -48.2855, -13.2827, 32.2755, 19.7338, 68.8312, -165.189
5.60831, 5, -48.3202, -13.3266, 32.3767, 19.9279, 68.8761, -165.148
5.61638, 5, -48.3551, -13.3707, 32.4782, 20.122, 68.9215, -165.108
5.62433, 5, -48.3901, -13.4149, 32.5802, 20.316, 68.9667, -165.068
5.63234, 5, -48.4254, -13.4593, 32.6828, 20.5101, 69.0107, -165.028
5.64041, 5, -48.4608, -13.5038, 32.7862, 20.7043, 69.0549, -164.989
5.64856, 5, -48.4964, -13.5485, 32.8902, 20.8985, 69.0993, -164.949
5.65533, 5, -48.5322, -13.5933, 32.9946, 21.0928, 69.1427, -164.91
5.66341, 5, -48.5678, -13.6381, 33.0991, 21.2869, 69.1858, -164.871
5.67134, 5, -48.6031, -13.6832, 33.204, 21.4811, 69.2296, -164.832
5.67934, 5, -48.6378, -13.7281, 33.3094, 21.6753, 69.2726, -164.793
5.68741, 5, -48.6713, -13.7727, 33.4151, 21.8688, 69.3149, -164.753
5.69535, 5, -48.7036, -13.8171, 33.521, 22.0611, 69.3582, -164.711
5.70334, 5, -48.7345, -13.8608, 33.6262, 22.2511, 69.4021, -164.666
5.71143, 5, -48.7636, -13.9037, 33.7301, 22.4376, 69.446, -164.615
5.72071, 6, -48.7903, -13.9454, 33.8319, 22.6189, 69.4915, -164.556
5.72776, 6, -48.8143, -13.9859, 33.9314, 22.794, 69.5394, -164.488
5.73545, 6, -48.8352, -14.0248, 34.0282, 22.9619, 69.5879, -164.408
5.74343, 6, -48.8526, -14.0622, 34.1221, 23.122, 69.6386, -164.317
5.75155, 6, -48.8662, -14.098, 34.2129, 23.2742, 69.6919, -164.214
5.75944, 6, -48.8763, -14.1319, 34.3004, 23.4188, 69.746, -164.1
5.76745, 6, -48.883, -14.164, 34.3847, 23.5566, 69.8026, -163.975
5.77598, 7, -48.8864, -14.1946, 34.4661, 23.6883, 69.8603, -163.84
5.78441, 7, -48.8871, -14.2237, 34.5451, 23.8144, 69.9189, -163.698
5.79135, 7, -48.885, -14.2513, 34.6219, 23.9361, 69.9795, -163.548
5.80047, 7, -48.8802, -14.2778, 34.6968, 24.0538, 70.0403, -163.392
5.80829, 7, -48.8733, -14.303, 34.77, 24.168, 70.1031, -163.23
5.81545, 7, -48.8647, -14.3273, 34.8412, 24.2788, 70.1662, -163.064
5.82381, 7, -48.8546, -14.3508, 34.911, 24.3871, 70.2301, -162.893
5.8326, 7, -48.8432, -14.3733, 34.9794, 24.4932, 70.2951, -162.718
5.83966, 8, -48.8305, -14.3952, 35.0465, 24.5974, 70.3603, -162.54
5.8477, 8, -48.8168, -14.4163, 35.1127, 24.7002, 70.427, -162.359
5.85575, 8, -48.802, -14.4368, 35.1778, 24.8018, 70.4934, -162.175
5.86387, 8, -48.7862, -14.4569, 35.2422, 24.9026, 70.5612, -161.99
5.87266, 8, -48.7698, -14.4765, 35.3058, 25.0029, 70.6287, -161.804
5.88242, 8, -48.7526, -14.4955, 35.3687, 25.1025, 70.6974, -161.615
5.8879, 8, -48.7348, -14.5142, 35.4313, 25.2018, 70.7654, -161.426
5.89646, 9, -48.7164, -14.5326, 35.4933, 25.3011, 70.8345, -161.237
5.90411, 9, -48.707, -14.5417, 35.5549, 25.4002, 70.9032, -161.046
5.91189, 9, -48.688, -14.5596, 35.5855, 25.4499, 70.9378, -160.856
5.92042, 9, -48.659, -14.5861, 35.6768, 25.5994, 71.0416, -160.666
5.92733, 9, -48.6493, -14.5949, 35.7071, 25.6492, 71.0761, -160.571
5.93638, 9, -48.6195, -14.6207, 35.7977, 25.7997, 71.1805, -160.286
5.94677, 9, -48.5996, -14.6378, 35.8578, 25.9007, 71.2501, -160.096
5.95291, 10, -48.5798, -14.6549, 35.9177, 26.0019, 71.3199, -159.906
5.95932, 10, -48.5698, -14.6634, 35.9476, 26.0528, 71.3543, -159.811
5.96863, 10, -48.5398, -14.6884, 36.0371, 26.2062, 71.4592, -159.528
5.97533, 10, -48.5298, -14.6969, 36.0669, 26.2575, 71.4939, -159.434
5.98336, 10, -48.5097, -14.7138, 36.1265, 26.3606, 71.5641, -159.246
5.99281, 10, -48.4792, -14.7388, 36.2156, 26.5166, 71.6681, -158.965
5.99947, 10, -48.4689, -14.747, 36.2453, 26.5688, 71.7031, -158.872
6.00752, 11, -48.4483, -14.7638, 36.3046, 26.6737, 71.7724, -158.685
6.01539, 11, -48.4276, -14.7806, 36.3637, 26.7792, 71.8419, -158.5
6.02497, 11, -48.3963, -14.8054, 36.4522, 26.9381, 71.9454, -158.222
6.03134, 11, -48.3858, -14.8137, 36.4817, 26.9914, 71.9801, -158.13
6.03939, 11, -48.3651, -14.8305, 36.5404, 27.0982, 72.0493, -157.946
6.04907, 11, -48.3442, -14.8472, 36.5992, 27.2053, 72.153, -157.671
6.05614, 11, -48.3232, -14.8637, 36.658, 27.3129, 72.1873, -157.579
6.06333, 11, -48.3022, -14.8802, 36.7165, 27.4209, 72.256, -157.397
6.0714, 12, -48.2811, -14.897, 36.7751, 27.5292, 72.325, -157.214
6.07934, 12, -48.2598, -14.9135, 36.8334, 27.6381, 72.3933, -157.032
6.0874, 12, -48.2382, -14.9298, 36.8916, 27.7469, 72.4622, -156.851
6.09538, 12, -48.2164, -14.9463, 36.9497, 27.8561, 72.53, -156.67
6.10333, 12, -48.1945, -14.9631, 37.0076, 27.9655, 72.5986, -156.49
6.11139, 12, -48.1722, -14.9795, 37.0654, 28.0751, 72.6663, -156.31
6.1227, 12, -48.138, -15.004, 37.1516, 28.2397, 72.7685, -156.04
6.12849, 13, -48.1266, -15.0123, 37.1802, 28.2946, 72.8021, -155.95
6.13635, 13, -48.1036, -15.0289, 37.2373, 28.4047, 72.8702, -155.771
6.14435, 13, -48.0802, -15.0452, 37.2942, 28.5148, 72.9373, -155.592
6.15238, 13, -48.0566, -15.0616, 37.351, 28.6248, 73.0051, -155.413
6.16035, 13, -48.0328, -15.0781, 37.4076, 28.735, 73.0722, -155.235
6.16832, 13, -48.0086, -15.0946, 37.464, 28.845, 73.1392, -155.057
6.17554, 13, -47.984, -15.1108, 37.5201, 28.9551, 73.2065, -154.879
6.18355, 14, -47.9594, -15.127, 37.576, 29.0651, 73.2733, -154.7
6.19132, 14, -47.9343, -15.1434, 37.6317, 29.1751, 73.3405, -154.523
6.19939, 14, -47.9088, -15.1596, 37.6871, 29.2851, 73.4065, -154.345
6.20734, 14, -47.8828, -15.1756, 37.7423, 29.3951, 73.4734, -154.168
6.21534, 14, -47.8565, -15.1917, 37.7973, 29.5049, 73.5394, -153.991
6.22374, 14, -47.8297, -15.208, 37.8518, 29.6145, 73.6061, -153.814
6.23237, 14, -47.8026, -15.2241, 37.9062, 29.724, 73.6719, -153.638
6.2394, 14, -47.7753, -15.2401, 37.9605, 29.8334, 73.738, -153.461
6.2475, 15, -47.7477, -15.2563, 38.0144, 29.9427, 73.8037, -153.285
6.25542, 15, -47.7197, -15.2726, 38.0682, 30.0518, 73.8693, -153.109
6.2635, 15, -47.6912, -15.2885, 38.1217, 30.1609, 73.9351, -152.932
6.27147, 15, -47.6624, -15.3046, 38.1749, 30.2697, 74.0001, -152.757
6.27946, 15, -47.6333, -15.3208, 38.2279, 30.3783, 74.0657, -152.581
6.28751, 15, -47.6038, -15.3371, 38.2807, 30.4868, 74.1303, -152.406
6.29818, 15, -47.574, -15.353, 38.3333, 30.5951, 74.1957, -152.231
6.30373, 16, -47.5435, -15.369, 38.3856, 30.7031, 74.2596, -152.056
6.31249, 16, -47.5127, -15.3853, 38.4378, 30.8112, 74.3244, -151.882
6.31945, 16, -47.4815, -15.4015, 38.4895, 30.9191, 74.3882, -151.708
6.32752, 16, -47.45, -15.4176, 38.5411, 31.0269, 74.4522, -151.535
6.33649, 16, -47.4181, -15.4338, 38.5925, 31.1345, 74.5158, -151.361
6.34359, 16, -47.3858, -15.4504, 38.6438, 31.2419, 74.5785, -151.189
6.35208, 16, -47.3531, -15.4669, 38.6948, 31.3492, 74.642, -151.016
6.36021, 16, -47.3203, -15.4833, 38.7458, 31.4563, 74.7041, -150.845
6.36873, 17, -47.2871, -15.4999, 38.7965, 31.5632, 74.7673, -150.673
6.37589, 17, -47.2537, -15.5168, 38.847, 31.6701, 74.8291, -150.502
6.38448, 17, -47.2197, -15.5335, 38.8974, 31.7768, 74.891, -150.331
6.39276, 17, -47.1852, -15.5503, 38.9477, 31.8836, 74.9527, -150.161
6.40012, 17, -47.1506, -15.5674, 38.9978, 31.9901, 75.0137, -149.991
6.40912, 17, -47.1154, -15.5847, 39.0476, 32.0964, 75.0752, -149.822
6.41531, 17, -47.0977, -15.5933, 39.0725, 32.1496, 75.1052, -149.738
6.42438, 18, -47.044, -15.6191, 39.1469, 32.3088, 75.1956, -149.485
6.43137, 18, -47.0259, -15.6279, 39.1715, 32.3619, 75.2256, -149.402
6.43932, 18, -46.9896, -15.6458, 39.2209, 32.4678, 75.2846, -149.234
6.44843, 18, -46.9343, -15.6724, 39.2948, 32.6265, 75.3737, -148.984
6.45533, 18, -46.9156, -15.6815, 39.3194, 32.6794, 75.4027, -148.901
6.46333, 18, -46.8781, -15.6999, 39.3683, 32.7852, 75.4608, -148.736
6.47371, 18, -46.8215, -15.7275, 39.4417, 32.9434, 75.5476, -148.489
6.48107, 19, -46.7833, -15.746, 39.4903, 33.0488, 75.6047, -148.325
6.48886, 19, -46.7446, -15.7649, 39.539, 33.1538, 75.662, -148.161
6.49679, 19, -46.7056, -15.7838, 39.5875, 33.2588, 75.7179, -147.998
6.50503, 19, -46.6663, -15.8028, 39.6359, 33.3638, 75.7743, -147.835
6.51131, 19, -46.6465, -15.8125, 39.6601, 33.4161, 75.8023, -147.755
6.52088, 19, -46.5862, -15.842, 39.7322, 33.573, 75.8847, -147.513
6.52745, 19, -46.5659, -15.8518, 39.7562, 33.6253, 75.9124, -147.433
6.53537, 20, -46.5252, -15.8716, 39.8041, 33.7296, 75.967, -147.273
6.54588, 20, -46.4841, -15.8919, 39.8519, 33.8338, 76.0206, -147.034
6.55132, 20, -46.4425, -15.9123, 39.8997, 33.9378, 76.0746, -146.955
6.55938, 20, -46.4006, -15.933, 39.9472, 34.0415, 76.1274, -146.797
6.56731, 20, -46.3584, -15.9538, 39.9948, 34.145, 76.1798, -146.639
6.57557, 20, -46.3159, -15.9748, 40.042, 34.2485, 76.2326, -146.482
6.58642, 20, -46.2513, -16.0069, 40.1129, 34.4032, 76.3094, -146.248
6.59131, 20, -46.2296, -16.0176, 40.1365, 34.4547, 76.3351, -146.17
6.59931, 21, -46.186, -16.0391, 40.1834, 34.5575, 76.3865, -146.015
6.60739, 21, -46.1418, -16.0611, 40.2303, 34.66, 76.4363, -145.86
6.61532, 21, -46.0971, -16.0832, 40.277, 34.7625, 76.4864, -145.706
6.62332, 21, -46.0522, -16.1054, 40.3234, 34.8644, 76.5363, -145.552
6.63138, 21, -46.0069, -16.128, 40.3697, 34.9662, 76.5847, -145.399
6.63941, 21, -45.9609, -16.1506, 40.4158, 35.0677, 76.6335, -145.247
6.64909, 21, -45.9146, -16.1735, 40.4617, 35.1687, 76.6821, -145.095
6.65549, 22, -45.868, -16.1968, 40.5073, 35.2699, 76.7294, -144.944
6.6634, 22, -45.8208, -16.2199, 40.5529, 35.3706, 76.7769, -144.793
6.67131, 22, -45.7732, -16.2434, 40.5983, 35.4709, 76.8244, -144.642
6.67931, 22, -45.7252, -16.2671, 40.6434, 35.5709, 76.8703, -144.492
6.68738, 22, -45.6766, -16.2908, 40.6884, 35.6706, 76.9161, -144.342
6.6953, 22, -45.6277, -16.3149, 40.7331, 35.7699, 76.9622, -144.193
6.70444, 22, -45.5783, -16.339, 40.7777, 35.8689, 77.0069, -144.044
6.71151, 23, -45.5285, -16.3632, 40.8218, 35.9674, 77.0515, -143.896
6.71933, 23, -45.4781, -16.3876, 40.8658, 36.0655, 77.0966, -143.748
6.72731, 23, -45.4273, -16.412, 40.9096, 36.1635, 77.1405, -143.6
6.7354, 23, -45.3761, -16.4367, 40.9531, 36.261, 77.1835, -143.452
6.74344, 23, -45.3242, -16.4616, 40.9963, 36.358, 77.227, -143.305
6.75158, 23, -45.2719, -16.4864, 41.039, 36.4545, 77.27, -143.158
6.76031, 23, -45.2191, -16.5114, 41.0817, 36.5507, 77.3119, -143.012
6.76747, 23, -45.1657, -16.5365, 41.1239, 36.6461, 77.354, -142.866
6.77541, 24, -45.1118, -16.5618, 41.1656, 36.7413, 77.3964, -142.72
6.7835, 24, -45.0575, -16.587, 41.2073, 36.8361, 77.4377, -142.575
6.79148, 24, -45.0027, -16.6124, 41.2485, 36.93, 77.4783, -142.429
6.79932, 24, -44.9475, -16.6379, 41.2894, 37.0238, 77.5195, -142.284
6.80737, 24, -44.8918, -16.6633, 41.33, 37.1171, 77.5601, -142.139
6.8154, 24, -44.8355, -16.6889, 41.3701, 37.2096, 77.5997, -141.995
6.82492, 24, -44.7787, -16.7144, 41.41, 37.3018, 77.6394, -141.851
6.8343, 25, -44.7212, -16.7399, 41.4494, 37.3933, 77.6794, -141.706
6.84052, 25, -44.6631, -16.7655, 41.4884, 37.4842, 77.7184, -141.562
6.8476, 25, -44.6047, -16.7911, 41.527, 37.5745, 77.7565, -141.418
6.85569, 25, -44.5455, -16.8169, 41.5653, 37.6644, 77.795, -141.274
6.86473, 25, -44.4859, -16.8424, 41.6031, 37.7537, 77.8336, -141.13
6.87177, 25, -44.4259, -16.8681, 41.6405, 37.8425, 77.8711, -140.987
6.88025, 25, -44.3652, -16.8937, 41.6774, 37.9307, 77.9082, -140.844
6.88787, 26, -44.3039, -16.9193, 41.7139, 38.0183, 77.9457, -140.701
6.89691, 26, -44.242, -16.9449, 41.75, 38.1052, 77.9831, -140.558
6.90453, 26, -44.1797, -16.9702, 41.7856, 38.1916, 78.0194, -140.414
6.91184, 26, -44.1484, -16.983, 41.8031, 38.2345, 78.0552, -140.271
6.92101, 26, -44.0535, -17.0211, 41.8552, 38.3623, 78.0914, -140.128
6.93276, 26, -43.9897, -17.0465, 41.9063, 38.4888, 78.1451, -139.914
6.93524, 26, -43.9576, -17.0592, 41.9063, 38.4888, 78.1451, -139.914
6.94476, 27, -43.8602, -17.0968, 41.9564, 38.6139, 78.1973, -139.7
6.95131, 27, -43.8275, -17.1094, 41.9729, 38.6551, 78.2147, -139.629
6.96053, 27, -43.7284, -17.1469, 42.0213, 38.7787, 78.2676, -139.415
6.96734, 27, -43.6952, -17.1593, 42.0372, 38.8195, 78.2849, -139.344
6.97667, 27, -43.5944, -17.1967, 42.0844, 38.9408, 78.3356, -139.13
6.98329, 27, -43.5606, -17.209, 42.0999, 38.9811, 78.3524, -139.058
6.99275, 27, -43.4581, -17.246, 42.1453, 39.1005, 78.4035, -138.844
7.00064, 27, -43.4237, -17.2582, 42.1602, 39.1401, 78.437, -138.702
7.00743, 28, -43.3545, -17.2825, 42.1898, 39.2183, 78.4534, -138.631
7.01686, 28, -43.2495, -17.319, 42.2329, 39.3349, 78.5026, -138.418
7.02351, 28, -43.2143, -17.331, 42.2471, 39.3734, 78.5191, -138.347
7.0313, 28, -43.1434, -17.355, 42.275, 39.4501, 78.5523, -138.205
7.04082, 28, -43.072, -17.3789, 42.3025, 39.5258, 78.5847, -138.063
7.05074, 28, -42.9638, -17.4143, 42.3425, 39.6386, 78.6323, -137.849
7.05713, 28, -42.9275, -17.4262, 42.3556, 39.7133, 78.6641, -137.707
7.06433, 29, -42.8543, -17.4496, 42.3813, 39.7501, 78.6801, -137.636
7.07136, 29, -42.7807, -17.4728, 42.4065, 39.8234, 78.7118, -137.494
7.0793, 29, -42.7065, -17.496, 42.4313, 39.8964, 78.7428, -137.352
7.08736, 29, -42.6317, -17.5189, 42.4554, 39.9684, 78.7736, -137.21
7.09535, 29, -42.5564, -17.5417, 42.4789, 40.04, 78.8042, -137.068
7.10352, 29, -42.4806, -17.5645, 42.502, 40.1104, 78.8354, -136.926
7.11232, 29, -42.4041, -17.5868, 42.5246, 40.1808, 78.866, -136.784
7.12024, 30, -42.3271, -17.6092, 42.5466, 40.2501, 78.896, -136.642
7.12828, 30, -42.2497, -17.6312, 42.568, 40.3192, 78.9256, -136.5
7.13634, 30, -42.1717, -17.653, 42.589, 40.387, 78.9553, -136.359
7.14435, 30, -42.0933, -17.6748, 42.6093, 40.455, 78.9853, -136.217
7.15229, 30, -42.0143, -17.6963, 42.6293, 40.5216, 79.0148, -136.075
7.16031, 30, -41.9348, -17.7175, 42.6487, 40.5883, 79.0437, -135.933
7.16828, 30, -41.8547, -17.7388, 42.6674, 40.6536, 79.0725, -135.792
7.17643, 30, -41.7743, -17.7597, 42.6856, 40.719, 79.1014, -135.65
7.18347, 31, -41.6933, -17.7805, 42.7034, 40.7831, 79.1306, -135.509
7.19229, 31, -41.6117, -17.8011, 42.7203, 40.8472, 79.1592, -135.367
7.19942, 31, -41.5296, -17.8214, 42.7368, 40.9102, 79.1873, -135.226
7.20729, 31, -41.447, -17.8415, 42.7532, 40.9726, 79.215, -135.084
7.21546, 31, -41.3638, -17.8615, 42.7688, 41.0347, 79.2427, -134.943
7.22669, 31, -41.2382, -17.8908, 42.7909, 41.1262, 79.2847, -134.73
7.2315, 31, -41.1961, -17.9006, 42.7981, 41.1568, 79.2984, -134.66
7.23933, 32, -41.1116, -17.92, 42.812, 41.2163, 79.3256, -134.518
7.24777, 32, -41.0267, -17.939, 42.8252, 41.2761, 79.3523, -134.377
7.25538, 32, -40.9412, -17.9578, 42.8378, 41.335, 79.379, -134.236
7.26339, 32, -40.8553, -17.9766, 42.8501, 41.3931, 79.4061, -134.095
7.27187, 32, -40.7689, -17.9951, 42.862, 41.4513, 79.4332, -133.954
7.27964, 32, -40.682, -18.0133, 42.8732, 41.5078, 79.4596, -133.813
7.28835, 32, -40.5946, -18.0313, 42.8839, 41.5647, 79.4855, -133.672
7.29532, 32, -40.5067, -18.0492, 42.8939, 41.6206, 79.511, -133.531
7.30338, 33, -40.4183, -18.0668, 42.9035, 41.6756, 79.5367, -133.391
7.31136, 33, -40.3295, -18.084, 42.9126, 41.7309, 79.5626, -133.25
7.31932, 33, -40.2403, -18.1012, 42.9212, 41.7845, 79.5882, -133.11
7.32777, 33, -40.1507, -18.1182, 42.9292, 41.8381, 79.6132, -132.97
7.33552, 33, -40.0605, -18.1349, 42.9367, 41.8914, 79.6379, -132.829
7.34354, 33, -39.9699, -18.1512, 42.9436, 41.9431, 79.6624, -132.689
7.35204, 33, -39.8789, -18.1676, 42.9499, 41.9953, 79.6871, -132.549
7.36005, 34, -39.7873, -18.1837, 42.9559, 42.0465, 79.7122, -132.408
7.36775, 34, -39.6951, -18.1993, 42.9613, 42.0965, 79.7368, -132.268
7.37637, 34, -39.6027, -18.2147, 42.9663, 42.1471, 79.7608, -132.128
7.38383, 34, -39.5097, -18.2302, 42.9708, 42.1967, 79.7845, -131.989
7.39251, 34, -39.4164, -18.2453, 42.9747, 42.2453, 79.8078, -131.849
7.40165, 34, -39.3226, -18.2598, 42.978, 42.2942, 79.8314, -131.71
7.41107, 34, -39.2284, -18.2744, 42.9808, 42.342, 79.8552, -131.57
7.41649, 35, -39.1336, -18.2888, 42.9831, 42.3888, 79.8788, -131.43
7.42328, 35, -39.0861, -18.296, 42.9841, 42.4124, 79.8904, -131.361
7.43133, 35, -38.9906, -18.3099, 42.9857, 42.4591, 79.9134, -131.221
7.44038, 35, -38.8467, -18.33, 42.9871, 42.527, 79.9472, -131.013
7.44728, 35, -38.7986, -18.3367, 42.9873, 42.5497, 79.9585, -130.943
7.45545, 35, -38.7021, -18.3501, 42.9875, 42.5949, 79.9812, -130.804
7.46444, 35, -38.5563, -18.3694, 42.9875, 42.6603, 80.0155, -130.596
7.47148, 36, -38.5075, -18.3757, 42.9874, 42.6819, 80.0267, -130.527
7.47931, 36, -38.4097, -18.3879, 42.9867, 42.7254, 80.0488, -130.388
7.4887, 36, -38.2622, -18.4061, 42.9849, 42.7885, 80.0813, -130.18
7.49531, 36, -38.2127, -18.4122, 42.984, 42.8091, 80.0919, -130.111
7.50327, 36, -38.1136, -18.424, 42.9817, 42.8508, 80.1135, -129.972
7.51278, 36, -37.9641, -18.4406, 42.9771, 42.912, 80.1461, -129.765
7.52111, 36, -37.864, -18.4514, 42.9734, 42.9513, 80.1677, -129.627
7.52743, 36, -37.8138, -18.4567, 42.9714, 42.971, 80.1784, -129.558
7.53552, 37, -37.7131, -18.4673, 42.9668, 43.0106, 80.1993, -129.42
7.54502, 37, -37.612, -18.4778, 42.9616, 43.0493, 80.2301, -129.214
7.55129, 37, -37.5107, -18.4879, 42.9558, 43.0868, 80.2403, -129.145
7.55934, 37, -37.4089, -18.4976, 42.9492, 43.1242, 80.2608, -129.007
7.5683, 37, -37.3068, -18.5069, 42.9422, 43.1618, 80.2814, -128.87
7.57778, 37, -37.1527, -18.5206, 42.931, 43.2161, 80.3124, -128.664
7.58342, 37, -37.1012, -18.5251, 42.9269, 43.2336, 80.3224, -128.596
7.59209, 38, -36.9977, -18.534, 42.9185, 43.2687, 80.3423, -128.459
7.59928, 38, -36.8938, -18.5426, 42.9095, 43.304, 80.3617, -128.322
7.60734, 38, -36.7895, -18.5509, 42.8999, 43.3382, 80.3809, -128.185
7.61527, 38, -36.6847, -18.5586, 42.8897, 43.3714, 80.4, -128.048
7.62331, 38, -36.5795, -18.566, 42.8792, 43.4043, 80.4193, -127.912
7.63245, 38, -36.474, -18.5732, 42.8682, 43.4373, 80.4389, -127.775
7.64026, 38, -36.3683, -18.5802, 42.8566, 43.4695, 80.4583, -127.639
7.6483, 39, -36.2621, -18.5868, 42.8444, 43.5006, 80.4772, -127.503
7.65627, 39, -36.1556, -18.5933, 42.8316, 43.5309, 80.4958, -127.368
7.66337, 39, -36.0488, -18.5996, 42.8184, 43.5612, 80.5141, -127.232
7.67127, 39, -35.9414, -18.6057, 42.8047, 43.5914, 80.5323, -127.096
7.67927, 39, -35.8337, -18.6115, 42.7904, 43.6208, 80.5507, -126.961
7.68735, 39, -35.7256, -18.6168, 42.7758, 43.6492, 80.5692, -126.826
7.69527, 39, -35.6171, -18.6217, 42.7608, 43.6771, 80.5879, -126.69
7.70343, 39, -35.5083, -18.6264, 42.7452, 43.7048, 80.6062, -126.555
7.71248, 40, -35.3993, -18.6308, 42.7289, 43.7324, 80.6242, -126.421
7.72127, 40, -35.2897, -18.635, 42.7122, 43.7593, 80.6418, -126.286
7.72831, 40, -35.1798, -18.6389, 42.6951, 43.7851, 80.659, -126.152
7.73532, 40, -35.0696, -18.6425, 42.6774, 43.8102, 80.676, -126.017
7.74334, 40, -34.959, -18.6459, 42.6595, 43.8349, 80.6931, -125.883
7.75187, 40, -34.848, -18.6489, 42.6411, 43.8597, 80.7103, -125.748
7.76033, 40, -34.7367, -18.6518, 42.622, 43.8842, 80.7276, -125.614
7.76737, 41, -34.6253, -18.6544, 42.6025, 43.9078, 80.7448, -125.48
7.77753, 41, -34.5136, -18.6568, 42.5827, 43.9305, 80.7616, -125.347
7.78351, 41, -34.4015, -18.659, 42.5622, 43.9525, 80.7782, -125.213
7.79324, 41, -34.289, -18.661, 42.5414, 43.9741, 80.7945, -125.08
7.80215, 41, -34.1761, -18.6628, 42.5201, 43.9956, 80.8105, -124.947
7.80826, 41, -34.0629, -18.6643, 42.4983, 44.0167, 80.8264, -124.814
7.81534, 41, -33.9493, -18.6656, 42.4761, 44.0374, 80.8425, -124.681
7.82334, 42, -33.8352, -18.6666, 42.4534, 44.0572, 80.8587, -124.549
7.83248, 42, -33.7209, -18.6673, 42.4303, 44.0762, 80.8749, -124.416
7.83945, 42, -33.6061, -18.6678, 42.4068, 44.0946, 80.8911, -124.284
7.84759, 42, -33.4911, -18.668, 42.3828, 44.1123, 80.907, -124.153
7.85678, 42, -33.3756, -18.6681, 42.3584, 44.1299, 80.9224, -124.021
7.86453, 42, -33.2599, -18.6681, 42.3335, 44.1472, 80.9375, -123.889
7.87177, 42, -33.1439, -18.668, 42.3083, 44.1641, 80.9523, -123.757
7.88035, 42, -33.0275, -18.6678, 42.2825, 44.1806, 80.967, -123.626
7.8878, 43, -32.9107, -18.6674, 42.2564, 44.1962, 80.9817, -123.494
7.8964, 43, -32.7935, -18.6668, 42.2298, 44.2111, 80.9964, -123.363
7.90411, 43, -32.6763, -18.6659, 42.2029, 44.2253, 81.0112, -123.233
7.91311, 43, -32.5587, -18.6647, 42.1753, 44.2389, 81.026, -123.102
7.92001, 43, -32.4998, -18.664, 42.1473, 44.2519, 81.0406, -122.972
7.92828, 43, -32.3225, -18.6615, 42.1189, 44.2645, 81.0548, -122.842
7.93531, 43, -32.2632, -18.6604, 42.1046, 44.2706, 81.0619, -122.777
7.94436, 44, -32.0849, -18.6566, 42.061, 44.2887, 81.0826, -122.582
7.9525, 44, -31.9654, -18.6536, 42.0313, 44.3003, 81.0961, -122.452
7.96137, 44, -31.8456, -18.6502, 42.0013, 44.3114, 81.1094, -122.322
7.96727, 44, -31.7856, -18.6483, 41.9861, 44.3168, 81.1161, -122.258
7.97663, 44, -31.6055, -18.6424, 41.9398, 44.3318, 81.1361, -122.064
7.98328, 44, -31.5454, -18.6403, 41.9242, 44.3365, 81.1428, -121.999
7.99267, 44, -31.3644, -18.6334, 41.8768, 44.3494, 81.163, -121.806
8.00197, 45, -31.2433, -18.6284, 41.8446, 44.3572, 81.1766, -121.677
8.00953, 45, -31.1218, -18.6232, 41.8118, 44.3643, 81.1898, -121.548
8.01525, 45, -31.0608, -18.6205, 41.7954, 44.3676, 81.1963, -121.484
8.02483, 45, -30.8777, -18.6123, 41.7453, 44.3767, 81.2153, -121.292
8.03371, 45, -30.7553, -18.6065, 41.7113, 44.3821, 81.2276, -121.164
8.04086, 45, -30.694, -18.6034, 41.677, 44.387, 81.2397, -121.036
8.04733, 45, -30.5709, -18.5968, 41.6597, 44.3892, 81.2457, -120.972
8.05632, 45, -30.4476, -18.59, 41.6247, 44.3931, 81.2577, -120.845
8.06428, 46, -30.3239, -18.5827, 41.5893, 44.3966, 81.2696, -120.717
8.07133, 46, -30.1997, -18.5752, 41.5535, 44.3995, 81.2816, -120.59
8.07941, 46, -30.0751, -18.5673, 41.5173, 44.4019, 81.2936, -120.463
8.08725, 46, -29.9502, -18.5592, 41.4805, 44.4036, 81.3058, -120.336
8.09532, 46, -29.8252, -18.5509, 41.4435, 44.4049, 81.318, -120.21
8.10326, 46, -29.6998, -18.5423, 41.4059, 44.4056, 81.3301, -120.083
8.11125, 46, -29.5742, -18.5332, 41.3678, 44.406, 81.342, -119.957
8.11925, 47, -29.4482, -18.5237, 41.3294, 44.4061, 81.3536, -119.831
8.13068, 47, -29.2586, -18.509, 41.2709, 44.4058, 81.3704, -119.642
8.13646, 47, -29.1951, -18.504, 41.2511, 44.4055, 81.376, -119.579
8.14425, 47, -29.0679, -18.4937, 41.2113, 44.4044, 81.3871, -119.453
8.15226, 47, -28.9405, -18.4832, 41.171, 44.4024, 81.3981, -119.327
8.16031, 47, -28.8127, -18.4722, 41.1302, 44.3997, 81.4091, -119.201
8.16829, 47, -28.6847, -18.4607, 41.0891, 44.3961, 81.4201, -119.076
8.17626, 48, -28.5564, -18.4488, 41.0475, 44.3919, 81.4312, -118.951
8.18425, 48, -28.4278, -18.4368, 41.0054, 44.3871, 81.4425, -118.825
8.19226, 48, -28.2988, -18.4246, 40.9629, 44.3815, 81.4539, -118.7
8.19925, 48, -28.1694, -18.4118, 40.9199, 44.3752, 81.4654, -118.576
8.20749, 48, -28.0398, -18.3986, 40.8765, 44.3682, 81.4768, -118.451
8.21629, 48, -27.91, -18.3851, 40.8326, 44.3605, 81.488, -118.326
8.22326, 48, -27.7797, -18.3713, 40.7881, 44.3521, 81.499, -118.202
8.23147, 48, -27.6491, -18.3574, 40.7432, 44.3429, 81.5098, -118.077
8.23927, 49, -27.5179, -18.3429, 40.6978, 44.3329, 81.5205, -117.953
8.24729, 49, -27.3862, -18.3278, 40.6519, 44.322, 81.531, -117.828
8.25642, 49, -27.2541, -18.3126, 40.6056, 44.3101, 81.5416, -117.704
8.26417, 49, -27.1217, -18.2973, 40.5587, 44.2973, 81.5521, -117.58
8.27135, 49, -26.9891, -18.2812, 40.5113, 44.2837, 81.5629, -117.456
8.27942, 49, -26.856, -18.2646, 40.4634, 44.2695, 81.5738, -117.332
8.28734, 49, -26.7227, -18.2479, 40.4151, 44.255, 81.5848, -117.208
8.29544, 50, -26.5891, -18.2309, 40.3662, 44.2398, 81.5961, -117.084
8.30742, 50, -26.3879, -18.2043, 40.2921, 44.216, 81.6133, -116.898
8.31245, 50, -26.3207, -18.1953, 40.2671, 44.2078, 81.619, -116.836
8.32131, 50, -26.186, -18.1771, 40.2168, 44.1905, 81.6304, -116.712
8.32741, 50, -26.051, -18.1583, 40.1659, 44.1722, 81.6417, -116.588
8.33539, 50, -25.9154, -18.139, 40.1146, 44.153, 81.6528, -116.464
8.34369, 50, -25.7796, -18.1195, 40.0628, 44.133, 81.664, -116.341
8.35162, 51, -25.6435, -18.0993, 40.0104, 44.1127, 81.6751, -116.217
8.36043, 51, -25.5069, -18.0788, 39.9575, 44.092, 81.6864, -116.094
8.36766, 51, -25.3699, -18.0579, 39.9041, 44.0707, 81.6977, -115.97
8.37578, 51, -25.2326, -18.0366, 39.8501, 44.0484, 81.7093, -115.847
8.38473, 51, -25.095, -18.0148, 39.7956, 44.025, 81.7209, -115.723
8.39288, 51, -24.957, -17.9927, 39.7406, 44.0004, 81.733, -115.6
8.39985, 51, -24.8189, -17.9701, 39.6851, 43.9755, 81.7454, -115.476
8.40912, 52, -24.6805, -17.9471, 39.6292, 43.9501, 81.7579, -115.353
8.41588, 52, -24.611, -17.9355, 39.601, 43.9241, 81.7705, -115.23
8.42436, 52, -24.402, -17.8996, 39.5157, 43.897, 81.783, -115.106
8.43335, 52, -24.262, -17.8752, 39.4582, 43.8685, 81.7953, -114.983
8.44132, 52, -24.1215, -17.8504, 39.4002, 43.8396, 81.8075, -114.859
8.44729, 52, -24.0511, -17.8377, 39.3709, 43.8251, 81.8137, -114.797
8.45643, 52, -23.8392, -17.7994, 39.2824, 43.7807, 81.8321, -114.612
8.46328, 52, -23.7685, -17.7864, 39.2527, 43.7655, 81.8383, -114.551
8.47131, 53, -23.6266, -17.7599, 39.1927, 43.7337, 81.8508, -114.427
8.48467, 53, -23.3417, -17.7058, 39.0712, 43.6684, 81.8767, -114.182
8.4874, 53, -23.3417, -17.7058, 39.0712, 43.6684, 81.8767, -114.182
8.49528, 53, -23.1989, -17.6782, 39.0097, 43.635, 81.8903, -114.059
8.50487, 53, -22.9841, -17.6358, 38.9166, 43.5825, 81.9108, -113.874
8.51279, 53, -22.8404, -17.6071, 38.8538, 43.5465, 81.9245, -113.751
8.52077, 53, -22.6963, -17.5778, 38.7906, 43.5105, 81.9382, -113.627
8.52886, 54, -22.5518, -17.5482, 38.7267, 43.4735, 81.9518, -113.504
8.53784, 54, -22.4069, -17.5179, 38.6624, 43.4349, 81.9654, -113.381
8.54478, 54, -22.3343, -17.5026, 38.63, 43.4152, 81.9792, -113.258
8.55222, 54, -22.1888, -17.4717, 38.5648, 43.3761, 81.9862, -113.196
8.5617, 54, -22.0427, -17.4405, 38.4992, 43.3362, 82.0075, -113.012
8.56969, 54, -21.8964, -17.3927, 38.3998, 43.2735, 82.0222, -112.889
8.57523, 54, -21.7497, -17.3766, 38.3664, 43.2525, 82.0297, -112.827
8.58346, 55, -21.6024, -17.3439, 38.2993, 43.2105, 82.0449, -112.704
8.5942, 55, -21.3809, -17.2942, 38.1977, 43.1442, 82.0678, -112.519
8.59925, 55, -21.3069, -17.2773, 38.1636, 43.1218, 82.0753, -112.457
8.61047, 55, -21.0842, -17.2262, 38.0606, 43.0543, 82.0979, -112.273
8.61822, 55, -21.0098, -17.2089, 38.0259, 43.0309, 82.113, -112.15
8.62323, 55, -20.8607, -17.1742, 37.9562, 42.9832, 82.1205, -112.088
8.63127, 55, -20.711, -17.1389, 37.886, 42.9357, 82.1357, -111.965
8.63931, 55, -20.5608, -17.1032, 37.8153, 42.8871, 82.1511, -111.843
8.64723, 56, -20.4102, -17.0672, 37.7441, 42.8369, 82.167, -111.72
8.65528, 56, -20.259, -17.0308, 37.6725, 42.7869, 82.1832, -111.597
8.66346, 56, -20.1074, -16.9939, 37.6006, 42.7355, 82.1997, -111.474
8.67232, 56, -19.9554, -16.9566, 37.528, 42.6829, 82.2161, -111.351
8.68023, 56, -19.803, -16.919, 37.4551, 42.6305, 82.2322, -111.229
8.68823, 56, -19.6504, -16.8809, 37.3816, 42.5763, 82.2485, -111.106
8.69523, 56, -19.4977, -16.8424, 37.3076, 42.5213, 82.2647, -110.983
8.70325, 57, -19.3446, -16.8036, 37.2331, 42.4661, 82.2812, -110.861
8.71287, 57, -19.1911, -16.7644, 37.1581, 42.4088, 82.2979, -110.738
8.72103, 57, -19.0371, -16.7247, 37.0827, 42.3519, 82.315, -110.615
8.7273, 57, -18.8826, -16.6848, 37.0069, 42.2932, 82.3326, -110.493
8.73532, 57, -18.7277, -16.6444, 36.9308, 42.2338, 82.3503, -110.37
8.74326, 57, -18.5723, -16.6036, 36.8541, 42.1738, 82.3678, -110.247
8.75136, 57, -18.4163, -16.5624, 36.777, 42.1121, 82.3852, -110.125
8.76277, 58, -18.1812, -16.4998, 36.6604, 42.0191, 82.4112, -109.941
8.76822, 58, -18.1026, -16.4788, 36.6213, 41.987, 82.4199, -109.88
8.77535, 58, -17.945, -16.4364, 36.5427, 41.9234, 82.4376, -109.758
8.78334, 58, -17.787, -16.3936, 36.4636, 41.8583, 82.4557, -109.635
8.79148, 58, -17.6287, -16.3505, 36.3842, 41.7928, 82.4743, -109.513
8.80024, 58, -17.4699, -16.307, 36.3045, 41.7262, 82.4929, -109.391
8.80723, 58, -17.3106, -16.2632, 36.2244, 41.6583, 82.5115, -109.269
8.81527, 58, -17.151, -16.2191, 36.1438, 41.5901, 82.53, -109.147
8.82341, 59, -16.9909, -16.1746, 36.0627, 41.5202, 82.5485, -109.024
8.83134, 59, -16.8303, -16.1297, 35.981, 41.4501, 82.5672, -108.902
8.83963, 59, -16.6693, -16.0845, 35.8989, 41.3783, 82.5862, -108.78
8.84841, 59, -16.5079, -16.0388, 35.8165, 41.3061, 82.6056, -108.658
8.85559, 59, -16.3459, -15.9928, 35.7337, 41.2324, 82.6256, -108.536
8.86357, 59, -16.1837, -15.9464, 35.6505, 41.1584, 82.6455, -108.414
8.87169, 59, -16.0208, -15.8996, 35.567, 41.0826, 82.6652, -108.292
8.88038, 60, -15.8578, -15.8524, 35.483, 41.0063, 82.6848, -108.17
8.8916, 60, -15.6943, -15.8047, 35.3986, 40.929, 82.7045, -107.987
8.89679, 60, -15.53, -15.7566, 35.3136, 40.8507, 82.7243, -107.926
8.90436, 60, -15.3652, -15.7082, 35.2282, 40.7714, 82.7446, -107.803
8.91247, 60, -15.1997, -15.6594, 35.1423, 40.6911, 82.7655, -107.681
8.91984, 60, -15.1168, -15.6348, 35.0992, 40.6506, 82.7865, -107.559
8.92832, 60, -14.8675, -15.5605, 34.9695, 40.5274, 82.8073, -107.438
8.93685, 61, -14.7008, -15.5105, 34.8826, 40.4439, 82.8282, -107.316
8.94639, 61, -14.5335, -15.4602, 34.7953, 40.3594, 82.8491, -107.194
8.95236, 61, -14.3655, -15.4095, 34.7075, 40.2739, 82.8703, -107.071
8.95921, 61, -14.2813, -15.3839, 34.6634, 40.2307, 82.8811, -107.01
8.96936, 61, -14.0275, -15.3068, 34.5303, 40.0999, 82.9143, -106.827
8.97657, 61, -13.9427, -15.2549, 34.4411, 40.0115, 82.9367, -106.705
8.98452, 61, -13.6876, -15.2026, 34.3517, 39.9219, 82.959, -106.582
8.99126, 61, -13.6024, -15.1763, 34.3068, 39.8767, 82.9701, -106.521
9.00067, 62, -13.3464, -15.0967, 34.1717, 39.7395, 83.0035, -106.338
9.00721, 62, -13.2609, -15.0699, 34.1265, 39.6931, 83.0148, -106.277
9.01739, 62, -13.0037, -14.9891, 33.9899, 39.5524, 83.0496, -106.093
9.02337, 62, -12.9178, -14.9619, 33.9441, 39.5051, 83.0615, -106.032
9.03281, 62, -12.6589, -14.8798, 33.806, 39.3612, 83.097, -105.848
9.041, 62, -12.4854, -14.8246, 33.7136, 39.264, 83.1207, -105.725
9.04876, 62, -12.3983, -14.7968, 33.6673, 39.215, 83.1326, -105.602
9.05624, 63, -12.2237, -14.741, 33.5744, 39.1162, 83.1566, -105.541
9.06917, 63, -11.9609, -14.6564, 33.4342, 38.9657, 83.194, -105.296
9.07141, 63, -11.873, -14.6281, 33.3872, 38.9151, 83.2068, -105.296
9.07927, 63, -11.6967, -14.571, 33.2928, 38.8128, 83.2323, -105.173
9.08721, 63, -11.5198, -14.5134, 33.1979, 38.7093, 83.2578, -105.05
9.09521, 63, -11.3423, -14.4554, 33.1027, 38.6047, 83.2832, -104.927
9.10329, 63, -11.1642, -14.3968, 33.0071, 38.499, 83.3091, -104.803
9.11218, 64, -10.9856, -14.3378, 32.9113, 38.3922, 83.3359, -104.68
9.12026, 64, -10.8063, -14.2782, 32.815, 38.2844, 83.3632, -104.556
9.12722, 64, -10.6265, -14.218, 32.7183, 38.1753, 83.3904, -104.432
9.13529, 64, -10.4462, -14.1573, 32.6211, 38.065, 83.4176, -104.309
9.14337, 64, -10.2656, -14.0962, 32.5233, 37.9535, 83.4451, -104.185
9.15125, 64, -10.0848, -14.0345, 32.4251, 37.8407, 83.4734, -104.061
9.15925, 64, -9.9036, -13.9724, 32.3268, 37.7269, 83.5025, -103.937
9.16726, 64, -9.72182, -13.9099, 32.2281, 37.6117, 83.5317, -103.813
9.17527, 65, -9.5391, -13.8469, 32.129, 37.4956, 83.5609, -103.688
9.18323, 65, -9.3555, -13.7834, 32.0294, 37.3785, 83.5902, -103.563
9.19271, 65, -9.17113, -13.7195, 31.9292, 37.26, 83.6206, -103.439
9.20104, 65, -8.98602, -13.6549, 31.8285, 37.1405, 83.6518, -103.313
9.2073, 65, -8.80033, -13.5899, 31.7276, 37.0196, 83.6831, -103.188
9.21521, 65, -8.61418, -13.5243, 31.6264, 36.8976, 83.7144, -103.063
9.22321, 65, -8.42761, -13.4582, 31.525, 36.7745, 83.7461, -102.938
9.23223, 66, -8.2405, -13.3915, 31.4232, 36.6502, 83.779, -102.813
9.23934, 66, -8.05249, -13.3242, 31.3208, 36.5248, 83.8124, -102.687
9.24836, 66, -7.86366, -13.2563, 31.2179, 36.3982, 83.8455, -102.561
9.25621, 66, -7.67411, -13.1879, 31.1145, 36.2706, 83.8788, -102.435
9.26354, 66, -7.48419, -13.1191, 31.011, 36.1415, 83.913, -102.309
9.27131, 66, -7.29404, -13.0498, 30.9074, 36.0113, 83.9481, -102.182
9.27938, 66, -7.10362, -12.98, 30.8033, 35.8799, 83.9831, -102.056
9.2881, 67, -6.9128, -12.9096, 30.6989, 35.7474, 84.0184, -101.929
9.29582, 67, -6.72149, -12.8388, 30.5938, 35.6137, 84.0545, -101.802
9.30428, 67, -6.52937, -12.7674, 30.4883, 35.4788, 84.0918, -101.675
9.31127, 67, -6.33662, -12.6954, 30.3826, 35.3428, 84.1289, -101.547
9.32016, 67, -6.14288, -12.6229, 30.2769, 35.2056, 84.166, -101.42
9.32774, 67, -5.94822, -12.5497, 30.1709, 35.0672, 84.2042, -101.292
9.33621, 67, -5.75296, -12.4759, 30.0645, 34.9278, 84.2434, -101.164
9.3445, 68, -5.55731, -12.4016, 29.9578, 34.7871, 84.2822, -101.036
9.35144, 68, -5.36116, -12.3268, 29.8504, 34.6453, 84.3215, -100.907
9.35986, 68, -5.16416, -12.2514, 29.7428, 34.5022, 84.3621, -100.779
9.36843, 68, -4.9663, -12.1755, 29.6352, 34.3581, 84.4033, -100.651
9.37803, 68, -4.76772, -12.0991, 29.5274, 34.2128, 84.4441, -100.522
9.38378, 68, -4.56855, -12.0222, 29.4194, 34.0663, 84.4859, -100.393
9.39231, 68, -4.36894, -11.9447, 29.311, 33.9187, 84.5288, -100.264
9.39977, 68, -4.169, -11.8667, 29.2021, 33.77, 84.5714, -100.134
9.40843, 69, -3.96898, -11.7882, 29.0929, 33.6202, 84.6144, -100.005
9.41758, 69, -3.76904, -11.7092, 28.9839, 33.4691, 84.6589, -99.8753
9.42446, 69, -3.56887, -11.6298, 28.8748, 33.3171, 84.7034, -99.7456
9.43242, 69, -3.36775, -11.5497, 28.7654, 33.1641, 84.7478, -99.6154
9.43919, 69, -3.26674, -11.5094, 28.7106, 33.0872, 84.7705, -99.5504
9.44825, 69, -2.96207, -11.3878, 28.5456, 32.8549, 84.8398, -99.3549
9.45519, 69, -2.86002, -11.347, 28.4903, 32.7769, 84.8628, -99.2895
9.46317, 70, -2.65572, -11.2649, 28.38, 32.62, 84.9093, -99.1586
9.47661, 70, -2.34854, -11.1408, 28.1595, 32.3032, 85.0051, -98.8963
9.47921, 70, -2.24584, -11.0992, 28.1595, 32.3032, 85.0051, -98.8963
9.4886, 70, -1.93657, -10.9737, 27.9938, 32.063, 85.0777, -98.6996
9.49522, 70, -1.83304, -10.9316, 27.9383, 31.9824, 85.1026, -98.634
9.50326, 70, -1.62538, -10.8469, 27.8272, 31.8204, 85.1518, -98.5025
9.5112, 70, -1.41693, -10.7617, 27.7162, 31.6573, 85.2016, -98.3709
9.52155, 71, -1.10393, -10.6329, 27.5498, 31.411, 85.2787, -98.1727
9.52733, 71, -0.99962, -10.5898, 27.4944, 31.3283, 85.3041, -98.1065
9.53681, 71, -0.68754, -10.4596, 27.3278, 31.0788, 85.382, -97.908
9.54506, 71, -0.479488, -10.3722, 27.2164, 30.9111, 85.4346, -97.7754
9.552, 71, -0.375141, -10.3283, 27.1606, 30.827, 85.4609, -97.709
9.55919, 71, -0.165746, -10.2401, 27.0491, 30.658, 85.5146, -97.5762
9.56958, 71, 0.150112, -10.107, 26.8823, 30.403, 85.5959, -97.3766
9.5793, 72, 0.361692, -10.0175, 26.7711, 30.2318, 85.6505, -97.2433
9.58419, 72, 0.467845, -9.97253, 26.7155, 30.1459, 85.6784, -97.1765
9.59226, 72, 0.680707, -9.88227, 26.6041, 29.9733, 85.7338, -97.0428
9.60023, 72, 0.894057, -9.79141, 26.4925, 29.7999, 85.7898, -96.909
9.60725, 72, 1.10781, -9.69993, 26.381, 29.6257, 85.847, -96.775
9.61519, 72, 1.32215, -9.60807, 26.2699, 29.4508, 85.9036, -96.6409
9.62333, 72, 1.53751, -9.51568, 26.1589, 29.275, 85.9617, -96.5067
9.6322, 72, 1.75368, -9.42282, 26.048, 29.0983, 86.02, -96.3725
9.64025, 73, 1.96973, -9.32938, 25.9369, 28.9208, 86.0787, -96.2383
9.64821, 73, 2.18532, -9.2354, 25.8255, 28.7425, 86.1388, -96.1036
9.6562, 73, 2.4003, -9.14089, 25.7143, 28.5635, 86.1983, -95.9686
9.66322, 73, 2.61496, -9.04592, 25.6037, 28.3835, 86.2593, -95.8335
9.67119, 73, 2.82991, -8.9504, 25.4932, 28.203, 86.3206, -95.6981
9.67928, 73, 3.04534, -8.85433, 25.3829, 28.0219, 86.3825, -95.5626
9.68725, 73, 3.26186, -8.7578, 25.2724, 27.84, 86.4454, -95.427
9.69536, 74, 3.47949, -8.6607, 25.1618, 27.6574, 86.508, -95.2912
9.70358, 74, 3.69769, -8.56302, 25.0515, 27.4741, 86.5722, -95.1551
9.71127, 74, 3.91626, -8.46477, 24.9416, 27.2901, 86.6361, -95.0188
9.7192, 74, 4.13518, -8.36594, 24.8321, 27.1056, 86.7016, -94.8821
9.72725, 74, 4.35514, -8.26656, 24.7227, 26.9206, 86.7668, -94.7453
9.73527, 74, 4.57627, -8.16655, 24.6132, 26.735, 86.8333, -94.6084
9.74464, 74, 4.79787, -8.066, 24.5036, 26.5489, 86.9002, -94.4711
9.75311, 74, 5.01892, -7.96496, 24.3944, 26.3622, 86.9677, -94.3339
9.7602, 75, 5.23949, -7.8634, 24.2856, 26.1751, 87.0362, -94.1968
9.76734, 75, 5.45955, -7.76118, 24.1772, 25.9876, 87.1047, -94.0591
9.77536, 75, 5.67891, -7.65833, 24.0691, 25.7993, 87.1748, -93.9215
9.7833, 75, 5.89762, -7.55499, 23.9611, 25.6108, 87.2448, -93.7834
9.7913, 75, 6.11664, -7.45095, 23.8528, 25.422, 87.3163, -93.6449
9.80033, 75, 6.33646, -7.34643, 23.7449, 25.2328, 87.3872, -93.5067
9.80819, 75, 6.55723, -7.24142, 23.6376, 25.0432, 87.4597, -93.368
9.81522, 76, 6.77825, -7.1358, 23.5308, 24.8534, 87.5325, -93.2292
9.82406, 76, 6.99949, -7.02949, 23.4243, 24.6632, 87.6065, -93.0903
9.83136, 76, 7.22143, -6.92256, 23.3178, 24.4728, 87.6805, -92.951
9.83931, 76, 7.44444, -6.81492, 23.2113, 24.2821, 87.7557, -92.8115
9.84835, 76, 7.66813, -6.70665, 23.105, 24.0911, 87.8314, -92.6716
9.8555, 76, 7.8921, -6.59786, 22.9995, 23.9, 87.9082, -92.5312
9.86349, 76, 8.11596, -6.48847, 22.8945, 23.7086, 87.9856, -92.3909
9.87191, 77, 8.33934, -6.37846, 22.7898, 23.5171, 88.0638, -92.2502
9.88089, 77, 8.56174, -6.26772, 22.6853, 23.3255, 88.1428, -92.1096
9.88834, 77, 8.78283, -6.15629, 22.5808, 23.1336, 88.2221, -91.9688
9.89579, 77, 9.00314, -6.04428, 22.4766, 22.9419, 88.3025, -91.8278
9.90473, 77, 9.22337, -5.93171, 22.373, 22.7501, 88.3834, -91.6864
9.91179, 77, 9.44391, -5.81856, 22.2701, 22.5586, 88.4654, -91.5447
9.92054, 77, 9.6646, -5.70488, 22.1676, 22.3669, 88.5476, -91.4026
9.92923, 77, 9.8856, -5.59036, 22.0653, 22.1752, 88.6311, -91.2603
9.93521, 78, 9.99633, -5.53279, 22.0142, 22.0795, 88.6729, -91.1891
9.94427, 78, 10.3295, -5.35914, 21.8611, 21.7924, 88.7996, -90.9751
9.95118, 78, 10.4408, -5.30091, 21.8103, 21.6969, 88.8422, -90.9037
9.96028, 78, 10.7749, -5.12538, 21.6589, 21.4104, 88.9713, -90.6887
9.97063, 78, 10.998, -5.00767, 21.5588, 21.2197, 89.0585, -90.545
9.97536, 78, 11.1095, -4.94857, 21.5088, 21.1244, 89.1021, -90.473
9.98315, 78, 11.3322, -4.82978, 21.409, 20.9339, 89.19, -90.3287
9.99253, 79, 11.6638, -4.64998, 21.2598, 20.6488, 89.3237, -90.1121
9.99922, 79, 11.7738, -4.58974, 21.2101, 20.5539, 89.3685, -90.0397
10.0087, 79, 12.1027, -4.40808, 21.0623, 20.2695, 89.5042, -89.8223
10.0167, 79, 12.3211, -4.28625, 20.9646, 20.0804, 89.5958, -89.6772
10.0248, 79, 12.5388, -4.16365, 20.8673, 19.8919, 89.688, -89.5316
10.0327, 79, 12.7564, -4.04014, 20.7703, 19.7037, 89.7811, -89.3857
10.0408, 79, 12.9745, -3.91584, 20.6735, 19.5161, 89.8751, -89.2392
10.0514, 80, 13.1927, -3.79077, 20.5772, 19.3291, 89.9696, -89.0926
10.0561, 80, 13.3018, -3.72801, 20.5292, 19.2357, 90.0171, -89.0192
10.0633, 80, 13.5202, -3.60204, 20.4335, 19.0496, 90.1129, -88.8721
10.0723, 80, 13.7392, -3.47541, 20.3386, 18.864, 90.2096, -88.7248
10.0802, 80, 13.9583, -3.34793, 20.2441, 18.6789, 90.3069, -88.5774
10.0872, 80, 14.1771, -3.21953, 20.15, 18.4946, 90.4051, -88.4291
10.0955, 80, 14.3946, -3.09037, 20.0562, 18.3109, 90.5042, -88.2805
10.1042, 80, 14.6108, -2.96057, 19.9628, 18.1278, 90.6038, -88.1313
10.1122, 81, 14.8263, -2.83016, 19.8698, 17.9454, 90.7045, -87.9818
10.1202, 81, 15.0407, -2.69898, 19.7773, 17.7638, 90.8059, -87.8321
10.1282, 81, 15.2538, -2.5669, 19.6854, 17.583, 90.9078, -87.6821
10.1362, 81, 15.4661, -2.43393, 19.594, 17.4031, 91.0108, -87.5319
10.1466, 81, 15.7838, -2.23298, 19.4576, 17.1345, 91.1666, -87.306
10.1524, 81, 15.8897, -2.16569, 19.4123, 17.0454, 91.219, -87.2304
10.1602, 81, 16.1011, -2.03058, 19.322, 16.868, 91.3245, -87.0789
10.1682, 82, 16.312, -1.89459, 19.2321, 16.6914, 91.4308, -86.9271
10.1763, 82, 16.523, -1.75748, 19.1426, 16.5159, 91.538, -86.7745
10.1842, 82, 16.7343, -1.61953, 19.0537, 16.3412, 91.6462, -86.6216
10.1922, 82, 16.9453, -1.48084, 18.9654, 16.1676, 91.7549, -86.4687
10.2002, 82, 17.1555, -1.3415, 18.8774, 15.9952, 91.8647, -86.315
10.2082, 82, 17.3646, -1.20128, 18.7899, 15.8238, 91.9752, -86.1609
10.2162, 82, 17.5729, -1.05995, 18.7027, 15.6535, 92.0864, -86.0063
10.2234, 83, 17.7799, -0.917737, 18.6159, 15.4843, 92.1989, -85.8511
10.2317, 83, 17.9854, -0.774807, 18.5294, 15.316, 92.3118, -85.6956
10.2392, 83, 18.1894, -0.631287, 18.4434, 15.1492, 92.4258, -85.5395
10.2473, 83, 18.3923, -0.487002, 18.3578, 14.9835, 92.5408, -85.3832
10.2556, 83, 18.5946, -0.341692, 18.2728, 14.819, 92.6562, -85.2264
10.2633, 83, 18.7962, -0.19538, 18.1882, 14.6558, 92.7729, -85.0691
10.2717, 83, 18.9974, -0.0482487, 18.1039, 14.4937, 92.8901, -84.9112
10.2804, 84, 19.198, 0.0995334, 18.02, 14.333, 93.0081, -84.7526
10.2873, 84, 19.3984, 0.2481, 17.9364, 14.1737, 93.1273, -84.5939
10.2954, 84, 19.5983, 0.397863, 17.8532, 14.0157, 93.2471, -84.4346
10.3032, 84, 19.7978, 0.548734, 17.7704, 13.8591, 93.368, -84.2749
10.3112, 84, 19.9964, 0.700443, 17.6882, 13.7037, 93.4893, -84.1148
10.322, 84, 20.1941, 0.852737, 17.6065, 13.5497, 93.6116, -83.9538
10.33, 84, 20.3907, 1.00583, 17.5251, 13.3972, 93.7347, -83.7923
10.3363, 84, 20.5863, 1.16011, 17.4441, 13.2461, 93.8584, -83.6302
10.3433, 85, 20.7802, 1.31533, 17.3635, 13.0966, 93.9831, -83.4676
10.3515, 85, 20.9727, 1.47123, 17.2832, 12.9484, 94.1082, -83.3045
10.3594, 85, 21.1637, 1.62756, 17.2033, 12.8017, 94.2343, -83.1411
10.3675, 85, 21.3533, 1.7847, 17.1239, 12.6566, 94.3608, -82.9772
10.376, 85, 21.5417, 1.94294, 17.0449, 12.5131, 94.4883, -82.8128
10.3843, 85, 21.7295, 2.10217, 16.9664, 12.3712, 94.6164, -82.6476
10.3917, 85, 21.9164, 2.2619, 16.8883, 12.231, 94.745, -82.4822
10.4039, 86, 22.1956, 2.50247, 16.772, 12.0237, 94.9397, -82.2326
10.4088, 86, 22.2883, 2.58322, 16.7335, 11.9553, 95.0049, -82.1493
10.4163, 86, 22.4732, 2.74561, 16.6566, 11.8199, 95.136, -81.9824
10.424, 86, 22.5653, 2.90881, 16.5802, 11.6862, 95.2675, -81.8147
10.433, 86, 22.8406, 3.07235, 16.5043, 11.5543, 95.4001, -81.6467
10.4402, 86, 23.0229, 3.23662, 16.4289, 11.424, 95.5329, -81.4778
10.448, 86, 23.1137, 3.31918, 16.3914, 11.3594, 95.5995, -81.3933
10.4561, 87, 23.2943, 3.48513, 16.2797, 11.1684, 95.8006, -81.1391
10.4632, 87, 23.4737, 3.65186, 16.2427, 11.1055, 95.8678, -81.054
10.4726, 87, 23.7399, 3.90209, 16.1324, 10.9195, 96.0704, -80.7985
10.4792, 87, 23.8277, 3.98572, 16.0959, 10.8584, 96.138, -80.7131
10.4894, 87, 24.0886, 4.23804, 15.987, 10.6775, 96.3418, -80.456
10.4976, 87, 24.2606, 4.40687, 15.915, 10.5592, 96.4778, -80.2839
10.5055, 87, 24.4316, 4.57561, 15.8434, 10.4427, 96.6145, -80.1117
10.5112, 87, 24.5169, 4.66007, 15.8078, 10.385, 96.6828, -80.0254
10.5211, 88, 24.7712, 4.91505, 15.702, 10.2147, 96.8882, -79.7661
10.5272, 88, 24.8555, 5.00058, 15.6671, 10.1589, 96.9568, -79.6794
10.5367, 88, 25.1071, 5.2576, 15.5632, 9.99382, 97.1628, -79.4184
10.5448, 88, 25.1905, 5.42889, 15.4947, 9.88604, 97.3004, -79.2438
10.5528, 88, 25.3567, 5.51483, 15.4267, 9.78015, 97.4382, -79.0687
10.5607, 88, 25.5221, 5.68761, 15.3929, 9.72782, 97.5072, -78.9811
10.5682, 88, 25.6865, 5.8611, 15.3256, 9.62465, 97.6452, -78.8058
10.577, 89, 25.8501, 6.0344, 15.2591, 9.52334, 97.7832, -78.6302
10.5835, 89, 26.0125, 6.20774, 15.193, 9.42364, 97.9211, -78.4544
10.5912, 89, 26.1734, 6.38189, 15.1277, 9.32564, 98.0594, -78.2779
10.5992, 89, 26.3329, 6.55675, 15.0628, 9.22962, 98.1974, -78.1012
10.6072, 89, 26.4909, 6.73148, 14.9987, 9.13524, 98.3358, -77.9241
10.6152, 89, 26.6472, 6.9058, 14.9353, 9.04279, 98.4742, -77.7466
10.6233, 89, 26.802, 7.08066, 14.8724, 8.95227, 98.6128, -77.5692
10.6321, 90, 26.9554, 7.25633, 14.8102, 8.8634, 98.7511, -77.391
10.6403, 90, 27.1073, 7.43219, 14.7485, 8.77629, 98.8897, -77.2127
10.6482, 90, 27.2581, 7.60767, 14.6874, 8.69128, 99.0279, -77.0338
10.6562, 90, 27.4076, 7.78362, 14.6269, 8.60762, 99.1663, -76.8548
10.6642, 90, 27.5558, 7.96041, 14.5671, 8.52616, 99.3045, -76.6754
10.673, 90, 27.7033, 8.13765, 14.5078, 8.44596, 99.4425, -76.496
10.6793, 90, 27.8501, 8.31446, 14.4493, 8.36807, 99.5803, -76.3162
10.6872, 90, 27.9962, 8.49116, 14.3913, 8.29154, 99.7179, -76.1361
10.6952, 91, 28.1417, 8.66865, 14.334, 8.21721, 99.8556, -75.9555
10.7032, 91, 28.286, 8.84661, 14.2773, 8.14455, 99.9929, -75.7748
10.7113, 91, 28.4294, 9.02418, 14.2212, 8.07397, 100.13, -75.5939
10.7192, 91, 28.5717, 9.20157, 14.1656, 8.00471, 100.268, -75.4127
10.7272, 91, 28.7127, 9.3798, 14.1107, 7.93761, 100.405, -75.2313
10.7353, 91, 28.8524, 9.5587, 14.0562, 7.87176, 100.542, -75.0492
10.7432, 91, 28.9907, 9.73746, 14.0023, 7.80852, 100.679, -74.8667
10.7514, 92, 29.1279, 9.91583, 13.949, 7.746, 100.816, -74.6839
10.7596, 92, 29.2636, 10.0948, 13.8962, 7.68617, 100.953, -74.5007
10.7673, 92, 29.3981, 10.2745, 13.8439, 7.62754, 101.089, -74.3174
10.7753, 92, 29.5309, 10.4542, 13.7922, 7.57078, 101.226, -74.1337
10.7837, 92, 29.6623, 10.6334, 13.741, 7.51645, 101.362, -73.9496
10.7913, 92, 29.7921, 10.813, 13.6904, 7.46263, 101.499, -73.7648
10.7994, 92, 29.9204, 10.9935, 13.6403, 7.41166, 101.635, -73.5798
10.8081, 93, 30.0477, 11.1741, 13.5907, 7.36232, 101.771, -73.3943
10.8161, 93, 30.1741, 11.3543, 13.5415, 7.31414, 101.907, -73.2085
10.8232, 93, 30.2997, 11.5345, 13.4928, 7.26885, 102.043, -73.0224
10.8312, 93, 30.4242, 11.7158, 13.4447, 7.22526, 102.179, -72.8356
10.8402, 93, 30.5479, 11.8976, 13.397, 7.1824, 102.315, -72.6483
10.8485, 93, 30.6706, 12.0791, 13.3499, 7.14211, 102.451, -72.4605
10.8571, 93, 30.7924, 12.261, 13.3033, 7.1042, 102.586, -72.2724
10.8635, 93, 30.9134, 12.444, 13.2571, 7.06749, 102.722, -72.0839
10.8715, 94, 31.0332, 12.6276, 13.2114, 7.03204, 102.857, -71.8951
10.8797, 94, 31.1522, 12.8105, 13.1662, 6.99917, 102.993, -71.7057
10.8884, 94, 31.2699, 12.9935, 13.1215, 6.96831, 103.128, -71.5155
10.8957, 94, 31.3863, 13.177, 13.0773, 6.93909, 103.263, -71.3251
10.9043, 94, 31.5012, 13.3607, 13.0336, 6.91104, 103.398, -71.1343
10.9117, 94, 31.615, 13.5436, 12.9904, 6.88459, 103.532, -70.9431
10.9229, 94, 31.7275, 13.7265, 12.9477, 6.86053, 103.667, -70.7515
10.9283, 95, 31.8388, 13.9102, 12.9055, 6.83843, 103.801, -70.5592
10.9357, 95, 31.894, 14.0023, 12.8846, 6.82813, 103.868, -70.4629
10.9442, 95, 32.0579, 14.2781, 12.8227, 6.7998, 104.069, -70.1732
10.9511, 95, 32.1119, 14.3698, 12.8024, 6.79115, 104.135, -70.0765
10.9602, 95, 32.2719, 14.6455, 12.7421, 6.76727, 104.335, -69.7859
10.9672, 95, 32.3245, 14.7377, 12.7222, 6.76007, 104.401, -69.689
10.9764, 95, 32.4809, 15.0137, 12.6637, 6.74111, 104.6, -69.3972
10.9831, 96, 32.5326, 15.1055, 12.6445, 6.73566, 104.666, -69.2996
10.9933, 96, 32.6861, 15.3816, 12.5876, 6.72226, 104.863, -69.0067
10.9991, 96, 32.7368, 15.4739, 12.5689, 6.71865, 104.928, -68.9089
11.0087, 96, 32.8873, 15.7498, 12.5137, 6.71071, 105.124, -68.6152
11.0175, 96, 32.9862, 15.9331, 12.4777, 6.70751, 105.253, -68.4187
11.0232, 96, 33.0353, 16.0249, 12.46, 6.70649, 105.318, -68.3204
11.0327, 96, 33.1809, 16.3008, 12.4075, 6.70517, 105.511, -68.0248
11.0407, 96, 33.2769, 16.484, 12.3734, 6.70551, 105.64, -67.8275
11.0498, 97, 33.3246, 16.667, 12.34, 6.70748, 105.767, -67.6301
11.0568, 97, 33.4194, 16.7586, 12.307, 6.71147, 105.895, -67.4326
11.0642, 97, 33.5132, 16.9424, 12.2908, 6.71409, 105.958, -67.3336
11.0721, 97, 33.6059, 17.1258, 12.2588, 6.72067, 106.084, -67.1354
11.0802, 97, 33.6976, 17.3083, 12.2275, 6.72903, 106.21, -66.9368
11.0882, 97, 33.7883, 17.4906, 12.1967, 6.73933, 106.335, -66.7382
11.0962, 97, 33.878, 17.6734, 12.1665, 6.75158, 106.46, -66.5393
11.1042, 98, 33.9668, 17.8558, 12.1369, 6.7658, 106.584, -66.3404
11.1121, 98, 34.0546, 18.0374, 12.108, 6.78161, 106.707, -66.1408
11.1201, 98, 34.1415, 18.2189, 12.0796, 6.79862, 106.83, -65.9411
11.1282, 98, 34.2273, 18.401, 12.0517, 6.81697, 106.952, -65.7411
11.1362, 98, 34.3122, 18.5829, 12.0245, 6.83664, 107.073, -65.5409
11.1442, 98, 34.3961, 18.7638, 11.9979, 6.85783, 107.194, -65.3406
11.1522, 98, 34.4791, 18.9445, 11.9718, 6.88086, 107.314, -65.14
11.1601, 99, 34.5612, 19.1256, 11.9463, 6.90585, 107.434, -64.9389
11.1682, 99, 34.6425, 19.3067, 11.9214, 6.93222, 107.553, -64.7375
11.1762, 99, 34.7229, 19.4868, 11.8971, 6.95951, 107.671, -64.5358
11.1842, 99, 34.8025, 19.6665, 11.8733, 6.9879, 107.789, -64.3341
11.1923, 99, 34.8812, 19.8467, 11.85, 7.0178, 107.906, -64.1321
11.1991, 99, 34.959, 20.0267, 11.8274, 7.04989, 108.022, -63.9298
11.2071, 99, 35.0359, 20.2057, 11.8054, 7.08309, 108.138, -63.7272
11.2153, 99, 35.112, 20.384, 11.7842, 7.11721, 108.253, -63.5245
11.2231, 100, 35.1874, 20.5624, 11.7636, 7.1526, 108.366, -63.3218
11.2311, 100, 35.262, 20.7408, 11.7434, 7.19004, 108.479, -63.1193
11.2406, 100, 35.3357, 20.9183, 11.7241, 7.22852, 108.591, -62.9167
11.2481, 100, 35.4087, 21.095, 11.7055, 7.26753, 108.702, -62.7142
11.2553, 100, 35.4807, 21.2716, 11.6876, 7.30796, 108.812, -62.5117
11.2632, 100, 35.5522, 21.448, 11.6707, 7.35036, 108.921, -62.3094
11.2721, 100, 35.6231, 21.6232, 11.6545, 7.3931, 109.029, -62.1076
11.2793, 101, 35.6934, 21.7971, 11.6389, 7.43657, 109.135, -61.9063
11.2872, 101, 35.7629, 21.9704, 11.6243, 7.48195, 109.24, -61.7052
11.2961, 101, 35.8317, 22.143, 11.6104, 7.52781, 109.343, -61.5047
11.3033, 101, 35.8999, 22.3142, 11.5973, 7.57399, 109.445, -61.3049
11.3113, 101, 35.9673, 22.4838, 11.585, 7.62212, 109.545, -61.1058
11.3192, 101, 36.0342, 22.6527, 11.5736, 7.67081, 109.643, -60.9074
11.3272, 101, 36.1007, 22.8211, 11.5632, 7.71989, 109.74, -60.7097
11.3352, 102, 36.1668, 22.9883, 11.5534, 7.77052, 109.836, -60.5122
11.3444, 102, 36.2324, 23.154, 11.5444, 7.82145, 109.93, -60.3155
11.3513, 102, 36.2973, 23.3191, 11.5362, 7.87294, 110.022, -60.1192
11.3595, 102, 36.3617, 23.4842, 11.5284, 7.92589, 110.113, -59.9234
11.3685, 102, 36.4253, 23.6491, 11.5212, 7.97888, 110.203, -59.7284
11.3755, 102, 36.4882, 23.8133, 11.5148, 8.03322, 110.292, -59.5331
11.3837, 102, 36.5505, 23.9769, 11.5089, 8.08882, 110.38, -59.3378
11.3924, 102, 36.6121, 24.1411, 11.5034, 8.14476, 110.468, -59.1419
11.4004, 103, 36.6731, 24.3058, 11.4981, 8.20297, 110.556, -58.9455
11.4077, 103, 36.7335, 24.47, 11.4932, 8.26185, 110.644, -58.7483
11.4163, 103, 36.7934, 24.633, 11.4885, 8.32248, 110.733, -58.5505
11.4245, 103, 36.8528, 24.7949, 11.4841, 8.38469, 110.821, -58.3516
11.4318, 103, 36.9117, 24.9565, 11.4802, 8.4475, 110.909, -58.1522
11.4405, 103, 36.9701, 25.1169, 11.4769, 8.51262, 110.995, -57.9534
11.4471, 103, 36.9992, 25.1963, 11.4756, 8.545, 111.038, -57.8544
11.4552, 104, 37.0568, 25.3533, 11.4738, 8.61092, 111.12, -57.6578
11.4643, 104, 37.1423, 25.5851, 11.4732, 8.71107, 111.237, -57.3677
11.4712, 104, 37.1704, 25.6615, 11.4736, 8.74475, 111.273, -57.2723
11.4792, 104, 37.2262, 25.8126, 11.4755, 8.81269, 111.344, -57.0841
11.4888, 104, 37.309, 26.0344, 11.4815, 8.91458, 111.44, -56.8078
11.4973, 104, 37.3636, 26.179, 11.487, 8.98272, 111.499, -56.6273
11.5033, 104, 37.3908, 26.2505, 11.4902, 9.01675, 111.527, -56.5378
11.5127, 104, 37.472, 26.4624, 11.5007, 9.1203, 111.61, -56.2723
11.5215, 104, 37.5259, 26.6013, 11.5083, 9.18962, 111.662, -56.0967
11.5272, 104, 37.5528, 26.6701, 11.5121, 9.22471, 111.688, -56.0092
11.5369, 104, 37.6331, 26.8747, 11.5237, 9.32951, 111.766, -55.7473
11.5455, 104, 37.6862, 27.0107, 11.5317, 9.40043, 111.816, -55.5731
11.5513, 104, 37.7127, 27.0786, 11.5357, 9.4357, 111.841, -55.4861
11.5608, 104, 37.7656, 27.2145, 11.5438, 9.54328, 111.918, -55.2257
11.5681, 104, 37.8184, 27.3506, 11.5518, 9.5791, 111.943, -55.139
11.5752, 104, 37.8709, 27.4867, 11.56, 9.65181, 111.993, -54.9656
11.5842, 104, 37.9235, 27.6229, 11.568, 9.7244, 112.044, -54.7923
11.5921, 104, 37.9757, 27.7595, 11.5759, 9.79809, 112.093, -54.6193
11.5992, 104, 38.0279, 27.8965, 11.5838, 9.87144, 112.143, -54.4464
11.6071, 104, 38.08, 28.0338, 11.5917, 9.94591, 112.193, -54.2741
11.6151, 104, 38.1318, 28.171, 11.5997, 10.0203, 112.242, -54.1019
11.6231, 104, 38.1834, 28.3079, 11.6077, 10.0958, 112.292, -53.9299
11.6312, 104, 38.235, 28.445, 11.6156, 10.1711, 112.342, -53.758
11.6392, 104, 38.2862, 28.5824, 11.6233, 10.2475, 112.39, -53.586
11.6471, 104, 38.337, 28.7198, 11.6309, 10.324, 112.44, -53.4145
11.6551, 104, 38.3877, 28.8572, 11.6386, 10.4013, 112.489, -53.2431
11.6632, 104, 38.4381, 28.9943, 11.6463, 10.4786, 112.538, -53.0721
11.6712, 104, 38.4882, 29.1316, 11.6541, 10.5569, 112.587, -52.9011
11.6791, 104, 38.5382, 29.2689, 11.6617, 10.6353, 112.636, -52.7302
11.6881, 104, 38.588, 29.4065, 11.6692, 10.7141, 112.684, -52.5596
11.6962, 104, 38.6374, 29.5441, 11.6767, 10.7935, 112.733, -52.389
11.7041, 104, 38.6867, 29.6818, 11.684, 10.8733, 112.781, -52.2187
11.7112, 104, 38.7359, 29.8197, 11.6913, 10.9535, 112.829, -52.0488
11.7191, 104, 38.7848, 29.9578, 11.6987, 11.034, 112.877, -51.879
11.7271, 104, 38.8335, 30.0961, 11.706, 11.1155, 112.926, -51.7094
11.7352, 104, 38.8822, 30.2347, 11.7133, 11.1971, 112.973, -51.5397
11.7431, 104, 38.9308, 30.3735, 11.7206, 11.2793, 113.02, -51.3702
11.7513, 104, 38.9792, 30.5121, 11.728, 11.3619, 113.069, -51.2009
11.7593, 104, 39.0274, 30.6506, 11.7352, 11.4448, 113.115, -51.0317
11.7672, 104, 39.0754, 30.7892, 11.7422, 11.5283, 113.163, -50.8631
11.7752, 104, 39.1231, 30.9279, 11.7492, 11.6119, 113.211, -50.6943
11.7833, 104, 39.1704, 31.0659, 11.7563, 11.6964, 113.257, -50.5259
11.7913, 104, 39.2169, 31.2028, 11.7633, 11.7809, 113.304, -50.3576
11.7992, 104, 39.2624, 31.3379, 11.7701, 11.8655, 113.351, -50.1902
11.8073, 104, 39.3065, 31.4702, 11.7765, 11.9499, 113.397, -50.0243
11.8151, 104, 39.3489, 31.5975, 11.7824, 12.0331, 113.443, -49.8613
