rpiRobotics/ARM-21-02-F-19-Robot-Motion-Program/data_performance_abb/curve_2/baseline/100L/realrobot/bisect/run_0realrobot_curve_exe_v400_z10.csv
timestamp, cmd_num, J1, J2, J3, J4, J5, J6
0.000373, -1, 11.3784, 13.6124, 17.34, -145.519, -97.9231, 142.516
0.005616, -1, 11.3784, 13.6124, 17.34, -145.519, -97.9231, 142.516
0.007839, -1, 11.3784, 13.6124, 17.34, -145.519, -97.9231, 142.516
0.031264, -1, 11.3784, 13.6124, 17.34, -145.519, -97.923, 142.516
0.032537, -1, 11.3784, 13.6124, 17.34, -145.519, -97.923, 142.516
0.035098, -1, 11.3784, 13.6124, 17.34, -145.519, -97.923, 142.516
0.039718, -1, 11.3784, 13.6124, 17.34, -145.519, -97.923, 142.516
0.047814, -1, 11.3783, 13.6124, 17.34, -145.519, -97.9231, 142.516
0.05566, -1, 11.3776, 13.6123, 17.34, -145.519, -97.9231, 142.516
0.063664, -1, 11.3749, 13.6119, 17.3399, -145.519, -97.9229, 142.516
0.071686, -1, 11.3686, 13.6103, 17.3397, -145.518, -97.9215, 142.514
0.079737, -1, 11.3579, 13.6071, 17.3393, -145.511, -97.9147, 142.503
0.087644, -1, 11.3421, 13.6015, 17.3392, -145.494, -97.8972, 142.471
0.095655, -1, 11.3193, 13.5925, 17.3395, -145.461, -97.8635, 142.407
0.103743, -1, 11.2882, 13.5798, 17.3412, -145.403, -97.8065, 142.299
0.111652, -1, 11.2487, 13.5637, 17.3455, -145.316, -97.7173, 142.132
0.119653, -1, 11.2018, 13.5438, 17.3533, -145.193, -97.5918, 141.896
0.127727, -1, 11.1476, 13.52, 17.3652, -145.034, -97.4283, 141.589
0.135657, -1, 11.0857, 13.4924, 17.3808, -144.84, -97.2291, 141.216
0.143664, -1, 11.0167, 13.461, 17.3992, -144.618, -96.9999, 140.786
0.151783, -1, 10.9415, 13.4263, 17.4194, -144.375, -96.7479, 140.314
0.159656, -1, 10.86, 13.3886, 17.4405, -144.118, -96.4809, 139.814
0.167793, -1, 10.7719, 13.3483, 17.4613, -143.852, -96.2055, 139.298
0.177587, -1, 10.6777, 13.3063, 17.4817, -143.583, -95.9263, 138.776
0.183808, -1, 10.5803, 13.2634, 17.502, -143.313, -95.6464, 138.253
0.191752, -1, 10.4812, 13.22, 17.5221, -143.044, -95.367, 137.729
0.199751, -1, 10.3811, 13.1765, 17.5422, -142.775, -95.0884, 137.208
0.207817, -1, 10.2811, 13.1333, 17.5623, -142.508, -94.8109, 136.689
0.215762, -1, 10.1818, 13.0903, 17.582, -142.242, -94.5348, 136.172
0.223726, -1, 10.0836, 13.0476, 17.6019, -141.977, -94.2603, 135.657
0.232057, -1, 9.98652, 13.0052, 17.6217, -141.714, -93.987, 135.145
0.239716, -1, 9.89012, 12.9632, 17.6415, -141.452, -93.715, 134.636
0.247709, -1, 9.79446, 12.9214, 17.6614, -141.191, -93.4444, 134.13
0.256114, -1, 9.69953, 12.8799, 17.681, -140.931, -93.1749, 133.626
0.262632, -1, 9.65232, 12.8592, 17.6907, -140.802, -93.0406, 133.375
0.271935, -1, 9.5121, 12.7974, 17.7197, -140.416, -92.6396, 132.625
0.280182, -1, 9.41955, 12.7563, 17.739, -140.16, -92.374, 132.128
0.287974, -1, 9.32718, 12.7153, 17.7584, -139.906, -92.1097, 131.634
0.294635, -1, 9.28095, 12.6948, 17.7681, -139.779, -91.9781, 131.387
0.304142, -1, 9.14203, 12.6336, 17.7967, -139.4, -91.5851, 130.651
0.312141, -1, 9.04946, 12.5929, 17.8156, -139.149, -91.3249, 130.164
0.320256, -1, 8.95703, 12.5526, 17.8344, -138.9, -91.0661, 129.68
0.326628, -1, 8.9109, 12.5325, 17.8437, -138.775, -90.9371, 129.438
0.337061, -1, 8.77302, 12.4724, 17.8719, -138.404, -90.552, 128.717
0.342643, -1, 8.72726, 12.4526, 17.8813, -138.28, -90.4242, 128.477
0.352824, -1, 8.59016, 12.3934, 17.9092, -137.912, -90.0422, 127.762
0.359645, -1, 8.54464, 12.3738, 17.9185, -137.79, -89.9154, 127.525
0.367688, -1, 8.45404, 12.3347, 17.937, -137.547, -89.6625, 127.052
0.37463, -1, 8.36393, 12.2958, 17.9554, -137.305, -89.4106, 126.581
0.383652, -1, 8.27446, 12.2572, 17.9739, -137.063, -89.1598, 126.112
0.390627, -1, 8.18554, 12.2185, 17.9923, -136.823, -88.9101, 125.646
0.39964, -1, 8.09708, 12.18, 18.0105, -136.584, -88.6618, 125.182
0.407673, -1, 8.00932, 12.1418, 18.0285, -136.346, -88.4146, 124.719
0.414639, -1, 7.92206, 12.1034, 18.0465, -136.108, -88.1687, 124.259
0.423642, -1, 7.83529, 12.0653, 18.0644, -135.872, -87.9237, 123.8
0.431639, -1, 7.74911, 12.0274, 18.0822, -135.637, -87.6798, 123.344
0.438683, -1, 7.66347, 11.9895, 18.1002, -135.403, -87.4369, 122.889
0.44764, -1, 7.57825, 11.9519, 18.118, -135.17, -87.1952, 122.436
0.455632, -1, 7.49331, 11.9144, 18.1356, -134.938, -86.9545, 121.985
0.463709, -1, 7.40854, 11.8772, 18.1533, -134.707, -86.7145, 121.536
0.471637, -1, 7.32387, 11.8402, 18.1708, -134.476, -86.4755, 121.089
0.479735, -1, 7.23934, 11.8034, 18.188, -134.247, -86.2373, 120.644
0.488631, -1, 7.15506, 11.7668, 18.2054, -134.019, -86.0001, 120.2
0.495638, -1, 7.07091, 11.7303, 18.2229, -133.791, -85.7639, 119.758
0.503706, -1, 6.98701, 11.694, 18.2401, -133.565, -85.5286, 119.318
0.511701, -1, 6.90335, 11.6578, 18.2573, -133.339, -85.2943, 118.88
0.519683, -1, 6.81993, 11.6217, 18.2746, -133.114, -85.0608, 118.443
0.52764, -1, 6.73684, 11.5857, 18.2914, -132.89, -84.8283, 118.008
0.661524, -1, 5.41573, 11.0086, 18.563, -129.309, -81.1123, 111.056
0.663687, -1, 5.37677, 10.9916, 18.5709, -129.204, -81.003, 110.852
0.66496, -1, 5.37677, 10.9916, 18.5709, -129.204, -81.003, 110.852
0.667752, -1, 5.37677, 10.9916, 18.5788, -129.099, -80.8938, 110.647
0.669071, -1, 5.33783, 10.9746, 18.5788, -129.099, -80.8938, 110.647
0.670915, -1, 5.33783, 10.9578, 18.5868, -128.994, -80.7849, 110.443
0.672425, -1, 5.29895, 10.9578, 18.5868, -128.994, -80.7849, 110.443
0.676712, -1, 5.26015, 10.9409, 18.5948, -128.889, -80.6763, 110.24
0.817161, -1, 3.9469, 10.3667, 18.8641, -125.325, -76.977, 103.318
0.81852, -1, 3.9469, 10.3667, 18.8641, -125.325, -76.977, 103.318
0.82054, -1, 3.91029, 10.3508, 18.8717, -125.225, -76.8743, 103.126
0.821797, -1, 3.91029, 10.3508, 18.8717, -125.225, -76.8743, 103.126
0.82305, -1, 3.91029, 10.3508, 18.8717, -125.225, -76.8743, 103.126
0.825774, -1, 3.87367, 10.3349, 18.8793, -125.126, -76.7717, 102.933
0.826963, -1, 3.87367, 10.3349, 18.8793, -125.126, -76.7717, 102.933
0.832278, -1, 3.80053, 10.3031, 18.8943, -124.929, -76.5669, 102.55
0.833737, -1, 3.80053, 10.3031, 18.8943, -124.929, -76.5669, 102.55
0.834955, -1, 3.80053, 10.3031, 18.8943, -124.929, -76.5669, 102.55
0.837029, -1, 3.76405, 10.2873, 18.9017, -124.83, -76.4647, 102.359
0.838226, -1, 3.76405, 10.2873, 18.9017, -124.83, -76.4647, 102.359
0.840273, -1, 3.72763, 10.2715, 18.9091, -124.732, -76.3625, 102.168
0.841701, -1, 3.72763, 10.2715, 18.9091, -124.732, -76.3625, 102.168
0.842935, -1, 3.72763, 10.2715, 18.9091, -124.732, -76.3625, 102.168
0.845129, -1, 3.69126, 10.2557, 18.9165, -124.634, -76.2604, 101.977
0.846361, -1, 3.69126, 10.2557, 18.9165, -124.634, -76.2604, 101.977
0.848995, -1, 3.69126, 10.2557, 18.9165, -124.634, -76.2604, 101.786
0.850269, -1, 3.65496, 10.2399, 18.924, -124.536, -76.1585, 101.786
0.85156, -1, 3.65496, 10.2399, 18.924, -124.536, -76.1585, 101.786
0.854375, -1, 3.61872, 10.2242, 18.9315, -124.438, -76.0569, 101.596
0.855616, -1, 3.61872, 10.2242, 18.9315, -124.438, -76.0569, 101.596
0.859641, -1, 3.58252, 10.2085, 18.9389, -124.34, -75.9553, 101.406
0.861871, -1, 3.54641, 10.1928, 18.9463, -124.242, -75.8538, 101.216
0.86312, -1, 3.54641, 10.1928, 18.9463, -124.242, -75.8538, 101.216
0.86511, -1, 3.51041, 10.1771, 18.9536, -124.145, -75.7525, 101.027
0.866525, -1, 3.51041, 10.1771, 18.9536, -124.145, -75.7525, 101.027
0.868414, -1, 3.51041, 10.1771, 18.9536, -124.145, -75.6513, 100.838
0.869839, -1, 3.47445, 10.1615, 18.9609, -124.047, -75.6513, 100.838
0.871037, -1, 3.47445, 10.1615, 18.9609, -124.047, -75.6513, 100.838
0.87889, -1, 3.40269, 10.1302, 18.9757, -123.853, -75.4493, 100.46
0.880805, -1, 3.36688, 10.1146, 18.9832, -123.756, -75.3485, 100.271
0.882321, -1, 3.36688, 10.1146, 18.9832, -123.756, -75.3485, 100.271
0.883506, -1, 3.36688, 10.1146, 18.9832, -123.756, -75.3485, 100.271
0.885598, -1, 3.33113, 10.0991, 18.9906, -123.659, -75.2478, 100.083
0.886789, -1, 3.33113, 10.0991, 18.9906, -123.659, -75.2478, 100.083
0.888748, -1, 3.29547, 10.0835, 18.998, -123.562, -75.1475, 99.8953
0.897647, -1, 3.22426, 10.0524, 19.0124, -123.369, -74.947, 99.5198
0.90366, -1, 3.18875, 10.0369, 19.0197, -123.272, -74.847, 99.3326
0.911676, -1, 3.11793, 10.006, 19.0342, -123.08, -74.6473, 98.9594
0.919629, -1, 3.04734, 9.97509, 19.0486, -122.888, -74.4481, 98.587
0.927691, -1, 2.97699, 9.94433, 19.063, -122.697, -74.2496, 98.2156
0.935619, -1, 2.90666, 9.91362, 19.0773, -122.506, -74.0514, 97.8451
0.943617, -1, 2.83647, 9.88288, 19.0918, -122.315, -73.8539, 97.4754
0.951412, -1, 2.76645, 9.85232, 19.1064, -122.125, -73.6567, 97.1063
0.959618, -1, 2.69654, 9.82184, 19.1207, -121.936, -73.46, 96.7387
0.967617, -1, 2.62676, 9.79147, 19.1349, -121.747, -73.2638, 96.3718
0.977172, -1, 2.55711, 9.7611, 19.1491, -121.558, -73.0682, 95.8228
0.983611, -1, 2.48776, 9.73088, 19.1633, -121.37, -72.8732, 95.6402
0.992626, -1, 2.41847, 9.70075, 19.1773, -121.183, -72.6786, 95.2757
0.999688, -1, 2.34948, 9.67065, 19.1914, -120.996, -72.4845, 94.9121
1.00768, -1, 2.28054, 9.64058, 19.2056, -120.809, -72.2907, 94.5499
1.01563, -1, 2.21172, 9.61066, 19.2198, -120.623, -72.0975, 94.1886
1.02381, -1, 2.14312, 9.58089, 19.2337, -120.437, -71.9047, 93.828
1.03161, -1, 2.07468, 9.55116, 19.2476, -120.252, -71.7122, 93.4683
1.03961, -1, 2.00658, 9.52141, 19.2617, -120.067, -71.5203, 93.1095
1.04848, -1, 1.93868, 9.49173, 19.2757, -119.883, -71.3289, 92.7511
1.05563, -1, 1.87101, 9.46222, 19.2895, -119.699, -71.1379, 92.394
1.06368, -1, 1.80349, 9.43273, 19.3034, -119.515, -70.9472, 92.0377
1.07162, -1, 1.73606, 9.4033, 19.3174, -119.332, -70.7572, 91.6817
1.07965, -1, 1.66883, 9.37386, 19.3313, -119.149, -70.5676, 91.3268
1.08768, -1, 1.60177, 9.34465, 19.345, -118.967, -70.3783, 90.9727
1.09642, -1, 1.5349, 9.31538, 19.3586, -118.785, -70.1895, 90.6193
1.10362, -1, 1.46829, 9.2862, 19.3723, -118.603, -70.0011, 90.267
1.11167, -1, 1.40188, 9.257, 19.386, -118.422, -69.8136, 89.9156
1.12042, -1, 1.33543, 9.22796, 19.3995, -118.241, -69.6262, 89.5647
1.12761, -1, 1.26902, 9.19905, 19.4131, -118.061, -69.4394, 89.2147
1.13569, -1, 1.20266, 9.17013, 19.427, -117.881, -69.2526, 88.8656
1.14441, -1, 1.13649, 9.14116, 19.4407, -117.702, -69.0663, 88.5168
1.15162, -1, 1.07045, 9.11232, 19.4542, -117.522, -68.8803, 88.1687
1.15979, -1, 1.00452, 9.08355, 19.4676, -117.344, -68.6948, 87.8217
1.16895, -1, 0.938832, 9.05488, 19.4811, -117.165, -68.5094, 87.4754
1.17572, -1, 0.873131, 9.02616, 19.4945, -116.987, -68.3245, 87.1294
1.18374, -1, 0.807508, 8.99755, 19.5079, -116.81, -68.1399, 86.7842
1.19171, -1, 0.742024, 8.96905, 19.5212, -116.632, -67.9557, 86.4396
1.19972, -1, 0.67669, 8.94054, 19.5347, -116.455, -67.7721, 86.0958
1.20777, -1, 0.611656, 8.91213, 19.5481, -116.279, -67.5886, 85.7528
1.21572, -1, 0.546731, 8.88374, 19.5614, -116.102, -67.4057, 85.4108
1.22372, -1, 0.482038, 8.85554, 19.5746, -115.927, -67.2233, 85.0694
1.2318, -1, 0.417563, 8.82734, 19.5879, -115.751, -67.0411, 84.7286
1.23963, -1, 0.353013, 8.79927, 19.6012, -115.576, -66.8594, 84.3887
1.24794, -1, 0.28868, 8.77112, 19.6145, -115.401, -66.6781, 84.049
1.25571, -1, 0.224372, 8.74306, 19.6276, -115.226, -66.4969, 83.71
1.26372, -1, 0.16023, 8.71509, 19.6409, -115.052, -66.3165, 83.3722
1.27185, -1, 0.0962363, 8.6872, 19.6541, -114.878, -66.1362, 83.0348
1.27989, -1, 0.0322909, 8.65931, 19.6673, -114.704, -65.9562, 82.6975
1.28789, -1, -0.0314381, 8.6314, 19.6803, -114.531, -65.7765, 82.3613
1.29638, -1, -0.0951965, 8.60365, 19.6933, -114.359, -65.597, 82.0255
1.30407, -1, -0.158825, 8.57582, 19.7063, -114.186, -65.4179, 81.6902
1.31206, -1, -0.222367, 8.54809, 19.7193, -114.014, -65.2392, 81.3559
1.32025, -1, -0.285783, 8.52034, 19.7321, -113.842, -65.0606, 81.0222
1.32815, -1, -0.34909, 8.49276, 19.7451, -113.67, -64.8824, 80.689
1.33615, -1, -0.412259, 8.46521, 19.7582, -113.499, -64.7045, 80.3566
1.3445, -1, -0.475318, 8.43769, 19.7712, -113.328, -64.5271, 80.0247
1.35212, -1, -0.506781, 8.42396, 19.7776, -113.243, -64.4384, 79.6932
1.3596, -1, -0.569671, 8.39647, 19.7905, -113.072, -64.2616, 79.5275
1.36768, -1, -0.632472, 8.3691, 19.8033, -112.902, -64.0848, 79.197
1.3756, -1, -0.695258, 8.34174, 19.8161, -112.732, -63.9083, 78.8671
1.3836, -1, -0.757891, 8.31439, 19.8289, -112.562, -63.7323, 78.5375
1.39298, -1, -0.851619, 8.27337, 19.8479, -112.308, -63.4687, 78.0441
1.39961, -1, -0.882804, 8.25978, 19.8543, -112.223, -63.3809, 77.8799
1.40768, -1, -0.944923, 8.23271, 19.867, -112.054, -63.2058, 77.5519
1.41569, -1, -1.00701, 8.20557, 19.8798, -111.886, -63.0308, 77.2242
1.4236, -1, -1.06892, 8.17855, 19.8925, -111.717, -62.8562, 76.8974
1.43161, -1, -1.13073, 8.15146, 19.9051, -111.55, -62.6819, 76.5715
1.43965, -1, -1.19247, 8.12452, 19.9177, -111.382, -62.5081, 76.2458
1.44762, -1, -1.25402, 8.09761, 19.9305, -111.214, -62.3343, 75.9208
1.4556, -1, -1.31547, 8.07073, 19.9431, -111.047, -62.1608, 75.5964
1.4626, -1, -1.37671, 8.0439, 19.9557, -110.88, -61.9877, 75.2724
1.4716, -1, -1.4379, 8.01703, 19.9682, -110.714, -61.8146, 74.9486
1.4796, -1, -1.49909, 7.99038, 19.9809, -110.548, -61.642, 74.6257
1.48772, -1, -1.56021, 7.96371, 19.9935, -110.381, -61.4694, 74.3035
1.49664, -1, -1.62132, 7.93712, 20.006, -110.216, -61.2971, 73.9814
1.5036, -1, -1.68237, 7.91045, 20.0184, -110.05, -61.1251, 73.6596
1.51172, -1, -1.74328, 7.88384, 20.0309, -109.885, -60.9533, 73.3387
1.5196, -1, -1.80414, 7.85735, 20.0433, -109.72, -60.7819, 73.0179
1.52762, -1, -1.86484, 7.83078, 20.0557, -109.555, -60.6106, 72.6977
1.5356, -1, -1.92542, 7.80427, 20.068, -109.39, -60.4397, 72.3783
1.5436, -1, -1.98593, 7.77778, 20.0804, -109.226, -60.269, 72.0593
1.55168, -1, -2.04634, 7.75138, 20.093, -109.062, -60.0988, 71.7408
1.5596, -1, -2.10674, 7.72504, 20.1054, -108.898, -59.9286, 71.4224
1.56762, -1, -2.16707, 7.69879, 20.1178, -108.734, -59.7588, 71.1049
1.57566, -1, -2.22722, 7.67247, 20.13, -108.57, -59.5893, 70.7875
1.58363, -1, -2.28734, 7.64613, 20.1424, -108.407, -59.4203, 70.4705
1.59161, -1, -2.34731, 7.61997, 20.1546, -108.244, -59.2516, 70.1542
1.59966, -1, -2.40719, 7.59379, 20.1669, -108.082, -59.0831, 69.8384
1.60761, -1, -2.4671, 7.56775, 20.179, -107.919, -58.9146, 69.5227
1.61561, -1, -2.52697, 7.54163, 20.1912, -107.757, -58.7462, 69.2074
1.62366, -1, -2.58682, 7.51555, 20.2035, -107.595, -58.5782, 68.8926
1.6316, -1, -2.64648, 7.4896, 20.2158, -107.433, -58.41, 68.578
1.6396, -1, -2.70612, 7.46356, 20.228, -107.271, -58.2422, 68.2638
1.64768, -1, -2.76563, 7.43766, 20.2401, -107.11, -58.0744, 67.9505
1.6556, -1, -2.82492, 7.41173, 20.2523, -106.949, -57.9069, 67.6376
1.66371, -1, -2.88419, 7.38587, 20.2645, -106.788, -57.7393, 67.3249
1.6716, -1, -2.94346, 7.36011, 20.2766, -106.627, -57.5723, 67.0127
1.67969, -1, -3.00257, 7.33436, 20.2887, -106.466, -57.4053, 66.7011
1.68791, -1, -3.06169, 7.30869, 20.3008, -106.306, -57.2387, 66.3897
1.69568, -1, -3.1207, 7.28291, 20.313, -106.146, -57.0723, 66.0786
1.70371, -1, -3.17955, 7.25729, 20.3252, -105.986, -56.9061, 65.7681
1.71205, -1, -3.23844, 7.23167, 20.3373, -105.826, -56.7405, 65.4581
1.7197, -1, -3.29719, 7.20606, 20.3493, -105.666, -56.5749, 65.1483
1.72771, -1, -3.35588, 7.1805, 20.3612, -105.507, -56.4096, 64.8386
1.73638, -1, -3.41459, 7.15488, 20.3732, -105.348, -56.2446, 64.5295
1.74364, -1, -3.4732, 7.12941, 20.3852, -105.189, -56.0797, 64.2207
1.75167, -1, -3.5318, 7.10387, 20.3972, -105.03, -55.9151, 63.9121
1.76045, -1, -3.59026, 7.07835, 20.4091, -104.871, -55.7507, 63.6042
1.76771, -1, -3.64866, 7.0529, 20.4211, -104.713, -55.5865, 63.2967
1.77585, -1, -3.70701, 7.02737, 20.4332, -104.554, -55.4225, 62.9896
1.78472, -1, -3.76521, 7.00203, 20.4452, -104.396, -55.2585, 62.6827
1.79189, -1, -3.82339, 6.97663, 20.4571, -104.239, -55.0947, 62.3764
1.80006, -1, -3.88157, 6.95126, 20.469, -104.081, -54.931, 62.0701
1.80658, -1, -3.91063, 6.93858, 20.475, -104.002, -54.8491, 61.9171
1.81608, -1, -3.99769, 6.90048, 20.4928, -103.766, -54.604, 61.4586
1.82259, -1, -4.02662, 6.88785, 20.4987, -103.688, -54.5222, 61.3061
1.83291, -1, -4.11324, 6.84998, 20.5163, -103.452, -54.2774, 60.849
1.84018, -1, -4.17089, 6.8248, 20.5281, -103.295, -54.1146, 60.5444
1.84834, -1, -4.22847, 6.79954, 20.5401, -103.138, -53.9518, 60.2402
1.85705, -1, -4.25728, 6.78691, 20.546, -103.06, -53.8706, 59.9361
1.86258, -1, -4.31487, 6.7618, 20.5579, -102.904, -53.7083, 59.7841
1.87268, -1, -4.40107, 6.72409, 20.5754, -102.67, -53.4652, 59.3288
1.8796, -1, -4.4298, 6.71153, 20.5813, -102.592, -53.3842, 59.1774
1.88763, -1, -4.48722, 6.68646, 20.5932, -102.436, -53.2225, 58.8748
1.89558, -1, -4.54451, 6.6613, 20.605, -102.28, -53.0608, 58.5724
1.90358, -1, -4.60184, 6.63635, 20.6168, -102.124, -52.8994, 58.2701
1.91164, -1, -4.65909, 6.61136, 20.6285, -101.969, -52.7382, 57.9684
1.91963, -1, -4.71616, 6.58644, 20.6403, -101.813, -52.5769, 57.6669
1.92758, -1, -4.77324, 6.56146, 20.6521, -101.658, -52.416, 57.3656
1.93564, -1, -4.83028, 6.53641, 20.6638, -101.503, -52.2553, 57.0645
1.94359, -1, -4.8872, 6.51156, 20.6754, -101.348, -52.0947, 56.7641
1.95158, -1, -4.94419, 6.48665, 20.687, -101.194, -51.9343, 56.4638
1.95967, -1, -5.00107, 6.46179, 20.6986, -101.039, -51.7738, 56.1638
1.96758, -1, -5.0579, 6.43696, 20.7102, -100.885, -51.6135, 55.8639
1.97558, -1, -5.11474, 6.41205, 20.7218, -100.73, -51.4534, 55.5643
1.98512, -1, -5.17148, 6.38729, 20.7334, -100.576, -51.2933, 55.2648
1.99159, -1, -5.22821, 6.36253, 20.745, -100.422, -51.1336, 54.9655
1.99966, -1, -5.28493, 6.33775, 20.7567, -100.268, -50.9738, 54.6669
2.00862, -1, -5.3416, 6.31297, 20.7685, -100.115, -50.8142, 54.3687
2.01564, -1, -5.39828, 6.28816, 20.7801, -99.9611, -50.6546, 54.0706
2.02364, -1, -5.45485, 6.26349, 20.7916, -99.8077, -50.4954, 53.7727
2.03158, -1, -5.51131, 6.23881, 20.8032, -99.6545, -50.3363, 53.4751
2.03959, -1, -5.56771, 6.21424, 20.8147, -99.5014, -50.1773, 53.1778
2.04757, -1, -5.62405, 6.18957, 20.8262, -99.3483, -50.0184, 52.8805
2.05558, -1, -5.68033, 6.16492, 20.8377, -99.1954, -49.8596, 52.5835
2.06366, -1, -5.73656, 6.14036, 20.8491, -99.0427, -49.7011, 52.2872
2.07158, -1, -5.79275, 6.11578, 20.8606, -98.89, -49.5427, 51.9909
2.07959, -1, -5.84895, 6.09126, 20.8722, -98.7373, -49.3844, 51.6947
2.0877, -1, -5.90503, 6.06673, 20.8838, -98.585, -49.2262, 51.3988
2.09558, -1, -5.96108, 6.04212, 20.8953, -98.4326, -49.0682, 51.1031
2.10357, -1, -6.01716, 6.0177, 20.9067, -98.2804, -48.9106, 50.8074
2.11166, -1, -6.07315, 5.99325, 20.9182, -98.1283, -48.7532, 50.5119
2.11959, -1, -6.12908, 5.96877, 20.9297, -97.9764, -48.5959, 50.2169
2.12757, -1, -6.18507, 5.9444, 20.9411, -97.8246, -48.4386, 49.9223
2.13565, -1, -6.24104, 5.91995, 20.9526, -97.6729, -48.2812, 49.6278
2.14358, -1, -6.29698, 5.89568, 20.964, -97.5213, -48.1238, 49.3335
2.15158, -1, -6.35294, 5.87138, 20.9755, -97.3699, -47.9668, 49.0396
2.15974, -1, -6.4087, 5.84711, 20.987, -97.2186, -47.8096, 48.7458
2.16757, -1, -6.46443, 5.82285, 20.9985, -97.0675, -47.6527, 48.452
2.17565, -1, -6.52017, 5.79847, 21.0098, -96.9164, -47.4956, 48.1584
2.18448, -1, -6.57574, 5.77428, 21.0211, -96.7654, -47.3387, 47.8655
2.19166, -1, -6.63131, 5.75005, 21.0325, -96.6145, -47.1819, 47.5726
2.19974, -1, -6.68686, 5.7258, 21.0439, -96.4637, -47.0252, 47.2799
2.20847, -1, -6.74234, 5.70168, 21.0552, -96.313, -46.8687, 46.9871
2.21574, -1, -6.79786, 5.67738, 21.0664, -96.1625, -46.7123, 46.6949
2.22375, -1, -6.85332, 5.65324, 21.0778, -96.012, -46.5559, 46.4025
2.23248, -1, -6.9087, 5.62912, 21.0892, -95.8616, -46.3998, 46.1103
2.23959, -1, -6.9641, 5.60486, 21.1007, -95.7113, -46.244, 45.8184
2.24783, -1, -7.0194, 5.58074, 21.1121, -95.5611, -46.0881, 45.527
2.25653, -1, -7.07458, 5.55656, 21.1234, -95.4109, -45.9324, 45.2356
2.26394, -1, -7.12977, 5.53243, 21.1347, -95.261, -45.7768, 44.9444
2.27178, -1, -7.18498, 5.50841, 21.146, -95.111, -45.6213, 44.6534
2.28064, -1, -7.24012, 5.48432, 21.1572, -94.961, -45.466, 44.3626
2.28817, -1, -7.29523, 5.46029, 21.1685, -94.8112, -45.3109, 44.0718
2.2959, -1, -7.3503, 5.43615, 21.1797, -94.6616, -45.1558, 43.781
2.30394, -1, -7.40532, 5.41209, 21.191, -94.5121, -45.001, 43.4909
2.31243, -1, -7.4603, 5.38812, 21.2023, -94.3626, -44.846, 43.201
2.32008, -1, -7.5152, 5.36404, 21.2136, -94.2131, -44.6909, 42.9109
2.32808, -1, -7.57008, 5.34007, 21.225, -94.0638, -44.5361, 42.621
2.33622, -1, -7.62506, 5.31602, 21.2361, -93.9146, -44.381, 42.3314
2.34413, -1, -7.68002, 5.29203, 21.2473, -93.7655, -44.2263, 42.0416
2.35218, -1, -7.70748, 5.2801, 21.2587, -93.6166, -44.0713, 41.752
2.36045, -1, -7.76241, 5.25616, 21.2643, -93.4677, -43.9165, 41.4626
2.36755, -1, -7.81721, 5.23218, 21.2756, -93.3933, -43.8391, 41.318
2.37556, -1, -7.87196, 5.20832, 21.2868, -93.2444, -43.6844, 41.029
2.38362, -1, -7.92673, 5.18433, 21.298, -93.0958, -43.5302, 40.7403
2.39155, -1, -7.98141, 5.16048, 21.3093, -92.9471, -43.3759, 40.4514
2.39957, -1, -8.03606, 5.13666, 21.3207, -92.7985, -43.2218, 40.163
2.40757, -1, -8.09076, 5.1128, 21.3319, -92.65, -43.0677, 39.8746
2.41563, -1, -8.14539, 5.08903, 21.3431, -92.5016, -42.9136, 39.5862
2.42365, -1, -8.20012, 5.06507, 21.3542, -92.3531, -42.7597, 39.2979
2.43157, -1, -8.25475, 5.04121, 21.3654, -92.2048, -42.6058, 39.0102
2.43957, -1, -8.30926, 5.01743, 21.3766, -92.0567, -42.452, 38.7225
2.44761, -1, -8.3639, 4.99354, 21.3877, -91.9085, -42.2981, 38.4347
2.45555, -1, -8.41848, 4.96979, 21.3988, -91.7604, -42.1443, 38.147
2.46355, -1, -8.47303, 4.94597, 21.4099, -91.6123, -41.9908, 37.8598
2.47056, -1, -8.52766, 4.9221, 21.4213, -91.4641, -41.8374, 37.5723
2.47958, -1, -8.58219, 4.89842, 21.4326, -91.3161, -41.684, 37.2849
2.48755, -1, -8.6367, 4.8746, 21.4438, -91.1682, -41.5308, 36.9978
2.49562, -1, -8.69119, 4.8508, 21.455, -91.0205, -41.3774, 36.7111
2.50354, -1, -8.74561, 4.82704, 21.4661, -90.8727, -41.2239, 36.4244
2.51156, -1, -8.79994, 4.80317, 21.4772, -90.725, -41.0707, 36.1377
2.51964, -1, -8.8543, 4.7795, 21.4884, -90.5774, -40.9174, 35.8511
2.52757, -1, -8.90856, 4.75577, 21.4995, -90.43, -40.7643, 35.5648
2.53564, -1, -8.9627, 4.73204, 21.5105, -90.2825, -40.6112, 35.2785
2.54363, -1, -9.01699, 4.7083, 21.5216, -90.1352, -40.4581, 34.9921
2.55156, -1, -9.07129, 4.68447, 21.5328, -89.9878, -40.305, 34.706
2.55963, -1, -9.12547, 4.66072, 21.544, -89.8405, -40.1521, 34.4202
2.56755, -1, -9.17983, 4.63698, 21.5552, -89.6932, -39.9992, 34.1344
2.57558, -1, -9.2342, 4.61325, 21.5663, -89.5461, -39.8465, 33.8484
2.58369, -1, -9.28849, 4.58956, 21.5774, -89.3988, -39.6936, 33.5626
2.59159, -1, -9.34275, 4.56575, 21.5886, -89.2519, -39.5409, 33.2771
2.59956, -1, -9.39696, 4.54209, 21.5997, -89.1048, -39.3883, 32.9913
2.60763, -1, -9.45114, 4.51848, 21.6109, -88.9576, -39.2358, 32.7054
2.61557, -1, -9.50542, 4.49477, 21.6219, -88.8107, -39.0831, 32.4201
2.62356, -1, -9.55961, 4.47119, 21.633, -88.6638, -38.9308, 32.1349
2.63162, -1, -9.6138, 4.44749, 21.6442, -88.5169, -38.7783, 31.8497
2.63955, -1, -9.66793, 4.42383, 21.6554, -88.37, -38.6259, 31.5646
2.6476, -1, -9.72196, 4.40032, 21.6666, -88.2232, -38.4734, 31.2797
2.65562, -1, -9.77601, 4.37666, 21.6776, -88.0762, -38.3214, 30.9948
2.66355, -1, -9.82999, 4.35314, 21.6886, -87.9294, -38.1693, 30.7098
2.67185, -1, -9.88391, 4.32949, 21.6997, -87.7826, -38.0174, 30.4249
2.67956, -1, -9.93788, 4.30581, 21.7107, -87.636, -37.8653, 30.1403
2.6876, -1, -9.99189, 4.28231, 21.7218, -87.4893, -37.7133, 29.8558
2.69589, -1, -10.0459, 4.25867, 21.7327, -87.3427, -37.5614, 29.5711
2.70366, -1, -10.0999, 4.23509, 21.7438, -87.196, -37.4092, 29.2865
2.71167, -1, -10.1539, 4.21157, 21.755, -87.0496, -37.2572, 29.0021
2.71975, -1, -10.2078, 4.18787, 21.7662, -86.9032, -37.1051, 28.7176
2.72804, -1, -10.2618, 4.16438, 21.7773, -86.7568, -36.9531, 28.433
2.73519, -1, -10.2888, 4.15263, 21.7828, -86.6105, -36.8009, 28.1485
2.74369, -1, -10.3696, 4.11719, 21.7993, -86.464, -36.6489, 27.8644
2.7524, -1, -10.4235, 4.09369, 21.8104, -86.3176, -36.4969, 27.5804
2.75962, -1, -10.4774, 4.07006, 21.8214, -86.1714, -36.3451, 27.2963
2.76772, -1, -10.5311, 4.04656, 21.8325, -86.0251, -36.1931, 27.0122
2.77655, -1, -10.585, 4.02307, 21.8435, -85.8789, -36.0413, 26.7284
2.78379, -1, -10.6387, 3.9995, 21.8544, -85.7328, -35.8894, 26.4445
2.79193, -1, -10.6924, 3.97599, 21.8656, -85.5866, -35.7378, 26.1605
2.8007, -1, -10.7462, 3.95236, 21.8766, -85.4404, -35.586, 25.8766
2.80794, -1, -10.7998, 3.92881, 21.8877, -85.2943, -35.4345, 25.5932
2.81612, -1, -10.8535, 3.90534, 21.8988, -85.1482, -35.2828, 25.3095
2.82488, -1, -10.9073, 3.88178, 21.9097, -85.0021, -35.1312, 25.0258
2.83208, -1, -10.9611, 3.8583, 21.9208, -84.856, -34.9797, 24.7421
2.84013, -1, -11.0149, 3.83473, 21.9319, -84.7099, -34.8283, 24.4586
2.8489, -1, -11.0688, 3.81119, 21.9429, -84.5636, -34.6769, 24.1749
2.85619, -1, -11.0957, 3.78778, 21.9539, -84.4175, -34.5256, 23.8909
2.86408, -1, -11.1495, 3.77602, 21.9594, -84.3445, -34.4499, 23.7491
2.87155, -1, -11.2034, 3.75247, 21.9705, -84.1984, -34.2983, 23.4656
2.8796, -1, -11.2572, 3.72901, 21.9816, -84.0523, -34.1466, 23.1823
2.88754, -1, -11.311, 3.70543, 21.9927, -83.9063, -33.9952, 22.8989
2.89553, -1, -11.3648, 3.68196, 22.0038, -83.7603, -33.8434, 22.6153
2.9036, -1, -11.4186, 3.65858, 22.0147, -83.6144, -33.6921, 22.3321
2.91156, -1, -11.4724, 3.63509, 22.0256, -83.4684, -33.5404, 22.0487
2.91961, -1, -11.5261, 3.61171, 22.0366, -83.3224, -33.3888, 21.7652
2.92764, -1, -11.5798, 3.58818, 22.0475, -83.1766, -33.237, 21.4817
2.93554, -1, -11.6335, 3.56462, 22.0585, -83.0307, -33.0856, 21.1985
2.94354, -1, -11.6872, 3.54129, 22.0694, -82.8847, -32.9341, 20.9152
2.95161, -1, -11.7408, 3.51781, 22.0805, -82.7388, -32.7829, 20.6317
2.95954, -1, -11.7944, 3.49437, 22.0916, -82.5928, -32.6314, 20.3482
2.96755, -1, -11.8482, 3.47091, 22.1027, -82.4469, -32.4801, 20.065
2.97561, -1, -11.9019, 3.44733, 22.1138, -82.3011, -32.3286, 19.7814
2.98354, -1, -11.9558, 3.42387, 22.1247, -82.1552, -32.1773, 19.4976
2.99155, -1, -12.0097, 3.40043, 22.1357, -82.0092, -32.026, 19.2142
3.00053, -1, -12.0634, 3.37691, 22.1467, -81.8633, -31.8746, 18.931
3.00754, -1, -12.1173, 3.35346, 22.1576, -81.7174, -31.7232, 18.6478
3.01554, -1, -12.1711, 3.32998, 22.1685, -81.5714, -31.5716, 18.3645
3.0236, -1, -12.2249, 3.30655, 22.1794, -81.4254, -31.4205, 18.0812
3.03155, -1, -12.2787, 3.28314, 22.1904, -81.2794, -31.269, 17.7979
3.03961, -1, -12.3326, 3.25971, 22.2015, -81.1333, -31.1176, 17.5146
3.04754, -1, -12.3864, 3.23626, 22.2126, -80.9872, -30.9661, 17.2311
3.05554, -1, -12.4402, 3.21267, 22.2237, -80.8413, -30.8145, 16.9477
3.06361, -1, -12.4941, 3.18912, 22.2346, -80.6953, -30.6629, 16.6645
3.07153, -1, -12.5477, 3.16566, 22.2456, -80.5492, -30.5115, 16.3813
3.07979, -1, -12.6015, 3.14213, 22.2567, -80.4032, -30.3599, 16.0977
3.0876, -1, -12.6552, 3.11873, 22.2677, -80.2571, -30.2085, 15.8142
3.09557, -1, -12.7088, 3.09524, 22.2787, -80.1112, -30.0568, 15.531
3.10433, -1, -12.7625, 3.0717, 22.2898, -79.9651, -29.9051, 15.2472
3.11153, -1, -12.8163, 3.04838, 22.3008, -79.8193, -29.7533, 14.9634
3.11953, -1, -12.8701, 3.02487, 22.3119, -79.6733, -29.6019, 14.6799
3.12834, -1, -12.9239, 3.00142, 22.323, -79.5272, -29.4502, 14.3965
3.13553, -1, -12.9778, 2.97799, 22.3341, -79.3811, -29.2987, 14.113
3.14354, -1, -13.0316, 2.95442, 22.345, -79.235, -29.1469, 13.8292
3.15242, -1, -13.0855, 2.931, 22.356, -79.089, -28.9953, 13.5455
3.15954, -1, -13.1394, 2.90752, 22.3671, -78.9429, -28.8436, 13.2619
3.16753, -1, -13.1932, 2.88403, 22.378, -78.7968, -28.692, 12.9781
3.17695, -1, -13.2471, 2.86057, 22.389, -78.6506, -28.5403, 12.6941
3.18359, -1, -13.301, 2.83697, 22.4, -78.5044, -28.3887, 12.4104
3.19166, -1, -13.3548, 2.81346, 22.411, -78.3582, -28.237, 12.1266
3.19989, -1, -13.4087, 2.79001, 22.4222, -78.2121, -28.0852, 11.8426
3.20764, -1, -13.4624, 2.76642, 22.4334, -78.0657, -27.9336, 11.5585
3.21571, -1, -13.5162, 2.74298, 22.4445, -77.9194, -27.782, 11.2745
3.22399, -1, -13.57, 2.71945, 22.4555, -77.773, -27.6307, 10.9902
3.23164, -1, -13.6237, 2.69593, 22.4665, -77.6265, -27.4791, 10.7058
3.23978, -1, -13.6776, 2.67253, 22.4776, -77.48, -27.3274, 10.4213
3.24817, -1, -13.7315, 2.64895, 22.4886, -77.3336, -27.1754, 10.1371
3.25564, -1, -13.7854, 2.62542, 22.4997, -77.1871, -27.0236, 9.853
3.26368, -1, -13.8394, 2.60186, 22.5106, -77.0406, -26.8713, 9.56849
3.27319, -1, -13.8935, 2.57826, 22.5216, -76.894, -26.7194, 9.28398
3.28005, -1, -13.9475, 2.55475, 22.5328, -76.7475, -26.5669, 8.99944
3.28781, -1, -14.0015, 2.53115, 22.5439, -76.6009, -26.4147, 8.71499
3.29742, -1, -14.0555, 2.50762, 22.5551, -76.4543, -26.262, 8.4303
3.30391, -1, -14.1094, 2.484, 22.5661, -76.3078, -26.1097, 8.14535
3.312, -1, -14.1634, 2.46032, 22.5771, -76.161, -25.9572, 7.86087
3.31858, -1, -14.1904, 2.44852, 22.5827, -76.0877, -25.881, 7.71853
3.32841, -1, -14.2714, 2.41316, 22.5994, -75.8675, -25.6522, 7.29108
3.33608, -1, -14.3255, 2.38953, 22.6105, -75.7207, -25.4997, 7.00595
3.34485, -1, -14.3794, 2.36596, 22.6216, -75.5739, -25.3472, 6.72097
3.35215, -1, -14.4335, 2.34222, 22.6326, -75.4271, -25.1949, 6.43555
3.36011, -1, -14.4605, 2.3304, 22.6382, -75.3537, -25.0426, 6.15
3.36752, -1, -14.5147, 2.30686, 22.6495, -75.2067, -24.9664, 6.00726
3.37553, -1, -14.5688, 2.28318, 22.6606, -75.0597, -24.8138, 5.72196
3.38352, -1, -14.623, 2.25953, 22.6718, -74.9127, -24.6613, 5.43669
3.39157, -1, -14.6772, 2.2359, 22.6828, -74.7656, -24.5089, 5.15113
3.39954, -1, -14.7315, 2.21217, 22.6939, -74.6184, -24.3566, 4.86526
3.40752, -1, -14.7858, 2.18859, 22.705, -74.4713, -24.204, 4.5795
3.41559, -1, -14.8401, 2.16496, 22.7161, -74.3238, -24.0516, 4.29376
3.42358, -1, -14.8944, 2.14133, 22.7271, -74.1764, -23.8987, 4.00771
3.43162, -1, -14.9486, 2.11767, 22.7382, -74.029, -23.7458, 3.72142
3.43952, -1, -15.003, 2.09384, 22.7494, -73.8816, -23.5929, 3.43552
3.44752, -1, -15.0572, 2.07015, 22.7607, -73.7341, -23.4396, 3.14937
3.45558, -1, -15.1115, 2.04648, 22.7719, -73.5866, -23.2865, 2.86291
3.46352, -1, -15.1658, 2.0227, 22.7831, -73.4389, -23.1331, 2.57629
3.47152, -1, -15.2202, 1.99903, 22.7941, -73.2913, -22.9797, 2.28977
3.47959, -1, -15.2746, 1.97522, 22.8053, -73.1437, -22.8261, 2.00273
3.48751, -1, -15.329, 1.95147, 22.8165, -72.996, -22.6726, 1.7156
3.49652, -1, -15.3834, 1.92782, 22.8276, -72.8484, -22.519, 1.4285
3.50359, -1, -15.438, 1.90402, 22.8386, -72.7005, -22.3657, 1.14162
3.51151, -1, -15.4925, 1.88027, 22.8497, -72.5526, -22.2122, 0.854495
3.51952, -1, -15.547, 1.85644, 22.8609, -72.4046, -22.0587, 0.567205
3.52752, -1, -15.6016, 1.83258, 22.8722, -72.2565, -21.9051, 0.279722
3.53655, -1, -15.6561, 1.8088, 22.8835, -72.1086, -21.7516, -0.00763831
3.54359, -1, -15.7108, 1.78497, 22.8946, -71.9605, -21.5979, -0.295365
3.55152, -1, -15.7655, 1.7612, 22.9057, -71.8123, -21.4442, -0.583466
3.55951, -1, -15.8201, 1.73728, 22.917, -71.664, -21.2905, -0.871256
3.56759, -1, -15.8748, 1.71329, 22.9282, -71.5156, -21.1365, -1.15904
3.57552, -1, -15.9296, 1.68944, 22.9394, -71.3672, -20.9826, -1.44713
3.58351, -1, -15.9842, 1.66551, 22.9507, -71.2187, -20.8286, -1.7356
3.59167, -1, -16.0388, 1.64162, 22.9618, -71.0701, -20.6745, -2.02398
3.59955, -1, -16.0936, 1.61772, 22.9731, -70.9214, -20.5204, -2.31271
3.60751, -1, -16.1483, 1.59371, 22.9844, -70.7725, -20.366, -2.60167
3.61559, -1, -16.203, 1.56984, 22.9957, -70.6236, -20.2115, -2.8908
3.62351, -1, -16.2579, 1.5459, 23.0069, -70.4746, -20.0571, -3.17975
3.63152, -1, -16.3127, 1.52192, 23.018, -70.3257, -19.9022, -3.46871
3.63959, -1, -16.3676, 1.49801, 23.0293, -70.1766, -19.7476, -3.75808
3.64762, -1, -16.4225, 1.47397, 23.0405, -70.0275, -19.5926, -4.04773
3.65551, -1, -16.4772, 1.45004, 23.0517, -69.8781, -19.4376, -4.33728
3.66359, -1, -16.5322, 1.42606, 23.0629, -69.729, -19.2823, -4.62705
3.67152, -1, -16.5872, 1.40209, 23.0741, -69.5796, -19.1273, -4.91718
3.67959, -1, -16.6423, 1.37811, 23.0855, -69.4303, -18.972, -5.20756
3.68756, -1, -16.6975, 1.35397, 23.0969, -69.2807, -18.817, -5.49759
3.69567, -1, -16.7525, 1.32995, 23.1083, -69.1311, -18.6617, -5.78792
3.70362, -1, -16.8076, 1.30592, 23.1196, -68.9815, -18.5064, -6.07866
3.71162, -1, -16.8628, 1.2818, 23.1308, -68.8318, -18.351, -6.36964
3.71969, -1, -16.9178, 1.2578, 23.1421, -68.6819, -18.1955, -6.6606
3.72764, -1, -16.973, 1.23364, 23.1534, -68.532, -18.0398, -6.95198
3.7357, -1, -17.0282, 1.20953, 23.1647, -68.382, -17.8842, -7.2438
3.74353, -1, -17.0834, 1.18547, 23.176, -68.2318, -17.7284, -7.53547
3.75153, -1, -17.1388, 1.16125, 23.1872, -68.0816, -17.5726, -7.82705
3.75975, -1, -17.1941, 1.13712, 23.1986, -67.9312, -17.4168, -8.11895
3.76765, -1, -17.2495, 1.1129, 23.2101, -67.7808, -17.2607, -8.41112
3.77566, -1, -17.3049, 1.08868, 23.2215, -67.6302, -17.1049, -8.70325
3.7838, -1, -17.3603, 1.06455, 23.2329, -67.4795, -16.9488, -8.99567
3.7918, -1, -17.4158, 1.04032, 23.2442, -67.3287, -16.7925, -9.28842
3.7998, -1, -17.4714, 1.01614, 23.2556, -67.1776, -16.6362, -9.58144
3.80797, -1, -17.5271, 0.991794, 23.267, -67.0267, -16.4795, -9.87415
3.81598, -1, -17.5828, 0.967475, 23.2784, -66.8757, -16.3228, -10.1672
3.82403, -1, -17.6386, 0.943221, 23.2898, -66.7245, -16.166, -10.4606
3.83243, -1, -17.6943, 0.918858, 23.3012, -66.5733, -16.0089, -10.7542
3.8401, -1, -17.75, 0.894585, 23.3128, -66.4219, -15.8515, -11.0479
3.84807, -1, -17.8058, 0.870172, 23.3243, -66.2705, -15.6942, -11.342
3.85615, -1, -17.8615, 0.845798, 23.3357, -66.119, -15.5368, -11.6365
3.86416, -1, -17.8894, 0.833666, 23.3414, -66.0432, -15.3793, -11.9311
3.8715, -1, -17.9453, 0.809281, 23.3527, -65.8917, -15.3005, -12.0783
3.8795, -1, -18.0013, 0.78487, 23.3641, -65.7399, -15.1427, -12.3729
3.8875, -1, -18.0571, 0.760499, 23.3755, -65.5879, -14.9848, -12.6679
3.89558, -1, -18.1132, 0.735981, 23.387, -65.436, -14.8271, -12.9631
3.90353, -1, -18.1692, 0.711636, 23.3984, -65.2838, -14.669, -13.2584
3.9115, -1, -18.2252, 0.687201, 23.4098, -65.1317, -14.5111, -13.5541
3.91956, -1, -18.2815, 0.662737, 23.4215, -64.9794, -14.353, -13.8502
3.92757, -1, -18.3376, 0.638281, 23.433, -64.8267, -14.1948, -14.1463
3.93554, -1, -18.3938, 0.613638, 23.4446, -64.6741, -14.0366, -14.4423
3.94355, -1, -18.4501, 0.589112, 23.456, -64.5213, -13.8784, -14.7387
3.9515, -1, -18.5065, 0.564607, 23.4675, -64.3685, -13.7201, -15.0357
3.95952, -1, -18.5629, 0.539968, 23.4791, -64.2154, -13.5616, -15.3327
3.96757, -1, -18.6194, 0.515462, 23.4906, -64.0623, -13.4027, -15.63
3.97551, -1, -18.6758, 0.490713, 23.502, -63.9089, -13.2436, -15.9278
3.98351, -1, -18.7323, 0.466053, 23.5134, -63.7554, -13.0846, -16.226
3.99304, -1, -18.7889, 0.441474, 23.525, -63.6019, -12.9251, -16.5241
3.99951, -1, -18.8454, 0.416697, 23.5367, -63.4483, -12.7659, -16.8223
4.0085, -1, -18.902, 0.391992, 23.5483, -63.2944, -12.606, -17.1208
4.01567, -1, -18.9586, 0.367157, 23.5599, -63.1405, -12.4462, -17.4196
4.02452, -1, -19.0154, 0.342377, 23.5715, -62.9864, -12.286, -17.7186
4.03157, -1, -19.0722, 0.317651, 23.5832, -62.8324, -12.126, -18.0179
4.03951, -1, -19.129, 0.292846, 23.5948, -62.6781, -11.9657, -18.3176
4.04751, -1, -19.186, 0.26801, 23.6065, -62.5239, -11.8056, -18.6172
4.05557, -1, -19.2429, 0.243016, 23.6182, -62.3694, -11.6454, -18.917
4.0635, -1, -19.2999, 0.218127, 23.6298, -62.2146, -11.4849, -19.2171
4.0715, -1, -19.3569, 0.193186, 23.6416, -62.0598, -11.3245, -19.5179
4.07965, -1, -19.414, 0.168233, 23.6533, -61.9049, -11.1637, -19.8187
4.0875, -1, -19.4711, 0.143356, 23.6651, -61.7498, -11.0028, -20.1198
4.09637, -1, -19.5283, 0.11826, 23.6767, -61.5947, -10.8418, -20.4214
4.10353, -1, -19.5855, 0.0932989, 23.6883, -61.4392, -10.6805, -20.7235
4.11151, -1, -19.6427, 0.0683179, 23.7001, -61.2836, -10.5191, -21.0252
4.12037, -1, -19.7001, 0.0432397, 23.7118, -61.1279, -10.3577, -21.3274
4.12749, -1, -19.7574, 0.0182276, 23.7235, -60.9721, -10.1962, -21.63
4.13556, -1, -19.8148, -0.00693294, 23.7352, -60.816, -10.0345, -21.9328
4.14431, -1, -19.8723, -0.0319552, 23.7471, -60.6599, -9.87252, -22.2359
4.15149, -1, -19.9298, -0.0570636, 23.759, -60.5035, -9.71022, -22.5395
4.15951, -1, -19.9874, -0.0821638, 23.771, -60.3468, -9.54786, -22.8435
4.16832, -1, -20.045, -0.10726, 23.7829, -60.1902, -9.38509, -23.1473
4.17551, -1, -20.1027, -0.132553, 23.7946, -60.0335, -9.22252, -23.4515
4.1835, -1, -20.1604, -0.157703, 23.8065, -59.8765, -9.05943, -23.7562
4.19242, -1, -20.2181, -0.182997, 23.8184, -59.7195, -8.89634, -24.0611
4.19964, -1, -20.2759, -0.208267, 23.8302, -59.5621, -8.73304, -24.3662
4.20759, -1, -20.3339, -0.233509, 23.842, -59.4048, -8.56965, -24.6719
4.21661, -1, -20.392, -0.258945, 23.8538, -59.2473, -8.40624, -24.9783
4.22361, -1, -20.4501, -0.284254, 23.8658, -59.0898, -8.24252, -25.2846
4.23168, -1, -20.5083, -0.309668, 23.8778, -58.932, -8.07863, -25.5912
4.24007, -1, -20.5665, -0.335135, 23.8898, -58.7739, -7.91462, -25.8981
4.24761, -1, -20.625, -0.360598, 23.9017, -58.6157, -7.75049, -26.2055
4.2556, -1, -20.6834, -0.38613, 23.9137, -58.4573, -7.58602, -26.5129
4.26515, -1, -20.7418, -0.411598, 23.9257, -58.2987, -7.42145, -26.8208
4.27159, -1, -20.8004, -0.437187, 23.9378, -58.1401, -7.25671, -27.1293
4.27967, -1, -20.8589, -0.462725, 23.9497, -57.9812, -7.0918, -27.4377
4.28926, -1, -20.9175, -0.488397, 23.9617, -57.822, -6.92705, -27.7464
4.29592, -1, -20.9762, -0.514055, 23.9738, -57.6628, -6.76187, -28.0554
4.30385, -1, -21.0348, -0.539677, 23.986, -57.5033, -6.59668, -28.3651
4.31337, -1, -21.0936, -0.565409, 23.9981, -57.3435, -6.43118, -28.675
4.31996, -1, -21.1523, -0.591077, 24.0101, -57.1838, -6.26535, -28.9851
4.32827, -1, -21.2112, -0.616959, 24.0221, -57.0236, -6.09952, -29.296
4.33804, -1, -21.2702, -0.642731, 24.0342, -56.8632, -5.93313, -29.6072
4.34427, -1, -21.3293, -0.668517, 24.0463, -56.7028, -5.76685, -29.9184
4.35205, -1, -21.3886, -0.694452, 24.0584, -56.5423, -5.59999, -30.2301
4.3609, -1, -21.4182, -0.707379, 24.0704, -56.3815, -5.43298, -30.5422
4.36825, -1, -21.4776, -0.733324, 24.0765, -56.2206, -5.26583, -30.8546
4.37548, -1, -21.5371, -0.759276, 24.0889, -56.1399, -5.18232, -31.011
4.38348, -1, -21.5966, -0.785087, 24.1012, -55.9787, -5.01468, -31.3241
4.39155, -1, -21.656, -0.81102, 24.1134, -55.8174, -4.84717, -31.6378
4.39949, -1, -21.7156, -0.836877, 24.1256, -55.6558, -4.67921, -31.9515
4.40749, -1, -21.7752, -0.862991, 24.1378, -55.4941, -4.51115, -32.2657
4.41553, -1, -21.8349, -0.889095, 24.1501, -55.3321, -4.34303, -32.5802
4.42348, -1, -21.8946, -0.915115, 24.1623, -55.1699, -4.1745, -32.8953
4.43155, -1, -21.9543, -0.941283, 24.1745, -55.0075, -4.00593, -33.2105
4.43955, -1, -22.0142, -0.967391, 24.1867, -54.8448, -3.83715, -33.5264
4.44748, -1, -22.0741, -0.993666, 24.1991, -54.6821, -3.66811, -33.8429
4.45549, -1, -22.1339, -1.01984, 24.2115, -54.519, -3.49902, -34.1595
4.46348, -1, -22.194, -1.04606, 24.2239, -54.3557, -3.32976, -34.4765
4.47148, -1, -22.2543, -1.07236, 24.2361, -54.1923, -3.16032, -34.7939
4.47955, -1, -22.3146, -1.09866, 24.2485, -54.0285, -2.99062, -35.112
4.48748, -1, -22.3751, -1.12508, 24.261, -53.8646, -2.82072, -35.4301
4.49548, -1, -22.4356, -1.15146, 24.2734, -53.7004, -2.6506, -35.7489
4.50359, -1, -22.4962, -1.17789, 24.2858, -53.5359, -2.48, -36.0681
4.51255, -1, -22.5568, -1.20428, 24.2982, -53.3712, -2.30922, -36.3875
4.5195, -1, -22.6175, -1.23085, 24.3107, -53.2064, -2.13799, -36.7072
4.52755, -1, -22.6782, -1.25745, 24.3233, -53.0414, -1.96668, -37.0275
4.53548, -1, -22.739, -1.28394, 24.3357, -52.8761, -1.79503, -37.3482
4.54348, -1, -22.8, -1.31056, 24.3481, -52.7106, -1.6233, -37.6694
4.55155, -1, -22.8609, -1.33715, 24.3606, -52.5449, -1.4512, -37.9911
4.55949, -1, -22.9219, -1.36389, 24.3731, -52.3791, -1.27912, -38.3135
4.56748, -1, -22.9829, -1.39057, 24.3855, -52.213, -1.10676, -38.6361
4.57555, -1, -23.044, -1.41729, 24.398, -52.0467, -0.934317, -38.959
4.58349, -1, -23.1054, -1.44409, 24.4106, -51.88, -0.761517, -39.2827
4.59153, -1, -23.1668, -1.47089, 24.4233, -51.7131, -0.588455, -39.6066
4.59958, -1, -23.2283, -1.49779, 24.436, -51.546, -0.415197, -39.9309
4.60748, -1, -23.2901, -1.5246, 24.4487, -51.3785, -0.241467, -40.2559
4.61555, -1, -23.3518, -1.55153, 24.4612, -51.2111, -0.0675456, -40.5817
4.62348, -1, -23.4138, -1.5784, 24.4739, -51.0431, 0.106404, -40.9075
4.63148, -1, -23.4757, -1.60545, 24.4866, -50.8749, 0.280842, -41.2337
4.63956, -1, -23.5377, -1.6325, 24.4993, -50.7066, 0.455363, -41.5606
4.64747, -1, -23.5998, -1.65953, 24.5118, -50.5379, 0.630495, -41.8881
4.65548, -1, -23.6621, -1.68669, 24.5245, -50.369, 0.805896, -42.2158
4.66355, -1, -23.7244, -1.71376, 24.5374, -50.1998, 0.981468, -42.5444
4.67151, -1, -23.7867, -1.74102, 24.5502, -50.0302, 1.15735, -42.8735
4.67949, -1, -23.8491, -1.76824, 24.563, -49.8605, 1.33354, -43.2026
4.68756, -1, -23.9116, -1.79556, 24.5757, -49.6906, 1.50994, -43.5325
4.69554, -1, -23.9742, -1.82293, 24.5887, -49.5204, 1.6868, -43.863
4.70362, -1, -24.0368, -1.85033, 24.6016, -49.35, 1.86356, -44.194
4.71184, -1, -24.0997, -1.87775, 24.6144, -49.1792, 2.04075, -44.5255
4.7196, -1, -24.1627, -1.90517, 24.6273, -49.0083, 2.21808, -44.8577
4.72764, -1, -24.2259, -1.93262, 24.6403, -48.8371, 2.39575, -45.1905
4.73599, -1, -24.2892, -1.96017, 24.6534, -48.6658, 2.57369, -45.5233
4.74354, -1, -24.3526, -1.98788, 24.6664, -48.494, 2.75194, -45.8567
4.7516, -1, -24.416, -2.01548, 24.6792, -48.3218, 2.93046, -46.1909
4.76038, -1, -24.4796, -2.04323, 24.6922, -48.1496, 3.10932, -46.5254
4.76757, -1, -24.5433, -2.07099, 24.7052, -47.9768, 3.28846, -46.8607
4.77566, -1, -24.607, -2.09887, 24.7182, -47.804, 3.46776, -47.1967
4.78447, -1, -24.6709, -2.12669, 24.7312, -47.6307, 3.64737, -47.5329
4.7917, -1, -24.7348, -2.15454, 24.7443, -47.4572, 3.82738, -47.8695
4.79985, -1, -24.7988, -2.18251, 24.7576, -47.2834, 4.00761, -48.2071
4.8086, -1, -24.8629, -2.21048, 24.7709, -47.1092, 4.18813, -48.5452
4.81585, -1, -24.927, -2.23864, 24.784, -46.9348, 4.3689, -48.8836
4.82402, -1, -24.9912, -2.26661, 24.7971, -46.76, 4.55025, -49.223
4.83285, -1, -25.0557, -2.29473, 24.8104, -46.5849, 4.73177, -49.5631
4.84004, -1, -25.1203, -2.32285, 24.8236, -46.4094, 4.91386, -49.9032
4.8481, -1, -25.1851, -2.35114, 24.8368, -46.2338, 5.0964, -50.244
4.85687, -1, -25.2499, -2.3794, 24.85, -46.0578, 5.27916, -50.5858
4.86403, -1, -25.2825, -2.39352, 24.8567, -45.8815, 5.46236, -50.928
4.87204, -1, -25.3476, -2.42189, 24.8701, -45.7932, 5.55398, -51.0993
4.8809, -1, -25.4127, -2.45023, 24.8835, -45.6164, 5.73756, -51.4427
4.88754, -1, -25.4779, -2.47881, 24.8968, -45.4394, 5.92152, -51.7866
4.89547, -1, -25.5432, -2.50733, 24.9101, -45.2622, 6.10566, -52.1308
4.90346, -1, -25.6086, -2.53589, 24.9237, -45.0846, 6.29013, -52.4757
4.91152, -1, -25.6742, -2.56459, 24.9372, -44.9064, 6.4748, -52.8215
4.91947, -1, -25.7397, -2.59336, 24.9506, -44.7281, 6.65967, -53.1679
4.92747, -1, -25.8055, -2.62217, 24.9641, -44.5494, 6.84508, -53.5148
4.93557, -1, -25.8713, -2.65092, 24.9778, -44.3705, 7.03063, -53.8627
4.94361, -1, -25.9373, -2.67973, 24.9914, -44.1911, 7.21647, -54.2109
4.95147, -1, -26.0034, -2.70868, 25.0049, -44.0113, 7.4026, -54.5595
4.95953, -1, -26.0696, -2.73771, 25.0184, -43.8312, 7.58939, -54.9093
4.96746, -1, -26.136, -2.76674, 25.0321, -43.6508, 7.7765, -55.2596
4.97546, -1, -26.2025, -2.79581, 25.0457, -43.47, 7.96406, -55.6105
4.98353, -1, -26.2692, -2.82492, 25.0593, -43.2888, 8.15209, -55.9622
4.99147, -1, -26.3361, -2.85422, 25.0729, -43.1072, 8.34076, -56.3146
4.99948, -1, -26.403, -2.88343, 25.0868, -42.9254, 8.52966, -56.6674
5.00846, -1, -26.4702, -2.91283, 25.1008, -42.7432, 8.71903, -57.021
5.01547, -1, -26.5374, -2.94221, 25.1146, -42.5605, 8.90866, -57.3755
5.02346, -1, -26.6047, -2.97173, 25.1283, -42.3777, 9.09852, -57.7304
5.03153, -1, -26.6722, -3.0012, 25.1422, -42.1944, 9.28886, -58.0864
5.03949, -1, -26.7398, -3.0307, 25.156, -42.0108, 9.47925, -58.4432
5.04748, -1, -26.8077, -3.06026, 25.1699, -41.8269, 9.67002, -58.8003
5.05546, -1, -26.8757, -3.08991, 25.1837, -41.6425, 9.86114, -59.158
5.06362, -1, -26.9438, -3.11957, 25.1977, -41.4576, 10.0527, -59.5169
5.07146, -1, -27.012, -3.14931, 25.2118, -41.2725, 10.2449, -59.8764
5.07948, -1, -27.0803, -3.1791, 25.2259, -41.0869, 10.4371, -60.2366
5.08754, -1, -27.1488, -3.20895, 25.2398, -40.9011, 10.6297, -60.5978
5.09546, -1, -27.2174, -3.23893, 25.254, -40.7147, 10.8229, -60.9594
5.10353, -1, -27.2861, -3.26892, 25.2681, -40.5279, 11.0167, -61.3218
5.11179, -1, -27.3551, -3.29906, 25.2821, -40.3409, 11.2109, -61.6852
5.11947, -1, -27.4242, -3.32923, 25.2963, -40.1533, 11.4057, -62.0493
5.12746, -1, -27.4935, -3.35948, 25.3107, -39.9653, 11.6009, -62.4143
5.13624, -1, -27.5629, -3.38974, 25.325, -39.7769, 11.7966, -62.7802
5.14346, -1, -27.6323, -3.42006, 25.3392, -39.5879, 11.9928, -63.1466
5.15146, -1, -27.7021, -3.45055, 25.3534, -39.3988, 12.1895, -63.5137
5.16035, -1, -27.7719, -3.48102, 25.3677, -39.2091, 12.3863, -63.882
5.16746, -1, -27.842, -3.51154, 25.382, -39.019, 12.5836, -64.2508
5.17549, -1, -27.9122, -3.54217, 25.3963, -38.8285, 12.7813, -64.6205
5.18428, -1, -27.9826, -3.57288, 25.4106, -38.6377, 12.9794, -64.9913
5.19148, -1, -28.0531, -3.60363, 25.4253, -38.4464, 13.1777, -65.3627
5.1996, -1, -28.1237, -3.63444, 25.44, -38.2547, 13.3767, -65.7348
5.20842, -1, -28.1945, -3.66536, 25.4544, -38.0625, 13.5759, -66.108
5.21556, -1, -28.2654, -3.69636, 25.4689, -37.8698, 13.7758, -66.4819
5.22364, -1, -28.3365, -3.72745, 25.4835, -37.6767, 13.976, -66.8569
5.23157, -1, -28.4079, -3.75848, 25.4981, -37.4833, 14.1766, -67.233
5.23958, -1, -28.4793, -3.7896, 25.5125, -37.2893, 14.3779, -67.6095
5.24764, -1, -28.5508, -3.82083, 25.5272, -37.0947, 14.5796, -67.9869
5.25752, -1, -28.6226, -3.85219, 25.5421, -36.9, 14.7815, -68.3654
5.26446, -1, -28.6945, -3.8835, 25.5569, -36.7044, 14.9842, -68.7448
5.27155, -1, -28.7666, -3.9149, 25.5716, -36.5087, 15.1874, -69.125
5.28043, -1, -28.8389, -3.94645, 25.5864, -36.3122, 15.3913, -69.5066
5.28771, -1, -28.9114, -3.97815, 25.6014, -36.1154, 15.5958, -69.8883
5.29569, -1, -28.984, -4.00978, 25.6162, -35.9181, 15.8007, -70.2712
5.30449, -1, -29.0568, -4.04155, 25.631, -35.7203, 16.0062, -70.6552
5.31224, -1, -29.1297, -4.07348, 25.6462, -35.522, 16.212, -71.0403
5.3199, -1, -29.2028, -4.1055, 25.6614, -35.3232, 16.4184, -71.4264
5.32866, -1, -29.2761, -4.13751, 25.6763, -35.1239, 16.6252, -71.8137
5.33602, -1, -29.3497, -4.16958, 25.6912, -34.9242, 16.8326, -72.2012
5.34401, -1, -29.4235, -4.20187, 25.7063, -34.724, 17.0404, -72.5901
5.35283, -1, -29.4972, -4.23422, 25.7214, -34.5232, 17.2487, -72.9799
5.36036, -1, -29.5714, -4.26658, 25.7363, -34.3219, 17.4573, -73.3706
5.36803, -1, -29.6085, -4.28275, 25.7439, -34.221, 17.6666, -73.7627
5.37696, -1, -29.6828, -4.31526, 25.7594, -33.9178, 17.8762, -74.1556
5.38346, -1, -29.7574, -4.34792, 25.7749, -33.8164, 17.9813, -74.3521
5.39145, -1, -29.8323, -4.38063, 25.7901, -33.6132, 18.192, -74.7463
5.39951, -1, -29.9073, -4.41339, 25.8054, -33.4096, 18.4033, -75.1417
5.40745, -1, -29.9826, -4.4463, 25.8209, -33.2054, 18.6152, -75.5383
5.41545, -1, -30.058, -4.47922, 25.8362, -33.0006, 18.8278, -75.9359
5.4235, -1, -30.1336, -4.51219, 25.8515, -32.7952, 19.0411, -76.3347
5.43145, -1, -30.2095, -4.54521, 25.8671, -32.5892, 19.255, -76.7341
5.43952, -1, -30.2856, -4.57847, 25.8829, -32.3827, 19.4695, -77.135
5.44749, -1, -30.3619, -4.61172, 25.8986, -32.1757, 19.6844, -77.5369
5.45546, -1, -30.4383, -4.64508, 25.9142, -31.968, 19.8998, -77.9399
5.46344, -1, -30.515, -4.6785, 25.9301, -31.7599, 20.1156, -78.3444
5.47376, -1, -30.6305, -4.72887, 25.9536, -31.4466, 20.4405, -78.9522
5.47944, -1, -30.6691, -4.74571, 25.9614, -31.3419, 20.5491, -79.1554
5.48744, -1, -30.7464, -4.77952, 25.9774, -31.1319, 20.7668, -79.563
5.49552, -1, -30.824, -4.81343, 25.9936, -30.9214, 20.9849, -79.9718
5.50527, -1, -30.9018, -4.84744, 26.0095, -30.7104, 21.2038, -80.3818
5.51148, -1, -30.9798, -4.88149, 26.0253, -30.4987, 21.4235, -80.7931
5.51951, -1, -31.0579, -4.91566, 26.0414, -30.2864, 21.6439, -81.205
5.52849, -1, -31.1364, -4.95002, 26.0574, -30.0737, 21.8648, -81.6184
5.53545, -1, -31.215, -4.9844, 26.0733, -29.8601, 22.0865, -82.033
5.54351, -1, -31.294, -5.01886, 26.0896, -29.6461, 22.3089, -82.4488
5.55145, -1, -31.3732, -5.05349, 26.1061, -29.4312, 22.532, -82.8662
5.55951, -1, -31.4525, -5.08816, 26.1223, -29.2156, 22.7556, -83.2841
5.56744, -1, -31.532, -5.12289, 26.1385, -28.9997, 22.9798, -83.7034
5.57546, -1, -31.6118, -5.15776, 26.155, -28.7828, 23.2046, -84.1241
5.58351, -1, -31.6919, -5.19278, 26.1712, -28.5655, 23.4301, -84.5459
5.59144, -1, -31.7722, -5.22779, 26.1875, -28.3476, 23.6561, -84.9694
5.59944, -1, -31.8527, -5.26287, 26.2042, -28.1288, 23.883, -85.3938
5.60757, -1, -31.9335, -5.2981, 26.2209, -27.9096, 24.1104, -85.8194
5.61545, -1, -32.0144, -5.33356, 26.2374, -27.6896, 24.3388, -86.2466
5.62345, -1, -32.0956, -5.36893, 26.2541, -27.4689, 24.5675, -86.675
5.63151, -1, -32.177, -5.40441, 26.271, -27.2475, 24.7969, -87.1052
5.63944, -1, -32.2585, -5.44014, 26.2876, -27.0256, 25.0272, -87.5362
5.64744, -1, -32.3404, -5.47593, 26.3044, -26.8028, 25.2581, -87.9682
5.65552, -1, -32.4227, -5.51186, 26.3216, -26.5794, 25.4899, -88.4022
5.66344, -1, -32.5053, -5.54795, 26.3386, -26.3554, 25.7224, -88.8373
5.67151, -1, -32.5881, -5.58425, 26.3553, -26.1304, 25.956, -89.2742
5.67948, -1, -32.6713, -5.62056, 26.3723, -25.9048, 26.1902, -89.7125
5.68745, -1, -32.7546, -5.65692, 26.3893, -25.6783, 26.4252, -90.1514
5.69554, -1, -32.8382, -5.69354, 26.4063, -25.4511, 26.661, -90.5924
5.70351, -1, -32.9221, -5.73028, 26.4236, -25.2234, 26.8974, -91.0347
5.71154, -1, -33.0064, -5.76701, 26.441, -24.9948, 27.1346, -91.4785
5.71989, -1, -33.091, -5.80396, 26.4583, -24.7655, 27.3727, -91.9238
5.72754, -1, -33.1759, -5.84104, 26.4757, -24.5355, 27.6114, -92.3699
5.73555, -1, -33.2609, -5.87819, 26.4932, -24.3047, 27.8507, -92.818
5.744, -1, -33.3462, -5.9154, 26.5104, -24.0731, 28.0907, -93.2676
5.7525, -1, -33.4316, -5.95278, 26.5279, -23.8408, 28.3315, -93.7188
5.75952, -1, -33.5174, -5.99019, 26.5456, -23.6078, 28.5733, -94.1713
5.76828, -1, -33.6035, -6.02768, 26.5632, -23.3739, 28.8159, -94.6249
5.77554, -1, -33.6899, -6.0654, 26.581, -23.1393, 29.0594, -95.0808
5.78361, -1, -33.7766, -6.10325, 26.5989, -22.9039, 29.3039, -95.538
5.79246, -1, -33.8636, -6.14116, 26.6167, -22.6676, 29.5493, -95.9969
5.7997, -1, -33.951, -6.17924, 26.6345, -22.4303, 29.7955, -96.457
5.80781, -1, -34.0388, -6.21748, 26.6526, -22.1923, 30.0424, -96.9186
5.81666, -1, -34.1267, -6.25589, 26.6706, -21.9536, 30.2902, -97.3821
5.82385, -1, -34.2151, -6.29443, 26.6885, -21.714, 30.5387, -97.8472
5.83198, -1, -34.3037, -6.33314, 26.7067, -21.4737, 30.7877, -98.3143
5.84093, -1, -34.3926, -6.37191, 26.7248, -21.2325, 31.038, -98.7826
5.84801, -1, -34.4819, -6.41092, 26.743, -20.9906, 31.2891, -99.2523
5.85655, -1, -34.5715, -6.45007, 26.7615, -20.7476, 31.5409, -99.7242
5.86516, -1, -34.6163, -6.48932, 26.78, -20.5038, 31.7938, -100.198
5.87205, -1, -34.7062, -6.50901, 26.7891, -20.2591, 32.0477, -100.673
5.88005, -1, -34.7964, -6.54851, 26.8077, -20.1365, 32.1749, -101.149
5.88744, -1, -34.8867, -6.58809, 26.8262, -19.8905, 32.4304, -101.388
5.89548, -1, -34.9775, -6.62776, 26.8446, -19.6437, 32.6867, -101.867
5.90343, -1, -35.0687, -6.66769, 26.8633, -19.396, 32.944, -102.349
5.91146, -1, -35.16, -6.70769, 26.8822, -19.1473, 33.2021, -102.831
5.91948, -1, -35.2519, -6.74762, 26.901, -18.8976, 33.4611, -103.315
5.92744, -1, -35.344, -6.78791, 26.92, -18.6469, 33.7211, -103.802
5.93544, -1, -35.4366, -6.8283, 26.939, -18.3956, 33.9817, -104.29
5.94355, -1, -35.5295, -6.86874, 26.958, -18.1433, 34.2433, -104.78
5.95145, -1, -35.6227, -6.9094, 26.9772, -17.8901, 34.506, -105.271
5.95944, -1, -35.7162, -6.95025, 26.9964, -17.6361, 34.7696, -105.764
5.96748, -1, -35.8101, -6.99128, 27.0156, -17.3809, 35.0341, -106.26
5.97705, -1, -35.9518, -7.05316, 27.0445, -16.9966, 35.4328, -107.006
5.98344, -1, -35.9991, -7.07387, 27.0542, -16.868, 35.5663, -107.256
5.99303, -1, -36.0941, -7.11531, 27.0834, -16.481, 35.9677, -108.007
5.99943, -1, -36.1894, -7.15703, 27.0932, -16.3515, 36.1021, -108.259
6.00744, -1, -36.2852, -7.19896, 27.1128, -16.0917, 36.3717, -108.763
6.01553, -1, -36.3813, -7.24096, 27.1324, -15.831, 36.6423, -109.27
6.02448, -1, -36.4778, -7.28312, 27.1522, -15.569, 36.914, -109.778
6.03145, -1, -36.5745, -7.32545, 27.1719, -15.3061, 37.1866, -110.288
6.03949, -1, -36.6716, -7.36794, 27.1917, -15.0424, 37.4601, -110.799
6.04743, -1, -36.769, -7.41052, 27.2117, -14.7777, 37.7347, -111.313
6.05571, -1, -36.8668, -7.45325, 27.2317, -14.5121, 38.0104, -111.829
6.06342, -1, -36.9651, -7.49609, 27.2519, -14.2455, 38.2871, -112.347
6.07145, -1, -37.0637, -7.53912, 27.2722, -13.9779, 38.5644, -112.866
6.0795, -1, -37.1625, -7.5823, 27.2925, -13.7091, 38.8431, -113.388
6.08742, -1, -37.2619, -7.62558, 27.313, -13.4395, 39.1228, -113.912
6.09544, -1, -37.3617, -7.66906, 27.3334, -13.1689, 39.4037, -114.437
6.10422, -1, -37.4618, -7.71269, 27.3538, -12.8973, 39.6855, -114.964
6.11163, -1, -37.5623, -7.75659, 27.3744, -12.6247, 39.9686, -115.494
6.11942, -1, -37.663, -7.80066, 27.3951, -12.3509, 40.2529, -116.025
6.12826, -1, -37.7642, -7.84482, 27.4159, -12.0761, 40.5381, -116.559
6.13543, -1, -37.8658, -7.88921, 27.4368, -11.8004, 40.8243, -117.094
6.14342, -1, -37.9676, -7.93383, 27.4577, -11.5236, 41.1113, -117.631
6.15225, -1, -38.0698, -7.97853, 27.4787, -11.2459, 41.3991, -118.171
6.15944, -1, -38.1723, -8.02344, 27.4997, -10.9673, 41.688, -118.712
6.16742, -1, -38.2752, -8.06839, 27.5207, -10.6876, 41.978, -119.254
6.17625, -1, -38.3784, -8.11351, 27.5421, -10.4068, 42.269, -119.8
6.18368, -1, -38.4819, -8.15885, 27.5633, -10.125, 42.5614, -120.347
6.19144, -1, -38.5858, -8.2042, 27.5847, -9.84232, 42.8548, -120.896
6.20033, -1, -38.6903, -8.24972, 27.6063, -9.55863, 43.1495, -121.446
6.20767, -1, -38.7951, -8.29547, 27.6278, -9.27401, 43.4453, -121.999
6.21552, -1, -38.9003, -8.34126, 27.6495, -8.98813, 43.7422, -122.554
6.2254, -1, -39.006, -8.38723, 27.6711, -8.70125, 44.0399, -123.111
6.23208, -1, -39.1119, -8.43338, 27.6928, -8.41327, 44.3386, -123.669
6.24048, -1, -39.2185, -8.47972, 27.7146, -8.12432, 44.6382, -124.23
6.24754, -1, -39.3254, -8.52632, 27.7365, -7.83459, 44.9387, -124.793
6.25605, -1, -39.4326, -8.57303, 27.7585, -7.54395, 45.2402, -125.357
6.26442, -1, -39.5401, -8.61991, 27.7805, -7.25227, 45.5426, -125.924
6.27146, -1, -39.648, -8.66707, 27.8025, -6.95951, 45.8462, -126.492
6.27982, -1, -39.7562, -8.71434, 27.8246, -6.66581, 46.151, -127.063
6.28764, -1, -39.8646, -8.76171, 27.8468, -6.37127, 46.4565, -127.635
6.29561, -1, -39.9733, -8.8093, 27.8691, -6.07561, 46.7633, -128.208
6.30375, -1, -40.0825, -8.85699, 27.8915, -5.77924, 47.0711, -128.784
6.31184, -1, -40.1921, -8.90483, 27.9138, -5.4817, 47.38, -129.361
6.31976, -1, -40.302, -8.95273, 27.9364, -5.18325, 47.6897, -129.94
6.32802, -1, -40.4121, -9.00074, 27.959, -4.88392, 48.0002, -130.521
6.33601, -1, -40.5226, -9.04893, 27.9817, -4.58383, 48.3116, -131.104
6.34397, -1, -40.6336, -9.09722, 28.0044, -4.28291, 48.6239, -131.688
6.35202, -1, -40.7447, -9.14559, 28.027, -3.9812, 48.9369, -132.274
6.36008, -1, -40.8561, -9.19412, 28.0499, -3.67853, 49.2506, -132.861
6.36799, -1, -40.9119, -9.21847, 28.0727, -3.37502, 49.5654, -133.451
6.37617, -1, -41.0238, -9.26725, 28.0842, -3.22295, 49.7231, -134.042
6.38419, -1, -41.1361, -9.31616, 28.1074, -2.91839, 50.0392, -134.634
6.39141, -1, -41.2483, -9.36527, 28.1303, -2.61293, 50.3565, -134.93
6.39941, -1, -41.3609, -9.41455, 28.1535, -2.30672, 50.6746, -135.525
6.40747, -1, -41.4736, -9.46398, 28.1766, -1.9996, 50.9933, -136.122
6.41541, -1, -41.5866, -9.51354, 28.1998, -1.69167, 51.3127, -136.719
6.42343, -1, -41.7, -9.5631, 28.2231, -1.38314, 51.6326, -137.317
6.43142, -1, -41.8136, -9.61288, 28.2463, -1.07406, 51.9531, -137.918
6.43942, -1, -41.9276, -9.66275, 28.2698, -0.764296, 52.2744, -138.519
6.44747, -1, -42.0421, -9.71254, 28.2933, -0.454043, 52.5961, -139.121
6.45542, -1, -42.1567, -9.7626, 28.3169, -0.143006, 52.9188, -139.725
6.46495, -1, -42.329, -9.8376, 28.3522, 0.324747, 53.4041, -140.634
6.47141, -1, -42.3865, -9.86267, 28.3639, 0.480864, 53.5663, -140.937
6.47941, -1, -42.5018, -9.91289, 28.3876, 0.793558, 53.8911, -141.544
6.48748, -1, -42.6172, -9.96315, 28.4113, 1.10672, 54.2165, -142.152
6.49713, -1, -42.7327, -10.0388, 28.447, 1.57774, 54.7051, -143.066
6.50341, -1, -42.8484, -10.064, 28.4588, 1.73494, 54.8682, -143.371
6.51241, -1, -42.9642, -10.1146, 28.4826, 2.04956, 55.1946, -143.982
6.51944, -1, -43.0802, -10.1654, 28.5063, 2.36457, 55.5214, -144.594
6.52841, -1, -43.1961, -10.2162, 28.5302, 2.6798, 55.8484, -145.207
6.53549, -1, -43.3123, -10.267, 28.5541, 2.99539, 56.1758, -145.819
6.54343, -1, -43.4287, -10.3179, 28.5779, 3.31141, 56.5038, -146.433
6.55141, -1, -43.5451, -10.3689, 28.6019, 3.62764, 56.832, -147.047
6.55947, -1, -43.6618, -10.4198, 28.6258, 3.94424, 57.1604, -147.661
6.56742, -1, -43.7785, -10.4707, 28.6499, 4.26094, 57.4892, -148.276
6.57549, -1, -43.8954, -10.5216, 28.6738, 4.57773, 57.8182, -148.892
6.5834, -1, -44.0122, -10.5725, 28.6977, 4.895, 58.1473, -149.508
6.59141, -1, -44.1291, -10.6233, 28.7218, 5.21244, 58.4764, -150.123
6.59947, -1, -44.2459, -10.6741, 28.7458, 5.52982, 58.8057, -150.739
6.60742, -1, -44.3626, -10.725, 28.77, 5.84714, 59.135, -151.356
6.61548, -1, -44.4792, -10.7759, 28.7939, 6.16446, 59.4644, -151.972
6.62348, -1, -44.5957, -10.8268, 28.8179, 6.48196, 59.7935, -152.588
6.63141, -1, -44.7121, -10.8779, 28.8418, 6.79928, 60.1228, -153.205
6.6394, -1, -44.8288, -10.9289, 28.8658, 7.11664, 60.4521, -153.822
6.64747, -1, -44.9455, -10.98, 28.8898, 7.43373, 60.7814, -154.437
6.65542, -1, -45.0622, -11.031, 28.9137, 7.75073, 61.1107, -155.052
6.66341, -1, -45.179, -11.0821, 28.9377, 8.06754, 61.4398, -155.668
6.67147, -1, -45.2957, -11.1332, 28.9616, 8.38438, 61.7684, -156.283
6.67972, -1, -45.4124, -11.184, 28.9856, 8.70099, 62.0969, -156.897
6.68744, -1, -45.529, -11.2348, 29.0094, 9.01723, 62.4248, -157.511
6.69549, -1, -45.6455, -11.2855, 29.0332, 9.33306, 62.7523, -158.125
6.70344, -1, -45.762, -11.336, 29.0571, 9.64845, 63.0794, -158.737
6.71148, -1, -45.8783, -11.3865, 29.0809, 9.96364, 63.4064, -159.349
6.71955, -1, -45.9944, -11.4369, 29.1048, 10.2785, 63.7331, -159.961
6.72751, -1, -46.1102, -11.4874, 29.1285, 10.5929, 64.0596, -160.571
6.73552, -1, -46.2255, -11.5377, 29.1522, 10.9069, 64.3859, -161.181
6.74358, -1, -46.3399, -11.5877, 29.1759, 11.2202, 64.7114, -161.789
6.75147, -1, -46.4527, -11.6372, 29.1996, 11.5321, 65.0352, -162.396
6.75941, -1, -46.5624, -11.6852, 29.2232, 11.8413, 65.3559, -162.996
6.76759, -1, -46.6684, -11.7311, 29.2465, 12.1437, 65.6701, -163.584
6.77548, -1, -46.7691, -11.7739, 29.2691, 12.4344, 65.9718, -164.15
6.7838, -1, -46.8619, -11.813, 29.2905, 12.7058, 66.2546, -164.679
6.79178, -1, -46.9453, -11.848, 29.3101, 12.9495, 66.5088, -165.155
6.79962, -1, -47.0178, -11.8786, 29.3266, 13.158, 66.727, -165.563
6.80802, -1, -47.0786, -11.905, 29.3394, 13.3262, 66.9036, -165.893
6.81641, -1, -47.128, -11.9272, 29.3487, 13.4531, 67.0374, -166.143
6.8238, -1, -47.1663, -11.9451, 29.355, 13.5422, 67.1318, -166.318
6.83218, -1, -47.1955, -11.9589, 29.3584, 13.5984, 67.193, -166.431
6.83998, -1, -47.2169, -11.9689, 29.36, 13.632, 67.2288, -166.497
6.84798, -1, -47.2316, -11.9756, 29.3608, 13.65, 67.2482, -166.533
6.85601, -1, -47.2405, -11.9794, 29.3612, 13.659, 67.2577, -166.55
6.86406, 2, -47.245, -11.9813, 29.3614, 13.6634, 67.2622, -166.558
6.87198, 2, -47.2463, -11.9819, 29.3615, 13.6655, 67.2643, -166.561
6.88034, 2, -47.2472, -11.9827, 29.3616, 13.6665, 67.2653, -166.563
6.88798, 2, -47.247, -11.9828, 29.3616, 13.6669, 67.2656, -166.563
6.8954, 2, -47.2465, -11.9829, 29.3617, 13.6673, 67.2659, -166.564
6.9034, 2, -47.2463, -11.983, 29.3617, 13.6676, 67.266, -166.564
6.91145, 2, -47.2465, -11.9832, 29.3617, 13.6677, 67.2661, -166.564
6.91939, 2, -47.2471, -11.9835, 29.3617, 13.6677, 67.2661, -166.564
6.92739, 2, -47.2481, -11.9839, 29.3617, 13.6677, 67.2661, -166.563
6.93545, 2, -47.2493, -11.9842, 29.3617, 13.6677, 67.266, -166.563
6.94339, 2, -47.25, -11.9846, 29.3617, 13.6676, 67.266, -166.563
6.9514, 2, -47.2504, -11.9848, 29.3617, 13.6676, 67.2659, -166.563
6.95945, 2, -47.2504, -11.985, 29.3617, 13.6676, 67.2658, -166.562
6.96739, 2, -47.2501, -11.9851, 29.3617, 13.6676, 67.2656, -166.562
6.97701, 2, -47.2493, -11.9851, 29.3617, 13.6675, 67.2655, -166.561
6.98344, 2, -47.2491, -11.9851, 29.3617, 13.6675, 67.2654, -166.561
6.99301, 2, -47.2483, -11.985, 29.3617, 13.6674, 67.2652, -166.56
6.99939, 2, -47.248, -11.985, 29.3617, 13.6674, 67.2651, -166.56
7.00839, 2, -47.2474, -11.985, 29.3617, 13.6673, 67.265, -166.56
7.01644, 2, -47.247, -11.985, 29.3616, 13.6673, 67.2648, -166.559
7.02343, 2, -47.2467, -11.985, 29.3617, 13.6672, 67.2648, -166.559
7.03146, 2, -47.2466, -11.9851, 29.3617, 13.6672, 67.2648, -166.559
7.03939, 2, -47.2465, -11.9851, 29.3616, 13.6672, 67.2647, -166.559
7.04739, 2, -47.2466, -11.9851, 29.3617, 13.6671, 67.2647, -166.559
7.05551, 2, -47.2467, -11.9851, 29.3617, 13.6671, 67.2647, -166.559
7.06339, 2, -47.2472, -11.9852, 29.3617, 13.667, 67.2647, -166.559
7.07139, 2, -47.2475, -11.9852, 29.3617, 13.667, 67.2646, -166.559
7.07945, 2, -47.2477, -11.9852, 29.3617, 13.6669, 67.2645, -166.559
7.08739, 2, -47.2477, -11.9852, 29.3617, 13.6669, 67.2645, -166.558
7.09541, 2, -47.2477, -11.9852, 29.3617, 13.6669, 67.2645, -166.558
7.10351, 2, -47.2476, -11.9852, 29.3617, 13.6668, 67.2644, -166.558
7.11139, 2, -47.2475, -11.9852, 29.3617, 13.6668, 67.2644, -166.558
7.11938, 2, -47.2474, -11.9852, 29.3617, 13.6668, 67.2644, -166.558
7.12746, 2, -47.2473, -11.9852, 29.3617, 13.6667, 67.2644, -166.558
7.1354, 2, -47.2472, -11.9852, 29.3616, 13.6667, 67.2644, -166.558
7.14339, 2, -47.2472, -11.9852, 29.3617, 13.6666, 67.2644, -166.558
7.15145, 2, -47.2472, -11.9852, 29.3617, 13.6666, 67.2643, -166.558
7.1594, 2, -47.2472, -11.9853, 29.3617, 13.6666, 67.2643, -166.558
7.16739, 2, -47.2472, -11.9853, 29.3617, 13.6666, 67.2643, -166.558
7.17546, 2, -47.2472, -11.9853, 29.3617, 13.6666, 67.2642, -166.558
7.18345, 2, -47.2472, -11.9853, 29.3617, 13.6665, 67.2642, -166.558
7.19143, 2, -47.2472, -11.9853, 29.3617, 13.6665, 67.2642, -166.558
7.19946, 2, -47.2472, -11.9852, 29.3617, 13.6664, 67.2642, -166.558
7.20743, 2, -47.2472, -11.9852, 29.3617, 13.6664, 67.2642, -166.558
7.2155, 2, -47.2472, -11.9852, 29.3617, 13.6664, 67.2641, -166.558
7.22355, 2, -47.2472, -11.9852, 29.3617, 13.6663, 67.2641, -166.558
7.23149, 2, -47.2472, -11.9852, 29.3616, 13.6663, 67.264, -166.558
7.2395, 2, -47.2471, -11.9852, 29.3616, 13.6662, 67.2641, -166.557
7.24756, 2, -47.2471, -11.9852, 29.3617, 13.6661, 67.264, -166.557
7.25546, 2, -47.2472, -11.9852, 29.3617, 13.6661, 67.264, -166.557
7.2634, 2, -47.2471, -11.9853, 29.3616, 13.6661, 67.264, -166.557
7.27148, 2, -47.2472, -11.9852, 29.3616, 13.666, 67.264, -166.557
7.27942, 2, -47.2471, -11.9852, 29.3616, 13.666, 67.264, -166.557
7.28749, 2, -47.2471, -11.9852, 29.3617, 13.666, 67.264, -166.557
7.29588, 2, -47.2472, -11.9852, 29.3616, 13.666, 67.264, -166.557
7.30357, 2, -47.2471, -11.9852, 29.3617, 13.6659, 67.2639, -166.557
7.312, 2, -47.2471, -11.9852, 29.3617, 13.6659, 67.2639, -166.557
7.32044, 2, -47.2472, -11.9852, 29.3617, 13.6658, 67.2638, -166.557
7.32777, 2, -47.2471, -11.9852, 29.3617, 13.6659, 67.2638, -166.557
7.33618, 2, -47.2471, -11.9852, 29.3617, 13.6658, 67.2638, -166.557
7.34433, 2, -47.2471, -11.9852, 29.3617, 13.6658, 67.2638, -166.557
7.352, 2, -47.2471, -11.9852, 29.3617, 13.6658, 67.2637, -166.557
7.36036, 2, -47.2471, -11.9852, 29.3617, 13.6657, 67.2637, -166.557
7.36803, 2, -47.247, -11.9852, 29.3616, 13.6657, 67.2637, -166.557
7.37591, 2, -47.247, -11.9852, 29.3616, 13.6657, 67.2636, -166.556
7.38418, 2, -47.2471, -11.9853, 29.3616, 13.6657, 67.2636, -166.556
7.39143, 2, -47.2471, -11.9852, 29.3616, 13.6656, 67.2636, -166.556
7.39938, 2, -47.2471, -11.9852, 29.3616, 13.6656, 67.2636, -166.556
7.40822, 2, -47.247, -11.9852, 29.3616, 13.6655, 67.2636, -166.556
7.41543, 2, -47.247, -11.9852, 29.3616, 13.6655, 67.2636, -166.556
7.42338, 2, -47.247, -11.9852, 29.3616, 13.6654, 67.2636, -166.556
7.43138, 2, -47.2469, -11.9852, 29.3616, 13.6654, 67.2636, -166.556
7.43943, 2, -47.2469, -11.9852, 29.3617, 13.6654, 67.2636, -166.556
7.44738, 2, -47.2469, -11.9852, 29.3616, 13.6654, 67.2636, -166.556
7.45726, 2, -47.2469, -11.9852, 29.3616, 13.6654, 67.2636, -166.556
7.46343, 2, -47.2469, -11.9852, 29.3616, 13.6654, 67.2635, -166.556
7.47138, 2, -47.2469, -11.9852, 29.3616, 13.6654, 67.2635, -166.556
7.48139, 2, -47.2469, -11.9852, 29.3617, 13.6654, 67.2635, -166.556
7.48745, 2, -47.2469, -11.9852, 29.3617, 13.6653, 67.2635, -166.556
7.49538, 2, -47.2469, -11.9852, 29.3616, 13.6653, 67.2635, -166.556
7.50523, 2, -47.2469, -11.9852, 29.3616, 13.6652, 67.2635, -166.556
7.51144, 2, -47.2469, -11.9852, 29.3616, 13.6652, 67.2635, -166.556
7.52103, 2, -47.2468, -11.9852, 29.3616, 13.6652, 67.2634, -166.556
7.52746, 2, -47.2468, -11.9852, 29.3616, 13.6652, 67.2635, -166.556
7.53548, 2, -47.2468, -11.9852, 29.3616, 13.6652, 67.2635, -166.556
7.54338, 2, -47.2468, -11.9852, 29.3617, 13.6652, 67.2635, -166.555
7.55137, 2, -47.2467, -11.9852, 29.3616, 13.6652, 67.2634, -166.555
7.55944, 2, -47.2467, -11.9852, 29.3616, 13.6651, 67.2634, -166.555
7.56738, 2, -47.2467, -11.9852, 29.3616, 13.6651, 67.2635, -166.555
7.57537, 2, -47.2467, -11.9852, 29.3616, 13.6651, 67.2634, -166.555
7.58344, 2, -47.2467, -11.9852, 29.3616, 13.6651, 67.2634, -166.555
7.59137, 2, -47.2467, -11.9852, 29.3616, 13.6651, 67.2634, -166.555
7.59937, 2, -47.2467, -11.9852, 29.3616, 13.6651, 67.2634, -166.555
7.60745, 2, -47.2467, -11.9852, 29.3616, 13.6651, 67.2634, -166.555
7.61537, 2, -47.2466, -11.9852, 29.3616, 13.665, 67.2634, -166.555
7.62337, 2, -47.2466, -11.9852, 29.3616, 13.665, 67.2633, -166.555
7.63144, 2, -47.2466, -11.9852, 29.3616, 13.6651, 67.2633, -166.555
7.63937, 2, -47.2465, -11.9852, 29.3616, 13.665, 67.2633, -166.555
7.64738, 2, -47.2465, -11.9852, 29.3616, 13.665, 67.2632, -166.555
7.65545, 2, -47.2465, -11.9852, 29.3616, 13.665, 67.2633, -166.555
7.66337, 2, -47.2465, -11.9852, 29.3616, 13.665, 67.2633, -166.555
7.67143, 2, -47.2465, -11.9852, 29.3616, 13.665, 67.2633, -166.555
7.67944, 2, -47.2465, -11.9852, 29.3616, 13.665, 67.2633, -166.555
7.68744, 2, -47.2465, -11.9852, 29.3616, 13.665, 67.2633, -166.555
7.69541, 2, -47.2464, -11.9852, 29.3616, 13.665, 67.2633, -166.555
7.70344, 2, -47.2464, -11.9852, 29.3616, 13.665, 67.2633, -166.555
7.71141, 2, -47.2464, -11.9852, 29.3616, 13.665, 67.2633, -166.555
7.71946, 2, -47.2464, -11.9852, 29.3616, 13.665, 67.2632, -166.555
7.72753, 2, -47.2464, -11.9852, 29.3616, 13.665, 67.2632, -166.555
7.73545, 2, -47.2463, -11.9852, 29.3616, 13.665, 67.2632, -166.555
7.74348, 2, -47.2463, -11.9852, 29.3616, 13.665, 67.2632, -166.555
7.75154, 2, -47.2463, -11.9852, 29.3616, 13.665, 67.2632, -166.555
7.75943, 2, -47.2463, -11.9852, 29.3616, 13.665, 67.2632, -166.555
7.76739, 2, -47.2462, -11.9852, 29.3616, 13.6649, 67.2632, -166.555
7.77546, 2, -47.2462, -11.9852, 29.3616, 13.6649, 67.2632, -166.555
7.78341, 2, -47.2462, -11.9852, 29.3616, 13.665, 67.2632, -166.555
7.79143, 2, -47.2462, -11.9852, 29.3616, 13.665, 67.2632, -166.555
7.79964, 2, -47.2461, -11.9852, 29.3616, 13.6649, 67.2632, -166.555
7.80757, 2, -47.2461, -11.9852, 29.3616, 13.6649, 67.2632, -166.555
7.81566, 2, -47.2461, -11.9852, 29.3616, 13.6649, 67.2631, -166.555
7.82384, 2, -47.2461, -11.9852, 29.3616, 13.6649, 67.2632, -166.555
7.83176, 2, -47.2461, -11.9852, 29.3616, 13.6649, 67.2632, -166.555
7.83986, 2, -47.246, -11.9852, 29.3616, 13.6649, 67.2632, -166.555
7.84846, 2, -47.246, -11.9852, 29.3616, 13.6649, 67.2632, -166.555
7.85597, 2, -47.246, -11.9852, 29.3616, 13.665, 67.2632, -166.555
7.86413, 2, -47.246, -11.9852, 29.3616, 13.665, 67.2631, -166.555
7.87293, 2, -47.2459, -11.9852, 29.3616, 13.6649, 67.2631, -166.555
7.88062, 2, -47.2459, -11.9852, 29.3616, 13.6649, 67.2631, -166.555
7.88789, 2, -47.2459, -11.9852, 29.3616, 13.6649, 67.2631, -166.555
7.89679, 2, -47.2459, -11.9852, 29.3616, 13.6649, 67.2631, -166.555
7.90336, 2, -47.2459, -11.9852, 29.3616, 13.6649, 67.2631, -166.555
7.91136, 2, -47.2459, -11.9852, 29.3616, 13.6649, 67.2632, -166.555
7.91941, 2, -47.2459, -11.9852, 29.3616, 13.6649, 67.2631, -166.555
7.92734, 2, -47.2459, -11.9852, 29.3616, 13.6649, 67.2631, -166.555
7.93536, 2, -47.2458, -11.9852, 29.3616, 13.6649, 67.2631, -166.555
7.94465, 2, -47.2458, -11.9852, 29.3616, 13.6649, 67.2631, -166.555
7.9528, 4, -47.2458, -11.9852, 29.3616, 13.6649, 67.2631, -166.555
7.95936, 4, -47.2458, -11.9852, 29.3616, 13.6648, 67.2631, -166.555
7.96922, 4, -47.2458, -11.9852, 29.3616, 13.6649, 67.2631, -166.555
7.97535, 4, -47.2458, -11.9852, 29.3616, 13.6649, 67.2631, -166.555
7.9849, 4, -47.2457, -11.9852, 29.3616, 13.6649, 67.2631, -166.555
7.99317, 4, -47.2457, -11.9852, 29.3616, 13.6649, 67.2631, -166.554
7.99935, 4, -47.2457, -11.9852, 29.3616, 13.6649, 67.2631, -166.554
8.0089, 4, -47.2456, -11.9852, 29.3616, 13.6648, 67.2631, -166.554
8.01542, 4, -47.2456, -11.9852, 29.3616, 13.6649, 67.2631, -166.554
8.02351, 4, -47.2456, -11.9852, 29.3616, 13.6649, 67.2631, -166.554
8.03139, 4, -47.2456, -11.9852, 29.3616, 13.6649, 67.2631, -166.554
8.03942, 4, -47.2456, -11.9852, 29.3616, 13.6648, 67.2631, -166.554
8.04736, 4, -47.2455, -11.9851, 29.3616, 13.6648, 67.2631, -166.554
8.07081, 4, -47.2455, -11.9852, 29.3616, 13.6649, 67.2631, -166.554
8.07266, 4, -47.2455, -11.9852, 29.3616, 13.6649, 67.2631, -166.554
8.07539, 4, -47.2455, -11.9852, 29.3616, 13.6649, 67.2631, -166.554
8.08059, 4, -47.2455, -11.9852, 29.3616, 13.6649, 67.2631, -166.554
8.09064, 4, -47.2454, -11.9852, 29.3615, 13.665, 67.2631, -166.554
8.09655, 4, -47.2454, -11.9852, 29.3616, 13.6649, 67.2631, -166.554
8.10505, 4, -47.2457, -11.9852, 29.3616, 13.6649, 67.2631, -166.554
8.11252, 4, -47.2466, -11.9858, 29.3619, 13.665, 67.2632, -166.554
8.12043, 4, -47.2489, -11.9877, 29.3638, 13.667, 67.2635, -166.554
8.12752, 4, -47.253, -11.9923, 29.3692, 13.677, 67.2653, -166.553
8.13659, 4, -47.2593, -12, 29.3808, 13.7014, 67.2711, -166.547
8.14352, 4, -47.2686, -12.0116, 29.4016, 13.7456, 67.283, -166.537
8.15481, 5, -47.29, -12.0385, 29.4563, 13.8666, 67.3162, -166.509
8.16061, 5, -47.2994, -12.0503, 29.4817, 13.9232, 67.3322, -166.496
8.16745, 5, -47.3215, -12.0779, 29.5435, 14.0627, 67.371, -166.463
8.17535, 5, -47.3479, -12.1107, 29.6197, 14.2352, 67.4181, -166.422
8.18357, 5, -47.3784, -12.1487, 29.7084, 14.4356, 67.4738, -166.375
8.1916, 5, -47.4124, -12.1915, 29.8071, 14.6577, 67.5348, -166.322
8.19939, 5, -47.4492, -12.2382, 29.9135, 14.8947, 67.5993, -166.266
8.2076, 5, -47.4881, -12.2878, 30.0257, 15.1415, 67.6668, -166.208
8.21643, 5, -47.529, -12.3396, 30.1418, 15.3938, 67.7346, -166.149
8.22355, 5, -47.5716, -12.393, 30.2602, 15.6492, 67.8037, -166.089
8.23168, 5, -47.6152, -12.4473, 30.3801, 15.9057, 67.8715, -166.029
8.24057, 5, -47.6594, -12.5021, 30.501, 16.163, 67.9402, -165.97
8.24753, 5, -47.704, -12.5572, 30.6229, 16.4204, 68.0074, -165.911
8.25566, 5, -47.7488, -12.6127, 30.746, 16.6781, 68.0752, -165.852
8.26484, 5, -47.7935, -12.6682, 30.8704, 16.936, 68.1413, -165.794
8.27143, 5, -47.8382, -12.724, 30.9959, 17.1943, 68.2078, -165.736
8.2809, 5, -47.8827, -12.7799, 31.122, 17.4526, 68.2732, -165.678
8.28938, 5, -47.9272, -12.8359, 31.2489, 17.7108, 68.3382, -165.622
8.29553, 5, -47.9717, -12.8922, 31.3768, 17.9692, 68.4028, -165.565
8.30352, 5, -48.0165, -12.9488, 31.5056, 18.2276, 68.4663, -165.508
8.31181, 5, -48.062, -13.0058, 31.6355, 18.486, 68.5302, -165.452
8.32055, 5, -48.108, -13.0631, 31.7663, 18.7447, 68.5926, -165.397
8.32771, 5, -48.1542, -13.1208, 31.8979, 19.0034, 68.6555, -165.341
8.33657, 5, -48.2006, -13.1788, 32.0302, 19.2621, 68.717, -165.287
8.34382, 5, -48.2471, -13.2372, 32.1634, 19.5207, 68.7785, -165.233
8.35192, 5, -48.2937, -13.2958, 32.2977, 19.7795, 68.8395, -165.178
8.36206, 5, -48.3405, -13.3547, 32.4328, 20.0383, 68.8998, -165.124
8.36845, 5, -48.3874, -13.4137, 32.5688, 20.2971, 68.9601, -165.071
8.37669, 5, -48.4344, -13.4728, 32.7058, 20.556, 69.019, -165.019
8.38423, 5, -48.4814, -13.532, 32.8437, 20.815, 69.0781, -164.965
8.39132, 5, -48.5049, -13.5617, 32.9129, 20.9445, 69.1074, -164.939
8.39933, 5, -48.5516, -13.621, 33.052, 21.2034, 69.1652, -164.887
8.40736, 5, -48.597, -13.6801, 33.1917, 21.4622, 69.2236, -164.835
8.41539, 5, -48.6407, -13.7389, 33.3319, 21.7198, 69.2812, -164.78
8.42463, 5, -48.7024, -13.8258, 33.5416, 22.1016, 69.3686, -164.692
8.43147, 5, -48.7218, -13.8542, 33.6108, 22.2266, 69.3984, -164.659
8.43956, 6, -48.758, -13.9098, 33.7472, 22.4711, 69.4582, -164.584
8.44875, 6, -48.8047, -13.9898, 33.9454, 22.8202, 69.5536, -164.446
8.45699, 6, -48.8299, -14.0404, 34.0721, 23.0385, 69.6197, -164.331
8.4657, 6, -48.8497, -14.0885, 34.1936, 23.2444, 69.69, -164.199
8.47139, 6, -48.8574, -14.1116, 34.2525, 23.3426, 69.7257, -164.125
8.48137, 7, -48.8714, -14.1764, 34.4217, 23.6202, 69.8382, -163.879
8.493, 7, -48.874, -14.2353, 34.5805, 23.8748, 69.9554, -163.597
8.49536, 7, -48.874, -14.2353, 34.5805, 23.8748, 69.9554, -163.597
8.50616, 7, -48.8663, -14.2887, 34.7306, 24.1121, 70.0778, -163.288
8.51141, 7, -48.8618, -14.3054, 34.7791, 24.188, 70.1197, -163.18
8.52117, 7, -48.8503, -14.3376, 34.8741, 24.3358, 70.2469, -162.843
8.52741, 8, -48.836, -14.3682, 34.9666, 24.4794, 70.29, -162.727
8.5378, 8, -48.8193, -14.3974, 35.101, 24.6884, 70.4215, -162.371
8.54333, 8, -48.8005, -14.4255, 35.1447, 24.7568, 70.4658, -162.249
8.55134, 8, -48.7801, -14.4526, 35.231, 24.8923, 70.5552, -162.004
8.55957, 8, -48.7585, -14.4791, 35.316, 25.0265, 70.6456, -161.756
8.56732, 9, -48.7362, -14.5047, 35.4001, 25.1598, 70.7364, -161.506
8.57533, 9, -48.7131, -14.5297, 35.4833, 25.2925, 70.8279, -161.254
8.58336, 9, -48.6893, -14.5542, 35.5658, 25.4254, 70.9197, -161.001
8.5914, 9, -48.6648, -14.5783, 35.6474, 25.5584, 71.0119, -160.748
8.59933, 9, -48.6394, -14.6019, 35.7283, 25.6918, 71.1042, -160.494
8.60761, 9, -48.6133, -14.6249, 35.8087, 25.826, 71.1967, -160.241
8.61666, 10, -48.5868, -14.6478, 35.8888, 25.9609, 71.2896, -159.988
8.62336, 10, -48.5602, -14.6703, 35.9688, 26.0968, 71.3823, -159.736
8.63239, 10, -48.5332, -14.6927, 36.0486, 26.2333, 71.4753, -159.485
8.64048, 10, -48.5061, -14.7151, 36.1282, 26.371, 71.5684, -159.234
8.64734, 10, -48.4789, -14.7373, 36.2075, 26.5096, 71.6609, -158.984
8.65632, 11, -48.4517, -14.7595, 36.2867, 26.649, 71.7534, -158.736
8.66415, 11, -48.4246, -14.7819, 36.3656, 26.7896, 71.8462, -158.488
8.67134, 11, -48.3974, -14.8041, 36.4443, 26.9307, 71.9383, -158.242
8.68138, 11, -48.3701, -14.8265, 36.5228, 27.0728, 72.0304, -157.996
8.68742, 11, -48.3426, -14.8488, 36.6011, 27.2156, 72.1227, -157.751
8.6954, 11, -48.3146, -14.8709, 36.6793, 27.3591, 72.2144, -157.507
8.70338, 12, -48.2863, -14.8931, 36.7573, 27.5034, 72.3062, -157.263
8.71319, 12, -48.2578, -14.9151, 36.8353, 27.6484, 72.3978, -157.021
8.71939, 12, -48.2288, -14.9371, 36.913, 27.7935, 72.4889, -156.779
8.72743, 12, -48.1994, -14.9593, 36.9904, 27.9392, 72.58, -156.538
8.73549, 12, -48.1695, -14.9811, 37.0674, 28.0852, 72.6709, -156.298
8.74345, 13, -48.1392, -15.0029, 37.1439, 28.2313, 72.7616, -156.058
8.75144, 13, -48.1086, -15.0249, 37.2202, 28.3779, 72.8519, -155.818
8.75966, 13, -48.0775, -15.0466, 37.2963, 28.5246, 72.9419, -155.58
8.76841, 13, -48.0461, -15.0685, 37.3719, 28.6712, 73.0318, -155.342
8.77536, 13, -48.0142, -15.0905, 37.4472, 28.8179, 73.1213, -155.104
8.78374, 13, -47.9817, -15.1122, 37.5221, 28.9646, 73.2108, -154.866
8.79239, 14, -47.9487, -15.134, 37.5966, 29.1112, 73.3002, -154.628
8.79954, 14, -47.915, -15.1558, 37.6707, 29.2579, 73.3889, -154.392
8.80753, 14, -47.8807, -15.1773, 37.7443, 29.4044, 73.4776, -154.156
8.8164, 14, -47.8455, -15.199, 37.8174, 29.5507, 73.5661, -153.92
8.82375, 14, -47.8096, -15.2205, 37.8902, 29.6968, 73.6543, -153.684
8.83195, 15, -47.7732, -15.2418, 37.9625, 29.8425, 73.7421, -153.448
8.84079, 15, -47.7361, -15.2633, 38.0345, 29.9883, 73.8298, -153.213
8.84788, 15, -47.6983, -15.2847, 38.1061, 30.1337, 73.9174, -152.978
8.85643, 15, -47.6598, -15.3061, 38.1773, 30.2787, 74.0044, -152.744
8.86405, 15, -47.6208, -15.3277, 38.248, 30.4235, 74.0912, -152.51
8.87194, 15, -47.5812, -15.3492, 38.3184, 30.5681, 74.1778, -152.277
8.88015, 16, -47.541, -15.3707, 38.3881, 30.7121, 74.2635, -152.044
8.88882, 16, -47.5, -15.3925, 38.4575, 30.8562, 74.3493, -151.812
8.89532, 16, -47.4793, -15.4033, 38.4921, 30.9281, 74.3918, -151.696
8.9065, 16, -47.4162, -15.4359, 38.5952, 31.1434, 74.5192, -151.349
8.91216, 16, -47.3948, -15.447, 38.6294, 31.215, 74.5612, -151.234
8.92132, 17, -47.3293, -15.4799, 38.7316, 31.4296, 74.6871, -150.89
8.92732, 17, -47.3073, -15.4909, 38.7655, 31.5009, 74.7288, -150.776
8.93533, 17, -47.2626, -15.5133, 38.833, 31.6435, 74.812, -150.547
8.94335, 17, -47.2171, -15.5357, 38.9004, 31.7859, 74.8944, -150.319
8.95275, 17, -47.1478, -15.5698, 39.0007, 31.9991, 75.0172, -149.98
8.95949, 17, -47.1244, -15.5813, 39.0341, 32.0701, 75.058, -149.867
8.96736, 18, -47.0771, -15.6042, 39.1005, 32.2116, 75.1384, -149.642
8.97698, 18, -47.0051, -15.6394, 39.1993, 32.4238, 75.2582, -149.307
8.98632, 18, -46.9564, -15.663, 39.2651, 32.5649, 75.3373, -149.084
8.99139, 18, -46.9318, -15.675, 39.2979, 32.6354, 75.3766, -148.973
9.00101, 18, -46.857, -15.7117, 39.396, 32.8468, 75.493, -148.642
9.00917, 19, -46.8064, -15.7362, 39.4612, 32.9873, 75.5697, -148.423
9.01536, 19, -46.7808, -15.7487, 39.4936, 33.0574, 75.6079, -148.313
9.02492, 19, -46.729, -15.774, 39.5584, 33.1976, 75.6837, -148.095
9.03238, 19, -46.6766, -15.7994, 39.6231, 33.3375, 75.7585, -147.879
9.03937, 19, -46.6235, -15.8254, 39.6874, 33.4771, 75.8328, -147.663
9.0474, 19, -46.5696, -15.8516, 39.7516, 33.6166, 75.9063, -147.449
9.05653, 20, -46.5152, -15.8781, 39.8155, 33.7555, 75.9789, -147.236
9.06593, 20, -46.4323, -15.9187, 39.9109, 33.9637, 76.0863, -146.917
9.07233, 20, -46.4043, -15.9325, 39.9426, 34.0328, 76.1215, -146.812
9.08038, 20, -46.348, -15.9604, 40.0059, 34.1708, 76.1917, -146.602
9.08836, 20, -46.2911, -15.9885, 40.0689, 34.3086, 76.2613, -146.393
9.09631, 21, -46.2335, -16.017, 40.1318, 34.446, 76.3295, -146.185
9.10447, 21, -46.1752, -16.0459, 40.1944, 34.583, 76.3976, -145.978
9.11146, 21, -46.1161, -16.0753, 40.2568, 34.7195, 76.4641, -145.772
9.12037, 21, -46.0561, -16.105, 40.3189, 34.8557, 76.5308, -145.567
9.13073, 21, -45.9648, -16.1501, 40.4112, 35.0589, 76.6281, -145.262
9.1355, 22, -45.9339, -16.1652, 40.4419, 35.1264, 76.6607, -145.16
9.14434, 22, -45.8716, -16.196, 40.5029, 35.2612, 76.7243, -144.958
9.15232, 22, -45.8086, -16.227, 40.5635, 35.3954, 76.7876, -144.757
9.15935, 22, -45.7449, -16.2583, 40.6239, 35.5289, 76.85, -144.556
9.16736, 22, -45.6805, -16.2899, 40.6839, 35.6618, 76.9111, -144.356
9.17531, 22, -45.6152, -16.3219, 40.7435, 35.7942, 76.9723, -144.157
9.18406, 23, -45.5491, -16.3541, 40.8027, 35.9259, 77.0319, -143.959
9.19205, 23, -45.482, -16.3865, 40.8614, 36.0569, 77.0917, -143.761
9.20041, 23, -45.4141, -16.4191, 40.9197, 36.1874, 77.1501, -143.564
9.20742, 23, -45.3454, -16.4521, 40.9775, 36.3169, 77.2076, -143.367
9.21535, 23, -45.2758, -16.4852, 41.0346, 36.4457, 77.2653, -143.172
9.2237, 24, -45.2054, -16.5185, 41.0913, 36.5738, 77.3212, -142.977
9.23155, 24, -45.134, -16.5519, 41.1474, 36.701, 77.3777, -142.782
9.24035, 24, -45.0617, -16.5855, 41.2028, 36.8274, 77.4331, -142.588
9.24748, 24, -44.9884, -16.6193, 41.2577, 36.9528, 77.4874, -142.394
9.25588, 24, -44.9142, -16.6532, 41.312, 37.0775, 77.542, -142.201
9.26432, 24, -44.8391, -16.6872, 41.3657, 37.2011, 77.5951, -142.008
9.27145, 25, -44.7632, -16.7213, 41.4187, 37.3237, 77.6481, -141.816
9.28057, 25, -44.6863, -16.7554, 41.471, 37.4455, 77.7009, -141.623
9.2883, 25, -44.6086, -16.7896, 41.5226, 37.5661, 77.752, -141.431
9.29543, 25, -44.5298, -16.8238, 41.5736, 37.6859, 77.8034, -141.239
9.3048, 25, -44.4502, -16.8579, 41.6237, 37.8046, 77.8542, -141.048
9.31184, 26, -44.3694, -16.892, 41.6731, 37.9224, 77.9038, -140.857
9.31968, 26, -44.2875, -16.9261, 41.7216, 38.0391, 77.9539, -140.666
9.32797, 26, -44.2047, -16.96, 41.7695, 38.1546, 78.0031, -140.475
9.33635, 26, -44.1209, -16.9939, 41.8163, 38.2692, 78.0509, -140.284
9.34459, 26, -44.0363, -17.0277, 41.8624, 38.3825, 78.0993, -140.094
9.35189, 26, -43.9507, -17.0614, 41.9077, 38.4948, 78.1468, -139.903
9.36148, 27, -43.8642, -17.0949, 41.9522, 38.606, 78.1932, -139.713
9.36875, 27, -43.7767, -17.1283, 41.9957, 38.7161, 78.2402, -139.523
9.37611, 27, -43.6883, -17.1616, 42.0384, 38.8252, 78.2867, -139.333
9.38391, 27, -43.6437, -17.1782, 42.0803, 38.933, 78.3316, -139.143
9.39232, 27, -43.5084, -17.2276, 42.1212, 39.0397, 78.3768, -138.953
9.40031, 28, -43.417, -17.2602, 42.1611, 39.1453, 78.4221, -138.763
9.40806, 28, -43.3709, -17.2764, 42.1808, 39.1976, 78.4442, -138.574
9.41535, 28, -43.2778, -17.3089, 42.2196, 39.3015, 78.4879, -138.479
9.42474, 28, -43.1365, -17.3569, 42.2758, 39.4551, 78.554, -138.194
9.43136, 28, -43.0889, -17.3728, 42.2941, 39.5058, 78.5757, -138.099
9.43931, 28, -42.993, -17.4044, 42.33, 39.6064, 78.6181, -137.91
9.4473, 29, -42.8961, -17.4359, 42.3648, 39.7059, 78.6605, -137.72
9.45773, 29, -42.7487, -17.4824, 42.4155, 39.8527, 78.724, -137.436
9.46473, 29, -42.6493, -17.513, 42.448, 39.9492, 78.765, -137.247
9.4713, 29, -42.5993, -17.5283, 42.4639, 39.9971, 78.7855, -137.152
9.48104, 29, -42.4477, -17.5737, 42.5101, 40.1386, 78.8475, -136.868
9.48748, 30, -42.3966, -17.5886, 42.5251, 40.1853, 78.8678, -136.773
9.4953, 30, -42.2939, -17.6183, 42.5542, 40.2778, 78.9075, -136.584
9.50601, 30, -42.1383, -17.6621, 42.5961, 40.4142, 78.9671, -136.301
9.51285, 30, -42.086, -17.6766, 42.6096, 40.5039, 79.0068, -136.112
9.52191, 30, -41.9805, -17.7052, 42.6489, 40.5924, 79.0455, -135.923
9.5283, 30, -41.874, -17.7336, 42.6613, 40.6361, 79.0646, -135.828
9.53559, 31, -41.7667, -17.7615, 42.6856, 40.7231, 79.1032, -135.639
9.54332, 31, -41.6584, -17.7892, 42.709, 40.8088, 79.1419, -135.451
9.5513, 31, -41.5493, -17.8164, 42.7314, 40.8934, 79.1795, -135.262
9.55932, 31, -41.4391, -17.8432, 42.7531, 40.9767, 79.2164, -135.073
9.56731, 31, -41.3281, -17.8697, 42.7736, 41.0589, 79.2536, -134.885
9.57526, 32, -41.2163, -17.8957, 42.7932, 41.1404, 79.2908, -134.696
9.58352, 32, -41.1038, -17.9215, 42.812, 41.2203, 79.327, -134.507
9.59378, 32, -40.9333, -17.9594, 42.8379, 41.3388, 79.3806, -134.225
9.59931, 32, -40.876, -17.9719, 42.8461, 41.3775, 79.3987, -134.131
9.60737, 32, -40.7609, -17.9966, 42.8621, 41.4549, 79.4346, -133.944
9.61529, 32, -40.6449, -18.0207, 42.8769, 41.5305, 79.4696, -133.756
9.6233, 33, -40.528, -18.0447, 42.8907, 41.6057, 79.5039, -133.568
9.63152, 33, -40.4102, -18.0681, 42.9037, 41.6793, 79.5382, -133.38
9.63929, 33, -40.2916, -18.0911, 42.9157, 41.7523, 79.5727, -133.193
9.6473, 33, -40.1725, -18.1139, 42.9267, 41.8237, 79.6063, -133.006
9.65571, 33, -40.0525, -18.1361, 42.9367, 41.8946, 79.6393, -132.819
9.66452, 34, -39.9316, -18.158, 42.9457, 41.9638, 79.6721, -132.632
9.6713, 34, -39.8098, -18.1795, 42.954, 42.0328, 79.7054, -132.445
9.6813, 34, -39.6872, -18.2004, 42.9614, 42.0999, 79.7382, -132.258
9.68731, 34, -39.5635, -18.221, 42.9678, 42.1669, 79.7701, -132.072
9.69541, 34, -39.4391, -18.2411, 42.9733, 42.2322, 79.8015, -131.885
9.70336, 34, -39.314, -18.2607, 42.9779, 42.2971, 79.8329, -131.699
9.71152, 35, -39.1883, -18.2801, 42.9815, 42.3605, 79.8647, -131.513
9.71955, 35, -39.0617, -18.2991, 42.9843, 42.4231, 79.8956, -131.327
9.72738, 35, -38.9343, -18.3174, 42.9861, 42.4846, 79.926, -131.142
9.73629, 35, -38.8063, -18.3353, 42.987, 42.5449, 79.9561, -130.956
9.7434, 35, -38.6773, -18.3529, 42.9873, 42.6048, 79.9865, -130.771
9.75141, 36, -38.5475, -18.37, 42.9871, 42.6627, 80.0168, -130.586
9.76394, 36, -38.417, -18.3865, 42.9851, 42.7492, 80.0608, -130.308
9.76835, 36, -38.2859, -18.4027, 42.984, 42.7771, 80.0752, -130.216
9.77533, 36, -38.1542, -18.4185, 42.9812, 42.8325, 80.1038, -130.031
9.78405, 36, -38.0217, -18.4338, 42.9773, 42.8874, 80.1327, -129.847
9.79235, 36, -37.8885, -18.4482, 42.9725, 42.9403, 80.1617, -129.663
9.79936, 37, -37.7546, -18.4623, 42.9666, 42.9931, 80.1898, -129.479
9.80849, 37, -37.62, -18.4763, 42.9597, 43.045, 80.2175, -129.295
9.81633, 37, -37.4846, -18.4897, 42.9518, 43.0951, 80.2448, -129.112
9.82355, 37, -37.3485, -18.5023, 42.943, 43.1453, 80.2723, -128.928
9.83201, 37, -37.2118, -18.5146, 42.9334, 43.1942, 80.2998, -128.745
9.84245, 38, -37.0745, -18.5266, 42.9227, 43.2414, 80.3267, -128.563
9.84842, 38, -36.9365, -18.5382, 42.9111, 43.2884, 80.3529, -128.38
9.85689, 38, -36.7978, -18.5493, 42.8986, 43.3342, 80.3787, -128.198
9.86382, 38, -36.6582, -18.5596, 42.8852, 43.3785, 80.4044, -128.015
9.87272, 38, -36.5179, -18.5694, 42.8711, 43.4226, 80.4304, -127.834
9.87992, 38, -36.3769, -18.5788, 42.8558, 43.4658, 80.4561, -127.652
9.88855, 39, -36.235, -18.5876, 42.8395, 43.5072, 80.4812, -127.471
9.89671, 39, -36.1639, -18.5919, 42.831, 43.5477, 80.5061, -127.29
9.9033, 39, -36.0212, -18.6003, 42.8136, 43.568, 80.5183, -127.199
9.91236, 39, -35.8059, -18.6118, 42.7856, 43.627, 80.5549, -126.928
9.91928, 39, -35.7338, -18.6153, 42.7759, 43.646, 80.5673, -126.838
9.92727, 40, -35.5893, -18.6219, 42.756, 43.6832, 80.592, -126.658
9.9375, 40, -35.3712, -18.6309, 42.724, 43.7384, 80.628, -126.388
9.94329, 40, -35.2982, -18.6337, 42.7129, 43.7562, 80.6397, -126.298
9.95259, 40, -35.0783, -18.6414, 42.6784, 43.8073, 80.6741, -126.029
9.96135, 40, -34.9309, -18.6459, 42.6545, 43.8403, 80.6969, -125.85
9.96731, 40, -34.8568, -18.648, 42.6422, 43.8568, 80.7085, -125.761
9.97685, 41, -34.6341, -18.6535, 42.604, 43.9048, 80.7429, -125.493
9.98528, 41, -34.485, -18.6566, 42.5775, 43.935, 80.7652, -125.315
9.99288, 41, -34.3351, -18.6594, 42.5502, 43.9641, 80.787, -125.137
10.0017, 41, -34.1847, -18.6617, 42.522, 43.9928, 80.8084, -124.959
10.0074, 41, -34.1094, -18.6627, 42.5076, 44.007, 80.8191, -124.871
10.0153, 42, -33.9581, -18.6644, 42.4782, 44.0345, 80.8405, -124.694
10.0233, 42, -33.8063, -18.6656, 42.4481, 44.0608, 80.862, -124.517
10.0323, 42, -33.6538, -18.6664, 42.4172, 44.0858, 80.8836, -124.34
10.0403, 42, -33.5005, -18.6667, 42.3853, 44.1098, 80.9046, -124.165
10.0473, 42, -33.3465, -18.6668, 42.3527, 44.1332, 80.925, -123.989
10.0563, 42, -33.192, -18.6667, 42.3195, 44.1561, 80.9451, -123.813
10.0656, 43, -32.9591, -18.6657, 42.2681, 44.1886, 80.9746, -123.55
10.0713, 43, -32.8811, -18.6652, 42.2506, 44.1988, 80.9844, -123.463
10.0819, 43, -32.6466, -18.6628, 42.197, 44.2276, 81.0141, -123.201
10.0883, 43, -32.5681, -18.6618, 42.1786, 44.2366, 81.0239, -123.114
10.0953, 43, -32.4105, -18.6593, 42.1414, 44.2541, 81.0433, -122.941
10.1033, 44, -32.2523, -18.6562, 42.1035, 44.2709, 81.0621, -122.767
10.1145, 44, -32.0936, -18.6526, 42.0647, 44.2868, 81.0805, -122.507
10.1193, 44, -31.9345, -18.6486, 42.0251, 44.3021, 81.0986, -122.421
10.1273, 44, -31.7749, -18.644, 41.9849, 44.3166, 81.1165, -122.248
10.1363, 44, -31.6149, -18.6389, 41.9439, 44.3299, 81.1344, -122.076
10.1444, 44, -31.4544, -18.6331, 41.9021, 44.3419, 81.1523, -121.904
10.1514, 45, -31.2933, -18.6267, 41.8595, 44.3528, 81.1703, -121.732
10.1594, 45, -31.1315, -18.62, 41.8161, 44.3626, 81.1879, -121.561
10.168, 45, -30.9689, -18.6128, 41.7721, 44.3713, 81.2051, -121.39
10.1763, 45, -30.8058, -18.6052, 41.7272, 44.379, 81.2217, -121.219
10.1834, 45, -30.6421, -18.5968, 41.6816, 44.3857, 81.2381, -121.048
10.1923, 46, -30.4776, -18.5878, 41.6353, 44.3913, 81.2541, -120.878
10.1993, 46, -30.3126, -18.5783, 41.5882, 44.3959, 81.2702, -120.709
10.2079, 46, -30.1471, -18.5684, 41.5404, 44.3996, 81.2862, -120.539
10.2163, 46, -29.9811, -18.5581, 41.4916, 44.4023, 81.3024, -120.37
10.2236, 46, -29.8144, -18.5473, 41.4422, 44.404, 81.3185, -120.201
10.2324, 46, -29.647, -18.5358, 41.392, 44.4048, 81.3344, -120.032
10.2416, 47, -29.4788, -18.5235, 41.341, 44.4051, 81.35, -119.864
10.2479, 47, -29.3102, -18.5106, 41.2891, 44.4049, 81.3651, -119.696
10.2573, 47, -29.1409, -18.4973, 41.2365, 44.4038, 81.3801, -119.528
10.2643, 47, -28.9712, -18.4835, 41.183, 44.4013, 81.3949, -119.36
10.2714, 47, -28.801, -18.4689, 41.1288, 44.3975, 81.4096, -119.192
10.2793, 48, -28.6302, -18.4537, 41.0738, 44.3926, 81.4244, -119.025
10.2901, 48, -28.4589, -18.438, 41.0179, 44.3864, 81.4395, -118.858
10.2958, 48, -28.287, -18.422, 40.9614, 44.3791, 81.4547, -118.691
10.3034, 48, -28.1145, -18.4051, 40.9039, 44.3705, 81.4699, -118.525
10.3124, 48, -27.9416, -18.3875, 40.8456, 44.3606, 81.4848, -118.358
10.3195, 48, -27.768, -18.3696, 40.7865, 44.3496, 81.4994, -118.192
10.3275, 49, -27.5935, -18.3509, 40.7264, 44.3371, 81.5139, -118.026
10.3372, 49, -27.4182, -18.3313, 40.6655, 44.3231, 81.5282, -117.86
10.3439, 49, -27.2421, -18.3111, 40.6037, 44.3076, 81.5424, -117.694
10.3526, 49, -27.0656, -18.2904, 40.5409, 44.2906, 81.5567, -117.529
10.3602, 49, -26.8884, -18.2688, 40.4773, 44.2724, 81.5712, -117.363
10.3687, 50, -26.7107, -18.2465, 40.4129, 44.2532, 81.586, -117.198
10.3767, 50, -26.5323, -18.2235, 40.3477, 44.2329, 81.6011, -117.032
10.3839, 50, -26.3532, -18.1999, 40.2816, 44.2115, 81.6162, -116.867
10.3924, 50, -26.1734, -18.1756, 40.2146, 44.1886, 81.6313, -116.702
10.3993, 50, -26.0832, -18.1631, 40.1807, 44.1765, 81.6388, -116.62
10.4086, 50, -25.8115, -18.1245, 40.0778, 44.1379, 81.6611, -116.373
10.4163, 51, -25.6298, -18.0979, 40.0079, 44.1111, 81.6761, -116.208
10.4233, 51, -25.5388, -18.0843, 39.9727, 44.0973, 81.6835, -116.125
10.4313, 51, -25.3566, -18.0566, 39.9014, 44.0688, 81.6987, -115.961
10.4415, 51, -25.0825, -18.0136, 39.7929, 44.0227, 81.7222, -115.714
10.4473, 51, -24.9908, -17.9989, 39.7563, 44.0064, 81.7302, -115.631
10.4554, 52, -24.8067, -17.9689, 39.6824, 43.9732, 81.7465, -115.467
10.4655, 52, -24.6215, -17.9224, 39.5698, 43.9217, 81.7714, -115.22
10.4713, 52, -24.4354, -17.9065, 39.5318, 43.9037, 81.7797, -115.138
10.4808, 52, -24.1548, -17.8574, 39.4165, 43.8467, 81.8043, -114.891
10.4893, 52, -23.9669, -17.8238, 39.3383, 43.8078, 81.8207, -114.727
10.4953, 52, -23.8727, -17.8067, 39.2989, 43.788, 81.829, -114.644
10.505, 53, -23.5894, -17.7541, 39.1791, 43.7252, 81.8542, -114.398
10.5114, 53, -23.4947, -17.7362, 39.1387, 43.7033, 81.8628, -114.316
10.5193, 53, -23.3048, -17.6998, 39.0572, 43.6596, 81.8804, -114.152
10.5314, 53, -23.0182, -17.6437, 38.9335, 43.5908, 81.9076, -113.905
10.5354, 53, -22.9223, -17.6246, 38.8918, 43.5669, 81.9167, -113.823
10.5433, 54, -22.7299, -17.5858, 38.8077, 43.5189, 81.9349, -113.659
10.5514, 54, -22.5369, -17.5464, 38.7227, 43.4695, 81.9531, -113.495
10.5593, 54, -22.3436, -17.506, 38.6366, 43.4176, 81.9714, -113.33
10.5673, 54, -22.1498, -17.4648, 38.5495, 43.3654, 81.99, -113.166
10.5753, 54, -21.9556, -17.423, 38.4615, 43.311, 82.0091, -113.002
10.5835, 54, -21.7607, -17.3803, 38.3728, 43.2549, 82.0288, -112.838
10.5923, 55, -21.5646, -17.3367, 38.2833, 43.1985, 82.049, -112.674
10.6003, 55, -21.3676, -17.2924, 38.193, 43.1392, 82.0691, -112.51
10.6073, 55, -21.1695, -17.2471, 38.1017, 43.0794, 82.0892, -112.346
10.6153, 55, -20.9703, -17.2012, 38.0094, 43.0176, 82.1092, -112.181
10.6233, 55, -20.7708, -17.1545, 37.9162, 42.9542, 82.1295, -112.018
10.6315, 56, -20.5708, -17.107, 37.822, 42.8898, 82.1501, -111.854
10.6403, 56, -20.3702, -17.0589, 37.727, 42.823, 82.1715, -111.69
10.6473, 56, -20.1686, -17.0101, 37.6315, 42.7556, 82.1931, -111.526
10.6553, 56, -19.9661, -16.9605, 37.535, 42.6858, 82.2149, -111.362
10.6633, 56, -19.7626, -16.9103, 37.4377, 42.6155, 82.2365, -111.199
10.6715, 57, -19.5585, -16.8593, 37.3394, 42.5427, 82.2582, -111.035
10.6795, 57, -19.354, -16.8078, 37.2401, 42.4688, 82.2801, -110.872
10.6875, 57, -19.1492, -16.7555, 37.14, 42.393, 82.3026, -110.708
10.6953, 57, -18.9441, -16.7025, 37.0393, 42.3159, 82.3257, -110.545
10.7067, 57, -18.6353, -16.6217, 36.8868, 42.1969, 82.3607, -110.299
10.7115, 57, -18.5319, -16.5944, 36.8357, 42.1564, 82.3723, -110.218
10.7203, 58, -18.3238, -16.5392, 36.7326, 42.0745, 82.3955, -110.054
10.7275, 58, -18.1144, -16.4834, 36.6287, 41.9906, 82.4188, -109.891
10.7354, 58, -17.9038, -16.4268, 36.5238, 41.9053, 82.4426, -109.728
10.7434, 58, -17.6927, -16.3695, 36.418, 41.8184, 82.467, -109.565
10.7514, 58, -17.481, -16.3115, 36.3119, 41.7298, 82.4917, -109.402
10.7595, 59, -17.2687, -16.253, 36.205, 41.6395, 82.5164, -109.239
10.7683, 59, -17.0554, -16.1939, 36.0974, 41.5475, 82.5411, -109.076
10.7753, 59, -16.8412, -16.1342, 35.9889, 41.4539, 82.5661, -108.913
10.7833, 59, -16.626, -16.0738, 35.8793, 41.3584, 82.5915, -108.75
10.7921, 59, -16.4098, -16.0127, 35.769, 41.2612, 82.6178, -108.588
10.7994, 59, -16.193, -15.951, 35.6582, 41.1624, 82.6441, -108.425
10.8077, 60, -15.976, -15.8886, 35.5467, 41.0616, 82.6703, -108.262
10.8163, 60, -15.7593, -15.8256, 35.4347, 40.9591, 82.6965, -108.099
10.8236, 60, -15.5422, -15.7618, 35.3217, 40.855, 82.723, -107.936
10.8316, 60, -15.3236, -15.6972, 35.2076, 40.749, 82.7503, -107.773
10.8397, 60, -15.1031, -15.6318, 35.0927, 40.6415, 82.7781, -107.611
10.8481, 61, -14.8812, -15.5658, 34.9774, 40.5319, 82.8059, -107.448
10.8565, 61, -14.6582, -15.499, 34.8615, 40.4205, 82.8337, -107.285
10.8661, 61, -14.4341, -15.4316, 34.7449, 40.3074, 82.8618, -107.123
10.8718, 61, -14.2091, -15.3635, 34.6276, 40.1923, 82.8907, -106.96
10.8807, 61, -13.9832, -15.2948, 34.5091, 40.0755, 82.9204, -106.797
10.8884, 61, -13.7564, -15.2254, 34.3899, 39.9569, 82.95, -106.634
10.8958, 62, -13.6426, -15.1904, 34.3301, 39.8968, 82.9648, -106.471
10.9053, 62, -13.2996, -15.0843, 34.1498, 39.7137, 83.0096, -106.308
10.9127, 62, -13.185, -15.0487, 34.0288, 39.5892, 83.0404, -106.145
10.9193, 62, -12.9558, -14.9768, 33.968, 39.5262, 83.0562, -106.063
10.9297, 62, -12.612, -14.8674, 33.7839, 39.3343, 83.1035, -105.818
10.9367, 63, -12.3818, -14.7935, 33.6603, 39.2041, 83.1352, -105.654
10.9433, 63, -12.2662, -14.7563, 33.5983, 39.1382, 83.1512, -105.572
10.9526, 63, -11.9177, -14.6434, 33.4113, 38.9376, 83.2011, -105.327
10.9607, 63, -11.6837, -14.5671, 33.2858, 38.8013, 83.2351, -105.163
10.9672, 63, -11.566, -14.5286, 33.2227, 38.7324, 83.252, -105.081
10.9753, 63, -11.3294, -14.4512, 33.0957, 38.5931, 83.286, -104.917
10.9852, 64, -10.9721, -14.3333, 32.904, 38.3803, 83.3389, -104.67
10.9912, 64, -10.8523, -14.2936, 32.8397, 38.3085, 83.3571, -104.588
10.9993, 64, -10.6114, -14.2136, 32.7108, 38.1633, 83.3933, -104.423
11.0088, 64, -10.2474, -14.0919, 32.5161, 37.9414, 83.4483, -104.175
11.0168, 64, -10.1257, -14.0509, 32.4507, 37.7907, 83.4864, -104.01
11.0248, 65, -9.88241, -13.9682, 32.3194, 37.7147, 83.5252, -103.844
11.0331, 65, -9.63948, -13.8846, 32.1875, 37.4832, 83.564, -103.678
11.0393, 65, -9.39683, -13.8001, 32.0548, 37.405, 83.5836, -103.595
11.0483, 65, -9.15385, -13.7147, 31.9215, 37.2472, 83.624, -103.429
11.0563, 65, -8.90952, -13.6282, 31.7875, 37.0874, 83.6656, -103.262
11.0632, 65, -8.66302, -13.5409, 31.6528, 36.9253, 83.7071, -103.095
11.0713, 66, -8.41472, -13.4527, 31.5174, 36.7613, 83.7495, -102.928
11.0797, 66, -8.1655, -13.3636, 31.3812, 36.5951, 83.7935, -102.76
11.0874, 66, -7.91505, -13.2735, 31.2444, 36.427, 83.8377, -102.593
11.0952, 66, -7.66246, -13.1826, 31.1069, 36.2568, 83.8821, -102.425
11.1059, 66, -7.27958, -13.0444, 30.8998, 35.9975, 83.9517, -102.172
11.1114, 67, -7.15132, -12.9979, 30.8304, 35.91, 83.975, -102.088
11.1227, 67, -6.76583, -12.8567, 30.621, 35.6444, 84.0461, -101.834
11.1272, 67, -6.63739, -12.8092, 30.5508, 35.5548, 84.0708, -101.75
11.1363, 67, -6.38084, -12.7134, 30.4103, 35.374, 84.1202, -101.58
11.1442, 67, -6.12416, -12.6166, 30.2694, 35.1912, 84.1697, -101.409
11.1523, 67, -5.86639, -12.5189, 30.1278, 35.0063, 84.2212, -101.239
11.1621, 68, -5.60726, -12.4202, 29.9856, 34.7252, 84.299, -100.983
11.1682, 68, -5.34714, -12.3206, 29.8427, 34.6304, 84.3255, -100.897
11.1762, 68, -5.08584, -12.22, 29.6994, 34.4393, 84.38, -100.726
11.1833, 68, -4.82283, -12.1184, 29.5558, 34.2462, 84.4343, -100.555
11.1912, 68, -4.55769, -12.0158, 29.4116, 34.0511, 84.4899, -100.383
11.1995, 69, -4.29049, -11.9122, 29.2669, 33.8541, 84.5469, -100.211
11.2075, 69, -4.02157, -11.8078, 29.1219, 33.655, 84.604, -100.038
11.2162, 69, -3.7517, -11.7025, 28.9766, 33.4538, 84.663, -99.865
11.2234, 69, -3.48219, -11.5963, 28.831, 33.2508, 84.7221, -99.6918
11.2315, 69, -3.21296, -11.4889, 28.6848, 33.046, 84.7824, -99.5182
11.2393, 69, -2.9429, -11.3806, 28.5381, 32.8392, 84.844, -99.3443
11.2474, 70, -2.67165, -11.2713, 28.3913, 32.6304, 84.9058, -99.1699
11.2558, 70, -2.39964, -11.1611, 28.2444, 32.4198, 84.9697, -98.9954
11.2642, 70, -2.12689, -11.0501, 28.097, 32.2073, 85.0332, -98.8205
11.2714, 70, -1.85332, -10.9382, 27.9493, 31.993, 85.0988, -98.6455
11.2807, 70, -1.57858, -10.8253, 27.8015, 31.7769, 85.1646, -98.4702
11.2884, 71, -1.30184, -10.7113, 27.6537, 31.559, 85.232, -98.2943
11.2953, 71, -1.02277, -10.5964, 27.506, 31.3394, 85.3001, -98.1182
11.3033, 71, -0.742582, -10.4806, 27.3578, 31.118, 85.3691, -97.9418
11.3116, 71, -0.462297, -10.3639, 27.2094, 30.8947, 85.4395, -97.7651
11.3203, 71, -0.181543, -10.2464, 27.061, 30.6698, 85.5104, -97.5881
11.3275, 71, 0.0997982, -10.128, 26.9128, 30.4432, 85.5827, -97.411
11.3359, 72, 0.381768, -10.0087, 26.7644, 30.2152, 85.6555, -97.233
11.3444, 72, 0.66451, -9.8883, 26.6159, 29.9854, 85.7297, -97.0548
11.3517, 72, 0.947789, -9.7671, 26.4673, 29.7543, 85.8045, -96.8763
11.3599, 72, 1.23115, -9.64512, 26.3191, 29.5215, 85.8806, -96.6977
11.3684, 72, 1.51549, -9.52224, 26.1709, 29.2873, 85.9573, -96.5188
11.3758, 73, 1.80171, -9.39846, 26.0226, 29.0516, 86.0352, -96.3399
11.3845, 73, 2.08931, -9.27371, 25.8745, 28.8147, 86.1143, -96.1605
11.3958, 73, 2.37756, -9.1478, 25.7267, 28.4564, 86.2345, -95.8905
11.4004, 73, 2.6662, -9.02098, 25.5791, 28.3364, 86.2753, -95.8004
11.4088, 73, 2.81072, -8.95719, 25.5053, 28.216, 86.3162, -95.6198
11.4163, 73, 3.24507, -8.76454, 25.2842, 27.8533, 86.4408, -95.4391
11.4232, 74, 3.39037, -8.69989, 25.2106, 27.7318, 86.4826, -95.3486
11.4339, 74, 3.82734, -8.50414, 24.9905, 27.3652, 86.6102, -95.0763
11.4407, 74, 4.11852, -8.37235, 24.8443, 27.1194, 86.6969, -94.8942
11.4473, 74, 4.26411, -8.30608, 24.7711, 26.996, 86.7405, -94.803
11.4554, 74, 4.55566, -8.17286, 24.625, 26.7488, 86.8286, -94.6206
11.4634, 75, 4.84817, -8.03884, 24.4792, 26.5007, 86.918, -94.4376
11.4735, 75, 5.28875, -7.83602, 24.2617, 26.1267, 87.054, -94.163
11.4807, 75, 5.58296, -7.69935, 24.1171, 25.8764, 87.1465, -93.9792
11.4888, 75, 5.87692, -7.56162, 23.9728, 25.6252, 87.24, -93.7952
11.4968, 75, 6.17101, -7.42286, 23.8288, 25.3735, 87.3346, -93.6108
11.5053, 75, 6.46615, -7.28332, 23.6855, 25.1212, 87.4302, -93.4262
11.5154, 76, 6.76198, -7.1426, 23.5427, 24.8681, 87.5275, -93.2412
11.5192, 76, 6.90983, -7.07174, 23.4715, 24.7414, 87.5766, -93.1486
11.5298, 76, 7.35264, -6.85752, 23.2586, 24.3606, 87.7251, -92.8699
11.5362, 76, 7.50015, -6.78556, 23.1878, 24.2335, 87.7754, -92.7768
11.5432, 76, 7.79542, -6.64096, 23.0467, 23.9787, 87.877, -92.59
11.5522, 77, 8.09162, -6.49551, 22.9063, 23.7237, 87.9799, -92.4029
11.5594, 77, 8.38863, -6.34888, 22.7665, 23.4684, 88.0841, -92.2155
11.5672, 77, 8.68509, -6.20085, 22.6272, 23.2128, 88.1896, -92.0278
11.5753, 77, 8.98075, -6.05167, 22.4885, 22.9573, 88.2963, -91.8398
11.5832, 77, 9.27645, -5.90146, 22.3506, 22.7019, 88.4045, -91.6512
11.5913, 77, 9.57281, -5.75035, 22.2133, 22.4465, 88.5137, -91.4619
11.5992, 78, 9.86934, -5.59771, 22.0767, 22.191, 88.6245, -91.2724
11.6074, 78, 10.1652, -5.4437, 21.9407, 21.9359, 88.7367, -91.0821
11.6153, 78, 10.4603, -5.28852, 21.8053, 21.6808, 88.8499, -90.8919
11.6232, 78, 10.7548, -5.13241, 21.6706, 21.4261, 88.9647, -90.7008
11.6314, 78, 11.0498, -4.97544, 21.5368, 21.172, 89.0807, -90.5091
11.6421, 79, 11.3452, -4.73738, 21.3373, 20.7913, 89.2571, -90.2207
11.6483, 79, 11.6401, -4.65734, 21.2712, 20.6646, 89.3167, -90.1244
11.6563, 79, 11.934, -4.49656, 21.1394, 20.4118, 89.4365, -89.9312
11.6643, 79, 12.2271, -4.33494, 21.0085, 20.1595, 89.5579, -89.7379
