rpiRobotics/ARM-21-02-F-19-Robot-Motion-Program/data_performance_abb/curve_2/baseline/100L/realrobot/bisect/run_2realrobot_curve_exe_v200.0_z10.csv
timestamp, cmd_num, J1, J2, J3, J4, J5, J6
0.000357, -1, 39.6334, 32.444, 11.8324, 12.5483, 113.716, -48.8694
0.002982, -1, 39.6334, 32.444, 11.8324, 12.5483, 113.716, -48.8694
0.007274, -1, 39.6334, 32.444, 11.8324, 12.5483, 113.716, -48.8694
0.028498, -1, 39.6334, 32.444, 11.8324, 12.5483, 113.716, -48.8694
0.031312, -1, 39.6334, 32.444, 11.8324, 12.5483, 113.716, -48.8695
0.032577, -1, 39.6334, 32.444, 11.8324, 12.5483, 113.716, -48.8695
0.039171, -1, 39.6334, 32.444, 11.8325, 12.5483, 113.716, -48.8694
0.04718, -1, 39.6334, 32.444, 11.8325, 12.5483, 113.716, -48.8695
0.05519, -1, 39.6327, 32.4439, 11.8324, 12.5483, 113.716, -48.8695
0.063128, -1, 39.6303, 32.4434, 11.8324, 12.5482, 113.716, -48.8695
0.071838, -1, 39.625, 32.442, 11.8324, 12.5482, 113.716, -48.8698
0.080124, -1, 39.6161, 32.4389, 11.8323, 12.5482, 113.715, -48.8713
0.087247, -1, 39.6029, 32.4335, 11.8322, 12.5482, 113.714, -48.8756
0.095206, -1, 39.5833, 32.4249, 11.8322, 12.5482, 113.711, -48.8857
0.103219, -1, 39.5548, 32.4122, 11.8327, 12.5482, 113.704, -48.9058
0.111358, -1, 39.5166, 32.3944, 11.835, 12.5482, 113.692, -48.9388
0.119464, -1, 39.4673, 32.3705, 11.84, 12.5482, 113.673, -48.9886
0.127412, -1, 39.4054, 32.3399, 11.8484, 12.5482, 113.646, -49.0598
0.135635, -1, 39.3302, 32.302, 11.8613, 12.5483, 113.609, -49.1536
0.144121, -1, 39.2413, 32.2562, 11.8792, 12.5485, 113.563, -49.2732
0.151592, -1, 39.1385, 32.2025, 11.9017, 12.549, 113.506, -49.4183
0.160162, -1, 39.0214, 32.141, 11.9284, 12.5499, 113.438, -49.588
0.167719, -1, 38.891, 32.0722, 11.9591, 12.5513, 113.363, -49.7805
0.176249, -1, 38.7482, 31.9969, 11.9931, 12.5531, 113.279, -49.9926
0.183823, -1, 38.6725, 31.9569, 12.011, 12.5552, 113.189, -50.2207
0.192066, -1, 38.4297, 31.8294, 12.0671, 12.5575, 113.094, -50.4608
0.199059, -1, 38.3445, 31.7847, 12.0864, 12.5587, 113.045, -50.5843
0.208152, -1, 38.0791, 31.646, 12.1449, 12.5622, 112.895, -50.963
0.215109, -1, 37.9879, 31.5985, 12.1644, 12.5634, 112.844, -51.0912
0.224187, -1, 37.708, 31.4537, 12.2226, 12.567, 112.692, -51.4786
0.231115, -1, 37.6131, 31.4049, 12.242, 12.5682, 112.64, -51.6084
0.239057, -1, 37.4221, 31.307, 12.2808, 12.5707, 112.538, -51.868
0.24837, -1, 37.134, 31.1601, 12.3391, 12.5743, 112.384, -52.2577
0.255108, -1, 37.0379, 31.1113, 12.3585, 12.5757, 112.332, -52.3878
0.264571, -1, 36.7498, 30.9646, 12.4166, 12.5796, 112.177, -52.7782
0.272587, -1, 36.5583, 30.8669, 12.4555, 12.5822, 112.074, -53.0386
0.280859, -1, 36.3667, 30.7693, 12.4943, 12.5848, 111.971, -53.299
0.288694, -1, 36.1753, 30.6715, 12.5331, 12.5874, 111.868, -53.5596
0.296831, -1, 35.9839, 30.5737, 12.572, 12.5901, 111.765, -53.8203
0.304672, -1, 35.8881, 30.4757, 12.611, 12.5927, 111.662, -54.081
0.312746, -1, 35.6966, 30.3777, 12.6499, 12.5952, 111.559, -54.3413
0.320634, -1, 35.5047, 30.3286, 12.6693, 12.5965, 111.508, -54.4715
0.328061, -1, 35.3125, 30.2303, 12.7081, 12.5992, 111.405, -54.732
0.336123, -1, 35.1201, 30.1321, 12.747, 12.6017, 111.301, -54.9928
0.344057, -1, 34.9277, 30.0336, 12.7859, 12.6044, 111.198, -55.2536
0.352052, -1, 34.7354, 29.9352, 12.8247, 12.607, 111.095, -55.5142
0.360208, -1, 34.543, 29.8367, 12.8635, 12.6095, 110.992, -55.775
0.368063, -1, 34.3507, 29.7384, 12.9025, 12.6122, 110.889, -56.0359
0.376076, -1, 34.1585, 29.6401, 12.9414, 12.6147, 110.786, -56.2968
0.383049, -1, 33.9667, 29.5419, 12.9804, 12.6174, 110.683, -56.5575
0.391072, -1, 33.7749, 29.4436, 13.0194, 12.6201, 110.58, -56.8183
0.400053, -1, 33.583, 29.3453, 13.0582, 12.6227, 110.477, -57.0793
0.408115, -1, 33.3908, 29.2471, 13.0972, 12.6254, 110.374, -57.3406
0.416078, -1, 33.1982, 29.1486, 13.1362, 12.628, 110.27, -57.6015
0.424124, -1, 33.0055, 29.0501, 13.1749, 12.6307, 110.167, -57.8627
0.431079, -1, 32.8126, 28.9516, 13.2139, 12.6333, 110.064, -58.1239
0.439038, -1, 32.6192, 28.853, 13.2528, 12.636, 109.961, -58.3852
0.448055, -1, 32.4257, 28.7543, 13.2916, 12.6388, 109.858, -58.6463
0.457046, -1, 32.2318, 28.6556, 13.3306, 12.6415, 109.755, -58.9074
0.464087, -1, 32.0378, 28.5569, 13.3694, 12.6442, 109.652, -59.1686
0.472049, -1, 31.8439, 28.4581, 13.4083, 12.6469, 109.549, -59.43
0.480105, -1, 31.6502, 28.3593, 13.4473, 12.6496, 109.446, -59.6915
0.487173, -1, 31.4568, 28.2606, 13.4862, 12.6525, 109.343, -59.9525
0.495079, -1, 31.2636, 28.1621, 13.5251, 12.6552, 109.24, -60.214
0.503087, -1, 31.0709, 28.0637, 13.5642, 12.658, 109.137, -60.4754
0.51206, -1, 30.8787, 27.9652, 13.6032, 12.6609, 109.033, -60.7369
0.520183, -1, 30.6866, 27.8667, 13.6422, 12.6637, 108.93, -60.9983
0.527167, -1, 30.4946, 27.7682, 13.6812, 12.6665, 108.827, -61.2596
0.535996, -1, 30.3025, 27.6695, 13.7201, 12.6692, 108.724, -61.5211
0.544232, -1, 30.1102, 27.5708, 13.7591, 12.6719, 108.621, -61.7829
0.551155, -1, 29.9177, 27.472, 13.7981, 12.6746, 108.517, -62.0444
0.559922, -1, 29.7246, 27.3733, 13.8369, 12.6772, 108.414, -62.306
0.568121, -1, 29.5309, 27.2746, 13.8757, 12.6798, 108.311, -62.5678
0.575108, -1, 29.3369, 27.1758, 13.9147, 12.6825, 108.207, -62.8297
0.584388, -1, 29.1427, 27.077, 13.9536, 12.685, 108.104, -63.0912
0.591961, -1, 28.9483, 26.9781, 13.9926, 12.6875, 108.001, -63.3527
0.600046, -1, 28.754, 26.8792, 14.0315, 12.69, 107.897, -63.6143
0.609479, -1, 28.5598, 26.7803, 14.0704, 12.6923, 107.794, -63.8761
0.744704, -1, 25.2736, 25.1006, 14.7325, 12.7321, 106.038, -68.3252
0.746014, -1, 25.2736, 25.1006, 14.7325, 12.7321, 106.038, -68.3252
0.747209, -1, 25.2736, 25.1006, 14.7325, 12.7321, 106.038, -68.3252
0.749906, -1, 25.1769, 25.0512, 14.752, 12.7332, 105.987, -68.4561
0.751088, -1, 25.1769, 25.0512, 14.752, 12.7332, 105.987, -68.4561
0.753886, -1, 25.0802, 25.0019, 14.7715, 12.7344, 105.935, -68.587
0.755286, -1, 25.0802, 25.0019, 14.7715, 12.7344, 105.935, -68.587
0.759097, -1, 24.9835, 24.9525, 14.7911, 12.7355, 105.883, -68.7177
0.899528, -1, 21.6036, 23.2237, 15.4727, 12.7787, 104.075, -73.2962
0.901416, -1, 21.5075, 23.1743, 15.4921, 12.7801, 104.023, -73.4269
0.902894, -1, 21.5075, 23.1743, 15.4921, 12.7801, 104.023, -73.4269
0.904105, -1, 21.5075, 23.1743, 15.4921, 12.7801, 104.023, -73.4269
0.906191, -1, 21.4114, 23.125, 15.5116, 12.7814, 103.972, -73.5577
0.907396, -1, 21.4114, 23.125, 15.5116, 12.7814, 103.972, -73.5577
0.908568, -1, 21.4114, 23.125, 15.5116, 12.7814, 103.972, -73.5577
0.913686, -1, 21.2191, 23.0263, 15.5506, 12.7841, 103.869, -73.8192
0.915248, -1, 21.2191, 23.0263, 15.5506, 12.7841, 103.869, -73.8192
0.916474, -1, 21.2191, 23.0263, 15.5506, 12.7841, 103.869, -73.8192
0.919013, -1, 21.123, 22.977, 15.57, 12.7854, 103.817, -73.9501
0.920214, -1, 21.123, 22.977, 15.57, 12.7854, 103.817, -73.9501
0.923436, -1, 21.0267, 22.9276, 15.5895, 12.7868, 103.766, -74.0807
0.92479, -1, 21.0267, 22.9276, 15.5895, 12.7868, 103.766, -74.0807
0.926892, -1, 20.9305, 22.8783, 15.609, 12.7882, 103.714, -74.2113
0.930598, -1, 20.8342, 22.829, 15.6284, 12.7895, 103.663, -74.3418
0.931846, -1, 20.8342, 22.829, 15.6284, 12.7895, 103.663, -74.3418
0.93378, -1, 20.738, 22.7798, 15.6479, 12.7908, 103.611, -74.4724
0.935175, -1, 20.738, 22.7798, 15.6479, 12.7908, 103.611, -74.4724
0.936457, -1, 20.738, 22.7798, 15.6479, 12.7908, 103.611, -74.4724
0.938396, -1, 20.6417, 22.7305, 15.6674, 12.7922, 103.559, -74.603
0.939735, -1, 20.6417, 22.7305, 15.6674, 12.7922, 103.559, -74.603
0.942666, -1, 20.5453, 22.6812, 15.6868, 12.7936, 103.508, -74.7337
0.943986, -1, 20.5453, 22.6812, 15.6868, 12.7936, 103.508, -74.7337
0.945917, -1, 20.4488, 22.6319, 15.7062, 12.795, 103.456, -74.8643
0.948172, -1, 20.4488, 22.6319, 15.7062, 12.795, 103.456, -74.8643
0.950018, -1, 20.3521, 22.5826, 15.7256, 12.7963, 103.405, -74.995
0.951463, -1, 20.3521, 22.5826, 15.7256, 12.7963, 103.405, -74.995
0.952646, -1, 20.3521, 22.5826, 15.7256, 12.7963, 103.405, -74.995
0.955453, -1, 20.2553, 22.5332, 15.745, 12.7977, 103.353, -75.1256
0.958977, -1, 20.1584, 22.4839, 15.7645, 12.799, 103.302, -75.2562
0.960266, -1, 20.1584, 22.4839, 15.7645, 12.799, 103.302, -75.2562
0.962076, -1, 20.0615, 22.4345, 15.784, 12.8003, 103.25, -75.3867
0.963502, -1, 20.0615, 22.4345, 15.784, 12.8003, 103.25, -75.3867
0.964754, -1, 20.0615, 22.4345, 15.784, 12.8003, 103.25, -75.3867
0.966811, -1, 19.9646, 22.3852, 15.8034, 12.8018, 103.199, -75.5173
0.968149, -1, 19.9646, 22.3852, 15.8034, 12.8018, 103.199, -75.5173
0.977032, -1, 19.771, 22.2865, 15.842, 12.8044, 103.096, -75.7785
0.983028, -1, 19.5774, 22.1879, 15.8809, 12.8071, 102.993, -76.0395
0.992027, -1, 19.3838, 22.0893, 15.9198, 12.8099, 102.89, -76.3008
0.999105, -1, 19.1909, 21.9906, 15.9586, 12.8126, 102.787, -76.5617
1.00706, -1, 18.998, 21.892, 15.9975, 12.8153, 102.683, -76.8226
1.01609, -1, 18.8056, 21.7933, 16.0363, 12.818, 102.58, -77.0836
1.02309, -1, 18.6135, 21.6946, 16.075, 12.8206, 102.478, -77.3446
1.03115, -1, 18.4218, 21.5961, 16.1139, 12.8233, 102.375, -77.6054
1.03919, -1, 18.2299, 21.4975, 16.1528, 12.8259, 102.272, -77.8662
1.04713, -1, 18.0381, 21.3991, 16.1915, 12.8284, 102.169, -78.1269
1.05518, -1, 17.8462, 21.3008, 16.2304, 12.8309, 102.066, -78.3878
1.0632, -1, 17.6541, 21.2025, 16.2693, 12.8334, 101.963, -78.6482
1.07104, -1, 17.4617, 21.1042, 16.308, 12.8358, 101.86, -78.9086
1.07904, -1, 17.2688, 21.0058, 16.3469, 12.8383, 101.757, -79.1693
1.08712, -1, 17.0756, 20.9076, 16.3856, 12.8406, 101.654, -79.4299
1.09514, -1, 16.8826, 20.8094, 16.4244, 12.8429, 101.551, -79.6905
1.10338, -1, 16.6894, 20.7112, 16.4632, 12.8453, 101.448, -79.9509
1.11124, -1, 16.4964, 20.613, 16.5019, 12.8476, 101.346, -80.2114
1.1193, -1, 16.3035, 20.5147, 16.5406, 12.8499, 101.243, -80.472
1.12748, -1, 16.1112, 20.4163, 16.5794, 12.8522, 101.141, -80.7325
1.1354, -1, 15.9193, 20.3179, 16.6182, 12.8545, 101.038, -80.9926
1.14407, -1, 15.7277, 20.2194, 16.6569, 12.8568, 100.935, -81.2526
1.15188, -1, 15.5363, 20.1211, 16.6956, 12.8591, 100.833, -81.5129
1.16019, -1, 15.3452, 20.0228, 16.7343, 12.8615, 100.73, -81.773
1.16761, -1, 15.1541, 19.9245, 16.7731, 12.8637, 100.627, -82.0328
1.17614, -1, 14.9629, 19.8264, 16.8118, 12.8659, 100.525, -82.2926
1.1836, -1, 14.8673, 19.7283, 16.8505, 12.8682, 100.422, -82.5525
1.19212, -1, 14.5801, 19.6302, 16.8894, 12.8705, 100.32, -82.8126
1.19991, -1, 14.4843, 19.5811, 16.9281, 12.8729, 100.217, -83.0723
1.20812, -1, 14.196, 19.434, 16.9669, 12.8751, 100.115, -83.3318
1.21507, -1, 14.0998, 19.385, 16.9863, 12.8762, 100.063, -83.4616
1.22418, -1, 13.8111, 19.2382, 17.0443, 12.8797, 99.9096, -83.851
1.23102, -1, 13.7148, 19.1893, 17.0636, 12.8808, 99.8584, -83.9809
1.24023, -1, 13.4261, 19.0425, 17.1218, 12.8843, 99.7043, -84.3698
1.24702, -1, 13.33, 18.9936, 17.1411, 12.8854, 99.6531, -84.4995
1.25632, -1, 13.0425, 18.8468, 17.199, 12.889, 99.4998, -84.8884
1.26302, -1, 12.9469, 18.7978, 17.2184, 12.8901, 99.4486, -85.0182
1.27252, -1, 12.6604, 18.6509, 17.2763, 12.8937, 99.2953, -85.4069
1.28059, -1, 12.4697, 18.5531, 17.3149, 12.8961, 99.1929, -85.6658
1.28858, -1, 12.2795, 18.4553, 17.3535, 12.8985, 99.0906, -85.9248
1.2968, -1, 12.0895, 18.3576, 17.3921, 12.9009, 98.9886, -86.1838
1.30542, -1, 11.8992, 18.26, 17.4307, 12.9034, 98.8864, -86.4426
1.31147, -1, 11.804, 18.2112, 17.4501, 12.9046, 98.8354, -86.5719
1.31907, -1, 11.6133, 18.1136, 17.4886, 12.907, 98.7336, -86.8306
1.32801, -1, 11.4223, 18.0159, 17.5271, 12.9095, 98.6316, -87.0893
1.33586, -1, 11.2312, 17.9184, 17.5658, 12.9119, 98.5297, -87.3479
1.34305, -1, 11.0397, 17.8209, 17.6044, 12.9144, 98.428, -87.6062
1.35201, -1, 10.8481, 17.7235, 17.6429, 12.9169, 98.3259, -87.8644
1.35982, -1, 10.6563, 17.626, 17.6814, 12.9194, 98.2239, -88.1226
1.36704, -1, 10.4648, 17.5285, 17.7198, 12.922, 98.1222, -88.3811
1.37507, -1, 10.2736, 17.431, 17.7583, 12.9244, 98.0202, -88.6392
1.38409, -1, 10.0828, 17.3335, 17.7967, 12.9271, 97.9183, -88.8971
1.39202, -1, 9.8924, 17.2359, 17.835, 12.9297, 97.8165, -89.1553
1.40002, -1, 9.70223, 17.1384, 17.8734, 12.9323, 97.7145, -89.4134
1.40809, -1, 9.51267, 17.041, 17.9118, 12.9351, 97.6126, -89.6715
1.41604, -1, 9.32339, 16.9436, 17.9501, 12.9378, 97.5108, -89.9291
1.42401, -1, 9.13412, 16.8463, 17.9886, 12.9405, 97.4089, -90.1864
1.43184, -1, 8.94482, 16.7491, 18.0269, 12.9432, 97.3071, -90.444
1.44003, -1, 8.75528, 16.652, 18.0653, 12.9458, 97.2055, -90.7016
1.44804, -1, 8.56568, 16.5548, 18.1037, 12.9484, 97.1037, -90.9588
1.45701, -1, 8.37597, 16.4578, 18.142, 12.9512, 97.0022, -91.216
1.46402, -1, 8.18566, 16.3608, 18.1803, 12.9538, 96.9006, -91.4731
1.47301, -1, 7.99513, 16.264, 18.2187, 12.9564, 96.799, -91.7303
1.47983, -1, 7.80451, 16.1671, 18.257, 12.9591, 96.6977, -91.9872
1.48801, -1, 7.61393, 16.0702, 18.2952, 12.9617, 96.5962, -92.2438
1.49602, -1, 7.42353, 15.9732, 18.3336, 12.9642, 96.4948, -92.5006
1.50402, -1, 7.23334, 15.8763, 18.3717, 12.9667, 96.3936, -92.7575
1.51201, -1, 7.04349, 15.7793, 18.4099, 12.9693, 96.2921, -93.0142
1.52008, -1, 6.85406, 15.6824, 18.4482, 12.9718, 96.1908, -93.2705
1.5278, -1, 6.66515, 15.5855, 18.4863, 12.9742, 96.0902, -93.5269
1.53602, -1, 6.47665, 15.4887, 18.5243, 12.9768, 95.9889, -93.7834
1.54408, -1, 6.28847, 15.392, 18.5625, 12.9793, 95.8879, -94.0398
1.55202, -1, 6.10041, 15.2953, 18.6006, 12.9818, 95.7873, -94.2957
1.55919, -1, 5.91215, 15.1986, 18.6388, 12.9841, 95.6862, -94.5517
1.56711, -1, 5.72377, 15.102, 18.677, 12.9864, 95.5852, -94.8076
1.57591, -1, 5.53529, 15.0054, 18.715, 12.9886, 95.4846, -95.0636
1.58412, -1, 5.34651, 14.9088, 18.7532, 12.991, 95.3836, -95.3193
1.59104, -1, 5.15739, 14.8125, 18.7913, 12.9932, 95.2829, -95.5747
1.59988, -1, 4.96791, 14.7161, 18.8293, 12.9954, 95.1824, -95.8303
1.60801, -1, 4.77844, 14.6197, 18.8674, 12.9977, 95.0815, -96.0858
1.61612, -1, 4.58906, 14.5233, 18.9055, 12.9998, 94.9808, -96.341
1.62455, -1, 4.39974, 14.427, 18.9435, 13.0021, 94.8802, -96.5959
1.63201, -1, 4.21079, 14.3306, 18.9815, 13.0043, 94.7793, -96.8508
1.64011, -1, 4.02216, 14.2341, 19.0195, 13.0065, 94.6785, -97.1059
1.64878, -1, 3.83412, 14.1379, 19.0574, 13.0088, 94.5776, -97.3609
1.65614, -1, 3.64661, 14.0417, 19.0954, 13.011, 94.4768, -97.6155
1.66428, -1, 3.45941, 13.9455, 19.1333, 13.0134, 94.3761, -97.8702
1.67161, -1, 3.27249, 13.8495, 19.1711, 13.0157, 94.2755, -98.1249
1.67962, -1, 3.08556, 13.7535, 19.209, 13.0179, 94.1748, -98.3797
1.68852, -1, 2.89857, 13.6575, 19.2469, 13.0202, 94.0742, -98.634
1.69687, -1, 2.7115, 13.5615, 19.2848, 13.0224, 93.9736, -98.8882
1.70413, -1, 2.52426, 13.4655, 19.3227, 13.0247, 93.8731, -99.1423
1.711, -1, 2.43058, 13.4176, 19.3416, 13.0258, 93.823, -99.2694
1.71904, -1, 2.24301, 13.3218, 19.3794, 13.0281, 93.7227, -99.5236
1.72701, -1, 2.05491, 13.226, 19.4173, 13.0303, 93.6223, -99.7774
1.73697, -1, 1.77265, 13.0822, 19.4739, 13.0338, 93.4724, -100.158
1.74509, -1, 1.58442, 12.9864, 19.5116, 13.036, 93.3722, -100.411
1.75101, -1, 1.49031, 12.9385, 19.5305, 13.0371, 93.3222, -100.538
1.76115, -1, 1.20841, 12.7947, 19.5872, 13.0406, 93.1724, -100.918
1.76705, -1, 1.11462, 12.7469, 19.606, 13.0417, 93.1223, -101.045
1.77655, -1, 0.834295, 12.6035, 19.6626, 13.0453, 92.9723, -101.424
1.78537, -1, 0.647845, 12.5079, 19.7002, 13.0477, 92.8726, -101.677
1.79108, -1, 0.554832, 12.4602, 19.719, 13.0489, 92.8226, -101.804
1.80059, -1, 0.276378, 12.3172, 19.7755, 13.0526, 92.6729, -102.183
1.80943, -1, 0.0909878, 12.2219, 19.813, 13.0551, 92.5737, -102.435
1.81513, -1, -0.00170962, 12.1742, 19.8318, 13.0563, 92.5237, -102.562
1.82501, -1, -0.280129, 12.0314, 19.8883, 13.0599, 92.3744, -102.941
1.831, -1, -0.373045, 11.9838, 19.9071, 13.0612, 92.3248, -103.067
1.84193, -1, -0.652275, 11.8412, 19.9634, 13.0649, 92.1755, -103.445
1.84804, -1, -0.745468, 11.7937, 19.9822, 13.0661, 92.1258, -103.571
1.85601, -1, -0.931944, 11.6987, 20.0197, 13.0686, 92.0265, -103.823
1.86305, -1, -1.1187, 11.6036, 20.057, 13.0711, 91.927, -104.075
1.87205, -1, -1.30569, 11.5085, 20.0946, 13.0737, 91.8276, -104.327
1.87999, -1, -1.49261, 11.4135, 20.132, 13.0762, 91.7285, -104.578
1.887, -1, -1.67927, 11.3183, 20.1694, 13.0788, 91.6294, -104.83
1.89612, -1, -1.86552, 11.2233, 20.2068, 13.0813, 91.5301, -105.081
1.90399, -1, -2.05122, 11.1284, 20.2443, 13.084, 91.4312, -105.332
1.91099, -1, -2.23631, 11.0334, 20.2816, 13.0866, 91.332, -105.583
1.92001, -1, -2.42116, 10.9386, 20.319, 13.0893, 91.2327, -105.834
1.92799, -1, -2.6056, 10.8438, 20.3563, 13.092, 91.1337, -106.085
1.93503, -1, -2.7895, 10.7491, 20.3935, 13.0948, 91.0345, -106.336
1.94299, -1, -2.97347, 10.6544, 20.4309, 13.0973, 90.9354, -106.587
1.95204, -1, -3.15754, 10.5597, 20.4682, 13.0999, 90.8367, -106.838
1.96099, -1, -3.34182, 10.4652, 20.5054, 13.1025, 90.7376, -107.088
1.967, -1, -3.52645, 10.3707, 20.5426, 13.105, 90.6387, -107.339
1.97604, -1, -3.7112, 10.2764, 20.5799, 13.1075, 90.5402, -107.589
1.98406, -1, -3.89622, 10.1821, 20.6171, 13.1099, 90.4412, -107.839
1.992, -1, -4.08157, 10.0877, 20.6544, 13.1123, 90.3426, -108.089
1.99999, -1, -4.26711, 9.99341, 20.6915, 13.1147, 90.2441, -108.339
2.008, -1, -4.45276, 9.89907, 20.7286, 13.1171, 90.1453, -108.589
2.016, -1, -4.63807, 9.80475, 20.7659, 13.1194, 90.0467, -108.838
2.02405, -1, -4.82305, 9.71056, 20.803, 13.1217, 89.9484, -109.087
2.03199, -1, -5.00756, 9.61646, 20.84, 13.1241, 89.8498, -109.337
2.04, -1, -5.19132, 9.52239, 20.8772, 13.1264, 89.7514, -109.586
2.04806, -1, -5.37468, 9.42836, 20.9143, 13.1288, 89.6533, -109.835
2.056, -1, -5.55758, 9.33448, 20.9513, 13.131, 89.5548, -110.084
2.06317, -1, -5.74014, 9.24055, 20.9885, 13.1334, 89.4566, -110.333
2.07105, -1, -5.92249, 9.14665, 21.0254, 13.1357, 89.3585, -110.581
2.079, -1, -6.10491, 9.05284, 21.0624, 13.1378, 89.2602, -110.83
2.08709, -1, -6.28761, 8.95906, 21.0995, 13.14, 89.1622, -111.078
2.09506, -1, -6.47052, 8.86542, 21.1364, 13.1422, 89.0645, -111.327
2.1031, -1, -6.65366, 8.7718, 21.1731, 13.1444, 88.9664, -111.575
2.11119, -1, -6.83722, 8.6782, 21.2101, 13.1466, 88.8684, -111.823
2.11933, -1, -7.02115, 8.58458, 21.247, 13.1487, 88.7708, -112.071
2.12737, -1, -7.20529, 8.49106, 21.2838, 13.1508, 88.6729, -112.318
2.13535, -1, -7.38949, 8.39743, 21.3208, 13.1529, 88.575, -112.566
2.14346, -1, -7.5733, 8.30379, 21.3576, 13.155, 88.4775, -112.814
2.15156, -1, -7.75688, 8.21037, 21.3943, 13.1572, 88.3797, -113.061
2.16014, -1, -7.93994, 8.11696, 21.4312, 13.1594, 88.2823, -113.308
2.16772, -1, -8.12248, 8.02358, 21.468, 13.1616, 88.185, -113.555
2.17611, -1, -8.30432, 7.93035, 21.5047, 13.1639, 88.0876, -113.803
2.18416, -1, -8.48564, 7.83714, 21.5416, 13.1662, 87.9903, -114.05
2.19158, -1, -8.57618, 7.79052, 21.5784, 13.1685, 87.893, -114.296
2.19999, -1, -8.84741, 7.65075, 21.6151, 13.1708, 87.7955, -114.543
2.20819, -1, -9.02817, 7.5577, 21.6519, 13.1729, 87.698, -114.789
2.21502, -1, -9.1187, 7.51119, 21.6703, 13.174, 87.6495, -114.912
2.22406, -1, -9.39058, 7.37191, 21.7253, 13.1774, 87.5036, -115.282
2.23099, -1, -9.48132, 7.32553, 21.7436, 13.1785, 87.455, -115.405
2.24017, -1, -9.75407, 7.18632, 21.7986, 13.1819, 87.3094, -115.774
2.24701, -1, -9.84522, 7.13997, 21.8169, 13.1831, 87.2607, -115.897
2.25636, -1, -10.119, 7.00085, 21.8717, 13.1863, 87.1151, -116.267
2.263, -1, -10.2103, 6.95444, 21.89, 13.1875, 87.0667, -116.389
2.27247, -1, -10.4842, 6.81527, 21.945, 13.1907, 86.9208, -116.757
2.279, -1, -10.5754, 6.7689, 21.9633, 13.1919, 86.8723, -116.88
2.28854, -1, -10.8483, 6.62996, 22.0181, 13.1954, 86.7269, -117.248
2.29662, -1, -11.0296, 6.53732, 22.0545, 13.1978, 86.6299, -117.493
2.30456, -1, -11.21, 6.44484, 22.091, 13.2002, 86.5332, -117.738
2.31279, -1, -11.39, 6.35235, 22.1276, 13.2026, 86.4366, -117.983
2.32062, -1, -11.4798, 6.2599, 22.164, 13.2051, 86.3399, -118.228
2.32875, -1, -11.6592, 6.21372, 22.1822, 13.2076, 86.2433, -118.473
2.33599, -1, -11.8385, 6.12136, 22.2188, 13.2088, 86.1951, -118.595
2.34404, -1, -12.0178, 6.02909, 22.2552, 13.2113, 86.0985, -118.839
2.35198, -1, -12.1971, 5.93696, 22.2916, 13.2138, 86.002, -119.083
2.35997, -1, -12.3767, 5.84493, 22.3281, 13.2163, 85.9057, -119.328
2.36803, -1, -12.5568, 5.75291, 22.3644, 13.2187, 85.8092, -119.572
2.37602, -1, -12.7372, 5.66094, 22.4006, 13.2212, 85.7129, -119.816
2.38398, -1, -12.9181, 5.56901, 22.437, 13.2237, 85.617, -120.059
2.39197, -1, -13.0992, 5.47706, 22.4733, 13.2261, 85.5209, -120.303
2.40001, -1, -13.2805, 5.385, 22.5095, 13.2285, 85.425, -120.547
2.40697, -1, -13.4615, 5.29309, 22.5458, 13.231, 85.3293, -120.79
2.41599, -1, -13.6422, 5.20118, 22.582, 13.2336, 85.2335, -121.033
2.424, -1, -13.8225, 5.1093, 22.618, 13.2361, 85.1377, -121.276
2.43105, -1, -14.002, 5.01753, 22.6543, 13.2386, 85.0421, -121.519
2.43901, -1, -14.1806, 4.92583, 22.6904, 13.2411, 84.9464, -121.762
2.44798, -1, -14.359, 4.83416, 22.7264, 13.2437, 84.8507, -122.005
2.45698, -1, -14.537, 4.74252, 22.7627, 13.2463, 84.7552, -122.247
2.46397, -1, -14.7146, 4.65095, 22.7988, 13.2488, 84.6596, -122.49
2.47298, -1, -14.8922, 4.55947, 22.8348, 13.2513, 84.5638, -122.732
2.47897, -1, -15.0699, 4.46805, 22.8709, 13.2537, 84.4683, -122.974
2.48794, -1, -15.248, 4.37682, 22.9071, 13.2562, 84.3727, -123.216
2.496, -1, -15.4263, 4.2855, 22.9431, 13.2585, 84.2769, -123.458
2.50397, -1, -15.6052, 4.19422, 22.9791, 13.2608, 84.1814, -123.7
2.51207, -1, -15.7844, 4.103, 23.0151, 13.2631, 84.0858, -123.942
2.52009, -1, -15.9636, 4.01178, 23.051, 13.2653, 83.9903, -124.183
2.52797, -1, -16.1432, 3.92049, 23.087, 13.2675, 83.8949, -124.425
2.53598, -1, -16.323, 3.82926, 23.1229, 13.2696, 83.7995, -124.666
2.54408, -1, -16.5024, 3.73806, 23.1587, 13.2718, 83.704, -124.908
2.55197, -1, -16.6814, 3.64693, 23.1944, 13.274, 83.6086, -125.149
2.55999, -1, -16.8599, 3.55586, 23.2303, 13.2763, 83.5133, -125.39
2.5685, -1, -17.0375, 3.46488, 23.2661, 13.2784, 83.4179, -125.631
2.57517, -1, -17.2144, 3.37392, 23.3019, 13.2806, 83.3226, -125.872
2.58319, -1, -17.391, 3.28306, 23.3377, 13.2828, 83.2276, -126.112
2.591, -1, -17.5672, 3.19222, 23.3734, 13.285, 83.1324, -126.353
2.59999, -1, -17.7432, 3.1016, 23.4092, 13.2871, 83.0376, -126.593
2.60797, -1, -17.9192, 3.01098, 23.4451, 13.2892, 82.9429, -126.833
2.61677, -1, -18.0955, 2.92053, 23.4808, 13.2913, 82.8479, -127.073
2.62398, -1, -18.272, 2.83017, 23.5165, 13.2934, 82.7533, -127.313
2.63198, -1, -18.4489, 2.73974, 23.5523, 13.2955, 82.6588, -127.553
2.64081, -1, -18.6264, 2.64936, 23.588, 13.2975, 82.564, -127.793
2.648, -1, -18.8041, 2.55904, 23.6236, 13.2996, 82.4695, -128.032
2.65611, -1, -18.9821, 2.46858, 23.6594, 13.3016, 82.3752, -128.272
2.66488, -1, -19.1603, 2.3781, 23.695, 13.3035, 82.2805, -128.511
2.67207, -1, -19.3386, 2.28772, 23.7305, 13.3055, 82.1861, -128.75
2.68015, -1, -19.5163, 2.19733, 23.7662, 13.3077, 82.0923, -128.989
2.68754, -1, -19.6934, 2.10695, 23.8016, 13.3098, 81.998, -129.229
2.69573, -1, -19.8699, 2.01668, 23.837, 13.312, 81.9038, -129.468
2.70414, -1, -20.0457, 1.92643, 23.8726, 13.3141, 81.81, -129.707
2.71097, -1, -20.1334, 1.88129, 23.8904, 13.3152, 81.7629, -129.826
2.72001, -1, -20.3958, 1.74607, 23.9436, 13.3185, 81.6218, -130.183
2.72807, -1, -20.5704, 1.65602, 23.9792, 13.3208, 81.5279, -130.422
2.73502, -1, -20.6576, 1.61104, 23.997, 13.3219, 81.481, -130.541
2.74417, -1, -20.9195, 1.4762, 24.0501, 13.3251, 81.34, -130.898
2.751, -1, -21.0069, 1.43132, 24.0679, 13.3262, 81.2932, -131.017
2.7603, -1, -21.2698, 1.29674, 24.1212, 13.3295, 81.1526, -131.373
2.76697, -1, -21.3576, 1.25187, 24.1388, 13.3305, 81.1056, -131.492
2.77647, -1, -21.6215, 1.11746, 24.1919, 13.3338, 80.965, -131.849
2.787, -1, -21.7976, 1.02782, 24.2274, 13.336, 80.8712, -132.086
2.79253, -1, -21.974, 0.938187, 24.2628, 13.3382, 80.7773, -132.324
2.80053, -1, -22.1506, 0.848628, 24.2982, 13.3404, 80.6837, -132.561
2.80931, -1, -22.3271, 0.759105, 24.3337, 13.3425, 80.59, -132.798
2.81502, -1, -22.4153, 0.714373, 24.3513, 13.3436, 80.5432, -132.917
2.8245, -1, -22.5911, 0.624851, 24.3865, 13.346, 80.4028, -133.272
2.83332, -1, -22.7666, 0.535418, 24.4218, 13.3483, 80.3561, -133.509
2.83897, -1, -22.941, 0.446032, 24.4571, 13.3507, 80.2623, -133.627
2.84903, -1, -23.2016, 0.311963, 24.5098, 13.3544, 80.1223, -133.983
2.85503, -1, -23.2882, 0.267317, 24.5274, 13.3556, 80.0757, -134.101
2.86397, -1, -23.4613, 0.178081, 24.5627, 13.3581, 79.982, -134.337
2.87196, -1, -23.6344, 0.088897, 24.5979, 13.3605, 79.8888, -134.573
2.88004, -1, -23.8078, -0.000195491, 24.6332, 13.3629, 79.7957, -134.809
2.88697, -1, -23.9812, -0.0891262, 24.6684, 13.3653, 79.7024, -135.045
2.89597, -1, -24.1548, -0.17807, 24.7034, 13.3678, 79.6092, -135.281
2.90401, -1, -24.3288, -0.267022, 24.7385, 13.3702, 79.5162, -135.517
2.91097, -1, -24.5031, -0.355867, 24.7737, 13.3727, 79.4231, -135.753
2.91996, -1, -24.6776, -0.444744, 24.8087, 13.3751, 79.3301, -135.988
2.92802, -1, -24.8526, -0.533653, 24.8437, 13.3774, 79.2371, -136.224
2.935, -1, -25.0276, -0.622498, 24.8788, 13.3798, 79.1442, -136.459
2.94395, -1, -25.2026, -0.711326, 24.9138, 13.3822, 79.0512, -136.694
2.95202, -1, -25.3772, -0.800083, 24.9488, 13.3845, 78.9584, -136.929
2.96172, -1, -25.5514, -0.888932, 25.0013, 13.3882, 78.8193, -137.282
2.96796, -1, -25.725, -0.977619, 25.0187, 13.3894, 78.7729, -137.399
2.97604, -1, -25.8979, -1.0663, 25.0535, 13.3918, 78.6803, -137.633
2.98396, -1, -26.0704, -1.15498, 25.0885, 13.3943, 78.588, -137.868
2.99195, -1, -26.2424, -1.24358, 25.1234, 13.3967, 78.4952, -138.103
3.00002, -1, -26.4141, -1.33207, 25.1582, 13.399, 78.4027, -138.337
3.00795, -1, -26.5859, -1.42048, 25.1932, 13.4013, 78.3105, -138.572
3.01598, -1, -26.758, -1.5088, 25.2281, 13.4035, 78.2178, -138.806
3.02406, -1, -26.9302, -1.59699, 25.2629, 13.4058, 78.1255, -139.04
3.03196, -1, -27.1026, -1.68515, 25.2978, 13.408, 78.0334, -139.273
3.03996, -1, -27.2751, -1.77336, 25.3327, 13.4101, 77.941, -139.507
3.04804, -1, -27.4479, -1.86146, 25.3674, 13.4124, 77.849, -139.741
3.05597, -1, -27.6211, -1.94955, 25.4021, 13.4144, 77.7571, -139.974
3.06401, -1, -27.7943, -2.03774, 25.437, 13.4165, 77.665, -140.208
3.07199, -1, -27.9677, -2.12578, 25.4717, 13.4186, 77.573, -140.441
3.07995, -1, -28.1409, -2.21382, 25.5064, 13.4206, 77.4811, -140.675
3.08802, -1, -28.3142, -2.30189, 25.5412, 13.4227, 77.3891, -140.908
3.09598, -1, -28.487, -2.38995, 25.5759, 13.4248, 77.297, -141.141
3.10395, -1, -28.6594, -2.4779, 25.6106, 13.4268, 77.2048, -141.374
3.11203, -1, -28.8312, -2.56584, 25.6453, 13.4289, 77.1129, -141.606
3.11995, -1, -29.0023, -2.6538, 25.6799, 13.4311, 77.0208, -141.839
3.12795, -1, -29.1729, -2.74165, 25.7144, 13.4333, 76.9289, -142.072
3.13603, -1, -29.3434, -2.82941, 25.7491, 13.4353, 76.8372, -142.304
3.14395, -1, -29.514, -2.9171, 25.7838, 13.4374, 76.7453, -142.537
3.15139, -1, -29.6849, -3.00467, 25.8182, 13.4394, 76.6534, -142.769
3.16002, -1, -29.856, -3.09223, 25.8528, 13.4414, 76.5619, -143.002
3.16805, -1, -30.0269, -3.17971, 25.8874, 13.4436, 76.4699, -143.234
3.17636, -1, -30.1979, -3.26724, 25.9219, 13.4455, 76.3783, -143.465
3.18373, -1, -30.369, -3.35463, 25.9565, 13.4477, 76.2868, -143.697
3.1921, -1, -30.5404, -3.44208, 25.9911, 13.4497, 76.1951, -143.929
3.20037, -1, -30.6263, -3.48586, 26.0083, 13.4518, 76.1036, -144.161
3.20761, -1, -30.7982, -3.57327, 26.0428, 13.4528, 76.0579, -144.392
3.21602, -1, -31.056, -3.70433, 26.0946, 13.4557, 75.9209, -144.624
3.22297, -1, -31.1419, -3.74799, 26.1119, 13.4568, 75.8752, -144.739
3.23095, -1, -31.3135, -3.83527, 26.1462, 13.4589, 75.7839, -144.971
3.24009, -1, -31.57, -3.96615, 26.1979, 13.462, 75.6471, -145.317
3.24695, -1, -31.6553, -4.00973, 26.2151, 13.4631, 75.6014, -145.433
3.25503, -1, -31.8255, -4.09695, 26.2495, 13.4653, 75.5102, -145.664
3.26428, -1, -32.08, -4.22773, 26.3011, 13.4686, 75.3737, -146.01
3.27096, -1, -32.1647, -4.27127, 26.3184, 13.4698, 75.328, -146.125
3.27903, -1, -32.334, -4.35833, 26.3527, 13.472, 75.2369, -146.356
3.28852, -1, -32.5885, -4.48884, 26.4042, 13.4751, 75.1007, -146.702
3.29735, -1, -32.7582, -4.57578, 26.4386, 13.4772, 75.0096, -146.932
3.30304, -1, -32.843, -4.61927, 26.4558, 13.4783, 74.9643, -147.048
3.31254, -1, -33.0975, -4.7496, 26.507, 13.4816, 74.8286, -147.393
3.3214, -1, -33.1824, -4.83645, 26.5414, 13.4838, 74.7377, -147.623
3.32704, -1, -33.3523, -4.87988, 26.5585, 13.4849, 74.6924, -147.738
3.33655, -1, -33.5225, -4.96679, 26.5928, 13.4872, 74.6017, -148.083
3.34394, -1, -33.6929, -5.05368, 26.627, 13.4893, 74.5114, -148.198
3.35101, -1, -33.8632, -5.14043, 26.6613, 13.4916, 74.4206, -148.428
3.36002, -1, -34.0334, -5.22716, 26.6954, 13.4938, 74.3301, -148.657
3.36795, -1, -34.2036, -5.31394, 26.7296, 13.4961, 74.2397, -148.886
3.375, -1, -34.3737, -5.40056, 26.7639, 13.4983, 74.149, -149.116
3.38397, -1, -34.5435, -5.48718, 26.7981, 13.5007, 74.0584, -149.345
3.39204, -1, -34.7127, -5.57379, 26.8321, 13.5031, 73.968, -149.575
3.39999, -1, -34.8814, -5.66035, 26.8664, 13.5054, 73.8774, -149.804
3.40795, -1, -35.0499, -5.74685, 26.9005, 13.5079, 73.7869, -150.033
3.41595, -1, -35.2181, -5.83329, 26.9346, 13.5103, 73.6966, -150.262
3.42298, -1, -35.3864, -5.91962, 26.9688, 13.5127, 73.6062, -150.491
3.43196, -1, -35.555, -6.00582, 27.003, 13.5151, 73.5159, -150.72
3.43995, -1, -35.7234, -6.09205, 27.037, 13.5174, 73.4255, -150.948
3.44697, -1, -35.8919, -6.17821, 27.071, 13.5198, 73.3353, -151.177
3.45596, -1, -36.0604, -6.26437, 27.1052, 13.5223, 73.2448, -151.405
3.46396, -1, -36.229, -6.35049, 27.1392, 13.5247, 73.1544, -151.634
3.47294, -1, -36.3977, -6.43672, 27.1732, 13.5271, 73.0643, -151.862
3.47993, -1, -36.5666, -6.52295, 27.2072, 13.5294, 72.9738, -152.09
3.48802, -1, -36.7355, -6.60916, 27.2412, 13.5316, 72.8836, -152.318
3.49601, -1, -36.9045, -6.69534, 27.2751, 13.534, 72.7935, -152.547
3.50395, -1, -37.0734, -6.78154, 27.3092, 13.5362, 72.7033, -152.775
3.51334, -1, -37.2421, -6.86766, 27.3431, 13.5384, 72.6133, -153.003
3.51995, -1, -37.4107, -6.9537, 27.3769, 13.5407, 72.5234, -153.23
3.52803, -1, -37.5787, -7.0398, 27.4109, 13.5429, 72.4335, -153.458
3.53595, -1, -37.7466, -7.1258, 27.4449, 13.5452, 72.3437, -153.685
3.54394, -1, -37.9142, -7.21178, 27.4786, 13.5474, 72.254, -153.913
3.55204, -1, -38.0816, -7.2977, 27.5125, 13.5497, 72.1644, -154.14
3.55994, -1, -38.2491, -7.38356, 27.5465, 13.5517, 72.0746, -154.368
3.56793, -1, -38.4164, -7.4693, 27.5803, 13.5538, 71.9848, -154.595
3.57614, -1, -38.5836, -7.55503, 27.6141, 13.556, 71.8954, -154.822
3.58301, -1, -38.7508, -7.64073, 27.6481, 13.5581, 71.8056, -155.049
3.59193, -1, -38.9182, -7.72642, 27.6819, 13.5601, 71.716, -155.276
3.60004, -1, -39.0856, -7.81205, 27.7156, 13.5622, 71.627, -155.503
3.60793, -1, -39.2531, -7.89771, 27.7495, 13.5642, 71.5374, -155.73
3.61595, -1, -39.4207, -7.9834, 27.7833, 13.5661, 71.4481, -155.957
3.62401, -1, -39.5882, -8.06895, 27.8169, 13.5681, 71.3588, -156.183
3.63193, -1, -39.7559, -8.15448, 27.8506, 13.5701, 71.2695, -156.41
3.63996, -1, -39.9235, -8.23996, 27.8844, 13.572, 71.1802, -156.636
3.64811, -1, -40.0911, -8.3254, 27.9181, 13.574, 71.0908, -156.862
3.65539, -1, -40.2586, -8.41073, 27.9518, 13.5759, 71.0016, -157.089
3.6635, -1, -40.4258, -8.4961, 27.9856, 13.5779, 70.9121, -157.315
3.6723, -1, -40.5929, -8.58149, 28.0193, 13.5799, 70.8229, -157.541
3.67949, -1, -40.7597, -8.66687, 28.0528, 13.5818, 70.7339, -157.767
3.68803, -1, -40.9262, -8.75218, 28.0866, 13.5838, 70.6447, -157.993
3.69651, -1, -41.0926, -8.83747, 28.1203, 13.5859, 70.5555, -158.218
3.70353, -1, -41.1758, -8.8801, 28.1371, 13.5869, 70.4666, -158.444
3.71194, -1, -41.4251, -9.00786, 28.1874, 13.5898, 70.3774, -158.67
3.72074, -1, -41.5914, -9.09299, 28.2211, 13.5919, 70.2881, -158.896
3.72796, -1, -41.7576, -9.17806, 28.2547, 13.5938, 70.199, -159.121
3.73504, -1, -41.8408, -9.22061, 28.2715, 13.5948, 70.1546, -159.234
3.7451, -1, -42.0905, -9.34813, 28.322, 13.5979, 70.0208, -159.572
3.75211, -1, -42.2568, -9.43323, 28.3555, 13.5999, 69.9318, -159.797
3.75897, -1, -42.3398, -9.47574, 28.3723, 13.6009, 69.8876, -159.91
3.76915, -1, -42.5894, -9.60318, 28.4226, 13.6039, 69.754, -160.248
3.77504, -1, -42.6727, -9.64567, 28.4393, 13.6049, 69.7097, -160.36
3.78442, -1, -42.9223, -9.77311, 28.4894, 13.608, 69.5766, -160.698
3.79241, -1, -43.0885, -9.858, 28.5229, 13.6101, 69.4877, -160.923
3.80126, -1, -43.2547, -9.94295, 28.5564, 13.6121, 69.3991, -161.148
3.80693, -1, -43.3377, -9.98541, 28.5731, 13.6132, 69.3547, -161.26
3.8165, -1, -43.5868, -10.1128, 28.6233, 13.6162, 69.2217, -161.597
3.82537, -1, -43.6698, -10.1553, 28.6568, 13.6184, 69.1331, -161.822
3.83095, -1, -43.8357, -10.2401, 28.6735, 13.6195, 69.0888, -161.934
3.83994, -1, -44.0015, -10.3249, 28.7068, 13.6216, 69.0006, -162.159
3.84792, -1, -44.1669, -10.4096, 28.7403, 13.6237, 68.9118, -162.383
3.85498, -1, -44.332, -10.4942, 28.7738, 13.6259, 68.8233, -162.607
3.86509, -1, -44.5798, -10.6211, 28.8237, 13.6292, 68.6906, -162.944
3.87101, -1, -44.6624, -10.6633, 28.8404, 13.6303, 68.6462, -163.056
3.87999, -1, -44.8277, -10.7478, 28.8739, 13.6325, 68.5576, -163.28
3.88804, -1, -44.993, -10.8322, 28.9073, 13.6347, 68.4691, -163.504
3.89597, -1, -45.1584, -10.9168, 28.9407, 13.6369, 68.3808, -163.728
3.90396, -1, -45.3237, -11.0013, 28.9741, 13.6391, 68.2922, -163.952
3.91192, -1, -45.4889, -11.0857, 29.0075, 13.6413, 68.2038, -164.176
3.91992, -1, -45.6542, -11.1701, 29.0406, 13.6437, 68.1157, -164.4
3.92801, -1, -45.8195, -11.2546, 29.074, 13.6459, 68.0272, -164.623
3.93496, -1, -45.9838, -11.3385, 29.1074, 13.6482, 67.9388, -164.847
3.94392, -1, -46.1452, -11.4208, 29.1408, 13.6504, 67.8509, -165.07
3.95199, -1, -46.3023, -11.5002, 29.1744, 13.6529, 67.7634, -165.291
3.95992, -1, -46.4528, -11.5754, 29.208, 13.6552, 67.6782, -165.507
3.96792, -1, -46.5943, -11.6454, 29.2403, 13.6575, 67.5966, -165.713
3.97602, -1, -46.7242, -11.7089, 29.2702, 13.6596, 67.5217, -165.903
3.98392, -1, -46.8396, -11.7652, 29.2967, 13.6616, 67.4544, -166.072
3.99192, -1, -46.9388, -11.8145, 29.3189, 13.6633, 67.3983, -166.215
3.99999, -1, -47.0218, -11.8575, 29.3356, 13.6646, 67.3532, -166.329
4.00792, -1, -47.0894, -11.8945, 29.347, 13.6654, 67.3193, -166.414
4.01595, -1, -47.1421, -11.9241, 29.3543, 13.6658, 67.2957, -166.474
4.02399, -1, -47.1814, -11.9464, 29.3583, 13.666, 67.2805, -166.512
4.03188, -1, -47.2093, -11.962, 29.3601, 13.6661, 67.2715, -166.534
4.03992, -1, -47.2278, -11.9721, 29.3609, 13.6663, 67.2667, -166.547
4.04804, -1, -47.2389, -11.978, 29.3613, 13.6663, 67.2643, -166.552
4.05595, 2, -47.2447, -11.981, 29.3615, 13.6663, 67.2632, -166.555
4.06392, 2, -47.2468, -11.9823, 29.3616, 13.6664, 67.2627, -166.556
4.07207, 2, -47.2469, -11.9828, 29.3617, 13.6664, 67.2624, -166.557
4.07992, 2, -47.2465, -11.983, 29.3618, 13.6664, 67.2623, -166.557
4.0879, 2, -47.2464, -11.9831, 29.3618, 13.6664, 67.2622, -166.557
4.09604, 2, -47.2468, -11.9832, 29.3619, 13.6664, 67.2623, -166.558
4.10393, 2, -47.2477, -11.9834, 29.3619, 13.6664, 67.2622, -166.558
4.11191, 2, -47.249, -11.9839, 29.3619, 13.6664, 67.2622, -166.558
4.11998, 2, -47.2509, -11.9847, 29.3619, 13.6664, 67.2622, -166.558
4.12791, 2, -47.2525, -11.9855, 29.3619, 13.6664, 67.2622, -166.558
4.13595, 2, -47.254, -11.9864, 29.3619, 13.6664, 67.2623, -166.558
4.144, 2, -47.2551, -11.987, 29.3619, 13.6664, 67.2622, -166.558
4.15192, 2, -47.2556, -11.9874, 29.3619, 13.6665, 67.2623, -166.558
4.15995, 2, -47.2557, -11.9876, 29.3619, 13.6664, 67.2623, -166.558
4.16807, 2, -47.2558, -11.9877, 29.3619, 13.6664, 67.2623, -166.558
4.17603, 2, -47.2555, -11.9877, 29.3619, 13.6664, 67.2622, -166.558
4.1835, 2, -47.255, -11.9877, 29.3619, 13.6664, 67.2622, -166.558
4.19208, 2, -47.2545, -11.9877, 29.3619, 13.6664, 67.2623, -166.558
4.20003, 2, -47.254, -11.9877, 29.3619, 13.6664, 67.2622, -166.558
4.20756, 2, -47.2539, -11.9877, 29.3619, 13.6664, 67.2622, -166.558
4.21611, 2, -47.2538, -11.9877, 29.3619, 13.6664, 67.2623, -166.558
4.22398, 2, -47.2539, -11.9879, 29.3619, 13.6664, 67.2622, -166.558
4.23097, 2, -47.254, -11.988, 29.3619, 13.6664, 67.2622, -166.558
4.24011, 2, -47.2546, -11.9885, 29.3619, 13.6664, 67.2623, -166.558
4.24691, 2, -47.255, -11.9887, 29.3619, 13.6664, 67.2623, -166.558
4.25623, 2, -47.2557, -11.989, 29.3619, 13.6664, 67.2622, -166.557
4.26292, 2, -47.2558, -11.9891, 29.3619, 13.6664, 67.2622, -166.557
4.27231, 2, -47.256, -11.9892, 29.3619, 13.6664, 67.2623, -166.557
4.27896, 2, -47.2559, -11.9892, 29.3619, 13.6664, 67.2623, -166.557
4.28848, 2, -47.2557, -11.9891, 29.3619, 13.6664, 67.2623, -166.557
4.2968, 2, -47.2553, -11.9891, 29.3619, 13.6664, 67.2623, -166.557
4.30441, 2, -47.2548, -11.9891, 29.3619, 13.6664, 67.2623, -166.557
4.3126, 2, -47.2545, -11.989, 29.3619, 13.6664, 67.2623, -166.557
4.32053, 2, -47.2542, -11.989, 29.3619, 13.6664, 67.2623, -166.557
4.32849, 2, -47.2541, -11.9891, 29.3619, 13.6664, 67.2623, -166.557
4.33663, 2, -47.254, -11.9891, 29.3619, 13.6664, 67.2623, -166.557
4.34391, 2, -47.2539, -11.9892, 29.3619, 13.6664, 67.2623, -166.557
4.35191, 2, -47.2539, -11.9892, 29.3619, 13.6664, 67.2623, -166.557
4.35995, 2, -47.2539, -11.9893, 29.3619, 13.6664, 67.2623, -166.557
4.3679, 2, -47.2539, -11.9893, 29.3619, 13.6664, 67.2623, -166.557
4.37593, 2, -47.2541, -11.9893, 29.3619, 13.6664, 67.2623, -166.557
4.38398, 2, -47.2541, -11.9893, 29.3619, 13.6664, 67.2623, -166.557
4.39193, 2, -47.254, -11.9892, 29.3619, 13.6664, 67.2623, -166.557
4.3999, 2, -47.254, -11.9892, 29.3619, 13.6664, 67.2623, -166.557
4.40796, 2, -47.2539, -11.9891, 29.3619, 13.6664, 67.2623, -166.557
4.41593, 2, -47.2537, -11.9891, 29.3619, 13.6664, 67.2623, -166.557
4.4239, 2, -47.2536, -11.9891, 29.3619, 13.6664, 67.2623, -166.557
4.43199, 2, -47.2534, -11.9891, 29.3619, 13.6664, 67.2623, -166.557
4.43992, 2, -47.2533, -11.9891, 29.3619, 13.6664, 67.2623, -166.557
4.4479, 2, -47.2532, -11.9891, 29.3619, 13.6664, 67.2623, -166.557
4.45499, 2, -47.2531, -11.9891, 29.3619, 13.6663, 67.2624, -166.557
4.4639, 2, -47.2531, -11.9891, 29.3619, 13.6663, 67.2623, -166.557
4.47291, 2, -47.253, -11.9891, 29.3619, 13.6663, 67.2623, -166.557
4.47999, 2, -47.253, -11.9891, 29.3619, 13.6664, 67.2623, -166.557
4.48895, 2, -47.2529, -11.9891, 29.3619, 13.6663, 67.2623, -166.557
4.49593, 2, -47.2528, -11.9891, 29.3619, 13.6663, 67.2624, -166.557
4.50396, 2, -47.2527, -11.989, 29.3619, 13.6663, 67.2624, -166.557
4.5119, 2, -47.2527, -11.989, 29.3619, 13.6663, 67.2623, -166.557
4.5199, 2, -47.2526, -11.9889, 29.3619, 13.6663, 67.2624, -166.557
4.52797, 2, -47.2525, -11.9889, 29.3619, 13.6663, 67.2624, -166.557
4.53593, 2, -47.2524, -11.9889, 29.3619, 13.6663, 67.2624, -166.557
4.5439, 2, -47.2523, -11.9889, 29.3619, 13.6663, 67.2624, -166.557
4.55197, 2, -47.2522, -11.9889, 29.3619, 13.6663, 67.2624, -166.557
4.55993, 2, -47.2522, -11.9889, 29.3619, 13.6663, 67.2624, -166.557
4.5679, 2, -47.2521, -11.9889, 29.3619, 13.6663, 67.2624, -166.557
4.576, 2, -47.2519, -11.9889, 29.3619, 13.6663, 67.2624, -166.557
4.58391, 2, -47.2518, -11.9889, 29.3619, 13.6663, 67.2624, -166.557
4.5919, 2, -47.2517, -11.9889, 29.3619, 13.6663, 67.2624, -166.557
4.6, 2, -47.2516, -11.9888, 29.3619, 13.6663, 67.2624, -166.557
4.60792, 2, -47.2515, -11.9888, 29.3619, 13.6663, 67.2624, -166.557
4.61592, 2, -47.2514, -11.9887, 29.3619, 13.6663, 67.2625, -166.557
4.62396, 2, -47.2512, -11.9887, 29.3619, 13.6663, 67.2625, -166.557
4.6319, 2, -47.2511, -11.9887, 29.3619, 13.6663, 67.2625, -166.557
4.63991, 2, -47.251, -11.9886, 29.3619, 13.6662, 67.2625, -166.557
4.64799, 2, -47.2509, -11.9886, 29.3619, 13.6662, 67.2625, -166.557
4.65594, 2, -47.2508, -11.9886, 29.3619, 13.6663, 67.2625, -166.557
4.66393, 2, -47.2508, -11.9886, 29.3619, 13.6662, 67.2625, -166.557
4.67206, 2, -47.2507, -11.9886, 29.3619, 13.6662, 67.2625, -166.557
4.67999, 2, -47.2506, -11.9886, 29.3619, 13.6663, 67.2625, -166.557
4.688, 2, -47.2505, -11.9886, 29.3619, 13.6662, 67.2626, -166.557
4.6961, 2, -47.2505, -11.9886, 29.3619, 13.6662, 67.2626, -166.557
4.704, 2, -47.2504, -11.9885, 29.3619, 13.6662, 67.2626, -166.557
4.71155, 2, -47.2504, -11.9884, 29.3619, 13.6662, 67.2626, -166.557
4.71997, 2, -47.2503, -11.9884, 29.3619, 13.6662, 67.2627, -166.557
4.72796, 2, -47.2502, -11.9883, 29.3619, 13.6662, 67.2627, -166.557
4.735, 2, -47.2502, -11.9883, 29.3619, 13.6662, 67.2627, -166.557
4.74406, 2, -47.25, -11.9883, 29.3619, 13.6662, 67.2627, -166.557
4.75091, 2, -47.25, -11.9883, 29.3619, 13.6662, 67.2627, -166.557
4.76008, 2, -47.2499, -11.9883, 29.3619, 13.6661, 67.2627, -166.557
4.7669, 2, -47.2499, -11.9883, 29.3619, 13.6661, 67.2627, -166.557
4.77629, 2, -47.2498, -11.9883, 29.3619, 13.6661, 67.2627, -166.557
4.78295, 2, -47.2498, -11.9883, 29.3619, 13.6661, 67.2627, -166.557
4.79275, 2, -47.2498, -11.9883, 29.3619, 13.6661, 67.2627, -166.557
4.8004, 2, -47.2497, -11.9882, 29.3619, 13.6661, 67.2627, -166.557
4.80842, 2, -47.2497, -11.9882, 29.3619, 13.6661, 67.2627, -166.557
4.81691, 2, -47.2496, -11.9881, 29.3619, 13.6661, 67.2628, -166.557
4.82446, 2, -47.2496, -11.988, 29.3619, 13.6661, 67.2628, -166.556
4.83242, 2, -47.2495, -11.988, 29.3619, 13.6661, 67.2629, -166.556
4.84076, 2, -47.2494, -11.988, 29.3619, 13.666, 67.2628, -166.556
4.84788, 2, -47.2494, -11.9879, 29.3619, 13.666, 67.2628, -166.556
4.85598, 2, -47.2493, -11.9879, 29.3619, 13.6661, 67.2628, -166.556
4.86478, 2, -47.2492, -11.9879, 29.3619, 13.666, 67.2629, -166.556
4.87189, 2, -47.2491, -11.9879, 29.3619, 13.666, 67.2629, -166.556
4.87989, 2, -47.2491, -11.9879, 29.3619, 13.666, 67.2628, -166.556
4.88793, 2, -47.2491, -11.9879, 29.3619, 13.666, 67.2629, -166.556
4.89594, 2, -47.249, -11.9879, 29.3619, 13.666, 67.2629, -166.556
4.90389, 2, -47.249, -11.9879, 29.3619, 13.666, 67.263, -166.556
4.91193, 2, -47.249, -11.9879, 29.3619, 13.666, 67.263, -166.556
4.91989, 2, -47.249, -11.9878, 29.3619, 13.666, 67.263, -166.556
4.92788, 2, -47.2489, -11.9877, 29.3619, 13.6659, 67.263, -166.556
4.93602, 2, -47.2489, -11.9877, 29.3619, 13.666, 67.263, -166.556
4.9439, 2, -47.2487, -11.9876, 29.3619, 13.6659, 67.263, -166.556
4.95189, 2, -47.2487, -11.9876, 29.3619, 13.666, 67.263, -166.556
4.95995, 2, -47.2486, -11.9876, 29.3619, 13.6659, 67.2631, -166.556
4.96788, 2, -47.2485, -11.9876, 29.3619, 13.6659, 67.263, -166.556
4.97689, 2, -47.2485, -11.9876, 29.3619, 13.6659, 67.263, -166.556
4.98397, 2, -47.2484, -11.9876, 29.3619, 13.6659, 67.263, -166.556
4.99188, 2, -47.2484, -11.9876, 29.3619, 13.6658, 67.2631, -166.556
4.99988, 2, -47.2483, -11.9875, 29.3619, 13.6658, 67.263, -166.556
5.00795, 2, -47.2483, -11.9875, 29.3619, 13.6659, 67.2631, -166.556
5.01591, 2, -47.2483, -11.9875, 29.3619, 13.6659, 67.2631, -166.556
5.02388, 2, -47.2483, -11.9874, 29.3619, 13.6659, 67.2631, -166.556
5.03194, 2, -47.2482, -11.9874, 29.3619, 13.6658, 67.2631, -166.556
5.03989, 2, -47.2482, -11.9873, 29.3619, 13.6658, 67.2631, -166.556
5.04788, 2, -47.2481, -11.9873, 29.3619, 13.6658, 67.2631, -166.556
5.05613, 2, -47.2481, -11.9873, 29.3619, 13.6658, 67.2631, -166.556
5.0649, 2, -47.248, -11.9873, 29.3619, 13.6658, 67.2632, -166.556
5.07191, 2, -47.2479, -11.9872, 29.3619, 13.6658, 67.2632, -166.556
5.07991, 2, -47.2478, -11.9873, 29.3619, 13.6658, 67.2632, -166.556
5.08825, 2, -47.2478, -11.9872, 29.3619, 13.6657, 67.2632, -166.556
5.09494, 2, -47.2478, -11.9872, 29.3619, 13.6657, 67.2632, -166.556
5.10391, 2, -47.2477, -11.9872, 29.3619, 13.6657, 67.2632, -166.556
5.11197, 2, -47.2477, -11.9872, 29.3619, 13.6657, 67.2632, -166.556
5.11988, 2, -47.2477, -11.9871, 29.3619, 13.6656, 67.2632, -166.556
5.12788, 2, -47.2476, -11.9871, 29.3619, 13.6657, 67.2632, -166.556
5.13621, 2, -47.2476, -11.987, 29.3619, 13.6657, 67.2632, -166.556
5.14318, 4, -47.2476, -11.987, 29.3619, 13.6656, 67.2632, -166.556
5.15126, 4, -47.2475, -11.987, 29.3619, 13.6656, 67.2632, -166.556
5.15974, 4, -47.2474, -11.987, 29.3619, 13.6656, 67.2632, -166.556
5.16793, 4, -47.2474, -11.9869, 29.3619, 13.6656, 67.2632, -166.556
5.17599, 4, -47.2473, -11.9869, 29.3619, 13.6655, 67.2631, -166.556
5.18404, 4, -47.2473, -11.9869, 29.3619, 13.6655, 67.2631, -166.556
5.19199, 4, -47.2472, -11.9869, 29.3619, 13.6655, 67.2631, -166.556
5.19999, 4, -47.2472, -11.9869, 29.3619, 13.6655, 67.2632, -166.556
5.20805, 4, -47.2472, -11.9868, 29.3619, 13.6655, 67.2631, -166.556
5.21597, 4, -47.2472, -11.9868, 29.3619, 13.6655, 67.2631, -166.556
5.22388, 4, -47.2471, -11.9868, 29.3619, 13.6655, 67.2631, -166.556
5.232, 4, -47.2471, -11.9868, 29.3619, 13.6654, 67.2632, -166.556
5.24036, 4, -47.2471, -11.9867, 29.3619, 13.6654, 67.2631, -166.556
5.26687, 4, -47.247, -11.9866, 29.3619, 13.6654, 67.2632, -166.556
5.26952, 4, -47.2469, -11.9866, 29.3619, 13.6654, 67.2632, -166.556
5.27129, 4, -47.2469, -11.9866, 29.3619, 13.6654, 67.2632, -166.556
5.27395, 4, -47.2469, -11.9866, 29.3619, 13.6654, 67.2632, -166.556
5.28159, 4, -47.2468, -11.9866, 29.3619, 13.6654, 67.2632, -166.556
5.28834, 4, -47.2468, -11.9866, 29.3619, 13.6654, 67.2632, -166.556
5.29495, 4, -47.2468, -11.9866, 29.3619, 13.6654, 67.2632, -166.556
5.30519, 4, -47.2478, -11.9871, 29.3623, 13.6655, 67.2633, -166.556
5.31093, 4, -47.2487, -11.9877, 29.3629, 13.6659, 67.2635, -166.555
5.32049, 4, -47.2535, -11.9921, 29.3688, 13.6765, 67.266, -166.554
5.32925, 4, -47.2558, -11.9977, 29.3785, 13.698, 67.2713, -166.55
5.33503, 4, -47.2615, -12.0014, 29.3858, 13.7142, 67.2755, -166.547
5.34475, 4, -47.274, -12.0164, 29.4197, 13.7907, 67.2961, -166.529
5.3509, 5, -47.2794, -12.023, 29.4352, 13.8263, 67.3059, -166.521
5.36113, 5, -47.2985, -12.0471, 29.4932, 13.9597, 67.3436, -166.49
5.36791, 5, -47.3057, -12.0564, 29.516, 14.0123, 67.3583, -166.477
5.37589, 5, -47.3216, -12.0767, 29.5656, 14.1261, 67.3898, -166.45
5.38294, 5, -47.339, -12.0992, 29.619, 14.2472, 67.4232, -166.421
5.39187, 5, -47.358, -12.1236, 29.6746, 14.3723, 67.4583, -166.391
5.3999, 5, -47.3779, -12.149, 29.7316, 14.4994, 67.4943, -166.361
5.40791, 5, -47.3987, -12.1751, 29.7892, 14.6275, 67.5298, -166.331
5.41498, 5, -47.4201, -12.2015, 29.8473, 14.756, 67.5648, -166.3
5.42392, 5, -47.4417, -12.2282, 29.9056, 14.8846, 67.6001, -166.27
5.43187, 5, -47.4633, -12.2552, 29.9643, 15.0134, 67.6359, -166.239
5.43908, 5, -47.4853, -12.282, 30.0233, 15.1423, 67.6711, -166.208
5.44789, 5, -47.5071, -12.309, 30.0828, 15.2713, 67.7058, -166.178
5.45589, 5, -47.5289, -12.336, 30.1424, 15.4004, 67.7406, -166.148
5.4639, 5, -47.5508, -12.3631, 30.2023, 15.5296, 67.7759, -166.118
5.4729, 5, -47.5724, -12.3902, 30.2625, 15.6587, 67.8107, -166.088
5.47986, 5, -47.5939, -12.4173, 30.3228, 15.7879, 67.8448, -166.057
5.48806, 5, -47.6154, -12.4445, 30.3833, 15.9169, 67.8789, -166.027
5.49589, 5, -47.6371, -12.4718, 30.4442, 16.0461, 67.9136, -165.998
5.50386, 5, -47.6591, -12.4993, 30.5052, 16.1751, 67.948, -165.968
5.51188, 5, -47.6812, -12.5267, 30.5664, 16.3042, 67.9816, -165.939
5.51987, 5, -47.7035, -12.5545, 30.6278, 16.4333, 68.0152, -165.909
5.52793, 5, -47.7261, -12.5823, 30.6895, 16.5624, 68.0492, -165.879
5.53589, 5, -47.7487, -12.6103, 30.7514, 16.6915, 68.0832, -165.85
5.54393, 5, -47.7711, -12.6383, 30.8137, 16.8205, 68.1165, -165.82
5.55187, 5, -47.7936, -12.6663, 30.8761, 16.9494, 68.1493, -165.792
5.56001, 5, -47.8162, -12.6943, 30.9388, 17.0785, 68.1824, -165.763
5.56785, 5, -47.8387, -12.7224, 31.0017, 17.2077, 68.2157, -165.734
5.57587, 5, -47.8614, -12.7505, 31.0648, 17.3369, 68.2484, -165.705
5.58487, 5, -47.8842, -12.7786, 31.1281, 17.4659, 68.2808, -165.676
5.59188, 5, -47.9069, -12.8068, 31.1916, 17.5952, 68.313, -165.647
5.59986, 5, -47.9294, -12.835, 31.2554, 17.7243, 68.3459, -165.619
5.6087, 5, -47.9519, -12.8635, 31.3194, 17.8534, 68.3785, -165.591
5.61589, 5, -47.9744, -12.8919, 31.3837, 17.9827, 68.4105, -165.563
5.62386, 5, -47.9969, -12.9205, 31.4482, 18.1119, 68.442, -165.534
5.63266, 5, -48.0198, -12.9492, 31.5129, 18.2412, 68.4738, -165.506
5.63987, 5, -48.0428, -12.978, 31.5779, 18.3704, 68.5059, -165.477
5.64787, 5, -48.0659, -13.0068, 31.6431, 18.4996, 68.5374, -165.449
5.65691, 5, -48.089, -13.0356, 31.7083, 18.6289, 68.5686, -165.422
5.66561, 5, -48.1123, -13.0645, 31.7739, 18.758, 68.5997, -165.395
5.67194, 5, -48.1355, -13.0935, 31.8396, 18.8874, 68.6312, -165.367
5.68185, 5, -48.1586, -13.1225, 31.9056, 19.0168, 68.6627, -165.339
5.68795, 5, -48.1819, -13.1515, 31.9718, 19.1461, 68.6936, -165.311
5.69608, 5, -48.2052, -13.1806, 32.0382, 19.2755, 68.7241, -165.284
5.70406, 5, -48.2284, -13.2097, 32.105, 19.4047, 68.7545, -165.257
5.71198, 5, -48.2515, -13.239, 32.1719, 19.5341, 68.7855, -165.23
5.72003, 5, -48.2747, -13.2683, 32.2391, 19.6634, 68.8162, -165.204
5.72789, 5, -48.2981, -13.2976, 32.3065, 19.7928, 68.8463, -165.176
5.73598, 5, -48.3213, -13.327, 32.3741, 19.9222, 68.8762, -165.149
5.74399, 5, -48.3447, -13.3565, 32.4418, 20.0514, 68.9062, -165.122
5.75202, 5, -48.3683, -13.386, 32.5097, 20.1808, 68.9368, -165.095
5.75908, 5, -48.38, -13.4008, 32.5437, 20.2453, 68.9518, -165.082
5.76986, 5, -48.4151, -13.4451, 32.6463, 20.4394, 68.9963, -165.043
5.77626, 5, -48.4387, -13.4748, 32.715, 20.5687, 69.0253, -165.016
5.78433, 5, -48.4624, -13.5045, 32.7839, 20.6982, 69.0547, -164.99
5.79086, 5, -48.4742, -13.5194, 32.8185, 20.7629, 69.0695, -164.977
5.79895, 5, -48.4979, -13.5492, 32.8878, 20.8923, 69.0991, -164.95
5.80844, 5, -48.5335, -13.594, 32.992, 21.0865, 69.1425, -164.91
5.81734, 5, -48.557, -13.6239, 33.0616, 21.2158, 69.1712, -164.885
5.82294, 5, -48.5688, -13.6389, 33.0966, 21.2805, 69.1855, -164.872
5.83271, 5, -48.6044, -13.6841, 33.2017, 21.4748, 69.2293, -164.834
5.84287, 5, -48.628, -13.7143, 33.272, 21.6044, 69.2581, -164.808
5.84887, 5, -48.6517, -13.7445, 33.3426, 21.7339, 69.2864, -164.782
5.8559, 5, -48.6636, -13.7596, 33.378, 21.7986, 69.3005, -164.768
5.86385, 5, -48.687, -13.7898, 33.4489, 21.928, 69.3284, -164.743
5.87086, 5, -48.7097, -13.8198, 33.5199, 22.0571, 69.3569, -164.717
5.87986, 5, -48.7318, -13.8497, 33.5908, 22.1855, 69.3858, -164.69
5.88796, 5, -48.7531, -13.8792, 33.6613, 22.3128, 69.4145, -164.661
5.89598, 5, -48.7734, -13.9083, 33.7312, 22.4385, 69.4433, -164.629
5.90407, 5, -48.7927, -13.9368, 33.8001, 22.5617, 69.4727, -164.594
5.91181, 5, -48.8108, -13.9649, 33.868, 22.6819, 69.5033, -164.554
5.91985, 6, -48.8275, -13.9921, 33.9346, 22.7987, 69.5351, -164.51
5.92787, 6, -48.8427, -14.0185, 33.9998, 22.9119, 69.5672, -164.459
5.93596, 6, -48.8559, -14.0443, 34.0635, 23.0215, 69.5998, -164.403
5.94388, 6, -48.8671, -14.069, 34.1257, 23.1271, 69.6335, -164.342
5.95343, 6, -48.8804, -14.1046, 34.216, 23.2787, 69.6867, -164.239
5.95985, 6, -48.8839, -14.1159, 34.2453, 23.3273, 69.7047, -164.201
5.96793, 6, -48.8897, -14.138, 34.3029, 23.4219, 69.7408, -164.124
5.97687, 6, -48.894, -14.1594, 34.359, 23.5135, 69.778, -164.04
5.98384, 6, -48.8967, -14.1799, 34.4138, 23.6022, 69.8166, -163.953
5.99187, 6, -48.898, -14.1998, 34.4675, 23.6881, 69.8554, -163.861
6.00205, 7, -48.8981, -14.2286, 34.5461, 23.813, 69.9137, -163.718
6.008, 7, -48.8976, -14.2378, 34.5718, 23.8539, 69.9337, -163.668
6.01489, 7, -48.8958, -14.2558, 34.6226, 23.9341, 69.9742, -163.567
6.02385, 7, -48.8929, -14.2735, 34.6726, 24.0126, 70.0146, -163.464
6.03184, 7, -48.8891, -14.2907, 34.7217, 24.0895, 70.0555, -163.358
6.03993, 7, -48.8844, -14.3072, 34.7701, 24.1651, 70.0977, -163.249
6.04785, 7, -48.8788, -14.3234, 34.8176, 24.2388, 70.1401, -163.138
6.05591, 7, -48.8724, -14.3393, 34.8644, 24.3116, 70.182, -163.025
6.06391, 7, -48.8653, -14.3548, 34.9106, 24.3828, 70.2248, -162.91
6.07188, 7, -48.8577, -14.3695, 34.9562, 24.4535, 70.2685, -162.793
6.07986, 7, -48.8495, -14.3839, 35.0012, 24.5228, 70.3116, -162.674
6.08787, 8, -48.8408, -14.3984, 35.0456, 24.5917, 70.3552, -162.554
6.0959, 8, -48.8313, -14.4124, 35.0897, 24.6601, 70.4, -162.434
6.104, 8, -48.8213, -14.4259, 35.1334, 24.728, 70.4442, -162.312
6.11131, 8, -48.8109, -14.4393, 35.1766, 24.7956, 70.4884, -162.189
6.11889, 8, -48.7999, -14.4527, 35.2195, 24.8625, 70.5338, -162.066
6.12785, 8, -48.7885, -14.4659, 35.2622, 24.9297, 70.5791, -161.942
6.13599, 8, -48.7769, -14.4788, 35.3045, 24.9959, 70.624, -161.817
6.14385, 8, -48.7651, -14.4914, 35.3463, 25.0626, 70.6699, -161.691
6.15185, 8, -48.7531, -14.5038, 35.3879, 25.1283, 70.7158, -161.565
6.15988, 8, -48.7409, -14.5163, 35.4295, 25.1946, 70.7609, -161.438
6.16817, 8, -48.7284, -14.5286, 35.4706, 25.2601, 70.8069, -161.312
6.17632, 9, -48.7157, -14.5406, 35.5116, 25.3265, 70.8532, -161.185
6.18415, 9, -48.7029, -14.5523, 35.5526, 25.3921, 70.8988, -161.057
6.19202, 9, -48.6901, -14.564, 35.5933, 25.4584, 70.9449, -160.931
6.20003, 9, -48.677, -14.5757, 35.634, 25.5245, 70.9917, -160.804
6.20796, 9, -48.6639, -14.5875, 35.6745, 25.5909, 71.0374, -160.677
6.21641, 9, -48.6507, -14.5991, 35.7147, 25.6575, 71.0833, -160.551
6.22589, 9, -48.6373, -14.6103, 35.7551, 25.7239, 71.1301, -160.424
6.23285, 9, -48.6239, -14.6217, 35.7951, 25.7911, 71.1762, -160.297
6.23992, 9, -48.6104, -14.633, 35.835, 25.8579, 71.2222, -160.17
6.24792, 9, -48.5968, -14.6444, 35.875, 25.9258, 71.2694, -160.043
6.25636, 9, -48.5833, -14.6559, 35.9148, 25.9929, 71.3158, -159.917
6.26305, 10, -48.5765, -14.6614, 35.9347, 26.027, 71.3388, -159.854
6.27208, 10, -48.5559, -14.6779, 35.9945, 26.1288, 71.4089, -159.665
6.2808, 10, -48.5423, -14.689, 36.0341, 26.1974, 71.4555, -159.539
6.28826, 10, -48.5288, -14.7002, 36.0738, 26.2654, 71.5015, -159.413
6.2963, 10, -48.5151, -14.7115, 36.1135, 26.3345, 71.5484, -159.288
6.30288, 10, -48.5083, -14.7171, 36.1332, 26.369, 71.5719, -159.225
6.31235, 10, -48.4877, -14.7334, 36.1926, 26.4729, 71.641, -159.038
6.32046, 10, -48.4738, -14.7444, 36.2322, 26.5422, 71.6875, -158.913
6.33092, 10, -48.46, -14.7555, 36.2717, 26.6121, 71.7341, -158.789
6.33643, 10, -48.4531, -14.7666, 36.3112, 26.6821, 71.7799, -158.665
6.34438, 10, -48.4393, -14.7723, 36.3309, 26.717, 71.8029, -158.603
6.3527, 11, -48.4255, -14.7835, 36.3701, 26.7879, 71.8729, -158.418
6.35988, 11, -48.4117, -14.7944, 36.4095, 26.8581, 71.8959, -158.356
6.36788, 11, -48.3978, -14.8054, 36.4488, 26.9292, 71.9414, -158.233
6.37589, 11, -48.384, -14.8165, 36.488, 27, 71.9879, -158.11
6.38384, 11, -48.3703, -14.8277, 36.5272, 27.0714, 72.034, -157.987
6.39184, 11, -48.3563, -14.839, 36.5664, 27.1425, 72.0796, -157.865
6.39984, 11, -48.3423, -14.85, 36.6055, 27.2143, 72.1259, -157.742
6.40786, 11, -48.3283, -14.8609, 36.6447, 27.2857, 72.1722, -157.62
6.41588, 11, -48.3141, -14.8718, 36.6837, 27.3579, 72.2176, -157.499
6.4239, 11, -48.2999, -14.8828, 36.7228, 27.4296, 72.2635, -157.377
6.43191, 11, -48.2857, -14.8939, 36.7618, 27.5023, 72.3097, -157.256
6.43982, 12, -48.2714, -14.905, 36.8007, 27.5745, 72.355, -157.134
6.44849, 12, -48.257, -14.9158, 36.8395, 27.6474, 72.4006, -157.013
6.45607, 12, -48.2426, -14.9266, 36.8784, 27.7196, 72.4468, -156.892
6.46364, 12, -48.2281, -14.9376, 36.9171, 27.7928, 72.4921, -156.771
6.47191, 12, -48.2137, -14.9487, 36.9558, 27.8654, 72.5372, -156.65
6.47984, 12, -48.1991, -14.9599, 36.9944, 27.9387, 72.5832, -156.53
6.48884, 12, -48.1844, -14.971, 37.0328, 28.0114, 72.6284, -156.41
6.49921, 12, -48.1619, -14.9873, 37.0906, 28.1212, 72.6962, -156.231
6.50294, 12, -48.1544, -14.9928, 37.1098, 28.1577, 72.7192, -156.171
6.51183, 12, -48.1392, -15.0037, 37.1479, 28.231, 72.7646, -156.051
6.51989, 12, -48.124, -15.0149, 37.1861, 28.304, 72.8092, -155.932
6.52796, 13, -48.1086, -15.026, 37.2243, 28.3778, 72.8546, -155.812
6.53592, 13, -48.0931, -15.0369, 37.2622, 28.451, 72.9, -155.693
6.54383, 13, -48.0775, -15.0476, 37.3002, 28.5247, 72.9444, -155.573
6.55186, 13, -48.0618, -15.0586, 37.3381, 28.5979, 72.9894, -155.454
6.55986, 13, -48.046, -15.0695, 37.3757, 28.6715, 73.0349, -155.335
6.56784, 13, -48.03, -15.0806, 37.4134, 28.7448, 73.0792, -155.216
6.57608, 13, -48.0137, -15.0915, 37.451, 28.8183, 73.1237, -155.098
6.58295, 13, -47.9972, -15.1022, 37.4884, 28.8915, 73.1691, -154.979
6.59184, 13, -47.9807, -15.1129, 37.5258, 28.965, 73.2136, -154.86
6.5999, 13, -47.9641, -15.1237, 37.5631, 29.0384, 73.2579, -154.741
6.60783, 13, -47.9474, -15.1346, 37.6003, 29.1118, 73.3031, -154.623
6.6159, 14, -47.9305, -15.1456, 37.6374, 29.185, 73.3479, -154.504
6.62399, 14, -47.9135, -15.1564, 37.6743, 29.2585, 73.3915, -154.386
6.63199, 14, -47.8964, -15.167, 37.7111, 29.3318, 73.4361, -154.268
6.6399, 14, -47.8792, -15.1778, 37.7479, 29.4052, 73.4806, -154.15
6.64783, 14, -47.8617, -15.1886, 37.7845, 29.4784, 73.5243, -154.032
6.65587, 14, -47.844, -15.1995, 37.8209, 29.5515, 73.5686, -153.914
6.66392, 14, -47.8261, -15.2104, 37.8572, 29.6248, 73.6134, -153.796
6.67298, 14, -47.8081, -15.2211, 37.8935, 29.6978, 73.6572, -153.678
6.67991, 14, -47.7899, -15.2317, 37.9297, 29.7706, 73.7008, -153.561
6.68799, 14, -47.7716, -15.2424, 37.9658, 29.8436, 73.7453, -153.443
6.69596, 14, -47.7532, -15.2531, 38.0017, 29.9165, 73.7891, -153.325
6.70416, 15, -47.7346, -15.264, 38.0375, 29.9892, 73.8325, -153.208
6.71193, 15, -47.716, -15.2747, 38.0734, 30.0619, 73.8768, -153.09
6.71989, 15, -47.6971, -15.2853, 38.1091, 30.1345, 73.9208, -152.973
6.72797, 15, -47.6779, -15.2958, 38.1445, 30.2072, 73.964, -152.856
6.73589, 15, -47.6585, -15.3065, 38.18, 30.2796, 74.0076, -152.739
6.74389, 15, -47.6391, -15.3173, 38.2154, 30.3522, 74.0516, -152.621
6.75192, 15, -47.6193, -15.3282, 38.2507, 30.4246, 74.0947, -152.504
6.76006, 15, -47.5995, -15.3389, 38.2859, 30.497, 74.1378, -152.388
6.76683, 15, -47.5895, -15.3442, 38.3034, 30.5331, 74.1597, -152.329
6.77627, 15, -47.5595, -15.3602, 38.3558, 30.6412, 74.2247, -152.154
6.78284, 15, -47.5494, -15.3656, 38.3732, 30.6772, 74.2459, -152.096
6.79226, 16, -47.5186, -15.3818, 38.4254, 30.7851, 74.3103, -151.922
6.79904, 16, -47.5082, -15.3873, 38.4427, 30.8212, 74.3319, -151.864
6.80828, 16, -47.4876, -15.3982, 38.4943, 30.929, 74.3955, -151.691
6.81482, 16, -47.4667, -15.4089, 38.5116, 30.965, 74.4167, -151.633
6.82437, 16, -47.435, -15.425, 38.5632, 31.0727, 74.4812, -151.459
6.83256, 16, -47.4138, -15.4358, 38.5974, 31.1441, 74.5233, -151.344
6.84039, 16, -47.4032, -15.4413, 38.6145, 31.2159, 74.5649, -151.229
6.84912, 16, -47.3707, -15.4579, 38.6657, 31.2874, 74.6074, -151.114
6.8549, 16, -47.3599, -15.4634, 38.6827, 31.3231, 74.6285, -151.056
6.86486, 16, -47.3272, -15.4796, 38.7335, 31.4303, 74.6907, -150.884
6.87181, 16, -47.3162, -15.485, 38.7505, 31.4659, 74.7115, -150.827
6.87896, 17, -47.2941, -15.496, 38.7844, 31.5376, 74.7537, -150.713
6.8878, 17, -47.2717, -15.5073, 38.818, 31.6085, 74.7956, -150.599
6.89586, 17, -47.2494, -15.5186, 38.8516, 31.68, 74.8365, -150.484
6.90387, 17, -47.2267, -15.5296, 38.8853, 31.7508, 74.8777, -150.37
6.91184, 17, -47.2037, -15.5407, 38.9188, 31.8224, 74.9193, -150.256
6.91982, 17, -47.1808, -15.552, 38.9522, 31.8932, 74.9602, -150.143
6.9299, 17, -47.1462, -15.5692, 39.0023, 32, 75.0211, -149.973
6.93586, 17, -47.1345, -15.575, 39.0189, 32.0353, 75.0418, -149.917
6.94388, 17, -47.1111, -15.5865, 39.0521, 32.1064, 75.0827, -149.804
6.95191, 17, -47.0875, -15.5979, 39.0853, 32.177, 75.1225, -149.692
6.95983, 17, -47.0636, -15.6094, 39.1184, 32.2481, 75.1625, -149.58
6.96785, 18, -47.0395, -15.621, 39.1513, 32.3184, 75.2029, -149.468
6.97601, 18, -47.0154, -15.6328, 39.1843, 32.3894, 75.2426, -149.356
6.98287, 18, -46.9913, -15.6448, 39.2172, 32.4597, 75.2818, -149.245
6.99181, 18, -46.9669, -15.6564, 39.2501, 32.5307, 75.3213, -149.134
6.99983, 18, -46.9425, -15.6682, 39.2829, 32.6007, 75.361, -149.023
7.00789, 18, -46.9179, -15.6801, 39.3157, 32.6716, 75.3999, -148.912
7.01585, 18, -46.8929, -15.6924, 39.3484, 32.7417, 75.4383, -148.801
7.02383, 18, -46.8679, -15.7047, 39.381, 32.8126, 75.4773, -148.691
7.03188, 18, -46.8427, -15.7169, 39.4137, 32.8826, 75.5161, -148.581
7.03981, 18, -46.8174, -15.7289, 39.4462, 32.9533, 75.5541, -148.472
7.04845, 18, -46.792, -15.7413, 39.4786, 33.0233, 75.592, -148.362
7.056, 19, -46.7664, -15.7539, 39.511, 33.0938, 75.6305, -148.253
7.06382, 19, -46.7405, -15.7666, 39.5435, 33.1635, 75.6685, -148.144
7.07195, 19, -46.7146, -15.7791, 39.5758, 33.2336, 75.7057, -148.035
7.07984, 19, -46.6885, -15.7917, 39.608, 33.3034, 75.7428, -147.927
7.08783, 19, -46.6622, -15.8045, 39.6404, 33.3735, 75.7806, -147.818
7.09774, 19, -46.6357, -15.8176, 39.6725, 33.4431, 75.8177, -147.71
7.10383, 19, -46.6089, -15.8308, 39.7045, 33.513, 75.8542, -147.603
7.11187, 19, -46.5819, -15.8437, 39.7367, 33.5826, 75.8907, -147.496
7.11984, 19, -46.5548, -15.8568, 39.7688, 33.6523, 75.9278, -147.389
7.12783, 19, -46.5277, -15.87, 39.8006, 33.7219, 75.9642, -147.283
7.13593, 19, -46.5004, -15.8836, 39.8324, 33.7914, 75.9998, -147.177
7.14382, 20, -46.473, -15.8972, 39.8644, 33.8608, 76.0354, -147.071
7.15222, 20, -46.4454, -15.9106, 39.8962, 33.93, 76.0715, -146.965
7.16084, 20, -46.4174, -15.9243, 39.9279, 33.9994, 76.107, -146.859
7.16787, 20, -46.3895, -15.9382, 39.9597, 34.0683, 76.1419, -146.754
7.17593, 20, -46.3614, -15.9523, 39.9914, 34.1374, 76.1766, -146.649
7.1839, 20, -46.333, -15.9662, 40.0229, 34.2062, 76.212, -146.544
7.19196, 20, -46.3047, -15.9801, 40.0544, 34.2753, 76.247, -146.439
7.19991, 20, -46.276, -15.9943, 40.086, 34.3436, 76.2811, -146.336
7.20792, 20, -46.2472, -16.0088, 40.1174, 34.4128, 76.315, -146.232
7.21602, 20, -46.2183, -16.0231, 40.1487, 34.4811, 76.3493, -146.128
7.22409, 20, -46.1893, -16.0373, 40.1799, 34.5501, 76.3836, -146.024
7.23259, 21, -46.1599, -16.0519, 40.2113, 34.6181, 76.417, -145.921
7.23991, 21, -46.1303, -16.0667, 40.2424, 34.6868, 76.4501, -145.818
7.24818, 21, -46.1003, -16.0815, 40.2735, 34.7546, 76.4833, -145.715
7.25486, 21, -46.0853, -16.0888, 40.289, 34.7889, 76.5003, -145.664
7.264, 21, -46.0403, -16.111, 40.3355, 34.8907, 76.55, -145.51
7.27236, 21, -46.0101, -16.1262, 40.3663, 34.9588, 76.5822, -145.409
7.28007, 21, -45.9796, -16.1414, 40.3971, 35.0264, 76.6143, -145.307
7.28682, 21, -45.9642, -16.1489, 40.4125, 35.0601, 76.6306, -145.256
7.29736, 21, -45.918, -16.1716, 40.4585, 35.1615, 76.6796, -145.105
7.30286, 21, -45.9026, -16.1793, 40.4737, 35.1949, 76.6956, -145.054
7.31241, 21, -45.8559, -16.2027, 40.5194, 35.2962, 76.7428, -144.903
7.3204, 22, -45.8245, -16.218, 40.5499, 35.3632, 76.7745, -144.802
7.32696, 22, -45.8086, -16.2257, 40.565, 35.397, 76.7905, -144.752
7.33656, 22, -45.761, -16.2493, 40.6104, 35.4971, 76.8378, -144.602
7.34455, 22, -45.745, -16.2573, 40.6255, 35.564, 76.8684, -144.502
7.35238, 22, -45.7128, -16.2731, 40.6556, 35.5971, 76.8987, -144.402
7.35981, 22, -45.6806, -16.2888, 40.6855, 35.6635, 76.914, -144.352
7.36779, 22, -45.6479, -16.3048, 40.7154, 35.7299, 76.9447, -144.253
7.37587, 22, -45.6152, -16.3211, 40.7452, 35.7957, 76.9751, -144.153
7.3838, 22, -45.5822, -16.3371, 40.7749, 35.8619, 77.005, -144.054
7.3918, 22, -45.549, -16.3531, 40.8044, 35.9274, 77.0346, -143.955
7.39994, 22, -45.5157, -16.3694, 40.8338, 35.9934, 77.0643, -143.856
7.40796, 23, -45.482, -16.3859, 40.8632, 36.0583, 77.0945, -143.757
7.41594, 23, -45.4482, -16.4021, 40.8923, 36.1242, 77.124, -143.658
7.42281, 23, -45.4143, -16.4184, 40.9214, 36.1888, 77.153, -143.56
7.4318, 23, -45.3802, -16.435, 40.9504, 36.2543, 77.1815, -143.461
7.43985, 23, -45.3458, -16.4517, 40.9793, 36.3187, 77.2103, -143.363
7.44782, 23, -45.311, -16.4681, 41.0079, 36.3835, 77.2394, -143.265
7.4559, 23, -45.2762, -16.4846, 41.0364, 36.4479, 77.268, -143.167
7.46381, 23, -45.2412, -16.5014, 41.0649, 36.512, 77.2961, -143.07
7.47182, 23, -45.2059, -16.5181, 41.0933, 36.5763, 77.324, -142.972
7.47987, 23, -45.1702, -16.5347, 41.1213, 36.6394, 77.352, -142.875
7.48885, 23, -45.1344, -16.5515, 41.1492, 36.7034, 77.3805, -142.778
7.49645, 24, -45.0985, -16.5686, 41.1771, 36.7663, 77.4085, -142.681
7.50461, 24, -45.0623, -16.5854, 41.2049, 36.8298, 77.4361, -142.584
7.51181, 24, -45.0259, -16.6022, 41.2324, 36.8923, 77.4633, -142.487
7.51991, 24, -44.9892, -16.6192, 41.2598, 36.955, 77.4903, -142.39
7.5278, 24, -44.9524, -16.6364, 41.287, 37.0175, 77.5178, -142.293
7.53594, 24, -44.9154, -16.6532, 41.3142, 37.0795, 77.5452, -142.197
7.54699, 24, -44.8593, -16.6788, 41.3544, 37.1726, 77.5853, -142.052
7.55181, 24, -44.8405, -16.6874, 41.3677, 37.2032, 77.5984, -142.004
7.55986, 24, -44.8027, -16.7045, 41.3943, 37.2651, 77.6247, -141.908
7.5678, 24, -44.7647, -16.7214, 41.4208, 37.3261, 77.6513, -141.811
7.57496, 24, -44.7264, -16.7385, 41.447, 37.3873, 77.678, -141.716
7.58396, 25, -44.6878, -16.7558, 41.473, 37.448, 77.7042, -141.619
7.59181, 25, -44.649, -16.7728, 41.4989, 37.5081, 77.7298, -141.523
7.59993, 25, -44.61, -16.7898, 41.5246, 37.5687, 77.7552, -141.427
7.6118, 25, -44.5509, -16.8157, 41.5628, 37.6582, 77.7935, -141.283
7.6159, 25, -44.5311, -16.8243, 41.5754, 37.6883, 77.8064, -141.235
7.62386, 25, -44.4914, -16.8413, 41.6006, 37.7476, 77.8322, -141.14
7.63182, 25, -44.4516, -16.8583, 41.6256, 37.8068, 77.8574, -141.044
7.63981, 25, -44.4113, -16.8756, 41.6505, 37.8661, 77.8822, -140.949
7.64787, 25, -44.3707, -16.8926, 41.6749, 37.9244, 77.9068, -140.853
7.65584, 25, -44.3301, -16.9094, 41.6992, 37.9835, 77.9316, -140.758
7.6638, 25, -44.2892, -16.9266, 41.7234, 38.0413, 77.9568, -140.662
7.67201, 26, -44.248, -16.9438, 41.7474, 38.0992, 77.9818, -140.567
7.68024, 26, -44.2064, -16.9606, 41.7712, 38.1572, 78.0063, -140.472
7.68736, 26, -44.1648, -16.9775, 41.7947, 38.2142, 78.0302, -140.377
7.69593, 26, -44.1229, -16.9947, 41.818, 38.2719, 78.0539, -140.281
7.7039, 26, -44.0807, -17.0117, 41.8411, 38.3283, 78.0778, -140.186
7.71197, 26, -44.0382, -17.0285, 41.8641, 38.3849, 78.102, -140.091
7.72055, 26, -43.9956, -17.0454, 41.8868, 38.4415, 78.126, -139.996
7.7278, 26, -43.9527, -17.0625, 41.9093, 38.497, 78.1496, -139.9
7.73585, 26, -43.9095, -17.0793, 41.9317, 38.5532, 78.1729, -139.805
7.74472, 26, -43.866, -17.0959, 41.9538, 38.6084, 78.1959, -139.71
7.75192, 26, -43.8225, -17.1127, 41.9759, 38.6633, 78.2191, -139.615
7.75992, 27, -43.7785, -17.1296, 41.9974, 38.7187, 78.2426, -139.52
7.76966, 27, -43.7343, -17.1461, 42.0187, 38.773, 78.2661, -139.425
7.77641, 27, -43.6899, -17.1626, 42.04, 38.8278, 78.2892, -139.33
7.78426, 27, -43.6452, -17.1794, 42.061, 38.882, 78.3119, -139.234
7.79079, 27, -43.6227, -17.1878, 42.0714, 38.9087, 78.323, -139.187
7.80033, 27, -43.555, -17.2124, 42.1025, 38.9895, 78.3564, -139.044
7.80914, 27, -43.5097, -17.2288, 42.1228, 39.0425, 78.379, -138.949
7.81487, 27, -43.4869, -17.2371, 42.1329, 39.0687, 78.3904, -138.902
7.82579, 27, -43.418, -17.2617, 42.1627, 39.1483, 78.4243, -138.76
7.83322, 27, -43.3719, -17.2778, 42.1824, 39.2001, 78.4464, -138.665
7.83879, 27, -43.3487, -17.2859, 42.1922, 39.2261, 78.4574, -138.617
7.84861, 28, -43.2788, -17.3104, 42.2212, 39.3045, 78.4899, -138.475
7.85739, 28, -43.2319, -17.3265, 42.2402, 39.3554, 78.5117, -138.381
7.86287, 28, -43.2084, -17.3344, 42.2496, 39.3811, 78.5228, -138.333
7.87283, 28, -43.1375, -17.3584, 42.2775, 39.4581, 78.5561, -138.191
7.87979, 28, -43.1138, -17.3665, 42.2867, 39.4831, 78.567, -138.144
7.88692, 28, -43.0661, -17.3824, 42.305, 39.5335, 78.5885, -138.049
7.89579, 28, -43.0181, -17.3981, 42.323, 39.5842, 78.6098, -137.954
7.90282, 28, -42.9699, -17.4139, 42.3406, 39.6337, 78.6307, -137.859
7.91179, 28, -42.9215, -17.4298, 42.3582, 39.6837, 78.6517, -137.765
7.91983, 28, -42.8728, -17.4455, 42.3754, 39.7335, 78.673, -137.67
7.92784, 28, -42.8237, -17.4609, 42.3922, 39.7821, 78.6944, -137.575
7.93578, 29, -42.7745, -17.4764, 42.409, 39.8312, 78.7155, -137.48
7.94439, 29, -42.725, -17.492, 42.4258, 39.88, 78.7362, -137.386
7.95093, 29, -42.6753, -17.5073, 42.4421, 39.9278, 78.7567, -137.291
7.95885, 29, -42.6253, -17.5224, 42.4581, 39.976, 78.777, -137.196
7.96797, 29, -42.5753, -17.5377, 42.474, 40.0238, 78.7974, -137.101
7.97578, 29, -42.5249, -17.553, 42.4895, 40.0707, 78.8181, -137.006
7.98378, 29, -42.4743, -17.5681, 42.5045, 40.1178, 78.839, -136.912
7.99503, 29, -42.3979, -17.5903, 42.5272, 40.188, 78.8697, -136.769
7.99978, 29, -42.3723, -17.5977, 42.5347, 40.2109, 78.8798, -136.722
8.00781, 29, -42.3208, -17.6127, 42.5493, 40.2572, 78.8996, -136.628
8.01578, 29, -42.2692, -17.6275, 42.5636, 40.3036, 78.9192, -136.533
8.02396, 30, -42.2174, -17.6419, 42.5778, 40.3487, 78.9388, -136.439
8.03185, 30, -42.1653, -17.6565, 42.5917, 40.3939, 78.9587, -136.345
8.0398, 30, -42.113, -17.6711, 42.6052, 40.4395, 78.9787, -136.25
8.04779, 30, -42.0606, -17.6857, 42.6186, 40.4841, 78.9987, -136.156
8.05584, 30, -42.0078, -17.6999, 42.6319, 40.5284, 79.0182, -136.061
8.06379, 30, -41.9549, -17.714, 42.6449, 40.5731, 79.0376, -135.967
8.07185, 30, -41.9016, -17.7282, 42.6575, 40.6169, 79.0567, -135.872
8.07979, 30, -41.8481, -17.7425, 42.6698, 40.6602, 79.0757, -135.778
8.08781, 30, -41.7946, -17.7563, 42.6819, 40.704, 79.0949, -135.683
8.09585, 30, -41.7407, -17.7701, 42.6938, 40.7472, 79.1143, -135.589
8.10379, 30, -41.6864, -17.7839, 42.7055, 40.7896, 79.1339, -135.495
8.11178, 31, -41.6321, -17.7978, 42.7169, 40.8323, 79.1532, -135.401
8.11994, 31, -41.5775, -17.8115, 42.728, 40.875, 79.172, -135.306
8.12789, 31, -41.5227, -17.8249, 42.7391, 40.9166, 79.1906, -135.212
8.13587, 31, -41.4677, -17.8382, 42.7499, 40.958, 79.2089, -135.117
8.14379, 31, -41.4124, -17.8517, 42.7605, 40.9998, 79.2272, -135.023
8.15179, 31, -41.3569, -17.8651, 42.7708, 41.0409, 79.2457, -134.929
8.16, 31, -41.3012, -17.8781, 42.7808, 41.0812, 79.2643, -134.834
8.16912, 31, -41.2452, -17.891, 42.7905, 41.1219, 79.2831, -134.74
8.17526, 31, -41.1892, -17.904, 42.8, 41.1628, 79.3016, -134.646
8.18415, 31, -41.133, -17.917, 42.8092, 41.2025, 79.3197, -134.551
8.19133, 31, -41.0765, -17.9299, 42.8181, 41.2419, 79.3375, -134.457
8.20092, 32, -41.0198, -17.9425, 42.8269, 41.282, 79.3553, -134.362
8.20807, 32, -40.9628, -17.9549, 42.8354, 41.3214, 79.373, -134.269
8.21564, 32, -40.9056, -17.9674, 42.8437, 41.3601, 79.3909, -134.174
8.22396, 32, -40.8482, -17.9799, 42.8519, 41.3989, 79.4089, -134.081
8.23236, 32, -40.7905, -17.9924, 42.8598, 41.4381, 79.4271, -133.987
8.23988, 32, -40.7327, -18.0045, 42.8675, 41.4762, 79.4451, -133.893
8.24852, 32, -40.6748, -18.0165, 42.8751, 41.5136, 79.4627, -133.799
8.2559, 32, -40.6165, -18.0286, 42.8822, 41.5514, 79.48, -133.705
8.26413, 32, -40.5581, -18.0406, 42.889, 41.5893, 79.497, -133.611
8.2708, 32, -40.5288, -18.0467, 42.8923, 41.6079, 79.5054, -133.564
8.27882, 32, -40.4699, -18.0585, 42.8988, 41.6445, 79.5224, -133.47
8.28812, 33, -40.3813, -18.0756, 42.9083, 41.6998, 79.548, -133.33
8.29493, 33, -40.3517, -18.0814, 42.9113, 41.7183, 79.5566, -133.283
8.30425, 33, -40.2625, -18.0986, 42.9201, 41.7724, 79.5824, -133.143
8.31077, 33, -40.2327, -18.1044, 42.9229, 41.7901, 79.5909, -133.096
8.32119, 33, -40.1431, -18.1214, 42.9309, 41.8435, 79.616, -132.955
8.32682, 33, -40.1131, -18.1269, 42.9334, 41.8615, 79.6242, -132.909
8.33717, 33, -40.0228, -18.1434, 42.9405, 41.9142, 79.6487, -132.768
8.3436, 33, -39.9926, -18.1489, 42.9427, 41.9313, 79.6567, -132.721
8.35079, 33, -39.9319, -18.1599, 42.9471, 41.9658, 79.673, -132.628
8.36157, 33, -39.871, -18.1709, 42.9512, 42.0007, 79.6895, -132.534
8.36905, 33, -39.7793, -18.1869, 42.9571, 42.0518, 79.7147, -132.394
8.37642, 34, -39.7487, -18.192, 42.959, 42.0685, 79.723, -132.347
8.38377, 34, -39.6873, -18.2024, 42.9627, 42.1017, 79.7395, -132.254
8.39078, 34, -39.6256, -18.2127, 42.9661, 42.1355, 79.7556, -132.161
8.39986, 34, -39.5638, -18.223, 42.9692, 42.1692, 79.7715, -132.068
8.40777, 34, -39.5017, -18.2334, 42.972, 42.2019, 79.7871, -131.975
8.41832, 34, -39.4082, -18.2482, 42.9758, 42.2504, 79.8104, -131.835
8.42281, 34, -39.3769, -18.2531, 42.977, 42.2667, 79.8182, -131.789
8.43177, 34, -39.3143, -18.2627, 42.9791, 42.2996, 79.8338, -131.696
8.43977, 34, -39.2516, -18.2723, 42.9811, 42.3315, 79.8497, -131.603
8.44781, 34, -39.1886, -18.282, 42.9828, 42.3628, 79.8657, -131.51
8.45477, 34, -39.1255, -18.2917, 42.9843, 42.3938, 79.8815, -131.417
8.46378, 35, -39.0621, -18.3012, 42.9855, 42.4254, 79.897, -131.324
8.47491, 35, -38.9666, -18.3149, 42.9869, 42.4719, 79.9198, -131.184
8.47976, 35, -38.9347, -18.3194, 42.9872, 42.487, 79.9273, -131.138
8.48876, 35, -38.8706, -18.3283, 42.9878, 42.517, 79.9423, -131.045
8.49584, 35, -38.8065, -18.3372, 42.9881, 42.547, 79.9573, -130.953
8.50477, 35, -38.7421, -18.3461, 42.9882, 42.5774, 79.9723, -130.86
8.51185, 35, -38.6776, -18.3549, 42.9883, 42.6074, 79.9876, -130.768
8.51983, 35, -38.6128, -18.3636, 42.9883, 42.6363, 80.0029, -130.675
8.52779, 35, -38.5479, -18.372, 42.9882, 42.6649, 80.0183, -130.583
8.5358, 35, -38.4828, -18.3801, 42.9881, 42.6937, 80.0334, -130.49
8.54392, 35, -38.4175, -18.3883, 42.9878, 42.7229, 80.0482, -130.397
8.5519, 36, -38.3522, -18.3964, 42.9873, 42.7514, 80.0627, -130.304
8.55976, 36, -38.2866, -18.4044, 42.9866, 42.7793, 80.0769, -130.212
8.56777, 36, -38.2208, -18.4124, 42.9857, 42.8068, 80.0911, -130.12
8.57584, 36, -38.1548, -18.4205, 42.9846, 42.8343, 80.1052, -130.027
8.58376, 36, -38.0886, -18.4282, 42.9831, 42.8621, 80.1195, -129.935
8.59287, 36, -38.0223, -18.4356, 42.9813, 42.8896, 80.134, -129.843
8.59977, 36, -37.9557, -18.4428, 42.9793, 42.9164, 80.1486, -129.751
8.60783, 36, -37.889, -18.45, 42.9769, 42.9426, 80.1631, -129.659
8.61577, 36, -37.8221, -18.4571, 42.9742, 42.9687, 80.1775, -129.567
8.62376, 36, -37.7551, -18.4641, 42.9713, 42.995, 80.1917, -129.476
8.63183, 36, -37.6878, -18.4712, 42.9681, 43.0214, 80.2055, -129.383
8.63977, 37, -37.6204, -18.4782, 42.9646, 43.0471, 80.2192, -129.292
8.64809, 37, -37.5529, -18.4851, 42.9608, 43.0723, 80.2326, -129.2
8.65904, 37, -37.4512, -18.4948, 42.9546, 43.1097, 80.2529, -129.063
8.66311, 37, -37.4172, -18.498, 42.9523, 43.1222, 80.2597, -129.017
8.67194, 37, -37.349, -18.5042, 42.9476, 43.1473, 80.2734, -128.925
8.67981, 37, -37.2808, -18.5103, 42.9426, 43.1723, 80.2872, -128.833
8.68809, 37, -37.2123, -18.5164, 42.9375, 43.1965, 80.3011, -128.742
8.69595, 37, -37.1436, -18.5224, 42.9322, 43.2202, 80.3148, -128.651
8.70388, 37, -37.0748, -18.5283, 42.9267, 43.2434, 80.3283, -128.56
8.7123, 37, -37.0058, -18.5342, 42.9208, 43.2668, 80.3414, -128.468
8.71961, 37, -36.9367, -18.54, 42.9148, 43.2903, 80.3544, -128.377
8.72759, 38, -36.8672, -18.5458, 42.9085, 43.3137, 80.3672, -128.285
8.7363, 38, -36.7976, -18.5512, 42.9019, 43.3365, 80.3798, -128.194
8.74279, 38, -36.7628, -18.5539, 42.8985, 43.3476, 80.3862, -128.149
8.75179, 38, -36.658, -18.5615, 42.888, 43.3806, 80.4052, -128.012
8.76076, 38, -36.588, -18.5664, 42.8808, 43.4023, 80.4181, -127.921
8.76837, 38, -36.5177, -18.5712, 42.8734, 43.4243, 80.4311, -127.83
8.77682, 38, -36.4474, -18.576, 42.8658, 43.4463, 80.4441, -127.739
8.78398, 38, -36.3768, -18.5806, 42.8579, 43.4679, 80.4572, -127.649
8.79296, 38, -36.3061, -18.585, 42.8497, 43.4888, 80.4699, -127.558
8.80107, 38, -36.2352, -18.5893, 42.8411, 43.5092, 80.4825, -127.468
8.80675, 38, -36.1997, -18.5914, 42.8368, 43.5192, 80.4887, -127.423
8.81625, 39, -36.0929, -18.5977, 42.8235, 43.5492, 80.507, -127.287
8.82295, 39, -36.0572, -18.5998, 42.8191, 43.5592, 80.5131, -127.242
8.8323, 39, -35.9499, -18.6059, 42.8052, 43.5895, 80.5313, -127.106
8.84037, 39, -35.8782, -18.6098, 42.7958, 43.6095, 80.5435, -127.016
8.84919, 39, -35.8062, -18.6135, 42.786, 43.6288, 80.5557, -126.925
8.85478, 39, -35.7702, -18.6153, 42.7811, 43.6383, 80.5619, -126.88
8.86521, 39, -35.6981, -18.6189, 42.7711, 43.657, 80.5744, -126.745
8.87178, 39, -35.6258, -18.6222, 42.761, 43.6755, 80.5869, -126.7
8.87975, 39, -35.5534, -18.6253, 42.7506, 43.6939, 80.5995, -126.609
8.88776, 39, -35.4808, -18.6283, 42.7399, 43.7124, 80.6118, -126.52
8.89593, 39, -35.408, -18.6313, 42.729, 43.7309, 80.6238, -126.43
8.90596, 40, -35.2985, -18.6353, 42.7122, 43.758, 80.6414, -126.295
8.9118, 40, -35.262, -18.6365, 42.7066, 43.7668, 80.6471, -126.25
8.91975, 40, -35.1888, -18.639, 42.695, 43.784, 80.6585, -126.161
8.92779, 40, -35.1155, -18.6413, 42.6832, 43.8007, 80.6698, -126.071
8.9358, 40, -35.042, -18.6436, 42.6713, 43.8172, 80.681, -125.981
8.94376, 40, -34.9682, -18.6457, 42.6594, 43.8337, 80.6923, -125.892
8.95176, 40, -34.8943, -18.6478, 42.6472, 43.8501, 80.7037, -125.802
8.95975, 40, -34.8201, -18.6499, 42.6347, 43.8665, 80.7152, -125.712
8.96784, 40, -34.7459, -18.6519, 42.6218, 43.883, 80.7268, -125.623
8.97575, 40, -34.6716, -18.6538, 42.6088, 43.8991, 80.7385, -125.533
8.98395, 41, -34.5972, -18.6555, 42.5957, 43.9147, 80.75, -125.444
8.99238, 41, -34.5226, -18.6572, 42.5824, 43.9298, 80.7613, -125.355
9.00185, 41, -34.4105, -18.6595, 42.5619, 43.9517, 80.7779, -125.222
9.00776, 41, -34.373, -18.6602, 42.555, 43.9589, 80.7834, -125.178
9.01584, 41, -34.2979, -18.6615, 42.5412, 43.9732, 80.7941, -125.089
9.0248, 41, -34.2227, -18.6627, 42.5271, 43.9874, 80.8047, -125
9.03178, 41, -34.1474, -18.6639, 42.5127, 44.0016, 80.8153, -124.911
9.04302, 41, -34.0341, -18.6654, 42.4907, 44.0229, 80.8312, -124.778
9.04774, 41, -33.9963, -18.6658, 42.4833, 44.0299, 80.8365, -124.734
9.05574, 41, -33.9204, -18.6666, 42.4683, 44.0435, 80.8471, -124.646
9.06383, 41, -33.8444, -18.6673, 42.4531, 44.0568, 80.8579, -124.557
9.07193, 42, -33.7682, -18.6679, 42.4379, 44.0696, 80.8689, -124.469
9.07897, 42, -33.6918, -18.6683, 42.4225, 44.082, 80.8799, -124.381
9.08775, 42, -33.6153, -18.6687, 42.4068, 44.094, 80.8908, -124.293
9.09577, 42, -33.5386, -18.6688, 42.3908, 44.1058, 80.9015, -124.205
9.10382, 42, -33.4619, -18.6689, 42.3747, 44.1175, 80.912, -124.117
9.11175, 42, -33.385, -18.6689, 42.3583, 44.1291, 80.9222, -124.029
9.11981, 42, -33.3079, -18.669, 42.3417, 44.1406, 80.9323, -123.941
9.12775, 42, -33.2307, -18.669, 42.3252, 44.152, 80.9422, -123.853
9.13575, 42, -33.1534, -18.669, 42.3084, 44.1636, 80.952, -123.766
9.14391, 42, -33.0758, -18.6689, 42.2913, 44.1747, 80.9617, -123.678
9.15176, 42, -32.998, -18.6688, 42.274, 44.1856, 80.9714, -123.59
9.15996, 43, -32.9201, -18.6687, 42.2566, 44.196, 80.9811, -123.503
9.16789, 43, -32.8423, -18.6686, 42.2388, 44.2061, 80.9908, -123.415
9.17661, 43, -32.7641, -18.6683, 42.2208, 44.2158, 81.0006, -123.328
9.18381, 43, -32.686, -18.668, 42.2029, 44.2252, 81.0104, -123.241
9.19183, 43, -32.6076, -18.6675, 42.1846, 44.2342, 81.0204, -123.154
9.20021, 43, -32.5291, -18.6668, 42.1661, 44.243, 81.0304, -123.067
9.20734, 43, -32.4504, -18.666, 42.1475, 44.2515, 81.0402, -122.981
9.21761, 43, -32.3716, -18.6649, 42.1285, 44.26, 81.0499, -122.894
9.22386, 43, -32.2926, -18.6637, 42.1095, 44.2681, 81.0593, -122.808
9.23192, 43, -32.2136, -18.6623, 42.0904, 44.2763, 81.0686, -122.72
9.24201, 43, -32.1343, -18.6606, 42.071, 44.2843, 81.0777, -122.634
9.24762, 44, -32.0946, -18.6597, 42.0611, 44.2922, 81.0867, -122.547
9.25578, 44, -31.9753, -18.6566, 42.0316, 44.3, 81.0957, -122.461
9.26451, 44, -31.8956, -18.6544, 42.0115, 44.3076, 81.1045, -122.374
9.27197, 44, -31.8157, -18.6519, 41.9913, 44.315, 81.1133, -122.288
9.2801, 44, -31.7358, -18.6494, 41.971, 44.3221, 81.1221, -122.201
9.28879, 44, -31.6558, -18.6467, 41.9504, 44.3289, 81.1309, -122.115
9.29606, 44, -31.5756, -18.6439, 41.9297, 44.3353, 81.1398, -122.03
9.30274, 44, -31.5354, -18.6425, 41.9193, 44.3383, 81.1442, -121.986
9.31217, 44, -31.4148, -18.6379, 41.8876, 44.3471, 81.1578, -121.858
9.32023, 44, -31.3341, -18.6346, 41.8663, 44.3525, 81.1669, -121.772
9.3287, 44, -31.2532, -18.6311, 41.8447, 44.3577, 81.176, -121.686
9.33665, 45, -31.1723, -18.6276, 41.823, 44.3624, 81.1851, -121.6
9.34451, 45, -31.0911, -18.6239, 41.8012, 44.3668, 81.1939, -121.515
9.35245, 45, -31.0099, -18.6201, 41.7791, 44.3711, 81.2024, -121.429
9.36025, 45, -30.9693, -18.6182, 41.7681, 44.3732, 81.2066, -121.386
9.36776, 45, -30.8879, -18.6144, 41.7457, 44.377, 81.215, -121.301
9.3758, 45, -30.8063, -18.6104, 41.723, 44.3807, 81.2232, -121.215
9.38374, 45, -30.7245, -18.6063, 41.7003, 44.384, 81.2313, -121.13
9.39175, 45, -30.6425, -18.6019, 41.6774, 44.3872, 81.2392, -121.044
9.3998, 45, -30.5604, -18.5973, 41.6544, 44.3902, 81.2471, -120.96
9.40773, 45, -30.4782, -18.5926, 41.6311, 44.3928, 81.255, -120.874
9.41699, 45, -30.3959, -18.5852, 41.5957, 44.3964, 81.2668, -120.748
9.42574, 46, -30.272, -18.5802, 41.5719, 44.3984, 81.2747, -120.663
9.43176, 46, -30.2307, -18.5776, 41.56, 44.3994, 81.2786, -120.621
9.43974, 46, -30.1478, -18.5723, 41.536, 44.4011, 81.2866, -120.536
9.44774, 46, -30.0648, -18.5668, 41.5117, 44.4026, 81.2947, -120.451
9.45578, 46, -29.9816, -18.5612, 41.4872, 44.4039, 81.3029, -120.367
9.46647, 46, -29.8566, -18.5528, 41.4502, 44.4053, 81.3152, -120.24
9.4718, 46, -29.8148, -18.55, 41.4379, 44.4057, 81.3193, -120.198
9.47974, 46, -29.7312, -18.5442, 41.4129, 44.4063, 81.3274, -120.113
9.48773, 46, -29.6475, -18.5382, 41.3876, 44.4066, 81.3355, -120.029
9.4958, 46, -29.5637, -18.5319, 41.3622, 44.4068, 81.3434, -119.945
9.50478, 46, -29.4797, -18.5256, 41.3366, 44.4069, 81.3512, -119.861
9.51192, 47, -29.3957, -18.5191, 41.3108, 44.4069, 81.3588, -119.776
9.52232, 47, -29.2691, -18.5091, 41.2716, 44.4068, 81.3699, -119.651
9.52681, 47, -29.2267, -18.5056, 41.2585, 44.4067, 81.3736, -119.609
9.53583, 47, -29.142, -18.4987, 41.2321, 44.4063, 81.381, -119.525
9.54376, 47, -29.0573, -18.4917, 41.2056, 44.4057, 81.3882, -119.441
9.55173, 47, -28.9724, -18.4846, 41.1787, 44.4047, 81.3955, -119.357
9.55979, 47, -28.8874, -18.4772, 41.1517, 44.4031, 81.4027, -119.273
9.56774, 47, -28.8022, -18.4695, 41.1246, 44.4012, 81.41, -119.189
9.57579, 47, -28.7169, -18.4617, 41.0973, 44.3989, 81.4173, -119.106
9.58374, 47, -28.6315, -18.4539, 41.0696, 44.3963, 81.4247, -119.022
9.59183, 47, -28.546, -18.4459, 41.0418, 44.3933, 81.4321, -118.938
9.59979, 48, -28.4602, -18.4379, 41.0138, 44.39, 81.4397, -118.855
9.60773, 48, -28.3743, -18.4298, 40.9856, 44.3864, 81.4474, -118.772
9.61597, 48, -28.2882, -18.4218, 40.9572, 44.3824, 81.4551, -118.688
9.62372, 48, -28.2019, -18.4134, 40.9285, 44.3782, 81.4628, -118.605
9.63173, 48, -28.1156, -18.4046, 40.8997, 44.3736, 81.4706, -118.522
9.6398, 48, -28.0292, -18.3957, 40.8708, 44.3687, 81.4783, -118.439
9.64773, 48, -27.9426, -18.3867, 40.8415, 44.3635, 81.4858, -118.357
9.65578, 48, -27.8558, -18.3774, 40.812, 44.358, 81.4932, -118.273
9.66412, 48, -27.7687, -18.3682, 40.7824, 44.3522, 81.5005, -118.19
9.67103, 48, -27.6815, -18.3589, 40.7526, 44.346, 81.5076, -118.107
9.68002, 48, -27.594, -18.3492, 40.7224, 44.3394, 81.5146, -118.024
9.68717, 48, -27.5064, -18.3392, 40.6921, 44.3325, 81.5216, -117.941
9.69683, 49, -27.4188, -18.3292, 40.6616, 44.3251, 81.5286, -117.858
9.70393, 49, -27.3309, -18.3191, 40.6308, 44.3172, 81.5355, -117.775
9.71191, 49, -27.243, -18.3089, 40.5998, 44.3089, 81.5424, -117.692
9.71984, 49, -27.1549, -18.2987, 40.5686, 44.3001, 81.5494, -117.609
9.7283, 49, -27.0667, -18.2882, 40.5372, 44.291, 81.5564, -117.526
9.7353, 49, -27.0225, -18.2828, 40.5214, 44.2863, 81.56, -117.444
9.74576, 49, -26.8895, -18.2663, 40.4737, 44.272, 81.5707, -117.361
9.75279, 49, -26.8007, -18.2551, 40.4417, 44.2623, 81.5781, -117.279
9.75976, 49, -26.7118, -18.244, 40.4093, 44.2523, 81.5855, -117.196
9.76793, 49, -26.6228, -18.2326, 40.3768, 44.2423, 81.5931, -117.113
9.77591, 50, -26.5336, -18.2209, 40.3441, 44.232, 81.6008, -117.03
9.78392, 50, -26.4442, -18.209, 40.3112, 44.2215, 81.6085, -116.947
9.79232, 50, -26.3546, -18.197, 40.278, 44.2108, 81.6163, -116.865
9.80008, 50, -26.2649, -18.185, 40.2446, 44.1995, 81.624, -116.782
9.80671, 50, -26.2199, -18.179, 40.2279, 44.1938, 81.6278, -116.741
9.81624, 50, -26.0849, -18.1604, 40.1772, 44.176, 81.6391, -116.617
9.82422, 50, -25.9947, -18.1476, 40.1431, 44.1634, 81.6466, -116.535
9.83233, 50, -25.9043, -18.1346, 40.1089, 44.1503, 81.654, -116.452
9.84038, 50, -25.8137, -18.1217, 40.0744, 44.1368, 81.6614, -116.37
9.84828, 50, -25.723, -18.1086, 40.0395, 44.1233, 81.6688, -116.288
9.85643, 50, -25.6323, -18.0951, 40.0045, 44.1096, 81.6762, -116.206
9.86442, 51, -25.5869, -18.0882, 39.987, 44.096, 81.6835, -116.124
9.87261, 51, -25.4959, -18.0676, 39.9338, 44.0822, 81.691, -116.041
9.87974, 51, -25.4047, -18.0608, 39.9161, 44.0751, 81.6948, -116
9.88771, 51, -25.3133, -18.047, 39.8803, 44.0608, 81.7023, -115.917
9.89576, 51, -25.2217, -18.0326, 39.8442, 44.0458, 81.71, -115.835
9.90372, 51, -25.13, -18.0179, 39.8079, 44.0304, 81.7178, -115.753
9.91313, 51, -24.9923, -17.9961, 39.7532, 44.0061, 81.7298, -115.629
9.91882, 51, -24.9463, -17.9888, 39.7348, 43.9977, 81.7339, -115.588
9.92776, 51, -24.8542, -17.9738, 39.6978, 43.981, 81.7422, -115.505
9.93574, 51, -24.7618, -17.9583, 39.6608, 43.9642, 81.7506, -115.423
9.94275, 51, -24.6692, -17.943, 39.6234, 43.9473, 81.7592, -115.341
9.95168, 52, -24.5763, -17.9277, 39.5857, 43.93, 81.7676, -115.259
9.95872, 52, -24.4831, -17.912, 39.548, 43.9125, 81.776, -115.177
9.96786, 52, -24.39, -17.8957, 39.5099, 43.8943, 81.7843, -115.094
9.97871, 52, -24.2501, -17.8715, 39.4523, 43.8659, 81.7967, -114.971
9.98378, 52, -24.2034, -17.8634, 39.4331, 43.8562, 81.8007, -114.93
9.99172, 52, -24.1098, -17.8468, 39.3943, 43.8368, 81.8088, -114.848
10.0007, 52, -24.0161, -17.8298, 39.3552, 43.8173, 81.8169, -114.765
10.0078, 52, -23.9221, -17.813, 39.316, 43.7978, 81.8249, -114.683
10.0167, 52, -23.8279, -17.7959, 39.2765, 43.778, 81.833, -114.6
10.0237, 52, -23.7335, -17.7784, 39.2368, 43.7577, 81.8411, -114.518
10.0317, 52, -23.6389, -17.7607, 39.1968, 43.7366, 81.8494, -114.436
10.04, 53, -23.5442, -17.7432, 39.1565, 43.7149, 81.8579, -114.354
10.0478, 53, -23.4493, -17.7252, 39.1161, 43.693, 81.8664, -114.272
10.0557, 53, -23.3544, -17.7069, 39.0754, 43.6712, 81.8752, -114.19
10.0638, 53, -23.2594, -17.6886, 39.0344, 43.6491, 81.8843, -114.109
10.0717, 53, -23.1642, -17.6701, 38.9934, 43.6268, 81.8934, -114.026
10.0797, 53, -23.0686, -17.6513, 38.952, 43.6037, 81.9026, -113.945
10.0888, 53, -22.9728, -17.6322, 38.9104, 43.58, 81.912, -113.863
10.0949, 53, -22.8769, -17.613, 38.8687, 43.556, 81.9211, -113.78
10.1038, 53, -22.7808, -17.5936, 38.8265, 43.532, 81.9304, -113.698
10.1126, 53, -22.6846, -17.5739, 38.7843, 43.5079, 81.9395, -113.616
10.1207, 53, -22.5882, -17.5542, 38.7418, 43.4836, 81.9485, -113.534
10.1287, 54, -22.4918, -17.5342, 38.6989, 43.4583, 81.9576, -113.451
10.1373, 54, -22.3951, -17.5139, 38.656, 43.4323, 81.9666, -113.37
10.1439, 54, -22.2984, -17.4935, 38.6128, 43.4062, 81.9757, -113.287
10.1518, 54, -22.2014, -17.4729, 38.5693, 43.38, 81.9848, -113.205
10.1597, 54, -22.1041, -17.4523, 38.5256, 43.3537, 81.9942, -113.123
10.1677, 54, -22.0067, -17.4314, 38.4816, 43.3269, 82.0036, -113.041
10.1758, 54, -21.9093, -17.4102, 38.4375, 43.299, 82.0132, -112.959
10.1837, 54, -21.8116, -17.3888, 38.3931, 43.2708, 82.023, -112.877
10.1913, 54, -21.7136, -17.3673, 38.3485, 43.2428, 82.0332, -112.795
10.1999, 54, -21.6154, -17.3453, 38.3038, 43.2147, 82.0435, -112.712
10.2078, 54, -21.517, -17.3234, 38.2588, 43.1862, 82.0538, -112.63
10.2161, 55, -21.4184, -17.3012, 38.2136, 43.1566, 82.0641, -112.548
10.2238, 55, -21.3197, -17.2787, 38.1681, 43.1265, 82.0743, -112.466
10.2318, 55, -21.2207, -17.2561, 38.1224, 43.0965, 82.0843, -112.384
10.2399, 55, -21.1217, -17.2334, 38.0767, 43.0665, 82.0943, -112.301
10.2478, 55, -21.0226, -17.2104, 38.0304, 43.0358, 82.1042, -112.219
10.2557, 55, -20.9232, -17.1874, 37.9841, 43.0039, 82.1141, -112.137
10.2638, 55, -20.8235, -17.1641, 37.9375, 42.9721, 82.1241, -112.056
10.2719, 55, -20.7235, -17.1406, 37.8907, 42.9404, 82.1341, -111.974
10.28, 55, -20.6235, -17.117, 37.8436, 42.9085, 82.1443, -111.892
10.2879, 55, -20.5233, -17.0931, 37.7964, 42.8756, 82.1546, -111.81
10.2947, 55, -20.4733, -17.0811, 37.7727, 42.8587, 82.1599, -111.769
10.3041, 56, -20.3227, -17.045, 37.7012, 42.8085, 82.176, -111.647
10.312, 56, -20.2724, -17.0328, 37.6773, 42.7751, 82.187, -111.565
10.3212, 56, -20.1211, -16.9961, 37.6054, 42.7408, 82.1981, -111.483
10.3282, 56, -20.0199, -16.9712, 37.5572, 42.7056, 82.2091, -111.4
10.3362, 56, -19.9184, -16.9462, 37.5086, 42.6707, 82.22, -111.319
10.3445, 56, -19.8168, -16.9211, 37.46, 42.6359, 82.2309, -111.237
10.3523, 56, -19.7658, -16.8957, 37.4111, 42.6003, 82.2416, -111.155
10.3621, 56, -19.6133, -16.8703, 37.3619, 42.5636, 82.2523, -111.073
10.3684, 56, -19.5624, -16.8575, 37.3373, 42.5452, 82.2631, -110.992
10.3757, 56, -19.4606, -16.8318, 37.2879, 42.5087, 82.2685, -110.951
10.3837, 56, -19.3587, -16.8059, 37.2382, 42.4718, 82.2793, -110.869
10.3938, 57, -19.2051, -16.7668, 37.1632, 42.4146, 82.2961, -110.747
10.3997, 57, -19.1537, -16.7537, 37.1381, 42.3955, 82.3017, -110.705
10.4078, 57, -19.0508, -16.7273, 37.0879, 42.3577, 82.3132, -110.624
10.4157, 57, -18.9478, -16.7008, 37.0374, 42.3191, 82.3249, -110.542
10.4237, 57, -18.8445, -16.6741, 36.9868, 42.2794, 82.3369, -110.46
10.4317, 57, -18.7412, -16.6471, 36.936, 42.2397, 82.3488, -110.379
10.4398, 57, -18.6377, -16.62, 36.8849, 42.2002, 82.3606, -110.296
10.4478, 57, -18.534, -16.5926, 36.8337, 42.1596, 82.3723, -110.215
10.4557, 57, -18.4299, -16.5652, 36.7823, 42.1182, 82.3839, -110.133
10.4637, 57, -18.3255, -16.5374, 36.7306, 42.0774, 82.3954, -110.052
10.4707, 57, -18.2209, -16.5096, 36.6787, 42.0361, 82.4068, -109.97
10.4797, 58, -18.1162, -16.4815, 36.6267, 41.9935, 82.4184, -109.888
10.4879, 58, -18.0113, -16.4534, 36.5744, 41.9508, 82.43, -109.807
10.4957, 58, -17.9063, -16.4252, 36.5219, 41.9085, 82.4418, -109.726
10.5038, 58, -17.8011, -16.3967, 36.4692, 41.8648, 82.4539, -109.645
10.5117, 58, -17.6957, -16.3681, 36.4163, 41.8208, 82.4662, -109.563
10.5207, 58, -17.5902, -16.3394, 36.3632, 41.7775, 82.4788, -109.482
10.5278, 58, -17.4843, -16.3106, 36.31, 41.7331, 82.4915, -109.4
10.5365, 58, -17.3784, -16.2814, 36.2567, 41.6876, 82.5039, -109.319
10.5438, 58, -17.2721, -16.2522, 36.2031, 41.6426, 82.5164, -109.237
10.5517, 58, -17.1657, -16.2227, 36.1492, 41.5972, 82.5287, -109.155
10.562, 58, -17.0591, -16.1931, 36.0953, 41.5504, 82.541, -109.074
10.5679, 59, -16.9521, -16.1632, 36.041, 41.5041, 82.5533, -108.992
10.5758, 59, -16.8449, -16.1332, 35.9867, 41.4575, 82.5657, -108.911
10.5837, 59, -16.7376, -16.103, 35.9321, 41.4093, 82.5782, -108.829
10.5917, 59, -16.6302, -16.0728, 35.8774, 41.3617, 82.5909, -108.748
10.5998, 59, -16.5225, -16.0423, 35.8224, 41.3137, 82.6039, -108.667
10.6078, 59, -16.4147, -16.0116, 35.7673, 41.2641, 82.6172, -108.586
10.6157, 59, -16.3067, -15.9808, 35.7119, 41.2152, 82.6306, -108.504
10.6237, 59, -16.1985, -15.95, 35.6564, 41.1659, 82.644, -108.423
10.6318, 59, -16.0901, -15.9188, 35.6008, 41.1152, 82.6573, -108.342
10.6397, 59, -15.9813, -15.8875, 35.545, 41.065, 82.6705, -108.26
10.6478, 59, -15.8726, -15.8559, 35.489, 41.014, 82.6835, -108.179
10.6557, 60, -15.7637, -15.8243, 35.4328, 40.9621, 82.6965, -108.097
10.6638, 60, -15.6546, -15.7922, 35.3763, 40.9109, 82.7095, -108.016
10.672, 60, -15.5451, -15.7601, 35.3197, 40.8585, 82.7226, -107.934
10.6797, 60, -15.4353, -15.7278, 35.2629, 40.8054, 82.7359, -107.853
10.6877, 60, -15.3252, -15.6954, 35.2058, 40.7528, 82.7495, -107.771
10.6958, 60, -15.2148, -15.6628, 35.1486, 40.6987, 82.7635, -107.69
10.7038, 60, -15.1041, -15.63, 35.0911, 40.6449, 82.7776, -107.609
10.7118, 60, -14.9933, -15.5971, 35.0335, 40.5909, 82.7917, -107.527
10.7198, 60, -14.8824, -15.5641, 34.9758, 40.5353, 82.8057, -107.447
10.7279, 60, -14.7712, -15.5308, 34.9179, 40.4804, 82.8196, -107.365
10.7361, 60, -14.6599, -15.4973, 34.8598, 40.4241, 82.8335, -107.284
10.744, 61, -14.5483, -15.4636, 34.8015, 40.3677, 82.8474, -107.202
10.7517, 61, -14.4364, -15.4298, 34.743, 40.3113, 82.8613, -107.121
10.7598, 61, -14.3245, -15.3958, 34.6843, 40.2534, 82.8755, -107.04
10.7677, 61, -14.2123, -15.3616, 34.6254, 40.1961, 82.8899, -106.957
10.7759, 61, -14.0997, -15.3273, 34.5663, 40.1377, 82.9047, -106.876
10.7859, 61, -13.9869, -15.2927, 34.507, 40.0791, 82.9198, -106.794
10.792, 61, -13.874, -15.258, 34.4476, 40.0204, 82.9349, -106.713
10.7987, 61, -13.8174, -15.2406, 34.4179, 39.9904, 82.9424, -106.672
10.8081, 61, -13.6472, -15.1882, 34.3282, 39.9007, 82.9647, -106.55
10.8147, 61, -13.5905, -15.1706, 34.2983, 39.8706, 82.9721, -106.509
10.8242, 61, -13.4199, -15.1175, 34.2083, 39.7791, 82.9941, -106.387
10.8322, 62, -13.3058, -15.0819, 34.1481, 39.7179, 83.009, -106.305
10.8446, 62, -13.1915, -15.0461, 34.0877, 39.6556, 83.024, -106.224
10.8482, 62, -13.0769, -15.0102, 34.0269, 39.5937, 83.0393, -106.143
10.8563, 62, -12.9622, -14.9741, 33.966, 39.53, 83.055, -106.06
10.8643, 62, -12.9048, -14.956, 33.9355, 39.4986, 83.071, -105.979
10.8717, 62, -12.7899, -14.9196, 33.8742, 39.4351, 83.079, -105.938
10.8797, 62, -12.6747, -14.8831, 33.8128, 39.3704, 83.0948, -105.856
10.8867, 62, -12.5593, -14.8464, 33.7513, 39.3062, 83.1105, -105.774
10.8957, 62, -12.4435, -14.8096, 33.6895, 39.2406, 83.1263, -105.692
10.9037, 62, -12.3272, -14.7725, 33.6277, 39.1756, 83.1422, -105.611
10.9113, 62, -12.2105, -14.7352, 33.5657, 39.1092, 83.1581, -105.529
10.9229, 63, -12.0351, -14.6789, 33.4722, 39.0094, 83.1828, -105.407
10.9297, 63, -11.9181, -14.6412, 33.4097, 38.9416, 83.1998, -105.325
10.9357, 63, -11.8595, -14.6222, 33.3783, 38.908, 83.2083, -105.284
10.9438, 63, -11.7421, -14.5843, 33.3155, 38.8399, 83.2256, -105.202
10.9517, 63, -11.6245, -14.546, 33.2524, 38.7711, 83.2427, -105.12
10.9612, 63, -11.4475, -14.4881, 33.1574, 38.6671, 83.2682, -104.998
10.9677, 63, -11.3884, -14.4688, 33.1257, 38.6323, 83.2767, -104.956
10.9747, 63, -11.2699, -14.4299, 33.0622, 38.5623, 83.2937, -104.874
10.9845, 63, -11.1513, -14.3907, 32.9984, 38.4914, 83.311, -104.792
10.9917, 63, -11.0324, -14.3514, 32.9345, 38.4204, 83.3287, -104.71
11.0007, 63, -10.9134, -14.3119, 32.8703, 38.3487, 83.3468, -104.628
11.0099, 64, -10.7342, -14.252, 32.7739, 38.2402, 83.3743, -104.504
11.0183, 64, -10.6743, -14.232, 32.7416, 38.2039, 83.3834, -104.421
11.0227, 64, -10.5543, -14.1917, 32.6768, 38.1309, 83.4016, -104.379
11.0317, 64, -10.4339, -14.1511, 32.6119, 38.057, 83.4198, -104.298
11.0397, 64, -10.3131, -14.1104, 32.5467, 37.983, 83.438, -104.215
11.0477, 64, -10.1924, -14.0695, 32.4814, 37.9081, 83.4565, -104.133
11.0557, 64, -10.0715, -14.0284, 32.4159, 37.8327, 83.4755, -104.05
11.0637, 64, -9.95047, -13.9871, 32.3503, 37.7569, 83.495, -103.967
11.0717, 64, -9.82935, -13.9456, 32.2845, 37.6805, 83.5147, -103.884
11.0797, 64, -9.70807, -13.904, 32.2185, 37.6035, 83.5342, -103.801
11.0879, 64, -9.58648, -13.8621, 32.1524, 37.5261, 83.5536, -103.718
11.0957, 65, -9.46439, -13.82, 32.086, 37.4485, 83.573, -103.634
11.1037, 65, -9.34185, -13.7776, 32.0195, 37.3699, 83.5926, -103.552
11.1118, 65, -9.21904, -13.7349, 31.9527, 37.2912, 83.6127, -103.468
11.1197, 65, -9.09593, -13.692, 31.8858, 37.2117, 83.6334, -103.385
11.1277, 65, -8.97256, -13.6488, 31.8186, 37.1319, 83.6544, -103.301
11.1357, 65, -8.84889, -13.6054, 31.7514, 37.0513, 83.6753, -103.218
11.1437, 65, -8.72487, -13.5617, 31.684, 36.9702, 83.6962, -103.135
11.1517, 65, -8.60052, -13.5178, 31.6165, 36.8889, 83.717, -103.051
11.1598, 65, -8.47578, -13.4737, 31.5488, 36.8066, 83.7381, -102.968
11.1677, 65, -8.35084, -13.4294, 31.481, 36.7242, 83.7596, -102.884
11.1757, 65, -8.22598, -13.3848, 31.413, 36.6411, 83.7818, -102.801
11.1853, 66, -8.10098, -13.3401, 31.3446, 36.5578, 83.8041, -102.717
11.1919, 66, -7.9758, -13.2952, 31.2762, 36.4736, 83.8263, -102.633
11.2017, 66, -7.85041, -13.25, 31.2075, 36.3889, 83.8484, -102.549
11.2078, 66, -7.72457, -13.2045, 31.1387, 36.304, 83.8704, -102.465
11.2158, 66, -7.59835, -13.1589, 31.0697, 36.2182, 83.8928, -102.38
11.2239, 66, -7.47183, -13.1131, 31.0007, 36.1322, 83.9158, -102.296
11.2322, 66, -7.34496, -13.067, 30.9315, 36.0453, 83.9393, -102.212
11.2398, 66, -7.21789, -13.0206, 30.8621, 35.9581, 83.9627, -102.127
11.2478, 66, -7.0906, -12.9741, 30.7927, 35.8703, 83.9861, -102.043
11.2565, 66, -6.96306, -12.9271, 30.723, 35.782, 84.0095, -101.959
11.2643, 66, -6.83529, -12.88, 30.6531, 35.6932, 84.0332, -101.874
11.2717, 67, -6.7073, -12.8325, 30.5831, 35.604, 84.0576, -101.789
11.2805, 67, -6.57902, -12.7847, 30.5128, 35.5141, 84.0825, -101.705
11.288, 67, -6.45057, -12.7369, 30.4426, 35.4239, 84.1075, -101.62
11.2959, 67, -6.3219, -12.6887, 30.3721, 35.3329, 84.1322, -101.535
11.3047, 67, -6.19293, -12.6402, 30.3016, 35.2414, 84.1569, -101.45
11.3122, 67, -6.06367, -12.5917, 30.231, 35.1496, 84.1818, -101.365
11.3209, 67, -5.93409, -12.5428, 30.1601, 35.0568, 84.2075, -101.279
11.3282, 67, -5.80415, -12.4937, 30.0892, 34.9639, 84.2337, -101.194
11.3362, 67, -5.67368, -12.4444, 30.018, 34.8706, 84.2597, -101.109
11.3451, 67, -5.54286, -12.3949, 29.9467, 34.7766, 84.2857, -101.023
11.3507, 67, -5.47736, -12.3701, 29.911, 34.7295, 84.2987, -100.981
11.3607, 68, -5.28048, -12.2952, 29.8036, 34.5873, 84.3385, -100.853
11.3697, 68, -5.149, -12.2449, 29.7319, 34.4917, 84.3659, -100.767
11.3757, 68, -5.08321, -12.2198, 29.6961, 34.4437, 84.3797, -100.724
11.3837, 68, -4.95148, -12.1691, 29.6243, 34.3472, 84.4072, -100.639
11.3917, 68, -4.81962, -12.1182, 29.5524, 34.2505, 84.4345, -100.553
11.3997, 68, -4.68742, -12.067, 29.4804, 34.153, 84.4619, -100.467
11.4107, 68, -4.4887, -11.9897, 29.3721, 34.0061, 84.5041, -100.338
11.4157, 68, -4.42236, -11.9638, 29.336, 33.9569, 84.5185, -100.295
11.4237, 68, -4.28944, -11.9118, 29.2635, 33.8579, 84.5471, -100.209
11.4317, 68, -4.15624, -11.8596, 29.1909, 33.7587, 84.5755, -100.122
11.4398, 68, -4.02291, -11.8073, 29.1183, 33.6589, 84.6041, -100.036
11.4498, 69, -3.82219, -11.7284, 29.0092, 33.508, 84.6481, -99.9059
11.4557, 69, -3.75525, -11.702, 28.9728, 33.4577, 84.6631, -99.8631
11.4627, 69, -3.6211, -11.6491, 28.9, 33.3564, 84.6929, -99.7764
11.4717, 69, -3.4866, -11.596, 28.8271, 33.2546, 84.7224, -99.69
11.4787, 69, -3.35186, -11.5426, 28.754, 33.1525, 84.752, -99.6031
11.4877, 69, -3.21677, -11.489, 28.6808, 33.0498, 84.7823, -99.5164
11.498, 69, -3.08156, -11.435, 28.6076, 32.9466, 84.8133, -99.4296
11.5036, 69, -2.94609, -11.3808, 28.5341, 32.8431, 84.8441, -99.3423
11.5126, 69, -2.81024, -11.3263, 28.4607, 32.7389, 84.8748, -99.2552
11.5197, 69, -2.67414, -11.2715, 28.3872, 32.6343, 84.9057, -99.1677
11.5277, 69, -2.53776, -11.2165, 28.3138, 32.5292, 84.9375, -99.0808
11.5368, 70, -2.40098, -11.1611, 28.2403, 32.4236, 84.9698, -98.9931
11.5465, 70, -2.19535, -11.0778, 28.1298, 32.2645, 85.0175, -98.8619
11.5517, 70, -2.12675, -11.0499, 28.093, 32.2113, 85.0333, -98.8181
11.5597, 70, -1.98932, -10.994, 28.0192, 32.1043, 85.0655, -98.731
11.5677, 70, -1.85162, -10.9379, 27.9452, 31.997, 85.0987, -98.6432
11.5757, 70, -1.71378, -10.8817, 27.8712, 31.8892, 85.1317, -98.5561
11.5845, 70, -1.57573, -10.8252, 27.7972, 31.7807, 85.1645, -98.468
11.5908, 70, -1.43748, -10.7685, 27.7232, 31.6719, 85.1976, -98.3806
11.5997, 70, -1.29917, -10.7117, 27.6492, 31.5626, 85.2318, -98.2924
11.6092, 70, -1.16058, -10.6545, 27.5752, 31.453, 85.2662, -98.2044
11.6164, 70, -1.02171, -10.597, 27.5012, 31.3429, 85.3002, -98.1158
11.6238, 71, -0.882569, -10.5393, 27.4272, 31.2324, 85.3342, -98.0277
11.6317, 71, -0.743269, -10.4812, 27.353, 31.1215, 85.369, -97.9393
11.6397, 71, -0.603911, -10.4229, 27.2788, 31.0101, 85.4044, -97.8511
11.6477, 71, -0.46427, -10.3644, 27.2045, 30.898, 85.4393, -97.7626
11.6557, 71, -0.324398, -10.3057, 27.1302, 30.7857, 85.4743, -97.6739
11.6637, 71, -0.184252, -10.2468, 27.056, 30.6728, 85.5101, -97.5855
11.6718, 71, -0.0436257, -10.1878, 26.9818, 30.5599, 85.5466, -97.4969
11.6797, 71, 0.0972521, -10.1287, 26.9076, 30.4464, 85.5827, -97.4083
11.6877, 71, 0.23831, -10.0692, 26.8334, 30.3325, 85.6186, -97.3193
11.696, 71, 0.379553, -10.0097, 26.7592, 30.2183, 85.6552, -97.2308
11.7037, 71, 0.521171, -9.94981, 26.6848, 30.1034, 85.6924, -97.1413
11.712, 72, 0.662957, -9.8897, 26.6105, 29.9883, 85.7292, -97.0524
11.7202, 72, 0.805008, -9.82921, 26.5362, 29.8729, 85.7662, -96.9628
11.7273, 72, 0.947374, -9.76853, 26.4619, 29.7571, 85.8038, -96.8738
11.7358, 72, 1.08979, -9.70751, 26.3877, 29.641, 85.8421, -96.7841
11.7442, 72, 1.23229, -9.6463, 26.3136, 29.5244, 85.8799, -96.6951
11.7517, 72, 1.37494, -9.58478, 26.2395, 29.4076, 85.9177, -96.6053
11.7605, 72, 1.51771, -9.52305, 26.1654, 29.2903, 85.9564, -96.5163
11.7677, 72, 1.66073, -9.46115, 26.0914, 29.1724, 85.9955, -96.4267
11.7759, 72, 1.80391, -9.39912, 26.0173, 29.0544, 86.0342, -96.3377
11.7848, 72, 1.94723, -9.33685, 25.9432, 28.9358, 86.0731, -96.2478
