rpiRobotics/ARM-21-02-F-19-Robot-Motion-Program/data_performance_abb/curve_2/baseline/100L/realrobot/bisect/run_3realrobot_curve_exe_v200.0_z10.csv
timestamp, cmd_num, J1, J2, J3, J4, J5, J6
0.000371, -1, 39.6335, 32.4441, 11.8324, 12.5483, 113.716, -48.8694
0.004176, -1, 39.6335, 32.4441, 11.8324, 12.5483, 113.716, -48.8695
0.008374, -1, 39.6335, 32.4441, 11.8324, 12.5483, 113.716, -48.8695
0.029394, -1, 39.6335, 32.4441, 11.8325, 12.5483, 113.716, -48.8694
0.031473, -1, 39.6335, 32.4441, 11.8325, 12.5483, 113.716, -48.8694
0.034479, -1, 39.6335, 32.4441, 11.8325, 12.5483, 113.716, -48.8694
0.03934, -1, 39.6335, 32.4441, 11.8325, 12.5482, 113.716, -48.8694
0.047215, -1, 39.6332, 32.444, 11.8325, 12.5482, 113.716, -48.8693
0.055259, -1, 39.6319, 32.4438, 11.8325, 12.5483, 113.716, -48.8694
0.063275, -1, 39.6281, 32.4429, 11.8324, 12.5483, 113.716, -48.8696
0.071309, -1, 39.6211, 32.4407, 11.8324, 12.5482, 113.716, -48.8703
0.079354, -1, 39.6102, 32.4366, 11.8323, 12.5482, 113.715, -48.873
0.087554, -1, 39.5941, 32.4297, 11.8322, 12.5481, 113.713, -48.8796
0.095302, -1, 39.5703, 32.4191, 11.8324, 12.5481, 113.708, -48.8944
0.1034, -1, 39.537, 32.404, 11.8336, 12.5481, 113.699, -48.9205
0.111766, -1, 39.4935, 32.3833, 11.8371, 12.5481, 113.684, -48.9615
0.120185, -1, 39.4381, 32.3561, 11.8438, 12.5481, 113.661, -49.0217
0.127315, -1, 39.3696, 32.322, 11.8542, 12.5481, 113.629, -49.1042
0.136005, -1, 39.2876, 32.2801, 11.8696, 12.5483, 113.587, -49.2106
0.144202, -1, 39.1918, 32.2304, 11.8899, 12.5486, 113.536, -49.3429
0.151406, -1, 39.0819, 32.1728, 11.9145, 12.5493, 113.473, -49.5003
0.160216, -1, 38.9581, 32.1075, 11.9433, 12.5505, 113.402, -49.6816
0.167501, -1, 38.8213, 32.0353, 11.9757, 12.5521, 113.322, -49.8843
0.175598, -1, 38.6727, 31.9569, 12.011, 12.554, 113.235, -50.105
0.184419, -1, 38.5132, 31.873, 12.048, 12.5561, 113.142, -50.3393
0.191914, -1, 38.3447, 31.7847, 12.0864, 12.5584, 113.045, -50.5841
0.200282, -1, 38.1691, 31.6928, 12.1254, 12.5608, 112.946, -50.8356
0.208531, -1, 37.9879, 31.5985, 12.1644, 12.5632, 112.845, -51.091
0.215792, -1, 37.8022, 31.5023, 12.2032, 12.5657, 112.743, -51.3489
0.224406, -1, 37.6132, 31.4049, 12.242, 12.5681, 112.641, -51.6082
0.232638, -1, 37.422, 31.3071, 12.2808, 12.5705, 112.538, -51.8679
0.24003, -1, 37.3261, 31.2581, 12.3197, 12.5729, 112.435, -52.1277
0.247189, -1, 37.134, 31.1602, 12.3391, 12.5741, 112.384, -52.2577
0.257025, -1, 36.8457, 31.0136, 12.3972, 12.5782, 112.229, -52.6479
0.264303, -1, 36.6541, 30.9159, 12.436, 12.5807, 112.126, -52.9084
0.271182, -1, 36.5583, 30.867, 12.4555, 12.582, 112.075, -53.0385
0.281094, -1, 36.2711, 30.7205, 12.5137, 12.586, 111.92, -53.4293
0.288796, -1, 36.0796, 30.6227, 12.5526, 12.5885, 111.817, -53.6898
0.296555, -1, 35.8882, 30.5248, 12.5916, 12.5912, 111.714, -53.9507
0.303176, -1, 35.7925, 30.4758, 12.611, 12.5925, 111.663, -54.081
0.311226, -1, 35.6008, 30.3777, 12.6499, 12.595, 111.56, -54.3413
0.319186, -1, 35.4087, 30.2795, 12.6887, 12.5977, 111.456, -54.6017
0.327227, -1, 35.2164, 30.1813, 12.7276, 12.6003, 111.353, -54.8624
0.337133, -1, 34.9276, 30.0337, 12.786, 12.6042, 111.199, -55.2536
0.343184, -1, 34.8315, 29.9845, 12.8054, 12.6055, 111.147, -55.3838
0.351258, -1, 34.6392, 29.8861, 12.8442, 12.608, 111.044, -55.6446
0.36089, -1, 34.4468, 29.7877, 12.9026, 12.6119, 110.889, -56.0359
0.36967, -1, 34.2546, 29.6893, 12.9221, 12.6132, 110.838, -56.1664
0.375244, -1, 34.0625, 29.5911, 12.961, 12.6158, 110.735, -56.4273
0.384228, -1, 33.8707, 29.4929, 13, 12.6185, 110.632, -56.688
0.391405, -1, 33.6789, 29.3946, 13.0389, 12.6212, 110.528, -56.949
0.401321, -1, 33.3908, 29.2472, 13.0973, 12.6252, 110.374, -57.3408
0.40719, -1, 33.2945, 29.198, 13.1168, 12.6265, 110.322, -57.4712
0.415181, -1, 33.1018, 29.0995, 13.1556, 12.6292, 110.219, -57.7321
0.423175, -1, 32.909, 29.0009, 13.1944, 12.6318, 110.116, -57.9933
0.431187, -1, 32.7159, 28.9024, 13.2333, 12.6345, 110.013, -58.2545
0.439259, -1, 32.5225, 28.8038, 13.2722, 12.6372, 109.91, -58.5159
0.447185, -1, 32.3288, 28.7051, 13.3111, 12.64, 109.807, -58.7769
0.455176, -1, 32.1347, 28.6064, 13.3499, 12.6426, 109.704, -59.038
0.463275, -1, 31.9407, 28.5076, 13.3887, 12.6454, 109.601, -59.2992
0.471175, -1, 31.747, 28.4088, 13.4277, 12.648, 109.498, -59.5607
0.479207, -1, 31.5534, 28.3101, 13.4666, 12.6509, 109.394, -59.8219
0.615704, -1, 28.2692, 26.6324, 14.1285, 12.696, 107.639, -64.2684
0.616956, -1, 28.2692, 26.6324, 14.1285, 12.696, 107.639, -64.2684
0.618769, -1, 28.2692, 26.6324, 14.1285, 12.696, 107.639, -64.3991
0.620342, -1, 28.1726, 26.583, 14.148, 12.6972, 107.587, -64.3991
0.621612, -1, 28.1726, 26.583, 14.148, 12.6972, 107.587, -64.3991
0.624334, -1, 28.076, 26.5336, 14.1674, 12.6984, 107.536, -64.53
0.625534, -1, 28.076, 26.5336, 14.1674, 12.6984, 107.536, -64.53
0.631062, -1, 27.9795, 26.4349, 14.2064, 12.7008, 107.433, -64.7918
0.770122, -1, 24.5976, 24.7549, 14.869, 12.7403, 105.677, -69.2412
0.771381, -1, 24.5976, 24.7549, 14.869, 12.7403, 105.677, -69.2412
0.773541, -1, 24.5015, 24.7055, 14.8885, 12.7414, 105.625, -69.3722
0.774901, -1, 24.5015, 24.7055, 14.8885, 12.7414, 105.625, -69.3722
0.777746, -1, 24.4053, 24.656, 14.908, 12.7426, 105.573, -69.5031
0.779051, -1, 24.4053, 24.656, 14.908, 12.7426, 105.573, -69.5031
0.781239, -1, 24.3091, 24.6066, 14.9276, 12.7438, 105.522, -69.6339
0.785258, -1, 24.2129, 24.5572, 14.9471, 12.7451, 105.47, -69.7647
0.786575, -1, 24.2129, 24.5572, 14.9471, 12.7451, 105.47, -69.7647
0.78839, -1, 24.1167, 24.5078, 14.9666, 12.7462, 105.419, -69.8954
0.789824, -1, 24.1167, 24.5078, 14.9666, 12.7462, 105.419, -69.8954
0.791019, -1, 24.1167, 24.5078, 14.9666, 12.7462, 105.419, -69.8954
0.793694, -1, 24.0203, 24.4584, 14.9861, 12.7473, 105.367, -70.0261
0.794985, -1, 24.0203, 24.4584, 14.9861, 12.7473, 105.367, -70.0261
0.797091, -1, 23.9239, 24.409, 15.0056, 12.7485, 105.315, -70.1569
0.800591, -1, 23.8275, 24.3596, 15.0251, 12.7498, 105.263, -70.2878
0.802955, -1, 23.8275, 24.3596, 15.0251, 12.7498, 105.263, -70.2878
0.805015, -1, 23.7311, 24.3102, 15.0445, 12.751, 105.212, -70.4185
0.806253, -1, 23.7311, 24.3102, 15.0445, 12.751, 105.212, -70.4185
0.807436, -1, 23.7311, 24.3102, 15.0445, 12.751, 105.212, -70.4185
0.809484, -1, 23.6346, 24.2607, 15.0639, 12.7522, 105.16, -70.5494
0.810685, -1, 23.6346, 24.2607, 15.0639, 12.7522, 105.16, -70.5494
0.813198, -1, 23.538, 24.2113, 15.0834, 12.7533, 105.108, -70.6804
0.814608, -1, 23.538, 24.2113, 15.0834, 12.7533, 105.108, -70.6804
0.81725, -1, 23.538, 24.2113, 15.0834, 12.7533, 105.057, -70.8112
0.81854, -1, 23.4413, 24.1619, 15.1029, 12.7545, 105.057, -70.8112
0.820681, -1, 23.4413, 24.1619, 15.1029, 12.7545, 105.057, -70.9419
0.822061, -1, 23.3445, 24.1124, 15.1224, 12.7557, 105.005, -70.9419
0.82333, -1, 23.3445, 24.1124, 15.1224, 12.7557, 105.005, -70.9419
0.826146, -1, 23.2476, 24.063, 15.1418, 12.757, 104.953, -71.0728
0.829598, -1, 23.1506, 24.0135, 15.1613, 12.7582, 104.901, -71.2037
0.830785, -1, 23.1506, 24.0135, 15.1613, 12.7582, 104.901, -71.2037
0.832634, -1, 23.0536, 23.9641, 15.1807, 12.7595, 104.85, -71.3346
0.834082, -1, 23.0536, 23.9641, 15.1807, 12.7595, 104.85, -71.3346
0.835344, -1, 23.0536, 23.9641, 15.1807, 12.7595, 104.85, -71.3346
0.837329, -1, 22.9566, 23.9147, 15.2002, 12.7607, 104.798, -71.4656
0.839112, -1, 22.9566, 23.9147, 15.2002, 12.7607, 104.798, -71.4656
0.847228, -1, 22.7625, 23.8159, 15.2391, 12.7631, 104.695, -71.7274
0.856802, -1, 22.4718, 23.6679, 15.2976, 12.7668, 104.54, -72.1197
0.865585, -1, 22.375, 23.6185, 15.3171, 12.768, 104.488, -72.3812
0.87123, -1, 22.1817, 23.5199, 15.3561, 12.7706, 104.385, -72.5119
0.880208, -1, 21.9885, 23.4212, 15.395, 12.7733, 104.281, -72.7735
0.888168, -1, 21.7958, 23.3225, 15.434, 12.7759, 104.178, -73.0351
0.895225, -1, 21.6035, 23.2237, 15.4729, 12.7786, 104.075, -73.2963
0.903264, -1, 21.4114, 23.125, 15.5118, 12.7813, 103.972, -73.5578
0.91216, -1, 21.2191, 23.0263, 15.5508, 12.7839, 103.869, -73.8193
0.919228, -1, 21.0267, 22.9277, 15.5898, 12.7867, 103.766, -74.0807
0.927161, -1, 20.8342, 22.8291, 15.6287, 12.7894, 103.663, -74.3419
0.935153, -1, 20.6417, 22.7306, 15.6677, 12.7921, 103.559, -74.6031
0.94317, -1, 20.4488, 22.6319, 15.7065, 12.7949, 103.456, -74.8643
0.951162, -1, 20.2553, 22.5333, 15.7454, 12.7976, 103.353, -75.1257
0.959223, -1, 20.0615, 22.4346, 15.7844, 12.8002, 103.25, -75.3867
0.967175, -1, 19.8678, 22.3359, 15.8231, 12.803, 103.147, -75.6479
0.975158, -1, 19.6742, 22.2372, 15.8619, 12.8056, 103.044, -75.9091
0.98323, -1, 19.4806, 22.1387, 15.9009, 12.8084, 102.941, -76.1704
0.991154, -1, 19.2874, 22.04, 15.9397, 12.8111, 102.838, -76.4314
0.999164, -1, 19.0944, 21.9414, 15.9786, 12.8138, 102.735, -76.6923
1.00721, -1, 18.9018, 21.8428, 16.0175, 12.8165, 102.632, -76.9532
1.01515, -1, 18.7095, 21.744, 16.0562, 12.8192, 102.529, -77.2143
1.02318, -1, 18.5176, 21.6454, 16.0951, 12.8219, 102.426, -77.4752
1.03122, -1, 18.3259, 21.5469, 16.134, 12.8245, 102.323, -77.7359
1.03916, -1, 18.134, 21.4484, 16.1727, 12.827, 102.221, -77.9967
1.04725, -1, 17.9421, 21.35, 16.2116, 12.8296, 102.118, -78.2575
1.05517, -1, 17.7502, 21.2517, 16.2505, 12.832, 102.015, -78.5182
1.06319, -1, 17.558, 21.1534, 16.2893, 12.8346, 101.912, -78.7786
1.07148, -1, 17.3653, 21.0551, 16.3282, 12.837, 101.809, -79.039
1.07926, -1, 17.1722, 20.9568, 16.367, 12.8394, 101.706, -79.2996
1.08725, -1, 16.9791, 20.8586, 16.4058, 12.8418, 101.603, -79.5603
1.09563, -1, 16.786, 20.7604, 16.4446, 12.844, 101.5, -79.8206
1.10327, -1, 16.5929, 20.6622, 16.4833, 12.8463, 101.397, -80.0812
1.11127, -1, 16.3998, 20.5639, 16.5219, 12.8487, 101.295, -80.3416
1.11986, -1, 16.2072, 20.4656, 16.5607, 12.8509, 101.192, -80.6023
1.12823, -1, 16.0152, 20.3672, 16.5995, 12.8533, 101.089, -80.8626
1.1352, -1, 15.8233, 20.2687, 16.6382, 12.8555, 100.987, -81.1227
1.14404, -1, 15.6318, 20.1702, 16.6769, 12.8579, 100.884, -81.3829
1.15223, -1, 15.4407, 20.0719, 16.7156, 12.8603, 100.782, -81.643
1.15957, -1, 15.2496, 19.9737, 16.7544, 12.8626, 100.679, -81.9031
1.16822, -1, 15.0586, 19.8754, 16.7932, 12.8648, 100.576, -82.1629
1.17543, -1, 14.8673, 19.7773, 16.8318, 12.867, 100.474, -82.4228
1.18361, -1, 14.6759, 19.6793, 16.8706, 12.8693, 100.371, -82.6828
1.19239, -1, 14.4842, 19.5812, 16.9094, 12.8717, 100.268, -82.9427
1.19965, -1, 14.2921, 19.4831, 16.9481, 12.874, 100.166, -83.2022
1.20809, -1, 14.0998, 19.3851, 16.987, 12.8762, 100.063, -83.4617
1.2166, -1, 13.9073, 19.2872, 17.0256, 12.8785, 99.9608, -83.7212
1.22373, -1, 13.7147, 19.1894, 17.0642, 12.8808, 99.8585, -83.9809
1.23226, -1, 13.5222, 19.0915, 17.103, 12.8831, 99.7558, -84.2403
1.24066, -1, 13.426, 19.0426, 17.1416, 12.8854, 99.6533, -84.4996
1.24767, -1, 13.2341, 18.9447, 17.1609, 12.8866, 99.6023, -84.6293
1.25624, -1, 12.9468, 18.7978, 17.2189, 12.8901, 99.4487, -85.0183
1.26315, -1, 12.8513, 18.7488, 17.2382, 12.8912, 99.3974, -85.148
1.27114, -1, 12.6603, 18.6509, 17.2768, 12.8937, 99.2953, -85.4069
1.28034, -1, 12.3746, 18.5042, 17.3347, 12.8973, 99.1418, -85.7954
1.28713, -1, 12.2796, 18.4553, 17.354, 12.8985, 99.0907, -85.9249
1.29519, -1, 12.0895, 18.3576, 17.3926, 12.9009, 98.9887, -86.184
1.30484, -1, 11.8039, 18.2112, 17.4506, 12.9046, 98.8354, -86.5719
1.31255, -1, 11.6133, 18.1136, 17.4891, 12.9071, 98.7336, -86.8306
1.31919, -1, 11.5178, 18.0648, 17.5083, 12.9083, 98.6827, -86.9599
1.3289, -1, 11.2312, 17.9184, 17.5663, 12.9119, 98.5298, -87.3479
1.33671, -1, 11.0397, 17.8209, 17.6048, 12.9144, 98.428, -87.6061
1.34472, -1, 10.848, 17.7235, 17.6433, 12.9169, 98.326, -87.8643
1.35299, -1, 10.6563, 17.626, 17.6818, 12.9194, 98.2239, -88.1227
1.35915, -1, 10.5605, 17.5773, 17.701, 12.9207, 98.173, -88.2518
1.3687, -1, 10.3692, 17.4798, 17.7394, 12.9233, 98.0712, -88.6392
1.37677, -1, 10.1781, 17.3822, 17.7779, 12.9258, 97.9692, -88.7682
1.38415, -1, 9.98756, 17.2847, 17.8162, 12.9284, 97.8675, -89.0262
1.39214, -1, 9.79725, 17.1871, 17.8545, 12.931, 97.7655, -89.2843
1.40021, -1, 9.60728, 17.0896, 17.8928, 12.9338, 97.6636, -89.5425
1.4072, -1, 9.41801, 16.9923, 17.9312, 12.9365, 97.5618, -89.8002
1.41522, -1, 9.22881, 16.8949, 17.9695, 12.9392, 97.4599, -90.0578
1.42315, -1, 9.03948, 16.7977, 18.0079, 12.9419, 97.3581, -90.3153
1.43122, -1, 8.85003, 16.7005, 18.0462, 12.9446, 97.2565, -90.5728
1.43913, -1, 8.66048, 16.6034, 18.0846, 12.9472, 97.1546, -90.8303
1.44714, -1, 8.47087, 16.5062, 18.1229, 12.9499, 97.053, -91.0874
1.45522, -1, 8.28084, 16.4092, 18.1612, 12.9525, 96.9516, -91.3447
1.46313, -1, 8.09031, 16.3123, 18.1995, 12.9551, 96.8499, -91.6019
1.47117, -1, 7.8997, 16.2155, 18.2378, 12.9577, 96.7484, -91.8589
1.47925, -1, 7.70912, 16.1186, 18.2761, 12.9604, 96.6471, -92.1156
1.48713, -1, 7.51854, 16.0216, 18.3144, 12.9629, 96.5455, -92.3723
1.49514, -1, 7.32823, 15.9247, 18.3526, 12.9654, 96.4441, -92.6291
1.50321, -1, 7.13821, 15.8277, 18.3907, 12.968, 96.3429, -92.886
1.51114, -1, 6.94857, 15.7308, 18.429, 12.9705, 96.2414, -93.1424
1.51915, -1, 6.75942, 15.6339, 18.4672, 12.973, 96.1404, -93.3988
1.52721, -1, 6.57077, 15.5371, 18.5051, 12.9755, 96.0396, -93.6552
1.53513, -1, 6.38248, 15.4403, 18.5433, 12.978, 95.9385, -93.9116
1.54321, -1, 6.19439, 15.3436, 18.5815, 12.9805, 95.8376, -94.1679
1.55122, -1, 6.00628, 15.247, 18.6195, 12.9829, 95.7368, -94.4237
1.55916, -1, 5.8179, 15.1503, 18.6578, 12.9852, 95.6357, -94.6797
1.56736, -1, 5.62953, 15.0536, 18.6959, 12.9875, 95.5349, -94.9356
1.57606, -1, 5.44083, 14.957, 18.7339, 12.9898, 95.4341, -95.1915
1.58422, -1, 5.25188, 14.8605, 18.7721, 12.9921, 95.3333, -95.4471
1.59155, -1, 5.06254, 14.7642, 18.8101, 12.9943, 95.2327, -95.7027
1.59999, -1, 4.87307, 14.6678, 18.8481, 12.9965, 95.1319, -95.9581
1.60813, -1, 4.68365, 14.5715, 18.8862, 12.9987, 95.0312, -96.2136
1.61569, -1, 4.49423, 14.4751, 18.9242, 13.0009, 94.9306, -96.4684
1.62446, -1, 4.30512, 14.3788, 18.9622, 13.0032, 94.8298, -96.7233
1.63115, -1, 4.11627, 14.2823, 19.0003, 13.0053, 94.7288, -96.9784
1.63998, -1, 3.92794, 14.186, 19.0382, 13.0076, 94.6281, -97.2334
1.64894, -1, 3.74024, 14.0899, 19.0761, 13.0098, 94.5271, -97.4883
1.65613, -1, 3.55282, 13.9936, 19.114, 13.0121, 94.4263, -97.743
1.6634, -1, 3.36587, 13.8976, 19.1518, 13.0144, 94.3259, -97.9977
1.67135, -1, 3.17898, 13.8016, 19.1896, 13.0168, 94.2251, -98.2525
1.67942, -1, 2.99202, 13.7056, 19.2276, 13.0189, 94.1245, -98.5071
1.68764, -1, 2.80507, 13.6095, 19.2655, 13.0212, 94.0241, -98.7612
1.69698, -1, 2.6179, 13.5135, 19.3034, 13.0235, 93.9235, -99.0155
1.70422, -1, 2.43054, 13.4176, 19.3412, 13.0258, 93.823, -99.2696
1.71204, -1, 2.24293, 13.3218, 19.379, 13.0281, 93.7228, -99.5237
1.721, -1, 2.05475, 13.226, 19.4168, 13.0302, 93.6224, -99.7775
1.72825, -1, 1.86661, 13.1302, 19.4546, 13.0325, 93.5223, -100.031
1.73579, -1, 1.67845, 13.0344, 19.4923, 13.0348, 93.4224, -100.285
1.74514, -1, 1.49012, 12.9386, 19.53, 13.037, 93.3223, -100.538
1.75114, -1, 1.39607, 12.8907, 19.549, 13.0381, 93.2723, -100.665
1.76016, -1, 1.11445, 12.747, 19.6055, 13.0416, 93.1223, -101.045
1.76712, -1, 1.02084, 12.6992, 19.6243, 13.0428, 93.0723, -101.171
1.7762, -1, 0.740898, 12.5558, 19.6809, 13.0464, 92.9225, -101.551
1.78315, -1, 0.64776, 12.508, 19.6997, 13.0476, 92.8726, -101.677
1.79236, -1, 0.369075, 12.3649, 19.7561, 13.0512, 92.7227, -102.057
1.79916, -1, 0.276325, 12.3172, 19.7749, 13.0525, 92.673, -102.183
1.80859, -1, -0.00173193, 12.1742, 19.8312, 13.0562, 92.5238, -102.562
1.81512, -1, -0.0944582, 12.1265, 19.85, 13.0574, 92.474, -102.688
1.82318, -1, -0.280147, 12.0313, 19.8877, 13.0598, 92.3744, -102.941
1.83279, -1, -0.559175, 11.8886, 19.9441, 13.0636, 92.2254, -103.319
1.84066, -1, -0.745522, 11.7936, 19.9816, 13.066, 92.1258, -103.571
1.84719, -1, -0.838745, 11.7461, 20.0004, 13.0673, 92.0761, -103.697
1.85678, -1, -1.1188, 11.6036, 20.0566, 13.0711, 91.9271, -104.075
1.86474, -1, -1.21229, 11.556, 20.0941, 13.0736, 91.8277, -104.327
1.87118, -1, -1.39929, 11.461, 20.1129, 13.0749, 91.7781, -104.452
1.88017, -1, -1.58612, 11.3659, 20.1503, 13.0774, 91.6791, -104.704
1.88812, -1, -1.77254, 11.2708, 20.1876, 13.08, 91.5798, -104.956
1.89613, -1, -1.95856, 11.1758, 20.2251, 13.0826, 91.4807, -105.207
1.90418, -1, -2.14395, 11.0808, 20.2625, 13.0853, 91.3816, -105.458
1.91214, -1, -2.32895, 10.9859, 20.2999, 13.0879, 91.2823, -105.709
1.92016, -1, -2.51359, 10.8911, 20.3373, 13.0906, 91.1833, -105.96
1.92813, -1, -2.69767, 10.7964, 20.3745, 13.0933, 91.0841, -106.211
1.93612, -1, -2.8815, 10.7016, 20.4118, 13.096, 90.985, -106.462
1.94312, -1, -3.06549, 10.6069, 20.4492, 13.0985, 90.886, -106.712
1.95113, -1, -3.24959, 10.5124, 20.4865, 13.1012, 90.7872, -106.963
1.95918, -1, -3.43407, 10.4179, 20.5236, 13.1037, 90.6883, -107.213
1.96712, -1, -3.61883, 10.3235, 20.5609, 13.1062, 90.5895, -107.464
1.97515, -1, -3.80371, 10.2292, 20.5982, 13.1088, 90.4907, -107.714
1.98318, -1, -3.98889, 10.1349, 20.6354, 13.1111, 90.392, -107.964
1.99112, -1, -4.1743, 10.0406, 20.6727, 13.1136, 90.2934, -108.214
1.9992, -1, -4.35999, 9.9463, 20.7097, 13.1159, 90.1947, -108.464
2.00712, -1, -4.54551, 9.85195, 20.747, 13.1182, 90.096, -108.713
2.0153, -1, -4.73068, 9.75771, 20.7842, 13.1206, 89.9976, -108.963
2.02313, -1, -4.9155, 9.66351, 20.8212, 13.1229, 89.8991, -109.212
2.03112, -1, -5.09964, 9.56945, 20.8583, 13.1253, 89.8007, -109.462
2.03919, -1, -5.28312, 9.47535, 20.8954, 13.1276, 89.7025, -109.711
2.04713, -1, -5.46627, 9.3814, 20.9325, 13.1299, 89.6041, -109.96
2.05513, -1, -5.64907, 9.28746, 20.9696, 13.1321, 89.5057, -110.208
2.0632, -1, -5.83141, 9.19353, 21.0067, 13.1345, 89.4076, -110.457
2.07127, -1, -6.01372, 9.0997, 21.0436, 13.1367, 89.3094, -110.706
2.07925, -1, -6.19626, 9.00587, 21.0806, 13.1389, 89.2112, -110.954
2.08729, -1, -6.37906, 8.91221, 21.1177, 13.1411, 89.1135, -111.202
2.09547, -1, -6.56204, 8.81862, 21.1545, 13.1433, 89.0154, -111.451
2.10322, -1, -6.74539, 8.72501, 21.1913, 13.1454, 88.9175, -111.699
2.1113, -1, -6.92916, 8.63145, 21.2283, 13.1476, 88.8197, -111.947
2.11965, -1, -7.11318, 8.53787, 21.2652, 13.1497, 88.7218, -112.195
2.12812, -1, -7.29744, 8.44432, 21.3021, 13.1518, 88.624, -112.442
2.13541, -1, -7.48137, 8.35064, 21.339, 13.1539, 88.5263, -112.69
2.14397, -1, -7.66517, 8.25711, 21.3757, 13.156, 88.4286, -112.938
2.15212, -1, -7.84854, 8.16366, 21.4125, 13.1582, 88.331, -113.185
2.15931, -1, -8.03139, 8.07023, 21.4494, 13.1605, 88.2338, -113.432
2.16816, -1, -8.21356, 7.97695, 21.4861, 13.1627, 88.1363, -113.679
2.17552, -1, -8.39516, 7.88368, 21.5228, 13.165, 88.0389, -113.926
2.1835, -1, -8.57637, 7.79043, 21.5597, 13.1672, 87.9417, -114.173
2.19233, -1, -8.75719, 7.69727, 21.5964, 13.1696, 87.8443, -114.42
2.19967, -1, -8.93791, 7.60416, 21.6331, 13.1717, 87.7467, -114.666
2.2082, -1, -9.11884, 7.51113, 21.6699, 13.174, 87.6495, -114.913
2.21646, -1, -9.30008, 7.41821, 21.7065, 13.1763, 87.5522, -115.159
2.22385, -1, -9.48144, 7.32545, 21.7432, 13.1785, 87.455, -115.405
2.23223, -1, -9.66317, 7.23261, 21.7798, 13.1807, 87.3581, -115.651
2.24052, -1, -9.75418, 7.18623, 21.8164, 13.183, 87.2607, -115.897
2.24783, -1, -9.93658, 7.09349, 21.8529, 13.1851, 87.1636, -116.143
2.25612, -1, -10.2104, 6.95437, 21.8895, 13.1874, 87.0666, -116.389
2.26311, -1, -10.3017, 6.90801, 21.9078, 13.1885, 87.018, -116.512
2.27111, -1, -10.4842, 6.81524, 21.9444, 13.1907, 86.9208, -116.757
2.27916, -1, -10.6665, 6.72252, 21.981, 13.193, 86.8238, -117.003
2.28915, -1, -10.9391, 6.58358, 22.0356, 13.1966, 86.6783, -117.371
2.29512, -1, -11.0297, 6.53729, 22.0538, 13.1978, 86.6299, -117.493
2.30447, -1, -11.3001, 6.39859, 22.1087, 13.2014, 86.485, -117.861
2.31112, -1, -11.3901, 6.35234, 22.127, 13.2026, 86.4367, -117.983
2.31915, -1, -11.5697, 6.25995, 22.1633, 13.2051, 86.34, -118.228
2.32711, -1, -11.749, 6.16757, 22.1998, 13.2075, 86.2434, -118.473
2.33746, -1, -12.0179, 6.02916, 22.2545, 13.2113, 86.0985, -118.839
2.34317, -1, -12.1075, 5.98305, 22.2727, 13.2125, 86.0502, -118.961
2.35276, -1, -12.3768, 5.84499, 22.3273, 13.2162, 85.9057, -119.328
2.36133, -1, -12.5569, 5.75294, 22.3636, 13.2187, 85.8092, -119.572
2.36717, -1, -12.6471, 5.70694, 22.3817, 13.2199, 85.761, -119.694
2.37668, -1, -12.8277, 5.61497, 22.4181, 13.2223, 85.617, -120.059
2.38411, -1, -13.0087, 5.52306, 22.4545, 13.2248, 85.5691, -120.181
2.39116, -1, -13.1899, 5.43107, 22.4907, 13.2273, 85.473, -120.425
2.39979, -1, -13.3711, 5.3391, 22.527, 13.2297, 85.3771, -120.669
2.4071, -1, -13.5519, 5.24722, 22.5633, 13.2322, 85.2816, -120.912
2.41515, -1, -13.7325, 5.15536, 22.5994, 13.2348, 85.1856, -121.155
2.42394, -1, -13.9124, 5.06353, 22.6356, 13.2374, 85.0898, -121.398
2.4311, -1, -14.0915, 4.97181, 22.6719, 13.2399, 84.9944, -121.641
2.4391, -1, -14.27, 4.88015, 22.708, 13.2425, 84.8985, -121.884
2.44812, -1, -14.4481, 4.78853, 22.7442, 13.245, 84.8029, -122.126
2.45615, -1, -14.6259, 4.69687, 22.7806, 13.2475, 84.7075, -122.369
2.4641, -1, -14.8035, 4.60537, 22.8167, 13.25, 84.6117, -122.611
2.47211, -1, -14.9812, 4.51385, 22.8528, 13.2524, 84.516, -122.854
2.48017, -1, -15.159, 4.4225, 22.889, 13.2548, 84.4205, -123.096
2.48811, -1, -15.3372, 4.33122, 22.9251, 13.2572, 84.3248, -123.337
2.49622, -1, -15.5159, 4.23985, 22.9611, 13.2596, 84.2291, -123.579
2.50419, -1, -15.6949, 4.14862, 22.9972, 13.2619, 84.1337, -123.821
2.5121, -1, -15.8741, 4.05746, 23.0332, 13.2642, 84.038, -124.063
2.52022, -1, -16.0535, 3.96621, 23.0692, 13.2664, 83.9424, -124.304
2.5282, -1, -16.2333, 3.87494, 23.1052, 13.2685, 83.8472, -124.546
2.5351, -1, -16.4129, 3.78378, 23.1411, 13.2706, 83.7516, -124.787
2.54452, -1, -16.5921, 3.69264, 23.1769, 13.2728, 83.6562, -125.029
2.5521, -1, -16.7708, 3.60152, 23.2128, 13.275, 83.561, -125.27
2.55917, -1, -16.9489, 3.51049, 23.2486, 13.2772, 83.4655, -125.511
2.56729, -1, -17.1261, 3.41952, 23.2844, 13.2795, 83.3702, -125.751
2.57514, -1, -17.3028, 3.32859, 23.3203, 13.2817, 83.2752, -125.992
2.5833, -1, -17.4792, 3.23773, 23.3561, 13.2838, 83.1799, -126.233
2.59141, -1, -17.6554, 3.14697, 23.3918, 13.286, 83.085, -126.473
2.5992, -1, -17.8314, 3.05631, 23.4278, 13.2881, 82.9902, -126.713
2.60726, -1, -18.0074, 2.96576, 23.4636, 13.2901, 82.8954, -126.953
2.6156, -1, -18.1839, 2.87535, 23.4992, 13.2923, 82.8006, -127.193
2.62317, -1, -18.3605, 2.78494, 23.535, 13.2944, 82.7061, -127.433
2.63123, -1, -18.5377, 2.69458, 23.5708, 13.2964, 82.6113, -127.673
2.64058, -1, -18.7153, 2.60422, 23.6064, 13.2985, 82.5167, -127.913
2.64714, -1, -18.8931, 2.51385, 23.6421, 13.3005, 82.4223, -128.152
2.65523, -1, -19.0712, 2.42337, 23.6778, 13.3025, 82.3278, -128.392
2.66481, -1, -19.2495, 2.33297, 23.7133, 13.3045, 82.2333, -128.631
2.67212, -1, -19.4275, 2.24258, 23.749, 13.3065, 82.1392, -128.87
2.67941, -1, -19.6049, 2.15219, 23.7846, 13.3087, 82.0451, -129.109
2.68914, -1, -19.7818, 2.06182, 23.8199, 13.3108, 81.9509, -129.348
2.69549, -1, -19.958, 1.97157, 23.8553, 13.313, 81.8568, -129.587
2.70361, -1, -20.1335, 1.88131, 23.8909, 13.3152, 81.7629, -129.826
2.71317, -1, -20.3085, 1.79112, 23.9264, 13.3174, 81.6688, -130.064
2.71966, -1, -20.4833, 1.70102, 23.9619, 13.3196, 81.5748, -130.302
2.72827, -1, -20.6577, 1.61102, 23.9975, 13.3218, 81.481, -130.541
2.73639, -1, -20.8322, 1.5211, 24.033, 13.3239, 81.3869, -130.779
2.74373, -1, -21.007, 1.43126, 24.0684, 13.3262, 81.2932, -131.017
2.7523, -1, -21.1822, 1.34153, 24.104, 13.3284, 81.1996, -131.255
2.75911, -1, -21.2699, 1.29665, 24.1217, 13.3294, 81.1526, -131.374
2.76714, -1, -21.4455, 1.20697, 24.157, 13.3316, 81.0587, -131.611
2.77619, -1, -21.7096, 1.07254, 24.2101, 13.3348, 80.9182, -131.968
2.7831, -1, -21.7977, 1.02771, 24.2279, 13.3359, 80.8712, -132.086
2.79315, -1, -22.0623, 0.893298, 24.2809, 13.3392, 80.7304, -132.442
2.79909, -1, -22.1507, 0.848527, 24.2986, 13.3402, 80.6837, -132.561
2.8085, -1, -22.4153, 0.714288, 24.3517, 13.3435, 80.5432, -132.917
2.81512, -1, -22.5033, 0.669526, 24.3693, 13.3447, 80.4964, -133.035
2.82453, -1, -22.7666, 0.535337, 24.4222, 13.3483, 80.3561, -133.39
2.83109, -1, -22.8539, 0.490646, 24.4398, 13.3495, 80.3091, -133.509
2.84062, -1, -23.1148, 0.356562, 24.4925, 13.3532, 80.1688, -133.864
2.84864, -1, -23.2883, 0.267247, 24.5278, 13.3556, 80.0756, -134.101
2.85676, -1, -23.4614, 0.177997, 24.563, 13.3581, 79.982, -134.337
2.86309, -1, -23.5479, 0.133413, 24.5806, 13.3593, 79.9354, -134.455
2.8727, -1, -23.7212, 0.0442711, 24.6158, 13.3616, 79.7955, -134.81
2.88075, -1, -23.8946, -0.0448058, 24.6511, 13.3641, 79.749, -135.046
2.88808, -1, -24.0681, -0.133757, 24.6861, 13.3665, 79.6556, -135.164
2.89609, -1, -24.2419, -0.222735, 24.7212, 13.369, 79.5626, -135.399
2.90412, -1, -24.416, -0.311661, 24.7564, 13.3714, 79.4697, -135.635
2.91113, -1, -24.5904, -0.400497, 24.7915, 13.3738, 79.3765, -135.87
2.91915, -1, -24.7651, -0.48939, 24.8265, 13.3762, 79.2835, -136.106
2.92711, -1, -24.9401, -0.578216, 24.8616, 13.3786, 79.1907, -136.341
2.93516, -1, -25.1152, -0.667041, 24.8967, 13.381, 79.0976, -136.576
2.94308, -1, -25.29, -0.755804, 24.9317, 13.3833, 79.0047, -136.811
2.95109, -1, -25.4644, -0.844611, 24.9668, 13.3857, 78.9122, -137.047
2.96009, -1, -25.6383, -0.933353, 25.0018, 13.3882, 78.8193, -137.282
2.96813, -1, -25.8116, -1.02203, 25.0365, 13.3906, 78.7265, -137.516
2.97609, -1, -25.9842, -1.11078, 25.0715, 13.393, 78.6342, -137.751
2.98409, -1, -26.1565, -1.19942, 25.1065, 13.3954, 78.5415, -137.985
2.99108, -1, -26.3283, -1.28796, 25.1413, 13.3978, 78.4491, -138.22
2.9991, -1, -26.5, -1.37647, 25.1762, 13.4002, 78.3566, -138.454
3.00715, -1, -26.672, -1.46483, 25.2111, 13.4024, 78.2642, -138.689
3.01509, -1, -26.8441, -1.5531, 25.246, 13.4046, 78.1718, -138.923
3.02309, -1, -27.0164, -1.64125, 25.2808, 13.4069, 78.0793, -139.157
3.03115, -1, -27.1889, -1.72946, 25.3157, 13.4091, 77.9874, -139.391
3.03908, -1, -27.3615, -1.81764, 25.3505, 13.4113, 77.895, -139.625
3.04727, -1, -27.5346, -1.90566, 25.3852, 13.4134, 77.803, -139.858
3.0551, -1, -27.7078, -1.99385, 25.42, 13.4155, 77.7111, -140.091
3.06409, -1, -27.8811, -2.08198, 25.4548, 13.4176, 77.619, -140.325
3.07215, -1, -28.0545, -2.16996, 25.4895, 13.4195, 77.5269, -140.558
3.07913, -1, -28.2277, -2.25795, 25.5242, 13.4216, 77.4352, -140.791
3.08728, -1, -28.4008, -2.34604, 25.559, 13.4236, 77.343, -141.024
3.09563, -1, -28.5734, -2.43405, 25.5936, 13.4256, 77.2508, -141.257
3.10407, -1, -28.7455, -2.52195, 25.6283, 13.4278, 77.159, -141.49
3.11126, -1, -28.9169, -2.60998, 25.663, 13.43, 77.0668, -141.723
3.11966, -1, -29.0877, -2.6979, 25.6976, 13.4322, 76.9748, -141.956
3.12808, -1, -29.2582, -2.78572, 25.7321, 13.4343, 76.8831, -142.188
3.1353, -1, -29.4288, -2.87346, 25.7669, 13.4363, 76.7912, -142.42
3.14405, -1, -29.5995, -2.96105, 25.8014, 13.4384, 76.6994, -142.653
3.1521, -1, -29.7705, -3.04859, 25.8359, 13.4404, 76.6077, -142.885
3.15922, -1, -29.9415, -3.1361, 25.8705, 13.4425, 76.5158, -143.118
3.16724, -1, -30.1125, -3.22355, 25.9051, 13.4446, 76.4241, -143.35
3.17543, -1, -30.2834, -3.31102, 25.9396, 13.4466, 76.3324, -143.581
3.18342, -1, -30.4548, -3.3984, 25.9742, 13.4487, 76.241, -143.814
3.1916, -1, -30.6265, -3.48596, 26.0087, 13.4507, 76.1492, -144.045
3.2002, -1, -30.7984, -3.57339, 26.0431, 13.4528, 76.0578, -144.277
3.20754, -1, -30.9702, -3.66071, 26.0776, 13.4548, 75.9667, -144.508
3.21572, -1, -31.1419, -3.74813, 26.1122, 13.4568, 75.8752, -144.739
3.22425, -1, -31.3136, -3.83549, 26.1465, 13.4589, 75.7839, -144.971
3.23164, -1, -31.4847, -3.92275, 26.181, 13.461, 75.6928, -145.202
3.24018, -1, -31.6554, -4.01003, 26.2155, 13.4631, 75.6013, -145.433
3.24769, -1, -31.7406, -4.05363, 26.2327, 13.4653, 75.5102, -145.664
3.25625, -1, -31.9954, -4.18447, 26.2842, 13.4675, 75.4192, -145.895
3.26313, -1, -32.0802, -4.22804, 26.3015, 13.4686, 75.3736, -146.01
3.27219, -1, -32.3342, -4.35861, 26.353, 13.4719, 75.2368, -146.356
3.27907, -1, -32.419, -4.40212, 26.3701, 13.473, 75.1913, -146.472
3.28837, -1, -32.6735, -4.53251, 26.4217, 13.4762, 75.0551, -146.817
3.29508, -1, -32.7583, -4.57595, 26.439, 13.4773, 75.0096, -146.932
3.30434, -1, -33.0128, -4.7063, 26.4902, 13.4805, 74.8736, -147.278
3.31114, -1, -33.0976, -4.74976, 26.5073, 13.4816, 74.8285, -147.393
3.32056, -1, -33.3524, -4.87999, 26.5589, 13.485, 74.6924, -147.738
3.32708, -1, -33.4375, -4.92346, 26.576, 13.4861, 74.6471, -147.853
3.33691, -1, -33.693, -5.0538, 26.6274, 13.4893, 74.5114, -148.198
3.34466, -1, -33.8633, -5.14054, 26.6617, 13.4916, 74.4205, -148.428
3.35263, -1, -34.0336, -5.22728, 26.6958, 13.4938, 74.33, -148.657
3.36073, -1, -34.2038, -5.31401, 26.73, 13.496, 74.2397, -148.887
3.36871, -1, -34.3738, -5.40063, 26.7643, 13.4983, 74.1489, -149.116
3.37668, -1, -34.4588, -5.44396, 26.7814, 13.4995, 74.1037, -149.345
3.38488, -1, -34.6284, -5.53064, 26.8155, 13.5019, 74.0131, -149.575
3.39208, -1, -34.7973, -5.61725, 26.8496, 13.5042, 73.9228, -149.689
3.40006, -1, -34.9657, -5.70379, 26.8839, 13.5067, 73.8322, -149.918
3.40812, -1, -35.1341, -5.79028, 26.9179, 13.5091, 73.7417, -150.147
3.41608, -1, -35.3023, -5.87673, 26.9521, 13.5115, 73.6515, -150.376
3.42413, -1, -35.4708, -5.96299, 26.9863, 13.514, 73.561, -150.605
3.43207, -1, -35.6393, -6.04919, 27.0203, 13.5163, 73.4706, -150.834
3.44008, -1, -35.8078, -6.13543, 27.0543, 13.5186, 73.3804, -151.063
3.44813, -1, -35.9764, -6.22158, 27.0884, 13.5211, 73.2899, -151.291
3.45606, -1, -36.1448, -6.30765, 27.1224, 13.5234, 73.1996, -151.52
3.46408, -1, -36.3134, -6.3938, 27.1564, 13.5258, 73.1093, -151.748
3.47211, -1, -36.4823, -6.48005, 27.1904, 13.5282, 73.019, -151.977
3.48006, -1, -36.6512, -6.56622, 27.2244, 13.5305, 72.9287, -152.205
3.49018, -1, -36.9045, -6.69544, 27.2753, 13.5339, 72.7935, -152.547
3.4951, -1, -36.9891, -6.73851, 27.2923, 13.5351, 72.7485, -152.661
3.50307, -1, -37.158, -6.82469, 27.3263, 13.5373, 72.6582, -152.889
3.51209, -1, -37.3267, -6.91076, 27.3602, 13.5395, 72.5683, -153.117
3.5201, -1, -37.495, -6.99674, 27.3941, 13.5417, 72.4786, -153.344
3.52815, -1, -37.6628, -7.08281, 27.4281, 13.544, 72.3885, -153.572
3.53609, -1, -37.8306, -7.16881, 27.4619, 13.5463, 72.2988, -153.799
3.54312, -1, -37.9981, -7.25473, 27.4957, 13.5485, 72.2092, -154.027
3.55108, -1, -38.1655, -7.34062, 27.5297, 13.5506, 72.1193, -154.254
3.55928, -1, -38.3329, -7.42642, 27.5635, 13.5528, 72.0297, -154.481
3.56707, -1, -38.5002, -7.51214, 27.5973, 13.5549, 71.9401, -154.708
3.57511, -1, -38.6674, -7.59785, 27.6312, 13.557, 71.8504, -154.936
3.58407, -1, -38.8347, -7.68353, 27.6651, 13.5591, 71.7607, -155.163
3.59119, -1, -39.002, -7.76921, 27.6987, 13.5611, 71.6713, -155.39
3.59924, -1, -39.1695, -7.85485, 27.7325, 13.5632, 71.5821, -155.616
3.60722, -1, -39.3371, -7.94055, 27.7664, 13.5651, 71.4927, -155.843
3.61516, -1, -39.5046, -8.02618, 27.8, 13.567, 71.4033, -156.07
3.62318, -1, -39.6723, -8.11172, 27.8336, 13.569, 71.3143, -156.297
3.6313, -1, -39.84, -8.1972, 27.8674, 13.571, 71.2247, -156.523
3.63913, -1, -40.0076, -8.28268, 27.901, 13.573, 71.1354, -156.749
3.64709, -1, -40.1752, -8.36805, 27.9347, 13.5749, 71.0462, -156.976
3.65518, -1, -40.3425, -8.45342, 27.9685, 13.5769, 70.9567, -157.202
3.66315, -1, -40.5095, -8.53879, 28.0022, 13.5788, 70.8674, -157.428
3.67127, -1, -40.6764, -8.62416, 28.0357, 13.5808, 70.7783, -157.654
3.67945, -1, -40.8431, -8.70951, 28.0693, 13.5828, 70.6892, -157.88
3.68733, -1, -41.0095, -8.79482, 28.103, 13.5847, 70.6, -158.106
3.69551, -1, -41.1759, -8.88009, 28.1366, 13.5868, 70.5109, -158.332
3.70419, -1, -41.3421, -8.96524, 28.1701, 13.5888, 70.422, -158.557
3.71151, -1, -41.5084, -9.05038, 28.2038, 13.5908, 70.3327, -158.783
3.71987, -1, -41.6747, -9.13548, 28.2374, 13.5928, 70.2434, -159.009
3.72822, -1, -41.841, -9.22057, 28.2709, 13.5948, 70.1545, -159.234
3.73563, -1, -42.0074, -9.30557, 28.3046, 13.5969, 70.0652, -159.46
3.74418, -1, -42.1737, -9.39064, 28.3382, 13.5989, 69.9762, -159.685
3.75153, -1, -42.2568, -9.4332, 28.3549, 13.5999, 69.9317, -159.798
3.76008, -1, -42.5063, -9.5607, 28.4052, 13.6029, 69.7984, -160.135
3.76712, -1, -42.5895, -9.6032, 28.4219, 13.6039, 69.754, -160.248
3.77616, -1, -42.8391, -9.73064, 28.4721, 13.6069, 69.6208, -160.586
3.78305, -1, -42.9223, -9.77312, 28.4888, 13.608, 69.5766, -160.698
3.7922, -1, -43.1717, -9.90049, 28.539, 13.6111, 69.4434, -161.036
3.79913, -1, -43.2547, -9.94294, 28.5557, 13.6121, 69.3991, -161.148
3.8083, -1, -43.5039, -10.0703, 28.6059, 13.6152, 69.2662, -161.485
3.8151, -1, -43.5869, -10.1128, 28.6227, 13.6163, 69.2217, -161.597
3.82457, -1, -43.8358, -10.2401, 28.6729, 13.6194, 69.0889, -161.934
3.8325, -1, -44.0016, -10.3249, 28.7062, 13.6216, 69.0005, -162.159
3.84058, -1, -44.167, -10.4097, 28.7397, 13.6237, 68.9118, -162.383
3.84869, -1, -44.3322, -10.4943, 28.7732, 13.6259, 68.8232, -162.607
3.8566, -1, -44.4974, -10.5788, 28.8065, 13.6281, 68.7348, -162.832
3.86483, -1, -44.6626, -10.6634, 28.8398, 13.6303, 68.6461, -163.056
3.87275, -1, -44.8278, -10.7478, 28.8733, 13.6325, 68.5576, -163.28
3.88157, -1, -44.9105, -10.79, 28.89, 13.6336, 68.5133, -163.504
3.88713, -1, -45.0758, -10.8745, 28.9234, 13.6358, 68.425, -163.616
3.8961, -1, -45.2411, -10.959, 28.9568, 13.638, 68.3364, -163.84
3.90404, -1, -45.4064, -11.0435, 28.9903, 13.6403, 68.2479, -164.064
3.91205, -1, -45.5716, -11.1279, 29.0235, 13.6425, 68.1597, -164.288
3.92012, -1, -45.7369, -11.2124, 29.0567, 13.6448, 68.0714, -164.512
3.9271, -1, -45.902, -11.2967, 29.0902, 13.647, 67.983, -164.735
3.93515, -1, -46.065, -11.3799, 29.1236, 13.6493, 67.8947, -164.959
3.94305, -1, -46.2245, -11.461, 29.1571, 13.6516, 67.8071, -165.181
3.95105, -1, -46.3787, -11.5384, 29.1908, 13.6541, 67.7203, -165.4
3.96006, -1, -46.525, -11.6112, 29.2238, 13.6563, 67.6366, -165.612
3.9681, -1, -46.6611, -11.6781, 29.2551, 13.6586, 67.5583, -165.811
3.97505, -1, -46.7841, -11.738, 29.2835, 13.6607, 67.4867, -165.991
3.98405, -1, -46.8914, -11.7907, 29.308, 13.6625, 67.4249, -166.147
3.99213, -1, -46.9824, -11.8367, 29.3277, 13.664, 67.3743, -166.276
4.00006, -1, -47.0575, -11.8769, 29.3416, 13.665, 67.3348, -166.375
4.00805, -1, -47.1176, -11.9103, 29.3509, 13.6656, 67.3063, -166.447
4.01707, -1, -47.1633, -11.9362, 29.3564, 13.6659, 67.2872, -166.495
4.02406, -1, -47.1967, -11.955, 29.3592, 13.6661, 67.2754, -166.525
4.03208, -1, -47.2196, -11.9677, 29.3604, 13.6662, 67.2688, -166.542
4.04014, -1, -47.2341, -11.9756, 29.361, 13.6662, 67.2653, -166.55
4.04716, -1, -47.2423, -11.9799, 29.3613, 13.6663, 67.2637, -166.554
4.05514, 2, -47.2461, -11.9818, 29.3614, 13.6663, 67.2629, -166.556
4.06305, 2, -47.247, -11.9827, 29.3616, 13.6663, 67.2625, -166.557
4.07105, 2, -47.2467, -11.983, 29.3616, 13.6664, 67.2623, -166.558
4.08005, 2, -47.2465, -11.9831, 29.3617, 13.6664, 67.2622, -166.558
4.0881, 2, -47.2465, -11.9832, 29.3617, 13.6665, 67.2622, -166.558
4.09607, 2, -47.2472, -11.9833, 29.3618, 13.6665, 67.2622, -166.558
4.10322, 2, -47.2482, -11.9837, 29.3618, 13.6665, 67.2622, -166.558
4.11115, 2, -47.2498, -11.9843, 29.3618, 13.6664, 67.2622, -166.558
4.11921, 2, -47.2517, -11.9851, 29.3618, 13.6664, 67.2622, -166.558
4.12722, 2, -47.2532, -11.986, 29.3618, 13.6665, 67.2622, -166.558
4.13506, 2, -47.2545, -11.9867, 29.3618, 13.6665, 67.2622, -166.558
4.14308, 2, -47.2552, -11.9873, 29.3618, 13.6664, 67.2622, -166.558
4.15114, 2, -47.2556, -11.9876, 29.3618, 13.6665, 67.2622, -166.558
4.15942, 2, -47.2556, -11.9877, 29.3618, 13.6665, 67.2623, -166.558
4.16715, 2, -47.2556, -11.9877, 29.3618, 13.6664, 67.2623, -166.558
4.17527, 2, -47.2552, -11.9877, 29.3618, 13.6664, 67.2623, -166.558
4.18365, 2, -47.2546, -11.9877, 29.3618, 13.6664, 67.2623, -166.558
4.19205, 2, -47.2541, -11.9877, 29.3619, 13.6664, 67.2622, -166.558
4.1995, 2, -47.2538, -11.9877, 29.3619, 13.6664, 67.2622, -166.558
4.20817, 2, -47.2537, -11.9877, 29.3619, 13.6665, 67.2622, -166.558
4.21552, 2, -47.2537, -11.9878, 29.3619, 13.6665, 67.2622, -166.558
4.22366, 2, -47.2538, -11.9881, 29.3619, 13.6664, 67.2622, -166.558
4.23221, 2, -47.2541, -11.9884, 29.3619, 13.6664, 67.2622, -166.558
4.23966, 2, -47.2548, -11.9887, 29.3619, 13.6664, 67.2622, -166.558
4.24815, 2, -47.2554, -11.989, 29.3619, 13.6664, 67.2623, -166.558
4.25613, 2, -47.2557, -11.9891, 29.3619, 13.6664, 67.2623, -166.558
4.26361, 2, -47.2558, -11.9891, 29.3619, 13.6664, 67.2623, -166.558
4.27208, 2, -47.2558, -11.9892, 29.3619, 13.6664, 67.2622, -166.558
4.28006, 2, -47.2557, -11.9891, 29.3619, 13.6664, 67.2622, -166.558
4.28704, 2, -47.2556, -11.9891, 29.3619, 13.6664, 67.2623, -166.558
4.29621, 2, -47.2549, -11.989, 29.3619, 13.6665, 67.2622, -166.558
4.30303, 2, -47.2547, -11.989, 29.3619, 13.6664, 67.2622, -166.558
4.31103, 2, -47.2544, -11.989, 29.3619, 13.6664, 67.2623, -166.558
4.32037, 2, -47.2539, -11.9891, 29.3619, 13.6664, 67.2623, -166.558
4.32704, 2, -47.2539, -11.9891, 29.3619, 13.6664, 67.2623, -166.558
4.33504, 2, -47.2538, -11.9891, 29.3619, 13.6664, 67.2623, -166.558
4.34457, 2, -47.2538, -11.9892, 29.3619, 13.6664, 67.2623, -166.558
4.35315, 2, -47.2538, -11.9893, 29.3619, 13.6664, 67.2623, -166.558
4.35913, 2, -47.2538, -11.9893, 29.3619, 13.6664, 67.2623, -166.558
4.36864, 2, -47.2539, -11.9893, 29.3619, 13.6664, 67.2623, -166.557
4.37692, 2, -47.2539, -11.9892, 29.3619, 13.6664, 67.2623, -166.558
4.38457, 2, -47.2539, -11.9892, 29.3619, 13.6664, 67.2623, -166.558
4.39206, 2, -47.2539, -11.9892, 29.3619, 13.6663, 67.2623, -166.557
4.4011, 2, -47.2537, -11.9891, 29.3619, 13.6664, 67.2623, -166.558
4.40706, 2, -47.2537, -11.9891, 29.3619, 13.6664, 67.2623, -166.558
4.41605, 2, -47.2536, -11.989, 29.3619, 13.6664, 67.2623, -166.557
4.42407, 2, -47.2534, -11.989, 29.3619, 13.6664, 67.2623, -166.557
4.43108, 2, -47.2532, -11.989, 29.3619, 13.6664, 67.2623, -166.558
4.44007, 2, -47.2531, -11.9891, 29.3618, 13.6664, 67.2624, -166.558
4.44805, 2, -47.253, -11.9891, 29.3619, 13.6663, 67.2623, -166.558
4.45507, 2, -47.253, -11.9891, 29.3619, 13.6663, 67.2623, -166.558
4.46405, 2, -47.2529, -11.9891, 29.3619, 13.6663, 67.2623, -166.557
4.47206, 2, -47.2529, -11.9891, 29.3619, 13.6664, 67.2624, -166.557
4.47918, 2, -47.2528, -11.9891, 29.3619, 13.6664, 67.2624, -166.557
4.48707, 2, -47.2527, -11.989, 29.3619, 13.6664, 67.2623, -166.557
4.49608, 2, -47.2527, -11.989, 29.3619, 13.6663, 67.2624, -166.557
4.50305, 2, -47.2526, -11.989, 29.3619, 13.6663, 67.2624, -166.557
4.51206, 2, -47.2525, -11.9889, 29.3619, 13.6663, 67.2624, -166.557
4.52009, 2, -47.2524, -11.9889, 29.3619, 13.6663, 67.2624, -166.557
4.52804, 2, -47.2523, -11.9889, 29.3619, 13.6663, 67.2624, -166.557
4.53609, 2, -47.2522, -11.9889, 29.3619, 13.6663, 67.2624, -166.557
4.54303, 2, -47.2522, -11.9889, 29.3619, 13.6663, 67.2624, -166.557
4.55203, 2, -47.2521, -11.9889, 29.3619, 13.6663, 67.2624, -166.557
4.56006, 2, -47.252, -11.9889, 29.3619, 13.6663, 67.2625, -166.557
4.56806, 2, -47.2519, -11.9889, 29.3619, 13.6664, 67.2625, -166.557
4.57603, 2, -47.2518, -11.9889, 29.3619, 13.6664, 67.2625, -166.557
4.58406, 2, -47.2518, -11.9888, 29.3619, 13.6663, 67.2625, -166.557
4.59206, 2, -47.2516, -11.9888, 29.3619, 13.6663, 67.2625, -166.557
4.6001, 2, -47.2515, -11.9888, 29.3619, 13.6663, 67.2625, -166.557
4.60719, 2, -47.2514, -11.9887, 29.3619, 13.6663, 67.2625, -166.557
4.61514, 2, -47.2512, -11.9886, 29.3619, 13.6663, 67.2625, -166.557
4.62317, 2, -47.2512, -11.9886, 29.3619, 13.6663, 67.2625, -166.557
4.63117, 2, -47.2511, -11.9886, 29.3619, 13.6663, 67.2625, -166.557
4.63908, 2, -47.2509, -11.9886, 29.3619, 13.6663, 67.2625, -166.557
4.64709, 2, -47.2508, -11.9886, 29.3619, 13.6663, 67.2626, -166.557
4.65511, 2, -47.2507, -11.9886, 29.3619, 13.6663, 67.2626, -166.557
4.66314, 2, -47.2507, -11.9886, 29.3619, 13.6663, 67.2626, -166.557
4.67122, 2, -47.2506, -11.9886, 29.3619, 13.6663, 67.2626, -166.557
4.67928, 2, -47.2505, -11.9886, 29.3619, 13.6662, 67.2626, -166.557
4.68729, 2, -47.2504, -11.9886, 29.3619, 13.6662, 67.2627, -166.557
4.69543, 2, -47.2504, -11.9885, 29.3619, 13.6662, 67.2627, -166.557
4.70341, 2, -47.2503, -11.9885, 29.3619, 13.6662, 67.2627, -166.557
4.71144, 2, -47.2503, -11.9884, 29.3619, 13.6662, 67.2627, -166.557
4.71968, 2, -47.2502, -11.9883, 29.3618, 13.6662, 67.2627, -166.557
4.72815, 2, -47.2501, -11.9883, 29.3619, 13.6662, 67.2627, -166.557
4.73558, 2, -47.2501, -11.9883, 29.3619, 13.6662, 67.2627, -166.557
4.74413, 2, -47.25, -11.9883, 29.3619, 13.6662, 67.2627, -166.557
4.75158, 2, -47.2499, -11.9883, 29.3619, 13.6662, 67.2627, -166.557
4.7601, 2, -47.2498, -11.9883, 29.3619, 13.6661, 67.2627, -166.557
4.76782, 2, -47.2498, -11.9883, 29.3619, 13.6661, 67.2627, -166.557
4.77504, 2, -47.2497, -11.9882, 29.3619, 13.6661, 67.2627, -166.557
4.78407, 2, -47.2497, -11.9883, 29.3618, 13.6661, 67.2627, -166.557
4.79108, 2, -47.2497, -11.9883, 29.3618, 13.6661, 67.2627, -166.556
4.80022, 2, -47.2496, -11.9882, 29.3619, 13.6661, 67.2628, -166.557
4.80701, 2, -47.2496, -11.9882, 29.3619, 13.6662, 67.2628, -166.557
4.81636, 2, -47.2495, -11.9881, 29.3619, 13.6661, 67.2628, -166.556
4.82302, 2, -47.2495, -11.988, 29.3619, 13.666, 67.2628, -166.556
4.83245, 2, -47.2494, -11.988, 29.3618, 13.666, 67.2628, -166.556
4.83913, 2, -47.2494, -11.9879, 29.3618, 13.666, 67.2628, -166.556
4.84867, 2, -47.2493, -11.9879, 29.3618, 13.6661, 67.2628, -166.556
4.85657, 2, -47.2492, -11.9879, 29.3618, 13.6661, 67.2628, -166.556
4.86465, 2, -47.2491, -11.9879, 29.3618, 13.6661, 67.2628, -166.556
4.87265, 2, -47.2491, -11.9879, 29.3618, 13.666, 67.2628, -166.556
4.88063, 2, -47.249, -11.9879, 29.3618, 13.666, 67.2629, -166.556
4.88801, 2, -47.249, -11.9879, 29.3618, 13.666, 67.2629, -166.556
4.89607, 2, -47.249, -11.9879, 29.3618, 13.666, 67.2629, -166.556
4.90402, 2, -47.2489, -11.9879, 29.3618, 13.666, 67.2629, -166.556
4.91202, 2, -47.2489, -11.9878, 29.3619, 13.666, 67.2629, -166.556
4.92007, 2, -47.2489, -11.9878, 29.3619, 13.666, 67.2629, -166.556
4.92802, 2, -47.2489, -11.9877, 29.3619, 13.6659, 67.263, -166.556
4.93603, 2, -47.2488, -11.9877, 29.3619, 13.6659, 67.263, -166.556
4.94412, 2, -47.2487, -11.9876, 29.3619, 13.6659, 67.263, -166.556
4.95201, 2, -47.2486, -11.9876, 29.3619, 13.6659, 67.263, -166.556
4.96002, 2, -47.2486, -11.9876, 29.3618, 13.6659, 67.263, -166.556
4.96806, 2, -47.2485, -11.9876, 29.3618, 13.6659, 67.263, -166.556
4.97601, 2, -47.2485, -11.9876, 29.3618, 13.6659, 67.2631, -166.556
4.98402, 2, -47.2484, -11.9876, 29.3619, 13.6659, 67.2631, -166.556
4.99208, 2, -47.2484, -11.9876, 29.3619, 13.6659, 67.2631, -166.556
5.00003, 2, -47.2483, -11.9875, 29.3619, 13.6658, 67.2631, -166.556
5.00801, 2, -47.2483, -11.9875, 29.3619, 13.6658, 67.2631, -166.556
5.017, 2, -47.2483, -11.9875, 29.3619, 13.6658, 67.2631, -166.556
5.02403, 2, -47.2483, -11.9874, 29.3618, 13.6658, 67.2631, -166.556
5.03303, 2, -47.2482, -11.9874, 29.3618, 13.6658, 67.2631, -166.556
5.04012, 2, -47.2482, -11.9873, 29.3618, 13.6658, 67.2631, -166.556
5.04701, 2, -47.2481, -11.9873, 29.3618, 13.6658, 67.2631, -166.556
5.05638, 2, -47.248, -11.9873, 29.3618, 13.6658, 67.2631, -166.556
5.06507, 2, -47.2479, -11.9873, 29.3618, 13.6658, 67.2631, -166.556
5.07201, 2, -47.2479, -11.9873, 29.3618, 13.6658, 67.2631, -166.556
5.08008, 2, -47.2478, -11.9873, 29.3618, 13.6657, 67.2631, -166.556
5.088, 2, -47.2478, -11.9873, 29.3618, 13.6657, 67.2631, -166.556
5.09602, 2, -47.2478, -11.9872, 29.3618, 13.6657, 67.2631, -166.556
5.10408, 2, -47.2477, -11.9872, 29.3618, 13.6657, 67.2631, -166.556
5.11113, 2, -47.2476, -11.9872, 29.3618, 13.6657, 67.2631, -166.556
5.11923, 2, -47.2476, -11.9871, 29.3618, 13.6657, 67.2631, -166.556
5.12712, 2, -47.2476, -11.9871, 29.3618, 13.6657, 67.2631, -166.556
5.13534, 2, -47.2475, -11.987, 29.3619, 13.6657, 67.2631, -166.556
5.14313, 4, -47.2475, -11.987, 29.3619, 13.6656, 67.2631, -166.556
5.15104, 4, -47.2474, -11.987, 29.3618, 13.6656, 67.2631, -166.556
5.15912, 4, -47.2474, -11.987, 29.3618, 13.6656, 67.2631, -166.556
5.16714, 4, -47.2473, -11.9869, 29.3618, 13.6656, 67.2631, -166.556
5.1753, 4, -47.2473, -11.9869, 29.3618, 13.6656, 67.263, -166.556
5.18325, 4, -47.2472, -11.9869, 29.3618, 13.6656, 67.2631, -166.556
5.19133, 4, -47.2472, -11.9869, 29.3618, 13.6656, 67.2631, -166.556
5.1994, 4, -47.2471, -11.9869, 29.3618, 13.6656, 67.2631, -166.556
5.20745, 4, -47.2471, -11.9869, 29.3618, 13.6656, 67.2631, -166.556
5.21549, 4, -47.2471, -11.9869, 29.3618, 13.6656, 67.2631, -166.555
5.22416, 4, -47.247, -11.9868, 29.3618, 13.6655, 67.2631, -166.555
5.23163, 4, -47.247, -11.9868, 29.3618, 13.6655, 67.2631, -166.555
5.24023, 4, -47.247, -11.9867, 29.3618, 13.6655, 67.2631, -166.556
5.26664, 4, -47.247, -11.9867, 29.3618, 13.6654, 67.2632, -166.555
5.2693, 4, -47.2468, -11.9867, 29.3618, 13.6654, 67.2631, -166.555
5.27199, 4, -47.2468, -11.9867, 29.3618, 13.6654, 67.2631, -166.555
5.27393, 4, -47.2468, -11.9867, 29.3618, 13.6654, 67.2631, -166.555
5.28096, 4, -47.2468, -11.9867, 29.3618, 13.6654, 67.2631, -166.555
5.28804, 4, -47.2468, -11.9867, 29.3618, 13.6654, 67.2631, -166.555
5.295, 4, -47.2469, -11.9867, 29.3619, 13.6654, 67.2631, -166.555
5.3042, 4, -47.2487, -11.9877, 29.3628, 13.6659, 67.2634, -166.555
5.31106, 4, -47.25, -11.9887, 29.364, 13.6672, 67.2639, -166.555
5.32062, 4, -47.2558, -11.9946, 29.373, 13.6854, 67.2681, -166.552
5.3284, 4, -47.2615, -12.0014, 29.3859, 13.7141, 67.2754, -166.546
5.33507, 4, -47.2651, -12.0056, 29.3951, 13.7346, 67.2809, -166.542
5.34458, 5, -47.2794, -12.0229, 29.4354, 13.8262, 67.3059, -166.521
5.35257, 5, -47.2917, -12.0383, 29.4723, 13.9107, 67.3298, -166.501
5.36055, 5, -47.3058, -12.0564, 29.5162, 14.0123, 67.3584, -166.477
5.36878, 5, -47.3216, -12.0767, 29.5659, 14.1259, 67.3898, -166.45
5.37666, 5, -47.339, -12.0991, 29.6193, 14.2471, 67.4232, -166.421
5.3846, 5, -47.3483, -12.1112, 29.6469, 14.3722, 67.4583, -166.391
5.39313, 5, -47.3778, -12.1489, 29.7319, 14.4993, 67.4944, -166.361
5.39911, 5, -47.3881, -12.1619, 29.7607, 14.5632, 67.5122, -166.346
5.40904, 5, -47.42, -12.2014, 29.8477, 14.7559, 67.5649, -166.3
5.41506, 5, -47.4308, -12.2147, 29.8768, 14.8202, 67.5825, -166.285
5.42404, 5, -47.4525, -12.2416, 29.9353, 14.9489, 67.6181, -166.254
5.43204, 5, -47.4743, -12.2685, 29.9942, 15.0778, 67.6536, -166.223
5.44023, 5, -47.4962, -12.2954, 30.0534, 15.2067, 67.6885, -166.193
5.447, 5, -47.5181, -12.3224, 30.113, 15.3356, 67.7231, -166.163
5.45601, 5, -47.5399, -12.3494, 30.1727, 15.4648, 67.7584, -166.133
5.46401, 5, -47.5616, -12.3765, 30.2328, 15.594, 67.7936, -166.102
5.47199, 5, -47.5832, -12.4035, 30.293, 15.7231, 67.8279, -166.072
5.48, 5, -47.6047, -12.4307, 30.3533, 15.8522, 67.8619, -166.042
5.48814, 5, -47.6262, -12.4578, 30.414, 15.9813, 67.8963, -166.012
5.49584, 5, -47.648, -12.4853, 30.4749, 16.1105, 67.931, -165.982
5.50401, 5, -47.6701, -12.5128, 30.536, 16.2396, 67.965, -165.953
5.51204, 5, -47.6922, -12.5404, 30.5973, 16.3687, 67.9985, -165.923
5.52164, 5, -47.7148, -12.5681, 30.6588, 16.4978, 68.0494, -165.879
5.52802, 5, -47.7374, -12.596, 30.7206, 16.6269, 68.0665, -165.864
5.53644, 5, -47.7598, -12.624, 30.7827, 16.756, 68.1001, -165.835
5.54403, 5, -47.7822, -12.652, 30.8451, 16.8849, 68.1331, -165.806
5.55115, 5, -47.8048, -12.68, 30.9077, 17.014, 68.1659, -165.777
5.55899, 5, -47.8274, -12.708, 30.9705, 17.1431, 68.1991, -165.748
5.56882, 5, -47.85, -12.7362, 31.0334, 17.2723, 68.2322, -165.719
5.57517, 5, -47.8728, -12.7642, 31.0966, 17.4014, 68.2647, -165.69
5.583, 5, -47.8956, -12.7924, 31.16, 17.5305, 68.2969, -165.661
5.59203, 5, -47.9182, -12.8205, 31.2235, 17.6597, 68.3294, -165.633
5.60007, 5, -47.9407, -12.8488, 31.2874, 17.7888, 68.3622, -165.605
5.60712, 5, -47.9632, -12.8773, 31.3515, 17.918, 68.3945, -165.576
5.61516, 5, -47.9857, -12.9057, 31.4158, 18.0473, 68.4262, -165.548
5.62351, 5, -48.0083, -12.9344, 31.4804, 18.1766, 68.4578, -165.52
5.63199, 5, -48.0313, -12.9631, 31.5451, 18.3058, 68.4898, -165.491
5.63999, 5, -48.0545, -12.992, 31.6102, 18.435, 68.5217, -165.463
5.64807, 5, -48.0775, -13.0208, 31.6754, 18.5643, 68.553, -165.436
5.65521, 5, -48.1006, -13.0496, 31.7407, 18.6935, 68.584, -165.408
5.66394, 5, -48.1239, -13.0785, 31.8063, 18.8228, 68.6153, -165.381
5.6724, 5, -48.1471, -13.1076, 31.8721, 18.9522, 68.647, -165.353
5.67915, 5, -48.1702, -13.1365, 31.9381, 19.0815, 68.6782, -165.325
5.68719, 5, -48.1936, -13.1656, 32.0045, 19.2108, 68.7089, -165.298
5.69612, 5, -48.2168, -13.1947, 32.071, 19.3401, 68.7392, -165.271
5.70332, 5, -48.2399, -13.224, 32.1379, 19.4693, 68.7699, -165.244
5.71147, 5, -48.2631, -13.2532, 32.205, 19.5987, 68.8008, -165.217
5.72016, 5, -48.2865, -13.2825, 32.2723, 19.7281, 68.8312, -165.19
5.7275, 5, -48.3097, -13.3119, 32.3398, 19.8575, 68.8613, -165.163
5.7361, 5, -48.333, -13.3414, 32.4075, 19.9868, 68.8911, -165.136
5.74448, 5, -48.3565, -13.3709, 32.4754, 20.1162, 68.9215, -165.109
5.75154, 5, -48.3683, -13.3856, 32.5434, 20.2453, 68.9518, -165.083
5.76085, 5, -48.4033, -13.43, 32.6117, 20.3746, 68.9816, -165.056
5.76696, 5, -48.4151, -13.4448, 32.646, 20.4393, 68.9962, -165.043
5.77604, 5, -48.4506, -13.4894, 32.7493, 20.6334, 69.04, -165.004
5.78301, 5, -48.4624, -13.5042, 32.7838, 20.6982, 69.0547, -164.991
5.79216, 5, -48.4979, -13.5489, 32.8877, 20.8921, 69.0992, -164.951
5.79898, 5, -48.5098, -13.5638, 32.9224, 20.9569, 69.1138, -164.938
5.80819, 5, -48.5453, -13.6087, 33.0268, 21.151, 69.1569, -164.898
5.81498, 5, -48.5571, -13.6237, 33.0617, 21.2157, 69.1712, -164.885
5.82429, 5, -48.5925, -13.6688, 33.1667, 21.4099, 69.2146, -164.847
5.8322, 5, -48.6043, -13.6838, 33.2019, 21.4747, 69.2439, -164.821
5.84148, 5, -48.6399, -13.7292, 33.3076, 21.6691, 69.2724, -164.795
5.84698, 5, -48.6517, -13.7443, 33.3429, 21.7339, 69.2865, -164.782
5.85657, 5, -48.687, -13.7896, 33.4493, 21.928, 69.3284, -164.743
5.86462, 5, -48.7097, -13.8196, 33.5203, 22.0571, 69.3569, -164.716
5.87337, 5, -48.7317, -13.8495, 33.5912, 22.1855, 69.3858, -164.689
5.88234, 5, -48.753, -13.879, 33.6618, 22.3128, 69.4145, -164.661
5.88697, 5, -48.7632, -13.8937, 33.6968, 22.3759, 69.4288, -164.645
5.89599, 5, -48.7831, -13.9225, 33.7663, 22.5004, 69.4579, -164.612
5.90306, 5, -48.8018, -13.9507, 33.8347, 22.6222, 69.4878, -164.574
5.91338, 6, -48.8274, -13.9919, 33.9351, 22.7987, 69.5351, -164.509
5.91998, 6, -48.8352, -14.0052, 33.9679, 22.8558, 69.5511, -164.485
5.927, 6, -48.8495, -14.0313, 34.0323, 22.9672, 69.5834, -164.431
5.93598, 6, -48.8617, -14.0565, 34.0953, 23.0747, 69.6164, -164.372
5.94399, 6, -48.8719, -14.0809, 34.1567, 23.1785, 69.6509, -164.309
5.95101, 6, -48.8803, -14.1044, 34.2165, 23.2787, 69.6867, -164.238
5.96003, 6, -48.8869, -14.1269, 34.2748, 23.375, 69.7226, -164.163
5.967, 6, -48.8919, -14.1487, 34.3316, 23.4682, 69.7591, -164.082
5.97597, 6, -48.8954, -14.1696, 34.3871, 23.5583, 69.7971, -163.997
5.98398, 6, -48.8973, -14.1897, 34.4414, 23.6455, 69.836, -163.908
5.99097, 6, -48.8981, -14.2094, 34.4945, 23.7304, 69.8746, -163.814
5.99997, 7, -48.898, -14.2284, 34.5466, 23.8131, 69.9136, -163.718
6.00816, 7, -48.8968, -14.2467, 34.5979, 23.8944, 69.9539, -163.618
6.0168, 7, -48.8944, -14.2645, 34.6483, 23.9735, 69.9944, -163.516
6.02297, 7, -48.8911, -14.282, 34.6978, 24.0515, 70.0349, -163.411
6.032, 7, -48.8869, -14.2988, 34.7465, 24.1274, 70.0764, -163.303
6.04005, 7, -48.8818, -14.3151, 34.7945, 24.2023, 70.1189, -163.194
6.04801, 7, -48.8758, -14.3311, 34.8416, 24.2752, 70.161, -163.081
6.05814, 7, -48.8655, -14.3545, 34.911, 24.3828, 70.2249, -162.91
6.06304, 7, -48.8617, -14.3619, 34.9339, 24.4182, 70.2467, -162.852
6.07206, 7, -48.8538, -14.3764, 34.9791, 24.4884, 70.2901, -162.734
6.07997, 7, -48.8454, -14.3909, 35.0238, 24.5571, 70.3332, -162.615
6.08718, 8, -48.8363, -14.4052, 35.068, 24.6262, 70.3775, -162.494
6.09514, 8, -48.8265, -14.419, 35.1119, 24.6939, 70.4221, -162.373
6.10309, 8, -48.8164, -14.4324, 35.1552, 24.7621, 70.4662, -162.251
6.112, 8, -48.8056, -14.4457, 35.1983, 24.8289, 70.5109, -162.128
6.12003, 8, -48.7944, -14.4591, 35.241, 24.8962, 70.5565, -162.004
6.12798, 8, -48.7828, -14.4722, 35.2834, 24.9627, 70.6014, -161.88
6.13604, 8, -48.7711, -14.4849, 35.3255, 25.0293, 70.6467, -161.754
6.14397, 8, -48.7592, -14.4974, 35.3672, 25.0954, 70.693, -161.628
6.15198, 8, -48.747, -14.5098, 35.4087, 25.1614, 70.7385, -161.502
6.16003, 8, -48.7347, -14.5223, 35.45, 25.2272, 70.7838, -161.375
6.16797, 8, -48.7221, -14.5345, 35.491, 25.2932, 70.8303, -161.248
6.176, 9, -48.7094, -14.5462, 35.532, 25.3593, 70.8762, -161.121
6.18417, 9, -48.6966, -14.558, 35.5728, 25.425, 70.9219, -160.994
6.19197, 9, -48.6836, -14.5697, 35.6134, 25.4915, 70.9684, -160.868
6.20002, 9, -48.6705, -14.5815, 35.654, 25.5575, 71.0148, -160.741
6.20801, 9, -48.6573, -14.5932, 35.6943, 25.6244, 71.0602, -160.614
6.21604, 9, -48.644, -14.6046, 35.7346, 25.6905, 71.1068, -160.487
6.2244, 9, -48.6305, -14.6159, 35.7748, 25.7577, 71.1534, -160.36
6.23216, 9, -48.6171, -14.6272, 35.8147, 25.8244, 71.1992, -160.233
6.23977, 9, -48.6036, -14.6386, 35.8546, 25.892, 71.2459, -160.107
6.24847, 9, -48.59, -14.6502, 35.8944, 25.9593, 71.2929, -159.98
6.25553, 9, -48.5832, -14.6614, 35.9342, 26.027, 71.3388, -159.854
6.26422, 10, -48.5628, -14.6724, 35.974, 26.0949, 71.3853, -159.728
6.27251, 10, -48.5491, -14.6835, 36.0137, 26.163, 71.4324, -159.602
6.279, 10, -48.5424, -14.6891, 36.0335, 26.1974, 71.4555, -159.539
6.28828, 10, -48.522, -14.7059, 36.093, 26.2998, 71.5249, -159.351
6.29497, 10, -48.5152, -14.7116, 36.1128, 26.3345, 71.5485, -159.288
6.30298, 10, -48.5015, -14.7227, 36.1523, 26.4033, 71.5953, -159.162
6.31397, 10, -48.4808, -14.739, 36.2117, 26.5076, 71.6642, -158.975
6.32023, 10, -48.4669, -14.7501, 36.2512, 26.5769, 71.711, -158.851
6.32698, 10, -48.46, -14.7556, 36.2709, 26.6121, 71.7341, -158.789
6.33743, 10, -48.4393, -14.7725, 36.3301, 26.717, 71.8029, -158.603
6.34302, 10, -48.4324, -14.7781, 36.3498, 26.7524, 71.8262, -158.541
6.35258, 11, -48.4118, -14.7946, 36.4087, 26.8581, 71.8958, -158.356
6.36152, 11, -48.3979, -14.8056, 36.448, 26.9292, 71.9413, -158.233
6.36852, 11, -48.3841, -14.8168, 36.4872, 26.9999, 71.9878, -158.11
6.37656, 11, -48.3703, -14.8279, 36.5264, 27.0715, 72.0338, -157.987
6.3856, 11, -48.3634, -14.8392, 36.5655, 27.1425, 72.0794, -157.864
6.39254, 11, -48.3495, -14.8448, 36.5851, 27.1783, 72.1258, -157.742
6.4, 11, -48.3354, -14.8557, 36.6243, 27.2499, 72.1491, -157.681
6.40698, 11, -48.3213, -14.8666, 36.6634, 27.3218, 72.1949, -157.559
6.41701, 11, -48.3, -14.8831, 36.7219, 27.4297, 72.2635, -157.377
6.42295, 11, -48.2929, -14.8887, 36.7415, 27.466, 72.2867, -157.316
6.43216, 11, -48.2786, -14.8998, 36.7804, 27.5383, 72.3324, -157.195
6.44019, 12, -48.2643, -14.9107, 36.8192, 27.6109, 72.3777, -157.074
6.44797, 12, -48.2499, -14.9215, 36.8581, 27.6835, 72.4238, -156.952
6.45505, 12, -48.2355, -14.9325, 36.8969, 27.7562, 72.4696, -156.832
6.46401, 12, -48.2211, -14.9435, 36.9356, 27.8291, 72.5146, -156.711
6.47197, 12, -48.2065, -14.9547, 36.9743, 27.902, 72.5603, -156.59
6.48182, 12, -48.1845, -14.9713, 37.032, 28.0113, 72.6286, -156.41
6.48796, 12, -48.177, -14.9767, 37.0512, 28.048, 72.651, -156.35
6.49496, 12, -48.162, -14.9876, 37.0897, 28.1211, 72.6963, -156.231
6.50476, 12, -48.1469, -14.9986, 37.128, 28.1943, 72.7422, -156.111
6.51103, 12, -48.1318, -15.0096, 37.166, 28.2674, 72.7871, -155.991
6.52002, 12, -48.1165, -15.0208, 37.2042, 28.3409, 72.8319, -155.871
6.53046, 13, -48.0932, -15.0372, 37.2612, 28.451, 72.9, -155.692
6.53611, 13, -48.0854, -15.0425, 37.2802, 28.4878, 72.9223, -155.633
6.544, 13, -48.0698, -15.0534, 37.3181, 28.5611, 72.9667, -155.514
6.552, 13, -48.054, -15.0643, 37.3559, 28.6347, 73.0122, -155.395
6.55998, 13, -48.0381, -15.0753, 37.3935, 28.708, 73.0571, -155.276
6.56797, 13, -48.022, -15.0864, 37.4313, 28.7816, 73.1013, -155.157
6.57597, 13, -48.0056, -15.0972, 37.4688, 28.8548, 73.1464, -155.038
6.5831, 13, -47.9891, -15.1078, 37.5062, 28.9285, 73.1914, -154.919
6.59202, 13, -47.9725, -15.1186, 37.5436, 29.0016, 73.2357, -154.801
6.59995, 13, -47.9559, -15.1295, 37.5809, 29.0753, 73.2804, -154.682
6.60828, 13, -47.939, -15.1405, 37.618, 29.1483, 73.3256, -154.563
6.61609, 14, -47.9221, -15.1514, 37.6551, 29.222, 73.3696, -154.445
6.62342, 14, -47.905, -15.162, 37.692, 29.2949, 73.4137, -154.327
6.63106, 14, -47.8879, -15.1727, 37.7288, 29.3687, 73.4584, -154.209
6.63908, 14, -47.8706, -15.1835, 37.7656, 29.4416, 73.5025, -154.091
6.64796, 14, -47.8529, -15.1944, 37.8022, 29.5152, 73.5463, -153.973
6.65596, 14, -47.8351, -15.2053, 37.8386, 29.5881, 73.591, -153.855
6.66405, 14, -47.8172, -15.2161, 37.875, 29.6615, 73.6354, -153.737
6.67203, 14, -47.7991, -15.2267, 37.9113, 29.734, 73.6788, -153.619
6.67999, 14, -47.7808, -15.2373, 37.9475, 29.8073, 73.723, -153.502
6.68803, 14, -47.7624, -15.248, 37.9837, 29.8799, 73.7673, -153.384
6.69596, 14, -47.7439, -15.2588, 38.0196, 29.9529, 73.8108, -153.266
6.70507, 15, -47.7254, -15.2696, 38.0555, 30.0254, 73.8545, -153.149
6.71373, 15, -47.7066, -15.2803, 38.0914, 30.0984, 73.8989, -153.032
6.71947, 15, -47.6875, -15.2907, 38.127, 30.1708, 73.9424, -152.914
6.72812, 15, -47.6682, -15.3013, 38.1625, 30.2437, 73.9856, -152.797
6.73629, 15, -47.6489, -15.312, 38.1981, 30.3159, 74.0297, -152.68
6.74362, 15, -47.6293, -15.3229, 38.2334, 30.3885, 74.0732, -152.563
6.75547, 15, -47.6094, -15.3337, 38.2686, 30.497, 74.1378, -152.388
6.76012, 15, -47.5896, -15.3443, 38.3038, 30.5331, 74.1597, -152.329
6.76801, 15, -47.5696, -15.3549, 38.3388, 30.6049, 74.2033, -152.212
6.77645, 15, -47.5596, -15.3603, 38.3562, 30.6412, 74.2247, -152.096
6.78396, 15, -47.5392, -15.3764, 38.4085, 30.7489, 74.2886, -151.98
6.79101, 16, -47.5186, -15.3819, 38.4259, 30.7851, 74.3103, -151.922
6.80071, 16, -47.4876, -15.3982, 38.4777, 30.8927, 74.3746, -151.748
6.80809, 16, -47.4667, -15.4089, 38.5122, 30.9649, 74.4168, -151.633
6.81499, 16, -47.4562, -15.4142, 38.5295, 31.0006, 74.4381, -151.575
6.82513, 16, -47.4245, -15.4304, 38.581, 31.1087, 74.5024, -151.401
6.83095, 16, -47.4139, -15.4358, 38.5981, 31.1442, 74.5233, -151.344
6.84118, 16, -47.3817, -15.4525, 38.6494, 31.2519, 74.586, -151.171
6.847, 16, -47.3708, -15.458, 38.6665, 31.2874, 74.6074, -151.113
6.85672, 16, -47.3382, -15.4741, 38.7173, 31.395, 74.6701, -150.941
6.86548, 16, -47.3163, -15.485, 38.7513, 31.4659, 74.7114, -150.827
6.87101, 16, -47.3052, -15.4905, 38.7683, 31.5018, 74.7325, -150.77
6.8808, 17, -47.2718, -15.5072, 38.8188, 31.6085, 74.7955, -150.598
6.8878, 17, -47.2607, -15.5129, 38.8356, 31.6443, 74.816, -150.541
6.89494, 17, -47.2381, -15.5241, 38.8694, 31.7154, 74.8569, -150.427
6.90395, 17, -47.2153, -15.5351, 38.9029, 31.7866, 74.8985, -150.313
6.91196, 17, -47.1924, -15.5463, 38.9364, 31.8578, 74.9398, -150.2
6.91902, 17, -47.1695, -15.5577, 38.9699, 31.9289, 74.9803, -150.086
6.9301, 17, -47.1346, -15.575, 39.0198, 32.0352, 75.0418, -149.917
6.93496, 17, -47.1229, -15.5808, 39.0364, 32.0708, 75.0624, -149.861
6.94394, 17, -47.0994, -15.5922, 39.0697, 32.1417, 75.1027, -149.748
6.95195, 17, -47.0757, -15.6036, 39.1028, 32.2125, 75.1424, -149.636
6.96, 17, -47.0516, -15.6151, 39.1358, 32.2833, 75.1827, -149.524
6.96794, 18, -47.0274, -15.6269, 39.1687, 32.3539, 75.2229, -149.412
6.97776, 18, -47.0034, -15.6388, 39.2017, 32.4246, 75.2621, -149.301
6.98315, 18, -46.9791, -15.6506, 39.2346, 32.4952, 75.3014, -149.189
6.99597, 18, -46.9424, -15.6681, 39.2838, 32.6007, 75.361, -149.022
6.99996, 18, -46.9302, -15.6741, 39.3002, 32.6361, 75.3805, -148.967
7.00694, 18, -46.9054, -15.6862, 39.3329, 32.7067, 75.419, -148.856
7.01597, 18, -46.8803, -15.6985, 39.3655, 32.777, 75.4577, -148.746
7.02719, 18, -46.8427, -15.7169, 39.4144, 32.8826, 75.516, -148.581
7.03095, 18, -46.83, -15.7229, 39.4307, 32.9178, 75.5351, -148.526
7.03996, 18, -46.8047, -15.7351, 39.4631, 32.9884, 75.573, -148.417
7.04802, 18, -46.7792, -15.7475, 39.4955, 33.0584, 75.6112, -148.307
7.05614, 19, -46.7534, -15.7603, 39.528, 33.1287, 75.6496, -148.198
7.06325, 19, -46.7275, -15.7729, 39.5603, 33.1983, 75.6871, -148.089
7.07095, 19, -46.7015, -15.7854, 39.5925, 33.2686, 75.7242, -147.981
7.07995, 19, -46.6754, -15.7981, 39.6248, 33.3383, 75.7617, -147.873
7.08802, 19, -46.649, -15.811, 39.6571, 33.4085, 75.7992, -147.764
7.09594, 19, -46.6223, -15.8242, 39.6891, 33.4779, 75.836, -147.657
7.10402, 19, -46.5954, -15.8372, 39.7211, 33.548, 75.8724, -147.55
7.11193, 19, -46.5682, -15.8502, 39.7533, 33.6173, 75.9093, -147.443
7.11993, 19, -46.5412, -15.8634, 39.7852, 33.6873, 75.9462, -147.336
7.12802, 19, -46.514, -15.8768, 39.817, 33.7565, 75.9821, -147.23
7.13614, 20, -46.4867, -15.8905, 39.8489, 33.8263, 76.0176, -147.124
7.14318, 20, -46.4592, -15.9039, 39.8808, 33.8954, 76.0535, -147.018
7.15175, 20, -46.4314, -15.9174, 39.9125, 33.9649, 76.0895, -146.912
7.16016, 20, -46.4034, -15.9313, 39.9442, 34.0337, 76.1247, -146.806
7.16902, 20, -46.3754, -15.9453, 39.976, 34.103, 76.1594, -146.701
7.17594, 20, -46.3472, -15.9593, 40.0076, 34.1716, 76.1946, -146.596
7.18402, 20, -46.3189, -15.9732, 40.0391, 34.2409, 76.2299, -146.492
7.19195, 20, -46.2904, -15.9872, 40.0706, 34.3094, 76.2643, -146.387
7.2011, 20, -46.2617, -16.0015, 40.1021, 34.3784, 76.2983, -146.283
7.20797, 20, -46.2328, -16.016, 40.1335, 34.4469, 76.3323, -146.18
7.2162, 20, -46.2039, -16.0302, 40.1647, 34.5157, 76.3667, -146.076
7.22343, 20, -46.1746, -16.0446, 40.1961, 34.584, 76.4005, -145.972
7.23544, 21, -46.1452, -16.0593, 40.2428, 34.6868, 76.4502, -145.818
7.24015, 21, -46.1154, -16.0742, 40.2584, 34.7207, 76.4668, -145.766
7.24754, 21, -46.0854, -16.0889, 40.2895, 34.7889, 76.5004, -145.663
7.2561, 21, -46.0554, -16.1037, 40.3205, 34.8571, 76.5336, -145.561
7.26445, 21, -46.0253, -16.1187, 40.3513, 34.9246, 76.5662, -145.459
7.272, 21, -45.9949, -16.1339, 40.3821, 34.9928, 76.5982, -145.357
7.28066, 21, -45.9643, -16.149, 40.4129, 35.06, 76.6306, -145.256
7.28815, 21, -45.9334, -16.1641, 40.4435, 35.1279, 76.6634, -145.155
7.29495, 21, -45.918, -16.1717, 40.4588, 35.1614, 76.6795, -145.104
7.30504, 21, -45.8715, -16.1951, 40.5044, 35.2627, 76.727, -144.953
7.31095, 21, -45.8559, -16.2028, 40.5197, 35.2962, 76.7428, -144.903
7.32013, 22, -45.8086, -16.2259, 40.5652, 35.397, 76.7904, -144.752
7.32708, 22, -45.7928, -16.2337, 40.5803, 35.4304, 76.8063, -144.702
7.33629, 22, -45.745, -16.2575, 40.6256, 35.5306, 76.853, -144.551
7.34304, 22, -45.7289, -16.2654, 40.6407, 35.564, 76.8682, -144.502
7.35355, 22, -45.6805, -16.289, 40.6855, 35.6635, 76.9138, -144.352
7.36045, 22, -45.6479, -16.305, 40.7154, 35.7299, 76.9447, -144.253
7.36857, 22, -45.6151, -16.3213, 40.7452, 35.7958, 76.9751, -144.153
7.37656, 22, -45.5822, -16.3374, 40.7748, 35.8621, 77.0049, -144.054
7.38454, 22, -45.549, -16.3534, 40.8043, 35.9275, 77.0345, -143.955
7.39258, 22, -45.5324, -16.3615, 40.8337, 35.9935, 77.0643, -143.856
7.40146, 23, -45.482, -16.3861, 40.8631, 36.0583, 77.0944, -143.757
7.4087, 23, -45.4651, -16.3942, 40.8777, 36.1242, 77.124, -143.658
7.416, 23, -45.4313, -16.4104, 40.9067, 36.1566, 77.1386, -143.609
7.42392, 23, -45.3973, -16.4269, 40.9357, 36.2215, 77.1673, -143.51
7.43192, 23, -45.3631, -16.4436, 40.9647, 36.2868, 77.1958, -143.412
7.43996, 23, -45.3284, -16.4601, 40.9935, 36.3509, 77.2249, -143.314
7.44794, 23, -45.2937, -16.4766, 41.0219, 36.416, 77.2539, -143.216
7.45595, 23, -45.2588, -16.4932, 41.0504, 36.4798, 77.2822, -143.118
7.46394, 23, -45.2236, -16.5101, 41.0788, 36.5444, 77.3101, -143.021
7.47198, 23, -45.1881, -16.5267, 41.107, 36.6078, 77.338, -142.924
7.47992, 23, -45.1523, -16.5433, 41.1349, 36.6715, 77.3663, -142.827
7.48789, 24, -45.1165, -16.5603, 41.1628, 36.7349, 77.3947, -142.729
7.496, 24, -45.0804, -16.5773, 41.1906, 36.7979, 77.4225, -142.632
7.50411, 24, -45.0441, -16.5941, 41.2182, 36.8613, 77.4497, -142.535
7.5109, 24, -45.0076, -16.6109, 41.2457, 36.9235, 77.4768, -142.438
7.51994, 24, -44.9708, -16.628, 41.273, 36.9865, 77.504, -142.341
7.52793, 24, -44.9339, -16.645, 41.3002, 37.0484, 77.5316, -142.245
7.53692, 24, -44.8968, -16.6619, 41.3273, 37.1109, 77.5586, -142.148
7.54396, 24, -44.8593, -16.679, 41.3541, 37.1726, 77.5853, -142.052
7.55293, 24, -44.8216, -16.6962, 41.3807, 37.2341, 77.6115, -141.956
7.56002, 24, -44.7837, -16.7131, 41.4073, 37.2957, 77.6379, -141.86
7.56794, 24, -44.7456, -16.73, 41.4336, 37.3565, 77.6646, -141.764
7.57658, 25, -44.7071, -16.7472, 41.4597, 37.4179, 77.6912, -141.668
7.58408, 25, -44.6683, -16.7644, 41.4857, 37.478, 77.7171, -141.571
7.59193, 25, -44.6294, -16.7813, 41.5115, 37.5386, 77.7426, -141.475
7.6, 25, -44.5903, -16.7985, 41.5372, 37.5986, 77.768, -141.379
7.60792, 25, -44.5509, -16.8158, 41.5626, 37.6581, 77.7935, -141.283
7.61593, 25, -44.5112, -16.8329, 41.5878, 37.7182, 77.8194, -141.187
7.62645, 25, -44.4515, -16.8583, 41.6254, 37.8067, 77.8574, -141.044
7.63193, 25, -44.4314, -16.867, 41.6379, 37.8366, 77.8698, -140.996
7.64, 25, -44.391, -16.8841, 41.6626, 37.8953, 77.8945, -140.901
7.64792, 25, -44.3504, -16.901, 41.687, 37.9539, 77.9191, -140.806
7.65592, 25, -44.3096, -16.918, 41.7112, 38.0126, 77.9441, -140.71
7.66398, 26, -44.2686, -16.9352, 41.7353, 38.0701, 77.9693, -140.615
7.67192, 26, -44.2272, -16.9522, 41.7593, 38.1284, 77.9939, -140.52
7.67993, 26, -44.1856, -16.969, 41.783, 38.1857, 78.0182, -140.424
7.68899, 26, -44.1439, -16.986, 41.8064, 38.243, 78.042, -140.329
7.69593, 26, -44.1018, -17.0031, 41.8296, 38.3002, 78.0658, -140.234
7.70408, 26, -44.0594, -17.02, 41.8527, 38.3563, 78.0898, -140.138
7.71195, 26, -44.0169, -17.0367, 41.8755, 38.4134, 78.114, -140.043
7.72023, 26, -43.9742, -17.0538, 41.8981, 38.4692, 78.1377, -139.948
7.72737, 26, -43.9311, -17.0707, 41.9205, 38.525, 78.1611, -139.853
7.73602, 26, -43.8878, -17.0874, 41.9428, 38.581, 78.1842, -139.758
7.7444, 26, -43.8443, -17.1041, 41.965, 38.6356, 78.2073, -139.663
7.75187, 27, -43.8006, -17.1209, 41.9867, 38.6911, 78.2306, -139.567
7.75976, 27, -43.7565, -17.1376, 42.0081, 38.746, 78.2543, -139.473
7.76831, 27, -43.7122, -17.154, 42.0295, 38.8002, 78.2776, -139.377
7.77548, 27, -43.6899, -17.1623, 42.0401, 38.8277, 78.2891, -139.282
7.78414, 27, -43.6228, -17.1875, 42.0716, 38.9087, 78.323, -139.187
7.79095, 27, -43.6003, -17.1958, 42.082, 38.9354, 78.3341, -139.139
7.80051, 27, -43.5325, -17.2203, 42.1129, 39.0161, 78.3676, -138.996
7.80691, 27, -43.5098, -17.2285, 42.123, 39.0424, 78.379, -138.949
7.81607, 27, -43.4412, -17.2533, 42.153, 39.122, 78.4131, -138.806
7.82291, 27, -43.4182, -17.2614, 42.1629, 39.1484, 78.4243, -138.759
7.83091, 27, -43.372, -17.2775, 42.1826, 39.2002, 78.4464, -138.664
7.84029, 28, -43.3023, -17.3019, 42.2119, 39.2786, 78.4791, -138.522
7.84699, 28, -43.2789, -17.3101, 42.2214, 39.3045, 78.4899, -138.475
7.86132, 28, -43.185, -17.342, 42.2593, 39.4071, 78.5339, -138.285
7.86285, 28, -43.185, -17.342, 42.2593, 39.4071, 78.5339, -138.285
7.87097, 28, -43.1377, -17.358, 42.2777, 39.4581, 78.5562, -138.191
7.88062, 28, -43.0663, -17.3821, 42.3053, 39.5335, 78.5886, -138.048
7.88849, 28, -43.0423, -17.3978, 42.3232, 39.5842, 78.6098, -137.954
7.89656, 28, -42.9942, -17.4056, 42.3409, 39.6337, 78.6307, -137.859
7.90697, 28, -42.9217, -17.4294, 42.3584, 39.6837, 78.6517, -137.764
7.91299, 28, -42.8729, -17.4452, 42.3756, 39.7335, 78.673, -137.669
7.91994, 28, -42.8484, -17.4529, 42.384, 39.7579, 78.6837, -137.622
7.92807, 29, -42.7993, -17.4682, 42.4008, 39.8066, 78.705, -137.527
7.93518, 29, -42.75, -17.4838, 42.4176, 39.8558, 78.7259, -137.433
7.94514, 29, -42.6755, -17.507, 42.4422, 39.9277, 78.7568, -137.291
7.95091, 29, -42.6505, -17.5145, 42.4503, 39.9517, 78.7669, -137.244
7.95992, 29, -42.6005, -17.5297, 42.4662, 40.0001, 78.7871, -137.149
7.96791, 29, -42.5503, -17.545, 42.4819, 40.0473, 78.8077, -137.054
7.976, 29, -42.4998, -17.5602, 42.4971, 40.094, 78.8284, -136.959
7.98407, 29, -42.4489, -17.5752, 42.5121, 40.1415, 78.8492, -136.865
7.99193, 29, -42.398, -17.59, 42.5273, 40.1879, 78.8696, -136.77
7.99999, 29, -42.3467, -17.6049, 42.5421, 40.234, 78.8896, -136.675
8.0079, 29, -42.2951, -17.6198, 42.5565, 40.2806, 78.9093, -136.581
8.01588, 30, -42.2434, -17.6344, 42.5707, 40.3263, 78.9289, -136.486
8.02467, 30, -42.1914, -17.6489, 42.5848, 40.3712, 78.9486, -136.392
8.03378, 30, -42.1392, -17.6634, 42.5985, 40.4396, 78.9786, -136.25
8.0399, 30, -42.0869, -17.6781, 42.6119, 40.462, 78.9886, -136.203
8.04801, 30, -42.0343, -17.6925, 42.6252, 40.5062, 79.0084, -136.109
8.05697, 30, -41.9814, -17.7066, 42.6384, 40.5509, 79.0279, -136.014
8.064, 30, -41.9282, -17.7207, 42.6512, 40.5952, 79.0472, -135.92
8.07519, 30, -41.8481, -17.7421, 42.6697, 40.6601, 79.0757, -135.778
8.0789, 30, -41.8213, -17.7491, 42.6758, 40.682, 79.0853, -135.731
8.08792, 30, -41.7675, -17.7629, 42.6878, 40.7258, 79.1046, -135.636
8.09598, 30, -41.7135, -17.7767, 42.6996, 40.7685, 79.1242, -135.542
8.10414, 31, -41.6592, -17.7906, 42.7111, 40.8109, 79.1436, -135.448
8.11198, 31, -41.6049, -17.8045, 42.7224, 40.8538, 79.1627, -135.353
8.11991, 31, -41.5501, -17.818, 42.7335, 40.8959, 79.1814, -135.259
8.12793, 31, -41.4952, -17.8313, 42.7444, 40.9372, 79.1998, -135.165
8.13594, 31, -41.44, -17.8447, 42.7551, 40.9789, 79.2181, -135.071
8.14398, 31, -41.3846, -17.8582, 42.7655, 41.0205, 79.2365, -134.976
8.15199, 31, -41.329, -17.8715, 42.7757, 41.061, 79.255, -134.882
8.15991, 31, -41.2732, -17.8844, 42.7855, 41.1015, 79.2738, -134.787
8.1679, 31, -41.2172, -17.8974, 42.7951, 41.1425, 79.2924, -134.693
8.17598, 31, -41.1611, -17.9104, 42.8045, 41.1828, 79.3107, -134.598
8.18396, 31, -41.1047, -17.9234, 42.8135, 41.2221, 79.3287, -134.504
8.19194, 32, -41.048, -17.9362, 42.8224, 41.262, 79.3465, -134.41
8.20006, 32, -40.9913, -17.9487, 42.8309, 41.302, 79.3642, -134.316
8.2087, 32, -40.9341, -17.9612, 42.8394, 41.3409, 79.3821, -134.222
8.21599, 32, -40.8768, -17.9737, 42.8477, 41.3795, 79.4, -134.128
8.224, 32, -40.8194, -17.9863, 42.8557, 41.4186, 79.4182, -134.034
8.2321, 32, -40.7616, -17.9986, 42.8635, 41.4573, 79.4363, -133.94
8.2394, 32, -40.7037, -18.0106, 42.8711, 41.4949, 79.454, -133.846
8.24914, 32, -40.6455, -18.0227, 42.8785, 41.5324, 79.4714, -133.752
8.25552, 32, -40.5872, -18.0347, 42.8855, 41.5705, 79.4885, -133.658
8.26414, 32, -40.5286, -18.0468, 42.8921, 41.6079, 79.5055, -133.564
8.27168, 32, -40.4992, -18.0528, 42.8954, 41.6263, 79.5224, -133.47
8.27982, 33, -40.4107, -18.0701, 42.905, 41.6812, 79.5395, -133.377
8.28792, 33, -40.3515, -18.0815, 42.9111, 41.7184, 79.5567, -133.283
8.29598, 33, -40.292, -18.093, 42.917, 41.7547, 79.574, -133.19
8.30405, 33, -40.2325, -18.1045, 42.9227, 41.7901, 79.5912, -133.096
8.31089, 33, -40.2028, -18.1103, 42.9254, 41.8078, 79.5996, -133.049
8.32047, 33, -40.113, -18.127, 42.9332, 41.8615, 79.6244, -132.909
8.32694, 33, -40.083, -18.1325, 42.9356, 41.8793, 79.6326, -132.862
8.3363, 33, -39.9925, -18.149, 42.9425, 41.9314, 79.6569, -132.721
8.3429, 33, -39.9622, -18.1545, 42.9447, 41.9485, 79.665, -132.675
8.35241, 33, -39.871, -18.1711, 42.951, 42.0006, 79.6897, -132.534
8.36046, 33, -39.8098, -18.1818, 42.955, 42.035, 79.7065, -132.441
8.36862, 34, -39.7486, -18.1922, 42.9588, 42.0684, 79.7232, -132.347
8.37688, 34, -39.6871, -18.2026, 42.9625, 42.1017, 79.7396, -132.254
8.38438, 34, -39.6564, -18.2078, 42.9642, 42.1355, 79.7557, -132.161
8.39089, 34, -39.5946, -18.218, 42.9675, 42.1524, 79.7636, -132.114
8.40051, 34, -39.5326, -18.2284, 42.9704, 42.202, 79.7871, -131.975
8.40851, 34, -39.4705, -18.2386, 42.9732, 42.2181, 79.7948, -131.928
8.41597, 34, -39.4081, -18.2484, 42.9757, 42.2505, 79.8103, -131.835
8.42526, 34, -39.3143, -18.2628, 42.9789, 42.2996, 79.8338, -131.696
8.43095, 34, -39.283, -18.2677, 42.98, 42.3157, 79.8418, -131.649
8.43994, 34, -39.2201, -18.2773, 42.9818, 42.3472, 79.8577, -131.556
8.4479, 34, -39.1571, -18.287, 42.9834, 42.3783, 79.8736, -131.463
8.45504, 35, -39.0937, -18.2966, 42.9847, 42.4096, 79.8891, -131.37
8.46395, 35, -39.0303, -18.306, 42.9858, 42.441, 79.9045, -131.277
8.4719, 35, -38.9665, -18.3151, 42.9867, 42.4718, 79.9197, -131.184
8.47995, 35, -38.9026, -18.324, 42.9874, 42.502, 79.9347, -131.091
8.48792, 35, -38.8386, -18.3329, 42.9878, 42.5319, 79.9497, -130.999
8.496, 35, -38.7742, -18.3418, 42.988, 42.5622, 79.9646, -130.906
8.506, 35, -38.6775, -18.3552, 42.9881, 42.6073, 79.9873, -130.768
8.51189, 35, -38.6452, -18.3595, 42.9881, 42.6218, 79.995, -130.721
8.51996, 35, -38.5803, -18.3681, 42.9881, 42.6507, 80.0104, -130.629
8.52792, 35, -38.5154, -18.3763, 42.988, 42.6793, 80.0256, -130.536
8.53589, 35, -38.4502, -18.3844, 42.9879, 42.7083, 80.0405, -130.444
8.54401, 36, -38.3849, -18.3926, 42.9876, 42.7372, 80.0551, -130.351
8.55303, 36, -38.3195, -18.4007, 42.9871, 42.7653, 80.0694, -130.258
8.56296, 36, -38.2208, -18.4127, 42.9859, 42.8068, 80.0907, -130.119
8.56793, 36, -38.1878, -18.4168, 42.9853, 42.8205, 80.0978, -130.073
8.57592, 36, -38.1217, -18.4246, 42.9841, 42.8483, 80.1121, -129.981
8.58403, 36, -38.0554, -18.4322, 42.9825, 42.876, 80.1265, -129.889
8.59189, 36, -37.989, -18.4394, 42.9806, 42.9031, 80.1411, -129.797
8.5999, 36, -37.9224, -18.4466, 42.9785, 42.9295, 80.1557, -129.705
8.60797, 36, -37.8556, -18.4538, 42.976, 42.9556, 80.1702, -129.613
8.61589, 36, -37.7886, -18.4609, 42.9732, 42.9818, 80.1845, -129.522
8.6247, 36, -37.7215, -18.4679, 42.9702, 43.0083, 80.1985, -129.43
8.63245, 37, -37.6541, -18.475, 42.9669, 43.0344, 80.2123, -129.338
8.63988, 37, -37.5867, -18.482, 42.9632, 43.0599, 80.226, -129.246
8.64796, 37, -37.5191, -18.4888, 42.9594, 43.0848, 80.2394, -129.154
8.65591, 37, -37.4512, -18.4952, 42.9551, 43.1097, 80.2529, -129.063
8.66396, 37, -37.3832, -18.5015, 42.9505, 43.1347, 80.2665, -128.971
8.67384, 37, -37.3149, -18.5077, 42.9457, 43.1598, 80.2803, -128.879
8.67992, 37, -37.2465, -18.5138, 42.9406, 43.1844, 80.2942, -128.788
8.68795, 37, -37.1779, -18.5199, 42.9355, 43.2084, 80.308, -128.697
8.69591, 37, -37.1092, -18.5258, 42.9301, 43.2319, 80.3216, -128.605
8.70395, 37, -37.0403, -18.5317, 42.9244, 43.2551, 80.3349, -128.514
8.71195, 37, -36.9713, -18.5376, 42.9185, 43.2785, 80.348, -128.423
8.71991, 38, -36.902, -18.5434, 42.9124, 43.3021, 80.3609, -128.331
8.72815, 38, -36.8325, -18.549, 42.9059, 43.3252, 80.3736, -128.24
8.736, 38, -36.7629, -18.5543, 42.8991, 43.3476, 80.3862, -128.149
8.74414, 38, -36.693, -18.5594, 42.8922, 43.3697, 80.3989, -128.057
8.75143, 38, -36.6231, -18.5643, 42.8851, 43.3914, 80.4117, -127.967
8.76, 38, -36.5529, -18.5692, 42.8778, 43.4133, 80.4246, -127.875
8.76806, 38, -36.4826, -18.574, 42.8704, 43.4354, 80.4376, -127.785
8.77606, 38, -36.4122, -18.5787, 42.8626, 43.4572, 80.4507, -127.694
8.78401, 38, -36.3415, -18.5832, 42.8546, 43.4785, 80.4636, -127.603
8.79092, 38, -36.3061, -18.5854, 42.8505, 43.4888, 80.47, -127.558
8.80023, 38, -36.1997, -18.5918, 42.8375, 43.5192, 80.4888, -127.423
8.80905, 39, -36.1286, -18.5961, 42.8287, 43.5392, 80.501, -127.332
8.81605, 39, -36.0573, -18.6003, 42.8198, 43.5592, 80.5132, -127.242
8.82288, 39, -36.0216, -18.6023, 42.8153, 43.5693, 80.5193, -127.197
8.83212, 39, -35.9142, -18.6084, 42.8013, 43.5995, 80.5375, -127.061
8.83888, 39, -35.8783, -18.6103, 42.7966, 43.6094, 80.5435, -127.016
8.84834, 39, -35.7703, -18.6158, 42.7818, 43.6382, 80.562, -126.88
8.85488, 39, -35.7343, -18.6176, 42.7768, 43.6476, 80.5682, -126.835
8.86477, 39, -35.6259, -18.6226, 42.7617, 43.6754, 80.587, -126.7
8.87247, 39, -35.5534, -18.6258, 42.7513, 43.6939, 80.5995, -126.609
8.88048, 39, -35.4808, -18.6288, 42.7407, 43.7123, 80.6118, -126.52
8.88851, 39, -35.408, -18.6317, 42.7297, 43.7309, 80.6239, -126.43
8.89719, 40, -35.3351, -18.6344, 42.7185, 43.7491, 80.6356, -126.34
8.90544, 40, -35.262, -18.637, 42.7073, 43.7668, 80.6472, -126.251
8.91244, 40, -35.2254, -18.6382, 42.7015, 43.7754, 80.6529, -126.206
8.91991, 40, -35.1521, -18.6406, 42.6898, 43.7924, 80.6642, -126.116
8.92789, 40, -35.0787, -18.6429, 42.6779, 43.809, 80.6755, -126.026
8.93591, 40, -35.0051, -18.6451, 42.666, 43.8254, 80.6867, -125.937
8.94788, 40, -34.8943, -18.6483, 42.6477, 43.85, 80.7036, -125.802
8.95182, 40, -34.8573, -18.6494, 42.6415, 43.8583, 80.7093, -125.758
8.95988, 40, -34.7831, -18.6514, 42.6289, 43.8748, 80.7209, -125.668
8.96793, 40, -34.7089, -18.6533, 42.6159, 43.8911, 80.7326, -125.579
8.97512, 40, -34.6345, -18.6552, 42.6028, 43.9069, 80.7442, -125.489
8.98392, 41, -34.56, -18.6569, 42.5896, 43.9222, 80.7557, -125.4
8.99189, 41, -34.4854, -18.6585, 42.5761, 43.937, 80.7669, -125.311
8.99887, 41, -34.4106, -18.6601, 42.5624, 43.9516, 80.7779, -125.222
9.00788, 41, -34.3355, -18.6614, 42.5486, 43.966, 80.7888, -125.133
9.01588, 41, -34.2604, -18.6627, 42.5347, 43.9803, 80.7995, -125.045
9.02288, 41, -34.1851, -18.6639, 42.5204, 43.9944, 80.81, -124.956
9.03189, 41, -34.1097, -18.6649, 42.5059, 44.0087, 80.8206, -124.868
9.04087, 41, -34.0341, -18.6659, 42.4912, 44.0228, 80.8312, -124.779
9.04788, 41, -33.9583, -18.6668, 42.4763, 44.0367, 80.8419, -124.69
9.05596, 41, -33.8823, -18.6675, 42.4612, 44.0502, 80.8526, -124.602
9.06388, 41, -33.8062, -18.6681, 42.4459, 44.0632, 80.8635, -124.513
9.07256, 42, -33.7299, -18.6686, 42.4307, 44.0758, 80.8744, -124.425
9.08071, 42, -33.6535, -18.669, 42.4151, 44.088, 80.8854, -124.337
9.08793, 42, -33.577, -18.6693, 42.3992, 44.0999, 80.8962, -124.249
9.09596, 42, -33.5003, -18.6694, 42.3832, 44.1117, 80.9068, -124.161
9.10387, 42, -33.4234, -18.6694, 42.367, 44.1233, 80.9172, -124.073
9.11189, 42, -33.3465, -18.6694, 42.3505, 44.1348, 80.9273, -123.985
9.12316, 42, -33.2307, -18.6694, 42.3256, 44.1521, 80.9422, -123.853
9.12707, 42, -33.1921, -18.6694, 42.3173, 44.1578, 80.9471, -123.81
9.13594, 42, -33.1146, -18.6694, 42.3004, 44.1692, 80.9569, -123.722
9.14388, 42, -33.037, -18.6693, 42.2831, 44.1802, 80.9666, -123.634
9.15288, 42, -32.9591, -18.6692, 42.2658, 44.1908, 80.9763, -123.547
9.16088, 43, -32.8812, -18.6691, 42.2482, 44.2011, 80.9859, -123.459
9.17176, 43, -32.7641, -18.6687, 42.2214, 44.2158, 81.0006, -123.328
9.1752, 43, -32.725, -18.6685, 42.2125, 44.2205, 81.0055, -123.285
9.1841, 43, -32.6468, -18.668, 42.1944, 44.2298, 81.0155, -123.198
9.19132, 43, -32.5683, -18.6674, 42.176, 44.2387, 81.0255, -123.111
9.19908, 43, -32.4897, -18.6666, 42.1574, 44.2473, 81.0353, -123.024
9.20714, 43, -32.4109, -18.6656, 42.1387, 44.2558, 81.045, -122.937
9.21529, 43, -32.3322, -18.6644, 42.1196, 44.2641, 81.0545, -122.851
9.22332, 43, -32.2531, -18.663, 42.1006, 44.2723, 81.0639, -122.764
9.23192, 43, -32.1739, -18.6614, 42.0815, 44.2803, 81.0731, -122.677
9.23999, 43, -32.0945, -18.6595, 42.0619, 44.2883, 81.0822, -122.591
9.24816, 44, -32.015, -18.6574, 42.0422, 44.2961, 81.0911, -122.504
9.25633, 44, -31.9353, -18.6552, 42.0223, 44.3039, 81.1, -122.418
9.26353, 44, -31.8556, -18.6528, 42.0022, 44.3114, 81.1088, -122.331
9.27197, 44, -31.7757, -18.6502, 41.982, 44.3185, 81.1176, -122.245
9.27999, 44, -31.6957, -18.6476, 41.9616, 44.3255, 81.1264, -122.158
9.28815, 44, -31.6156, -18.6448, 41.9409, 44.332, 81.1352, -122.073
9.29787, 44, -31.5353, -18.6419, 41.9202, 44.3382, 81.1441, -121.986
9.30392, 44, -31.455, -18.6388, 41.8991, 44.3442, 81.1532, -121.901
9.31203, 44, -31.3744, -18.6356, 41.8779, 44.3498, 81.1623, -121.815
9.31882, 44, -31.334, -18.6339, 41.8672, 44.3524, 81.1668, -121.772
9.32848, 44, -31.2127, -18.6286, 41.8348, 44.36, 81.1805, -121.643
9.3363, 45, -31.1317, -18.625, 41.813, 44.3646, 81.1895, -121.558
9.34503, 45, -31.0505, -18.6212, 41.7911, 44.3689, 81.1982, -121.472
9.35085, 45, -31.0099, -18.6194, 41.7801, 44.3711, 81.2025, -121.429
9.36039, 45, -30.8878, -18.6136, 41.7467, 44.377, 81.2151, -121.301
9.36914, 45, -30.8061, -18.6096, 41.724, 44.3807, 81.2233, -121.215
9.37639, 45, -30.7243, -18.6055, 41.7013, 44.384, 81.2314, -121.13
9.38538, 45, -30.6423, -18.6011, 41.6784, 44.3872, 81.2393, -121.045
9.39249, 45, -30.5603, -18.5965, 41.6553, 44.3901, 81.2472, -120.96
9.40044, 45, -30.5192, -18.5941, 41.6438, 44.3927, 81.255, -120.875
9.40938, 45, -30.4369, -18.5894, 41.6203, 44.394, 81.2629, -120.79
9.41645, 45, -30.3546, -18.5845, 41.5967, 44.3963, 81.2668, -120.748
9.42507, 46, -30.2307, -18.5769, 41.5609, 44.3994, 81.2786, -120.621
9.43371, 46, -30.1478, -18.5716, 41.537, 44.4011, 81.2867, -120.536
9.43985, 46, -30.1063, -18.5688, 41.5249, 44.4018, 81.2907, -120.493
9.44791, 46, -30.0231, -18.5633, 41.5004, 44.4032, 81.2988, -120.409
9.45586, 46, -29.9399, -18.5578, 41.4759, 44.4043, 81.307, -120.324
9.46285, 46, -29.8565, -18.5523, 41.4512, 44.4053, 81.3152, -120.24
9.47186, 46, -29.773, -18.5466, 41.4263, 44.406, 81.3235, -120.155
9.47892, 46, -29.6893, -18.5407, 41.4011, 44.4064, 81.3316, -120.071
9.48786, 46, -29.6056, -18.5346, 41.3758, 44.4067, 81.3396, -119.987
9.49589, 46, -29.5217, -18.5283, 41.3503, 44.4068, 81.3474, -119.902
9.50393, 46, -29.4376, -18.5219, 41.3245, 44.4068, 81.355, -119.819
9.51185, 47, -29.3534, -18.5154, 41.2986, 44.4068, 81.3626, -119.734
9.52003, 47, -29.269, -18.5087, 41.2724, 44.4067, 81.37, -119.651
9.52869, 47, -29.1844, -18.5019, 41.2461, 44.4065, 81.3774, -119.566
9.53587, 47, -29.0997, -18.4949, 41.2196, 44.4061, 81.3847, -119.483
9.54484, 47, -29.0149, -18.488, 41.1929, 44.4053, 81.3919, -119.399
9.55084, 47, -28.93, -18.4807, 41.1659, 44.4039, 81.3991, -119.315
9.55989, 47, -28.8448, -18.4731, 41.1388, 44.4022, 81.4064, -119.231
9.56998, 47, -28.7168, -18.4615, 41.0979, 44.399, 81.4173, -119.106
9.57588, 47, -28.6741, -18.4576, 41.0841, 44.3977, 81.421, -119.064
9.58395, 47, -28.5887, -18.4498, 41.0564, 44.3948, 81.4284, -118.98
9.59185, 47, -28.503, -18.4418, 41.0284, 44.3917, 81.4359, -118.897
9.59905, 48, -28.4172, -18.4337, 41.0003, 44.3883, 81.4435, -118.813
9.607, 48, -28.3313, -18.4258, 40.972, 44.3845, 81.4512, -118.73
9.61586, 48, -28.245, -18.4176, 40.9434, 44.3804, 81.459, -118.646
9.62387, 48, -28.1588, -18.4089, 40.9147, 44.376, 81.4667, -118.564
9.63192, 48, -28.0724, -18.4001, 40.8858, 44.3713, 81.4744, -118.48
9.63985, 48, -27.9858, -18.3912, 40.8567, 44.3661, 81.4819, -118.398
9.64792, 48, -27.8992, -18.382, 40.8272, 44.3608, 81.4894, -118.314
9.65586, 48, -27.8122, -18.3728, 40.7976, 44.3551, 81.4967, -118.231
9.66388, 48, -27.725, -18.3636, 40.7679, 44.3492, 81.504, -118.148
9.67192, 48, -27.6376, -18.3541, 40.7379, 44.3428, 81.5111, -118.065
9.67985, 48, -27.5502, -18.3443, 40.7076, 44.336, 81.5181, -117.982
9.68792, 49, -27.4625, -18.3343, 40.6772, 44.3288, 81.5251, -117.899
9.69601, 49, -27.3748, -18.3243, 40.6466, 44.3213, 81.5321, -117.816
9.70407, 49, -27.2869, -18.3142, 40.6156, 44.3131, 81.539, -117.733
9.71192, 49, -27.1989, -18.304, 40.5845, 44.3046, 81.5459, -117.65
9.71986, 49, -27.1108, -18.2937, 40.5532, 44.2956, 81.5529, -117.568
9.72788, 49, -27.0225, -18.283, 40.5216, 44.2863, 81.5599, -117.485
9.73612, 49, -26.9339, -18.2721, 40.4898, 44.2769, 81.5671, -117.402
9.74424, 49, -26.8452, -18.2609, 40.4579, 44.2672, 81.5744, -117.32
9.7514, 49, -26.7563, -18.2498, 40.4256, 44.2574, 81.5818, -117.237
9.7603, 49, -26.6673, -18.2386, 40.3932, 44.2473, 81.5893, -117.154
9.76746, 49, -26.5782, -18.2271, 40.3605, 44.2372, 81.597, -117.072
9.77769, 50, -26.4889, -18.2152, 40.3278, 44.2267, 81.6048, -116.989
9.78446, 50, -26.3994, -18.2033, 40.2947, 44.2161, 81.6125, -116.906
9.79186, 50, -26.3097, -18.1913, 40.2614, 44.2052, 81.6202, -116.823
9.79988, 50, -26.2199, -18.1793, 40.2279, 44.1938, 81.6278, -116.741
9.80878, 50, -26.1299, -18.167, 40.1942, 44.1821, 81.6354, -116.658
9.81594, 50, -26.0397, -18.1543, 40.1602, 44.1698, 81.6429, -116.575
9.82484, 50, -25.9494, -18.1414, 40.126, 44.1569, 81.6504, -116.494
9.83206, 50, -25.8589, -18.1285, 40.0916, 44.1436, 81.6578, -116.411
9.83889, 50, -25.8136, -18.122, 40.0743, 44.1369, 81.6615, -116.37
9.84915, 50, -25.6777, -18.1023, 40.0219, 44.1165, 81.6725, -116.246
9.85489, 50, -25.6323, -18.0954, 40.0045, 44.1097, 81.6762, -116.205
9.86438, 51, -25.496, -18.0748, 39.9515, 44.0892, 81.6873, -116.081
9.87332, 51, -25.4047, -18.0611, 39.9159, 44.0751, 81.6948, -115.999
9.88099, 51, -25.3133, -18.0472, 39.8802, 44.0608, 81.7024, -115.917
9.88848, 51, -25.2217, -18.0328, 39.8441, 44.0459, 81.71, -115.834
9.8973, 51, -25.1301, -18.0181, 39.8078, 44.0304, 81.7179, -115.752
9.9029, 51, -25.0842, -18.0108, 39.7896, 44.0224, 81.7218, -115.71
9.91329, 51, -24.9924, -17.9962, 39.7347, 43.9977, 81.7339, -115.587
9.91885, 51, -24.9003, -17.9815, 39.7162, 43.9893, 81.7381, -115.546
9.92785, 51, -24.8081, -17.9662, 39.6791, 43.9725, 81.7465, -115.463
9.93589, 51, -24.7155, -17.9507, 39.6419, 43.9556, 81.755, -115.381
9.94359, 51, -24.6228, -17.9354, 39.6044, 43.9387, 81.7635, -115.299
9.95402, 52, -24.4831, -17.912, 39.5477, 43.9125, 81.7761, -115.176
9.95984, 52, -24.4366, -17.9039, 39.5287, 43.9035, 81.7802, -115.135
9.96696, 52, -24.3434, -17.8875, 39.4904, 43.8851, 81.7885, -115.053
9.97589, 52, -24.2501, -17.8714, 39.452, 43.8659, 81.7967, -114.97
9.98385, 52, -24.1567, -17.8551, 39.4134, 43.8465, 81.8048, -114.888
9.99327, 52, -24.0161, -17.8297, 39.3548, 43.8173, 81.8168, -114.764
9.99884, 52, -23.9691, -17.8212, 39.3353, 43.8076, 81.8208, -114.723
10.0079, 52, -23.875, -17.8044, 39.2959, 43.788, 81.8289, -114.641
10.0172, 52, -23.7807, -17.7871, 39.2562, 43.768, 81.837, -114.559
10.0229, 52, -23.6861, -17.7693, 39.2163, 43.7473, 81.8452, -114.477
10.0319, 52, -23.5915, -17.7518, 39.1762, 43.7258, 81.8537, -114.395
10.0421, 53, -23.4493, -17.725, 39.1155, 43.693, 81.8665, -114.272
10.048, 53, -23.4019, -17.7159, 39.0952, 43.6821, 81.8708, -114.231
10.0559, 53, -23.307, -17.6975, 39.0543, 43.6601, 81.8797, -114.149
10.0639, 53, -23.2118, -17.6792, 39.0133, 43.638, 81.8888, -114.067
10.0718, 53, -23.1164, -17.6605, 38.9721, 43.6153, 81.898, -113.985
10.0799, 53, -23.0207, -17.6415, 38.9306, 43.5919, 81.9073, -113.903
10.0879, 53, -22.9249, -17.6224, 38.889, 43.5679, 81.9166, -113.821
10.0949, 53, -22.829, -17.6031, 38.847, 43.5439, 81.9258, -113.739
10.1039, 53, -22.7328, -17.5836, 38.8048, 43.52, 81.9349, -113.657
10.1118, 53, -22.6365, -17.5639, 38.7625, 43.4958, 81.9439, -113.575
10.1201, 53, -22.5401, -17.544, 38.7197, 43.4711, 81.953, -113.492
10.1287, 54, -22.4435, -17.5239, 38.6768, 43.4454, 81.962, -113.41
10.1352, 54, -22.3468, -17.5035, 38.6338, 43.4193, 81.9711, -113.328
10.143, 54, -22.2499, -17.483, 38.5904, 43.3931, 81.9803, -113.246
10.1518, 54, -22.1527, -17.4624, 38.5468, 43.3668, 81.9895, -113.164
10.1599, 54, -22.0554, -17.4417, 38.5029, 43.3404, 81.9988, -113.082
10.1679, 54, -21.958, -17.4206, 38.4589, 43.3131, 82.0084, -113
10.1759, 54, -21.8605, -17.3993, 38.4147, 43.2849, 82.0182, -112.918
10.1839, 54, -21.7627, -17.3779, 38.3701, 43.2568, 82.0281, -112.836
10.1918, 54, -21.6646, -17.3562, 38.3255, 43.2288, 82.0384, -112.754
10.1999, 54, -21.5663, -17.3342, 38.2807, 43.2005, 82.0487, -112.671
10.2079, 54, -21.4677, -17.3122, 38.2355, 43.1715, 82.059, -112.589
10.2168, 55, -21.3691, -17.2898, 38.1902, 43.1415, 82.0692, -112.507
10.2258, 55, -21.2703, -17.2672, 38.1447, 43.1115, 82.0793, -112.425
10.2319, 55, -21.1713, -17.2446, 38.099, 43.0816, 82.0893, -112.343
10.24, 55, -21.0722, -17.2217, 38.0529, 43.0513, 82.0993, -112.261
10.2482, 55, -20.973, -17.1987, 38.0067, 43.02, 82.1092, -112.179
10.2557, 55, -20.8734, -17.1756, 37.9602, 42.988, 82.1192, -112.097
10.2674, 55, -20.7235, -17.1404, 37.89, 42.9404, 82.1341, -111.974
10.2719, 55, -20.6735, -17.1286, 37.8665, 42.9246, 82.1392, -111.933
10.2799, 55, -20.5734, -17.1048, 37.8194, 42.8922, 82.1494, -111.852
10.2887, 55, -20.4733, -17.0809, 37.772, 42.8588, 82.1599, -111.77
10.2961, 56, -20.373, -17.057, 37.7244, 42.8253, 82.1706, -111.688
10.3059, 56, -20.2724, -17.0325, 37.6767, 42.7919, 82.1815, -111.606
10.3126, 56, -20.1717, -17.0081, 37.6288, 42.758, 82.1925, -111.524
10.3199, 56, -20.0706, -16.9833, 37.5806, 42.7233, 82.2036, -111.442
10.3281, 56, -19.9693, -16.9584, 37.5323, 42.6881, 82.2145, -111.36
10.3348, 56, -19.9185, -16.9459, 37.508, 42.6707, 82.2199, -111.319
10.3428, 56, -19.8168, -16.9207, 37.4593, 42.6358, 82.2308, -111.237
10.3532, 56, -19.6641, -16.8826, 37.3858, 42.582, 82.2469, -111.115
10.3589, 56, -19.6132, -16.8699, 37.3612, 42.5636, 82.2523, -111.073
10.3684, 56, -19.4606, -16.8313, 37.2871, 42.5087, 82.2684, -110.951
10.3773, 56, -19.3586, -16.8055, 37.2375, 42.4718, 82.2793, -110.869
10.3829, 56, -19.3074, -16.7925, 37.2125, 42.453, 82.2848, -110.828
10.3928, 57, -19.1537, -16.7533, 37.1374, 42.3955, 82.3016, -110.706
10.4021, 57, -19.0508, -16.7268, 37.0871, 42.3577, 82.3132, -110.624
10.4068, 57, -18.9993, -16.7136, 37.0618, 42.3386, 82.319, -110.584
10.4164, 57, -18.8962, -16.6871, 37.0113, 42.2994, 82.3309, -110.501
10.4239, 57, -18.793, -16.6602, 36.9606, 42.2595, 82.3429, -110.42
10.4308, 57, -18.6895, -16.6331, 36.9096, 42.22, 82.3547, -110.338
10.4409, 57, -18.534, -16.5921, 36.8328, 42.1596, 82.3723, -110.215
10.4479, 57, -18.482, -16.5784, 36.8071, 42.1388, 82.3781, -110.174
10.4558, 57, -18.3777, -16.5508, 36.7556, 42.0977, 82.3896, -110.092
10.4663, 57, -18.2209, -16.509, 36.6779, 42.0361, 82.4069, -109.97
10.4721, 58, -18.1685, -16.495, 36.6519, 42.0149, 82.4127, -109.929
10.4798, 58, -18.0637, -16.4669, 36.5998, 41.972, 82.4242, -109.848
10.4879, 58, -17.9588, -16.4387, 36.5473, 41.9297, 82.4359, -109.766
10.4959, 58, -17.8537, -16.4103, 36.4947, 41.8868, 82.4478, -109.685
10.5038, 58, -17.7484, -16.3818, 36.4419, 41.8426, 82.46, -109.604
10.5118, 58, -17.643, -16.3532, 36.3889, 41.7991, 82.4724, -109.522
10.5219, 58, -17.4844, -16.31, 36.3092, 41.733, 82.4913, -109.4
10.5279, 58, -17.4314, -16.2954, 36.2826, 41.7103, 82.4976, -109.359
10.5359, 58, -17.3253, -16.2663, 36.2291, 41.665, 82.5101, -109.278
10.5456, 58, -17.219, -16.2369, 36.1754, 41.6202, 82.5225, -109.196
10.5518, 58, -17.1124, -16.2074, 36.1216, 41.5738, 82.5348, -109.115
10.5599, 58, -17.0056, -16.1777, 36.0675, 41.5272, 82.5471, -109.033
10.569, 59, -16.8985, -16.1477, 36.0132, 41.481, 82.5594, -108.952
10.5789, 59, -16.7376, -16.1026, 35.9314, 41.4093, 82.5782, -108.829
10.5839, 59, -16.6839, -16.0875, 35.9041, 41.3853, 82.5845, -108.789
10.5919, 59, -16.5764, -16.0571, 35.8492, 41.3379, 82.5973, -108.708
10.5999, 59, -16.4686, -16.0265, 35.7942, 41.289, 82.6104, -108.626
10.6079, 59, -16.3607, -15.9958, 35.739, 41.2396, 82.6239, -108.545
10.6159, 59, -16.2526, -15.9651, 35.6836, 41.1908, 82.6373, -108.463
10.6238, 59, -16.1444, -15.9341, 35.6281, 41.1406, 82.6507, -108.382
10.6318, 59, -16.0357, -15.9029, 35.5724, 41.09, 82.6639, -108.301
10.6399, 59, -15.9269, -15.8714, 35.5165, 41.0397, 82.677, -108.219
10.6481, 60, -15.8182, -15.8399, 35.4604, 40.988, 82.69, -108.138
10.655, 60, -15.7092, -15.8081, 35.4041, 40.9366, 82.7029, -108.056
10.664, 60, -15.5999, -15.776, 35.3475, 40.8849, 82.716, -107.975
10.6718, 60, -15.4902, -15.7438, 35.2908, 40.8319, 82.7292, -107.893
10.6798, 60, -15.3802, -15.7115, 35.2338, 40.7793, 82.7426, -107.812
10.6896, 60, -15.27, -15.679, 35.1766, 40.726, 82.7564, -107.73
10.6958, 60, -15.1594, -15.6462, 35.1193, 40.6717, 82.7705, -107.649
10.704, 60, -15.0487, -15.6133, 35.0618, 40.6182, 82.7846, -107.568
10.7118, 60, -14.9378, -15.5804, 35.0042, 40.5631, 82.7987, -107.487
10.7198, 60, -14.8268, -15.5473, 34.9464, 40.5079, 82.8126, -107.406
10.7281, 60, -14.7156, -15.5139, 34.8885, 40.4525, 82.8265, -107.324
10.7353, 60, -14.6041, -15.4804, 34.8302, 40.3958, 82.8404, -107.243
10.7459, 61, -14.4924, -15.4467, 34.7719, 40.3397, 82.8543, -107.161
10.752, 61, -14.3805, -15.4128, 34.7133, 40.2823, 82.8684, -107.08
10.7599, 61, -14.2684, -15.3787, 34.6545, 40.2246, 82.8826, -106.998
10.7681, 61, -14.156, -15.3445, 34.5955, 40.1672, 82.8972, -106.917
10.7764, 61, -14.0433, -15.3101, 34.5364, 40.1082, 82.9122, -106.835
10.7839, 61, -13.9305, -15.2755, 34.477, 40.05, 82.9274, -106.754
10.7924, 61, -13.8174, -15.2408, 34.4175, 39.9903, 82.9424, -106.672
10.8, 61, -13.7041, -15.2059, 34.3578, 39.9305, 82.9573, -106.59
10.8079, 61, -13.5905, -15.1708, 34.298, 39.8706, 82.9721, -106.509
10.8168, 61, -13.4768, -15.1355, 34.2381, 39.8094, 82.9868, -106.427
10.824, 61, -13.3629, -15.1, 34.1779, 39.7489, 83.0015, -106.346
10.8308, 62, -13.3058, -15.0822, 34.1477, 39.7179, 83.009, -106.305
10.841, 62, -13.1342, -15.0285, 34.0569, 39.6248, 83.0317, -106.183
10.8496, 62, -13.0195, -14.9925, 33.9961, 39.5618, 83.0473, -106.101
10.8563, 62, -12.9048, -14.9563, 33.9351, 39.4985, 83.0631, -106.019
10.8628, 62, -12.8474, -14.9382, 33.9045, 39.4671, 83.0711, -105.979
10.8708, 62, -12.7323, -14.9017, 33.8431, 39.4027, 83.087, -105.897
10.8805, 62, -12.5593, -14.8469, 33.7508, 39.3062, 83.1106, -105.774
10.8884, 62, -12.4435, -14.81, 33.6891, 39.2406, 83.1264, -105.692
10.8964, 62, -12.3272, -14.773, 33.6272, 39.1755, 83.1423, -105.611
10.9045, 62, -12.2104, -14.7357, 33.5652, 39.1092, 83.1582, -105.529
10.9132, 63, -12.0936, -14.6983, 33.503, 39.0427, 83.1746, -105.447
10.9229, 63, -11.9766, -14.6606, 33.4406, 38.9755, 83.1914, -105.365
10.9286, 63, -11.9181, -14.6417, 33.4093, 38.9417, 83.1999, -105.283
10.9358, 63, -11.8008, -14.6039, 33.3465, 38.8743, 83.2171, -105.243
10.9438, 63, -11.6833, -14.5658, 33.2835, 38.8055, 83.2343, -105.161
10.9519, 63, -11.5656, -14.5274, 33.2203, 38.7369, 83.2514, -105.079
10.9598, 63, -11.4476, -14.4889, 33.157, 38.6671, 83.2683, -104.997
10.9679, 63, -11.3292, -14.4502, 33.0935, 38.5976, 83.2853, -104.915
10.9759, 63, -11.2106, -14.4112, 33.0297, 38.5267, 83.3024, -104.833
10.9839, 63, -11.0918, -14.372, 32.9659, 38.456, 83.3199, -104.75
10.9918, 63, -10.973, -14.3326, 32.9019, 38.3845, 83.3378, -104.669
10.9998, 64, -10.8537, -14.2929, 32.8377, 38.3128, 83.356, -104.586
11.0079, 64, -10.7342, -14.253, 32.7734, 38.2402, 83.3743, -104.504
11.016, 64, -10.6144, -14.2129, 32.7088, 38.1676, 83.3925, -104.421
11.0228, 64, -10.4942, -14.1724, 32.644, 38.0939, 83.4107, -104.338
11.0318, 64, -10.3735, -14.1317, 32.579, 38.0203, 83.4288, -104.256
11.0398, 64, -10.2528, -14.0909, 32.5137, 37.9455, 83.4472, -104.173
11.0488, 64, -10.132, -14.0499, 32.4484, 37.8706, 83.4659, -104.091
11.0558, 64, -10.0111, -14.0087, 32.3829, 37.7947, 83.4852, -104.008
11.0648, 64, -9.88999, -13.9673, 32.3172, 37.719, 83.5048, -103.926
11.0719, 64, -9.76889, -13.9257, 32.2514, 37.642, 83.5244, -103.842
11.0798, 64, -9.64743, -13.884, 32.1854, 37.565, 83.5439, -103.76
11.0886, 65, -9.52561, -13.8419, 32.1192, 37.4873, 83.5633, -103.676
11.096, 65, -9.40328, -13.7997, 32.0528, 37.4094, 83.5828, -103.593
11.1038, 65, -9.28054, -13.7571, 31.9861, 37.3306, 83.6026, -103.51
11.1119, 65, -9.15755, -13.7143, 31.9193, 37.2514, 83.6229, -103.427
11.1198, 65, -9.03432, -13.6712, 31.8523, 37.172, 83.6437, -103.344
11.1279, 65, -8.91082, -13.6278, 31.7852, 37.0916, 83.6647, -103.26
11.1383, 65, -8.72482, -13.5623, 31.6843, 36.9702, 83.6961, -103.135
11.1438, 65, -8.66269, -13.5404, 31.6506, 36.9295, 83.7065, -103.093
11.1519, 65, -8.53816, -13.4964, 31.583, 36.8479, 83.7274, -103.01
11.1598, 65, -8.41329, -13.4522, 31.5152, 36.7655, 83.7487, -102.927
11.1688, 65, -8.28843, -13.4077, 31.4474, 36.6827, 83.7705, -102.843
11.1768, 66, -8.16357, -13.363, 31.3792, 36.5996, 83.7929, -102.759
11.1838, 66, -8.03847, -13.3182, 31.3109, 36.5156, 83.8151, -102.675
11.192, 66, -7.9132, -13.2731, 31.2423, 36.4314, 83.8373, -102.591
11.1998, 66, -7.78764, -13.2278, 31.1735, 36.3464, 83.8593, -102.507
11.2079, 66, -7.66156, -13.1822, 31.1047, 36.2612, 83.8815, -102.423
11.2159, 66, -7.53518, -13.1365, 31.0357, 36.1753, 83.9042, -102.339
11.2238, 66, -7.40845, -13.0906, 30.9666, 36.0886, 83.9276, -102.255
11.2318, 66, -7.28148, -13.0442, 30.8974, 36.0018, 83.9511, -102.17
11.2399, 66, -7.15431, -12.9978, 30.8279, 35.9142, 83.9744, -102.086
11.2479, 66, -7.02679, -12.951, 30.7584, 35.8261, 83.9978, -102.001
11.2559, 66, -6.8991, -12.9039, 30.6886, 35.7377, 84.0213, -101.917
11.2641, 67, -6.77131, -12.8566, 30.6186, 35.6487, 84.0453, -101.832
11.2727, 67, -6.64316, -12.8089, 30.5485, 35.5591, 84.07, -101.748
11.28, 67, -6.51486, -12.7611, 30.4782, 35.469, 84.095, -101.663
11.288, 67, -6.38629, -12.713, 30.4078, 35.3784, 84.1199, -101.578
11.2958, 67, -6.25753, -12.6646, 30.3373, 35.2873, 84.1445, -101.493
11.3039, 67, -6.12839, -12.6161, 30.2667, 35.1955, 84.1693, -101.407
11.3124, 67, -5.99898, -12.5674, 30.1959, 35.1033, 84.1946, -101.322
11.3201, 67, -5.86922, -12.5184, 30.125, 35.0105, 84.2206, -101.237
11.3269, 67, -5.80419, -12.4938, 30.0895, 34.9638, 84.2337, -101.194
11.3369, 67, -5.60839, -12.4198, 29.9827, 34.8237, 84.2727, -101.066
11.3442, 67, -5.47747, -12.3702, 29.9112, 34.7295, 84.2987, -100.981
11.3507, 68, -5.4119, -12.3452, 29.8754, 34.6821, 84.3118, -100.938
11.3602, 68, -5.21479, -12.2701, 29.7679, 34.5394, 84.3522, -100.81
11.3689, 68, -5.08322, -12.2198, 29.6962, 34.4437, 84.3798, -100.724
11.3769, 68, -4.9515, -12.1691, 29.6244, 34.3472, 84.4072, -100.639
11.3843, 68, -4.81958, -12.1181, 29.5525, 34.2504, 84.4345, -100.553
11.3925, 68, -4.68742, -12.0669, 29.4805, 34.1529, 84.4619, -100.467
11.4004, 68, -4.55506, -12.0155, 29.4084, 34.0551, 84.4898, -100.382
11.4085, 68, -4.42241, -11.9637, 29.3361, 33.9569, 84.5185, -100.295
11.4166, 68, -4.35599, -11.9377, 29.2637, 33.8579, 84.5471, -100.209
11.4238, 68, -4.22287, -11.8857, 29.2274, 33.8083, 84.5613, -100.166
11.4318, 68, -4.08963, -11.8334, 29.1548, 33.7089, 84.5898, -100.079
11.4399, 69, -3.95609, -11.7809, 29.0822, 33.6087, 84.6185, -99.993
11.4479, 69, -3.82227, -11.7283, 29.0094, 33.5081, 84.6482, -99.9062
11.4558, 69, -3.68829, -11.6755, 28.9366, 33.4071, 84.6781, -99.8201
11.4638, 69, -3.55391, -11.6226, 28.8637, 33.3056, 84.7078, -99.7333
11.4718, 69, -3.41929, -11.5693, 28.7907, 33.2036, 84.7373, -99.647
11.4798, 69, -3.28434, -11.5158, 28.7176, 33.1012, 84.7672, -99.5599
11.4879, 69, -3.14922, -11.462, 28.6443, 32.9983, 84.7979, -99.4735
11.4958, 69, -3.01391, -11.4079, 28.571, 32.895, 84.8289, -99.3861
11.5038, 69, -2.87821, -11.3535, 28.4975, 32.791, 84.8595, -99.2992
11.5119, 69, -2.74229, -11.2988, 28.424, 32.6867, 84.8903, -99.2117
11.5198, 69, -2.60608, -11.2439, 28.3505, 32.5818, 84.9215, -99.1247
11.5278, 70, -2.46947, -11.1886, 28.2771, 32.4764, 84.9538, -99.0371
11.5364, 70, -2.3325, -11.1332, 28.2035, 32.3707, 84.9858, -98.9498
11.5446, 70, -2.1954, -11.0776, 28.1299, 32.2645, 85.0175, -98.8621
11.5509, 70, -2.05814, -11.0218, 28.0561, 32.1578, 85.0494, -98.7747
11.5599, 70, -1.92056, -10.9658, 27.9822, 32.0507, 85.0822, -98.6873
11.5679, 70, -1.78276, -10.9096, 27.9083, 31.9431, 85.1153, -98.5997
11.5768, 70, -1.6448, -10.8533, 27.8342, 31.835, 85.1482, -98.5122
11.5828, 70, -1.50664, -10.7968, 27.7602, 31.7264, 85.1811, -98.4243
11.5908, 70, -1.36834, -10.7401, 27.6862, 31.6173, 85.2147, -98.3367
11.5998, 70, -1.22992, -10.6831, 27.6122, 31.5078, 85.2492, -98.2484
11.6078, 70, -1.09118, -10.6257, 27.5382, 31.398, 85.2834, -98.1604
11.6159, 71, -0.952141, -10.5681, 27.4641, 31.2877, 85.3173, -98.0717
11.6228, 71, -0.812949, -10.5103, 27.3901, 31.177, 85.3515, -97.9838
11.6318, 71, -0.673635, -10.4521, 27.3159, 31.0658, 85.3867, -97.895
11.6398, 71, -0.534127, -10.3937, 27.2417, 30.954, 85.4219, -97.8069
11.6479, 71, -0.394362, -10.3351, 27.1674, 30.842, 85.4568, -97.7179
11.6558, 71, -0.254363, -10.2762, 27.0931, 30.7293, 85.4921, -97.6298
11.6639, 71, -0.114023, -10.2173, 27.0189, 30.6164, 85.5283, -97.5409
11.6718, 71, 0.026735, -10.1583, 26.9448, 30.5032, 85.5647, -97.4527
11.6798, 71, 0.167731, -10.099, 26.8705, 30.3894, 85.6006, -97.3636
11.6879, 71, 0.308869, -10.0395, 26.7963, 30.2755, 85.6368, -97.2751
11.6958, 71, 0.450319, -9.97983, 26.7221, 30.1609, 85.6738, -97.1858
11.7038, 72, 0.592051, -9.91989, 26.6477, 30.0459, 85.7108, -97.0967
11.7121, 72, 0.733955, -9.85961, 26.5734, 29.9306, 85.7477, -97.0073
11.722, 72, 0.876177, -9.79902, 26.499, 29.815, 85.7847, -96.918
11.7279, 72, 1.01858, -9.73815, 26.4248, 29.699, 85.8229, -96.8287
11.7358, 72, 1.16102, -9.677, 26.3507, 29.5828, 85.861, -96.7393
11.7439, 72, 1.3036, -9.61564, 26.2766, 29.4661, 85.8986, -96.6499
11.7519, 72, 1.44632, -9.55393, 26.2026, 29.349, 85.9368, -96.5604
11.761, 72, 1.58921, -9.49207, 26.1285, 29.2313, 85.9758, -96.4712
11.7679, 72, 1.73229, -9.43006, 26.0545, 29.1135, 86.0147, -96.3818
11.776, 72, 1.87558, -9.3679, 25.9803, 28.9952, 86.0535, -96.2924
11.7839, 72, 2.01897, -9.30552, 25.9062, 28.8767, 86.093, -96.2027
