rpiRobotics/ARM-21-02-F-19-Robot-Motion-Program/data_performance_abb/curve_2/baseline/100L/realrobot/bisect/run_3realrobot_curve_exe_v400_z10.csv
timestamp, cmd_num, J1, J2, J3, J4, J5, J6
0.000361, -1, 39.6333, 32.4444, 11.832, 12.5482, 113.716, -48.8694
0.004395, -1, 39.6333, 32.4444, 11.832, 12.5482, 113.716, -48.8694
0.007231, -1, 39.6333, 32.4444, 11.832, 12.5482, 113.716, -48.8694
0.030267, -1, 39.6333, 32.4444, 11.832, 12.5483, 113.716, -48.8694
0.031625, -1, 39.6333, 32.4444, 11.832, 12.5483, 113.716, -48.8694
0.035453, -1, 39.6332, 32.4444, 11.832, 12.5483, 113.716, -48.8694
0.039041, -1, 39.6332, 32.4444, 11.832, 12.5483, 113.716, -48.8695
0.048085, -1, 39.6332, 32.4444, 11.832, 12.5483, 113.716, -48.8695
0.056102, -1, 39.6327, 32.4443, 11.832, 12.5483, 113.716, -48.8694
0.063125, -1, 39.6303, 32.4439, 11.832, 12.5483, 113.716, -48.8695
0.071495, -1, 39.625, 32.4425, 11.832, 12.5483, 113.716, -48.8698
0.079137, -1, 39.6161, 32.4395, 11.8319, 12.5483, 113.715, -48.8713
0.087128, -1, 39.6028, 32.4341, 11.8319, 12.5482, 113.714, -48.8756
0.095199, -1, 39.5831, 32.4255, 11.8319, 12.5482, 113.711, -48.8865
0.103045, -1, 39.5545, 32.4129, 11.8324, 12.5482, 113.704, -48.9069
0.111093, -1, 39.5161, 32.3952, 11.8346, 12.5481, 113.692, -48.9401
0.119138, -1, 39.4667, 32.3713, 11.8396, 12.5482, 113.673, -48.9904
0.127137, -1, 39.4047, 32.3408, 11.848, 12.5482, 113.645, -49.0617
0.135161, -1, 39.3294, 32.3029, 11.8608, 12.5482, 113.608, -49.1558
0.14336, -1, 39.2404, 32.2572, 11.8787, 12.5485, 113.562, -49.2753
0.151335, -1, 39.1374, 32.2036, 11.9012, 12.549, 113.505, -49.4203
0.159353, -1, 39.0205, 32.1422, 11.928, 12.5499, 113.438, -49.59
0.167595, -1, 38.89, 32.0734, 11.9587, 12.5514, 113.362, -49.7824
0.176167, -1, 38.7472, 31.9981, 11.9927, 12.5532, 113.278, -49.9946
0.183529, -1, 38.593, 31.9168, 12.029, 12.5552, 113.188, -50.2226
0.192127, -1, 38.4288, 31.8306, 12.0667, 12.5575, 113.093, -50.4627
0.199601, -1, 38.2567, 31.7404, 12.1055, 12.5598, 112.995, -50.7111
0.208183, -1, 38.0783, 31.6472, 12.1446, 12.5622, 112.895, -50.9646
0.215756, -1, 37.8948, 31.5519, 12.1835, 12.5647, 112.793, -51.2214
0.224051, -1, 37.7073, 31.455, 12.2223, 12.5671, 112.691, -51.48
0.231634, -1, 37.6125, 31.4062, 12.2417, 12.5683, 112.64, -51.6097
0.240131, -1, 37.3255, 31.2594, 12.3, 12.572, 112.486, -51.9991
0.247023, -1, 37.2295, 31.2104, 12.3194, 12.5732, 112.435, -52.129
0.256121, -1, 36.9412, 31.0637, 12.3776, 12.5771, 112.28, -52.519
0.263021, -1, 36.8452, 31.0149, 12.3969, 12.5784, 112.229, -52.6491
0.272351, -1, 36.5577, 30.8682, 12.4552, 12.5822, 112.074, -53.0396
0.279118, -1, 36.4619, 30.8194, 12.4747, 12.5835, 112.023, -53.1698
0.288734, -1, 36.1747, 30.6727, 12.5329, 12.5874, 111.868, -53.5605
0.296496, -1, 35.9832, 30.5748, 12.5718, 12.59, 111.765, -53.8212
0.304502, -1, 35.7918, 30.4769, 12.6108, 12.5927, 111.662, -54.0817
0.311016, -1, 35.6959, 30.4279, 12.6302, 12.5939, 111.611, -54.2119
0.320593, -1, 35.408, 30.2806, 12.6885, 12.5978, 111.456, -54.6024
0.32861, -1, 35.2157, 30.1824, 12.7273, 12.6004, 111.353, -54.863
0.336664, -1, 35.0231, 30.0841, 12.7662, 12.6029, 111.25, -55.1238
0.344633, -1, 34.9269, 30.0348, 12.7857, 12.6056, 111.147, -55.3844
0.352605, -1, 34.7346, 29.9364, 12.8245, 12.6068, 111.095, -55.5146
0.360079, -1, 34.5423, 29.8379, 12.8633, 12.6094, 110.992, -55.7755
0.36803, -1, 34.35, 29.7395, 12.9023, 12.612, 110.889, -56.0363
0.376086, -1, 34.1579, 29.6412, 12.9413, 12.6147, 110.786, -56.2973
0.384117, -1, 33.9661, 29.543, 12.9802, 12.6173, 110.683, -56.5581
0.392025, -1, 33.7744, 29.4447, 13.0192, 12.62, 110.58, -56.8189
0.400026, -1, 33.5825, 29.3464, 13.0579, 12.6226, 110.477, -57.0798
0.408079, -1, 33.3903, 29.2481, 13.0969, 12.6253, 110.374, -57.341
0.416044, -1, 33.1978, 29.1496, 13.1359, 12.6279, 110.27, -57.6019
0.424036, -1, 33.0051, 29.051, 13.1746, 12.6306, 110.167, -57.863
0.432065, -1, 32.8121, 28.9525, 13.2135, 12.6332, 110.064, -58.1242
0.440073, -1, 32.6188, 28.8539, 13.2524, 12.6359, 109.961, -58.3855
0.448027, -1, 32.4252, 28.7552, 13.2912, 12.6386, 109.858, -58.6465
0.456081, -1, 32.2313, 28.6566, 13.3301, 12.6413, 109.755, -58.9076
0.464058, -1, 32.0372, 28.5578, 13.3689, 12.644, 109.652, -59.1689
0.472107, -1, 31.8433, 28.459, 13.4078, 12.6468, 109.549, -59.4302
0.480084, -1, 31.6496, 28.3603, 13.4468, 12.6495, 109.446, -59.6916
0.489097, -1, 31.4562, 28.2616, 13.4857, 12.6524, 109.343, -59.9527
0.496037, -1, 31.2631, 28.163, 13.5245, 12.6551, 109.24, -60.2141
0.635559, -1, 27.8828, 26.4355, 14.2062, 12.7009, 107.432, -64.7917
0.637069, -1, 27.8828, 26.4355, 14.2062, 12.7009, 107.432, -64.7917
0.639012, -1, 27.8828, 26.4355, 14.2062, 12.7009, 107.432, -64.9226
0.640368, -1, 27.7864, 26.3861, 14.2257, 12.7021, 107.381, -64.9226
0.641571, -1, 27.7864, 26.3861, 14.2257, 12.7021, 107.381, -64.9226
0.64359, -1, 27.69, 26.3367, 14.2452, 12.7033, 107.329, -65.0536
0.64492, -1, 27.69, 26.3367, 14.2452, 12.7033, 107.329, -65.0536
0.648174, -1, 27.5938, 26.2873, 14.2647, 12.7045, 107.277, -65.1844
0.787132, -1, 24.309, 24.6072, 14.9273, 12.7439, 105.522, -69.6338
0.78916, -1, 24.2128, 24.5578, 14.9468, 12.7451, 105.47, -69.7645
0.79035, -1, 24.2128, 24.5578, 14.9468, 12.7451, 105.47, -69.7645
0.792211, -1, 24.2128, 24.5578, 14.9663, 12.7462, 105.419, -69.8952
0.793565, -1, 24.1165, 24.5084, 14.9663, 12.7462, 105.419, -69.8952
0.794874, -1, 24.1165, 24.5084, 14.9663, 12.7462, 105.419, -69.8952
0.797616, -1, 24.0201, 24.459, 14.9858, 12.7474, 105.367, -70.0259
0.801553, -1, 23.9237, 24.4096, 15.0053, 12.7486, 105.315, -70.1567
0.8029, -1, 23.9237, 24.4096, 15.0053, 12.7486, 105.315, -70.1567
0.804909, -1, 23.8273, 24.3602, 15.0248, 12.7498, 105.264, -70.2876
0.806191, -1, 23.8273, 24.3602, 15.0248, 12.7498, 105.264, -70.2876
0.807377, -1, 23.8273, 24.3602, 15.0248, 12.7498, 105.264, -70.2876
0.809417, -1, 23.7308, 24.3108, 15.0442, 12.751, 105.212, -70.4184
0.810607, -1, 23.7308, 24.3108, 15.0442, 12.751, 105.212, -70.4184
0.812449, -1, 23.7308, 24.2613, 15.0637, 12.7522, 105.16, -70.5493
0.816414, -1, 23.6344, 24.2613, 15.0831, 12.7534, 105.109, -70.6803
0.818007, -1, 23.5378, 24.2119, 15.0831, 12.7534, 105.109, -70.6803
0.819249, -1, 23.5378, 24.2119, 15.0831, 12.7534, 105.109, -70.6803
0.82198, -1, 23.4411, 24.1624, 15.1026, 12.7546, 105.057, -70.8111
0.823174, -1, 23.4411, 24.1624, 15.1026, 12.7546, 105.057, -70.8111
0.826208, -1, 23.3443, 24.113, 15.1221, 12.7558, 105.005, -70.9419
0.827485, -1, 23.3443, 24.113, 15.1221, 12.7558, 105.005, -70.9419
0.830982, -1, 23.2474, 24.0636, 15.1415, 12.757, 104.953, -71.0728
0.833031, -1, 23.1505, 24.0141, 15.1609, 12.7582, 104.902, -71.2037
0.83428, -1, 23.1505, 24.0141, 15.1609, 12.7582, 104.902, -71.2037
0.835461, -1, 23.1505, 24.0141, 15.1609, 12.7582, 104.902, -71.2037
0.837502, -1, 23.0535, 23.9646, 15.1804, 12.7595, 104.85, -71.3346
0.838941, -1, 23.0535, 23.9646, 15.1804, 12.7595, 104.85, -71.3346
0.840755, -1, 22.9564, 23.9152, 15.1999, 12.7607, 104.798, -71.4655
0.842195, -1, 22.9564, 23.9152, 15.1999, 12.7607, 104.798, -71.4655
0.846205, -1, 22.8594, 23.8658, 15.2194, 12.7619, 104.747, -71.5965
0.847388, -1, 22.8594, 23.8658, 15.2194, 12.7619, 104.747, -71.5965
0.850284, -1, 22.7623, 23.8164, 15.2388, 12.7632, 104.695, -71.7274
0.851552, -1, 22.7623, 23.8164, 15.2388, 12.7632, 104.695, -71.7274
0.853516, -1, 22.6654, 23.767, 15.2583, 12.7644, 104.643, -71.8582
0.854829, -1, 22.6654, 23.767, 15.2583, 12.7644, 104.643, -71.8582
0.856786, -1, 22.6654, 23.767, 15.2583, 12.7657, 104.591, -71.9889
0.867033, -1, 22.3748, 23.6191, 15.3168, 12.7681, 104.488, -72.2504
0.872047, -1, 22.2782, 23.5697, 15.3363, 12.7694, 104.436, -72.3811
0.880001, -1, 22.0849, 23.471, 15.3752, 12.772, 104.333, -72.6426
0.888032, -1, 21.8919, 23.3724, 15.4142, 12.7746, 104.23, -72.9042
0.896031, -1, 21.6994, 23.2737, 15.4532, 12.7773, 104.126, -73.1655
0.903972, -1, 21.5073, 23.1749, 15.4921, 12.78, 104.023, -73.4269
0.912022, -1, 21.315, 23.0762, 15.5311, 12.7826, 103.92, -73.6884
0.920032, -1, 21.1227, 22.9775, 15.5701, 12.7853, 103.817, -73.95
0.927043, -1, 20.9303, 22.8789, 15.609, 12.788, 103.714, -74.2111
0.936021, -1, 20.7377, 22.7803, 15.6479, 12.7907, 103.611, -74.4723
0.944085, -1, 20.5451, 22.6817, 15.6869, 12.7935, 103.508, -74.7335
0.952001, -1, 20.352, 22.5831, 15.7257, 12.7963, 103.405, -74.9948
0.959037, -1, 20.1583, 22.4844, 15.7646, 12.7989, 103.302, -75.256
0.968043, -1, 19.9645, 22.3856, 15.8035, 12.8017, 103.199, -75.5171
0.975999, -1, 19.7709, 22.287, 15.8422, 12.8044, 103.096, -75.7782
0.985031, -1, 19.5773, 22.1884, 15.8811, 12.8071, 102.993, -76.0396
0.992036, -1, 19.3838, 22.0898, 15.92, 12.8098, 102.89, -76.3009
0.999996, -1, 19.1907, 21.9911, 15.9588, 12.8125, 102.787, -76.5618
1.00803, -1, 18.9979, 21.8925, 15.9978, 12.8152, 102.684, -76.8227
1.01602, -1, 18.8054, 21.7939, 16.0366, 12.8178, 102.58, -77.0837
1.02401, -1, 18.6133, 21.6951, 16.0753, 12.8205, 102.478, -77.3446
1.03199, -1, 18.4215, 21.5966, 16.1142, 12.8232, 102.375, -77.6053
1.04002, -1, 18.2296, 21.4981, 16.1531, 12.8258, 102.272, -77.8661
1.04813, -1, 18.0378, 21.3996, 16.1918, 12.8283, 102.169, -78.1269
1.05507, -1, 17.846, 21.3013, 16.2308, 12.8309, 102.066, -78.3878
1.06313, -1, 17.6539, 21.203, 16.2696, 12.8333, 101.963, -78.6482
1.07109, -1, 17.4615, 21.1047, 16.3084, 12.8358, 101.86, -78.9086
1.07914, -1, 17.2686, 21.0063, 16.3473, 12.8382, 101.757, -79.1692
1.08714, -1, 17.0755, 20.9081, 16.386, 12.8405, 101.654, -79.4299
1.0951, -1, 16.8824, 20.8098, 16.4248, 12.843, 101.551, -79.6906
1.10308, -1, 16.6893, 20.7116, 16.4636, 12.8452, 101.449, -79.951
1.11106, -1, 16.4963, 20.6134, 16.5023, 12.8476, 101.346, -80.2114
1.11908, -1, 16.3034, 20.5152, 16.541, 12.8499, 101.243, -80.472
1.1271, -1, 16.1111, 20.4168, 16.5798, 12.8522, 101.141, -80.7326
1.13514, -1, 15.9192, 20.3184, 16.6186, 12.8545, 101.038, -80.9927
1.1432, -1, 15.7275, 20.2199, 16.6573, 12.8568, 100.935, -81.2528
1.15127, -1, 15.5362, 20.1215, 16.6959, 12.8591, 100.833, -81.5129
1.15934, -1, 15.3451, 20.0232, 16.7346, 12.8614, 100.73, -81.7731
1.16739, -1, 15.1539, 19.925, 16.7734, 12.8637, 100.628, -82.0329
1.17554, -1, 14.9629, 19.8268, 16.8121, 12.8659, 100.525, -82.2926
1.18419, -1, 14.7714, 19.7287, 16.8508, 12.8682, 100.423, -82.5526
1.19155, -1, 14.5799, 19.6306, 16.8895, 12.8705, 100.32, -82.8126
1.20013, -1, 14.3881, 19.5324, 16.9282, 12.8728, 100.217, -83.0723
1.20756, -1, 14.1958, 19.4344, 16.9669, 12.8751, 100.115, -83.3317
1.2161, -1, 14.0034, 19.3365, 17.0057, 12.8773, 100.012, -83.5914
1.22363, -1, 13.9072, 19.2875, 17.0442, 12.8797, 99.9097, -83.8511
1.23212, -1, 13.6184, 19.1408, 17.0829, 12.882, 99.8071, -84.1105
1.23901, -1, 13.5221, 19.0919, 17.1022, 12.8831, 99.7558, -84.2402
1.24806, -1, 13.234, 18.9451, 17.16, 12.8866, 99.6024, -84.629
1.25498, -1, 13.1383, 18.8962, 17.1793, 12.8878, 99.5512, -84.7587
1.26417, -1, 12.8514, 18.7492, 17.2372, 12.8913, 99.3974, -85.1478
1.27103, -1, 12.7558, 18.7002, 17.2565, 12.8924, 99.3463, -85.2774
1.28036, -1, 12.4697, 18.5534, 17.3143, 12.8961, 99.193, -85.6658
1.28703, -1, 12.3746, 18.5046, 17.3336, 12.8973, 99.1419, -85.7952
1.29647, -1, 12.0895, 18.3579, 17.3914, 12.9009, 98.9887, -86.1838
1.30298, -1, 11.9943, 18.3091, 17.4107, 12.9021, 98.9375, -86.3132
1.31138, -1, 11.8039, 18.2115, 17.4493, 12.9044, 98.8355, -86.5718
1.31897, -1, 11.6133, 18.1139, 17.4878, 12.9069, 98.7337, -86.8305
1.32941, -1, 11.3267, 17.9675, 17.5456, 12.9106, 98.5807, -87.2185
1.33577, -1, 11.2311, 17.9187, 17.5649, 12.9118, 98.5298, -87.3477
1.34303, -1, 11.0396, 17.8212, 17.6034, 12.9143, 98.428, -87.6059
1.35353, -1, 10.848, 17.6751, 17.6612, 12.9181, 98.275, -87.9934
1.35977, -1, 10.6562, 17.6264, 17.6804, 12.9193, 98.224, -88.1225
1.367, -1, 10.4647, 17.5289, 17.7188, 12.9219, 98.1223, -88.3809
1.3779, -1, 10.1781, 17.3826, 17.7764, 12.9257, 97.9693, -88.768
1.384, -1, 10.0828, 17.3338, 17.7956, 12.927, 97.9184, -88.8971
1.39207, -1, 9.89236, 17.2362, 17.8339, 12.9297, 97.8167, -89.1552
1.39999, -1, 9.70223, 17.1387, 17.8723, 12.9323, 97.7146, -89.4133
1.40776, -1, 9.51265, 17.0413, 17.9106, 12.9351, 97.6127, -89.6713
1.41501, -1, 9.32343, 16.9439, 17.9489, 12.9378, 97.511, -89.9289
1.42399, -1, 9.13414, 16.8465, 17.9873, 12.9405, 97.409, -90.1865
1.43178, -1, 8.9448, 16.7494, 18.0257, 12.9431, 97.3072, -90.444
1.43898, -1, 8.75525, 16.6522, 18.064, 12.9457, 97.2055, -90.7015
1.44803, -1, 8.56567, 16.555, 18.1025, 12.9484, 97.1038, -90.9587
1.4558, -1, 8.37592, 16.458, 18.1408, 12.9511, 97.0023, -91.216
1.46398, -1, 8.18565, 16.3611, 18.1791, 12.9538, 96.9008, -91.4731
1.472, -1, 7.99504, 16.2643, 18.2175, 12.9564, 96.7992, -91.7303
1.48154, -1, 7.80445, 16.1674, 18.2558, 12.959, 96.6979, -91.9871
1.488, -1, 7.61382, 16.0705, 18.2941, 12.9615, 96.5963, -92.2438
1.49701, -1, 7.42334, 15.9736, 18.3325, 12.964, 96.4948, -92.5005
1.50376, -1, 7.23317, 15.8767, 18.3707, 12.9667, 96.3937, -92.7573
1.51198, -1, 7.04338, 15.7797, 18.4089, 12.9692, 96.2922, -93.014
1.51998, -1, 6.85392, 15.6827, 18.4472, 12.9717, 96.1908, -93.2704
1.52801, -1, 6.66498, 15.5858, 18.4853, 12.9742, 96.0902, -93.5268
1.53609, -1, 6.47651, 15.489, 18.5234, 12.9767, 95.9891, -93.7832
1.54299, -1, 6.28834, 15.3922, 18.5616, 12.9791, 95.888, -94.0397
1.55201, -1, 6.1003, 15.2955, 18.5998, 12.9816, 95.7873, -94.2956
1.55912, -1, 5.91208, 15.1988, 18.638, 12.9839, 95.6863, -94.5516
1.56708, -1, 5.72368, 15.1021, 18.6762, 12.9863, 95.5852, -94.8075
1.57579, -1, 5.53517, 15.0055, 18.7143, 12.9885, 95.4847, -95.0635
1.58398, -1, 5.34646, 14.9091, 18.7525, 12.9908, 95.3837, -95.319
1.59206, -1, 5.1573, 14.8127, 18.7907, 12.9931, 95.283, -95.5745
1.59999, -1, 4.96779, 14.7164, 18.8287, 12.9953, 95.1825, -95.83
1.60798, -1, 4.77835, 14.62, 18.8668, 12.9975, 95.0816, -96.0854
1.61608, -1, 4.5889, 14.5237, 18.9049, 12.9997, 94.9809, -96.3406
1.62435, -1, 4.39961, 14.4274, 18.943, 13.0019, 94.8803, -96.5955
1.63107, -1, 4.21065, 14.331, 18.981, 13.0041, 94.7794, -96.8505
1.63907, -1, 4.02202, 14.2346, 19.019, 13.0064, 94.6786, -97.1056
1.64749, -1, 3.83401, 14.1383, 19.057, 13.0086, 94.5777, -97.3606
1.65525, -1, 3.64649, 14.0421, 19.095, 13.0109, 94.4769, -97.6153
1.66414, -1, 3.45932, 13.9459, 19.1329, 13.0132, 94.3763, -97.8701
1.6714, -1, 3.27235, 13.8499, 19.1706, 13.0155, 94.2756, -98.1249
1.67948, -1, 3.08539, 13.7539, 19.2085, 13.0177, 94.1748, -98.3797
1.68825, -1, 2.89843, 13.6579, 19.2465, 13.02, 94.0743, -98.6341
1.69652, -1, 2.71135, 13.5618, 19.2845, 13.0223, 93.9738, -98.8882
1.7041, -1, 2.52405, 13.4659, 19.3224, 13.0246, 93.8733, -99.1423
1.71245, -1, 2.33668, 13.37, 19.3602, 13.0269, 93.773, -99.3965
1.71961, -1, 2.24285, 13.2743, 19.398, 13.0291, 93.6726, -99.6504
1.72815, -1, 1.96063, 13.1785, 19.4359, 13.0313, 93.5724, -99.904
1.73496, -1, 1.86655, 13.1306, 19.4548, 13.0324, 93.5224, -100.031
1.74299, -1, 1.67841, 13.0348, 19.4925, 13.0348, 93.4225, -100.285
1.75203, -1, 1.39607, 12.8911, 19.5492, 13.0381, 93.2723, -100.665
1.75896, -1, 1.3021, 12.8431, 19.5681, 13.0392, 93.2224, -100.792
1.76698, -1, 1.11447, 12.7473, 19.6057, 13.0416, 93.1225, -101.045
1.775, -1, 0.927436, 12.6517, 19.6435, 13.0439, 93.0224, -101.298
1.78524, -1, 0.647745, 12.5082, 19.7, 13.0475, 92.8728, -101.677
1.79105, -1, 0.554722, 12.4605, 19.7188, 13.0487, 92.8227, -101.804
1.80041, -1, 0.276206, 12.3175, 19.7753, 13.0525, 92.673, -102.183
1.80696, -1, 0.183494, 12.2697, 19.7941, 13.0537, 92.6234, -102.309
1.81502, -1, -0.00185399, 12.1744, 19.8316, 13.0561, 92.5238, -102.562
1.82457, -1, -0.280254, 12.0315, 19.8881, 13.0598, 92.3744, -102.941
1.83339, -1, -0.466064, 11.9364, 19.9257, 13.0623, 92.2752, -103.193
1.83904, -1, -0.559165, 11.8889, 19.9444, 13.0635, 92.2254, -103.319
1.84861, -1, -0.838782, 11.7464, 20.0008, 13.0672, 92.0761, -103.697
1.85733, -1, -0.932077, 11.6989, 20.0195, 13.0685, 92.0266, -103.823
1.86303, -1, -1.11885, 11.6038, 20.0569, 13.0711, 91.9272, -104.075
1.87299, -1, -1.39926, 11.4613, 20.1133, 13.0748, 91.7782, -104.452
1.87996, -1, -1.4927, 11.4137, 20.132, 13.0761, 91.7287, -104.578
1.88702, -1, -1.6793, 11.3186, 20.1693, 13.0787, 91.6295, -104.83
1.89605, -1, -1.86556, 11.2235, 20.2068, 13.0813, 91.5302, -105.081
1.90405, -1, -2.05129, 11.1285, 20.2442, 13.084, 91.4313, -105.332
1.91202, -1, -2.23639, 11.0337, 20.2816, 13.0866, 91.332, -105.583
1.91996, -1, -2.42127, 10.9388, 20.319, 13.0893, 91.2328, -105.834
1.92796, -1, -2.60578, 10.844, 20.3564, 13.092, 91.1339, -106.085
1.93497, -1, -2.78961, 10.7493, 20.3936, 13.0947, 91.0347, -106.336
1.94396, -1, -2.9735, 10.6546, 20.431, 13.0973, 90.9355, -106.587
1.95202, -1, -3.15762, 10.5598, 20.4683, 13.0998, 90.8368, -106.838
1.95899, -1, -3.34187, 10.4653, 20.5055, 13.1024, 90.7377, -107.088
1.96797, -1, -3.52645, 10.3709, 20.5428, 13.1049, 90.6388, -107.339
1.97598, -1, -3.71116, 10.2765, 20.58, 13.1074, 90.5402, -107.589
1.98497, -1, -3.89621, 10.1822, 20.6173, 13.1099, 90.4413, -107.839
1.99098, -1, -4.08153, 10.0879, 20.6546, 13.1123, 90.3427, -108.089
1.99997, -1, -4.26704, 9.99363, 20.6917, 13.1147, 90.2441, -108.339
2.00803, -1, -4.45265, 9.89933, 20.7288, 13.117, 90.1453, -108.589
2.01596, -1, -4.63801, 9.80497, 20.7662, 13.1194, 90.0467, -108.838
2.02402, -1, -4.82301, 9.71074, 20.8033, 13.1217, 89.9485, -109.087
2.03198, -1, -5.00753, 9.61664, 20.8403, 13.1241, 89.8499, -109.337
2.03997, -1, -5.19132, 9.52256, 20.8774, 13.1264, 89.7515, -109.586
2.04803, -1, -5.37476, 9.4285, 20.9145, 13.1287, 89.6534, -109.835
2.05597, -1, -5.55767, 9.33461, 20.9516, 13.131, 89.5549, -110.084
2.064, -1, -5.74014, 9.2407, 20.9887, 13.1333, 89.4566, -110.333
2.07203, -1, -5.9225, 9.14678, 21.0258, 13.1356, 89.3587, -110.581
2.07996, -1, -6.10496, 9.05293, 21.0627, 13.1378, 89.2603, -110.83
2.08796, -1, -6.28766, 8.95919, 21.0998, 13.14, 89.1622, -111.078
2.09605, -1, -6.47059, 8.86557, 21.1368, 13.1422, 89.0645, -111.327
2.10396, -1, -6.65374, 8.77192, 21.1735, 13.1443, 88.9665, -111.575
2.11197, -1, -6.83729, 8.6783, 21.2105, 13.1465, 88.8685, -111.823
2.12007, -1, -7.02116, 8.58473, 21.2474, 13.1486, 88.7709, -112.071
2.12796, -1, -7.20523, 8.49118, 21.2843, 13.1508, 88.6729, -112.319
2.13597, -1, -7.3894, 8.39754, 21.3212, 13.1528, 88.575, -112.566
2.14404, -1, -7.57322, 8.30392, 21.358, 13.155, 88.4775, -112.814
2.15206, -1, -7.75683, 8.21047, 21.3948, 13.1571, 88.3798, -113.061
2.15926, -1, -7.93992, 8.11708, 21.4317, 13.1594, 88.2824, -113.308
2.16728, -1, -8.1225, 8.02371, 21.4685, 13.1616, 88.1851, -113.555
2.17545, -1, -8.30436, 7.93046, 21.5051, 13.1638, 88.0876, -113.803
2.18346, -1, -8.4858, 7.83721, 21.542, 13.1661, 87.9903, -114.05
2.19206, -1, -8.66684, 7.744, 21.5788, 13.1684, 87.8931, -114.296
2.19957, -1, -8.84758, 7.65083, 21.6155, 13.1707, 87.7955, -114.543
2.20812, -1, -9.02839, 7.55776, 21.6523, 13.1729, 87.6981, -114.789
2.21554, -1, -9.20946, 7.46478, 21.689, 13.1751, 87.6009, -115.036
2.22406, -1, -9.39069, 7.37199, 21.7256, 13.1774, 87.5037, -115.282
2.23151, -1, -9.48146, 7.32558, 21.744, 13.1785, 87.455, -115.528
2.23997, -1, -9.75417, 7.18641, 21.799, 13.1819, 87.3095, -115.774
2.24701, -1, -9.84526, 7.14007, 21.8172, 13.183, 87.2608, -115.897
2.25606, -1, -10.119, 7.00099, 21.872, 13.1862, 87.1151, -116.266
2.26295, -1, -10.2103, 6.95458, 21.8903, 13.1874, 87.0667, -116.389
2.27217, -1, -10.4842, 6.81545, 21.9452, 13.1907, 86.9209, -116.757
2.27903, -1, -10.5754, 6.7691, 21.9635, 13.1918, 86.8724, -116.88
2.28828, -1, -10.8483, 6.63014, 22.0182, 13.1953, 86.727, -117.248
2.29504, -1, -10.9391, 6.58383, 22.0364, 13.1965, 86.6785, -117.371
2.30438, -1, -11.21, 6.44508, 22.0912, 13.2002, 86.5333, -117.738
2.31243, -1, -11.39, 6.35262, 22.1277, 13.2026, 86.4368, -117.983
2.31895, -1, -11.4799, 6.30639, 22.1458, 13.2038, 86.3884, -118.106
2.32853, -1, -11.7491, 6.16776, 22.2005, 13.2075, 86.2434, -118.473
2.33651, -1, -11.9283, 6.07548, 22.237, 13.21, 86.1469, -118.717
2.34459, -1, -12.1077, 5.98324, 22.2733, 13.2124, 86.0502, -118.961
2.35253, -1, -12.1974, 5.93718, 22.2915, 13.2137, 85.9538, -119.205
2.35995, -1, -12.377, 5.84518, 22.328, 13.2162, 85.9058, -119.327
2.36857, -1, -12.557, 5.75316, 22.3642, 13.2187, 85.8093, -119.572
2.37595, -1, -12.7374, 5.66118, 22.4004, 13.2212, 85.7129, -119.815
2.38394, -1, -12.9182, 5.56929, 22.4368, 13.2236, 85.6171, -120.059
2.392, -1, -13.0992, 5.47736, 22.473, 13.2261, 85.5209, -120.303
2.40002, -1, -13.2805, 5.38532, 22.5092, 13.2285, 85.425, -120.547
2.40701, -1, -13.4615, 5.2934, 22.5455, 13.2309, 85.3294, -120.79
2.41599, -1, -13.6422, 5.2015, 22.5817, 13.2334, 85.2335, -121.033
2.42395, -1, -13.8225, 5.10967, 22.6178, 13.236, 85.1377, -121.276
2.43094, -1, -14.0021, 5.01785, 22.654, 13.2386, 85.0421, -121.519
2.43994, -1, -14.1808, 4.92616, 22.6901, 13.2411, 84.9465, -121.762
2.44796, -1, -14.3591, 4.83446, 22.7262, 13.2437, 84.8508, -122.005
2.45494, -1, -14.5371, 4.74281, 22.7624, 13.2462, 84.7553, -122.247
2.46395, -1, -14.7148, 4.65122, 22.7985, 13.2487, 84.6596, -122.49
2.47194, -1, -14.8924, 4.55974, 22.8346, 13.2512, 84.5639, -122.732
2.47894, -1, -15.0701, 4.46831, 22.8707, 13.2536, 84.4683, -122.975
2.48798, -1, -15.2481, 4.37706, 22.9069, 13.2561, 84.3727, -123.217
2.497, -1, -15.4265, 4.28575, 22.9429, 13.2584, 84.277, -123.458
2.50401, -1, -15.6053, 4.19448, 22.979, 13.2608, 84.1814, -123.7
2.51301, -1, -15.7845, 4.10328, 23.015, 13.263, 84.0859, -123.942
2.51995, -1, -15.9637, 4.01208, 23.0509, 13.2652, 83.9903, -124.183
2.52794, -1, -16.1431, 3.92081, 23.0869, 13.2674, 83.8949, -124.425
2.53594, -1, -16.3229, 3.82961, 23.1228, 13.2695, 83.7995, -124.666
2.54402, -1, -16.5023, 3.73843, 23.1586, 13.2717, 83.7041, -124.908
2.55194, -1, -16.6813, 3.64733, 23.1944, 13.2739, 83.6087, -125.149
2.55994, -1, -16.8599, 3.55623, 23.2302, 13.2762, 83.5134, -125.39
2.56849, -1, -17.0376, 3.46521, 23.2661, 13.2784, 83.418, -125.631
2.57503, -1, -17.2144, 3.37424, 23.3019, 13.2805, 83.3227, -125.872
2.58394, -1, -17.391, 3.28337, 23.3378, 13.2827, 83.2277, -126.112
2.59277, -1, -17.5673, 3.19254, 23.3735, 13.2848, 83.1326, -126.353
2.601, -1, -17.7433, 3.10188, 23.4094, 13.287, 83.0376, -126.593
2.60795, -1, -17.9193, 3.01126, 23.4453, 13.2891, 82.9429, -126.833
2.61673, -1, -18.0956, 2.92079, 23.481, 13.2912, 82.848, -127.073
2.62399, -1, -18.2721, 2.83042, 23.5167, 13.2934, 82.7533, -127.313
2.63194, -1, -18.449, 2.74, 23.5525, 13.2955, 82.6589, -127.553
2.64075, -1, -18.6264, 2.64962, 23.5881, 13.2975, 82.5641, -127.793
2.64798, -1, -18.804, 2.55929, 23.6238, 13.2995, 82.4695, -128.032
2.65594, -1, -18.982, 2.46885, 23.6596, 13.3015, 82.3751, -128.272
2.66474, -1, -19.1602, 2.37835, 23.6952, 13.3035, 82.2805, -128.511
2.67194, -1, -19.3383, 2.28801, 23.7307, 13.3055, 82.1862, -128.75
2.68004, -1, -19.516, 2.19761, 23.7664, 13.3076, 82.0923, -128.989
2.68881, -1, -19.6932, 2.10716, 23.8019, 13.3098, 81.9981, -129.228
2.69603, -1, -19.8698, 2.01688, 23.8372, 13.3119, 81.9038, -129.467
2.70409, -1, -20.0456, 1.92661, 23.8729, 13.3141, 81.8101, -129.706
2.71285, -1, -20.2209, 1.83639, 23.9084, 13.3163, 81.7159, -129.945
2.72004, -1, -20.3958, 1.74622, 23.9438, 13.3185, 81.6218, -130.183
2.72812, -1, -20.5704, 1.65616, 23.9795, 13.3207, 81.5281, -130.422
2.73547, -1, -20.6576, 1.61116, 23.9973, 13.3218, 81.481, -130.541
2.74396, -1, -20.9195, 1.4763, 24.0504, 13.3251, 81.3402, -130.898
2.75204, -1, -21.0944, 1.38659, 24.0859, 13.3273, 81.2465, -131.136
2.75893, -1, -21.1821, 1.34172, 24.1037, 13.3284, 81.1996, -131.255
2.76808, -1, -21.4454, 1.20714, 24.1568, 13.3316, 81.0587, -131.611
2.77493, -1, -21.5333, 1.16235, 24.1744, 13.3327, 81.0118, -131.73
2.78674, -1, -21.7975, 1.0279, 24.2276, 13.3359, 80.8712, -132.086
2.79088, -1, -21.8857, 0.983082, 24.2453, 13.337, 80.8243, -132.205
2.80032, -1, -22.1505, 0.848717, 24.2984, 13.3403, 80.6838, -132.561
2.80697, -1, -22.2389, 0.803935, 24.3161, 13.3413, 80.637, -132.68
2.81649, -1, -22.5032, 0.669699, 24.369, 13.3447, 80.4965, -133.035
2.82445, -1, -22.6789, 0.580166, 24.4042, 13.3471, 80.4028, -133.272
2.83332, -1, -22.854, 0.490785, 24.4395, 13.3495, 80.3092, -133.509
2.83894, -1, -22.9411, 0.446088, 24.4571, 13.3507, 80.2624, -133.627
2.84849, -1, -23.1148, 0.311995, 24.5098, 13.3545, 80.1222, -133.983
2.85741, -1, -23.2883, 0.267346, 24.5274, 13.3557, 80.0757, -134.219
2.86293, -1, -23.4614, 0.178064, 24.5626, 13.358, 79.9822, -134.337
2.87303, -1, -23.7212, 0.0443689, 24.6153, 13.3616, 79.8422, -134.691
2.87902, -1, -23.8078, -0.000164953, 24.633, 13.3628, 79.7957, -134.809
2.88899, -1, -24.068, -0.133615, 24.6857, 13.3665, 79.6557, -135.164
2.89592, -1, -24.1549, -0.178087, 24.7032, 13.3678, 79.6092, -135.281
2.90397, -1, -24.3287, -0.266993, 24.7383, 13.3703, 79.5162, -135.517
2.91097, -1, -24.5029, -0.35583, 24.7735, 13.3727, 79.4232, -135.753
2.91992, -1, -24.6776, -0.444692, 24.8085, 13.3751, 79.3301, -135.988
2.92791, -1, -24.8525, -0.533594, 24.8435, 13.3775, 79.2371, -136.224
2.93598, -1, -25.0276, -0.622429, 24.8787, 13.3798, 79.1442, -136.459
2.94391, -1, -25.2026, -0.711273, 24.9137, 13.3822, 79.0512, -136.694
2.95192, -1, -25.3772, -0.800027, 24.9487, 13.3845, 78.9585, -136.929
2.95893, -1, -25.5514, -0.888878, 24.9838, 13.387, 78.8658, -137.164
2.96792, -1, -25.7251, -0.977592, 25.0187, 13.3895, 78.7729, -137.399
2.97494, -1, -25.898, -1.06629, 25.0535, 13.3918, 78.6803, -137.634
2.98395, -1, -26.0704, -1.15495, 25.0886, 13.3943, 78.5881, -137.868
2.99191, -1, -26.2425, -1.24353, 25.1235, 13.3966, 78.4953, -138.103
2.99999, -1, -26.4142, -1.33205, 25.1583, 13.399, 78.4027, -138.337
3.00998, -1, -26.672, -1.4646, 25.2107, 13.4024, 78.2642, -138.688
3.01591, -1, -26.758, -1.50875, 25.2282, 13.4035, 78.2179, -138.806
3.02399, -1, -26.9302, -1.59694, 25.2631, 13.4058, 78.1255, -139.04
3.03195, -1, -27.1027, -1.6851, 25.2979, 13.4079, 78.0334, -139.273
3.03993, -1, -27.2751, -1.7733, 25.3329, 13.4102, 77.9411, -139.507
3.04799, -1, -27.4479, -1.86138, 25.3676, 13.4124, 77.849, -139.741
3.05593, -1, -27.6211, -1.94948, 25.4023, 13.4144, 77.757, -139.974
3.06399, -1, -27.7944, -2.03772, 25.4373, 13.4165, 77.665, -140.208
3.07195, -1, -27.9677, -2.12572, 25.472, 13.4186, 77.573, -140.441
3.07991, -1, -28.1411, -2.21378, 25.5067, 13.4206, 77.4811, -140.674
3.08799, -1, -28.3143, -2.30184, 25.5415, 13.4226, 77.3891, -140.908
3.09592, -1, -28.4871, -2.38989, 25.5763, 13.4246, 77.2969, -141.14
3.10398, -1, -28.6596, -2.47781, 25.611, 13.4268, 77.2048, -141.373
3.11199, -1, -28.8313, -2.56575, 25.6457, 13.4289, 77.1128, -141.606
3.11991, -1, -29.0023, -2.65374, 25.6804, 13.4311, 77.0209, -141.839
3.12797, -1, -29.1729, -2.74158, 25.7149, 13.4333, 76.9289, -142.072
3.136, -1, -29.3434, -2.82932, 25.7496, 13.4353, 76.8372, -142.304
3.14391, -1, -29.514, -2.91702, 25.7843, 13.4374, 76.7453, -142.536
3.15195, -1, -29.6849, -3.00459, 25.8188, 13.4393, 76.6534, -142.769
3.15999, -1, -29.8559, -3.09215, 25.8534, 13.4414, 76.5619, -143.001
3.16791, -1, -30.0269, -3.17963, 25.888, 13.4435, 76.4699, -143.234
3.17613, -1, -30.1978, -3.26718, 25.9226, 13.4455, 76.3783, -143.466
3.18332, -1, -30.369, -3.35459, 25.9571, 13.4477, 76.2868, -143.697
3.19151, -1, -30.5405, -3.44205, 25.9917, 13.4497, 76.1951, -143.929
3.20026, -1, -30.7124, -3.5296, 26.0261, 13.4517, 76.1036, -144.161
3.20756, -1, -30.8842, -3.61693, 26.0606, 13.4538, 76.0123, -144.392
3.21603, -1, -31.0561, -3.70431, 26.0952, 13.4558, 75.9209, -144.624
3.22448, -1, -31.2278, -3.79164, 26.1297, 13.4578, 75.8296, -144.855
3.2315, -1, -31.3136, -3.83528, 26.1468, 13.4599, 75.7384, -145.086
3.24002, -1, -31.5701, -3.9662, 26.1985, 13.462, 75.6471, -145.317
3.24869, -1, -31.7406, -4.05341, 26.2329, 13.4642, 75.5558, -145.548
3.25597, -1, -31.9105, -4.14065, 26.2673, 13.4664, 75.4647, -145.779
3.26297, -1, -31.9954, -4.18427, 26.2845, 13.4675, 75.4192, -145.895
3.27287, -1, -32.2495, -4.31491, 26.3361, 13.4708, 75.2824, -146.241
3.28008, -1, -32.4189, -4.40196, 26.3704, 13.4729, 75.1913, -146.472
3.28696, -1, -32.5037, -4.44547, 26.3875, 13.474, 75.146, -146.587
3.29714, -1, -32.7582, -4.57587, 26.4391, 13.4772, 75.0096, -146.932
3.303, -1, -32.843, -4.61934, 26.4563, 13.4782, 74.9643, -147.048
3.31241, -1, -33.0975, -4.74972, 26.5075, 13.4815, 74.8285, -147.393
3.32126, -1, -33.2673, -4.83654, 26.5418, 13.4837, 74.7377, -147.623
3.327, -1, -33.3523, -4.87996, 26.559, 13.4849, 74.6924, -147.738
3.33655, -1, -33.6078, -5.01037, 26.6103, 13.4882, 74.5565, -148.083
3.34536, -1, -33.7781, -5.09713, 26.6446, 13.4904, 74.4659, -148.313
3.35097, -1, -33.8632, -5.14049, 26.6617, 13.4916, 74.4205, -148.428
3.36055, -1, -34.0335, -5.22721, 26.6958, 13.4949, 74.2848, -148.772
3.3679, -1, -34.2038, -5.31394, 26.7299, 13.496, 74.2397, -148.886
3.37497, -1, -34.3739, -5.40056, 26.7642, 13.4983, 74.149, -149.116
3.38495, -1, -34.6283, -5.53053, 26.8154, 13.5019, 74.0132, -149.46
3.39192, -1, -34.7128, -5.57387, 26.8324, 13.503, 73.9681, -149.574
3.39897, -1, -34.8815, -5.66049, 26.8665, 13.5054, 73.8774, -149.804
3.408, -1, -35.05, -5.74704, 26.9006, 13.5079, 73.787, -150.033
3.4159, -1, -35.2182, -5.83352, 26.9347, 13.5103, 73.6966, -150.262
3.42293, -1, -35.3865, -5.9199, 26.9688, 13.5128, 73.6063, -150.49
3.4319, -1, -35.555, -6.00613, 27.0029, 13.5151, 73.5159, -150.719
3.43991, -1, -35.7235, -6.09238, 27.0368, 13.5175, 73.4255, -150.948
3.44691, -1, -35.892, -6.17856, 27.0708, 13.5198, 73.3353, -151.177
3.4559, -1, -36.0605, -6.26467, 27.1049, 13.5222, 73.2448, -151.405
3.46397, -1, -36.229, -6.35079, 27.1388, 13.5247, 73.1544, -151.634
3.47094, -1, -36.3978, -6.437, 27.1727, 13.527, 73.0643, -151.862
3.4799, -1, -36.5666, -6.52323, 27.2067, 13.5294, 72.9737, -152.091
3.48797, -1, -36.7355, -6.6094, 27.2405, 13.5316, 72.8836, -152.319
3.49691, -1, -36.9046, -6.69557, 27.2744, 13.5339, 72.7935, -152.547
3.50389, -1, -37.0736, -6.78174, 27.3084, 13.5362, 72.7033, -152.775
3.51467, -1, -37.3267, -6.91087, 27.3592, 13.5395, 72.5683, -153.117
3.5199, -1, -37.4109, -6.95386, 27.3761, 13.5406, 72.5234, -153.23
3.52798, -1, -37.579, -7.0399, 27.41, 13.5429, 72.4335, -153.458
3.53589, -1, -37.7467, -7.1259, 27.444, 13.5451, 72.3437, -153.685
3.5439, -1, -37.9143, -7.21185, 27.4778, 13.5474, 72.254, -153.913
3.55198, -1, -38.0818, -7.29776, 27.5116, 13.5496, 72.1644, -154.14
3.5599, -1, -38.2492, -7.38362, 27.5456, 13.5517, 72.0745, -154.368
3.56791, -1, -38.4165, -7.46935, 27.5794, 13.5539, 71.9848, -154.595
3.57602, -1, -38.5837, -7.55503, 27.6132, 13.5559, 71.8953, -154.822
3.58389, -1, -38.7511, -7.64073, 27.6472, 13.558, 71.8055, -155.049
3.5919, -1, -38.9184, -7.72639, 27.6809, 13.5601, 71.716, -155.276
3.59998, -1, -39.0856, -7.81201, 27.7146, 13.5621, 71.627, -155.503
3.6079, -1, -39.2532, -7.89766, 27.7485, 13.5641, 71.5373, -155.73
3.61509, -1, -39.4207, -7.98335, 27.7824, 13.5661, 71.4481, -155.957
3.62398, -1, -39.5884, -8.06889, 27.816, 13.5681, 71.3588, -156.183
3.63195, -1, -39.756, -8.15441, 27.8496, 13.57, 71.2695, -156.41
3.63907, -1, -39.9237, -8.23986, 27.8834, 13.5719, 71.1802, -156.636
3.64784, -1, -40.0913, -8.32532, 27.9171, 13.5738, 71.0907, -156.862
3.65592, -1, -40.2588, -8.41067, 27.9507, 13.5758, 71.0015, -157.089
3.66389, -1, -40.426, -8.49606, 27.9845, 13.5778, 70.912, -157.315
3.67199, -1, -40.593, -8.58141, 28.0181, 13.5798, 70.8228, -157.541
3.6799, -1, -40.7598, -8.66679, 28.0517, 13.5817, 70.7338, -157.767
3.68795, -1, -40.9263, -8.75214, 28.0854, 13.5837, 70.6446, -157.993
3.69631, -1, -41.0927, -8.83745, 28.1191, 13.5858, 70.5555, -158.219
3.70349, -1, -41.259, -8.9227, 28.1527, 13.5878, 70.4666, -158.445
3.712, -1, -41.4252, -9.00787, 28.1863, 13.5898, 70.3773, -158.67
3.7204, -1, -41.5914, -9.09297, 28.22, 13.5918, 70.2881, -158.896
3.72767, -1, -41.6746, -9.17808, 28.2535, 13.5938, 70.199, -159.121
3.736, -1, -41.9241, -9.26312, 28.2872, 13.5957, 70.1099, -159.347
3.74475, -1, -42.0905, -9.34812, 28.3209, 13.5978, 70.0208, -159.572
3.75193, -1, -42.2568, -9.4332, 28.3545, 13.5998, 69.9318, -159.797
3.75897, -1, -42.3399, -9.47572, 28.3712, 13.6008, 69.8875, -159.91
3.7688, -1, -42.5895, -9.60317, 28.4216, 13.6038, 69.754, -160.248
3.77619, -1, -42.7559, -9.68811, 28.4551, 13.6059, 69.6652, -160.473
3.78296, -1, -42.839, -9.73059, 28.4718, 13.6069, 69.6209, -160.586
3.7922, -1, -43.0886, -9.85796, 28.522, 13.61, 69.4877, -160.923
3.79889, -1, -43.1717, -9.90043, 28.5388, 13.611, 69.4434, -161.035
3.80698, -1, -43.3378, -9.98535, 28.5723, 13.6131, 69.3547, -161.26
3.81638, -1, -43.5868, -10.1127, 28.6225, 13.6162, 69.2217, -161.597
3.82292, -1, -43.6698, -10.1552, 28.6393, 13.6172, 69.1774, -161.71
3.83241, -1, -43.9187, -10.2824, 28.6895, 13.6205, 69.0446, -162.047
3.8405, -1, -44.0843, -10.3672, 28.7229, 13.6226, 68.9562, -162.271
3.84919, -1, -44.2496, -10.4519, 28.7564, 13.6247, 68.8675, -162.495
3.85496, -1, -44.3322, -10.4942, 28.7732, 13.6258, 68.8232, -162.607
3.86452, -1, -44.4974, -10.5787, 28.8065, 13.6291, 68.6905, -162.944
3.87188, -1, -44.6625, -10.6632, 28.8399, 13.6302, 68.6462, -163.056
3.87895, -1, -44.8278, -10.7476, 28.8735, 13.6325, 68.5575, -163.28
3.88795, -1, -44.9931, -10.832, 28.9069, 13.6347, 68.4691, -163.504
3.89588, -1, -45.1583, -10.9166, 28.9403, 13.6369, 68.3807, -163.728
3.90388, -1, -45.3237, -11.0011, 28.9738, 13.6391, 68.2922, -163.952
3.91201, -1, -45.4889, -11.0855, 29.0072, 13.6414, 68.2037, -164.176
3.91988, -1, -45.6542, -11.1699, 29.0403, 13.6437, 68.1158, -164.4
3.92789, -1, -45.8195, -11.2543, 29.0737, 13.646, 68.0272, -164.623
3.93593, -1, -45.9838, -11.3382, 29.1071, 13.6482, 67.9389, -164.847
3.94388, -1, -46.1452, -11.4206, 29.1405, 13.6505, 67.8509, -165.07
3.95189, -1, -46.3025, -11.5, 29.1742, 13.6529, 67.7634, -165.291
3.95993, -1, -46.453, -11.5752, 29.2077, 13.6553, 67.6781, -165.507
3.96795, -1, -46.5944, -11.6452, 29.24, 13.6575, 67.5965, -165.713
3.97588, -1, -46.7243, -11.7087, 29.27, 13.6596, 67.5217, -165.903
3.98395, -1, -46.8398, -11.765, 29.2965, 13.6617, 67.4544, -166.072
3.9919, -1, -46.9389, -11.8143, 29.3188, 13.6634, 67.3983, -166.215
3.99988, -1, -47.0218, -11.8574, 29.3355, 13.6647, 67.3531, -166.329
4.00796, -1, -47.0894, -11.8944, 29.3469, 13.6654, 67.3193, -166.414
4.017, -1, -47.1421, -11.9241, 29.3542, 13.6659, 67.2957, -166.474
4.02388, -1, -47.1813, -11.9464, 29.3582, 13.6661, 67.2805, -166.512
4.03191, -1, -47.2092, -11.962, 29.36, 13.6662, 67.2716, -166.534
4.03988, -1, -47.2277, -11.9722, 29.3608, 13.6663, 67.2668, -166.547
4.04789, -1, -47.2388, -11.9781, 29.3612, 13.6664, 67.2644, -166.553
4.05591, 2, -47.2446, -11.9811, 29.3615, 13.6664, 67.2632, -166.555
4.06389, 2, -47.2468, -11.9824, 29.3616, 13.6664, 67.2627, -166.557
4.07188, 2, -47.2468, -11.9829, 29.3617, 13.6665, 67.2625, -166.557
4.07999, 2, -47.2465, -11.9831, 29.3617, 13.6665, 67.2623, -166.557
4.08789, 2, -47.2464, -11.9832, 29.3618, 13.6665, 67.2622, -166.558
4.09588, 2, -47.2467, -11.9833, 29.3618, 13.6665, 67.2622, -166.558
4.10395, 2, -47.2477, -11.9835, 29.3618, 13.6666, 67.2622, -166.558
4.11188, 2, -47.2489, -11.984, 29.3619, 13.6665, 67.2622, -166.558
4.11988, 2, -47.2508, -11.9847, 29.3619, 13.6665, 67.2622, -166.558
4.12796, 2, -47.2524, -11.9856, 29.3619, 13.6665, 67.2622, -166.558
4.13591, 2, -47.2539, -11.9865, 29.3619, 13.6665, 67.2623, -166.558
4.14388, 2, -47.255, -11.9871, 29.3619, 13.6665, 67.2623, -166.558
4.15196, 2, -47.2555, -11.9875, 29.3619, 13.6665, 67.2622, -166.558
4.1599, 2, -47.2557, -11.9877, 29.3619, 13.6665, 67.2622, -166.558
4.16789, 2, -47.2557, -11.9878, 29.3619, 13.6665, 67.2622, -166.558
4.17595, 2, -47.2555, -11.9878, 29.3619, 13.6666, 67.2623, -166.558
4.18388, 2, -47.255, -11.9878, 29.3619, 13.6665, 67.2622, -166.558
4.19192, 2, -47.2544, -11.9878, 29.3619, 13.6665, 67.2622, -166.558
4.20004, 2, -47.254, -11.9878, 29.3619, 13.6665, 67.2622, -166.558
4.20799, 2, -47.2537, -11.9878, 29.3619, 13.6665, 67.2622, -166.558
4.21598, 2, -47.2537, -11.9878, 29.3619, 13.6665, 67.2623, -166.558
4.22405, 2, -47.2537, -11.988, 29.3619, 13.6665, 67.2623, -166.558
4.23199, 2, -47.2539, -11.9883, 29.3619, 13.6665, 67.2623, -166.558
4.23988, 2, -47.2544, -11.9886, 29.3619, 13.6665, 67.2623, -166.558
4.24809, 2, -47.255, -11.9889, 29.3619, 13.6665, 67.2623, -166.558
4.25591, 2, -47.2555, -11.9891, 29.3619, 13.6666, 67.2623, -166.558
4.26397, 2, -47.2557, -11.9892, 29.3619, 13.6665, 67.2623, -166.558
4.27201, 2, -47.2558, -11.9892, 29.3619, 13.6665, 67.2622, -166.558
4.27888, 2, -47.2558, -11.9892, 29.3619, 13.6665, 67.2622, -166.558
4.28816, 2, -47.2556, -11.9892, 29.3619, 13.6665, 67.2623, -166.558
4.29488, 2, -47.2554, -11.9892, 29.3619, 13.6665, 67.2623, -166.558
4.30427, 2, -47.2547, -11.9891, 29.3619, 13.6665, 67.2623, -166.558
4.31099, 2, -47.2545, -11.9891, 29.3619, 13.6665, 67.2623, -166.558
4.32037, 2, -47.2541, -11.9891, 29.3619, 13.6664, 67.2623, -166.558
4.32841, 2, -47.2539, -11.9891, 29.3619, 13.6665, 67.2623, -166.557
4.33649, 2, -47.2538, -11.9892, 29.3619, 13.6664, 67.2623, -166.558
4.34447, 2, -47.2538, -11.9892, 29.3619, 13.6664, 67.2623, -166.558
4.35245, 2, -47.2538, -11.9893, 29.3619, 13.6664, 67.2623, -166.558
4.36051, 2, -47.2538, -11.9893, 29.3619, 13.6664, 67.2623, -166.558
4.3685, 2, -47.2538, -11.9893, 29.3619, 13.6664, 67.2623, -166.557
4.37586, 2, -47.2539, -11.9893, 29.3619, 13.6664, 67.2623, -166.557
4.38387, 2, -47.2539, -11.9893, 29.3619, 13.6665, 67.2623, -166.557
4.3919, 2, -47.2538, -11.9892, 29.3619, 13.6664, 67.2623, -166.557
4.39987, 2, -47.2538, -11.9892, 29.3619, 13.6664, 67.2623, -166.557
4.40789, 2, -47.2537, -11.9891, 29.3619, 13.6664, 67.2623, -166.557
4.41594, 2, -47.2536, -11.9891, 29.3619, 13.6664, 67.2623, -166.557
4.42386, 2, -47.2535, -11.9891, 29.3619, 13.6664, 67.2623, -166.557
4.43193, 2, -47.2533, -11.9891, 29.3619, 13.6665, 67.2623, -166.557
4.4399, 2, -47.2532, -11.9891, 29.3619, 13.6664, 67.2623, -166.557
4.44787, 2, -47.2531, -11.9891, 29.3619, 13.6664, 67.2624, -166.557
4.45587, 2, -47.253, -11.9892, 29.3619, 13.6664, 67.2624, -166.557
4.46391, 2, -47.253, -11.9892, 29.3619, 13.6664, 67.2624, -166.557
4.47191, 2, -47.2529, -11.9892, 29.3619, 13.6664, 67.2624, -166.557
4.47987, 2, -47.2529, -11.9892, 29.3619, 13.6664, 67.2624, -166.557
4.48794, 2, -47.2528, -11.9891, 29.3619, 13.6664, 67.2624, -166.557
4.49589, 2, -47.2527, -11.9891, 29.3619, 13.6664, 67.2624, -166.557
4.50487, 2, -47.2526, -11.989, 29.3619, 13.6664, 67.2624, -166.557
4.51191, 2, -47.2526, -11.989, 29.3619, 13.6664, 67.2624, -166.557
4.51986, 2, -47.2525, -11.9889, 29.3619, 13.6664, 67.2624, -166.557
4.52788, 2, -47.2524, -11.9889, 29.3619, 13.6664, 67.2624, -166.557
4.5359, 2, -47.2524, -11.9889, 29.3619, 13.6664, 67.2624, -166.557
4.54386, 2, -47.2523, -11.9889, 29.3619, 13.6663, 67.2624, -166.557
4.55189, 2, -47.2522, -11.9889, 29.3619, 13.6663, 67.2624, -166.557
4.55991, 2, -47.2521, -11.9889, 29.3619, 13.6663, 67.2625, -166.557
4.56787, 2, -47.252, -11.9889, 29.3619, 13.6663, 67.2624, -166.557
4.57588, 2, -47.2519, -11.9889, 29.3619, 13.6663, 67.2624, -166.557
4.58395, 2, -47.2519, -11.9889, 29.3619, 13.6663, 67.2625, -166.557
4.59186, 2, -47.2518, -11.9889, 29.3619, 13.6663, 67.2625, -166.557
4.59988, 2, -47.2516, -11.9889, 29.3619, 13.6663, 67.2625, -166.557
4.60791, 2, -47.2515, -11.9888, 29.3619, 13.6664, 67.2625, -166.557
4.61586, 2, -47.2514, -11.9887, 29.3619, 13.6663, 67.2625, -166.557
4.62389, 2, -47.2513, -11.9887, 29.3619, 13.6663, 67.2625, -166.557
4.63191, 2, -47.2512, -11.9886, 29.3619, 13.6663, 67.2625, -166.557
4.6399, 2, -47.2511, -11.9886, 29.3619, 13.6663, 67.2625, -166.557
4.64788, 2, -47.2509, -11.9886, 29.3619, 13.6663, 67.2626, -166.557
4.65591, 2, -47.2508, -11.9886, 29.3619, 13.6663, 67.2626, -166.557
4.66389, 2, -47.2507, -11.9886, 29.3619, 13.6663, 67.2626, -166.557
4.67188, 2, -47.2507, -11.9886, 29.3619, 13.6663, 67.2626, -166.557
4.67992, 2, -47.2506, -11.9886, 29.3619, 13.6663, 67.2626, -166.557
4.68789, 2, -47.2505, -11.9886, 29.3619, 13.6662, 67.2626, -166.557
4.69596, 2, -47.2505, -11.9886, 29.3619, 13.6662, 67.2626, -166.557
4.70402, 2, -47.2504, -11.9885, 29.3619, 13.6662, 67.2627, -166.557
4.71196, 2, -47.2503, -11.9885, 29.3619, 13.6662, 67.2627, -166.557
4.72004, 2, -47.2503, -11.9884, 29.3619, 13.6662, 67.2627, -166.557
4.72802, 2, -47.2502, -11.9883, 29.3619, 13.6662, 67.2626, -166.557
4.73597, 2, -47.2501, -11.9883, 29.3619, 13.6662, 67.2627, -166.557
4.74403, 2, -47.25, -11.9883, 29.3619, 13.6662, 67.2627, -166.557
4.75202, 2, -47.2499, -11.9883, 29.3619, 13.6662, 67.2627, -166.557
4.75989, 2, -47.2499, -11.9883, 29.3619, 13.6662, 67.2627, -166.557
4.7678, 2, -47.2498, -11.9883, 29.3619, 13.6661, 67.2627, -166.556
4.77604, 2, -47.2498, -11.9883, 29.3619, 13.6661, 67.2627, -166.557
4.78493, 2, -47.2498, -11.9883, 29.3619, 13.666, 67.2627, -166.556
4.79264, 2, -47.2497, -11.9883, 29.3619, 13.666, 67.2627, -166.556
4.80028, 2, -47.2497, -11.9882, 29.3619, 13.666, 67.2627, -166.556
4.80688, 2, -47.2497, -11.9882, 29.3619, 13.666, 67.2627, -166.556
4.81665, 2, -47.2496, -11.9881, 29.3619, 13.666, 67.2627, -166.556
4.82438, 2, -47.2496, -11.9881, 29.3619, 13.666, 67.2628, -166.556
4.83239, 2, -47.2495, -11.988, 29.3619, 13.666, 67.2628, -166.556
4.84091, 2, -47.2494, -11.988, 29.3619, 13.666, 67.2628, -166.556
4.84845, 2, -47.2493, -11.9879, 29.3619, 13.666, 67.2627, -166.556
4.85641, 2, -47.2493, -11.9879, 29.3619, 13.666, 67.2628, -166.556
4.86472, 2, -47.2492, -11.9879, 29.3619, 13.666, 67.2628, -166.556
4.87244, 2, -47.2491, -11.9879, 29.3619, 13.666, 67.2628, -166.556
4.87985, 2, -47.2491, -11.9879, 29.3619, 13.666, 67.2628, -166.556
4.8889, 2, -47.2491, -11.9879, 29.3619, 13.666, 67.2628, -166.556
4.89588, 2, -47.249, -11.9879, 29.3619, 13.666, 67.2628, -166.556
4.90386, 2, -47.249, -11.9879, 29.3619, 13.6659, 67.2628, -166.556
4.91182, 2, -47.249, -11.9878, 29.3619, 13.666, 67.2629, -166.556
4.91993, 2, -47.249, -11.9878, 29.3619, 13.6659, 67.2629, -166.556
4.92785, 2, -47.2489, -11.9877, 29.3619, 13.6659, 67.2629, -166.556
4.93585, 2, -47.2489, -11.9877, 29.3619, 13.6659, 67.263, -166.556
4.9439, 2, -47.2488, -11.9876, 29.3619, 13.6659, 67.2629, -166.556
4.95185, 2, -47.2487, -11.9876, 29.3619, 13.6659, 67.2629, -166.556
4.95986, 2, -47.2486, -11.9876, 29.3619, 13.6659, 67.2629, -166.556
4.96789, 2, -47.2486, -11.9876, 29.3619, 13.6659, 67.263, -166.556
4.97589, 2, -47.2486, -11.9876, 29.3619, 13.6658, 67.263, -166.556
4.98397, 2, -47.2485, -11.9876, 29.3619, 13.6658, 67.263, -166.556
4.99086, 2, -47.2485, -11.9876, 29.3618, 13.6658, 67.263, -166.556
4.99986, 2, -47.2485, -11.9876, 29.3619, 13.6658, 67.263, -166.556
5.00978, 2, -47.2484, -11.9875, 29.3619, 13.6658, 67.263, -166.556
5.01589, 2, -47.2484, -11.9875, 29.3619, 13.6658, 67.263, -166.556
5.02385, 2, -47.2483, -11.9875, 29.3619, 13.6657, 67.263, -166.556
5.03186, 2, -47.2483, -11.9874, 29.3619, 13.6657, 67.263, -166.556
5.0399, 2, -47.2482, -11.9874, 29.3619, 13.6656, 67.263, -166.556
5.04792, 2, -47.2482, -11.9873, 29.3619, 13.6657, 67.263, -166.556
5.05603, 2, -47.2481, -11.9873, 29.3619, 13.6657, 67.2631, -166.556
5.06384, 2, -47.248, -11.9873, 29.3619, 13.6657, 67.2631, -166.556
5.07191, 2, -47.2479, -11.9873, 29.3619, 13.6657, 67.2631, -166.556
5.07984, 2, -47.2479, -11.9873, 29.3619, 13.6657, 67.2631, -166.556
5.08789, 2, -47.2478, -11.9873, 29.3619, 13.6657, 67.2631, -166.556
5.09591, 2, -47.2478, -11.9873, 29.3619, 13.6657, 67.2631, -166.556
5.10385, 2, -47.2478, -11.9872, 29.3619, 13.6657, 67.2631, -166.556
5.11184, 2, -47.2477, -11.9872, 29.3618, 13.6656, 67.2631, -166.556
5.11991, 2, -47.2477, -11.9872, 29.3619, 13.6656, 67.2631, -166.556
5.12784, 2, -47.2477, -11.9871, 29.3619, 13.6656, 67.2631, -166.556
5.13585, 2, -47.2476, -11.9871, 29.3619, 13.6656, 67.2631, -166.556
5.14397, 4, -47.2476, -11.987, 29.3619, 13.6655, 67.2631, -166.556
5.15185, 4, -47.2476, -11.987, 29.3619, 13.6655, 67.2631, -166.556
5.15985, 4, -47.2475, -11.987, 29.3619, 13.6655, 67.263, -166.556
5.16793, 4, -47.2474, -11.987, 29.3619, 13.6655, 67.2631, -166.556
5.17585, 4, -47.2473, -11.987, 29.3619, 13.6655, 67.2631, -166.556
5.18386, 4, -47.2473, -11.9869, 29.3619, 13.6655, 67.2631, -166.556
5.19194, 4, -47.2472, -11.9869, 29.3618, 13.6654, 67.2631, -166.556
5.19989, 4, -47.2472, -11.9869, 29.3619, 13.6654, 67.2631, -166.556
5.20794, 4, -47.2471, -11.9869, 29.3619, 13.6654, 67.2631, -166.556
5.216, 4, -47.2471, -11.9869, 29.3619, 13.6654, 67.2631, -166.556
5.22396, 4, -47.2471, -11.9869, 29.3619, 13.6654, 67.2631, -166.556
5.23199, 4, -47.2471, -11.9868, 29.3619, 13.6655, 67.2631, -166.556
5.24016, 4, -47.247, -11.9868, 29.3619, 13.6654, 67.2631, -166.556
5.26168, 4, -47.247, -11.9867, 29.3618, 13.6654, 67.2631, -166.556
5.2643, 4, -47.2469, -11.9867, 29.3619, 13.6654, 67.2631, -166.556
5.2661, 4, -47.2469, -11.9867, 29.3619, 13.6654, 67.2631, -166.556
5.27223, 4, -47.2469, -11.9867, 29.3619, 13.6654, 67.2631, -166.556
5.28114, 4, -47.2468, -11.9867, 29.3618, 13.6653, 67.2631, -166.556
5.28834, 4, -47.2468, -11.9867, 29.3619, 13.6653, 67.2631, -166.556
5.29643, 4, -47.2472, -11.9869, 29.362, 13.6653, 67.2631, -166.556
5.30519, 4, -47.2488, -11.9878, 29.3629, 13.6658, 67.2634, -166.555
5.31361, 4, -47.2519, -11.9906, 29.3662, 13.6705, 67.2647, -166.555
5.32067, 4, -47.257, -11.9963, 29.3743, 13.6869, 67.2686, -166.552
5.32858, 4, -47.2645, -12.0055, 29.3902, 13.7202, 67.2773, -166.545
5.33708, 5, -47.2754, -12.019, 29.4168, 13.7776, 67.293, -166.533
5.34461, 5, -47.2905, -12.038, 29.4567, 13.8661, 67.3175, -166.512
5.35291, 5, -47.3101, -12.0626, 29.5111, 13.988, 67.3519, -166.484
5.36045, 5, -47.3216, -12.0923, 29.5805, 14.1445, 67.3948, -166.446
5.36962, 5, -47.3627, -12.1275, 29.6632, 14.3316, 67.4463, -166.402
5.37865, 5, -47.395, -12.1676, 29.7573, 14.5438, 67.5054, -166.352
5.38388, 5, -47.4123, -12.1894, 29.8077, 14.6571, 67.5361, -166.325
5.39183, 5, -47.449, -12.2359, 29.9141, 14.8941, 67.6006, -166.269
5.40132, 5, -47.4878, -12.2853, 30.084, 15.2667, 67.7017, -166.181
5.40684, 5, -47.5286, -12.337, 30.1424, 15.3933, 67.7359, -166.152
5.41586, 5, -47.571, -12.3903, 30.2608, 15.6486, 67.8049, -166.092
5.42402, 5, -47.6145, -12.4445, 30.3807, 15.9053, 67.8728, -166.032
5.43582, 5, -47.681, -12.5268, 30.5624, 16.2912, 67.975, -165.944
5.43984, 5, -47.7033, -12.5544, 30.6235, 16.42, 68.0086, -165.914
5.44799, 5, -47.7481, -12.6098, 30.7465, 16.6778, 68.0764, -165.855
5.45585, 5, -47.7928, -12.6652, 30.8709, 16.9357, 68.1425, -165.797
5.46388, 5, -47.8376, -12.7209, 30.9963, 17.194, 68.2088, -165.739
5.472, 5, -47.8821, -12.7767, 31.1224, 17.4523, 68.2742, -165.681
5.48238, 5, -47.9486, -12.8606, 31.3131, 17.8398, 68.3718, -165.595
5.48687, 5, -47.9708, -12.8887, 31.3771, 17.969, 68.4037, -165.567
5.49584, 5, -48.0156, -12.9453, 31.5059, 18.2274, 68.4673, -165.51
5.50484, 5, -48.0611, -13.0022, 31.6358, 18.4858, 68.531, -165.454
5.51189, 5, -48.1071, -13.0595, 31.7665, 18.7446, 68.5934, -165.399
5.52092, 5, -48.1532, -13.1173, 31.898, 19.0033, 68.6563, -165.343
5.52788, 5, -48.1997, -13.1753, 32.0303, 19.2619, 68.7177, -165.288
5.53584, 5, -48.2462, -13.2337, 32.1635, 19.5206, 68.7792, -165.234
5.54484, 5, -48.2927, -13.2924, 32.2977, 19.7795, 68.8402, -165.18
5.552, 5, -48.3395, -13.3513, 32.4329, 20.0382, 68.9004, -165.125
5.5599, 5, -48.3865, -13.4103, 32.5689, 20.297, 68.9608, -165.072
5.57119, 5, -48.4571, -13.4989, 32.7748, 20.6854, 69.0491, -164.993
5.57599, 5, -48.4806, -13.5286, 32.8438, 20.8149, 69.0787, -164.966
5.58382, 5, -48.5276, -13.5879, 32.9825, 21.0739, 69.137, -164.913
5.5919, 5, -48.5737, -13.6472, 33.122, 21.3329, 69.1949, -164.862
5.59989, 5, -48.6183, -13.7062, 33.262, 21.5912, 69.2531, -164.808
5.60782, 5, -48.661, -13.7647, 33.4022, 21.8479, 69.3103, -164.753
5.61587, 5, -48.7015, -13.8224, 33.5418, 22.1016, 69.3691, -164.692
5.62406, 6, -48.7394, -13.8789, 33.6795, 22.3499, 69.4285, -164.624
5.63288, 6, -48.7738, -13.9338, 33.8143, 22.5902, 69.4897, -164.542
5.64089, 6, -48.8038, -13.9867, 33.9455, 22.8203, 69.5541, -164.446
5.64883, 6, -48.829, -14.0373, 34.0723, 23.0385, 69.6202, -164.332
5.65593, 6, -48.8489, -14.0855, 34.1938, 23.2444, 69.6903, -164.199
5.66383, 6, -48.8627, -14.1309, 34.3103, 23.4379, 69.7626, -164.048
5.67217, 7, -48.8707, -14.1734, 34.4218, 23.6202, 69.8384, -163.879
5.68322, 7, -48.8732, -14.2323, 34.5807, 23.8748, 69.9557, -163.597
5.68782, 7, -48.8717, -14.2507, 34.6316, 23.9556, 69.996, -163.497
5.69779, 7, -48.8655, -14.2857, 34.7309, 24.1121, 70.078, -163.288
5.70337, 7, -48.8556, -14.3187, 34.8272, 24.2625, 70.1618, -163.07
5.712, 8, -48.8426, -14.3502, 34.9209, 24.4081, 70.247, -162.843
5.71992, 8, -48.827, -14.3801, 35.0122, 24.5499, 70.3336, -162.61
5.72807, 8, -48.8092, -14.4088, 35.1012, 24.6884, 70.4216, -162.371
5.736, 8, -48.7895, -14.4364, 35.1883, 24.8248, 70.5105, -162.128
5.74441, 8, -48.7685, -14.4633, 35.2739, 24.9596, 70.6004, -161.881
5.75209, 8, -48.7466, -14.4893, 35.3584, 25.0933, 70.6912, -161.631
5.76027, 9, -48.7239, -14.5147, 35.442, 25.2263, 70.7822, -161.38
5.76684, 9, -48.7122, -14.5272, 35.4835, 25.2926, 70.828, -161.254
5.77483, 9, -48.6884, -14.5518, 35.566, 25.4254, 70.9199, -161.001
5.78395, 9, -48.6513, -14.5878, 35.6882, 25.625, 71.058, -160.621
5.79086, 9, -48.6385, -14.5995, 35.7285, 25.6918, 71.1042, -160.495
5.80044, 10, -48.5992, -14.6341, 35.849, 25.8934, 71.2433, -160.115
5.80871, 10, -48.5726, -14.6569, 35.9291, 26.0288, 71.336, -159.862
5.81636, 10, -48.5458, -14.6793, 36.009, 26.165, 71.429, -159.61
5.82432, 10, -48.5187, -14.7018, 36.0887, 26.302, 71.5219, -159.359
5.83316, 10, -48.4916, -14.7242, 36.1682, 26.4402, 71.6148, -159.109
5.83882, 10, -48.478, -14.7352, 36.2079, 26.5096, 71.661, -158.984
5.84876, 11, -48.4372, -14.7688, 36.3265, 26.7192, 71.7999, -158.612
5.85733, 11, -48.4101, -14.7911, 36.4053, 26.8601, 71.8924, -158.365
5.86455, 11, -48.3829, -14.8134, 36.4839, 27.0017, 71.9845, -158.118
5.87239, 11, -48.3692, -14.8247, 36.5231, 27.0728, 72.0305, -157.873
5.88057, 11, -48.3417, -14.847, 36.6015, 27.2157, 72.1228, -157.751
5.88778, 12, -48.3137, -14.8692, 36.6797, 27.3592, 72.2145, -157.507
5.89595, 12, -48.2854, -14.8915, 36.7578, 27.5034, 72.3063, -157.263
5.90553, 12, -48.2569, -14.9136, 36.8746, 27.7209, 72.4436, -156.9
5.91188, 12, -48.2279, -14.9356, 36.9134, 27.7935, 72.489, -156.779
5.92304, 12, -48.1837, -14.9687, 37.0293, 28.0122, 72.6254, -156.418
5.92805, 12, -48.1687, -14.9796, 37.0678, 28.0852, 72.6708, -156.298
5.93579, 13, -48.1384, -15.0014, 37.1444, 28.2313, 72.7616, -156.058
5.94381, 13, -48.1078, -15.0234, 37.2207, 28.378, 72.8519, -155.818
5.95181, 13, -48.0768, -15.0452, 37.2967, 28.5246, 72.9419, -155.58
5.95985, 13, -48.0454, -15.0671, 37.3724, 28.6712, 73.0319, -155.342
5.96682, 13, -48.0134, -15.0891, 37.4477, 28.818, 73.1214, -155.104
5.97597, 14, -47.9809, -15.1108, 37.5227, 28.9647, 73.2109, -154.866
5.9839, 14, -47.9479, -15.1327, 37.5972, 29.1112, 73.3003, -154.629
5.99082, 14, -47.9143, -15.1545, 37.6713, 29.258, 73.389, -154.392
5.99981, 14, -47.88, -15.1761, 37.7449, 29.4044, 73.4776, -154.156
6.00792, 14, -47.8448, -15.1978, 37.818, 29.5507, 73.5661, -153.92
6.01751, 14, -47.8089, -15.2193, 37.8907, 29.6968, 73.6543, -153.684
6.02398, 15, -47.7725, -15.2407, 37.963, 29.8425, 73.7422, -153.448
6.03186, 15, -47.7354, -15.2622, 38.0349, 29.9882, 73.8299, -153.213
6.0398, 15, -47.6977, -15.2836, 38.1065, 30.1336, 73.9174, -152.979
6.04782, 15, -47.6592, -15.305, 38.1777, 30.2787, 74.0044, -152.744
6.05581, 15, -47.6203, -15.3267, 38.2485, 30.4235, 74.0912, -152.51
6.06387, 16, -47.5808, -15.3482, 38.3188, 30.568, 74.1778, -152.277
6.07199, 16, -47.5405, -15.3697, 38.3885, 30.7121, 74.2636, -152.044
6.08086, 16, -47.4996, -15.3915, 38.4578, 30.8561, 74.3494, -151.812
6.08782, 16, -47.458, -15.4132, 38.5269, 30.9999, 74.4346, -151.58
6.09883, 16, -47.3943, -15.4461, 38.6297, 31.215, 74.5612, -151.234
6.10314, 16, -47.3727, -15.4571, 38.6639, 31.2866, 74.6034, -151.119
6.11187, 17, -47.3289, -15.479, 38.7319, 31.4296, 74.687, -150.89
6.11981, 17, -47.2846, -15.5013, 38.7996, 31.5722, 74.7706, -150.661
6.12782, 17, -47.2396, -15.5237, 38.8671, 31.7146, 74.8531, -150.433
6.1358, 17, -47.1937, -15.5462, 38.9343, 31.857, 74.9356, -150.206
6.14387, 17, -47.1474, -15.5691, 39.0011, 31.9991, 75.0172, -149.98
6.15202, 18, -47.1003, -15.592, 39.0676, 32.1409, 75.0984, -149.755
6.15895, 18, -47.0528, -15.6151, 39.1338, 32.2824, 75.1785, -149.53
6.16703, 18, -47.0047, -15.6387, 39.1996, 32.4238, 75.2582, -149.307
6.17506, 18, -46.956, -15.6624, 39.2654, 32.5649, 75.3373, -149.084
6.18387, 18, -46.9066, -15.6865, 39.3309, 32.7059, 75.4154, -148.863
6.19181, 18, -46.8566, -15.7111, 39.3963, 32.8466, 75.493, -148.642
6.20008, 19, -46.806, -15.7357, 39.4615, 32.9872, 75.5697, -148.423
6.20808, 19, -46.7547, -15.7608, 39.5264, 33.1275, 75.646, -148.204
6.21544, 19, -46.7025, -15.7861, 39.5911, 33.2675, 75.7211, -147.987
6.22392, 19, -46.6497, -15.8118, 39.6556, 33.4073, 75.7958, -147.771
6.2319, 19, -46.5963, -15.8379, 39.7197, 33.5468, 75.8694, -147.556
6.23996, 20, -46.5421, -15.8642, 39.7838, 33.6862, 75.9428, -147.342
6.24809, 20, -46.4874, -15.891, 39.8475, 33.825, 76.0146, -147.129
6.25862, 20, -46.432, -15.9182, 39.9111, 33.9637, 76.0863, -146.917
6.26278, 20, -46.404, -15.9319, 39.9429, 34.0328, 76.1216, -146.812
6.27387, 20, -46.3194, -15.9738, 40.0376, 34.2397, 76.2267, -146.497
6.28021, 20, -46.262, -16.0022, 40.1006, 34.3773, 76.2952, -146.289
6.28803, 21, -46.2041, -16.0309, 40.1633, 34.5146, 76.3637, -146.081
6.29481, 21, -46.1749, -16.0454, 40.1945, 34.583, 76.3976, -145.978
6.30413, 21, -46.0859, -16.0896, 40.288, 34.7876, 76.4976, -145.669
6.3109, 21, -46.0559, -16.1045, 40.3189, 34.8557, 76.5308, -145.567
6.32033, 21, -45.9645, -16.1496, 40.4113, 35.059, 76.6281, -145.261
6.3299, 22, -45.9025, -16.1801, 40.4725, 35.1939, 76.6927, -145.059
6.33482, 22, -45.8713, -16.1955, 40.5029, 35.2612, 76.7242, -144.958
6.34443, 22, -45.7766, -16.2421, 40.5938, 35.4622, 76.8191, -144.656
6.3538, 22, -45.7126, -16.2736, 40.6539, 35.5955, 76.8804, -144.456
6.36041, 22, -45.6477, -16.3054, 40.7137, 35.728, 76.9418, -144.257
6.36843, 22, -45.582, -16.3375, 40.7731, 35.8601, 77.0022, -144.058
6.37663, 23, -45.5488, -16.3536, 40.832, 35.9914, 77.0617, -143.86
6.38468, 23, -45.4817, -16.386, 40.8905, 36.1221, 77.1212, -143.662
6.39185, 23, -45.4139, -16.4186, 40.9196, 36.1873, 77.1501, -143.564
6.39985, 23, -45.3451, -16.4516, 40.9773, 36.3169, 77.2076, -143.367
6.40681, 23, -45.2756, -16.4847, 41.0344, 36.4457, 77.2653, -143.172
6.41576, 24, -45.2052, -16.5179, 41.0912, 36.5737, 77.3212, -142.977
6.42395, 24, -45.1338, -16.5514, 41.1472, 36.7008, 77.3777, -142.782
6.43183, 24, -45.0615, -16.585, 41.2026, 36.8273, 77.433, -142.588
6.43979, 24, -44.9882, -16.6188, 41.2576, 36.9528, 77.4873, -142.394
6.44962, 24, -44.8766, -16.6697, 41.3388, 37.1394, 77.5687, -142.105
6.45992, 25, -44.8011, -16.7037, 41.3921, 37.2625, 77.6215, -141.912
6.46375, 25, -44.763, -16.7207, 41.4186, 37.3238, 77.6481, -141.816
6.47083, 25, -44.6861, -16.7548, 41.4709, 37.4456, 77.7009, -141.623
6.47985, 25, -44.6084, -16.789, 41.5225, 37.5661, 77.7519, -141.431
6.48784, 25, -44.5296, -16.8231, 41.5734, 37.6859, 77.8034, -141.239
6.49487, 25, -44.4499, -16.8573, 41.6236, 37.8046, 77.8542, -141.048
6.50404, 26, -44.3691, -16.8913, 41.6729, 37.9223, 77.9038, -140.857
6.5108, 26, -44.2873, -16.9254, 41.7215, 38.0391, 77.9539, -140.666
6.51979, 26, -44.2045, -16.9594, 41.7693, 38.1545, 78.0031, -140.475
6.5278, 26, -44.1207, -16.9932, 41.8162, 38.2692, 78.0509, -140.285
6.53586, 26, -44.0361, -17.027, 41.8623, 38.3825, 78.0993, -140.094
6.54379, 26, -43.9505, -17.0608, 41.9076, 38.4948, 78.1468, -139.904
6.552, 27, -43.864, -17.0943, 41.9521, 38.606, 78.1933, -139.713
6.55987, 27, -43.7765, -17.1276, 41.9957, 38.7161, 78.2402, -139.523
6.56778, 27, -43.688, -17.1609, 42.0384, 38.8253, 78.2867, -139.333
6.57579, 27, -43.5986, -17.194, 42.0803, 38.9331, 78.3316, -139.143
6.58379, 27, -43.5082, -17.2269, 42.1212, 39.0398, 78.3769, -138.953
6.59178, 28, -43.4167, -17.2595, 42.1612, 39.1454, 78.4221, -138.763
6.60002, 28, -43.3242, -17.292, 42.2004, 39.2498, 78.466, -138.573
6.60885, 28, -43.2307, -17.3243, 42.2385, 39.3531, 78.5098, -138.384
6.61579, 28, -43.1363, -17.3562, 42.2758, 39.4553, 78.554, -138.194
6.62386, 28, -43.0408, -17.388, 42.3122, 39.5563, 78.597, -138.005
6.63178, 28, -42.9444, -17.4196, 42.3475, 39.6563, 78.6392, -137.815
6.63981, 29, -42.8469, -17.4508, 42.3819, 39.7551, 78.6819, -137.626
6.64803, 29, -42.7485, -17.4818, 42.4155, 39.8527, 78.7239, -137.436
6.65671, 29, -42.649, -17.5124, 42.4481, 39.9493, 78.765, -137.247
6.66382, 29, -42.5486, -17.5429, 42.4795, 40.0445, 78.8061, -137.057
6.67223, 29, -42.4473, -17.573, 42.5101, 40.1386, 78.8475, -136.868
6.68002, 30, -42.3451, -17.6028, 42.5398, 40.2316, 78.8878, -136.678
6.68781, 30, -42.2419, -17.6323, 42.5685, 40.3235, 78.9273, -136.49
6.69769, 30, -42.138, -17.6614, 42.5962, 40.4142, 78.9671, -136.301
6.70383, 30, -42.033, -17.6903, 42.623, 40.5039, 79.0068, -136.112
6.71217, 30, -41.927, -17.7187, 42.649, 40.5925, 79.0454, -135.923
6.71937, 30, -41.8201, -17.7469, 42.6737, 40.6798, 79.0838, -135.734
6.72936, 31, -41.7124, -17.7747, 42.6976, 40.7661, 79.1226, -135.545
6.73633, 31, -41.6036, -17.8022, 42.7204, 40.8513, 79.1608, -135.356
6.74339, 31, -41.549, -17.8158, 42.7425, 40.9351, 79.198, -135.168
6.75378, 31, -41.3835, -17.8559, 42.7636, 41.018, 79.2349, -134.979
6.76088, 31, -41.2721, -17.8822, 42.7836, 41.0996, 79.2723, -134.791
6.76781, 32, -41.1599, -17.908, 42.8029, 41.1806, 79.309, -134.602
6.77702, 32, -41.047, -17.9337, 42.8211, 41.2601, 79.3449, -134.414
6.78583, 32, -40.9331, -17.9588, 42.8381, 41.3388, 79.3806, -134.226
6.79198, 32, -40.8184, -17.9837, 42.8543, 41.4163, 79.4168, -134.038
6.80044, 32, -40.7029, -18.0081, 42.8698, 41.4928, 79.4522, -133.85
6.80816, 32, -40.5865, -18.0321, 42.8841, 41.5681, 79.4868, -133.662
6.8161, 33, -40.469, -18.0559, 42.8974, 41.6425, 79.521, -133.474
6.82293, 33, -40.41, -18.0676, 42.9038, 41.6793, 79.5381, -133.381
6.83232, 33, -40.2319, -18.102, 42.9214, 41.788, 79.5896, -133.1
6.84126, 33, -40.1124, -18.1246, 42.9319, 41.8593, 79.6229, -132.912
6.84842, 33, -39.9919, -18.1466, 42.9415, 41.9293, 79.6557, -132.725
6.85661, 34, -39.8706, -18.1684, 42.9501, 41.9985, 79.6887, -132.538
6.86522, 34, -39.7485, -18.1896, 42.958, 42.0665, 79.7219, -132.351
6.8736, 34, -39.6253, -18.2103, 42.9649, 42.1334, 79.7542, -132.165
6.88028, 34, -39.5634, -18.2206, 42.968, 42.1669, 79.7701, -132.072
6.88839, 34, -39.439, -18.2408, 42.9735, 42.2322, 79.8015, -131.885
6.89578, 34, -39.3139, -18.2604, 42.9781, 42.2972, 79.833, -131.699
6.90696, 35, -39.1249, -18.2893, 42.9832, 42.3917, 79.8802, -131.42
6.91074, 35, -39.0616, -18.2987, 42.9844, 42.4231, 79.8956, -131.327
6.91977, 35, -38.9342, -18.3171, 42.9862, 42.4846, 79.926, -131.141
6.92777, 35, -38.8062, -18.335, 42.9872, 42.5448, 79.9561, -130.956
6.93478, 35, -38.6773, -18.3526, 42.9875, 42.6048, 79.9865, -130.771
6.94375, 36, -38.5474, -18.3698, 42.9873, 42.6627, 80.0169, -130.586
6.95192, 36, -38.417, -18.3863, 42.9862, 42.7207, 80.0463, -130.4
6.9599, 36, -38.2859, -18.4024, 42.9842, 42.7771, 80.0753, -130.215
6.96775, 36, -38.1541, -18.4183, 42.9814, 42.8324, 80.1039, -130.031
6.9758, 36, -38.0216, -18.4335, 42.9775, 42.8874, 80.1328, -129.846
6.98408, 37, -37.8884, -18.448, 42.9727, 42.9403, 80.1617, -129.663
6.99179, 37, -37.7545, -18.4621, 42.9668, 42.9931, 80.1899, -129.479
6.99998, 37, -37.6199, -18.4761, 42.96, 43.0449, 80.2175, -129.295
7.00676, 37, -37.4846, -18.4895, 42.9521, 43.0951, 80.2448, -129.112
7.01578, 37, -37.3485, -18.5021, 42.9433, 43.1452, 80.2722, -128.928
7.02623, 37, -37.1433, -18.5204, 42.9285, 43.2179, 80.3134, -128.654
7.03402, 38, -37.0055, -18.5322, 42.9173, 43.2648, 80.3399, -128.471
7.03977, 38, -36.9365, -18.538, 42.9114, 43.2883, 80.353, -128.38
7.04867, 38, -36.7978, -18.5491, 42.8988, 43.3342, 80.3787, -128.198
7.05581, 38, -36.6582, -18.5594, 42.8855, 43.3785, 80.4044, -128.015
7.06378, 38, -36.5178, -18.5692, 42.8714, 43.4226, 80.4303, -127.833
7.07281, 39, -36.3768, -18.5786, 42.8561, 43.4658, 80.4561, -127.652
7.07991, 39, -36.235, -18.5874, 42.8398, 43.5072, 80.4812, -127.471
7.08778, 39, -36.0926, -18.596, 42.8227, 43.5477, 80.506, -127.29
7.09838, 39, -35.8778, -18.6079, 42.7955, 43.6078, 80.5426, -127.019
7.10378, 39, -35.8059, -18.6116, 42.786, 43.627, 80.5549, -126.928
7.11185, 39, -35.6616, -18.6185, 42.7664, 43.6646, 80.5797, -126.748
7.11976, 40, -35.5168, -18.6248, 42.7459, 43.7018, 80.6041, -126.568
7.12893, 40, -35.3712, -18.6307, 42.7243, 43.7384, 80.628, -126.388
7.13479, 40, -35.225, -18.6362, 42.7019, 43.7735, 80.6513, -126.209
7.14385, 40, -35.0782, -18.6412, 42.6787, 43.8072, 80.674, -126.029
7.15194, 40, -34.9308, -18.6457, 42.6547, 43.8404, 80.6969, -125.85
7.15898, 40, -34.7826, -18.6498, 42.6299, 43.8732, 80.72, -125.671
7.1678, 41, -34.634, -18.6534, 42.6042, 43.9049, 80.7429, -125.493
7.17584, 41, -34.485, -18.6565, 42.5777, 43.9351, 80.7652, -125.315
7.18378, 41, -34.3352, -18.6592, 42.5504, 43.9642, 80.7871, -125.137
7.19195, 41, -34.1847, -18.6615, 42.5222, 43.9929, 80.8085, -124.96
7.19995, 41, -34.0338, -18.6634, 42.4931, 44.021, 80.8298, -124.782
7.20848, 42, -33.8822, -18.6649, 42.4634, 44.0479, 80.8513, -124.605
7.21614, 42, -33.73, -18.6658, 42.4329, 44.0735, 80.8729, -124.429
7.2234, 42, -33.5771, -18.6664, 42.4015, 44.098, 80.8942, -124.253
7.23188, 42, -33.4234, -18.6666, 42.3693, 44.1217, 80.9149, -124.077
7.23994, 42, -33.2692, -18.6666, 42.3364, 44.1448, 80.9352, -123.901
7.2481, 43, -33.1145, -18.6664, 42.3028, 44.1673, 80.955, -123.725
7.2565, 43, -32.959, -18.6656, 42.2682, 44.1886, 80.9747, -123.55
7.26391, 43, -32.803, -18.6644, 42.233, 44.2087, 80.9944, -123.375
7.27236, 43, -32.6465, -18.6627, 42.1971, 44.2276, 81.0141, -123.201
7.28065, 43, -32.4893, -18.6605, 42.1602, 44.2455, 81.0337, -123.027
7.28791, 43, -32.3314, -18.6578, 42.1227, 44.2625, 81.0528, -122.854
7.29701, 44, -32.173, -18.6545, 42.0844, 44.2788, 81.0714, -122.68
7.30564, 44, -32.0141, -18.6507, 42.0451, 44.2946, 81.0897, -122.507
7.31211, 44, -31.8546, -18.6463, 42.0052, 44.3095, 81.1076, -122.334
7.31877, 44, -31.7748, -18.644, 41.985, 44.3165, 81.1165, -122.248
7.32831, 44, -31.5346, -18.6361, 41.9232, 44.336, 81.1434, -121.99
7.33627, 44, -31.3737, -18.63, 41.881, 44.3475, 81.1613, -121.818
7.34433, 45, -31.2123, -18.6235, 41.8381, 44.3579, 81.1792, -121.647
7.35636, 45, -31.0501, -18.6165, 41.7944, 44.3671, 81.1965, -121.475
7.3603, 45, -30.8873, -18.6092, 41.7499, 44.3753, 81.2134, -121.304
7.36917, 45, -30.8057, -18.6012, 41.7047, 44.3825, 81.2299, -121.134
7.37663, 45, -30.5599, -18.5925, 41.6588, 44.3887, 81.2461, -120.963
7.38373, 46, -30.4776, -18.5879, 41.6355, 44.3914, 81.2541, -120.878
7.3918, 46, -30.3126, -18.5785, 41.5884, 44.396, 81.2701, -120.709
7.39885, 46, -30.1471, -18.5686, 41.5405, 44.3996, 81.2862, -120.539
7.40779, 46, -29.981, -18.5583, 41.4918, 44.4023, 81.3024, -120.37
7.41577, 46, -29.8143, -18.5475, 41.4424, 44.404, 81.3186, -120.201
7.42391, 47, -29.6469, -18.536, 41.3921, 44.4049, 81.3344, -120.032
7.43194, 47, -29.4788, -18.5237, 41.3411, 44.4052, 81.35, -119.864
7.43975, 47, -29.3102, -18.5109, 41.2893, 44.405, 81.3652, -119.696
7.44778, 47, -29.1409, -18.4975, 41.2366, 44.4038, 81.3802, -119.528
7.45581, 47, -28.9712, -18.4838, 41.1831, 44.4013, 81.395, -119.36
7.46284, 47, -28.8009, -18.4692, 41.1289, 44.3976, 81.4097, -119.192
7.47191, 48, -28.6301, -18.454, 41.0739, 44.3925, 81.4245, -119.025
7.482, 48, -28.4588, -18.4383, 41.018, 44.3863, 81.4395, -118.775
7.48779, 48, -28.2869, -18.4223, 40.9614, 44.379, 81.4547, -118.691
7.49732, 48, -28.1145, -18.4055, 40.9039, 44.3704, 81.4774, -118.442
7.50379, 48, -27.9416, -18.3878, 40.8456, 44.3606, 81.4848, -118.358
7.51172, 49, -27.768, -18.3698, 40.7865, 44.3495, 81.4995, -118.192
7.52074, 49, -27.5935, -18.3511, 40.7264, 44.337, 81.5139, -118.026
7.52793, 49, -27.4181, -18.3316, 40.6654, 44.3231, 81.5282, -117.86
7.53576, 49, -27.242, -18.3114, 40.6037, 44.3076, 81.5424, -117.694
7.54722, 49, -26.977, -18.2799, 40.5092, 44.2815, 81.5639, -117.446
7.5519, 49, -26.8884, -18.2689, 40.4774, 44.2723, 81.5712, -117.363
7.55983, 50, -26.7107, -18.2466, 40.4129, 44.2531, 81.5859, -117.198
7.56783, 50, -26.5323, -18.2237, 40.3477, 44.2328, 81.601, -117.032
7.57576, 50, -26.3532, -18.2, 40.2816, 44.2114, 81.6162, -116.867
7.58382, 50, -26.1733, -18.1757, 40.2146, 44.1885, 81.6313, -116.702
7.59175, 50, -25.9928, -18.1505, 40.1466, 44.164, 81.6462, -116.537
7.5999, 51, -25.8114, -18.1247, 40.0778, 44.1379, 81.6611, -116.372
7.60754, 51, -25.6297, -18.098, 40.0079, 44.111, 81.6761, -116.208
7.61575, 51, -25.4477, -18.0706, 39.9372, 44.0831, 81.6911, -116.043
7.62381, 51, -25.2654, -18.0426, 39.8655, 44.0539, 81.7065, -115.878
7.63176, 51, -25.0825, -18.0137, 39.7929, 44.0227, 81.7222, -115.714
7.63975, 51, -24.8988, -17.9841, 39.7194, 43.9899, 81.7383, -115.549
7.64803, 52, -24.7141, -17.9537, 39.6451, 43.9563, 81.7548, -115.384
7.65636, 52, -24.5284, -17.9225, 39.5698, 43.9216, 81.7714, -115.22
7.66377, 52, -24.3419, -17.8904, 39.4936, 43.8851, 81.7879, -115.056
7.67179, 52, -24.1548, -17.8575, 39.4165, 43.8467, 81.8043, -114.891
7.67982, 52, -23.9669, -17.8238, 39.3383, 43.8078, 81.8207, -114.727
7.68773, 53, -23.7784, -17.7894, 39.2592, 43.7677, 81.8373, -114.562
7.69632, 53, -23.5894, -17.7541, 39.1791, 43.7252, 81.8542, -114.398
7.70718, 53, -23.3998, -17.718, 39.098, 43.6816, 81.8715, -114.152
7.71127, 53, -23.2095, -17.6812, 39.0162, 43.6373, 81.8895, -114.069
7.72339, 53, -22.9223, -17.6245, 38.8918, 43.5669, 81.9167, -113.823
7.72813, 53, -22.8261, -17.6052, 38.8498, 43.5429, 81.9258, -113.741
7.73585, 54, -22.6334, -17.5661, 38.7652, 43.4946, 81.944, -113.577
7.74451, 54, -22.4403, -17.5261, 38.6797, 43.4437, 81.9623, -113.412
7.75382, 54, -22.2468, -17.4853, 38.5931, 43.3915, 81.9807, -113.248
7.76075, 54, -22.0528, -17.4438, 38.5055, 43.3386, 81.9996, -113.084
7.76779, 54, -21.8583, -17.4015, 38.4172, 43.2829, 82.019, -112.92
7.77604, 55, -21.6627, -17.3583, 38.3281, 43.2269, 82.039, -112.756
7.78385, 55, -21.4662, -17.3143, 38.2382, 43.1692, 82.0592, -112.592
7.7922, 55, -21.2685, -17.2695, 38.1474, 43.1093, 82.0793, -112.427
7.79875, 55, -21.1693, -17.2468, 38.1016, 43.0793, 82.0893, -112.345
7.80877, 55, -20.8706, -17.1777, 37.9628, 42.9859, 82.1194, -112.099
7.81618, 55, -20.6709, -17.1305, 37.8691, 42.9224, 82.1398, -111.936
7.82295, 56, -20.5708, -17.1067, 37.8219, 42.8898, 82.1502, -111.854
7.83389, 56, -20.2696, -17.0342, 37.6792, 42.7895, 82.1823, -111.608
7.84061, 56, -20.0674, -16.985, 37.5833, 42.7208, 82.204, -111.444
7.84831, 56, -19.8644, -16.9351, 37.4864, 42.6508, 82.2257, -111.281
7.85634, 56, -19.6604, -16.8845, 37.3886, 42.5794, 82.2474, -111.117
7.86432, 57, -19.4563, -16.8332, 37.2899, 42.506, 82.2691, -110.954
7.87253, 57, -19.2517, -16.7812, 37.1902, 42.4312, 82.2912, -110.79
7.88178, 57, -19.0467, -16.7286, 37.0897, 42.3548, 82.3141, -110.627
7.88899, 57, -18.8414, -16.6753, 36.9887, 42.2766, 82.3374, -110.463
7.89821, 57, -18.6354, -16.6213, 36.8869, 42.197, 82.3606, -110.299
7.90456, 57, -18.532, -16.5939, 36.8357, 42.1565, 82.3723, -110.136
7.91172, 58, -18.3239, -16.5387, 36.7327, 42.0745, 82.3954, -110.054
7.91974, 58, -18.1143, -16.4828, 36.6287, 41.9906, 82.4187, -109.891
7.92974, 58, -17.7981, -16.3977, 36.471, 41.862, 82.4547, -109.647
7.93574, 58, -17.6926, -16.369, 36.4181, 41.8184, 82.467, -109.565
7.94379, 58, -17.4811, -16.3111, 36.3119, 41.7298, 82.4917, -109.402
7.95195, 59, -17.2687, -16.2525, 36.205, 41.6395, 82.5163, -109.239
7.95972, 59, -17.0554, -16.1934, 36.0975, 41.5475, 82.541, -109.076
7.96673, 59, -16.8411, -16.1336, 35.9889, 41.4539, 82.5659, -108.913
7.97574, 59, -16.6259, -16.0732, 35.8794, 41.3585, 82.5915, -108.751
7.98382, 59, -16.4096, -16.012, 35.7691, 41.2612, 82.6177, -108.588
7.99173, 59, -16.1929, -15.9503, 35.6582, 41.1624, 82.6441, -108.425
7.9999, 60, -15.9759, -15.888, 35.5468, 41.0616, 82.6703, -108.262
8.00789, 60, -15.7593, -15.825, 35.4347, 40.959, 82.6965, -108.099
8.01574, 60, -15.5423, -15.7612, 35.3217, 40.8551, 82.7229, -107.937
8.0248, 60, -15.3235, -15.6966, 35.2076, 40.749, 82.7502, -107.774
8.03081, 60, -15.103, -15.6312, 35.0927, 40.6415, 82.7781, -107.611
8.03977, 61, -14.881, -15.5651, 34.9774, 40.532, 82.8058, -107.448
8.0479, 61, -14.6581, -15.4983, 34.8615, 40.4205, 82.8337, -107.286
8.05648, 61, -14.434, -15.4309, 34.7449, 40.3073, 82.8618, -107.123
8.06282, 61, -14.209, -15.3628, 34.6275, 40.1922, 82.8907, -106.96
8.07443, 61, -13.8699, -15.2594, 34.4495, 40.0164, 82.9351, -106.715
8.0799, 61, -13.7564, -15.2245, 34.3898, 39.9569, 82.95, -106.634
8.0878, 62, -13.5284, -15.1544, 34.27, 39.8362, 82.9796, -106.471
8.09574, 62, -13.2994, -15.0835, 34.1498, 39.7138, 83.0095, -106.308
8.10373, 62, -13.0703, -15.012, 34.0288, 39.5892, 83.0403, -106.145
8.11173, 62, -12.8412, -14.9397, 33.9069, 39.4627, 83.0719, -105.981
8.1198, 62, -12.612, -14.8666, 33.7839, 39.3344, 83.1034, -105.818
8.12789, 63, -12.3819, -14.7927, 33.6603, 39.2041, 83.1351, -105.654
8.13573, 63, -12.1504, -14.718, 33.5361, 39.0718, 83.1675, -105.49
8.1438, 63, -11.9176, -14.6425, 33.4113, 38.9376, 83.2011, -105.327
8.15182, 63, -11.6836, -14.5663, 33.2859, 38.8013, 83.2351, -105.163
8.15974, 63, -11.4477, -14.4893, 33.1594, 38.663, 83.2689, -104.999
8.16774, 63, -11.2103, -14.4113, 33.032, 38.5227, 83.3033, -104.835
8.17602, 64, -10.9718, -14.3326, 32.9041, 38.3804, 83.3389, -104.67
8.18468, 64, -10.7318, -14.253, 32.7754, 38.2362, 83.3752, -104.505
8.19174, 64, -10.4903, -14.1725, 32.6462, 38.0899, 83.4115, -104.34
8.19973, 64, -10.2472, -14.0912, 32.5162, 37.9414, 83.4483, -104.175
8.20783, 64, -10.0038, -14.009, 32.3852, 37.7907, 83.4864, -104.01
8.2158, 65, -9.76073, -13.9259, 32.2536, 37.638, 83.5253, -103.844
8.22439, 65, -9.51798, -13.8418, 32.1213, 37.4832, 83.564, -103.678
8.2337, 65, -9.27519, -13.7569, 31.9883, 37.3263, 83.6036, -103.512
8.23933, 65, -9.03169, -13.671, 31.8546, 37.1676, 83.6447, -103.345
8.25154, 65, -8.66294, -13.5404, 31.6529, 36.9253, 83.7071, -103.095
8.2561, 65, -8.53902, -13.4964, 31.5853, 36.8435, 83.7281, -103.011
8.26451, 66, -8.29023, -13.4077, 31.4494, 36.6783, 83.7714, -102.844
8.27247, 66, -8.04039, -13.3182, 31.3129, 36.5113, 83.8157, -102.677
8.28273, 66, -7.78891, -13.2277, 31.1757, 36.3422, 83.8598, -102.508
8.28867, 66, -7.53508, -13.1363, 31.038, 36.1709, 83.905, -102.34
8.29586, 66, -7.27947, -13.0439, 30.8998, 35.9974, 83.9517, -102.172
8.30436, 67, -7.02282, -12.9505, 30.7608, 35.8219, 83.9984, -102.003
8.31285, 67, -6.76588, -12.8562, 30.621, 35.6443, 84.0462, -101.834
8.32006, 67, -6.50909, -12.7608, 30.4806, 35.4646, 84.0956, -101.664
8.32675, 67, -6.38088, -12.7128, 30.4103, 35.3739, 84.1203, -101.58
8.33629, 67, -5.9956, -12.5672, 30.1987, 35.099, 84.1953, -101.324
8.34432, 67, -5.73704, -12.4691, 30.0568, 34.9131, 84.2472, -101.154
8.35254, 68, -5.47717, -12.37, 29.9142, 34.7253, 84.299, -100.983
8.36124, 68, -5.2165, -12.2699, 29.7711, 34.5352, 84.3526, -100.812
8.36672, 68, -5.08573, -12.2195, 29.6995, 34.4394, 84.38, -100.727
8.37706, 68, -4.82277, -12.1178, 29.5558, 34.2463, 84.4343, -100.555
8.38274, 68, -4.55767, -12.0152, 29.4116, 34.0512, 84.49, -100.383
8.39169, 69, -4.29052, -11.9117, 29.2669, 33.8541, 84.5469, -100.211
8.40129, 69, -4.02159, -11.8073, 29.1219, 33.655, 84.6333, -99.9515
8.40919, 69, -3.75179, -11.702, 28.9039, 33.3526, 84.6927, -99.7786
8.41472, 69, -3.48227, -11.5958, 28.8311, 33.2509, 84.7221, -99.6919
8.4262, 69, -3.07809, -11.4345, 28.6115, 32.9428, 84.8133, -99.4314
8.43194, 69, -2.94287, -11.3802, 28.5382, 32.8392, 84.844, -99.3443
8.4397, 70, -2.67166, -11.271, 28.3913, 32.6304, 84.9058, -99.1699
8.44772, 70, -2.39979, -11.1608, 28.2444, 32.4199, 84.9698, -98.9955
8.45582, 70, -2.12716, -11.0498, 28.097, 32.2074, 85.0332, -98.8206
8.46384, 70, -1.85349, -10.938, 27.9493, 31.993, 85.0988, -98.6456
8.47178, 70, -1.57858, -10.8252, 27.8014, 31.7769, 85.1646, -98.4703
8.47985, 71, -1.30171, -10.7113, 27.6537, 31.5591, 85.232, -98.2945
8.48775, 71, -1.02268, -10.5965, 27.5059, 31.3395, 85.3001, -98.1183
8.49472, 71, -0.74253, -10.4808, 27.3578, 31.118, 85.3691, -97.9419
8.50379, 71, -0.462308, -10.3642, 27.2094, 30.8947, 85.4394, -97.7653
8.51183, 71, -0.181618, -10.2468, 27.061, 30.6698, 85.5104, -97.5883
8.52163, 72, 0.240581, -10.0689, 26.8384, 30.3294, 85.6188, -97.3223
8.52788, 72, 0.381697, -10.0091, 26.7642, 30.2151, 85.6555, -97.2333
8.53577, 72, 0.664466, -9.88886, 26.6157, 29.9855, 85.7297, -97.055
8.54379, 72, 0.947663, -9.76771, 26.4673, 29.7542, 85.8045, -96.8765
8.55172, 72, 1.23097, -9.6457, 26.319, 29.5215, 85.8806, -96.6979
8.55972, 72, 1.51541, -9.52283, 26.1708, 29.2873, 85.9572, -96.5189
8.56778, 73, 1.80163, -9.3991, 26.0225, 29.0516, 86.0352, -96.3399
8.57587, 73, 2.08932, -9.27435, 25.8744, 28.8146, 86.1143, -96.1604
8.58618, 73, 2.37755, -9.08518, 25.6529, 28.4564, 86.2345, -95.8905
8.59088, 73, 2.66619, -9.02164, 25.5791, 28.3363, 86.2753, -95.8004
8.6023, 73, 3.10023, -8.82969, 25.3578, 27.9745, 86.399, -95.5294
8.60793, 74, 3.2453, -8.7653, 25.2841, 27.8532, 86.4408, -95.439
8.61483, 74, 3.53623, -8.63574, 25.137, 27.61, 86.5249, -95.2578
8.62379, 74, 3.82767, -8.50497, 24.9904, 27.3652, 86.6102, -95.0761
8.63177, 74, 4.11879, -8.37326, 24.8442, 27.1194, 86.6969, -94.894
8.63972, 74, 4.40997, -8.24051, 24.6979, 26.8726, 86.7843, -94.7116
8.64778, 74, 4.70191, -8.10689, 24.5519, 26.6249, 86.8732, -94.529
8.6559, 75, 4.9949, -7.97249, 24.4064, 26.3762, 86.9631, -94.346
8.66385, 75, 5.2889, -7.83705, 24.2615, 26.1267, 87.054, -94.163
8.67172, 75, 5.58324, -7.70038, 24.1169, 25.8764, 87.1464, -93.9792
8.67981, 75, 5.87736, -7.56262, 23.9726, 25.6252, 87.24, -93.7951
8.68772, 75, 6.17136, -7.42391, 23.8287, 25.3735, 87.3347, -93.6106
8.69601, 76, 6.46636, -7.28434, 23.6854, 25.1211, 87.4303, -93.4261
8.70405, 76, 6.76207, -7.14363, 23.5427, 24.8681, 87.5275, -93.241
8.71354, 76, 7.05751, -7.00163, 23.4003, 24.6146, 87.6257, -93.0557
8.71926, 76, 7.35262, -6.85856, 23.2584, 24.3606, 87.7251, -92.8698
8.72808, 76, 7.64774, -6.71436, 23.117, 24.1062, 87.8261, -92.6833
8.73533, 76, 7.94344, -6.56934, 22.9763, 23.8513, 87.9282, -92.4963
8.74394, 77, 8.24007, -6.42336, 22.8362, 23.5961, 88.0317, -92.3091
8.75254, 77, 8.53693, -6.27597, 22.6967, 23.3406, 88.1368, -92.1215
8.76071, 77, 8.83289, -6.12732, 22.5577, 23.085, 88.2427, -91.9337
8.76784, 77, 9.12842, -5.97757, 22.4194, 22.8296, 88.3501, -91.7454
8.77713, 77, 9.42449, -5.82687, 22.2818, 22.5742, 88.4591, -91.5564
8.78576, 78, 9.72107, -5.67501, 22.1448, 22.3188, 88.5689, -91.3671
8.79185, 78, 10.0173, -5.52163, 22.0086, 22.0635, 88.6804, -91.1772
8.79994, 78, 10.3128, -5.36697, 21.8729, 21.8083, 88.7931, -90.987
8.80872, 78, 10.6074, -5.21127, 21.7379, 21.5535, 88.907, -90.7962
8.81681, 78, 10.902, -5.05471, 21.6036, 21.299, 89.0226, -90.6049
8.82412, 78, 11.1974, -4.89706, 21.4701, 21.045, 89.139, -90.4129
8.83086, 79, 11.3452, -4.81772, 21.4037, 20.9181, 89.1978, -90.3168
8.84103, 79, 11.7869, -4.57767, 21.2053, 20.5381, 89.3765, -90.0277
8.84825, 79, 12.0804, -4.41637, 21.074, 20.2856, 89.497, -89.8345
8.85688, 79, 12.3734, -4.25421, 20.9435, 20.0337, 89.6193, -89.6408
8.86432, 79, 12.6659, -4.09042, 20.8137, 19.7827, 89.7427, -89.4464
8.87254, 80, 12.958, -3.92485, 20.6847, 19.5325, 89.8677, -89.2513
8.88058, 80, 13.2489, -3.75796, 20.5566, 19.2832, 89.9938, -89.0559
8.88768, 80, 13.3939, -3.67419, 20.4927, 19.1589, 90.0574, -88.9579
8.89632, 80, 13.6832, -3.50598, 20.3657, 18.9111, 90.1858, -88.7617
8.90541, 80, 13.9727, -3.3362, 20.2394, 18.6643, 90.3155, -88.5649
8.91171, 80, 14.2623, -3.16458, 20.114, 18.4188, 90.4468, -88.3672
8.91967, 81, 14.5511, -2.99166, 19.9895, 18.1744, 90.5792, -88.1688
8.92788, 81, 14.8387, -2.8181, 19.8657, 17.9312, 90.7134, -87.9696
8.93571, 81, 15.125, -2.64328, 19.7425, 17.6895, 90.8486, -87.7701
8.94376, 81, 15.41, -2.46649, 19.6202, 17.4492, 90.9854, -87.57
8.95359, 81, 15.8363, -2.19846, 19.4382, 17.0915, 91.1933, -87.2686
8.96283, 82, 16.119, -2.01883, 19.3179, 16.8547, 91.3339, -87.0665
8.96771, 82, 16.2597, -1.9286, 19.258, 16.737, 91.4048, -86.9653
8.9783, 82, 16.6798, -1.65479, 19.0792, 16.3865, 91.6196, -86.6603
8.9827, 82, 16.8195, -1.56252, 19.02, 16.2706, 91.6919, -86.5584
8.99172, 82, 17.0987, -1.37723, 18.9024, 16.04, 91.8376, -86.3538
8.999, 82, 17.3771, -1.19096, 18.7856, 15.8115, 91.9849, -86.1483
9.00793, 83, 17.6544, -1.00279, 18.6696, 15.5848, 92.1336, -85.9418
9.0147, 83, 17.93, -0.812424, 18.5542, 15.3601, 92.2841, -85.7348
9.02376, 83, 18.2034, -0.620759, 18.4393, 15.1374, 92.4358, -85.5269
9.0347, 83, 18.6106, -0.331446, 18.2684, 14.8077, 92.6663, -85.2138
9.03976, 83, 18.7456, -0.23415, 18.212, 14.6988, 92.7439, -85.1088
9.04767, 84, 19.0141, -0.0381851, 18.0997, 14.4827, 92.9003, -84.8982
9.05585, 84, 19.2803, 0.158804, 17.9882, 14.269, 93.0581, -84.6868
9.06474, 84, 19.5451, 0.357048, 17.8769, 14.0576, 93.2175, -84.4746
9.0717, 84, 19.8094, 0.557457, 17.7662, 13.8485, 93.3783, -84.2616
9.07989, 84, 20.073, 0.759754, 17.6565, 13.642, 93.5403, -84.0478
9.08854, 84, 20.336, 0.963014, 17.5477, 13.4379, 93.704, -83.8326
9.09479, 85, 20.5976, 1.16761, 17.4398, 13.2363, 93.8689, -83.6166
9.10497, 85, 20.8568, 1.37415, 17.3326, 13.0375, 94.0352, -83.3998
9.1117, 85, 21.1132, 1.58227, 17.2257, 12.8411, 94.2028, -83.1822
9.11976, 85, 21.3674, 1.79152, 17.1195, 12.6476, 94.3715, -82.9639
9.1277, 85, 21.62, 2.00256, 17.0141, 12.457, 94.5416, -82.7443
9.13685, 86, 21.8703, 2.21556, 16.9099, 12.2691, 94.7128, -82.5238
9.14383, 86, 22.1182, 2.42934, 16.8066, 12.0841, 94.8855, -82.3024
9.1517, 86, 22.3639, 2.64411, 16.7039, 11.9019, 95.0594, -82.0801
9.15972, 86, 22.6083, 2.86067, 16.6016, 11.7227, 95.2343, -81.8568
9.1677, 86, 22.8516, 3.07857, 16.5, 11.5464, 95.4108, -81.6325
9.17576, 86, 23.0941, 3.2977, 16.3995, 11.3733, 95.588, -81.4072
9.18396, 87, 23.3351, 3.51868, 16.3002, 11.2031, 95.7665, -81.1814
9.19181, 87, 23.5742, 3.74119, 16.2018, 11.0359, 95.9458, -80.9548
9.1997, 87, 23.8102, 3.96412, 16.1042, 10.8718, 96.1258, -80.7273
9.20776, 87, 24.0433, 4.18797, 16.0073, 10.7108, 96.3067, -80.4987
9.21573, 87, 24.2742, 4.41307, 15.911, 10.5529, 96.488, -80.2696
9.22389, 88, 24.5029, 4.63859, 15.8158, 10.3981, 96.6701, -80.0396
9.23195, 88, 24.7291, 4.86487, 15.7218, 10.2463, 96.8524, -79.8092
9.24025, 88, 24.9532, 5.09259, 15.6289, 10.0977, 97.0353, -79.5779
9.24787, 88, 25.1755, 5.32103, 15.537, 9.95221, 97.2186, -79.3456
9.25625, 88, 25.3962, 5.54974, 15.4459, 9.81006, 97.4022, -79.1127
9.26386, 88, 25.615, 5.77956, 15.3558, 9.67093, 97.5861, -78.8792
9.27183, 89, 25.8322, 6.01013, 15.2667, 9.53523, 97.77, -78.6453
9.28072, 89, 26.0478, 6.24102, 15.1786, 9.4024, 97.954, -78.4107
9.29048, 89, 26.2614, 6.47306, 15.0917, 9.27297, 98.1383, -78.1753
9.29584, 89, 26.4728, 6.70609, 15.0061, 9.14667, 98.3226, -77.9394
9.3052, 89, 26.6819, 6.93897, 14.9215, 9.02362, 98.5073, -77.703
9.31387, 90, 26.8886, 7.17247, 14.8379, 8.90382, 98.6917, -77.4661
9.32004, 90, 27.0931, 7.40682, 14.7555, 8.78708, 98.8764, -77.2283
9.3267, 90, 27.1945, 7.52402, 14.7147, 8.73005, 98.9685, -77.1092
9.33769, 90, 27.4947, 7.87651, 14.5938, 8.56349, 99.2449, -76.7514
9.34505, 90, 27.6919, 8.11285, 14.5146, 8.45623, 99.4288, -76.5122
9.35225, 90, 27.887, 8.34917, 14.4365, 8.3523, 99.6125, -76.2726
9.36288, 91, 28.0802, 8.58542, 14.3595, 8.25157, 99.7962, -76.0322
9.36907, 91, 28.2714, 8.82225, 14.2836, 8.15407, 99.9795, -75.7914
9.37477, 91, 28.3663, 8.94067, 14.2461, 8.10663, 100.071, -75.6707
9.38526, 91, 28.5549, 9.17748, 14.1718, 7.96874, 100.346, -75.3082
9.39079, 91, 28.742, 9.41518, 14.0985, 7.92432, 100.437, -75.1869
9.40072, 92, 29.0188, 9.773, 13.9903, 7.79614, 100.711, -74.8222
9.40769, 92, 29.1101, 9.8921, 13.9548, 7.75477, 100.802, -74.7003
9.41481, 92, 29.2911, 10.1307, 13.8842, 7.6748, 100.985, -74.4561
9.42374, 92, 29.47, 10.37, 13.8147, 7.59767, 101.167, -74.2114
9.43169, 92, 29.647, 10.6093, 13.7462, 7.52437, 101.349, -73.966
9.4397, 92, 29.8218, 10.8493, 13.6787, 7.45333, 101.531, -73.7196
9.44773, 93, 29.9942, 11.0903, 13.6121, 7.3864, 101.713, -73.4726
9.45573, 93, 30.1641, 11.3309, 13.5464, 7.32196, 101.894, -73.225
9.46371, 93, 30.3316, 11.5716, 13.4815, 7.26145, 102.075, -72.9764
9.47173, 93, 30.4967, 11.8132, 13.4175, 7.20383, 102.256, -72.727
9.47958, 93, 30.6597, 12.0551, 13.3545, 7.14913, 102.437, -72.4767
9.48676, 94, 30.8206, 12.2978, 13.2922, 7.09852, 102.618, -72.2257
9.49571, 94, 30.9797, 12.5419, 13.2309, 7.05013, 102.799, -71.9743
9.50409, 94, 31.1371, 12.7861, 13.1704, 7.0052, 102.98, -71.7217
9.51168, 94, 31.2925, 13.0303, 13.1109, 6.9643, 103.16, -71.4683
9.52068, 94, 31.4462, 13.275, 13.0522, 6.92597, 103.34, -71.2141
9.52865, 94, 31.598, 13.5194, 12.9945, 6.89025, 103.519, -70.9591
9.53568, 95, 31.7479, 13.764, 12.9377, 6.85843, 103.698, -70.7035
9.54369, 95, 31.8961, 14.0093, 12.8819, 6.83003, 103.877, -70.4469
9.55248, 95, 32.0426, 14.2544, 12.8269, 6.80489, 104.055, -70.1896
9.5587, 95, 32.1873, 14.4993, 12.7729, 6.78243, 104.233, -69.9317
9.56775, 95, 32.33, 14.7446, 12.7198, 6.7627, 104.41, -69.6733
9.57653, 96, 32.4706, 14.9897, 12.6678, 6.74594, 104.586, -69.4138
9.58272, 96, 32.6087, 15.2345, 12.6168, 6.73223, 104.762, -69.1537
9.59168, 96, 32.7446, 15.4798, 12.5667, 6.72189, 104.936, -68.893
9.60052, 96, 32.8785, 15.7249, 12.5177, 6.71461, 105.11, -68.6318
9.60768, 96, 33.0105, 15.9693, 12.4698, 6.71036, 105.283, -68.3699
9.61573, 96, 33.1403, 16.2142, 12.4229, 6.7085, 105.455, -68.1074
9.62484, 97, 33.268, 16.4586, 12.3772, 6.7086, 105.626, -67.8446
9.63169, 97, 33.3937, 16.7026, 12.3327, 6.71175, 105.796, -67.5815
9.63979, 97, 33.5174, 16.9471, 12.2892, 6.71813, 105.966, -67.3179
9.64849, 97, 33.6394, 17.1914, 12.2468, 6.7276, 106.134, -67.0535
9.65568, 97, 33.7603, 17.4349, 12.2053, 6.74043, 106.301, -66.7888
9.66376, 98, 33.8798, 17.6783, 12.1649, 6.7566, 106.467, -66.5237
9.67248, 98, 33.9978, 17.9211, 12.1258, 6.7757, 106.632, -66.2581
9.6797, 98, 34.1141, 18.1633, 12.0876, 6.79735, 106.796, -65.9919
9.68777, 98, 34.2288, 18.4059, 12.0504, 6.82142, 106.959, -65.7253
9.69707, 98, 34.342, 18.6482, 12.0143, 6.8479, 107.121, -65.4584
9.70496, 99, 34.4537, 18.8895, 11.9792, 6.87753, 107.281, -65.1911
9.71177, 99, 34.5643, 19.1307, 11.9451, 6.91048, 107.441, -64.923
9.71987, 99, 34.6734, 19.3714, 11.9121, 6.94562, 107.599, -64.6544
9.72783, 99, 34.781, 19.6113, 11.8801, 6.98272, 107.757, -64.3854
9.73578, 99, 34.8866, 19.8512, 11.8491, 7.02238, 107.913, -64.1162
9.74378, 99, 34.9903, 20.0905, 11.8191, 7.06537, 108.067, -63.8463
9.75179, 100, 35.0924, 20.3284, 11.7904, 7.11, 108.221, -63.5762
9.75979, 100, 35.193, 20.5655, 11.7628, 7.15716, 108.372, -63.3062
9.76785, 100, 35.2922, 20.8019, 11.7364, 7.20734, 108.523, -63.0365
9.77575, 100, 35.39, 21.037, 11.7112, 7.25884, 108.671, -62.7665
9.78371, 101, 35.4866, 21.2716, 11.6874, 7.31249, 108.818, -62.4965
9.79322, 101, 35.5817, 21.5057, 11.665, 7.36895, 108.962, -62.2273
9.79868, 101, 35.6287, 21.6221, 11.6543, 7.3974, 109.034, -62.0929
9.80791, 101, 35.7679, 21.9686, 11.6242, 7.48621, 109.244, -61.6909
9.81596, 101, 35.8591, 22.1979, 11.6061, 7.54719, 109.381, -61.424
9.82505, 101, 35.9494, 22.4252, 11.5893, 7.61034, 109.515, -61.1582
9.83205, 101, 36.0388, 22.6506, 11.5739, 7.67519, 109.647, -60.8937
9.83863, 102, 36.0831, 22.7629, 11.5668, 7.7078, 109.712, -60.7618
9.84906, 102, 36.2144, 23.0977, 11.5475, 7.80899, 109.902, -60.3672
9.85472, 102, 36.2576, 23.2083, 11.5417, 7.84302, 109.964, -60.2362
9.86422, 102, 36.3855, 23.5389, 11.526, 7.94841, 110.147, -59.8442
9.87252, 102, 36.4695, 23.7588, 11.5167, 8.02023, 110.267, -59.5834
9.88025, 102, 36.511, 23.9777, 11.5083, 8.09458, 110.386, -59.3219
9.88832, 103, 36.5933, 24.0871, 11.5007, 8.17045, 110.504, -59.0601
9.89626, 103, 36.675, 24.3058, 11.4972, 8.20955, 110.563, -58.9288
9.90367, 103, 36.7557, 24.5231, 11.4907, 8.28892, 110.68, -58.6659
9.91174, 103, 36.8358, 24.7373, 11.4849, 8.37094, 110.797, -58.4021
9.91968, 103, 36.9151, 24.9489, 11.4802, 8.45462, 110.913, -58.138
9.92766, 104, 36.9934, 25.158, 11.4769, 8.54067, 111.024, -57.8754
9.93572, 104, 37.0708, 25.3638, 11.4753, 8.62834, 111.132, -57.6155
9.94367, 104, 37.1472, 25.567, 11.4754, 8.7171, 111.233, -57.3596
9.95168, 104, 37.2223, 25.7686, 11.4779, 8.80685, 111.328, -57.1079
9.95972, 104, 37.2965, 25.9681, 11.4827, 8.89734, 111.415, -56.8611
9.96767, 104, 37.3699, 26.1637, 11.4894, 8.98827, 111.496, -56.6189
9.97572, 104, 37.4426, 26.356, 11.4976, 9.08002, 111.573, -56.3803
9.98372, 104, 37.5146, 26.5457, 11.5071, 9.17241, 111.646, -56.1443
9.99168, 104, 37.5864, 26.7327, 11.5172, 9.26553, 111.716, -55.91
9.99969, 104, 37.6576, 26.9166, 11.5276, 9.35945, 111.785, -55.6769
10.0067, 104, 37.7285, 27.0992, 11.5383, 9.45423, 111.853, -55.4447
10.0157, 104, 37.7988, 27.2815, 11.5489, 9.54973, 111.921, -55.2132
10.0237, 104, 37.8687, 27.4634, 11.5596, 9.64609, 111.988, -54.9818
10.0318, 104, 37.9382, 27.6448, 11.5701, 9.74334, 112.055, -54.7506
10.0407, 104, 38.0075, 27.8265, 11.5806, 9.8413, 112.121, -54.52
10.0477, 104, 38.0767, 28.0088, 11.591, 9.93998, 112.188, -54.29
10.0557, 104, 38.1455, 28.1912, 11.6013, 10.0398, 112.254, -54.0605
10.0637, 104, 38.2141, 28.3737, 11.6117, 10.1404, 112.32, -53.8309
10.0717, 104, 38.2825, 28.5567, 11.6221, 10.2418, 112.386, -53.6018
10.0797, 104, 38.3504, 28.7404, 11.6323, 10.3443, 112.452, -53.373
10.0877, 104, 38.418, 28.9243, 11.6425, 10.4472, 112.517, -53.1447
10.0957, 104, 38.4853, 29.1077, 11.6527, 10.551, 112.582, -52.9167
10.1037, 104, 38.5523, 29.2914, 11.6628, 10.6559, 112.647, -52.6889
10.1117, 104, 38.6188, 29.4757, 11.6727, 10.7612, 112.712, -52.4614
10.1197, 104, 38.6849, 29.6597, 11.6825, 10.8675, 112.777, -52.2344
10.1277, 104, 38.7506, 29.8433, 11.6923, 10.9745, 112.84, -52.0078
10.1357, 104, 38.8158, 30.0273, 11.702, 11.0825, 112.905, -51.7816
10.1438, 104, 38.8806, 30.2119, 11.7116, 11.1913, 112.968, -51.5552
10.1517, 104, 38.945, 30.3965, 11.7211, 11.3007, 113.032, -51.3294
10.1597, 104, 39.0086, 30.5801, 11.7306, 11.411, 113.095, -51.1038
10.1677, 104, 39.071, 30.7622, 11.7398, 11.5218, 113.158, -50.8791
10.1757, 104, 39.1316, 30.9417, 11.7485, 11.6329, 113.222, -50.6556
10.1837, 104, 39.1898, 31.1157, 11.7568, 11.7434, 113.283, -50.4345
10.1918, 104, 39.2456, 31.2821, 11.7645, 11.852, 113.344, -50.2185
10.1997, 104, 39.2989, 31.4405, 11.7715, 11.9572, 113.402, -50.0106
10.2077, 104, 39.3494, 31.5895, 11.7779, 12.0571, 113.457, -49.8148
10.2158, 104, 39.3963, 31.7271, 11.7838, 12.1494, 113.508, -49.6344
10.2237, 104, 39.4394, 31.8526, 11.7894, 12.2331, 113.552, -49.4726
10.2318, 104, 39.4783, 31.966, 11.7947, 12.3056, 113.591, -49.3316
10.2398, 104, 39.5128, 32.0661, 11.7996, 12.3679, 113.624, -49.2123
10.2478, 104, 39.5422, 32.1516, 11.8041, 12.4183, 113.651, -49.115
10.2558, 104, 39.5668, 32.2228, 11.8083, 12.458, 113.672, -49.0374
10.2638, 104, 39.5869, 32.2807, 11.8122, 12.4886, 113.687, -48.9793
10.2717, 104, 39.6023, 32.3269, 11.8157, 12.511, 113.698, -48.9371
10.2797, 104, 39.6135, 32.3622, 11.8187, 12.5266, 113.706, -48.908
10.2878, 104, 39.6213, 32.388, 11.8211, 12.5369, 113.71, -48.8892
10.2957, 104, 39.6265, 32.4066, 11.823, 12.5432, 113.713, -48.8778
10.3038, 104, 39.6302, 32.4193, 11.8245, 12.5467, 113.715, -48.8717
10.3123, 105, 39.6329, 32.4273, 11.8256, 12.5486, 113.715, -48.8686
10.3199, 105, 39.6337, 32.4321, 11.8264, 12.5494, 113.716, -48.8671
10.3279, 105, 39.6333, 32.4348, 11.8271, 12.5499, 113.716, -48.8665
10.3362, 105, 39.6325, 32.4364, 11.8275, 12.5501, 113.716, -48.8662
10.3441, 105, 39.6317, 32.4376, 11.828, 12.5502, 113.716, -48.8662
10.3522, 105, 39.6313, 32.4385, 11.8284, 12.5502, 113.716, -48.8662
10.3604, 105, 39.6311, 32.4395, 11.8288, 12.5502, 113.716, -48.8663
10.3682, 105, 39.6314, 32.4405, 11.8293, 12.5502, 113.716, -48.8664
10.3763, 105, 39.6319, 32.4414, 11.8297, 12.5502, 113.716, -48.8665
10.3843, 105, 39.6325, 32.4421, 11.8301, 12.5502, 113.716, -48.8666
10.3922, 105, 39.6328, 32.4424, 11.8302, 12.5502, 113.716, -48.8667
10.3997, 105, 39.6334, 32.4429, 11.8305, 12.5502, 113.716, -48.8668
10.4077, 105, 39.6342, 32.4434, 11.8307, 12.5502, 113.716, -48.867
10.4156, 105, 39.6354, 32.4437, 11.8308, 12.5502, 113.716, -48.867
