rpiRobotics/ARM-21-02-F-19-Robot-Motion-Program/data_performance_abb/curve_2/baseline/100L/realrobot/bisect/run_4realrobot_curve_exe_v400_z10.csv
timestamp, cmd_num, J1, J2, J3, J4, J5, J6
0.000374, -1, 39.6333, 32.4443, 11.8321, 12.5483, 113.716, -48.8695
0.004338, -1, 39.6333, 32.4443, 11.8321, 12.5483, 113.716, -48.8695
0.007561, -1, 39.6333, 32.4443, 11.8321, 12.5483, 113.716, -48.8695
0.028456, -1, 39.6333, 32.4443, 11.8321, 12.5483, 113.716, -48.8695
0.031272, -1, 39.6333, 32.4443, 11.8321, 12.5483, 113.716, -48.8695
0.034507, -1, 39.6333, 32.4443, 11.8321, 12.5483, 113.716, -48.8695
0.03936, -1, 39.6333, 32.4443, 11.8321, 12.5483, 113.716, -48.8695
0.047346, -1, 39.6332, 32.4443, 11.8321, 12.5483, 113.716, -48.8695
0.055352, -1, 39.6327, 32.4442, 11.8321, 12.5483, 113.716, -48.8695
0.063421, -1, 39.6304, 32.4438, 11.8321, 12.5483, 113.716, -48.8695
0.071362, -1, 39.625, 32.4423, 11.8321, 12.5483, 113.716, -48.8698
0.079439, -1, 39.6162, 32.4393, 11.832, 12.5483, 113.715, -48.8716
0.087419, -1, 39.6028, 32.4339, 11.832, 12.5483, 113.714, -48.876
0.095352, -1, 39.5831, 32.4253, 11.832, 12.5482, 113.71, -48.8867
0.103504, -1, 39.5545, 32.4126, 11.8325, 12.5482, 113.703, -48.9072
0.111342, -1, 39.5161, 32.3949, 11.8346, 12.5482, 113.691, -48.9404
0.119355, -1, 39.4667, 32.371, 11.8396, 12.5482, 113.672, -48.9906
0.128223, -1, 39.4047, 32.3405, 11.848, 12.5482, 113.645, -49.062
0.135444, -1, 39.3294, 32.3026, 11.8609, 12.5483, 113.608, -49.1561
0.143434, -1, 39.2403, 32.2569, 11.8787, 12.5485, 113.561, -49.2757
0.152276, -1, 39.1374, 32.2033, 11.9012, 12.5491, 113.504, -49.4207
0.159458, -1, 39.0203, 32.1419, 11.928, 12.55, 113.437, -49.5903
0.167456, -1, 38.8898, 32.0732, 11.9587, 12.5515, 113.361, -49.7828
0.176277, -1, 38.7471, 31.9978, 11.9927, 12.5533, 113.278, -49.9948
0.183356, -1, 38.5929, 31.9166, 12.0289, 12.5554, 113.187, -50.2228
0.191374, -1, 38.4287, 31.8304, 12.0667, 12.5576, 113.093, -50.4628
0.200289, -1, 38.2565, 31.7402, 12.1055, 12.56, 112.994, -50.7113
0.207397, -1, 38.0781, 31.647, 12.1446, 12.5625, 112.894, -50.9649
0.215491, -1, 37.8946, 31.5517, 12.1835, 12.5648, 112.793, -51.2217
0.224833, -1, 37.7071, 31.4548, 12.2223, 12.5673, 112.691, -51.4801
0.231584, -1, 37.517, 31.3571, 12.2611, 12.5697, 112.588, -51.7397
0.239786, -1, 37.3254, 31.2592, 12.2999, 12.5722, 112.486, -51.9992
0.247711, -1, 37.1333, 31.1613, 12.3388, 12.5746, 112.383, -52.259
0.255759, -1, 36.9411, 31.0635, 12.3775, 12.5773, 112.28, -52.5191
0.263945, -1, 36.7491, 30.9658, 12.4163, 12.5798, 112.177, -52.7795
0.273287, -1, 36.5575, 30.8681, 12.4552, 12.5823, 112.074, -53.0398
0.27993, -1, 36.366, 30.7704, 12.494, 12.585, 111.971, -53.3001
0.288452, -1, 36.1745, 30.6727, 12.5328, 12.5875, 111.868, -53.5606
0.297078, -1, 35.983, 30.5748, 12.5717, 12.5902, 111.765, -53.8212
0.304413, -1, 35.7915, 30.4768, 12.6107, 12.5928, 111.662, -54.0818
0.312046, -1, 35.6957, 30.4278, 12.6301, 12.5941, 111.559, -54.3421
0.319337, -1, 35.5038, 30.3297, 12.669, 12.5966, 111.507, -54.4722
0.32839, -1, 35.2155, 30.1823, 12.7272, 12.6006, 111.353, -54.863
0.335396, -1, 35.1192, 30.1332, 12.7467, 12.6018, 111.301, -54.9934
0.343374, -1, 34.9268, 30.0347, 12.7856, 12.6045, 111.198, -55.2542
0.351351, -1, 34.7345, 29.9362, 12.8244, 12.6071, 111.095, -55.5147
0.359364, -1, 34.5422, 29.8378, 12.8633, 12.6096, 110.992, -55.7756
0.367371, -1, 34.3499, 29.7394, 12.9023, 12.6122, 110.889, -56.0364
0.375343, -1, 34.1577, 29.6411, 12.9412, 12.6148, 110.786, -56.2973
0.383371, -1, 33.9659, 29.5429, 12.9802, 12.6174, 110.683, -56.558
0.392866, -1, 33.6783, 29.3955, 13.0385, 12.6215, 110.528, -56.9494
0.399341, -1, 33.5823, 29.3463, 13.0579, 12.6228, 110.476, -57.0799
0.408898, -1, 33.2939, 29.1988, 13.1164, 12.6268, 110.322, -57.4715
0.416933, -1, 33.1012, 29.1002, 13.1553, 12.6294, 110.219, -57.7324
0.425081, -1, 32.9084, 29.0017, 13.1941, 12.632, 110.115, -57.9935
0.431336, -1, 32.8119, 28.9525, 13.2136, 12.6334, 110.064, -58.1241
0.439449, -1, 32.6186, 28.8539, 13.2526, 12.6361, 109.961, -58.3855
0.449378, -1, 32.3282, 28.7059, 13.3109, 12.6401, 109.806, -58.7771
0.455336, -1, 32.2312, 28.6565, 13.3303, 12.6415, 109.755, -58.9076
0.464333, -1, 32.0372, 28.5578, 13.3692, 12.6442, 109.652, -59.1688
0.47134, -1, 31.8433, 28.459, 13.408, 12.6469, 109.549, -59.4302
0.479351, -1, 31.6496, 28.3602, 13.4471, 12.6497, 109.446, -59.6915
0.487394, -1, 31.4562, 28.2615, 13.486, 12.6525, 109.342, -59.9527
0.628139, -1, 28.0756, 26.5342, 14.1675, 12.6986, 107.535, -64.53
0.629338, -1, 28.0756, 26.5342, 14.1675, 12.6986, 107.535, -64.53
0.631399, -1, 27.9792, 26.4848, 14.187, 12.6998, 107.484, -64.6608
0.632626, -1, 27.9792, 26.4848, 14.187, 12.6998, 107.484, -64.6608
0.6339, -1, 27.9792, 26.4848, 14.187, 12.6998, 107.484, -64.6608
0.635947, -1, 27.8828, 26.4354, 14.2065, 12.701, 107.432, -64.7917
0.638849, -1, 27.8828, 26.386, 14.226, 12.7022, 107.381, -64.9227
0.641493, -1, 27.7864, 26.386, 14.226, 12.7022, 107.381, -64.9227
0.787962, -1, 24.2128, 24.5577, 14.9469, 12.7452, 105.47, -69.7644
0.78933, -1, 24.2128, 24.5577, 14.9469, 12.7452, 105.47, -69.7644
0.790761, -1, 24.2128, 24.5577, 14.9469, 12.7452, 105.47, -69.7644
0.792737, -1, 24.1165, 24.5083, 14.9663, 12.7463, 105.419, -69.8952
0.794116, -1, 24.1165, 24.5083, 14.9663, 12.7463, 105.419, -69.8952
0.796965, -1, 24.0201, 24.4589, 14.9859, 12.7474, 105.367, -70.0259
0.798257, -1, 24.0201, 24.4589, 14.9859, 12.7474, 105.367, -70.0259
0.805221, -1, 23.8272, 24.3601, 15.0248, 12.7499, 105.263, -70.2876
0.806465, -1, 23.8272, 24.3601, 15.0248, 12.7499, 105.263, -70.2876
0.80851, -1, 23.7308, 24.3107, 15.0442, 12.7511, 105.211, -70.4184
0.809739, -1, 23.7308, 24.3107, 15.0442, 12.7511, 105.211, -70.4184
0.810921, -1, 23.7308, 24.3107, 15.0442, 12.7511, 105.211, -70.4184
0.812962, -1, 23.6343, 24.2613, 15.0637, 12.7523, 105.16, -70.5493
0.814307, -1, 23.6343, 24.2613, 15.0637, 12.7523, 105.16, -70.5493
0.816121, -1, 23.5378, 24.2118, 15.0831, 12.7535, 105.108, -70.6804
0.818106, -1, 23.5378, 24.2118, 15.0831, 12.7535, 105.108, -70.6804
0.819294, -1, 23.5378, 24.2118, 15.0831, 12.7535, 105.108, -70.6804
0.822027, -1, 23.4411, 24.1624, 15.1026, 12.7547, 105.056, -70.8112
0.823298, -1, 23.4411, 24.1624, 15.1026, 12.7547, 105.056, -70.8112
0.825347, -1, 23.3442, 24.1129, 15.1221, 12.7559, 105.005, -70.942
0.826633, -1, 23.3442, 24.1129, 15.1221, 12.7559, 105.005, -70.942
0.829346, -1, 23.2473, 24.0635, 15.1415, 12.7571, 104.953, -71.0729
0.83268, -1, 23.1504, 24.014, 15.1609, 12.7583, 104.901, -71.2038
0.833945, -1, 23.1504, 24.014, 15.1609, 12.7583, 104.901, -71.2038
0.835277, -1, 23.1504, 24.014, 15.1609, 12.7583, 104.901, -71.2038
0.837248, -1, 23.0534, 23.9645, 15.1803, 12.7596, 104.85, -71.3346
0.838595, -1, 23.0534, 23.9645, 15.1803, 12.7596, 104.85, -71.3346
0.840388, -1, 22.9564, 23.9151, 15.1998, 12.7608, 104.798, -71.4656
0.841851, -1, 22.9564, 23.9151, 15.1998, 12.7608, 104.798, -71.4656
0.843066, -1, 22.9564, 23.9151, 15.1998, 12.7608, 104.798, -71.4656
0.848581, -1, 22.7623, 23.8163, 15.2387, 12.7633, 104.695, -71.7274
0.849919, -1, 22.7623, 23.8163, 15.2387, 12.7633, 104.695, -71.7274
0.851192, -1, 22.7623, 23.8163, 15.2387, 12.7633, 104.695, -71.7274
0.854071, -1, 22.6654, 23.7669, 15.2582, 12.7645, 104.643, -71.8582
0.855269, -1, 22.6654, 23.7669, 15.2582, 12.7645, 104.643, -71.8582
0.857334, -1, 22.5685, 23.7176, 15.2777, 12.7657, 104.591, -71.989
0.858537, -1, 22.5685, 23.7176, 15.2777, 12.7657, 104.591, -71.989
0.861261, -1, 22.4716, 23.6683, 15.2972, 12.767, 104.54, -72.1197
0.86328, -1, 22.4716, 23.6683, 15.2972, 12.767, 104.54, -72.1197
0.872761, -1, 22.1816, 23.5203, 15.3556, 12.7708, 104.384, -72.512
0.879333, -1, 22.0849, 23.4709, 15.3751, 12.7721, 104.333, -72.6428
0.887408, -1, 21.8919, 23.3723, 15.4141, 12.7747, 104.23, -72.9044
0.896947, -1, 21.6034, 23.2243, 15.4725, 12.7787, 104.075, -73.2964
0.904952, -1, 21.4112, 23.1255, 15.5114, 12.7814, 103.972, -73.5579
0.911377, -1, 21.3151, 23.0762, 15.5309, 12.7827, 103.92, -73.6886
0.921032, -1, 21.0265, 22.9282, 15.5893, 12.7867, 103.765, -74.0808
0.927327, -1, 20.9303, 22.8789, 15.6088, 12.7881, 103.714, -74.2114
0.935383, -1, 20.7378, 22.7802, 15.6477, 12.7908, 103.611, -74.4724
0.944944, -1, 20.5452, 22.6817, 15.6866, 12.7935, 103.508, -74.7336
0.951327, -1, 20.352, 22.583, 15.7255, 12.7963, 103.405, -74.9949
0.959395, -1, 20.1583, 22.4843, 15.7644, 12.799, 103.302, -75.2561
0.967334, -1, 19.9645, 22.3856, 15.8033, 12.8017, 103.198, -75.5172
0.975325, -1, 19.7709, 22.2869, 15.842, 12.8044, 103.096, -75.7784
0.983325, -1, 19.5772, 22.1883, 15.881, 12.8071, 102.993, -76.0397
0.991384, -1, 19.3837, 22.0897, 15.9198, 12.8099, 102.889, -76.301
0.999396, -1, 19.1907, 21.991, 15.9587, 12.8125, 102.787, -76.5618
1.00731, -1, 18.9979, 21.8924, 15.9977, 12.8152, 102.683, -76.8226
1.01531, -1, 18.8054, 21.7938, 16.0365, 12.8179, 102.58, -77.0836
1.0234, -1, 18.6133, 21.6951, 16.0752, 12.8206, 102.478, -77.3447
1.03131, -1, 18.4215, 21.5966, 16.1142, 12.8233, 102.374, -77.6054
1.03932, -1, 18.2297, 21.498, 16.153, 12.8259, 102.272, -77.8662
1.04739, -1, 18.0378, 21.3996, 16.1918, 12.8284, 102.169, -78.1268
1.0554, -1, 17.846, 21.3013, 16.2307, 12.8309, 102.066, -78.3877
1.06332, -1, 17.6539, 21.2029, 16.2696, 12.8334, 101.963, -78.6481
1.07138, -1, 17.4615, 21.1046, 16.3084, 12.8359, 101.86, -78.9085
1.07939, -1, 17.2686, 21.0063, 16.3472, 12.8383, 101.757, -79.1691
1.08731, -1, 17.0755, 20.908, 16.386, 12.8407, 101.654, -79.4298
1.09539, -1, 16.8825, 20.8097, 16.4248, 12.843, 101.551, -79.6904
1.10332, -1, 16.6894, 20.7115, 16.4636, 12.8453, 101.448, -79.9509
1.11139, -1, 16.4963, 20.6133, 16.5022, 12.8476, 101.346, -80.2113
1.11957, -1, 16.3034, 20.515, 16.541, 12.85, 101.243, -80.4719
1.12732, -1, 16.1112, 20.4167, 16.5798, 12.8523, 101.14, -80.7324
1.13543, -1, 15.9193, 20.3183, 16.6185, 12.8546, 101.038, -80.9925
1.14421, -1, 15.7276, 20.2199, 16.6573, 12.8569, 100.935, -81.2526
1.15141, -1, 15.5363, 20.1214, 16.6959, 12.8592, 100.833, -81.5128
1.15948, -1, 15.3451, 20.0231, 16.7346, 12.8616, 100.73, -81.7729
1.1682, -1, 15.154, 19.9249, 16.7734, 12.8638, 100.627, -82.0328
1.17542, -1, 14.9629, 19.8268, 16.8121, 12.8661, 100.525, -82.2925
1.18349, -1, 14.7715, 19.7287, 16.8508, 12.8683, 100.422, -82.5526
1.19222, -1, 14.58, 19.6306, 16.8896, 12.8706, 100.32, -82.8126
1.19935, -1, 14.3882, 19.5325, 16.9283, 12.873, 100.217, -83.0723
1.20741, -1, 14.196, 19.4345, 16.9671, 12.8752, 100.115, -83.3318
1.21632, -1, 14.0035, 19.3364, 17.0058, 12.8774, 100.012, -83.5915
1.22357, -1, 13.811, 19.2386, 17.0444, 12.8798, 99.9096, -83.8511
1.23149, -1, 13.6185, 19.1408, 17.0831, 12.882, 99.807, -84.1106
1.24043, -1, 13.4262, 19.0429, 17.1218, 12.8843, 99.7044, -84.3699
1.24775, -1, 13.2342, 18.945, 17.1603, 12.8866, 99.6022, -84.6292
1.25567, -1, 13.0426, 18.8471, 17.1989, 12.889, 99.4997, -84.8886
1.26375, -1, 12.8514, 18.7491, 17.2376, 12.8913, 99.3973, -85.1479
1.2719, -1, 12.6604, 18.6512, 17.2762, 12.8937, 99.2952, -85.4069
1.28048, -1, 12.4697, 18.5534, 17.3148, 12.8961, 99.1928, -85.6658
1.28789, -1, 12.2796, 18.4556, 17.3534, 12.8985, 99.0905, -85.9247
1.29595, -1, 12.0895, 18.3579, 17.3919, 12.9009, 98.9886, -86.1837
1.30494, -1, 11.8991, 18.2603, 17.4305, 12.9033, 98.8863, -86.4424
1.31231, -1, 11.7086, 18.1627, 17.4691, 12.9058, 98.7844, -86.701
1.32039, -1, 11.5178, 18.0651, 17.5076, 12.9082, 98.6827, -86.9597
1.3273, -1, 11.4223, 18.0163, 17.5269, 12.9094, 98.6316, -87.0891
1.33536, -1, 11.2311, 17.9187, 17.5655, 12.9119, 98.5297, -87.3476
1.3433, -1, 11.0396, 17.8212, 17.6041, 12.9143, 98.4279, -87.6059
1.3513, -1, 10.848, 17.7238, 17.6426, 12.9169, 98.3259, -87.8641
1.35946, -1, 10.6563, 17.6263, 17.6811, 12.9194, 98.2239, -88.1223
1.36732, -1, 10.4648, 17.5288, 17.7194, 12.922, 98.1222, -88.3807
1.37531, -1, 10.2736, 17.4313, 17.7579, 12.9245, 98.0201, -88.6388
1.38335, -1, 10.0829, 17.3337, 17.7963, 12.9271, 97.9182, -88.8969
1.39284, -1, 9.79738, 17.1874, 17.8538, 12.931, 97.7654, -89.284
1.40165, -1, 9.60739, 17.0899, 17.8922, 12.9337, 97.6634, -89.5423
1.40735, -1, 9.51265, 17.0412, 17.9113, 12.9351, 97.6125, -89.6712
1.41691, -1, 9.22883, 16.8952, 17.9689, 12.9392, 97.4597, -90.0577
1.42573, -1, 9.03948, 16.798, 18.0073, 12.9418, 97.3579, -90.3152
1.43137, -1, 8.94481, 16.7494, 18.0264, 12.9432, 97.3071, -90.4439
1.44089, -1, 8.75522, 16.6523, 18.0648, 12.9458, 97.2054, -90.8303
1.44829, -1, 8.56568, 16.5551, 18.1032, 12.9484, 97.1036, -90.9588
1.45536, -1, 8.37596, 16.4581, 18.1415, 12.9512, 97.0022, -91.2161
1.4633, -1, 8.18569, 16.3611, 18.1798, 12.9538, 96.9007, -91.4732
1.4713, -1, 7.99512, 16.2643, 18.2182, 12.9563, 96.799, -91.7305
1.47936, -1, 7.80448, 16.1674, 18.2564, 12.9591, 96.6977, -91.9873
1.4873, -1, 7.61394, 16.0705, 18.2947, 12.9616, 96.5962, -92.2439
1.4953, -1, 7.42345, 15.9735, 18.333, 12.9641, 96.4947, -92.5007
1.5033, -1, 7.23331, 15.8766, 18.3712, 12.9667, 96.3935, -92.7575
1.51131, -1, 7.04349, 15.7796, 18.4093, 12.9692, 96.292, -93.0142
1.51936, -1, 6.854, 15.6826, 18.4477, 12.9718, 96.1907, -93.2707
1.5273, -1, 6.6651, 15.5858, 18.4857, 12.9743, 96.0901, -93.5269
1.53532, -1, 6.47667, 15.489, 18.5237, 12.9768, 95.9889, -93.7833
1.54336, -1, 6.28851, 15.3923, 18.5619, 12.9793, 95.8879, -94.0397
1.55129, -1, 6.10048, 15.2956, 18.6001, 12.9817, 95.7872, -94.2957
1.55933, -1, 5.91218, 15.1989, 18.6383, 12.9841, 95.6861, -94.5517
1.56737, -1, 5.72377, 15.1022, 18.6765, 12.9864, 95.5852, -94.8076
1.57529, -1, 5.53531, 15.0057, 18.7145, 12.9887, 95.4846, -95.0634
1.58329, -1, 5.34655, 14.9091, 18.7526, 12.991, 95.3836, -95.319
1.59136, -1, 5.15739, 14.8128, 18.7908, 12.9932, 95.2829, -95.5745
1.59929, -1, 4.96791, 14.7165, 18.8288, 12.9954, 95.1824, -95.83
1.60735, -1, 4.77845, 14.6201, 18.8668, 12.9977, 95.0815, -96.0855
1.61539, -1, 4.58901, 14.5237, 18.9049, 12.9998, 94.9808, -96.3406
1.6233, -1, 4.39975, 14.4273, 18.9429, 13.002, 94.8802, -96.5955
1.63137, -1, 4.21079, 14.3309, 18.981, 13.0042, 94.7793, -96.8504
1.63935, -1, 4.02214, 14.2345, 19.019, 13.0065, 94.6784, -97.1057
1.64738, -1, 3.83413, 14.1383, 19.0568, 13.0087, 94.5776, -97.3606
1.65545, -1, 3.64658, 14.0421, 19.0948, 13.0109, 94.4767, -97.6155
1.66367, -1, 3.45936, 13.9459, 19.1327, 13.0133, 94.3762, -97.8701
1.6714, -1, 3.27246, 13.8499, 19.1705, 13.0155, 94.2755, -98.1248
1.67948, -1, 3.08554, 13.7539, 19.2083, 13.0178, 94.1748, -98.3796
1.68786, -1, 2.89855, 13.6579, 19.2463, 13.0201, 94.0742, -98.6339
1.69629, -1, 2.71152, 13.5619, 19.2842, 13.0223, 93.9736, -98.8881
1.70363, -1, 2.52424, 13.4659, 19.3221, 13.0246, 93.8731, -99.1422
1.71216, -1, 2.33685, 13.37, 19.3598, 13.0269, 93.7728, -99.3963
1.71938, -1, 2.14893, 13.2743, 19.3976, 13.0292, 93.6724, -99.6503
1.72756, -1, 1.96079, 13.1785, 19.4355, 13.0313, 93.5722, -99.9039
1.73634, -1, 1.77262, 13.0826, 19.4733, 13.0336, 93.4724, -100.158
1.74358, -1, 1.58436, 12.9868, 19.511, 13.0359, 93.3722, -100.411
1.75201, -1, 1.39619, 12.891, 19.5488, 13.0381, 93.2722, -100.665
1.76051, -1, 1.20835, 12.7951, 19.5865, 13.0405, 93.1724, -100.918
1.76773, -1, 1.02097, 12.6994, 19.6242, 13.0428, 93.0722, -101.171
1.77594, -1, 0.834195, 12.6038, 19.662, 13.0452, 92.9723, -101.424
1.78469, -1, 0.647799, 12.5082, 19.6996, 13.0476, 92.8726, -101.677
1.79198, -1, 0.461889, 12.4128, 19.7371, 13.05, 92.7726, -101.93
1.80009, -1, 0.276312, 12.3175, 19.7748, 13.0525, 92.6729, -102.183
1.80873, -1, 0.18358, 12.2698, 19.7936, 13.0538, 92.5736, -102.436
1.8158, -1, -0.00174197, 12.1744, 19.8312, 13.0562, 92.5237, -102.562
1.82432, -1, -0.280082, 12.0315, 19.8877, 13.0599, 92.3743, -102.941
1.83128, -1, -0.372991, 11.984, 19.9065, 13.0611, 92.3248, -103.067
1.83928, -1, -0.559136, 11.8889, 19.944, 13.0636, 92.2253, -103.319
1.84866, -1, -0.838655, 11.7464, 20.0004, 13.0673, 92.076, -103.697
1.85528, -1, -0.931926, 11.6989, 20.0191, 13.0686, 92.0265, -103.823
1.86335, -1, -1.11873, 11.6038, 20.0565, 13.0711, 91.927, -104.075
1.87131, -1, -1.30568, 11.5088, 20.0941, 13.0736, 91.8276, -104.327
1.87928, -1, -1.49255, 11.4137, 20.1316, 13.0761, 91.7285, -104.578
1.88733, -1, -1.67921, 11.3185, 20.1689, 13.0787, 91.6293, -104.83
1.89713, -1, -1.95837, 11.176, 20.2251, 13.0827, 91.4807, -105.207
1.90329, -1, -2.05116, 11.1285, 20.2438, 13.084, 91.4312, -105.332
1.91133, -1, -2.23632, 11.0336, 20.2812, 13.0867, 91.3319, -105.583
1.92094, -1, -2.51345, 10.8913, 20.3373, 13.0908, 91.1832, -105.96
1.9297, -1, -2.60559, 10.7966, 20.3745, 13.0934, 91.0841, -106.211
1.93535, -1, -2.7895, 10.7492, 20.3932, 13.0947, 91.0345, -106.336
1.9451, -1, -2.97341, 10.6545, 20.4306, 13.0973, 90.9353, -106.712
1.95133, -1, -3.15745, 10.5598, 20.4679, 13.0999, 90.8367, -106.837
1.96028, -1, -3.34178, 10.4652, 20.5051, 13.1024, 90.7377, -107.088
1.96834, -1, -3.52638, 10.3708, 20.5424, 13.1049, 90.6387, -107.339
1.9763, -1, -3.71106, 10.2765, 20.5796, 13.1075, 90.5402, -107.589
1.98336, -1, -3.89613, 10.1821, 20.6169, 13.11, 90.4412, -107.839
1.99128, -1, -4.08149, 10.0878, 20.6542, 13.1124, 90.3426, -108.089
1.99934, -1, -4.26699, 9.99351, 20.6913, 13.1147, 90.2441, -108.339
2.00727, -1, -4.45259, 9.89918, 20.7284, 13.1171, 90.1453, -108.588
2.01562, -1, -4.63795, 9.80485, 20.7657, 13.1194, 90.0467, -108.838
2.02329, -1, -4.82294, 9.71064, 20.8028, 13.1217, 89.9485, -109.087
2.03128, -1, -5.00748, 9.61652, 20.8398, 13.1241, 89.8498, -109.337
2.04016, -1, -5.19128, 9.52245, 20.877, 13.1264, 89.7515, -109.586
2.04836, -1, -5.37467, 9.42846, 20.9141, 13.1288, 89.6534, -109.835
2.05527, -1, -5.55763, 9.33453, 20.9511, 13.1311, 89.5548, -110.084
2.06412, -1, -5.74009, 9.24063, 20.9883, 13.1333, 89.4566, -110.332
2.07127, -1, -5.92236, 9.14676, 21.0253, 13.1356, 89.3586, -110.581
2.07927, -1, -6.10481, 9.05289, 21.0622, 13.1378, 89.2602, -110.83
2.08809, -1, -6.28755, 8.9591, 21.0993, 13.14, 89.1622, -111.078
2.09635, -1, -6.47044, 8.86549, 21.1362, 13.1422, 89.0645, -111.327
2.10329, -1, -6.65353, 8.77184, 21.173, 13.1443, 88.9664, -111.575
2.11208, -1, -6.83717, 8.67824, 21.21, 13.1465, 88.8685, -111.823
2.12034, -1, -7.02108, 8.58466, 21.2469, 13.1486, 88.7707, -112.071
2.12727, -1, -7.20514, 8.49113, 21.2837, 13.1508, 88.6728, -112.318
2.13612, -1, -7.38935, 8.39747, 21.3207, 13.1529, 88.575, -112.566
2.14335, -1, -7.57317, 8.30384, 21.3575, 13.155, 88.4775, -112.814
2.15137, -1, -7.75677, 8.21045, 21.3942, 13.1572, 88.3798, -113.061
2.16016, -1, -7.93993, 8.11702, 21.4311, 13.1594, 88.2824, -113.308
2.16738, -1, -8.12249, 8.02363, 21.4679, 13.1616, 88.1851, -113.555
2.17538, -1, -8.30437, 7.93041, 21.5046, 13.1639, 88.0876, -113.803
2.18418, -1, -8.48573, 7.83719, 21.5414, 13.1662, 87.9902, -114.049
2.19128, -1, -8.66663, 7.74402, 21.5783, 13.1684, 87.893, -114.296
2.19928, -1, -8.84735, 7.65081, 21.615, 13.1708, 87.7955, -114.543
2.20824, -1, -9.02815, 7.55773, 21.6518, 13.1729, 87.698, -114.789
2.21532, -1, -9.20929, 7.46473, 21.6885, 13.1752, 87.6009, -115.035
2.22346, -1, -9.39058, 7.37191, 21.7251, 13.1774, 87.5037, -115.282
2.23237, -1, -9.57217, 7.27908, 21.7618, 13.1796, 87.4064, -115.528
2.23949, -1, -9.75411, 7.18626, 21.7984, 13.1818, 87.3094, -115.774
2.24766, -1, -9.9364, 7.09358, 21.8349, 13.1841, 87.2122, -116.02
2.25561, -1, -10.1189, 7.00085, 21.8715, 13.1863, 87.115, -116.266
2.26366, -1, -10.3015, 6.90807, 21.9081, 13.1886, 87.018, -116.512
2.27185, -1, -10.484, 6.81532, 21.9446, 13.1908, 86.9208, -116.757
2.28117, -1, -10.6663, 6.72263, 21.9812, 13.1931, 86.8237, -117.003
2.28788, -1, -10.8482, 6.63004, 22.0177, 13.1955, 86.7269, -117.248
2.29638, -1, -11.0296, 6.53743, 22.0541, 13.1979, 86.6299, -117.493
2.30386, -1, -11.1199, 6.44496, 22.0907, 13.2003, 86.5332, -117.738
2.31184, -1, -11.3, 6.39872, 22.109, 13.2015, 86.4367, -117.983
2.32028, -1, -11.5695, 6.26005, 22.1635, 13.2052, 86.3399, -118.228
2.32726, -1, -11.6592, 6.21384, 22.1817, 13.2064, 86.2916, -118.35
2.33634, -1, -11.9281, 6.07534, 22.2365, 13.2101, 86.1469, -118.717
2.34332, -1, -12.0178, 6.02918, 22.2547, 13.2113, 86.0985, -118.839
2.35127, -1, -12.1971, 5.93703, 22.2911, 13.2138, 86.0019, -119.083
2.3593, -1, -12.3768, 5.84504, 22.3276, 13.2163, 85.9057, -119.327
2.3686, -1, -12.647, 5.70702, 22.3818, 13.22, 85.7611, -119.694
2.37528, -1, -12.7372, 5.66104, 22.4, 13.2213, 85.7129, -119.815
2.38328, -1, -12.9181, 5.56916, 22.4364, 13.2238, 85.617, -120.059
2.39286, -1, -13.1897, 5.43119, 22.4907, 13.2273, 85.4729, -120.425
2.40332, -1, -13.3709, 5.33922, 22.5269, 13.2298, 85.377, -120.668
2.40883, -1, -13.5518, 5.2473, 22.5632, 13.2323, 85.2815, -120.912
2.41685, -1, -13.7323, 5.15543, 22.5993, 13.2348, 85.1856, -121.155
2.42565, -1, -13.9123, 5.06358, 22.6355, 13.2374, 85.0897, -121.398
2.43126, -1, -14.002, 5.01769, 22.6536, 13.2387, 85.042, -121.519
2.43934, -1, -14.1806, 4.926, 22.6898, 13.2413, 84.9464, -121.762
2.44964, -1, -14.359, 4.83433, 22.7258, 13.2438, 84.8508, -122.005
2.4553, -1, -14.537, 4.7427, 22.762, 13.2464, 84.7552, -122.247
2.46333, -1, -14.7147, 4.65109, 22.7982, 13.2489, 84.6596, -122.49
2.47126, -1, -14.8923, 4.55961, 22.8342, 13.2513, 84.5638, -122.732
2.47928, -1, -15.07, 4.46817, 22.8704, 13.2538, 84.4683, -122.974
2.48733, -1, -15.248, 4.3769, 22.9065, 13.2562, 84.3726, -123.216
2.49526, -1, -15.4263, 4.28559, 22.9425, 13.2585, 84.2769, -123.458
2.50326, -1, -15.6051, 4.19435, 22.9786, 13.2609, 84.1814, -123.7
2.51133, -1, -15.7843, 4.10313, 23.0146, 13.2631, 84.0858, -123.942
2.51932, -1, -15.9635, 4.01193, 23.0505, 13.2653, 83.9903, -124.183
2.52726, -1, -16.143, 3.92069, 23.0865, 13.2674, 83.8949, -124.425
2.53533, -1, -16.3228, 3.82948, 23.1225, 13.2695, 83.7994, -124.666
2.54328, -1, -16.5023, 3.73827, 23.1584, 13.2717, 83.704, -124.908
2.55126, -1, -16.6813, 3.64717, 23.1942, 13.2739, 83.6086, -125.149
2.55934, -1, -16.8598, 3.55609, 23.2301, 13.2762, 83.5133, -125.39
2.56729, -1, -17.0375, 3.46508, 23.2659, 13.2784, 83.418, -125.631
2.57526, -1, -17.2144, 3.37413, 23.3018, 13.2806, 83.3226, -125.871
2.58332, -1, -17.391, 3.28326, 23.3377, 13.2828, 83.2277, -126.112
2.59126, -1, -17.5673, 3.19241, 23.3735, 13.2848, 83.1325, -126.353
2.59928, -1, -17.7433, 3.10176, 23.4093, 13.287, 83.0376, -126.593
2.60733, -1, -17.9193, 3.01116, 23.4453, 13.2891, 82.9428, -126.833
2.61526, -1, -18.0955, 2.92071, 23.481, 13.2913, 82.848, -127.073
2.62326, -1, -18.2719, 2.83031, 23.5167, 13.2934, 82.7533, -127.313
2.63133, -1, -18.4488, 2.7399, 23.5526, 13.2955, 82.6589, -127.553
2.63931, -1, -18.6263, 2.64951, 23.5882, 13.2974, 82.564, -127.793
2.64734, -1, -18.804, 2.55922, 23.624, 13.2995, 82.4695, -128.032
2.65541, -1, -18.9819, 2.46883, 23.6598, 13.3015, 82.3751, -128.272
2.66336, -1, -19.1602, 2.37831, 23.6953, 13.3035, 82.2805, -128.511
2.67143, -1, -19.3384, 2.28795, 23.7309, 13.3055, 82.1862, -128.75
2.67938, -1, -19.5161, 2.1976, 23.7666, 13.3076, 82.0923, -128.989
2.68741, -1, -19.6932, 2.10717, 23.8021, 13.3098, 81.998, -129.228
2.69543, -1, -19.8698, 2.01689, 23.8375, 13.312, 81.9038, -129.467
2.70327, -1, -20.0457, 1.92664, 23.8731, 13.3141, 81.81, -129.706
2.71131, -1, -20.2208, 1.83646, 23.9086, 13.3163, 81.7158, -129.945
2.71972, -1, -20.3957, 1.74635, 23.944, 13.3185, 81.6218, -130.183
2.72734, -1, -20.5703, 1.65627, 23.9797, 13.3208, 81.528, -130.422
2.73544, -1, -20.7447, 1.56634, 24.0151, 13.3229, 81.4338, -130.66
2.74364, -1, -20.9194, 1.47645, 24.0505, 13.325, 81.34, -130.898
2.75153, -1, -21.0944, 1.3867, 24.086, 13.3273, 81.2464, -131.135
2.75963, -1, -21.2697, 1.29694, 24.1215, 13.3295, 81.1526, -131.373
2.76807, -1, -21.4453, 1.20728, 24.1568, 13.3316, 81.0587, -131.611
2.77641, -1, -21.6213, 1.11766, 24.1922, 13.3338, 80.965, -131.849
2.78458, -1, -21.7975, 1.02802, 24.2277, 13.336, 80.8712, -132.086
2.79188, -1, -21.9739, 0.938414, 24.263, 13.3381, 80.7774, -132.324
2.79986, -1, -22.1504, 0.848892, 24.2984, 13.3403, 80.6837, -132.561
2.80875, -1, -22.327, 0.759351, 24.3339, 13.3425, 80.59, -132.798
2.81611, -1, -22.4151, 0.714623, 24.3515, 13.3436, 80.5432, -133.035
2.82325, -1, -22.591, 0.625113, 24.3867, 13.3459, 80.4495, -133.154
2.83294, -1, -22.8538, 0.490962, 24.4396, 13.3495, 80.3092, -133.509
2.84042, -1, -23.0278, 0.401543, 24.4748, 13.3519, 80.2157, -133.746
2.84724, -1, -23.1147, 0.356854, 24.4923, 13.3532, 80.169, -133.864
2.85715, -1, -23.3747, 0.222885, 24.5451, 13.3568, 80.0288, -134.219
2.86326, -1, -23.4612, 0.178278, 24.5628, 13.3581, 79.982, -134.337
2.87124, -1, -23.6343, 0.0891321, 24.598, 13.3605, 79.8888, -134.573
2.88138, -1, -23.8944, -0.0444824, 24.6509, 13.3641, 79.7492, -134.927
2.88725, -1, -23.9811, -0.0889449, 24.6684, 13.3653, 79.7024, -135.045
2.89525, -1, -24.1548, -0.177874, 24.7035, 13.3678, 79.6092, -135.281
2.90553, -1, -24.4158, -0.311285, 24.7562, 13.3715, 79.4698, -135.635
2.91124, -1, -24.5029, -0.355705, 24.7738, 13.3727, 79.4232, -135.752
2.92083, -1, -24.765, -0.489037, 24.8263, 13.3763, 79.2836, -136.106
2.92959, -1, -24.94, -0.57792, 24.8614, 13.3787, 79.1908, -136.341
2.93526, -1, -25.0276, -0.622334, 24.879, 13.3799, 79.1442, -136.459
2.94476, -1, -25.2026, -0.711163, 24.9141, 13.3822, 79.0512, -136.694
2.95228, -1, -25.3771, -0.799909, 24.9491, 13.3845, 78.9584, -136.929
2.95934, -1, -25.5513, -0.888765, 24.9842, 13.3869, 78.8658, -137.164
2.96725, -1, -25.7249, -0.977467, 25.019, 13.3894, 78.7729, -137.399
2.97538, -1, -25.8978, -1.06614, 25.0539, 13.3918, 78.6803, -137.633
2.98324, -1, -26.0703, -1.15482, 25.089, 13.3943, 78.588, -137.868
2.9913, -1, -26.2423, -1.24341, 25.1239, 13.3967, 78.4953, -138.103
2.99925, -1, -26.414, -1.33191, 25.1587, 13.399, 78.4027, -138.337
3.00726, -1, -26.5858, -1.42034, 25.1936, 13.4012, 78.3106, -138.571
3.01532, -1, -26.7579, -1.50868, 25.2286, 13.4035, 78.2179, -138.806
3.0233, -1, -26.9302, -1.5969, 25.2635, 13.4058, 78.1255, -139.039
3.03127, -1, -27.1026, -1.68506, 25.2983, 13.408, 78.0335, -139.273
3.03931, -1, -27.2751, -1.77329, 25.3333, 13.4102, 77.9411, -139.507
3.04726, -1, -27.4479, -1.86138, 25.368, 13.4124, 77.8491, -139.741
3.05525, -1, -27.6211, -1.94949, 25.4027, 13.4145, 77.7571, -139.974
3.06331, -1, -27.7944, -2.03767, 25.4377, 13.4165, 77.6651, -140.208
3.07129, -1, -27.9677, -2.12566, 25.4724, 13.4186, 77.573, -140.441
3.07925, -1, -28.141, -2.2137, 25.5071, 13.4206, 77.4811, -140.674
3.08731, -1, -28.3142, -2.30174, 25.542, 13.4226, 77.3891, -140.908
3.09524, -1, -28.487, -2.38977, 25.5767, 13.4247, 77.297, -141.14
3.10329, -1, -28.6594, -2.4777, 25.6114, 13.4268, 77.2048, -141.373
3.11126, -1, -28.8312, -2.56565, 25.6461, 13.429, 77.1129, -141.606
3.11925, -1, -29.0022, -2.65359, 25.6808, 13.4311, 77.0208, -141.839
3.12748, -1, -29.1728, -2.74143, 25.7154, 13.4333, 76.9289, -142.072
3.13524, -1, -29.3433, -2.82922, 25.7501, 13.4354, 76.8372, -142.304
3.14328, -1, -29.514, -2.91692, 25.7848, 13.4374, 76.7453, -142.536
3.15215, -1, -29.6848, -3.0045, 25.8193, 13.4394, 76.6535, -142.769
3.15934, -1, -29.8559, -3.09208, 25.8538, 13.4414, 76.5619, -143.001
3.16736, -1, -30.0268, -3.17956, 25.8884, 13.4436, 76.4699, -143.233
3.17645, -1, -30.1977, -3.26706, 25.9229, 13.4456, 76.3783, -143.465
3.18334, -1, -30.3689, -3.35451, 25.9575, 13.4477, 76.2868, -143.697
3.19146, -1, -30.5404, -3.44195, 25.9921, 13.4498, 76.195, -143.929
3.19987, -1, -30.7122, -3.52946, 26.0265, 13.4517, 76.1036, -144.161
3.20742, -1, -30.8841, -3.61678, 26.061, 13.4538, 76.0123, -144.392
3.21529, -1, -31.056, -3.70415, 26.0956, 13.4557, 75.9209, -144.623
3.22408, -1, -31.2277, -3.79149, 26.13, 13.4578, 75.8296, -144.855
3.23225, -1, -31.3991, -3.87874, 26.1644, 13.4599, 75.7383, -145.086
3.23944, -1, -31.5699, -3.96603, 26.1989, 13.462, 75.6472, -145.317
3.24825, -1, -31.7404, -4.05328, 26.2333, 13.4642, 75.5558, -145.548
3.25559, -1, -31.9104, -4.14051, 26.2677, 13.4664, 75.4647, -145.779
3.26363, -1, -32.0799, -4.22772, 26.3021, 13.4685, 75.3737, -146.01
3.27248, -1, -32.2493, -4.31484, 26.3365, 13.4709, 75.2824, -146.241
3.27982, -1, -32.4187, -4.40189, 26.3707, 13.4729, 75.1913, -146.471
3.2884, -1, -32.5884, -4.4889, 26.4051, 13.4751, 75.1008, -146.702
3.29661, -1, -32.7581, -4.57581, 26.4396, 13.4773, 75.0096, -146.932
3.30388, -1, -32.9277, -4.66271, 26.4738, 13.4794, 74.9189, -147.163
3.31241, -1, -33.0974, -4.74966, 26.5079, 13.4816, 74.8285, -147.393
3.32062, -1, -33.1823, -4.79309, 26.5251, 13.4828, 74.7832, -147.623
3.32784, -1, -33.3522, -4.87987, 26.5594, 13.485, 74.6924, -147.853
3.33634, -1, -33.6077, -5.01027, 26.6107, 13.4883, 74.5565, -148.083
3.34324, -1, -33.6929, -5.05367, 26.6278, 13.4894, 74.5113, -148.198
3.35123, -1, -33.8631, -5.14037, 26.6621, 13.4915, 74.4205, -148.427
3.36038, -1, -34.1185, -5.27048, 26.7133, 13.4949, 74.2849, -148.772
3.36729, -1, -34.2036, -5.31387, 26.7304, 13.4961, 74.2397, -148.886
3.37523, -1, -34.3737, -5.40049, 26.7646, 13.4983, 74.149, -149.116
3.38459, -1, -34.6281, -5.53047, 26.8158, 13.5019, 74.0132, -149.46
3.39132, -1, -34.7127, -5.5738, 26.8328, 13.503, 73.9681, -149.574
3.39923, -1, -34.8813, -5.6604, 26.867, 13.5055, 73.8775, -149.803
3.40876, -1, -35.1339, -5.79022, 26.9181, 13.5092, 73.7418, -150.147
3.41753, -1, -35.3022, -5.87668, 26.9522, 13.5115, 73.6516, -150.376
3.42482, -1, -35.4706, -5.96294, 26.9864, 13.5139, 73.561, -150.605
3.4328, -1, -35.6392, -6.04914, 27.0204, 13.5163, 73.4706, -150.834
3.44161, -1, -35.7234, -6.13538, 27.0544, 13.5186, 73.3805, -151.062
3.44724, -1, -35.8919, -6.17845, 27.0714, 13.5199, 73.3353, -151.177
3.45623, -1, -36.0604, -6.26457, 27.1055, 13.5222, 73.2448, -151.405
3.46432, -1, -36.229, -6.35066, 27.1394, 13.5246, 73.1544, -151.634
3.47123, -1, -36.3977, -6.43686, 27.1733, 13.527, 73.0643, -151.862
3.4793, -1, -36.5665, -6.52307, 27.2073, 13.5294, 72.9738, -152.09
3.48724, -1, -36.7354, -6.60922, 27.2412, 13.5316, 72.8836, -152.318
3.49523, -1, -36.9044, -6.69539, 27.2751, 13.5339, 72.7935, -152.547
3.5033, -1, -37.0734, -6.78156, 27.3091, 13.5361, 72.7033, -152.775
3.51122, -1, -37.2421, -6.86767, 27.343, 13.5384, 72.6133, -153.003
3.51924, -1, -37.4107, -6.9537, 27.3768, 13.5407, 72.5235, -153.23
3.52735, -1, -37.5788, -7.03981, 27.4107, 13.5429, 72.4336, -153.458
3.53522, -1, -37.7465, -7.12583, 27.4447, 13.5451, 72.3438, -153.685
3.54322, -1, -37.9141, -7.21181, 27.4784, 13.5474, 72.254, -153.913
3.55131, -1, -38.0816, -7.29769, 27.5123, 13.5496, 72.1644, -154.14
3.55924, -1, -38.2491, -7.38357, 27.5463, 13.5517, 72.0745, -154.367
3.56724, -1, -38.4164, -7.46929, 27.5801, 13.5539, 71.9848, -154.595
3.57537, -1, -38.5836, -7.55499, 27.6139, 13.556, 71.8954, -154.822
3.58322, -1, -38.7509, -7.64069, 27.6479, 13.5581, 71.8056, -155.049
3.59123, -1, -38.9181, -7.72637, 27.6816, 13.5602, 71.7161, -155.276
3.59932, -1, -39.0854, -7.81196, 27.7153, 13.5622, 71.627, -155.503
3.60723, -1, -39.253, -7.89762, 27.7492, 13.5641, 71.5374, -155.73
3.61523, -1, -39.4205, -7.98333, 27.783, 13.5661, 71.4481, -155.957
3.6233, -1, -39.5881, -8.06887, 27.8166, 13.5681, 71.3588, -156.183
3.63122, -1, -39.7559, -8.15441, 27.8502, 13.57, 71.2695, -156.41
3.63924, -1, -39.9235, -8.23987, 27.884, 13.5719, 71.1802, -156.636
3.64749, -1, -40.0911, -8.3253, 27.9177, 13.5739, 71.0907, -156.862
3.65531, -1, -40.2586, -8.41065, 27.9513, 13.5758, 71.0015, -157.089
3.66331, -1, -40.4258, -8.49601, 27.9851, 13.5778, 70.9121, -157.315
3.67164, -1, -40.5929, -8.58136, 28.0187, 13.5798, 70.8228, -157.541
3.67934, -1, -40.7596, -8.66671, 28.0522, 13.5817, 70.7339, -157.767
3.68735, -1, -40.9261, -8.75205, 28.0859, 13.5838, 70.6446, -157.993
3.69588, -1, -41.0926, -8.83737, 28.1196, 13.5858, 70.5556, -158.218
3.7043, -1, -41.2589, -8.92261, 28.153, 13.5878, 70.4666, -158.444
3.71128, -1, -41.4251, -9.00777, 28.1866, 13.5899, 70.3774, -158.67
3.72009, -1, -41.5913, -9.0929, 28.2202, 13.5919, 70.2882, -158.895
3.72829, -1, -41.7575, -9.17798, 28.2537, 13.5938, 70.1991, -159.121
3.73552, -1, -41.9239, -9.26304, 28.2873, 13.5958, 70.1099, -159.346
3.74442, -1, -42.0903, -9.34807, 28.321, 13.5979, 70.0209, -159.572
3.75147, -1, -42.2566, -9.43313, 28.3545, 13.5999, 69.9318, -159.797
3.75969, -1, -42.4229, -9.51813, 28.388, 13.6019, 69.8431, -160.023
3.76843, -1, -42.5893, -9.60306, 28.4215, 13.6039, 69.754, -160.248
3.77569, -1, -42.7557, -9.68799, 28.455, 13.6059, 69.6652, -160.473
3.78415, -1, -42.9221, -9.77295, 28.4884, 13.608, 69.5767, -160.698
3.79173, -1, -43.0885, -9.85783, 28.5219, 13.61, 69.4877, -160.923
3.80065, -1, -43.2547, -9.94275, 28.5554, 13.6121, 69.3992, -161.148
3.80793, -1, -43.4207, -10.0276, 28.5889, 13.6142, 69.3105, -161.372
3.81639, -1, -43.5868, -10.1126, 28.6224, 13.6163, 69.2218, -161.597
3.82462, -1, -43.6698, -10.155, 28.6392, 13.6173, 69.1774, -161.822
3.83199, -1, -43.8356, -10.2399, 28.6726, 13.6194, 69.0889, -161.934
3.83922, -1, -44.0014, -10.3247, 28.706, 13.6216, 69.0006, -162.158
3.84883, -1, -44.2494, -10.4517, 28.7563, 13.6248, 68.8676, -162.495
3.85634, -1, -44.4146, -10.5363, 28.7897, 13.627, 68.779, -162.719
3.86326, -1, -44.4972, -10.5785, 28.8063, 13.6281, 68.7348, -162.832
3.87309, -1, -44.745, -10.7053, 28.8564, 13.6314, 68.6019, -163.168
3.87928, -1, -44.8277, -10.7475, 28.8732, 13.6325, 68.5577, -163.28
3.88725, -1, -44.993, -10.8319, 28.9066, 13.6347, 68.4692, -163.504
3.89522, -1, -45.1584, -10.9165, 28.94, 13.6368, 68.3807, -163.728
3.90474, -1, -45.4063, -11.0432, 28.9902, 13.6402, 68.2479, -164.064
3.91287, -1, -45.5716, -11.1276, 29.0234, 13.6425, 68.1598, -164.288
3.92078, -1, -45.7369, -11.212, 29.0566, 13.6447, 68.0715, -164.511
3.92943, -1, -45.9019, -11.2963, 29.09, 13.647, 67.9831, -164.735
3.93522, -1, -45.9838, -11.3381, 29.1067, 13.6482, 67.939, -164.847
3.94487, -1, -46.2244, -11.4607, 29.1569, 13.6516, 67.8072, -165.181
3.9531, -1, -46.3785, -11.5381, 29.1905, 13.654, 67.7204, -165.4
3.95921, -1, -46.4527, -11.5751, 29.2072, 13.6552, 67.6782, -165.507
3.96828, -1, -46.5942, -11.6451, 29.2395, 13.6575, 67.5966, -165.713
3.97532, -1, -46.7241, -11.7087, 29.2695, 13.6597, 67.5217, -165.903
3.98321, -1, -46.8396, -11.765, 29.296, 13.6616, 67.4544, -166.072
3.99121, -1, -46.9387, -11.8144, 29.3182, 13.6633, 67.3983, -166.215
3.99929, -1, -47.0217, -11.8575, 29.3349, 13.6646, 67.3532, -166.329
4.00721, -1, -47.0892, -11.8944, 29.3463, 13.6654, 67.3193, -166.414
4.01521, -1, -47.142, -11.9241, 29.3537, 13.6658, 67.2957, -166.474
4.02328, -1, -47.1813, -11.9464, 29.3577, 13.666, 67.2805, -166.512
4.03122, -1, -47.2092, -11.962, 29.3595, 13.6661, 67.2715, -166.534
4.03921, -1, -47.2277, -11.9721, 29.3604, 13.6662, 67.2668, -166.547
4.04727, -1, -47.2388, -11.978, 29.3608, 13.6663, 67.2644, -166.553
4.0552, 2, -47.2446, -11.981, 29.361, 13.6664, 67.2632, -166.555
4.0632, 2, -47.2468, -11.9823, 29.3611, 13.6664, 67.2627, -166.557
4.07127, 2, -47.2467, -11.9829, 29.3613, 13.6664, 67.2625, -166.557
4.07921, 2, -47.2465, -11.983, 29.3613, 13.6665, 67.2623, -166.557
4.08726, 2, -47.2464, -11.9831, 29.3614, 13.6665, 67.2623, -166.558
4.09529, 2, -47.2468, -11.9832, 29.3614, 13.6665, 67.2622, -166.558
4.10321, 2, -47.2477, -11.9835, 29.3615, 13.6665, 67.2622, -166.558
4.1112, 2, -47.249, -11.9839, 29.3615, 13.6665, 67.2622, -166.558
4.11929, 2, -47.2509, -11.9846, 29.3615, 13.6665, 67.2622, -166.558
4.12721, 2, -47.2526, -11.9855, 29.3615, 13.6665, 67.2623, -166.558
4.13522, 2, -47.2541, -11.9863, 29.3615, 13.6665, 67.2623, -166.558
4.14331, 2, -47.2551, -11.987, 29.3615, 13.6665, 67.2622, -166.558
4.15124, 2, -47.2556, -11.9874, 29.3615, 13.6665, 67.2622, -166.558
4.1593, 2, -47.2559, -11.9876, 29.3615, 13.6665, 67.2622, -166.558
4.16736, 2, -47.256, -11.9877, 29.3615, 13.6665, 67.2622, -166.558
4.17531, 2, -47.2557, -11.9877, 29.3615, 13.6665, 67.2622, -166.558
4.18331, 2, -47.2551, -11.9877, 29.3615, 13.6665, 67.2623, -166.558
4.19138, 2, -47.2545, -11.9877, 29.3615, 13.6665, 67.2622, -166.558
4.19937, 2, -47.2541, -11.9876, 29.3615, 13.6666, 67.2622, -166.558
4.20721, 2, -47.2538, -11.9876, 29.3615, 13.6666, 67.2622, -166.558
4.21531, 2, -47.2538, -11.9877, 29.3615, 13.6666, 67.2622, -166.558
4.22326, 2, -47.2539, -11.9878, 29.3615, 13.6665, 67.2622, -166.558
4.23129, 2, -47.2541, -11.9881, 29.3615, 13.6665, 67.2622, -166.558
4.23948, 2, -47.2547, -11.9885, 29.3616, 13.6665, 67.2622, -166.558
4.24741, 2, -47.2553, -11.9888, 29.3616, 13.6664, 67.2622, -166.558
4.25549, 2, -47.2558, -11.989, 29.3615, 13.6665, 67.2623, -166.558
4.26367, 2, -47.256, -11.9891, 29.3615, 13.6665, 67.2623, -166.558
4.27161, 2, -47.256, -11.9891, 29.3615, 13.6665, 67.2623, -166.558
4.27966, 2, -47.2559, -11.9891, 29.3615, 13.6665, 67.2623, -166.558
4.28786, 2, -47.2558, -11.989, 29.3615, 13.6665, 67.2623, -166.558
4.29635, 2, -47.2554, -11.989, 29.3615, 13.6664, 67.2623, -166.558
4.30374, 2, -47.2549, -11.989, 29.3615, 13.6665, 67.2623, -166.558
4.3123, 2, -47.2546, -11.989, 29.3615, 13.6665, 67.2623, -166.558
4.31978, 2, -47.2544, -11.989, 29.3615, 13.6665, 67.2623, -166.557
4.32822, 2, -47.2542, -11.989, 29.3615, 13.6665, 67.2623, -166.557
4.33583, 2, -47.2541, -11.989, 29.3615, 13.6664, 67.2623, -166.557
4.34429, 2, -47.254, -11.9891, 29.3615, 13.6664, 67.2624, -166.558
4.35119, 2, -47.254, -11.9891, 29.3615, 13.6665, 67.2623, -166.558
4.36036, 2, -47.254, -11.9892, 29.3615, 13.6664, 67.2624, -166.558
4.36723, 2, -47.254, -11.9892, 29.3615, 13.6664, 67.2624, -166.558
4.37646, 2, -47.2541, -11.9892, 29.3615, 13.6664, 67.2624, -166.557
4.38325, 2, -47.2541, -11.9892, 29.3615, 13.6664, 67.2624, -166.557
4.39265, 2, -47.2541, -11.9891, 29.3615, 13.6664, 67.2624, -166.557
4.3992, 2, -47.254, -11.9891, 29.3615, 13.6664, 67.2623, -166.557
4.40876, 2, -47.2538, -11.989, 29.3616, 13.6664, 67.2623, -166.557
4.41681, 2, -47.2537, -11.989, 29.3616, 13.6664, 67.2623, -166.557
4.42472, 2, -47.2536, -11.989, 29.3616, 13.6665, 67.2623, -166.557
4.43285, 2, -47.2534, -11.989, 29.3616, 13.6664, 67.2623, -166.557
4.44085, 2, -47.2533, -11.989, 29.3616, 13.6664, 67.2623, -166.557
4.44873, 2, -47.2533, -11.989, 29.3616, 13.6664, 67.2623, -166.557
4.45619, 2, -47.2533, -11.989, 29.3615, 13.6664, 67.2624, -166.557
4.46424, 2, -47.2532, -11.989, 29.3615, 13.6664, 67.2624, -166.557
4.47224, 2, -47.2532, -11.989, 29.3615, 13.6664, 67.2624, -166.557
4.4802, 2, -47.2531, -11.989, 29.3615, 13.6664, 67.2624, -166.557
4.48824, 2, -47.253, -11.989, 29.3615, 13.6664, 67.2624, -166.557
4.49624, 2, -47.2529, -11.989, 29.3615, 13.6664, 67.2624, -166.557
4.5042, 2, -47.2529, -11.989, 29.3616, 13.6663, 67.2624, -166.557
4.51224, 2, -47.2528, -11.9889, 29.3615, 13.6664, 67.2624, -166.557
4.52018, 2, -47.2527, -11.9889, 29.3616, 13.6664, 67.2624, -166.557
4.52819, 2, -47.2526, -11.9888, 29.3616, 13.6664, 67.2624, -166.557
4.53624, 2, -47.2525, -11.9888, 29.3615, 13.6664, 67.2624, -166.557
4.54419, 2, -47.2523, -11.9888, 29.3616, 13.6664, 67.2625, -166.557
4.55219, 2, -47.2523, -11.9888, 29.3616, 13.6664, 67.2625, -166.557
4.56027, 2, -47.2522, -11.9888, 29.3615, 13.6664, 67.2624, -166.557
4.56818, 2, -47.2522, -11.9888, 29.3615, 13.6663, 67.2624, -166.557
4.57619, 2, -47.2521, -11.9888, 29.3615, 13.6664, 67.2624, -166.557
4.58429, 2, -47.252, -11.9888, 29.3615, 13.6664, 67.2625, -166.557
4.59224, 2, -47.2519, -11.9888, 29.3616, 13.6663, 67.2625, -166.557
4.6002, 2, -47.2517, -11.9888, 29.3616, 13.6663, 67.2625, -166.557
4.60719, 2, -47.2517, -11.9887, 29.3615, 13.6663, 67.2625, -166.557
4.6152, 2, -47.2515, -11.9887, 29.3615, 13.6663, 67.2625, -166.557
4.62327, 2, -47.2514, -11.9886, 29.3615, 13.6663, 67.2625, -166.557
4.63119, 2, -47.2512, -11.9886, 29.3615, 13.6663, 67.2625, -166.557
4.63919, 2, -47.2511, -11.9886, 29.3615, 13.6663, 67.2625, -166.557
4.6473, 2, -47.251, -11.9886, 29.3615, 13.6663, 67.2625, -166.557
4.65524, 2, -47.2509, -11.9886, 29.3615, 13.6663, 67.2625, -166.557
4.66327, 2, -47.2508, -11.9886, 29.3615, 13.6663, 67.2626, -166.557
4.67135, 2, -47.2507, -11.9886, 29.3615, 13.6663, 67.2626, -166.557
4.67929, 2, -47.2506, -11.9886, 29.3615, 13.6663, 67.2626, -166.557
4.68729, 2, -47.2505, -11.9886, 29.3615, 13.6663, 67.2626, -166.557
4.69536, 2, -47.2504, -11.9886, 29.3615, 13.6663, 67.2626, -166.557
4.70334, 2, -47.2504, -11.9885, 29.3615, 13.6662, 67.2626, -166.557
4.71119, 2, -47.2503, -11.9884, 29.3615, 13.6662, 67.2626, -166.557
4.7193, 2, -47.2502, -11.9884, 29.3615, 13.6662, 67.2626, -166.557
4.72727, 2, -47.2501, -11.9884, 29.3615, 13.6662, 67.2626, -166.557
4.7353, 2, -47.2501, -11.9883, 29.3615, 13.6662, 67.2627, -166.557
4.7438, 2, -47.25, -11.9883, 29.3615, 13.6662, 67.2626, -166.557
4.75228, 2, -47.2499, -11.9883, 29.3615, 13.6662, 67.2627, -166.557
4.75945, 2, -47.2498, -11.9883, 29.3615, 13.6662, 67.2627, -166.557
4.7679, 2, -47.2498, -11.9883, 29.3615, 13.6662, 67.2627, -166.556
4.77628, 2, -47.2498, -11.9883, 29.3615, 13.6661, 67.2627, -166.556
4.78363, 2, -47.2497, -11.9883, 29.3615, 13.6661, 67.2627, -166.556
4.7921, 2, -47.2497, -11.9883, 29.3615, 13.6661, 67.2627, -166.556
4.80035, 2, -47.2497, -11.9882, 29.3615, 13.6661, 67.2627, -166.556
4.80775, 2, -47.2496, -11.9882, 29.3615, 13.6661, 67.2628, -166.556
4.81629, 2, -47.2496, -11.9882, 29.3615, 13.6661, 67.2628, -166.556
4.82377, 2, -47.2496, -11.9881, 29.3615, 13.6661, 67.2628, -166.556
4.8322, 2, -47.2495, -11.988, 29.3615, 13.666, 67.2629, -166.556
4.84006, 2, -47.2494, -11.988, 29.3615, 13.6661, 67.2629, -166.556
4.84718, 2, -47.2494, -11.988, 29.3615, 13.666, 67.2629, -166.556
4.85519, 2, -47.2493, -11.988, 29.3615, 13.666, 67.2628, -166.556
4.86456, 2, -47.2492, -11.988, 29.3615, 13.666, 67.2629, -166.556
4.87122, 2, -47.2491, -11.988, 29.3615, 13.666, 67.2629, -166.556
4.88044, 2, -47.2491, -11.988, 29.3615, 13.666, 67.2629, -166.556
4.88722, 2, -47.2491, -11.988, 29.3615, 13.666, 67.2629, -166.556
4.89525, 2, -47.2491, -11.988, 29.3615, 13.666, 67.2629, -166.556
4.90317, 2, -47.249, -11.9879, 29.3615, 13.666, 67.2629, -166.556
4.91305, 2, -47.249, -11.9879, 29.3615, 13.666, 67.2629, -166.556
4.91918, 2, -47.249, -11.9879, 29.3615, 13.666, 67.2629, -166.556
4.92874, 2, -47.2489, -11.9878, 29.3615, 13.6659, 67.2629, -166.556
4.93701, 2, -47.2489, -11.9877, 29.3615, 13.6659, 67.263, -166.556
4.94317, 2, -47.2488, -11.9877, 29.3615, 13.6659, 67.263, -166.556
4.95268, 2, -47.2488, -11.9877, 29.3615, 13.6659, 67.263, -166.556
4.961, 2, -47.2486, -11.9877, 29.3615, 13.6659, 67.263, -166.556
4.96717, 2, -47.2486, -11.9876, 29.3615, 13.6659, 67.263, -166.556
4.97518, 2, -47.2485, -11.9876, 29.3615, 13.6658, 67.263, -166.556
4.98327, 2, -47.2485, -11.9876, 29.3615, 13.6658, 67.263, -166.556
4.99118, 2, -47.2485, -11.9876, 29.3615, 13.6658, 67.263, -166.556
4.99918, 2, -47.2484, -11.9876, 29.3615, 13.6658, 67.263, -166.556
5.00724, 2, -47.2484, -11.9876, 29.3615, 13.6658, 67.263, -166.556
5.01518, 2, -47.2483, -11.9876, 29.3615, 13.6658, 67.263, -166.556
5.02316, 2, -47.2483, -11.9875, 29.3615, 13.6657, 67.263, -166.556
5.03123, 2, -47.2483, -11.9874, 29.3615, 13.6657, 67.263, -166.556
5.03922, 2, -47.2482, -11.9874, 29.3615, 13.6657, 67.263, -166.556
5.04717, 2, -47.2482, -11.9874, 29.3615, 13.6657, 67.2631, -166.556
5.0554, 2, -47.2481, -11.9873, 29.3615, 13.6657, 67.2631, -166.556
5.06318, 2, -47.248, -11.9873, 29.3615, 13.6657, 67.2631, -166.556
5.07123, 2, -47.2479, -11.9873, 29.3615, 13.6657, 67.2631, -166.556
5.07919, 2, -47.2478, -11.9873, 29.3615, 13.6656, 67.2631, -166.556
5.08718, 2, -47.2478, -11.9873, 29.3615, 13.6656, 67.2631, -166.556
5.09523, 2, -47.2478, -11.9873, 29.3615, 13.6656, 67.2631, -166.556
5.10318, 2, -47.2478, -11.9873, 29.3615, 13.6656, 67.2631, -166.556
5.11118, 2, -47.2478, -11.9872, 29.3615, 13.6655, 67.2631, -166.556
5.11923, 2, -47.2477, -11.9872, 29.3615, 13.6655, 67.2631, -166.556
5.12718, 2, -47.2477, -11.9872, 29.3615, 13.6655, 67.263, -166.556
5.1354, 2, -47.2477, -11.9871, 29.3615, 13.6655, 67.2631, -166.556
5.14323, 4, -47.2476, -11.9871, 29.3615, 13.6655, 67.2631, -166.556
5.15125, 4, -47.2475, -11.987, 29.3615, 13.6655, 67.263, -166.556
5.15924, 4, -47.2475, -11.987, 29.3615, 13.6655, 67.2631, -166.556
5.16738, 4, -47.2474, -11.987, 29.3615, 13.6655, 67.263, -166.556
5.17528, 4, -47.2473, -11.987, 29.3615, 13.6655, 67.2631, -166.556
5.18327, 4, -47.2473, -11.987, 29.3615, 13.6654, 67.2631, -166.556
5.19133, 4, -47.2473, -11.987, 29.3615, 13.6654, 67.2631, -166.556
5.19929, 4, -47.2472, -11.987, 29.3615, 13.6654, 67.2631, -166.556
5.20733, 4, -47.2472, -11.987, 29.3615, 13.6654, 67.2631, -166.556
5.21524, 4, -47.2471, -11.9869, 29.3615, 13.6654, 67.2631, -166.556
5.2232, 4, -47.2471, -11.9869, 29.3615, 13.6655, 67.2631, -166.556
5.23128, 4, -47.2471, -11.9868, 29.3615, 13.6654, 67.2631, -166.556
5.23972, 4, -47.2471, -11.9868, 29.3615, 13.6654, 67.2631, -166.556
5.2613, 4, -47.2469, -11.9867, 29.3615, 13.6654, 67.2631, -166.556
5.26394, 4, -47.2469, -11.9867, 29.3615, 13.6654, 67.2631, -166.556
5.2657, 4, -47.2469, -11.9867, 29.3615, 13.6654, 67.2631, -166.556
5.27239, 4, -47.2468, -11.9867, 29.3615, 13.6654, 67.2631, -166.556
5.2813, 4, -47.2468, -11.9867, 29.3615, 13.6653, 67.2631, -166.555
5.28801, 4, -47.2467, -11.9867, 29.3615, 13.6653, 67.2631, -166.555
5.29592, 4, -47.2472, -11.9869, 29.3617, 13.6653, 67.2632, -166.555
5.30476, 4, -47.2487, -11.9878, 29.3626, 13.6658, 67.2634, -166.555
5.31304, 4, -47.2519, -11.9906, 29.366, 13.6707, 67.2647, -166.555
5.31996, 4, -47.257, -11.9963, 29.3742, 13.687, 67.2686, -166.552
5.33023, 4, -47.2645, -12.0056, 29.3901, 13.7202, 67.2773, -166.545
5.33605, 4, -47.2754, -12.0191, 29.4168, 13.7776, 67.293, -166.533
5.34639, 5, -47.2905, -12.038, 29.4568, 13.8661, 67.3175, -166.512
5.35128, 5, -47.2997, -12.0497, 29.4822, 13.9226, 67.3335, -166.499
5.35921, 5, -47.3216, -12.0769, 29.5442, 14.0621, 67.3724, -166.466
5.36828, 5, -47.3626, -12.1276, 29.6634, 14.3316, 67.4464, -166.402
5.37674, 5, -47.3949, -12.1677, 29.7576, 14.5437, 67.5053, -166.352
5.38316, 5, -47.4123, -12.1895, 29.8081, 14.657, 67.536, -166.325
5.39249, 5, -47.4681, -12.2604, 29.9701, 15.0166, 67.6343, -166.24
5.39933, 5, -47.4877, -12.2854, 30.0269, 15.141, 67.668, -166.211
5.40717, 5, -47.5285, -12.3371, 30.143, 15.3933, 67.7359, -166.152
5.41666, 5, -47.5926, -12.4174, 30.3213, 15.7769, 67.8388, -166.062
5.43045, 5, -47.6586, -12.4994, 30.5024, 16.1625, 67.9414, -165.973
5.4319, 5, -47.6586, -12.4994, 30.5024, 16.1625, 67.9414, -165.973
5.43915, 5, -47.7033, -12.5545, 30.6243, 16.4201, 68.0087, -165.914
5.44903, 5, -47.7704, -12.6376, 30.8095, 16.8067, 68.1096, -165.826
5.45522, 5, -47.7928, -12.6652, 30.8719, 16.9357, 68.1424, -165.797
5.46472, 5, -47.8376, -12.7209, 30.9973, 17.1941, 68.2088, -165.739
5.47304, 5, -47.882, -12.7767, 31.1235, 17.4523, 68.3066, -165.652
5.48004, 5, -47.9264, -12.8326, 31.2505, 17.7107, 68.3392, -165.624
5.48821, 5, -47.9708, -12.8888, 31.3783, 17.9691, 68.4037, -165.567
5.49626, 5, -48.0157, -12.9452, 31.5071, 18.2275, 68.4672, -165.51
5.50417, 5, -48.0612, -13.0022, 31.637, 18.486, 68.531, -165.454
5.51218, 5, -48.1071, -13.0595, 31.7678, 18.7446, 68.5934, -165.399
5.52018, 5, -48.1533, -13.1173, 31.8993, 19.0034, 68.6563, -165.343
5.52815, 5, -48.1997, -13.1754, 32.0315, 19.262, 68.7177, -165.288
5.53615, 5, -48.2462, -13.2338, 32.1647, 19.5206, 68.7792, -165.234
5.54436, 5, -48.2927, -13.2925, 32.299, 19.7795, 68.8401, -165.18
5.55129, 5, -48.3396, -13.3514, 32.434, 20.0383, 68.9004, -165.125
5.55923, 5, -48.3866, -13.4104, 32.57, 20.297, 68.9608, -165.072
5.57059, 5, -48.4571, -13.4991, 32.7759, 20.6854, 69.0491, -164.993
5.57636, 5, -48.4806, -13.5287, 32.8449, 20.8149, 69.0788, -164.967
5.58315, 5, -48.5276, -13.588, 32.9835, 21.0739, 69.137, -164.914
5.59122, 5, -48.5737, -13.6473, 33.1229, 21.3329, 69.1949, -164.862
5.59922, 5, -48.6182, -13.7063, 33.2629, 21.5912, 69.2531, -164.809
5.60716, 5, -48.6609, -13.7648, 33.4031, 21.848, 69.3103, -164.753
5.61515, 5, -48.7015, -13.8224, 33.5426, 22.1016, 69.3691, -164.693
5.62341, 6, -48.7394, -13.8789, 33.6804, 22.3499, 69.4285, -164.624
5.63222, 6, -48.7737, -13.9338, 33.8152, 22.59, 69.4898, -164.542
5.63915, 6, -48.8038, -13.9867, 33.9464, 22.8201, 69.554, -164.446
5.64717, 6, -48.8291, -14.0373, 34.0731, 23.0384, 69.6201, -164.332
5.65545, 6, -48.8489, -14.0855, 34.1946, 23.2443, 69.6903, -164.199
5.66323, 6, -48.8627, -14.1309, 34.3111, 23.4379, 69.7626, -164.048
5.67141, 7, -48.8706, -14.1734, 34.4226, 23.6202, 69.8384, -163.879
5.68039, 7, -48.8734, -14.2134, 34.5295, 23.7921, 69.9158, -163.695
5.68726, 7, -48.8716, -14.2507, 34.6323, 23.9556, 69.9961, -163.497
5.69577, 7, -48.8655, -14.2857, 34.7315, 24.1121, 70.0781, -163.288
5.70422, 7, -48.8556, -14.3187, 34.8278, 24.2625, 70.1619, -163.07
5.71117, 8, -48.8426, -14.3502, 34.9215, 24.4081, 70.247, -162.843
5.72035, 8, -48.827, -14.3801, 35.0127, 24.5498, 70.3336, -162.61
5.72748, 8, -48.8092, -14.4088, 35.1018, 24.6884, 70.4216, -162.371
5.7372, 8, -48.7895, -14.4364, 35.1889, 24.8247, 70.5106, -162.127
5.74741, 8, -48.7576, -14.4764, 35.3168, 25.0265, 70.6458, -161.756
5.75239, 8, -48.7465, -14.4893, 35.3589, 25.0933, 70.6912, -161.631
5.76019, 9, -48.7238, -14.5147, 35.4425, 25.2262, 70.7822, -161.38
5.76845, 9, -48.7004, -14.5395, 35.5254, 25.3589, 70.8739, -161.128
5.77566, 9, -48.6761, -14.5638, 35.6075, 25.4918, 70.9661, -160.875
5.78426, 9, -48.6512, -14.5878, 35.6887, 25.625, 71.058, -160.621
5.79175, 9, -48.6254, -14.6111, 35.7693, 25.7588, 71.1505, -160.368
5.80048, 10, -48.5991, -14.634, 35.8495, 25.8934, 71.2432, -160.115
5.80826, 10, -48.5725, -14.6568, 35.9296, 26.0288, 71.336, -159.862
5.81616, 10, -48.5457, -14.6792, 36.0096, 26.165, 71.429, -159.61
5.8238, 10, -48.5187, -14.7017, 36.0893, 26.302, 71.522, -159.359
5.83274, 10, -48.4916, -14.7241, 36.1687, 26.4402, 71.6148, -159.109
5.84018, 10, -48.4643, -14.7463, 36.2479, 26.5791, 71.7072, -158.86
5.848, 11, -48.4507, -14.7575, 36.2874, 26.649, 71.7535, -158.612
5.85517, 11, -48.4237, -14.7799, 36.3664, 26.7896, 71.8462, -158.488
5.86321, 11, -48.3965, -14.8021, 36.4451, 26.9308, 71.9384, -158.241
5.87115, 11, -48.3692, -14.8246, 36.5236, 27.0729, 72.0306, -157.996
5.88042, 11, -48.3278, -14.858, 36.6411, 27.2874, 72.1687, -157.629
5.88714, 12, -48.3137, -14.8691, 36.6801, 27.3592, 72.2145, -157.507
5.89675, 12, -48.2712, -14.9025, 36.7972, 27.5759, 72.352, -157.142
5.90463, 12, -48.2569, -14.9134, 36.875, 27.7209, 72.4436, -156.9
5.91279, 12, -48.2133, -14.9465, 36.9525, 27.8663, 72.5345, -156.658
5.92146, 12, -48.1837, -14.9686, 37.0297, 28.0123, 72.6255, -156.418
5.92714, 12, -48.1687, -14.9795, 37.0681, 28.0852, 72.6709, -156.298
5.93673, 13, -48.1232, -15.0123, 37.1828, 28.3046, 72.8067, -155.938
5.94572, 13, -48.0924, -15.0342, 37.259, 28.4513, 72.897, -155.699
5.95126, 13, -48.0768, -15.0451, 37.2969, 28.5246, 72.9419, -155.58
5.96012, 13, -48.0454, -15.067, 37.3725, 28.6711, 73.0318, -155.342
5.97057, 13, -47.9973, -15.0999, 37.4854, 28.8914, 73.1662, -154.985
5.97696, 14, -47.981, -15.1107, 37.5228, 28.9647, 73.2555, -154.747
5.98418, 14, -47.948, -15.1326, 37.5973, 29.1113, 73.3003, -154.629
5.99121, 14, -47.9144, -15.1544, 37.6714, 29.258, 73.389, -154.392
5.99914, 14, -47.8801, -15.176, 37.7449, 29.4044, 73.4776, -154.156
6.0072, 14, -47.8449, -15.1977, 37.8181, 29.5507, 73.5661, -153.92
6.01518, 14, -47.809, -15.2192, 37.8908, 29.6967, 73.6543, -153.684
6.02331, 15, -47.7725, -15.2405, 37.9631, 29.8425, 73.7422, -153.448
6.03212, 15, -47.7355, -15.262, 38.035, 29.9883, 73.8299, -153.213
6.04019, 15, -47.6977, -15.2834, 38.1066, 30.1336, 73.9174, -152.978
6.04817, 15, -47.6593, -15.3048, 38.1777, 30.2786, 74.0044, -152.744
6.05521, 15, -47.6203, -15.3265, 38.2484, 30.4235, 74.0913, -152.51
6.06311, 16, -47.5808, -15.348, 38.3187, 30.568, 74.1778, -152.277
6.07231, 16, -47.5406, -15.3695, 38.3884, 30.7121, 74.2636, -152.044
6.07911, 16, -47.4996, -15.3913, 38.4577, 30.8561, 74.3494, -151.812
6.08713, 16, -47.458, -15.4129, 38.5267, 30.9999, 74.4346, -151.58
6.09647, 16, -47.4158, -15.4348, 38.5953, 31.1433, 74.5193, -151.349
6.10651, 16, -47.3726, -15.4678, 38.6977, 31.3581, 74.6454, -151.004
6.11214, 17, -47.3288, -15.4788, 38.7317, 31.4295, 74.6871, -150.89
6.11914, 17, -47.2845, -15.501, 38.7994, 31.5721, 74.7706, -150.661
6.12821, 17, -47.2395, -15.5234, 38.8668, 31.7147, 74.8531, -150.433
6.13518, 17, -47.1937, -15.5459, 38.9341, 31.857, 74.9356, -150.206
6.14321, 17, -47.1473, -15.5688, 39.0009, 31.999, 75.0172, -149.98
6.15127, 18, -47.1004, -15.5917, 39.0674, 32.1408, 75.0985, -149.754
6.15924, 18, -47.0528, -15.6148, 39.1336, 32.2823, 75.1785, -149.53
6.16722, 18, -47.0047, -15.6384, 39.1995, 32.4237, 75.2582, -149.307
6.17527, 18, -46.956, -15.6621, 39.2654, 32.5649, 75.3374, -149.084
6.18355, 18, -46.9067, -15.6862, 39.3309, 32.7059, 75.4155, -148.863
6.19129, 18, -46.8566, -15.7108, 39.3963, 32.8468, 75.493, -148.642
6.19943, 19, -46.806, -15.7354, 39.4615, 32.9872, 75.5697, -148.423
6.20862, 19, -46.7547, -15.7605, 39.5265, 33.1275, 75.646, -148.204
6.21538, 19, -46.7025, -15.7858, 39.5912, 33.2676, 75.7211, -147.987
6.22367, 19, -46.6497, -15.8115, 39.6557, 33.4073, 75.7958, -147.771
6.23116, 19, -46.5962, -15.8376, 39.7198, 33.5469, 75.8694, -147.556
6.23924, 20, -46.5421, -15.8639, 39.7839, 33.6862, 75.9429, -147.342
6.24837, 20, -46.4874, -15.8907, 39.8476, 33.8251, 76.0146, -147.129
6.25949, 20, -46.432, -15.9317, 39.9429, 34.0328, 76.1216, -146.812
6.2634, 20, -46.3759, -15.9456, 39.9746, 34.1018, 76.1565, -146.707
6.27562, 20, -46.2909, -15.9877, 40.0692, 34.3086, 76.2613, -146.393
6.27994, 20, -46.2621, -16.0019, 40.1007, 34.3773, 76.2954, -146.289
6.28761, 21, -46.2042, -16.0306, 40.1634, 34.5146, 76.3638, -146.081
6.29656, 21, -46.1455, -16.0598, 40.2259, 34.6513, 76.4309, -145.875
6.30373, 21, -46.0859, -16.0893, 40.2881, 34.7877, 76.4976, -145.669
6.3123, 21, -46.0256, -16.1192, 40.3499, 34.9236, 76.5633, -145.465
6.31972, 21, -45.9645, -16.1493, 40.4114, 35.0589, 76.6281, -145.262
6.32845, 22, -45.9025, -16.1798, 40.4725, 35.1939, 76.6927, -145.059
6.33634, 22, -45.8399, -16.2107, 40.5333, 35.3284, 76.7558, -144.857
6.34312, 22, -45.8083, -16.2262, 40.5636, 35.3954, 76.7876, -144.757
6.35217, 22, -45.7125, -16.2733, 40.654, 35.5955, 76.8805, -144.456
6.3592, 22, -45.6801, -16.2891, 40.6839, 35.6618, 76.9111, -144.356
6.36832, 22, -45.5819, -16.3372, 40.7731, 35.8601, 77.0022, -144.058
6.37525, 23, -45.5488, -16.3534, 40.8026, 35.9259, 77.0318, -143.959
6.38519, 23, -45.4479, -16.4021, 40.8905, 36.1222, 77.1212, -143.662
6.39118, 23, -45.4139, -16.4185, 40.9195, 36.1873, 77.1501, -143.564
6.40136, 23, -45.3104, -16.468, 41.0059, 36.3815, 77.2367, -143.27
6.40719, 23, -45.2756, -16.4846, 41.0344, 36.4457, 77.2653, -143.172
6.41694, 24, -45.1695, -16.5346, 41.1191, 36.6374, 77.3494, -142.88
6.42574, 24, -45.0977, -16.5682, 41.1748, 36.7642, 77.4057, -142.685
6.43132, 24, -45.0614, -16.585, 41.2025, 36.8274, 77.433, -142.588
6.44074, 24, -44.9511, -16.6357, 41.2846, 37.0153, 77.5148, -142.298
6.45058, 24, -44.8765, -16.6696, 41.3385, 37.1395, 77.5687, -142.105
6.457, 24, -44.801, -16.7037, 41.3918, 37.2626, 77.6215, -141.912
6.46412, 25, -44.7629, -16.7208, 41.4183, 37.3238, 77.6482, -141.816
6.47213, 25, -44.6861, -16.7549, 41.4706, 37.4456, 77.701, -141.624
6.48213, 25, -44.5691, -16.8062, 41.5476, 37.6261, 77.7775, -141.335
6.48718, 25, -44.5296, -16.8233, 41.573, 37.6859, 77.8034, -141.239
6.49512, 25, -44.4499, -16.8574, 41.6232, 37.8046, 77.8543, -141.048
6.50325, 26, -44.3691, -16.8915, 41.6725, 37.9224, 77.9038, -140.857
6.51213, 26, -44.2873, -16.9256, 41.7211, 38.0391, 77.9539, -140.666
6.51911, 26, -44.2044, -16.9596, 41.7689, 38.1546, 78.0031, -140.475
6.52714, 26, -44.1207, -16.9935, 41.8157, 38.2692, 78.0509, -140.284
6.53513, 26, -44.0361, -17.0273, 41.8618, 38.3826, 78.0992, -140.094
6.54318, 26, -43.9505, -17.0611, 41.9072, 38.4948, 78.1469, -139.903
6.5513, 27, -43.864, -17.0946, 41.9517, 38.606, 78.1933, -139.713
6.56012, 27, -43.7764, -17.128, 41.9953, 38.7161, 78.2402, -139.523
6.56812, 27, -43.688, -17.1613, 42.038, 38.8252, 78.2867, -139.333
6.57516, 27, -43.5986, -17.1944, 42.0799, 38.933, 78.3316, -139.142
6.58318, 27, -43.5082, -17.2273, 42.1208, 39.0397, 78.3769, -138.952
6.59111, 28, -43.4167, -17.26, 42.1608, 39.1453, 78.4221, -138.763
6.59929, 28, -43.3242, -17.2925, 42.2, 39.2497, 78.466, -138.573
6.6111, 28, -43.1836, -17.3408, 42.257, 39.4043, 78.532, -138.289
6.61514, 28, -43.1362, -17.3568, 42.2756, 39.4552, 78.554, -138.194
6.62634, 28, -42.9927, -17.4043, 42.3298, 39.6064, 78.6181, -137.91
6.63229, 28, -42.9444, -17.4201, 42.3474, 39.6563, 78.6392, -137.815
6.6402, 29, -42.8469, -17.4513, 42.3818, 39.7551, 78.6818, -137.625
6.64726, 29, -42.7484, -17.4823, 42.4154, 39.8528, 78.7239, -137.436
6.65514, 29, -42.649, -17.5129, 42.4479, 39.9493, 78.765, -137.247
6.66332, 29, -42.5487, -17.5434, 42.4794, 40.0445, 78.8061, -137.057
6.67121, 29, -42.4473, -17.5736, 42.5101, 40.1386, 78.8474, -136.868
6.67943, 30, -42.345, -17.6034, 42.5398, 40.2317, 78.8877, -136.678
6.68819, 30, -42.2419, -17.6328, 42.5685, 40.3235, 78.9273, -136.489
6.69523, 30, -42.1379, -17.662, 42.5963, 40.4142, 78.9671, -136.301
6.70325, 30, -42.033, -17.6909, 42.6231, 40.5039, 79.0067, -136.112
6.7117, 30, -41.927, -17.7193, 42.6491, 40.5925, 79.0454, -135.923
6.72034, 31, -41.8201, -17.7475, 42.6738, 40.6798, 79.0837, -135.734
6.72749, 31, -41.7124, -17.7752, 42.6977, 40.7661, 79.1226, -135.545
6.74033, 31, -41.549, -17.8163, 42.7318, 40.8934, 79.1795, -135.262
6.74328, 31, -41.494, -17.8297, 42.7427, 40.9351, 79.198, -135.168
6.75215, 31, -41.3834, -17.8564, 42.7639, 41.018, 79.2349, -134.979
6.75934, 31, -41.2721, -17.8826, 42.7839, 41.0997, 79.2723, -134.79
6.76745, 32, -41.1599, -17.9085, 42.8032, 41.1806, 79.309, -134.602
6.77659, 32, -41.0469, -17.9342, 42.8214, 41.2601, 79.3449, -134.413
6.7846, 32, -40.933, -17.9593, 42.8384, 41.3388, 79.3806, -134.225
6.79165, 32, -40.8183, -17.9842, 42.8547, 41.4163, 79.4168, -134.038
6.8005, 32, -40.7028, -18.0085, 42.8702, 41.4928, 79.4522, -133.85
6.81191, 33, -40.5277, -18.0446, 42.8913, 41.6057, 79.5039, -133.568
6.81627, 33, -40.4689, -18.0564, 42.8979, 41.6426, 79.521, -133.474
6.82371, 33, -40.3507, -18.0795, 42.9104, 41.716, 79.5555, -133.287
6.83233, 33, -40.2318, -18.1024, 42.9219, 41.788, 79.5896, -133.1
6.84044, 33, -40.1721, -18.1138, 42.9273, 41.8236, 79.6064, -133.006
6.84715, 33, -40.0521, -18.136, 42.9373, 41.8946, 79.6393, -132.819
6.85657, 34, -39.8706, -18.1688, 42.9506, 41.9984, 79.6888, -132.538
6.8631, 34, -39.8097, -18.1794, 42.9546, 42.0328, 79.7054, -132.445
6.87117, 34, -39.687, -18.2003, 42.9621, 42.0999, 79.7382, -132.258
6.88062, 34, -39.5013, -18.2311, 42.9714, 42.1998, 79.7858, -131.978
6.88714, 34, -39.439, -18.2411, 42.974, 42.2322, 79.8014, -131.885
6.89679, 35, -39.251, -18.2704, 42.9805, 42.3291, 79.8489, -131.606
6.90489, 35, -39.1249, -18.2896, 42.9837, 42.3917, 79.8803, -131.42
6.91114, 35, -39.0615, -18.299, 42.985, 42.4231, 79.8957, -131.327
6.92059, 35, -38.8702, -18.3264, 42.9873, 42.5147, 79.9411, -131.049
6.92711, 35, -38.8061, -18.3353, 42.9877, 42.5449, 79.9561, -130.956
6.93669, 35, -38.6124, -18.3615, 42.9879, 42.6339, 80.0018, -130.678
6.9447, 36, -38.4822, -18.3783, 42.9873, 42.6917, 80.0317, -130.493
6.9538, 36, -38.3515, -18.3946, 42.9857, 42.7492, 80.0609, -130.308
6.96064, 36, -38.2859, -18.4026, 42.9846, 42.7771, 80.0753, -130.216
6.96872, 36, -38.1541, -18.4185, 42.9817, 42.8324, 80.1039, -129.939
6.97713, 36, -38.0216, -18.4337, 42.9755, 42.9141, 80.1473, -129.755
6.98329, 37, -37.8884, -18.4482, 42.9729, 42.9403, 80.1617, -129.663
6.99215, 37, -37.7546, -18.4623, 42.9669, 42.993, 80.1899, -129.479
7.00016, 37, -37.6199, -18.4763, 42.9601, 43.045, 80.2176, -129.295
7.00815, 37, -37.4846, -18.4897, 42.9522, 43.0951, 80.2448, -129.112
7.01623, 37, -37.3485, -18.5023, 42.9434, 43.1453, 80.2723, -128.929
7.0243, 37, -37.2118, -18.5146, 42.9337, 43.1942, 80.2998, -128.746
7.03366, 38, -37.0055, -18.5323, 42.9173, 43.2648, 80.34, -128.472
7.03916, 38, -36.9364, -18.5381, 42.9114, 43.2884, 80.353, -128.38
7.0497, 38, -36.728, -18.5545, 42.8923, 43.3567, 80.3916, -128.107
7.05616, 38, -36.6581, -18.5595, 42.8855, 43.3786, 80.4045, -128.016
7.06413, 38, -36.5178, -18.5693, 42.8714, 43.4226, 80.4304, -127.834
7.07393, 39, -36.3768, -18.5787, 42.8561, 43.4868, 80.4688, -127.561
7.07929, 39, -36.2351, -18.5875, 42.8398, 43.5072, 80.4812, -127.471
7.08964, 39, -36.0926, -18.596, 42.8227, 43.5477, 80.506, -127.29
7.09884, 39, -35.8778, -18.608, 42.7955, 43.6078, 80.5426, -127.019
7.10417, 39, -35.8058, -18.6117, 42.786, 43.627, 80.5549, -126.928
7.11212, 39, -35.6616, -18.6186, 42.7665, 43.6647, 80.5797, -126.748
7.11918, 40, -35.5167, -18.6249, 42.746, 43.7017, 80.6041, -126.568
7.12726, 40, -35.3712, -18.6308, 42.7244, 43.7384, 80.6279, -126.388
7.13514, 40, -35.225, -18.6363, 42.7021, 43.7735, 80.6512, -126.209
7.1431, 40, -35.0782, -18.6413, 42.6789, 43.8073, 80.6741, -126.029
7.15124, 40, -34.9308, -18.6457, 42.6549, 43.8403, 80.6969, -125.85
7.1601, 41, -34.7826, -18.6498, 42.6301, 43.8732, 80.72, -125.671
7.16723, 41, -34.6341, -18.6534, 42.6044, 43.9049, 80.7429, -125.493
7.17569, 41, -34.485, -18.6565, 42.578, 43.935, 80.7652, -125.315
7.18419, 41, -34.3351, -18.6592, 42.5507, 43.9642, 80.7871, -125.137
7.19153, 41, -34.1847, -18.6616, 42.5226, 43.9929, 80.8085, -124.96
7.20018, 41, -34.0338, -18.6635, 42.4935, 44.021, 80.8298, -124.782
7.20734, 42, -33.8823, -18.6649, 42.4638, 44.0479, 80.8512, -124.605
7.21572, 42, -33.73, -18.6659, 42.4333, 44.0735, 80.8729, -124.429
7.22518, 42, -33.5771, -18.6664, 42.402, 44.0979, 80.8942, -124.253
7.23211, 42, -33.4234, -18.6666, 42.3698, 44.1216, 80.9149, -124.077
7.23915, 42, -33.2692, -18.6667, 42.3369, 44.1447, 80.9351, -123.901
7.24723, 42, -33.1144, -18.6664, 42.3033, 44.1672, 80.955, -123.725
7.25562, 43, -32.959, -18.6657, 42.2688, 44.1886, 80.9747, -123.55
7.26416, 43, -32.803, -18.6645, 42.2336, 44.2086, 80.9944, -123.376
7.27139, 43, -32.6465, -18.6628, 42.1976, 44.2276, 81.0141, -123.201
7.28021, 43, -32.4893, -18.6606, 42.1608, 44.2455, 81.0337, -123.027
7.28762, 43, -32.3314, -18.6578, 42.1232, 44.2625, 81.0528, -122.854
7.29631, 44, -32.173, -18.6545, 42.0849, 44.279, 81.0714, -122.68
7.30468, 44, -32.0141, -18.6507, 42.0456, 44.2946, 81.0897, -122.507
7.31237, 44, -31.8546, -18.6463, 42.0057, 44.3095, 81.1077, -122.334
7.31973, 44, -31.6949, -18.6415, 41.9651, 44.3234, 81.1255, -122.162
7.3284, 44, -31.5346, -18.636, 41.9236, 44.336, 81.1434, -121.99
7.33725, 44, -31.3738, -18.63, 41.8814, 44.3475, 81.1613, -121.818
7.34308, 45, -31.2931, -18.6268, 41.86, 44.3529, 81.1703, -121.732
7.35275, 45, -31.0502, -18.6165, 41.7947, 44.3671, 81.1965, -121.475
7.36013, 45, -30.8874, -18.6091, 41.7502, 44.3754, 81.2133, -121.304
7.36715, 45, -30.8058, -18.6052, 41.7276, 44.3791, 81.2217, -121.219
7.37509, 45, -30.642, -18.5969, 41.682, 44.3857, 81.238, -121.048
7.3846, 46, -30.3951, -18.5832, 41.6122, 44.3939, 81.2621, -120.793
7.39115, 46, -30.3126, -18.5785, 41.5886, 44.396, 81.2701, -120.709
7.39917, 46, -30.147, -18.5686, 41.5407, 44.3997, 81.2863, -120.539
7.40853, 46, -29.8977, -18.5529, 41.4673, 44.4033, 81.3105, -120.285
7.4151, 46, -29.8142, -18.5474, 41.4425, 44.404, 81.3185, -120.201
7.4246, 47, -29.5629, -18.5299, 41.3667, 44.4051, 81.3423, -119.948
7.43378, 47, -29.3946, -18.5173, 41.3153, 44.4052, 81.3576, -119.78
7.44068, 47, -29.2256, -18.5042, 41.263, 44.4046, 81.3726, -119.612
7.44867, 47, -29.0561, -18.4906, 41.2099, 44.4027, 81.3875, -119.444
7.45811, 47, -28.8861, -18.4765, 41.1559, 44.3995, 81.4023, -119.276
7.46465, 47, -28.8009, -18.4691, 41.1287, 44.3975, 81.4097, -119.109
7.47265, 48, -28.6301, -18.4539, 41.0737, 44.3925, 81.4245, -119.025
7.48181, 48, -28.4588, -18.4383, 41.0178, 44.3863, 81.4395, -118.774
7.48797, 48, -28.2869, -18.4223, 40.9611, 44.379, 81.4546, -118.691
7.49509, 48, -28.1145, -18.4055, 40.9036, 44.3704, 81.4698, -118.525
7.50327, 48, -27.9416, -18.3878, 40.8453, 44.3606, 81.4848, -118.358
7.51135, 49, -27.768, -18.3698, 40.7861, 44.3496, 81.4995, -118.192
7.52014, 49, -27.5934, -18.3511, 40.726, 44.337, 81.5139, -118.026
7.52812, 49, -27.418, -18.3316, 40.665, 44.3231, 81.5282, -117.86
7.53614, 49, -27.242, -18.3114, 40.6032, 44.3076, 81.5425, -117.694
7.54409, 49, -27.0655, -18.2906, 40.5404, 44.2905, 81.5567, -117.529
7.55223, 49, -26.8883, -18.269, 40.4768, 44.2723, 81.5712, -117.364
7.56206, 50, -26.7106, -18.2467, 40.4124, 44.2531, 81.5935, -117.115
7.5681, 50, -26.5322, -18.2237, 40.3471, 44.2328, 81.6011, -117.033
7.57761, 50, -26.3531, -18.2, 40.281, 44.2002, 81.6237, -116.785
7.58408, 50, -26.1733, -18.1757, 40.2139, 44.1885, 81.6313, -116.702
7.59116, 50, -25.9928, -18.1505, 40.146, 44.1639, 81.6462, -116.537
7.59904, 51, -25.8114, -18.1247, 40.0771, 44.1378, 81.6611, -116.373
7.6113, 51, -25.6298, -18.0844, 39.972, 44.0972, 81.6836, -116.125
7.61514, 51, -25.4477, -18.0706, 39.9365, 44.0831, 81.6911, -116.043
7.62309, 51, -25.2653, -18.0426, 39.8647, 44.0539, 81.7065, -115.878
7.63215, 51, -25.0825, -18.0137, 39.7921, 44.0226, 81.7222, -115.714
7.63908, 51, -24.8987, -17.9841, 39.7187, 43.9898, 81.7384, -115.549
7.64809, 52, -24.7141, -17.9537, 39.6443, 43.9563, 81.7549, -115.385
7.65626, 52, -24.5285, -17.9225, 39.5691, 43.9216, 81.7714, -115.22
7.66418, 52, -24.3419, -17.8903, 39.4929, 43.8851, 81.7879, -115.056
7.67116, 52, -24.1547, -17.8575, 39.4158, 43.8467, 81.8043, -114.891
7.67938, 52, -23.9669, -17.8238, 39.3377, 43.8078, 81.8208, -114.727
7.68834, 53, -23.7784, -17.7894, 39.2586, 43.7677, 81.8373, -114.562
7.69608, 53, -23.5893, -17.7541, 39.1785, 43.7252, 81.8541, -114.398
7.70381, 53, -23.3997, -17.718, 39.0975, 43.6816, 81.8715, -114.234
7.71215, 53, -23.2095, -17.6812, 39.0158, 43.6373, 81.8894, -114.07
7.71971, 53, -23.0182, -17.6435, 38.9331, 43.5908, 81.9076, -113.905
7.72827, 53, -22.8261, -17.6051, 38.8496, 43.5429, 81.9258, -113.741
7.73634, 54, -22.6334, -17.566, 38.765, 43.4946, 81.944, -113.577
7.74412, 54, -22.4402, -17.5261, 38.6795, 43.4438, 81.9623, -113.412
7.75337, 54, -22.2466, -17.4853, 38.5929, 43.3916, 81.9807, -113.248
7.76009, 54, -22.0527, -17.4438, 38.5054, 43.3386, 81.9996, -113.084
7.76816, 54, -21.8582, -17.4015, 38.4171, 43.2829, 82.0189, -112.92
7.77577, 55, -21.6626, -17.3583, 38.3281, 43.2269, 82.0389, -112.756
7.78512, 55, -21.4661, -17.3144, 38.2382, 43.1691, 82.0591, -112.592
7.79154, 55, -21.2686, -17.2696, 38.1475, 43.1093, 82.0792, -112.427
7.80017, 55, -21.0699, -17.224, 38.0557, 43.049, 82.0993, -112.263
7.80852, 55, -20.8706, -17.1777, 37.963, 42.9858, 82.1194, -112.099
7.81563, 55, -20.6707, -17.1305, 37.8694, 42.9224, 82.1398, -111.936
7.82425, 56, -20.4706, -17.0828, 37.7748, 42.8564, 82.1608, -111.772
7.83272, 56, -20.2696, -17.0343, 37.6796, 42.7894, 82.1823, -111.608
7.84022, 56, -20.0675, -16.9851, 37.5836, 42.7208, 82.2041, -111.444
7.8479, 56, -19.9661, -16.9603, 37.5353, 42.6857, 82.2149, -111.362
7.85649, 56, -19.6605, -16.8847, 37.389, 42.5793, 82.2473, -111.117
7.86518, 57, -19.4563, -16.8334, 37.2902, 42.5059, 82.2691, -110.953
7.87124, 57, -19.3541, -16.8075, 37.2404, 42.4688, 82.2801, -110.872
7.88027, 57, -19.0467, -16.7288, 37.09, 42.3547, 82.3141, -110.627
7.88712, 57, -18.9441, -16.7023, 37.0396, 42.3159, 82.3257, -110.545
7.8967, 57, -18.6353, -16.6216, 36.8872, 42.197, 82.3607, -110.299
7.90474, 57, -18.4281, -16.5668, 36.7846, 42.1155, 82.3839, -110.136
7.91129, 58, -18.3239, -16.5391, 36.7329, 42.0745, 82.3955, -110.054
7.92066, 58, -18.0091, -16.455, 36.5766, 41.9481, 82.4305, -109.81
7.92865, 58, -17.7981, -16.3981, 36.4712, 41.862, 82.4547, -109.647
7.93754, 58, -17.5869, -16.3405, 36.3652, 41.7744, 82.4793, -109.484
7.9431, 58, -17.481, -16.3115, 36.312, 41.7298, 82.4917, -109.402
7.95288, 59, -17.1621, -16.2235, 36.1515, 41.5938, 82.5287, -109.158
7.95988, 59, -17.0554, -16.1939, 36.0976, 41.5475, 82.5411, -109.076
7.96709, 59, -16.8412, -16.1341, 35.989, 41.4539, 82.566, -108.913
7.97771, 59, -16.518, -16.0433, 35.8244, 41.3101, 82.6046, -108.669
7.98407, 59, -16.4098, -16.0126, 35.7692, 41.2612, 82.6177, -108.588
7.99213, 59, -16.1929, -15.9509, 35.6583, 41.1624, 82.6441, -108.425
7.99906, 60, -15.9759, -15.8885, 35.5469, 41.0616, 82.6703, -108.262
8.00918, 60, -15.6508, -15.7937, 35.3785, 40.9073, 82.7097, -108.018
8.01612, 60, -15.5421, -15.7616, 35.3218, 40.8551, 82.723, -107.936
8.02408, 60, -15.3234, -15.697, 35.2078, 40.749, 82.7502, -107.774
8.0322, 60, -15.103, -15.6316, 35.093, 40.6415, 82.778, -107.611
8.03943, 61, -14.881, -15.5655, 34.9776, 40.5319, 82.8058, -107.448
8.04706, 61, -14.658, -15.4987, 34.8617, 40.4204, 82.8336, -107.286
8.05608, 61, -14.434, -15.4313, 34.7452, 40.3073, 82.8618, -107.123
8.06407, 61, -14.209, -15.3632, 34.6279, 40.1922, 82.8906, -106.96
8.07213, 61, -13.983, -15.2944, 34.5095, 40.0755, 82.9203, -106.797
8.08024, 61, -13.7563, -15.2249, 34.3902, 39.9569, 82.95, -106.634
8.08732, 62, -13.5284, -15.1547, 34.2705, 39.8362, 82.9797, -106.471
8.09614, 62, -13.2995, -15.0839, 34.1502, 39.7138, 83.0096, -106.308
8.1041, 62, -13.0703, -15.0123, 34.0292, 39.5892, 83.0404, -106.145
8.11108, 62, -12.8414, -14.94, 33.9073, 39.4628, 83.0719, -105.981
8.11907, 62, -12.6121, -14.8669, 33.7844, 39.3343, 83.1034, -105.818
8.12828, 63, -12.3819, -14.7929, 33.6607, 39.2041, 83.1351, -105.654
8.13586, 63, -12.1503, -14.7182, 33.5365, 39.0718, 83.1674, -105.49
8.14408, 63, -11.9175, -14.6427, 33.4117, 38.9376, 83.201, -105.327
8.15296, 63, -11.6835, -14.5665, 33.2863, 38.8014, 83.235, -105.163
8.16007, 63, -11.4476, -14.4894, 33.1598, 38.663, 83.2689, -104.999
8.16817, 63, -11.2104, -14.4115, 33.0325, 38.5227, 83.3032, -104.835
8.17513, 64, -10.9719, -14.3328, 32.9045, 38.3804, 83.3389, -104.67
8.185, 64, -10.7319, -14.2532, 32.7759, 38.2361, 83.3752, -104.505
8.19214, 64, -10.4902, -14.1727, 32.6466, 38.0898, 83.4115, -104.34
8.19918, 64, -10.2471, -14.0913, 32.5165, 37.9413, 83.4483, -104.176
8.20723, 64, -10.0038, -14.0091, 32.3856, 37.7907, 83.4865, -104.01
8.21512, 65, -9.7607, -13.926, 32.254, 37.6379, 83.5253, -103.844
8.22307, 65, -9.51803, -13.842, 32.1217, 37.4832, 83.564, -103.678
8.23149, 65, -9.27539, -13.7571, 31.9887, 37.3264, 83.6036, -103.512
8.24013, 65, -9.03189, -13.6711, 31.8549, 37.1676, 83.6448, -103.345
8.24783, 65, -8.78648, -13.5842, 31.7205, 37.0066, 83.6864, -103.179
8.25957, 66, -8.41475, -13.4523, 31.5176, 36.7612, 83.7495, -102.928
8.26505, 66, -8.29024, -13.4078, 31.4496, 36.6784, 83.7714, -102.844
8.2721, 66, -8.04039, -13.3183, 31.3131, 36.5113, 83.8157, -102.677
8.27941, 66, -7.78888, -13.2278, 31.1759, 36.3422, 83.8598, -102.509
8.28822, 66, -7.53513, -13.1364, 31.0382, 36.1709, 83.905, -102.341
8.29564, 66, -7.27953, -13.044, 30.8999, 35.9973, 83.9517, -102.172
8.30438, 67, -7.02283, -12.9506, 30.7608, 35.8218, 83.9983, -102.003
8.31245, 67, -6.76588, -12.8563, 30.6211, 35.6443, 84.0462, -101.834
8.31962, 67, -6.50911, -12.761, 30.4807, 35.4646, 84.0957, -101.665
8.32818, 67, -6.25256, -12.6646, 30.3399, 35.2829, 84.1449, -101.495
8.33568, 67, -5.99542, -12.5673, 30.1987, 35.099, 84.1953, -101.324
8.3443, 67, -5.73691, -12.4691, 30.0568, 34.9131, 84.2472, -101.154
8.35183, 68, -5.60717, -12.4197, 29.9856, 34.7252, 84.299, -100.983
8.36284, 68, -5.2166, -12.2698, 29.7711, 34.5351, 84.3526, -100.812
8.367, 68, -5.08579, -12.2194, 29.6994, 34.4393, 84.38, -100.726
8.37825, 68, -4.69037, -12.0666, 29.4838, 34.1489, 84.4618, -100.469
8.38324, 68, -4.55755, -12.0152, 29.4116, 34.0511, 84.49, -100.383
8.39103, 69, -4.29037, -11.9116, 29.2669, 33.854, 84.5469, -100.211
8.40302, 69, -3.88659, -11.7546, 29.0493, 33.5546, 84.6333, -99.9515
8.40846, 69, -3.61694, -11.649, 28.9039, 33.3526, 84.6926, -99.7786
8.41505, 69, -3.48229, -11.5957, 28.831, 33.2508, 84.7221, -99.6919
8.42467, 69, -3.07803, -11.4343, 28.6115, 32.9428, 84.8133, -99.4313
8.43503, 70, -2.80727, -11.3255, 28.4646, 32.7351, 84.8747, -99.2571
8.44059, 70, -2.5356, -11.2158, 28.3178, 32.5253, 84.9377, -99.0827
8.44868, 70, -2.26325, -11.1052, 28.1706, 32.3138, 85.0015, -98.908
8.45806, 70, -1.99017, -10.9938, 28.0231, 32.1004, 85.0656, -98.733
8.46551, 70, -1.85328, -10.9378, 27.8754, 31.8852, 85.1317, -98.5578
8.47104, 70, -1.57854, -10.825, 27.8014, 31.777, 85.1645, -98.4701
8.48087, 71, -1.30176, -10.711, 27.6536, 31.5591, 85.2661, -98.2063
8.4871, 71, -1.02264, -10.5961, 27.5058, 31.3395, 85.3, -98.1181
8.4961, 71, -0.742408, -10.4805, 27.3577, 31.118, 85.3691, -97.9418
8.50417, 71, -0.462102, -10.3639, 27.2093, 30.8948, 85.4394, -97.7651
8.5121, 71, -0.181396, -10.2465, 27.0609, 30.6698, 85.5104, -97.5883
8.52026, 72, 0.0999558, -10.1282, 26.9126, 30.4433, 85.5827, -97.4111
8.52822, 72, 0.381823, -10.0089, 26.7641, 30.2152, 85.6554, -97.2333
8.53589, 72, 0.664472, -9.88867, 26.6156, 29.9854, 85.7297, -97.0551
8.54411, 72, 0.947765, -9.76748, 26.467, 29.7542, 85.8046, -96.8765
8.55209, 72, 1.23116, -9.64543, 26.3188, 29.5215, 85.8806, -96.6977
8.55906, 72, 1.51551, -9.52259, 26.1706, 29.2873, 85.9572, -96.5189
8.56708, 73, 1.80172, -9.39879, 26.0223, 29.0516, 86.0352, -96.3398
8.57618, 73, 2.08946, -9.27396, 25.8742, 28.8146, 86.1143, -96.1604
8.58487, 73, 2.37764, -9.14811, 25.7264, 28.5761, 86.1941, -95.9804
8.59105, 73, 2.66624, -9.02131, 25.5789, 28.3363, 86.2753, -95.8003
8.60243, 73, 3.10016, -8.82933, 25.3577, 27.9745, 86.399, -95.5293
8.60825, 74, 3.24517, -8.76496, 25.284, 27.8533, 86.4408, -95.4389
8.61603, 74, 3.53612, -8.63539, 25.1369, 27.6099, 86.5249, -95.2577
8.62406, 74, 3.82768, -8.5046, 24.9903, 27.3651, 86.6102, -95.0761
8.63214, 74, 4.11881, -8.37291, 24.8441, 27.1193, 86.6969, -94.8941
8.63912, 74, 4.40992, -8.2402, 24.6978, 26.8725, 86.7843, -94.7117
8.64705, 74, 4.70196, -8.10665, 24.5518, 26.6248, 86.8732, -94.5291
8.65519, 75, 4.99504, -7.97221, 24.4063, 26.3763, 86.9631, -94.346
8.66324, 75, 5.28896, -7.83674, 24.2615, 26.1267, 87.0541, -94.1628
8.67108, 75, 5.58328, -7.70007, 24.1168, 25.8763, 87.1464, -93.9791
8.67921, 75, 5.87724, -7.56236, 23.9726, 25.6252, 87.2399, -93.7952
8.68714, 75, 6.17121, -7.42364, 23.8286, 25.3734, 87.3346, -93.6107
8.69544, 76, 6.46635, -7.28405, 23.6853, 25.121, 87.4303, -93.4261
8.70331, 76, 6.76214, -7.1434, 23.5427, 24.8681, 87.5274, -93.2411
8.71204, 76, 7.05756, -7.00145, 23.4004, 24.6146, 87.6257, -93.0558
8.71922, 76, 7.35254, -6.85842, 23.2584, 24.3606, 87.7251, -92.8699
8.72781, 76, 7.64756, -6.71427, 23.117, 24.1061, 87.8261, -92.6835
8.73605, 76, 7.94327, -6.56928, 22.9762, 23.8513, 87.9282, -92.4964
8.74319, 77, 8.24005, -6.42332, 22.8361, 23.5961, 88.0318, -92.3091
8.7522, 77, 8.53699, -6.27599, 22.6967, 23.3406, 88.1368, -92.1216
8.7601, 77, 8.83304, -6.12734, 22.5577, 23.0851, 88.2427, -91.9337
8.76759, 77, 9.12853, -5.97761, 22.4194, 22.8297, 88.3501, -91.7456
8.77647, 77, 9.42453, -5.82694, 22.2818, 22.5743, 88.4591, -91.5566
8.78454, 78, 9.72105, -5.67504, 22.1448, 22.3187, 88.569, -91.3673
8.79209, 78, 10.0174, -5.52163, 22.0085, 22.0634, 88.6805, -91.1773
8.80204, 78, 10.3128, -5.36703, 21.8729, 21.8083, 88.7931, -90.987
8.80816, 78, 10.6075, -5.21128, 21.7378, 21.5534, 88.907, -90.7964
8.8166, 78, 10.9023, -5.05465, 21.6035, 21.299, 89.0226, -90.605
8.82416, 78, 11.1977, -4.897, 21.47, 21.0451, 89.1391, -90.4131
8.83398, 79, 11.4928, -4.73796, 21.3373, 20.7913, 89.2571, -90.2208
8.84075, 79, 11.787, -4.57759, 21.2052, 20.5381, 89.3765, -90.0279
8.84814, 79, 12.0804, -4.4163, 21.0738, 20.2856, 89.497, -89.8347
8.85612, 79, 12.3733, -4.25416, 20.9432, 20.0337, 89.6193, -89.641
8.86304, 79, 12.5196, -4.17251, 20.8782, 19.9081, 89.6808, -89.5439
8.8721, 80, 12.9579, -3.92478, 20.6844, 19.5325, 89.8677, -89.2515
8.87918, 80, 13.1036, -3.84145, 20.6202, 19.4077, 89.9306, -89.1539
8.88702, 80, 13.3938, -3.67416, 20.4923, 19.1589, 90.0574, -88.9581
8.89625, 80, 13.8278, -3.42129, 20.302, 18.7875, 90.2505, -88.6636
8.90311, 80, 13.9726, -3.33616, 20.2389, 18.6643, 90.3155, -88.565
8.91107, 80, 14.2623, -3.1645, 20.1135, 18.4188, 90.4468, -88.3672
8.92044, 81, 14.6951, -2.90475, 19.927, 18.0526, 90.6461, -88.0692
8.92721, 81, 14.8387, -2.81789, 19.8651, 17.9312, 90.7133, -87.9696
8.93758, 81, 15.2675, -2.55494, 19.6807, 17.5693, 90.9167, -87.67
8.94461, 81, 15.5523, -2.37713, 19.5587, 17.3296, 91.0545, -87.4696
8.95289, 81, 15.8365, -2.19815, 19.4376, 17.0915, 91.1933, -87.2685
8.9612, 82, 16.1192, -2.01858, 19.3173, 16.8548, 91.3339, -87.0664
8.96704, 82, 16.2598, -1.9284, 19.2574, 16.737, 91.4048, -86.9651
8.97763, 82, 16.6795, -1.65467, 19.0786, 16.3866, 91.6196, -86.6601
8.98404, 82, 16.8193, -1.56238, 19.0194, 16.2706, 91.6919, -86.5582
8.99215, 82, 17.0985, -1.37701, 18.9018, 16.0401, 91.8376, -86.3537
8.99903, 82, 17.377, -1.19071, 18.785, 15.8115, 91.9849, -86.1482
9.00961, 83, 17.7926, -0.9076, 18.6113, 15.4722, 92.2087, -85.8382
9.01612, 83, 17.9301, -0.812189, 18.5537, 15.3601, 92.284, -85.7346
9.02304, 83, 18.2035, -0.620574, 18.4388, 15.1375, 92.4358, -85.5267
9.03207, 83, 18.4751, -0.428141, 18.3248, 14.9171, 92.5892, -85.3182
9.03903, 83, 18.7455, -0.234043, 18.2117, 14.6988, 92.7439, -85.1086
9.048, 84, 19.014, -0.0380039, 18.0994, 14.4827, 92.9003, -84.8981
9.0562, 84, 19.2803, 0.159031, 17.9879, 14.2689, 93.0581, -84.6867
9.06389, 84, 19.5451, 0.357343, 17.8767, 14.0576, 93.2175, -84.4745
9.07106, 84, 19.8095, 0.557734, 17.766, 13.8485, 93.3782, -84.2616
9.08004, 84, 20.0731, 0.759996, 17.6564, 13.642, 93.5403, -84.0478
9.0881, 84, 20.336, 0.963236, 17.5477, 13.4379, 93.7039, -83.8326
9.09603, 85, 20.5975, 1.16779, 17.4398, 13.2364, 93.869, -83.6166
9.10603, 85, 20.8566, 1.37433, 17.3326, 13.0375, 94.1189, -83.2911
9.11104, 85, 21.1129, 1.58243, 17.2257, 12.8412, 94.2029, -83.1821
9.11903, 85, 21.3672, 1.79171, 17.1195, 12.6476, 94.3715, -82.9638
9.12818, 85, 21.6199, 2.00267, 17.0143, 12.457, 94.5416, -82.7442
9.13832, 86, 21.9946, 2.32245, 16.8583, 12.1763, 94.799, -82.4131
9.14302, 86, 22.1182, 2.42937, 16.8067, 12.0842, 94.8855, -82.3022
9.15294, 86, 22.3638, 2.64405, 16.7041, 11.902, 95.0594, -82.0801
9.16003, 86, 22.6081, 2.86066, 16.6018, 11.7228, 95.2344, -81.8568
9.16804, 86, 22.8516, 3.07865, 16.5003, 11.5465, 95.4108, -81.6325
9.17703, 86, 23.094, 3.29771, 16.3998, 11.3733, 95.588, -81.4074
9.18328, 87, 23.3351, 3.51863, 16.3005, 11.2031, 95.7665, -81.1814
9.19216, 87, 23.5742, 3.74119, 16.2021, 11.036, 95.9458, -80.9547
9.19915, 87, 23.8102, 3.96414, 16.1045, 10.8718, 96.1258, -80.7273
9.20804, 87, 24.0432, 4.18801, 16.0075, 10.7108, 96.3067, -80.499
9.2161, 87, 24.2741, 4.41314, 15.9113, 10.5529, 96.4881, -80.2696
9.22402, 88, 24.5027, 4.63862, 15.816, 10.398, 96.6701, -80.0398
9.23383, 88, 24.729, 4.86484, 15.722, 10.2463, 96.8525, -79.8093
9.2391, 88, 24.9531, 5.09258, 15.629, 10.0977, 97.0354, -79.5779
9.24708, 88, 25.1754, 5.32105, 15.5371, 9.95227, 97.2187, -79.3457
9.25596, 88, 25.3961, 5.54977, 15.4461, 9.81006, 97.4022, -79.1128
9.26404, 88, 25.6149, 5.77963, 15.3559, 9.67094, 97.5861, -78.8793
9.27211, 89, 25.8322, 6.01022, 15.2668, 9.53525, 97.7701, -78.6455
9.28036, 89, 26.0478, 6.24106, 15.1787, 9.40241, 97.954, -78.4109
9.28804, 89, 26.2614, 6.47302, 15.0918, 9.27298, 98.1382, -78.1755
9.29549, 89, 26.4728, 6.70604, 15.0061, 9.14666, 98.3226, -77.9396
9.30386, 89, 26.6819, 6.93897, 14.9216, 9.02366, 98.5072, -77.7032
9.31193, 90, 26.8886, 7.17252, 14.838, 8.90378, 98.6917, -77.4661
9.3202, 90, 27.0931, 7.40687, 14.7555, 8.78712, 98.8764, -77.2284
9.32858, 90, 27.2951, 7.64127, 14.6742, 8.67382, 99.0606, -76.99
9.33558, 90, 27.4946, 7.87641, 14.5939, 8.56353, 99.2449, -76.7513
9.34456, 90, 27.6918, 8.11285, 14.5146, 8.45636, 99.4289, -76.5122
9.35155, 90, 27.7896, 8.2311, 14.4754, 8.40405, 99.5207, -76.3925
9.36036, 91, 28.0801, 8.58542, 14.3595, 8.25161, 99.7962, -76.0322
9.36708, 91, 28.176, 8.70381, 14.3214, 8.2024, 99.8879, -75.9118
9.37501, 91, 28.3663, 8.94074, 14.2461, 8.10669, 100.071, -75.6706
9.385, 91, 28.6487, 9.29629, 14.1351, 7.96876, 100.346, -75.308
9.39227, 91, 28.8348, 9.53456, 14.0623, 7.88074, 100.528, -75.0653
9.399, 92, 28.927, 9.65385, 14.0262, 7.83806, 100.62, -74.9436
9.40914, 92, 29.2008, 10.0114, 13.9194, 7.71434, 100.894, -74.5781
9.41508, 92, 29.291, 10.1308, 13.8843, 7.67473, 100.985, -74.4559
9.42446, 92, 29.5587, 10.4897, 13.7804, 7.56063, 101.258, -74.0887
9.43103, 92, 29.6469, 10.6094, 13.7463, 7.52438, 101.349, -73.9659
9.44062, 92, 29.9081, 10.9697, 13.6454, 7.4194, 101.622, -73.5962
9.44704, 93, 29.9941, 11.0902, 13.6123, 7.38641, 101.713, -73.4725
9.45665, 93, 30.2481, 11.4511, 13.514, 7.29111, 101.985, -73.1009
9.4646, 93, 30.3315, 11.6924, 13.4496, 7.23251, 102.166, -72.8519
9.47349, 93, 30.4967, 11.8132, 13.3861, 7.1759, 102.347, -72.6018
9.48059, 93, 30.6597, 12.055, 13.3547, 7.14915, 102.437, -72.4766
9.48799, 94, 30.8206, 12.2977, 13.2925, 7.09866, 102.618, -72.2256
9.49602, 94, 30.9797, 12.5419, 13.2311, 7.05014, 102.799, -71.9742
9.50302, 94, 31.1371, 12.7861, 13.1706, 7.00523, 102.98, -71.7217
9.51207, 94, 31.2925, 13.0303, 13.1111, 6.96437, 103.16, -71.4681
9.52006, 94, 31.4462, 13.275, 13.0524, 6.926, 103.34, -71.2139
9.52802, 94, 31.598, 13.5194, 12.9947, 6.8903, 103.519, -70.9592
9.53608, 95, 31.7479, 13.7638, 12.9379, 6.85844, 103.698, -70.7035
9.54402, 95, 31.896, 14.0091, 12.8821, 6.83009, 103.877, -70.4469
9.55204, 95, 32.0426, 14.2544, 12.8271, 6.80491, 104.055, -70.1896
9.56008, 95, 32.1873, 14.4994, 12.7731, 6.78253, 104.233, -69.9318
9.56702, 95, 32.33, 14.7448, 12.72, 6.76283, 104.41, -69.6733
9.57601, 96, 32.4705, 14.9898, 12.6679, 6.74609, 104.586, -69.4139
9.58408, 96, 32.6087, 15.2345, 12.617, 6.73235, 104.762, -69.1538
9.59101, 96, 32.7445, 15.4798, 12.5669, 6.72191, 104.936, -68.8931
9.60003, 96, 32.8785, 15.725, 12.5179, 6.71462, 105.11, -68.632
9.60808, 96, 33.0105, 15.9695, 12.4699, 6.71034, 105.283, -68.37
9.61708, 97, 33.1404, 16.2143, 12.423, 6.70845, 105.455, -68.1074
9.62398, 97, 33.2681, 16.4586, 12.3773, 6.70861, 105.626, -67.8447
9.6321, 97, 33.3938, 16.7026, 12.3328, 6.71172, 105.796, -67.5816
9.64004, 97, 33.5175, 16.9472, 12.2893, 6.71808, 105.966, -67.318
9.64711, 97, 33.6395, 17.1914, 12.2468, 6.72764, 106.134, -67.0537
9.65603, 97, 33.7603, 17.4348, 12.2054, 6.7404, 106.301, -66.7889
9.66401, 98, 33.8798, 17.6783, 12.165, 6.75656, 106.467, -66.5236
9.6721, 98, 33.9978, 17.9212, 12.1259, 6.77564, 106.632, -66.2581
9.68005, 98, 34.1141, 18.1634, 12.0877, 6.79733, 106.796, -65.9919
9.68716, 98, 34.2287, 18.406, 12.0505, 6.8214, 106.959, -65.7253
9.69679, 98, 34.3419, 18.6483, 12.0144, 6.84792, 107.121, -65.4584
9.70424, 99, 34.4537, 18.8897, 11.9793, 6.87757, 107.281, -65.1911
9.71118, 99, 34.5642, 19.1309, 11.9452, 6.91051, 107.441, -64.923
9.71951, 99, 34.6732, 19.3716, 11.9122, 6.94562, 107.599, -64.6545
9.729, 99, 34.7809, 19.6114, 11.8802, 6.98268, 107.757, -64.3856
9.73609, 99, 34.8866, 19.8513, 11.8492, 7.02235, 107.913, -64.1163
9.74409, 99, 34.9903, 20.0907, 11.8193, 7.06536, 108.067, -63.8464
9.7521, 100, 35.0924, 20.3285, 11.7906, 7.11001, 108.221, -63.5763
9.76001, 100, 35.193, 20.5657, 11.763, 7.15705, 108.372, -63.3063
9.76802, 100, 35.2922, 20.8021, 11.7365, 7.20727, 108.523, -63.0366
9.77609, 100, 35.3901, 21.0371, 11.7114, 7.2587, 108.671, -62.7665
9.78402, 100, 35.4866, 21.2716, 11.6875, 7.31244, 108.818, -62.4966
9.79231, 101, 35.5818, 21.5057, 11.6651, 7.36892, 108.962, -62.2273
9.7994, 101, 35.6755, 21.738, 11.644, 7.42618, 109.104, -61.9589
9.80761, 101, 35.7678, 21.9686, 11.6243, 7.48622, 109.244, -61.6909
9.81618, 101, 35.8591, 22.198, 11.6062, 7.54729, 109.381, -61.424
9.82434, 101, 35.9494, 22.4253, 11.5894, 7.61037, 109.515, -61.1583
9.83182, 101, 36.0387, 22.6506, 11.574, 7.67516, 109.647, -60.8938
9.84019, 102, 36.127, 22.875, 11.5602, 7.74107, 109.776, -60.6301
9.84837, 102, 36.1708, 22.9866, 11.5538, 7.77495, 109.902, -60.3673
9.85567, 102, 36.2575, 23.2083, 11.5419, 7.84294, 109.964, -60.1055
9.8641, 102, 36.3853, 23.539, 11.5261, 7.9484, 110.147, -59.8442
9.87103, 102, 36.4275, 23.6491, 11.5214, 7.98405, 110.207, -59.7138
9.88056, 103, 36.5521, 23.9778, 11.5085, 8.09456, 110.386, -59.3219
9.887, 103, 36.5932, 24.0872, 11.5046, 8.13215, 110.445, -59.191
9.89626, 103, 36.7154, 24.4148, 11.494, 8.249, 110.622, -58.7975
9.90312, 103, 36.7557, 24.5231, 11.4908, 8.28888, 110.68, -58.6659
9.91238, 103, 36.8756, 24.8434, 11.4826, 8.41247, 110.855, -58.2699
9.91903, 103, 36.9151, 24.9489, 11.4804, 8.45463, 110.912, -58.138
9.92861, 104, 37.0322, 25.2613, 11.476, 8.58425, 111.079, -57.745
9.93661, 104, 37.1092, 25.4657, 11.4752, 8.67265, 111.183, -57.4871
9.94457, 104, 37.1849, 25.668, 11.4764, 8.76183, 111.281, -57.2331
9.9526, 104, 37.2596, 25.8688, 11.4802, 8.85206, 111.372, -56.9839
9.96058, 104, 37.3333, 26.0665, 11.486, 8.94288, 111.457, -56.7395
9.9686, 104, 37.3698, 26.1638, 11.4934, 9.03408, 111.535, -56.499
9.97682, 104, 37.4425, 26.3561, 11.4977, 9.08006, 111.61, -56.2621
9.98458, 104, 37.5146, 26.5458, 11.5072, 9.17247, 111.646, -56.1443
9.99204, 104, 37.5864, 26.7328, 11.5172, 9.26555, 111.716, -55.91
10, 104, 37.6576, 26.9168, 11.5276, 9.3595, 111.785, -55.677
10.008, 104, 37.7285, 27.0993, 11.5383, 9.4542, 111.853, -55.4447
10.016, 104, 37.7988, 27.2816, 11.549, 9.54974, 111.921, -55.2131
10.024, 104, 37.8687, 27.4635, 11.5596, 9.64611, 111.988, -54.9817
10.0321, 104, 37.9382, 27.6449, 11.5702, 9.74336, 112.055, -54.7506
10.04, 104, 38.0075, 27.8266, 11.5806, 9.84134, 112.121, -54.5201
10.048, 104, 38.0766, 28.0089, 11.591, 9.94003, 112.188, -54.29
10.056, 104, 38.1455, 28.1913, 11.6014, 10.0398, 112.254, -54.0605
10.064, 104, 38.2141, 28.3738, 11.6118, 10.1404, 112.32, -53.831
10.072, 104, 38.2825, 28.5569, 11.6221, 10.2419, 112.386, -53.6018
10.0801, 104, 38.3505, 28.7406, 11.6323, 10.3443, 112.452, -53.373
10.088, 104, 38.418, 28.9245, 11.6426, 10.4472, 112.517, -53.1448
10.096, 104, 38.4853, 29.108, 11.6527, 10.551, 112.582, -52.9168
10.105, 104, 38.5522, 29.2917, 11.6629, 10.6558, 112.647, -52.689
10.111, 104, 38.6188, 29.4759, 11.6728, 10.7611, 112.712, -52.4615
10.12, 104, 38.6849, 29.66, 11.6826, 10.8674, 112.777, -52.2344
10.129, 104, 38.7506, 29.8436, 11.6924, 10.9744, 112.84, -52.0079
10.136, 104, 38.8158, 30.0276, 11.7022, 11.0824, 112.905, -51.7817
10.144, 104, 38.8806, 30.2122, 11.7117, 11.1912, 112.968, -51.5553
10.1521, 104, 38.9449, 30.3967, 11.7212, 11.3007, 113.032, -51.3294
10.16, 104, 39.0086, 30.5803, 11.7306, 11.411, 113.095, -51.1038
10.168, 104, 39.071, 30.7624, 11.7399, 11.5219, 113.158, -50.8791
10.1761, 104, 39.1316, 30.9419, 11.7486, 11.6329, 113.222, -50.6554
10.184, 104, 39.1898, 31.1159, 11.7569, 11.7434, 113.283, -50.4344
10.192, 104, 39.2455, 31.2822, 11.7646, 11.852, 113.344, -50.2184
10.2001, 104, 39.2989, 31.4406, 11.7717, 11.9572, 113.402, -50.0106
10.208, 104, 39.3493, 31.5896, 11.7781, 12.057, 113.457, -49.8147
10.216, 104, 39.3963, 31.7271, 11.784, 12.1495, 113.508, -49.6343
10.2241, 104, 39.4394, 31.8528, 11.7896, 12.2331, 113.552, -49.4726
10.232, 104, 39.4783, 31.9661, 11.7948, 12.3056, 113.591, -49.3316
10.24, 104, 39.5128, 32.0662, 11.7997, 12.3679, 113.624, -49.2124
10.2481, 104, 39.5422, 32.1517, 11.8043, 12.4183, 113.651, -49.1149
10.2551, 104, 39.5668, 32.2228, 11.8085, 12.4579, 113.672, -49.0377
10.2632, 104, 39.5869, 32.2808, 11.8124, 12.4884, 113.687, -48.9795
10.2712, 104, 39.6023, 32.3269, 11.8159, 12.5109, 113.698, -48.9373
10.2793, 104, 39.6135, 32.3622, 11.8188, 12.5265, 113.706, -48.9084
10.2875, 104, 39.6213, 32.388, 11.8212, 12.5367, 113.71, -48.8893
10.2953, 104, 39.6265, 32.4066, 11.8231, 12.5431, 113.713, -48.8779
10.3035, 104, 39.6302, 32.4193, 11.8246, 12.5467, 113.715, -48.8717
10.3121, 105, 39.6328, 32.4272, 11.8257, 12.5486, 113.715, -48.8687
10.3201, 105, 39.6337, 32.432, 11.8265, 12.5495, 113.716, -48.8673
10.3275, 105, 39.6333, 32.4347, 11.8271, 12.5499, 113.716, -48.8666
10.3361, 105, 39.6326, 32.4364, 11.8276, 12.5501, 113.716, -48.8663
10.3442, 105, 39.6318, 32.4375, 11.828, 12.5501, 113.716, -48.8662
10.3515, 105, 39.6315, 32.438, 11.8282, 12.5502, 113.716, -48.8663
10.36, 105, 39.6312, 32.4395, 11.8288, 12.5501, 113.716, -48.8664
10.367, 105, 39.6312, 32.4401, 11.8291, 12.5501, 113.716, -48.8665
10.3761, 105, 39.6318, 32.4414, 11.8297, 12.5502, 113.716, -48.8666
10.383, 105, 39.6321, 32.4418, 11.8299, 12.5501, 113.716, -48.8667
10.3922, 105, 39.6331, 32.4428, 11.8304, 12.5502, 113.716, -48.8668
10.399, 105, 39.6334, 32.443, 11.8305, 12.5502, 113.716, -48.8669
10.4082, 105, 39.6347, 32.4436, 11.8307, 12.5501, 113.716, -48.867
10.415, 105, 39.6352, 32.4438, 11.8308, 12.5501, 113.716, -48.867
10.4244, 105, 39.6366, 32.444, 11.8308, 12.5501, 113.716, -48.867
10.4331, 105, 39.6372, 32.4441, 11.8309, 12.5502, 113.716, -48.8671
