rpiRobotics/ARM-21-02-F-19-Robot-Motion-Program/data_performance_abb/curve_2/baseline/100L/realrobot/bisect/run_1realrobot_curve_exe_v400_z10.csv
timestamp, cmd_num, J1, J2, J3, J4, J5, J6
0.000451, -1, 39.6329, 32.4443, 11.8321, 12.5483, 113.716, -48.8695
0.004342, -1, 39.6329, 32.4443, 11.8321, 12.5483, 113.716, -48.8695
0.008565, -1, 39.6329, 32.4443, 11.8321, 12.5483, 113.716, -48.8695
0.02953, -1, 39.6329, 32.4443, 11.8321, 12.5483, 113.716, -48.8695
0.031623, -1, 39.6329, 32.4443, 11.8321, 12.5483, 113.716, -48.8696
0.034698, -1, 39.6329, 32.4443, 11.8321, 12.5483, 113.716, -48.8695
0.039416, -1, 39.6329, 32.4443, 11.8321, 12.5483, 113.716, -48.8695
0.047532, -1, 39.6328, 32.4443, 11.8321, 12.5483, 113.716, -48.8695
0.055492, -1, 39.6315, 32.4441, 11.8321, 12.5483, 113.716, -48.8695
0.063442, -1, 39.6277, 32.4432, 11.8321, 12.5483, 113.716, -48.8696
0.071529, -1, 39.6207, 32.4411, 11.832, 12.5483, 113.716, -48.8705
0.079575, -1, 39.6097, 32.437, 11.832, 12.5483, 113.715, -48.8734
0.087753, -1, 39.5935, 32.4301, 11.832, 12.5483, 113.712, -48.8803
0.095509, -1, 39.5695, 32.4195, 11.8321, 12.5483, 113.707, -48.8956
0.10358, -1, 39.5361, 32.4045, 11.8333, 12.5483, 113.698, -48.9219
0.112035, -1, 39.4925, 32.3838, 11.8367, 12.5483, 113.683, -48.9631
0.119425, -1, 39.437, 32.3567, 11.8433, 12.5483, 113.66, -49.0235
0.12767, -1, 39.3684, 32.3226, 11.8538, 12.5483, 113.628, -49.1063
0.136253, -1, 39.2863, 32.2808, 11.8691, 12.5484, 113.586, -49.2127
0.143464, -1, 39.1903, 32.2313, 11.8894, 12.5488, 113.535, -49.3451
0.151646, -1, 39.0804, 32.1738, 11.914, 12.5495, 113.472, -49.5024
0.160434, -1, 38.9565, 32.1086, 11.9428, 12.5507, 113.401, -49.6838
0.16777, -1, 38.8198, 32.0365, 11.9753, 12.5524, 113.321, -49.8863
0.175807, -1, 38.6713, 31.9581, 12.0105, 12.5543, 113.234, -50.1069
0.184645, -1, 38.5118, 31.8742, 12.0476, 12.5565, 113.141, -50.3414
0.191872, -1, 38.3435, 31.7859, 12.0859, 12.5589, 113.044, -50.586
0.200484, -1, 38.1681, 31.694, 12.1249, 12.5612, 112.945, -50.8374
0.208766, -1, 37.987, 31.5996, 12.1639, 12.5636, 112.844, -51.0928
0.215936, -1, 37.8013, 31.5034, 12.2028, 12.566, 112.742, -51.3506
0.224562, -1, 37.6124, 31.406, 12.2416, 12.5685, 112.64, -51.6097
0.232863, -1, 37.517, 31.3571, 12.2803, 12.5709, 112.537, -51.8693
0.240398, -1, 37.2294, 31.2101, 12.3192, 12.5733, 112.434, -52.129
0.247405, -1, 37.1334, 31.1612, 12.3386, 12.5745, 112.383, -52.2589
0.255395, -1, 36.9411, 31.0635, 12.3774, 12.5772, 112.28, -52.519
0.263505, -1, 36.7492, 30.9657, 12.4162, 12.5798, 112.177, -52.7794
0.2714, -1, 36.5575, 30.868, 12.455, 12.5824, 112.074, -53.0398
0.279406, -1, 36.366, 30.7703, 12.4939, 12.585, 111.971, -53.3001
0.287436, -1, 36.1746, 30.6725, 12.5327, 12.5875, 111.868, -53.5605
0.295467, -1, 35.9831, 30.5746, 12.5716, 12.5901, 111.765, -53.8212
0.303394, -1, 35.7916, 30.4767, 12.6106, 12.5927, 111.662, -54.0818
0.311444, -1, 35.5998, 30.3787, 12.6495, 12.5952, 111.559, -54.342
0.321728, -1, 35.3117, 30.2313, 12.7077, 12.5992, 111.404, -54.7327
0.327464, -1, 35.2155, 30.1822, 12.7271, 12.6005, 111.353, -54.863
0.336969, -1, 34.9268, 30.0346, 12.7854, 12.6044, 111.198, -55.2541
0.343398, -1, 34.8307, 29.9854, 12.8049, 12.6058, 111.147, -55.3844
0.351469, -1, 34.6385, 29.8869, 12.8436, 12.6083, 111.043, -55.6451
0.361155, -1, 34.4462, 29.7885, 12.9021, 12.6121, 110.889, -56.0364
0.367391, -1, 34.254, 29.6901, 12.9216, 12.6135, 110.837, -56.1669
0.376387, -1, 34.062, 29.5919, 12.9605, 12.6161, 110.734, -56.4277
0.383392, -1, 33.8702, 29.4936, 12.9995, 12.6187, 110.631, -56.6884
0.391407, -1, 33.6785, 29.3954, 13.0383, 12.6214, 110.528, -56.9493
0.399457, -1, 33.4864, 29.2971, 13.0772, 12.624, 110.425, -57.2104
0.407421, -1, 33.294, 29.1987, 13.1162, 12.6267, 110.322, -57.4716
0.415481, -1, 33.1013, 29.1001, 13.1551, 12.6294, 110.219, -57.7326
0.423392, -1, 32.9085, 29.0016, 13.1939, 12.632, 110.116, -57.9936
0.431401, -1, 32.7154, 28.903, 13.2328, 12.6347, 110.013, -58.2549
0.43947, -1, 32.5219, 28.8044, 13.2717, 12.6374, 109.909, -58.5162
0.447399, -1, 32.3282, 28.7057, 13.3105, 12.6401, 109.806, -58.7772
0.455389, -1, 32.1341, 28.607, 13.3494, 12.6428, 109.703, -59.0383
0.463533, -1, 31.9401, 28.5082, 13.3883, 12.6455, 109.6, -59.2995
0.47137, -1, 31.7462, 28.4094, 13.4272, 12.6482, 109.497, -59.561
0.611619, -1, 28.3654, 26.6821, 14.1088, 12.6948, 107.69, -64.1379
0.612899, -1, 28.3654, 26.6821, 14.1088, 12.6948, 107.69, -64.1379
0.614182, -1, 28.3654, 26.6821, 14.1088, 12.6948, 107.69, -64.1379
0.61631, -1, 28.2687, 26.6328, 14.1283, 12.696, 107.639, -64.2687
0.617658, -1, 28.2687, 26.6328, 14.1283, 12.696, 107.639, -64.2687
0.619723, -1, 28.172, 26.5834, 14.1477, 12.6972, 107.587, -64.3994
0.620925, -1, 28.172, 26.5834, 14.1477, 12.6972, 107.587, -64.3994
0.624261, -1, 28.0755, 26.534, 14.1672, 12.6985, 107.535, -64.5303
0.762876, -1, 24.7899, 24.8541, 14.8294, 12.7379, 105.78, -68.9797
0.764908, -1, 24.6935, 24.8048, 14.8488, 12.7392, 105.728, -69.1106
0.766216, -1, 24.6935, 24.8048, 14.8488, 12.7392, 105.728, -69.1106
0.767394, -1, 24.6935, 24.8048, 14.8488, 12.7392, 105.728, -69.1106
0.770218, -1, 24.5973, 24.7553, 14.8683, 12.7404, 105.677, -69.2414
0.771467, -1, 24.5973, 24.7553, 14.8683, 12.7404, 105.677, -69.2414
0.773444, -1, 24.5011, 24.7059, 14.8878, 12.7416, 105.625, -69.3723
0.776606, -1, 24.4049, 24.6564, 14.9073, 12.7427, 105.573, -69.5032
0.77892, -1, 24.4049, 24.6564, 14.9073, 12.7427, 105.573, -69.5032
0.78095, -1, 24.3088, 24.607, 14.9269, 12.744, 105.522, -69.634
0.782178, -1, 24.3088, 24.607, 14.9269, 12.744, 105.522, -69.634
0.783442, -1, 24.3088, 24.607, 14.9269, 12.744, 105.522, -69.634
0.785451, -1, 24.2126, 24.5576, 14.9464, 12.7452, 105.47, -69.7647
0.786875, -1, 24.2126, 24.5576, 14.9464, 12.7452, 105.47, -69.7647
0.788716, -1, 24.1164, 24.5082, 14.9659, 12.7463, 105.419, -69.8955
0.793777, -1, 24.02, 24.4588, 14.9854, 12.7475, 105.367, -70.0262
0.795108, -1, 24.02, 24.4588, 14.9854, 12.7475, 105.367, -70.0262
0.797166, -1, 23.9236, 24.4094, 15.0049, 12.7486, 105.315, -70.157
0.798392, -1, 23.9236, 24.4094, 15.0049, 12.7486, 105.315, -70.157
0.799734, -1, 23.9236, 24.4094, 15.0049, 12.7486, 105.315, -70.157
0.802516, -1, 23.8271, 24.3599, 15.0243, 12.7499, 105.263, -70.2879
0.803726, -1, 23.8271, 24.3599, 15.0243, 12.7499, 105.263, -70.2879
0.807307, -1, 23.7307, 24.3105, 15.0437, 12.7511, 105.212, -70.4187
0.809357, -1, 23.6342, 24.2611, 15.0632, 12.7523, 105.16, -70.5496
0.810551, -1, 23.6342, 24.2611, 15.0632, 12.7523, 105.16, -70.5496
0.811804, -1, 23.6342, 24.2611, 15.0632, 12.7523, 105.16, -70.5496
0.813772, -1, 23.5376, 24.2117, 15.0826, 12.7534, 105.108, -70.6805
0.815129, -1, 23.5376, 24.2117, 15.0826, 12.7534, 105.108, -70.6805
0.817799, -1, 23.441, 24.1623, 15.1021, 12.7546, 105.056, -70.8114
0.819078, -1, 23.441, 24.1623, 15.1021, 12.7546, 105.056, -70.8114
0.821699, -1, 23.3442, 24.1128, 15.1216, 12.7559, 105.005, -70.9421
0.822889, -1, 23.3442, 24.1128, 15.1216, 12.7559, 105.005, -70.9421
0.824759, -1, 23.2473, 24.0634, 15.141, 12.7571, 104.953, -71.073
0.826981, -1, 23.2473, 24.0634, 15.141, 12.7571, 104.953, -71.073
0.828828, -1, 23.1503, 24.014, 15.1604, 12.7583, 104.901, -71.2039
0.830281, -1, 23.1503, 24.014, 15.1604, 12.7583, 104.901, -71.2039
0.831545, -1, 23.1503, 24.014, 15.1604, 12.7583, 104.901, -71.2039
0.84207, -1, 22.8592, 23.8657, 15.2188, 12.7619, 104.746, -71.5966
0.849934, -1, 22.6652, 23.7669, 15.2578, 12.7644, 104.643, -71.8584
0.857021, -1, 22.4714, 23.6683, 15.2968, 12.7669, 104.54, -72.1198
0.863391, -1, 22.3746, 23.619, 15.3163, 12.7682, 104.488, -72.2505
0.872356, -1, 22.1812, 23.5203, 15.3552, 12.7707, 104.385, -72.512
0.879376, -1, 21.9881, 23.4216, 15.3942, 12.7734, 104.281, -72.7736
0.88837, -1, 21.7953, 23.3229, 15.4332, 12.776, 104.178, -73.0352
0.896383, -1, 21.603, 23.2241, 15.4721, 12.7787, 104.075, -73.2965
0.903381, -1, 21.4109, 23.1254, 15.511, 12.7814, 103.972, -73.5579
0.911446, -1, 21.2186, 23.0267, 15.55, 12.784, 103.869, -73.8194
0.919409, -1, 21.0263, 22.9281, 15.589, 12.7868, 103.766, -74.0808
0.927372, -1, 20.8338, 22.8294, 15.6279, 12.7894, 103.663, -74.342
0.935399, -1, 20.6412, 22.7309, 15.6669, 12.7922, 103.559, -74.6031
0.943379, -1, 20.4484, 22.6323, 15.7058, 12.7949, 103.456, -74.8644
0.951379, -1, 20.2549, 22.5336, 15.7447, 12.7976, 103.353, -75.1258
0.959435, -1, 20.0611, 22.4349, 15.7837, 12.8003, 103.25, -75.3869
0.967432, -1, 19.8674, 22.3362, 15.8224, 12.8031, 103.147, -75.6481
0.975403, -1, 19.6738, 22.2376, 15.8612, 12.8057, 103.044, -75.9092
0.983443, -1, 19.4802, 22.139, 15.9002, 12.8085, 102.941, -76.1707
0.991369, -1, 19.2869, 22.0403, 15.9391, 12.8112, 102.838, -76.4316
0.99938, -1, 19.094, 21.9417, 15.978, 12.8139, 102.735, -76.6925
1.00743, -1, 18.9013, 21.8431, 16.017, 12.8166, 102.632, -76.9533
1.01536, -1, 18.709, 21.7443, 16.0557, 12.8193, 102.529, -77.2144
1.02339, -1, 18.5171, 21.6457, 16.0946, 12.8219, 102.426, -77.4753
1.03144, -1, 18.3253, 21.5472, 16.1335, 12.8246, 102.323, -77.7361
1.03947, -1, 18.1334, 21.4487, 16.1723, 12.8271, 102.22, -77.9968
1.04748, -1, 17.9416, 21.3503, 16.2112, 12.8296, 102.118, -78.2576
1.05537, -1, 17.7497, 21.252, 16.2502, 12.8321, 102.015, -78.5182
1.06342, -1, 17.5575, 21.1537, 16.289, 12.8346, 101.912, -78.7787
1.07171, -1, 17.3649, 21.0554, 16.3279, 12.8371, 101.809, -79.0391
1.07949, -1, 17.1718, 20.957, 16.3667, 12.8395, 101.706, -79.2997
1.08746, -1, 16.9787, 20.8588, 16.4055, 12.8418, 101.603, -79.5604
1.09592, -1, 16.7856, 20.7605, 16.4443, 12.8441, 101.5, -79.8207
1.10349, -1, 16.5925, 20.6624, 16.483, 12.8464, 101.397, -80.0812
1.11148, -1, 16.3995, 20.5641, 16.5217, 12.8487, 101.295, -80.3418
1.12009, -1, 16.2069, 20.4658, 16.5605, 12.8509, 101.192, -80.6025
1.12843, -1, 16.0148, 20.3674, 16.5993, 12.8533, 101.089, -80.8628
1.13547, -1, 15.823, 20.2689, 16.6381, 12.8556, 100.987, -81.1229
1.14423, -1, 15.6315, 20.1705, 16.6768, 12.8579, 100.884, -81.3829
1.15148, -1, 15.4403, 20.0721, 16.7154, 12.8603, 100.781, -81.6431
1.15957, -1, 15.2492, 19.9739, 16.7542, 12.8625, 100.679, -81.9032
1.16845, -1, 15.0582, 19.8757, 16.7929, 12.8648, 100.576, -82.1629
1.17566, -1, 14.867, 19.7775, 16.8316, 12.8671, 100.474, -82.4228
1.18378, -1, 14.6756, 19.6795, 16.8704, 12.8694, 100.371, -82.6828
1.19273, -1, 14.4839, 19.5814, 16.9091, 12.8716, 100.268, -82.9428
1.19986, -1, 14.2918, 19.4833, 16.9478, 12.8739, 100.166, -83.2024
1.20846, -1, 14.0994, 19.3853, 16.9866, 12.8761, 100.063, -83.4618
1.21673, -1, 13.907, 19.2874, 17.0252, 12.8785, 99.9608, -83.7215
1.22396, -1, 13.7145, 19.1896, 17.0638, 12.8808, 99.8584, -83.9811
1.23247, -1, 13.5219, 19.0917, 17.1025, 12.8831, 99.7557, -84.2406
1.24085, -1, 13.4257, 19.0427, 17.1219, 12.8842, 99.6532, -84.4999
1.24801, -1, 13.2338, 18.9449, 17.1603, 12.8866, 99.6022, -84.7592
1.25541, -1, 13.0423, 18.847, 17.199, 12.8889, 99.4998, -84.889
1.26501, -1, 12.7555, 18.7, 17.2569, 12.8924, 99.3462, -85.2778
1.27242, -1, 12.5647, 18.6022, 17.2954, 12.8949, 99.244, -85.5367
1.27941, -1, 12.4694, 18.5533, 17.3148, 12.8961, 99.1928, -85.6662
1.28737, -1, 12.2793, 18.4555, 17.3534, 12.8985, 99.0905, -85.9251
1.2954, -1, 12.0891, 18.3578, 17.3919, 12.9009, 98.9886, -86.1842
1.30344, -1, 11.8988, 18.2602, 17.4305, 12.9033, 98.8864, -86.443
1.31137, -1, 11.7084, 18.1626, 17.4691, 12.9057, 98.7844, -86.7015
1.32082, -1, 11.422, 18.0162, 17.5268, 12.9094, 98.6317, -87.0894
1.32736, -1, 11.3264, 17.9674, 17.5462, 12.9107, 98.5807, -87.2188
1.3369, -1, 11.0393, 17.8211, 17.604, 12.9144, 98.4279, -87.6063
1.34495, -1, 10.8477, 17.7237, 17.6425, 12.9169, 98.3259, -87.8645
1.35145, -1, 10.7518, 17.675, 17.6618, 12.9181, 98.2748, -87.9936
1.35937, -1, 10.5601, 17.5775, 17.7002, 12.9207, 98.1729, -88.252
1.36889, -1, 10.3689, 17.48, 17.7386, 12.9233, 98.0711, -88.5103
1.37695, -1, 10.1779, 17.3825, 17.7771, 12.9258, 97.9691, -88.7683
1.38338, -1, 9.98729, 17.2848, 17.8155, 12.9285, 97.8674, -89.0264
1.39142, -1, 9.79699, 17.1873, 17.8538, 12.9311, 97.7654, -89.2844
1.39935, -1, 9.6071, 17.0899, 17.8922, 12.9339, 97.6635, -89.5426
1.40737, -1, 9.41778, 16.9925, 17.9305, 12.9366, 97.5618, -89.8002
1.41545, -1, 9.22852, 16.8952, 17.9689, 12.9393, 97.4597, -90.0579
1.42337, -1, 9.0392, 16.7979, 18.0073, 12.9419, 97.3579, -90.3154
1.43146, -1, 8.84976, 16.7007, 18.0456, 12.9446, 97.2564, -90.573
1.43935, -1, 8.66017, 16.6036, 18.084, 12.9472, 97.1545, -90.8305
1.44736, -1, 8.47054, 16.5064, 18.1224, 12.9499, 97.0528, -91.0876
1.45543, -1, 8.28052, 16.4094, 18.1607, 12.9525, 96.9515, -91.3447
1.46336, -1, 8.09001, 16.3125, 18.199, 12.9551, 96.8498, -91.6019
1.47149, -1, 7.89942, 16.2156, 18.2373, 12.9577, 96.7483, -91.8589
1.47943, -1, 7.70884, 16.1188, 18.2756, 12.9604, 96.647, -92.1157
1.48735, -1, 7.51825, 16.0218, 18.3139, 12.9629, 96.5454, -92.3724
1.49536, -1, 7.32795, 15.9249, 18.3522, 12.9655, 96.4441, -92.6292
1.50344, -1, 7.13791, 15.828, 18.3902, 12.968, 96.3428, -92.8861
1.51135, -1, 6.94832, 15.731, 18.4286, 12.9705, 96.2413, -93.1425
1.51937, -1, 6.75912, 15.6341, 18.4668, 12.973, 96.1403, -93.3989
1.52742, -1, 6.57043, 15.5373, 18.5047, 12.9755, 96.0395, -93.6553
1.53535, -1, 6.38212, 15.4405, 18.5429, 12.9781, 95.9384, -93.9117
1.54343, -1, 6.19406, 15.3438, 18.5811, 12.9806, 95.8375, -94.1679
1.55142, -1, 6.00595, 15.2471, 18.6192, 12.9829, 95.7366, -94.4238
1.55942, -1, 5.81766, 15.1504, 18.6574, 12.9852, 95.6357, -94.6798
1.56774, -1, 5.62923, 15.0537, 18.6955, 12.9876, 95.5349, -94.9358
1.57635, -1, 5.44057, 14.9572, 18.7336, 12.9899, 95.4341, -95.1917
1.58348, -1, 5.25164, 14.8607, 18.7718, 12.9921, 95.3333, -95.4471
1.59187, -1, 5.06226, 14.7644, 18.8099, 12.9944, 95.2327, -95.7026
1.60019, -1, 4.87277, 14.6681, 18.8478, 12.9966, 95.132, -95.958
1.60745, -1, 4.68331, 14.5717, 18.886, 12.9988, 95.0312, -96.2134
1.61611, -1, 4.49387, 14.4754, 18.9241, 13.0009, 94.9306, -96.4683
1.62466, -1, 4.30473, 14.3791, 18.9621, 13.0032, 94.8297, -96.7233
1.63138, -1, 4.1159, 14.2827, 19.0001, 13.0054, 94.7288, -96.9784
1.64025, -1, 3.9276, 14.1864, 19.038, 13.0077, 94.6281, -97.2334
1.6474, -1, 3.73991, 14.0902, 19.076, 13.0099, 94.5271, -97.4883
1.6555, -1, 3.55251, 13.994, 19.1139, 13.0122, 94.4263, -97.7431
1.6639, -1, 3.36548, 13.8979, 19.1517, 13.0145, 94.3259, -97.9977
1.67156, -1, 3.17856, 13.8019, 19.1895, 13.0168, 94.2251, -98.2525
1.67964, -1, 2.99167, 13.7059, 19.2275, 13.019, 94.1244, -98.5072
1.68786, -1, 2.8047, 13.6098, 19.2654, 13.0213, 94.024, -98.7614
1.69716, -1, 2.6175, 13.5138, 19.3033, 13.0235, 93.9234, -99.0156
1.70385, -1, 2.43021, 13.4179, 19.3412, 13.0258, 93.823, -99.2696
1.71244, -1, 2.24262, 13.3221, 19.3789, 13.0281, 93.7227, -99.5237
1.71991, -1, 2.05452, 13.2263, 19.4168, 13.0303, 93.6223, -99.7773
1.72788, -1, 1.86634, 13.1305, 19.4546, 13.0325, 93.5222, -100.031
1.73645, -1, 1.67811, 13.0347, 19.4923, 13.0349, 93.4223, -100.285
1.74389, -1, 1.58398, 12.9868, 19.5112, 13.036, 93.3722, -100.538
1.75235, -1, 1.3019, 12.8431, 19.5679, 13.0394, 93.2222, -100.792
1.7594, -1, 1.20801, 12.7952, 19.5867, 13.0405, 93.1723, -100.918
1.76734, -1, 1.02065, 12.6995, 19.6245, 13.0429, 93.0722, -101.171
1.77644, -1, 0.740618, 12.5561, 19.6811, 13.0464, 92.9224, -101.551
1.78339, -1, 0.647459, 12.5083, 19.6999, 13.0476, 92.8726, -101.678
1.79134, -1, 0.461521, 12.4128, 19.7375, 13.0501, 92.7725, -101.931
1.79934, -1, 0.275906, 12.3175, 19.7752, 13.0526, 92.6728, -102.183
1.80906, -1, -0.00210538, 12.1745, 19.8314, 13.0563, 92.5237, -102.562
1.8176, -1, -0.18764, 12.0791, 19.8691, 13.0587, 92.4241, -102.815
1.82339, -1, -0.280491, 12.0315, 19.8879, 13.06, 92.3743, -102.941
1.83299, -1, -0.559442, 11.8888, 19.9443, 13.0637, 92.2253, -103.319
1.84089, -1, -0.745829, 11.7938, 19.9819, 13.0662, 92.1258, -103.571
1.8474, -1, -0.839069, 11.7462, 20.0007, 13.0674, 92.076, -103.697
1.85715, -1, -1.11909, 11.6037, 20.0568, 13.0712, 91.927, -104.075
1.86334, -1, -1.21252, 11.5561, 20.0755, 13.0724, 91.8773, -104.201
1.8714, -1, -1.3995, 11.4611, 20.1131, 13.075, 91.778, -104.453
1.88097, -1, -1.58628, 11.366, 20.1505, 13.0776, 91.679, -104.704
1.88733, -1, -1.77274, 11.2709, 20.1879, 13.0802, 91.5798, -104.956
1.89541, -1, -1.95879, 11.1759, 20.2254, 13.0827, 91.4806, -105.207
1.90334, -1, -2.14419, 11.081, 20.2628, 13.0854, 91.3816, -105.458
1.91134, -1, -2.32915, 10.986, 20.3002, 13.088, 91.2823, -105.709
1.91939, -1, -2.51386, 10.8912, 20.3376, 13.0907, 91.1832, -105.96
1.92734, -1, -2.69793, 10.7965, 20.3748, 13.0934, 91.0841, -106.211
1.9354, -1, -2.88173, 10.7017, 20.4122, 13.0961, 90.9849, -106.462
1.94334, -1, -3.06577, 10.607, 20.4496, 13.0986, 90.886, -106.712
1.95135, -1, -3.24998, 10.5124, 20.4868, 13.1012, 90.7871, -106.963
1.95951, -1, -3.43441, 10.4178, 20.524, 13.1037, 90.6882, -107.214
1.96733, -1, -3.61913, 10.3234, 20.5613, 13.1062, 90.5894, -107.464
1.9754, -1, -3.80398, 10.2291, 20.5985, 13.1087, 90.4906, -107.714
1.9834, -1, -3.98916, 10.1348, 20.6358, 13.1112, 90.3919, -107.964
1.99135, -1, -4.17455, 10.0404, 20.673, 13.1136, 90.2933, -108.214
1.99941, -1, -4.36018, 9.94612, 20.7101, 13.116, 90.1947, -108.464
2.00733, -1, -4.54562, 9.85177, 20.7474, 13.1183, 90.096, -108.713
2.0154, -1, -4.73082, 9.75753, 20.7846, 13.1206, 89.9976, -108.963
2.02334, -1, -4.91562, 9.66335, 20.8217, 13.1229, 89.8991, -109.212
2.03135, -1, -5.09976, 9.56932, 20.8588, 13.1253, 89.8006, -109.462
2.0394, -1, -5.28333, 9.47524, 20.896, 13.1275, 89.7024, -109.711
2.04736, -1, -5.46647, 9.3813, 20.933, 13.1299, 89.604, -109.96
2.05532, -1, -5.64914, 9.2874, 20.9701, 13.1322, 89.5056, -110.208
2.06341, -1, -5.83154, 9.19347, 21.0073, 13.1345, 89.4076, -110.457
2.07147, -1, -6.01398, 9.09957, 21.0442, 13.1368, 89.3093, -110.706
2.07941, -1, -6.19656, 9.00576, 21.0813, 13.1389, 89.2111, -110.955
2.08753, -1, -6.37939, 8.91206, 21.1183, 13.1412, 89.1134, -111.203
2.09567, -1, -6.56243, 8.81843, 21.1551, 13.1433, 89.0154, -111.451
2.10343, -1, -6.74573, 8.7248, 21.1919, 13.1455, 88.9173, -111.699
2.1115, -1, -6.92944, 8.63127, 21.2289, 13.1476, 88.8196, -111.948
2.11987, -1, -7.11341, 8.53766, 21.2658, 13.1497, 88.7216, -112.195
2.12832, -1, -7.29767, 8.44411, 21.3026, 13.1518, 88.6238, -112.443
2.13543, -1, -7.4816, 8.35049, 21.3396, 13.1539, 88.5261, -112.69
2.14431, -1, -7.66538, 8.257, 21.3763, 13.1561, 88.4285, -112.938
2.15142, -1, -7.84874, 8.16358, 21.4131, 13.1583, 88.3309, -113.185
2.15953, -1, -8.03153, 8.07019, 21.4499, 13.1606, 88.2337, -113.432
2.16837, -1, -8.21372, 7.97691, 21.4866, 13.1628, 88.1362, -113.679
2.17557, -1, -8.39529, 7.88366, 21.5233, 13.165, 88.0388, -113.926
2.18372, -1, -8.57644, 7.79046, 21.5602, 13.1673, 87.9416, -114.173
2.19259, -1, -8.7574, 7.69729, 21.597, 13.1696, 87.8441, -114.42
2.19975, -1, -8.93811, 7.60416, 21.6337, 13.1718, 87.7466, -114.666
2.20796, -1, -9.11909, 7.51108, 21.6704, 13.174, 87.6494, -114.913
2.21672, -1, -9.30029, 7.41819, 21.7071, 13.1764, 87.5521, -115.159
2.22387, -1, -9.48175, 7.32541, 21.7437, 13.1785, 87.4549, -115.405
2.23244, -1, -9.66349, 7.23258, 21.7804, 13.1807, 87.358, -115.651
2.24073, -1, -9.75447, 7.18622, 21.8169, 13.183, 87.2607, -115.897
2.24795, -1, -9.93683, 7.09353, 21.8351, 13.1841, 87.2122, -116.144
2.25595, -1, -10.1193, 7.00082, 21.8717, 13.1863, 87.0666, -116.39
2.2651, -1, -10.3933, 6.86164, 21.9266, 13.1896, 86.9693, -116.635
2.27239, -1, -10.5757, 6.7689, 21.9631, 13.1918, 86.8723, -116.88
2.27937, -1, -10.6668, 6.72254, 21.9814, 13.193, 86.8238, -117.003
2.28932, -1, -10.9394, 6.58361, 22.0361, 13.1966, 86.6783, -117.371
2.29534, -1, -11.0299, 6.53733, 22.0543, 13.1978, 86.6299, -117.494
2.30467, -1, -11.3004, 6.39865, 22.1091, 13.2015, 86.485, -117.861
2.31138, -1, -11.3903, 6.3524, 22.1273, 13.2027, 86.4366, -117.983
2.31937, -1, -11.5699, 6.25998, 22.1637, 13.2051, 86.3398, -118.228
2.32892, -1, -11.8389, 6.12139, 22.2185, 13.2088, 86.1951, -118.595
2.33767, -1, -12.0182, 6.02913, 22.2549, 13.2113, 86.0984, -118.839
2.34339, -1, -12.1078, 5.98303, 22.2731, 13.2125, 86.0501, -118.961
2.35293, -1, -12.3771, 5.84495, 22.3278, 13.2162, 85.9056, -119.328
2.35932, -1, -12.4671, 5.79893, 22.3459, 13.2175, 85.8574, -119.45
2.36738, -1, -12.6473, 5.70694, 22.3821, 13.2199, 85.7609, -119.694
2.37691, -1, -12.8279, 5.61503, 22.4184, 13.2224, 85.6169, -120.059
2.38436, -1, -13.009, 5.52315, 22.4548, 13.2249, 85.5689, -120.181
2.39146, -1, -13.1901, 5.43117, 22.4909, 13.2273, 85.4729, -120.425
2.40033, -1, -13.3714, 5.33919, 22.5272, 13.2298, 85.3769, -120.669
2.40837, -1, -13.5522, 5.24728, 22.5635, 13.2322, 85.2814, -120.912
2.41532, -1, -13.7327, 5.15541, 22.5996, 13.2348, 85.1855, -121.155
2.42415, -1, -13.9127, 5.06354, 22.6357, 13.2373, 85.0897, -121.398
2.43132, -1, -14.0918, 4.97179, 22.6719, 13.2399, 84.9943, -121.641
2.43932, -1, -14.2702, 4.88012, 22.708, 13.2424, 84.8984, -121.884
2.44812, -1, -14.4484, 4.78847, 22.7441, 13.245, 84.8028, -122.126
2.45532, -1, -14.6261, 4.69682, 22.7804, 13.2475, 84.7074, -122.369
2.46333, -1, -14.8038, 4.60529, 22.8164, 13.25, 84.6116, -122.611
2.4721, -1, -14.9814, 4.51381, 22.8525, 13.2525, 84.5159, -122.854
2.48038, -1, -15.1592, 4.42247, 22.8887, 13.2549, 84.4204, -123.096
2.48832, -1, -15.3374, 4.33118, 22.9248, 13.2574, 84.3247, -123.338
2.49633, -1, -15.516, 4.23987, 22.9607, 13.2597, 84.229, -123.579
2.50437, -1, -15.6951, 4.14861, 22.9968, 13.2619, 84.1336, -123.821
2.51238, -1, -15.8742, 4.05743, 23.0328, 13.2642, 84.0379, -124.063
2.52033, -1, -16.0535, 3.96617, 23.0687, 13.2664, 83.9423, -124.304
2.52731, -1, -16.2333, 3.87489, 23.1047, 13.2685, 83.8472, -124.546
2.53532, -1, -16.4129, 3.78371, 23.1406, 13.2707, 83.7516, -124.787
2.54471, -1, -16.5921, 3.69256, 23.1763, 13.2728, 83.6562, -125.029
2.5523, -1, -16.771, 3.60142, 23.2122, 13.2751, 83.5609, -125.27
2.55938, -1, -16.9491, 3.51039, 23.248, 13.2774, 83.4654, -125.511
2.56743, -1, -17.1263, 3.41941, 23.2838, 13.2795, 83.3702, -125.752
2.57535, -1, -17.303, 3.32852, 23.3197, 13.2817, 83.2751, -125.992
2.58349, -1, -17.4794, 3.23766, 23.3555, 13.2839, 83.1798, -126.233
2.59166, -1, -17.6556, 3.14689, 23.3912, 13.286, 83.0849, -126.473
2.59941, -1, -17.8315, 3.05629, 23.4272, 13.2881, 82.9902, -126.713
2.60748, -1, -18.0076, 2.96575, 23.463, 13.2902, 82.8953, -126.953
2.6158, -1, -18.1841, 2.87535, 23.4986, 13.2923, 82.8006, -127.194
2.62339, -1, -18.3607, 2.78494, 23.5344, 13.2944, 82.706, -127.434
2.63154, -1, -18.5379, 2.69459, 23.5701, 13.2965, 82.6113, -127.673
2.64082, -1, -18.7154, 2.60426, 23.6058, 13.2985, 82.5166, -127.913
2.64741, -1, -18.8932, 2.51391, 23.6415, 13.3005, 82.4222, -128.152
2.65546, -1, -19.0713, 2.42346, 23.6772, 13.3025, 82.3277, -128.392
2.66501, -1, -19.2496, 2.33307, 23.7127, 13.3046, 82.2332, -128.631
2.67232, -1, -19.4276, 2.2427, 23.7483, 13.3066, 82.1391, -128.87
2.6799, -1, -19.6051, 2.15231, 23.7839, 13.3087, 82.045, -129.109
2.68931, -1, -19.782, 2.06197, 23.8193, 13.3108, 81.9509, -129.348
2.69573, -1, -19.9582, 1.97173, 23.8548, 13.313, 81.8568, -129.587
2.70389, -1, -20.1337, 1.88151, 23.8904, 13.3152, 81.7628, -129.826
2.71337, -1, -20.3088, 1.79135, 23.9258, 13.3174, 81.6688, -130.064
2.71987, -1, -20.4835, 1.7013, 23.9613, 13.3196, 81.5746, -130.302
2.72849, -1, -20.6579, 1.61133, 23.9969, 13.3219, 81.4809, -130.541
2.73658, -1, -20.8324, 1.52142, 24.0324, 13.324, 81.3868, -130.779
2.74393, -1, -21.0072, 1.43161, 24.0678, 13.3262, 81.2931, -131.017
2.75255, -1, -21.1823, 1.3419, 24.1034, 13.3283, 81.1995, -131.255
2.75934, -1, -21.27, 1.29705, 24.1211, 13.3295, 81.1525, -131.374
2.76735, -1, -21.4457, 1.20739, 24.1564, 13.3316, 81.0586, -131.612
2.77667, -1, -21.7097, 1.07295, 24.2096, 13.3348, 80.9181, -131.968
2.78332, -1, -21.7978, 1.02813, 24.2274, 13.3359, 80.8711, -132.087
2.79332, -1, -22.0624, 0.89371, 24.2805, 13.3392, 80.7304, -132.443
2.7993, -1, -22.1507, 0.848937, 24.2982, 13.3403, 80.6837, -132.561
2.80871, -1, -22.4155, 0.714646, 24.3513, 13.3436, 80.543, -132.917
2.81537, -1, -22.5035, 0.669896, 24.3689, 13.3447, 80.4963, -133.035
2.82336, -1, -22.6792, 0.580371, 24.4042, 13.347, 80.4027, -133.272
2.83131, -1, -22.8543, 0.490941, 24.4395, 13.3494, 80.3091, -133.509
2.84081, -1, -23.1151, 0.356829, 24.4922, 13.3531, 80.1689, -133.864
2.84887, -1, -23.2887, 0.267513, 24.5274, 13.3556, 80.0756, -134.101
2.85693, -1, -23.4617, 0.178245, 24.5627, 13.358, 79.9821, -134.337
2.8633, -1, -23.5482, 0.133661, 24.5803, 13.3593, 79.9354, -134.456
2.87307, -1, -23.7214, 0.0445613, 24.6155, 13.3617, 79.7956, -134.81
2.87931, -1, -23.8948, -0.0444828, 24.6508, 13.364, 79.7491, -134.928
2.8883, -1, -24.0682, -0.133401, 24.6859, 13.3665, 79.6556, -135.164
2.89537, -1, -24.242, -0.222381, 24.7209, 13.369, 79.5626, -135.399
2.90331, -1, -24.416, -0.311312, 24.7561, 13.3714, 79.4697, -135.635
2.9123, -1, -24.5905, -0.400168, 24.7912, 13.3739, 79.3765, -135.87
2.91937, -1, -24.7652, -0.489102, 24.8263, 13.3762, 79.2834, -136.106
2.92734, -1, -24.9402, -0.577988, 24.8613, 13.3786, 79.1906, -136.342
2.93535, -1, -25.1153, -0.666852, 24.8965, 13.381, 79.0975, -136.577
2.94332, -1, -25.2901, -0.755636, 24.9315, 13.3834, 79.0046, -136.812
2.9513, -1, -25.4646, -0.844471, 24.9666, 13.3857, 78.9121, -137.047
2.95937, -1, -25.6386, -0.93324, 25.0016, 13.3882, 78.8192, -137.282
2.9673, -1, -25.8119, -1.0219, 25.0364, 13.3906, 78.7265, -137.516
2.97533, -1, -25.9845, -1.11064, 25.0714, 13.393, 78.6341, -137.751
2.98342, -1, -26.1568, -1.19926, 25.1064, 13.3955, 78.5415, -137.985
2.99135, -1, -26.3286, -1.2878, 25.1412, 13.3978, 78.449, -138.22
2.99931, -1, -26.5003, -1.37629, 25.1761, 13.4002, 78.3566, -138.455
3.00736, -1, -26.6722, -1.46465, 25.2111, 13.4024, 78.2642, -138.689
3.01531, -1, -26.8443, -1.55292, 25.246, 13.4047, 78.1717, -138.923
3.02331, -1, -27.0167, -1.6411, 25.2808, 13.4069, 78.0793, -139.157
3.03136, -1, -27.1891, -1.72928, 25.3157, 13.4091, 77.9873, -139.391
3.0393, -1, -27.3617, -1.81747, 25.3505, 13.4113, 77.895, -139.624
3.04738, -1, -27.5347, -1.90553, 25.3852, 13.4134, 77.8029, -139.858
3.05531, -1, -27.708, -1.99371, 25.4201, 13.4155, 77.711, -140.091
3.06337, -1, -27.8813, -2.08185, 25.455, 13.4176, 77.6189, -140.325
3.07143, -1, -28.0547, -2.16982, 25.4896, 13.4196, 77.5269, -140.558
3.07935, -1, -28.228, -2.25786, 25.5244, 13.4216, 77.4351, -140.791
3.08745, -1, -28.401, -2.34593, 25.5592, 13.4236, 77.3429, -141.024
3.09569, -1, -28.5737, -2.43391, 25.5939, 13.4257, 77.2507, -141.257
3.1034, -1, -28.7458, -2.52181, 25.6285, 13.4278, 77.1588, -141.49
3.11147, -1, -28.9172, -2.6098, 25.6633, 13.43, 77.0666, -141.723
3.11986, -1, -29.088, -2.69771, 25.6978, 13.4322, 76.9747, -141.956
3.12829, -1, -29.2584, -2.78551, 25.7324, 13.4343, 76.883, -142.188
3.13553, -1, -29.429, -2.87327, 25.7671, 13.4364, 76.791, -142.421
3.14408, -1, -29.5997, -2.96089, 25.8017, 13.4384, 76.6993, -142.653
3.15232, -1, -29.7707, -3.04847, 25.8362, 13.4404, 76.6076, -142.886
3.15945, -1, -29.9416, -3.136, 25.8708, 13.4425, 76.5158, -143.118
3.16744, -1, -30.1126, -3.22346, 25.9054, 13.4445, 76.4241, -143.35
3.17567, -1, -30.2836, -3.31096, 25.9399, 13.4466, 76.3324, -143.582
3.18355, -1, -30.4549, -3.39835, 25.9745, 13.4488, 76.241, -143.814
3.19167, -1, -30.6267, -3.48588, 26.009, 13.4507, 76.1492, -144.046
3.19974, -1, -30.7985, -3.57334, 26.0434, 13.4528, 76.0578, -144.277
3.20837, -1, -30.9704, -3.66067, 26.0779, 13.4547, 75.9666, -144.508
3.21591, -1, -31.1422, -3.74805, 26.1124, 13.4567, 75.875, -144.739
3.22445, -1, -31.3138, -3.83538, 26.1468, 13.4589, 75.7838, -144.971
3.23186, -1, -31.4849, -3.92269, 26.1812, 13.4609, 75.6927, -145.202
3.24039, -1, -31.6556, -4.00996, 26.2157, 13.4631, 75.6013, -145.433
3.24792, -1, -31.7408, -4.05358, 26.2329, 13.4653, 75.5101, -145.664
3.25583, -1, -31.9108, -4.14082, 26.2672, 13.4664, 75.4645, -145.779
3.26391, -1, -32.0804, -4.22807, 26.3016, 13.4686, 75.3735, -146.01
3.27239, -1, -32.3343, -4.35871, 26.3531, 13.4719, 75.2367, -146.357
3.27929, -1, -32.4191, -4.40226, 26.3703, 13.4729, 75.1912, -146.472
3.28839, -1, -32.6736, -4.53273, 26.4219, 13.4762, 75.055, -146.817
3.29529, -1, -32.7585, -4.57619, 26.4391, 13.4773, 75.0095, -146.933
3.30329, -1, -32.9281, -4.66312, 26.4733, 13.4794, 74.9188, -147.163
3.31261, -1, -33.1827, -4.79347, 26.5246, 13.4826, 74.7831, -147.508
3.31934, -1, -33.2676, -4.83688, 26.5418, 13.4838, 74.7376, -147.623
3.3273, -1, -33.4376, -4.92373, 26.5761, 13.4861, 74.647, -147.853
3.33678, -1, -33.6932, -5.05404, 26.6275, 13.4893, 74.5112, -148.198
3.34485, -1, -33.8635, -5.14078, 26.6618, 13.4916, 74.4204, -148.428
3.35284, -1, -34.0338, -5.22748, 26.6959, 13.4938, 74.3299, -148.657
3.36088, -1, -34.204, -5.31421, 26.73, 13.4961, 74.2396, -148.887
3.36891, -1, -34.374, -5.40085, 26.7644, 13.4983, 74.1489, -149.116
3.3769, -1, -34.459, -5.44418, 26.7815, 13.4995, 74.1036, -149.345
3.38329, -1, -34.6285, -5.53084, 26.8155, 13.5018, 74.013, -149.46
3.39231, -1, -34.7974, -5.61747, 26.8496, 13.5043, 73.9227, -149.689
3.39935, -1, -34.9659, -5.70404, 26.8838, 13.5067, 73.8321, -149.918
3.4073, -1, -35.1342, -5.79056, 26.9179, 13.5092, 73.7416, -150.147
3.41545, -1, -35.3025, -5.87703, 26.952, 13.5116, 73.6514, -150.376
3.42328, -1, -35.471, -5.96328, 26.9862, 13.514, 73.5609, -150.605
3.43132, -1, -35.6395, -6.04952, 27.0202, 13.5163, 73.4705, -150.834
3.44006, -1, -35.808, -6.13574, 27.0542, 13.5187, 73.3804, -151.063
3.44728, -1, -35.9765, -6.22185, 27.0883, 13.5211, 73.2898, -151.291
3.45528, -1, -36.145, -6.30795, 27.1224, 13.5235, 73.1995, -151.52
3.46409, -1, -36.3136, -6.39408, 27.1563, 13.5259, 73.1092, -151.748
3.47128, -1, -36.4825, -6.48031, 27.1902, 13.5282, 73.0189, -151.977
3.47928, -1, -36.6514, -6.56648, 27.2242, 13.5305, 72.9286, -152.205
3.49046, -1, -36.9048, -6.69572, 27.2751, 13.5339, 72.7935, -152.547
3.49531, -1, -36.9893, -6.73877, 27.2921, 13.5351, 72.7484, -152.661
3.50329, -1, -37.1581, -6.82495, 27.3261, 13.5373, 72.6581, -152.889
3.51136, -1, -37.3268, -6.91102, 27.36, 13.5395, 72.5682, -153.117
3.51928, -1, -37.4951, -6.99701, 27.3939, 13.5417, 72.4785, -153.344
3.52728, -1, -37.6629, -7.08301, 27.4279, 13.5441, 72.3885, -153.572
3.53536, -1, -37.8307, -7.16903, 27.4618, 13.5463, 72.2987, -153.799
3.54329, -1, -37.9982, -7.25493, 27.4956, 13.5485, 72.2091, -154.027
3.5513, -1, -38.1657, -7.34079, 27.5296, 13.5507, 72.1192, -154.254
3.55951, -1, -38.3331, -7.42656, 27.5635, 13.5529, 72.0295, -154.481
3.56728, -1, -38.5004, -7.51225, 27.5973, 13.5549, 71.9399, -154.709
3.57531, -1, -38.6676, -7.59794, 27.6313, 13.557, 71.8502, -154.936
3.5834, -1, -38.8349, -7.68358, 27.6652, 13.5591, 71.7606, -155.163
3.59137, -1, -39.0022, -7.76924, 27.6988, 13.5612, 71.6713, -155.39
3.59947, -1, -39.1697, -7.85488, 27.7326, 13.5632, 71.582, -155.617
3.60744, -1, -39.3372, -7.94057, 27.7665, 13.5651, 71.4926, -155.843
3.61538, -1, -39.5047, -8.02617, 27.8002, 13.5671, 71.4032, -156.07
3.62339, -1, -39.6724, -8.11168, 27.8338, 13.569, 71.3142, -156.297
3.63145, -1, -39.8401, -8.19718, 27.8676, 13.571, 71.2247, -156.523
3.63935, -1, -40.0077, -8.28265, 27.9013, 13.573, 71.1353, -156.75
3.64755, -1, -40.1752, -8.36799, 27.935, 13.5749, 71.0462, -156.976
3.65542, -1, -40.3426, -8.45332, 27.9687, 13.5768, 70.9567, -157.202
3.6634, -1, -40.5096, -8.53873, 28.0025, 13.5788, 70.8674, -157.428
3.67152, -1, -40.6765, -8.62407, 28.036, 13.5808, 70.7783, -157.654
3.67963, -1, -40.8432, -8.70944, 28.0696, 13.5828, 70.6891, -157.88
3.68834, -1, -41.0097, -8.79476, 28.1034, 13.5848, 70.6, -158.106
3.69603, -1, -41.1761, -8.88007, 28.1369, 13.5869, 70.5109, -158.332
3.70442, -1, -41.3423, -8.96525, 28.1704, 13.5889, 70.4219, -158.558
3.71172, -1, -41.5086, -9.05042, 28.2041, 13.5908, 70.3326, -158.783
3.72015, -1, -41.6748, -9.13554, 28.2377, 13.5928, 70.2433, -159.009
3.72781, -1, -41.8412, -9.22065, 28.2712, 13.5948, 70.1544, -159.234
3.73637, -1, -42.0076, -9.30562, 28.3049, 13.5968, 70.0652, -159.46
3.74434, -1, -42.1739, -9.39069, 28.3386, 13.5989, 69.9761, -159.685
3.75181, -1, -42.257, -9.43323, 28.3553, 13.5999, 69.8874, -159.91
3.76033, -1, -42.5065, -9.5607, 28.4056, 13.6029, 69.7983, -160.135
3.76795, -1, -42.5898, -9.60319, 28.4223, 13.6039, 69.7539, -160.248
3.77526, -1, -42.7561, -9.68811, 28.4558, 13.6058, 69.6651, -160.473
3.78433, -1, -43.0057, -9.81552, 28.5059, 13.6091, 69.5321, -160.811
3.79132, -1, -43.0888, -9.85798, 28.5227, 13.6101, 69.4876, -160.923
3.79941, -1, -43.255, -9.94293, 28.5562, 13.6121, 69.399, -161.148
3.80729, -1, -43.4211, -10.0279, 28.5896, 13.6142, 69.3104, -161.373
3.81662, -1, -43.6701, -10.1553, 28.6399, 13.6173, 69.1772, -161.71
3.82332, -1, -43.753, -10.1977, 28.6567, 13.6183, 69.133, -161.822
3.83127, -1, -43.9188, -10.2825, 28.69, 13.6206, 69.0446, -162.047
3.84095, -1, -44.1672, -10.4096, 28.7401, 13.6237, 68.9117, -162.383
3.84887, -1, -44.3325, -10.4943, 28.7736, 13.6259, 68.8231, -162.608
3.85681, -1, -44.4977, -10.5788, 28.8069, 13.6281, 68.7346, -162.832
3.86491, -1, -44.6628, -10.6633, 28.8403, 13.6304, 68.646, -163.056
3.87127, -1, -44.7453, -10.7055, 28.857, 13.6314, 68.6017, -163.168
3.88178, -1, -44.9106, -10.79, 28.8905, 13.6336, 68.5131, -163.504
3.88735, -1, -45.076, -10.8745, 28.9238, 13.6358, 68.4248, -163.616
3.89634, -1, -45.2412, -10.959, 28.9572, 13.638, 68.3362, -163.84
3.90429, -1, -45.4065, -11.0435, 28.9906, 13.6403, 68.2478, -164.064
3.91229, -1, -45.5718, -11.1279, 29.0238, 13.6425, 68.1595, -164.288
3.91932, -1, -45.7371, -11.2124, 29.057, 13.6449, 68.0713, -164.512
3.92734, -1, -45.9021, -11.2967, 29.0903, 13.6471, 67.9829, -164.736
3.93537, -1, -46.0652, -11.3799, 29.1237, 13.6493, 67.8945, -164.959
3.94326, -1, -46.2248, -11.4611, 29.1571, 13.6516, 67.807, -165.182
3.95126, -1, -46.3789, -11.5384, 29.1907, 13.6541, 67.7203, -165.4
3.95938, -1, -46.5252, -11.6112, 29.2237, 13.6564, 67.6365, -165.612
3.96726, -1, -46.6612, -11.6781, 29.255, 13.6586, 67.5583, -165.811
3.97528, -1, -46.7842, -11.738, 29.2833, 13.6607, 67.4867, -165.991
3.98332, -1, -46.8915, -11.7907, 29.3078, 13.6626, 67.4249, -166.147
3.99131, -1, -46.9825, -11.8368, 29.3274, 13.664, 67.3742, -166.276
3.99931, -1, -47.0576, -11.8769, 29.3412, 13.6651, 67.3348, -166.375
4.00733, -1, -47.1177, -11.9103, 29.3505, 13.6656, 67.3063, -166.447
4.01527, -1, -47.1634, -11.9362, 29.356, 13.6659, 67.2871, -166.495
4.02327, -1, -47.1968, -11.955, 29.3587, 13.6661, 67.2754, -166.525
4.03133, -1, -47.2197, -11.9677, 29.36, 13.6662, 67.2688, -166.541
4.03932, -1, -47.2342, -11.9756, 29.3606, 13.6662, 67.2653, -166.55
4.04727, -1, -47.2424, -11.9798, 29.3609, 13.6663, 67.2637, -166.554
4.05536, 2, -47.2462, -11.9818, 29.361, 13.6664, 67.2629, -166.556
4.06327, 2, -47.2471, -11.9827, 29.3612, 13.6664, 67.2626, -166.557
4.07127, 2, -47.2468, -11.983, 29.3613, 13.6664, 67.2624, -166.557
4.07942, 2, -47.2465, -11.9831, 29.3613, 13.6665, 67.2623, -166.557
4.08733, 2, -47.2466, -11.9832, 29.3614, 13.6665, 67.2622, -166.558
4.09537, 2, -47.2473, -11.9833, 29.3614, 13.6665, 67.2622, -166.558
4.10345, 2, -47.2483, -11.9837, 29.3614, 13.6665, 67.2623, -166.558
4.11145, 2, -47.2499, -11.9843, 29.3614, 13.6665, 67.2623, -166.558
4.11942, 2, -47.2517, -11.9851, 29.3614, 13.6665, 67.2623, -166.558
4.12743, 2, -47.2533, -11.986, 29.3615, 13.6665, 67.2623, -166.558
4.13528, 2, -47.2546, -11.9868, 29.3614, 13.6664, 67.2623, -166.558
4.1433, 2, -47.2554, -11.9873, 29.3614, 13.6665, 67.2623, -166.558
4.15136, 2, -47.2557, -11.9876, 29.3615, 13.6664, 67.2623, -166.558
4.1594, 2, -47.2559, -11.9878, 29.3615, 13.6664, 67.2623, -166.558
4.16736, 2, -47.2558, -11.9878, 29.3615, 13.6664, 67.2623, -166.558
4.17554, 2, -47.2554, -11.9878, 29.3615, 13.6664, 67.2623, -166.558
4.18382, 2, -47.2549, -11.9878, 29.3615, 13.6664, 67.2622, -166.558
4.19227, 2, -47.2544, -11.9877, 29.3615, 13.6664, 67.2622, -166.558
4.19973, 2, -47.254, -11.9877, 29.3615, 13.6665, 67.2623, -166.558
4.20811, 2, -47.2539, -11.9878, 29.3615, 13.6665, 67.2623, -166.558
4.21634, 2, -47.2538, -11.9879, 29.3615, 13.6664, 67.2623, -166.558
4.22387, 2, -47.254, -11.9881, 29.3615, 13.6664, 67.2623, -166.558
4.23243, 2, -47.2543, -11.9884, 29.3615, 13.6665, 67.2623, -166.558
4.23986, 2, -47.2549, -11.9887, 29.3615, 13.6665, 67.2623, -166.558
4.24835, 2, -47.2555, -11.989, 29.3615, 13.6664, 67.2623, -166.558
4.25612, 2, -47.2559, -11.9891, 29.3615, 13.6664, 67.2623, -166.558
4.26325, 2, -47.2559, -11.9892, 29.3615, 13.6664, 67.2623, -166.557
4.2723, 2, -47.2559, -11.9892, 29.3615, 13.6664, 67.2624, -166.558
4.28021, 2, -47.2558, -11.9892, 29.3615, 13.6664, 67.2623, -166.557
4.28725, 2, -47.2558, -11.9891, 29.3615, 13.6664, 67.2623, -166.557
4.29638, 2, -47.2551, -11.9891, 29.3615, 13.6664, 67.2623, -166.557
4.30325, 2, -47.2549, -11.9891, 29.3615, 13.6664, 67.2623, -166.557
4.31124, 2, -47.2546, -11.9891, 29.3615, 13.6664, 67.2623, -166.557
4.32059, 2, -47.2541, -11.9891, 29.3615, 13.6664, 67.2623, -166.558
4.3273, 2, -47.2541, -11.9891, 29.3615, 13.6664, 67.2623, -166.558
4.33526, 2, -47.254, -11.9891, 29.3615, 13.6664, 67.2623, -166.558
4.34477, 2, -47.2539, -11.9892, 29.3615, 13.6664, 67.2623, -166.557
4.35318, 2, -47.2539, -11.9893, 29.3615, 13.6665, 67.2623, -166.557
4.35935, 2, -47.2539, -11.9893, 29.3615, 13.6665, 67.2623, -166.557
4.36881, 2, -47.2539, -11.9893, 29.3615, 13.6664, 67.2623, -166.557
4.3771, 2, -47.2539, -11.9893, 29.3615, 13.6664, 67.2623, -166.557
4.38324, 2, -47.254, -11.9892, 29.3615, 13.6664, 67.2623, -166.557
4.39133, 2, -47.2539, -11.9892, 29.3615, 13.6664, 67.2624, -166.557
4.40125, 2, -47.2538, -11.9891, 29.3615, 13.6664, 67.2624, -166.557
4.40724, 2, -47.2538, -11.9891, 29.3615, 13.6664, 67.2624, -166.557
4.41533, 2, -47.2537, -11.9891, 29.3615, 13.6664, 67.2624, -166.557
4.42325, 2, -47.2536, -11.9891, 29.3615, 13.6664, 67.2624, -166.557
4.43124, 2, -47.2534, -11.9891, 29.3615, 13.6664, 67.2623, -166.557
4.43939, 2, -47.2533, -11.9891, 29.3615, 13.6664, 67.2624, -166.557
4.44724, 2, -47.2532, -11.9891, 29.3615, 13.6664, 67.2624, -166.557
4.45525, 2, -47.2532, -11.9892, 29.3615, 13.6664, 67.2624, -166.557
4.46331, 2, -47.2531, -11.9892, 29.3615, 13.6664, 67.2624, -166.557
4.47122, 2, -47.2531, -11.9892, 29.3615, 13.6664, 67.2624, -166.557
4.4793, 2, -47.253, -11.9891, 29.3615, 13.6664, 67.2624, -166.557
4.48732, 2, -47.2529, -11.9891, 29.3615, 13.6664, 67.2624, -166.557
4.49531, 2, -47.2528, -11.9891, 29.3615, 13.6664, 67.2624, -166.557
4.50324, 2, -47.2528, -11.989, 29.3615, 13.6664, 67.2624, -166.557
4.5113, 2, -47.2527, -11.989, 29.3615, 13.6664, 67.2624, -166.557
4.5193, 2, -47.2526, -11.9889, 29.3615, 13.6664, 67.2624, -166.557
4.52724, 2, -47.2525, -11.9889, 29.3615, 13.6664, 67.2624, -166.557
4.53532, 2, -47.2524, -11.9889, 29.3615, 13.6664, 67.2625, -166.557
4.54325, 2, -47.2523, -11.9889, 29.3615, 13.6664, 67.2625, -166.557
4.55125, 2, -47.2522, -11.9889, 29.3615, 13.6664, 67.2625, -166.557
4.55938, 2, -47.2521, -11.9889, 29.3615, 13.6663, 67.2625, -166.557
4.56724, 2, -47.252, -11.9889, 29.3615, 13.6664, 67.2624, -166.557
4.57526, 2, -47.2519, -11.9889, 29.3615, 13.6663, 67.2625, -166.557
4.58335, 2, -47.2518, -11.9889, 29.3615, 13.6663, 67.2625, -166.557
4.59132, 2, -47.2517, -11.9889, 29.3615, 13.6663, 67.2625, -166.557
4.59938, 2, -47.2516, -11.9888, 29.3615, 13.6664, 67.2625, -166.557
4.60749, 2, -47.2515, -11.9888, 29.3615, 13.6664, 67.2625, -166.557
4.61536, 2, -47.2513, -11.9887, 29.3615, 13.6663, 67.2625, -166.557
4.62335, 2, -47.2513, -11.9887, 29.3615, 13.6663, 67.2625, -166.557
4.63142, 2, -47.2511, -11.9887, 29.3615, 13.6663, 67.2625, -166.557
4.63935, 2, -47.251, -11.9887, 29.3615, 13.6663, 67.2626, -166.557
4.64727, 2, -47.2509, -11.9887, 29.3615, 13.6663, 67.2626, -166.557
4.65535, 2, -47.2508, -11.9887, 29.3615, 13.6663, 67.2626, -166.557
4.6636, 2, -47.2507, -11.9887, 29.3615, 13.6663, 67.2625, -166.557
4.67144, 2, -47.2506, -11.9887, 29.3615, 13.6663, 67.2626, -166.557
4.67952, 2, -47.2505, -11.9887, 29.3615, 13.6663, 67.2626, -166.557
4.68754, 2, -47.2505, -11.9887, 29.3615, 13.6663, 67.2626, -166.557
4.69562, 2, -47.2504, -11.9886, 29.3615, 13.6663, 67.2626, -166.557
4.70366, 2, -47.2504, -11.9886, 29.3615, 13.6663, 67.2627, -166.557
4.71183, 2, -47.2503, -11.9885, 29.3615, 13.6663, 67.2626, -166.557
4.72033, 2, -47.2502, -11.9884, 29.3615, 13.6663, 67.2627, -166.557
4.72784, 2, -47.2501, -11.9884, 29.3615, 13.6662, 67.2627, -166.557
4.7364, 2, -47.25, -11.9884, 29.3615, 13.6662, 67.2627, -166.557
4.74385, 2, -47.25, -11.9884, 29.3615, 13.6662, 67.2627, -166.557
4.75236, 2, -47.2499, -11.9884, 29.3615, 13.6662, 67.2627, -166.557
4.76013, 2, -47.2499, -11.9884, 29.3615, 13.6662, 67.2627, -166.557
4.76722, 2, -47.2498, -11.9884, 29.3615, 13.6662, 67.2627, -166.557
4.77533, 2, -47.2498, -11.9884, 29.3615, 13.6661, 67.2627, -166.557
4.78433, 2, -47.2498, -11.9884, 29.3615, 13.6661, 67.2627, -166.557
4.79127, 2, -47.2498, -11.9884, 29.3615, 13.6661, 67.2628, -166.556
4.79934, 2, -47.2498, -11.9883, 29.3615, 13.6661, 67.2627, -166.556
4.80879, 2, -47.2497, -11.9882, 29.3615, 13.6661, 67.2627, -166.556
4.81657, 2, -47.2496, -11.9882, 29.3615, 13.6661, 67.2627, -166.556
4.82328, 2, -47.2496, -11.9881, 29.3615, 13.6661, 67.2628, -166.556
4.83276, 2, -47.2494, -11.9881, 29.3615, 13.666, 67.2628, -166.556
4.84078, 2, -47.2494, -11.9881, 29.3615, 13.666, 67.2628, -166.556
4.84875, 2, -47.2493, -11.988, 29.3615, 13.666, 67.2628, -166.556
4.85713, 2, -47.2492, -11.988, 29.3615, 13.666, 67.2628, -166.556
4.86322, 2, -47.2492, -11.988, 29.3615, 13.666, 67.2628, -166.556
4.87279, 2, -47.2491, -11.988, 29.3615, 13.666, 67.2629, -166.556
4.88094, 2, -47.2491, -11.988, 29.3615, 13.666, 67.2629, -166.556
4.88823, 2, -47.2491, -11.988, 29.3615, 13.666, 67.2629, -166.556
4.89622, 2, -47.2491, -11.988, 29.3615, 13.666, 67.2629, -166.556
4.90427, 2, -47.2491, -11.988, 29.3615, 13.666, 67.2629, -166.556
4.91122, 2, -47.249, -11.9879, 29.3615, 13.666, 67.2629, -166.556
4.91942, 2, -47.249, -11.9878, 29.3615, 13.666, 67.2629, -166.556
4.92827, 2, -47.2489, -11.9878, 29.3615, 13.6659, 67.2629, -166.556
4.93628, 2, -47.2489, -11.9878, 29.3615, 13.6659, 67.263, -166.556
4.94333, 2, -47.2488, -11.9877, 29.3615, 13.6659, 67.263, -166.556
4.95122, 2, -47.2487, -11.9877, 29.3615, 13.6659, 67.263, -166.556
4.9593, 2, -47.2486, -11.9877, 29.3615, 13.6658, 67.263, -166.556
4.96729, 2, -47.2486, -11.9877, 29.3615, 13.6659, 67.263, -166.556
4.97532, 2, -47.2485, -11.9877, 29.3615, 13.6659, 67.263, -166.556
4.98322, 2, -47.2485, -11.9877, 29.3615, 13.6659, 67.263, -166.556
4.99129, 2, -47.2484, -11.9877, 29.3615, 13.6658, 67.263, -166.556
4.99933, 2, -47.2484, -11.9877, 29.3615, 13.6658, 67.2631, -166.556
5.00722, 2, -47.2483, -11.9876, 29.3615, 13.6658, 67.263, -166.556
5.01531, 2, -47.2483, -11.9876, 29.3615, 13.6658, 67.2631, -166.556
5.02321, 2, -47.2483, -11.9875, 29.3615, 13.6658, 67.2631, -166.556
5.03122, 2, -47.2482, -11.9875, 29.3615, 13.6658, 67.2631, -166.556
5.03934, 2, -47.2482, -11.9874, 29.3615, 13.6657, 67.263, -166.556
5.04721, 2, -47.2481, -11.9874, 29.3615, 13.6657, 67.2631, -166.556
5.05668, 2, -47.2481, -11.9874, 29.3615, 13.6657, 67.2631, -166.556
5.06334, 2, -47.248, -11.9874, 29.3615, 13.6657, 67.2631, -166.556
5.07126, 2, -47.2479, -11.9874, 29.3615, 13.6657, 67.2631, -166.556
5.07932, 2, -47.2478, -11.9874, 29.3615, 13.6657, 67.2631, -166.556
5.08733, 2, -47.2478, -11.9873, 29.3615, 13.6657, 67.2631, -166.556
5.09541, 2, -47.2478, -11.9873, 29.3615, 13.6657, 67.2631, -166.556
5.10332, 2, -47.2478, -11.9873, 29.3615, 13.6656, 67.2631, -166.556
5.11142, 2, -47.2478, -11.9873, 29.3615, 13.6656, 67.2631, -166.556
5.11938, 2, -47.2478, -11.9872, 29.3615, 13.6656, 67.2631, -166.556
5.12732, 2, -47.2477, -11.9872, 29.3615, 13.6656, 67.2631, -166.556
5.13561, 2, -47.2476, -11.9871, 29.3615, 13.6656, 67.2631, -166.556
5.14322, 4, -47.2476, -11.9871, 29.3615, 13.6656, 67.2631, -166.556
5.15126, 4, -47.2475, -11.9871, 29.3615, 13.6656, 67.2631, -166.556
5.15949, 4, -47.2474, -11.9871, 29.3615, 13.6656, 67.2631, -166.556
5.16731, 4, -47.2473, -11.987, 29.3615, 13.6656, 67.2631, -166.556
5.17536, 4, -47.2473, -11.987, 29.3615, 13.6655, 67.2631, -166.556
5.18354, 4, -47.2472, -11.987, 29.3615, 13.6655, 67.2631, -166.556
5.1915, 4, -47.2472, -11.987, 29.3615, 13.6655, 67.2631, -166.556
5.19959, 4, -47.2472, -11.987, 29.3615, 13.6655, 67.2631, -166.556
5.20773, 4, -47.2472, -11.987, 29.3615, 13.6655, 67.2631, -166.555
5.21642, 4, -47.2471, -11.987, 29.3615, 13.6655, 67.2631, -166.556
5.22371, 4, -47.2471, -11.9869, 29.3615, 13.6654, 67.2631, -166.556
5.23193, 4, -47.2471, -11.9869, 29.3615, 13.6655, 67.2631, -166.555
5.24057, 4, -47.247, -11.9869, 29.3615, 13.6654, 67.2631, -166.555
5.26207, 4, -47.247, -11.9868, 29.3615, 13.6654, 67.2631, -166.556
5.2647, 4, -47.2468, -11.9868, 29.3615, 13.6654, 67.2631, -166.556
5.26649, 4, -47.2468, -11.9868, 29.3615, 13.6654, 67.2631, -166.556
5.27209, 4, -47.2468, -11.9867, 29.3615, 13.6654, 67.2631, -166.555
5.28153, 4, -47.2468, -11.9868, 29.3615, 13.6654, 67.2631, -166.555
5.29037, 4, -47.2468, -11.9868, 29.3615, 13.6654, 67.2631, -166.555
5.29885, 4, -47.2472, -11.9869, 29.3616, 13.6654, 67.2631, -166.555
5.30541, 4, -47.2488, -11.9879, 29.3626, 13.6659, 67.2634, -166.555
5.31381, 4, -47.2519, -11.9907, 29.366, 13.6707, 67.2646, -166.555
5.31943, 4, -47.2542, -11.9931, 29.3693, 13.677, 67.2661, -166.554
5.32859, 4, -47.2604, -12.0054, 29.39, 13.7202, 67.2773, -166.546
5.33819, 5, -47.2755, -12.0189, 29.4167, 13.7777, 67.293, -166.533
5.3452, 5, -47.2904, -12.0378, 29.4567, 13.8662, 67.3174, -166.512
5.35149, 5, -47.2997, -12.0494, 29.4821, 13.9228, 67.3334, -166.499
5.35921, 5, -47.3217, -12.0766, 29.5441, 14.0622, 67.3723, -166.467
5.37098, 5, -47.3627, -12.1273, 29.6633, 14.3316, 67.4463, -166.402
5.37709, 5, -47.3951, -12.1674, 29.7574, 14.5438, 67.5052, -166.353
5.38483, 5, -47.4124, -12.1892, 29.8079, 14.7741, 67.5676, -166.298
5.39277, 5, -47.4491, -12.2357, 29.9143, 14.8941, 67.6005, -166.269
5.4022, 5, -47.508, -12.3106, 30.0843, 15.2667, 67.7016, -166.182
5.40722, 5, -47.5286, -12.3368, 30.1427, 15.3933, 67.7358, -166.152
5.41541, 5, -47.571, -12.3901, 30.2611, 15.6486, 67.8048, -166.092
5.42435, 5, -47.6146, -12.4443, 30.381, 15.9052, 67.8727, -166.033
5.43126, 5, -47.6587, -12.499, 30.502, 16.1625, 67.9413, -165.974
5.4392, 5, -47.7034, -12.5541, 30.6239, 16.42, 68.0085, -165.914
5.4474, 5, -47.7481, -12.6095, 30.747, 16.6778, 68.0762, -165.855
5.4562, 5, -47.7929, -12.6649, 30.8715, 16.9357, 68.1423, -165.797
5.46427, 5, -47.8376, -12.7206, 30.9969, 17.194, 68.2087, -165.739
5.47236, 5, -47.8821, -12.7765, 31.1231, 17.4523, 68.2741, -165.681
5.484, 5, -47.9486, -12.8605, 31.3138, 17.8398, 68.3717, -165.596
5.48978, 5, -47.9931, -12.9168, 31.4421, 18.0983, 68.4353, -165.539
5.4962, 5, -48.0156, -12.9451, 31.5067, 18.2274, 68.4672, -165.51
5.50422, 5, -48.0611, -13.0021, 31.6366, 18.4859, 68.531, -165.454
5.51228, 5, -48.1071, -13.0594, 31.7675, 18.7446, 68.5934, -165.399
5.52023, 5, -48.1532, -13.1172, 31.899, 19.0033, 68.6563, -165.343
5.52828, 5, -48.1997, -13.1753, 32.0313, 19.262, 68.7177, -165.288
5.5362, 5, -48.2461, -13.2337, 32.1646, 19.5206, 68.7792, -165.234
5.54423, 5, -48.2926, -13.2924, 32.2988, 19.7794, 68.8402, -165.18
5.5514, 5, -48.3394, -13.3513, 32.4339, 20.0382, 68.9004, -165.126
5.5602, 5, -48.3863, -13.4103, 32.57, 20.297, 68.9607, -165.072
5.57052, 5, -48.4569, -13.4991, 32.7759, 20.6854, 69.0491, -164.993
5.57635, 5, -48.4804, -13.5287, 32.8449, 20.8149, 69.0787, -164.966
5.58427, 5, -48.5274, -13.5881, 32.9837, 21.0739, 69.137, -164.914
5.59124, 5, -48.5736, -13.6474, 33.1232, 21.3328, 69.1949, -164.862
5.59936, 5, -48.6181, -13.7064, 33.2632, 21.5912, 69.2531, -164.809
5.6073, 5, -48.6608, -13.765, 33.4035, 21.848, 69.3103, -164.753
5.61535, 5, -48.7014, -13.8226, 33.543, 22.1016, 69.369, -164.692
5.62363, 6, -48.7393, -13.8791, 33.6807, 22.3499, 69.4284, -164.624
5.63227, 6, -48.7736, -13.934, 33.8156, 22.5901, 69.4898, -164.542
5.6392, 6, -48.8037, -13.9869, 33.9468, 22.8202, 69.5541, -164.446
5.64721, 6, -48.829, -14.0375, 34.0735, 23.0385, 69.6201, -164.332
5.65601, 6, -48.8488, -14.0857, 34.1951, 23.2443, 69.6903, -164.199
5.66347, 6, -48.8626, -14.1311, 34.3116, 23.4379, 69.7625, -164.048
5.67164, 7, -48.8706, -14.1736, 34.4231, 23.6202, 69.8384, -163.879
5.68058, 7, -48.8734, -14.2135, 34.5301, 23.7922, 69.9158, -163.695
5.68772, 7, -48.8716, -14.2509, 34.6329, 23.9556, 69.9961, -163.497
5.69566, 7, -48.8654, -14.2859, 34.7321, 24.1121, 70.078, -163.288
5.70359, 7, -48.8555, -14.319, 34.8283, 24.2626, 70.1619, -163.07
5.71193, 8, -48.8426, -14.3504, 34.922, 24.4081, 70.247, -162.844
5.72076, 8, -48.827, -14.3804, 35.0133, 24.5498, 70.3336, -162.61
5.72832, 8, -48.8092, -14.4091, 35.1023, 24.6885, 70.4216, -162.371
5.73635, 8, -48.7895, -14.4367, 35.1894, 24.8248, 70.5105, -162.128
5.74781, 8, -48.7684, -14.4635, 35.3173, 25.0265, 70.6457, -161.756
5.75205, 8, -48.7465, -14.4896, 35.3594, 25.0933, 70.6912, -161.631
5.75972, 9, -48.7352, -14.5023, 35.4013, 25.1598, 70.7365, -161.38
5.7688, 9, -48.7003, -14.5398, 35.5258, 25.359, 70.8738, -161.128
5.77826, 9, -48.6762, -14.564, 35.6078, 25.4919, 70.966, -160.875
5.78436, 9, -48.6512, -14.5879, 35.689, 25.625, 71.0579, -160.621
5.79119, 9, -48.6384, -14.5997, 35.7294, 25.6918, 71.1042, -160.495
5.80065, 10, -48.5991, -14.6341, 35.8498, 25.8935, 71.2433, -160.115
5.80844, 10, -48.5726, -14.6569, 35.9299, 26.0288, 71.336, -159.862
5.81519, 10, -48.5592, -14.6682, 35.9699, 26.0968, 71.3824, -159.736
5.82468, 10, -48.5187, -14.7018, 36.0894, 26.302, 71.522, -159.359
5.83338, 10, -48.4916, -14.7242, 36.1689, 26.4402, 71.6148, -159.109
5.83925, 10, -48.478, -14.7353, 36.2085, 26.5096, 71.661, -158.984
5.84735, 11, -48.4507, -14.7576, 36.2876, 26.6491, 71.7536, -158.736
5.85751, 11, -48.4236, -14.7912, 36.4059, 26.8601, 71.8924, -158.365
5.86318, 11, -48.3965, -14.8023, 36.4452, 26.9308, 71.9384, -158.242
5.87297, 11, -48.3556, -14.8359, 36.5628, 27.1441, 72.0766, -157.873
5.8792, 11, -48.3418, -14.847, 36.602, 27.2156, 72.1228, -157.751
5.88873, 12, -48.3138, -14.8691, 36.6802, 27.3591, 72.2145, -157.385
5.89701, 12, -48.2855, -14.8914, 36.7972, 27.5758, 72.352, -157.142
5.90334, 12, -48.2569, -14.9135, 36.8362, 27.6483, 72.3978, -157.021
5.91219, 12, -48.2279, -14.9354, 36.9139, 27.7935, 72.489, -156.779
5.9237, 12, -48.1837, -14.9686, 37.0298, 28.0122, 72.6254, -156.418
5.9283, 12, -48.1687, -14.9795, 37.0682, 28.0852, 72.6708, -156.298
5.93592, 13, -48.1384, -15.0013, 37.1447, 28.2313, 72.7616, -156.058
5.94318, 13, -48.1078, -15.0233, 37.2211, 28.378, 72.8519, -155.819
5.95122, 13, -48.0769, -15.045, 37.2971, 28.5246, 72.9418, -155.58
5.95919, 13, -48.0455, -15.0669, 37.3727, 28.6712, 73.0318, -155.342
5.9672, 13, -48.0136, -15.0889, 37.448, 28.818, 73.1213, -155.104
5.97535, 14, -47.9811, -15.1106, 37.523, 28.9647, 73.2109, -154.866
5.9837, 14, -47.948, -15.1324, 37.5975, 29.1113, 73.3002, -154.628
5.99118, 14, -47.9145, -15.1542, 37.6716, 29.258, 73.389, -154.392
5.99932, 14, -47.8802, -15.1757, 37.7452, 29.4044, 73.4776, -154.156
6.00731, 14, -47.845, -15.1974, 37.8182, 29.5507, 73.5662, -153.919
6.01518, 14, -47.809, -15.2189, 37.891, 29.6968, 73.6544, -153.684
6.02336, 15, -47.7726, -15.2403, 37.9633, 29.8426, 73.7422, -153.448
6.03208, 15, -47.7355, -15.2618, 38.0352, 29.9883, 73.8299, -153.213
6.04025, 15, -47.6978, -15.2832, 38.1068, 30.1337, 73.9174, -152.978
6.04827, 15, -47.6593, -15.3046, 38.178, 30.2787, 74.0044, -152.744
6.05518, 15, -47.6204, -15.3262, 38.2487, 30.4236, 74.0913, -152.51
6.06347, 16, -47.5808, -15.3477, 38.319, 30.5681, 74.1778, -152.277
6.07118, 16, -47.5406, -15.3692, 38.3888, 30.7121, 74.2636, -152.044
6.07933, 16, -47.4996, -15.3911, 38.4581, 30.8562, 74.3494, -151.812
6.08819, 16, -47.458, -15.4127, 38.5271, 31, 74.4346, -151.58
6.09543, 16, -47.4158, -15.4345, 38.5958, 31.1435, 74.5192, -151.349
6.10434, 16, -47.3727, -15.4566, 38.6641, 31.2866, 74.6034, -151.119
6.11224, 17, -47.3289, -15.4785, 38.7322, 31.4296, 74.6871, -150.89
6.11966, 17, -47.2846, -15.5007, 38.7999, 31.5722, 74.7706, -150.661
6.12737, 17, -47.2396, -15.5232, 38.8674, 31.7147, 74.8531, -150.433
6.13533, 17, -47.1938, -15.5456, 38.9346, 31.857, 74.9356, -150.206
6.14318, 17, -47.1474, -15.5685, 39.0014, 31.9991, 75.0171, -149.98
6.15153, 18, -47.1004, -15.5914, 39.0679, 32.1409, 75.0985, -149.755
6.16026, 18, -47.0528, -15.6145, 39.1341, 32.2824, 75.1785, -149.53
6.16728, 18, -47.0047, -15.6381, 39.1999, 32.4238, 75.2582, -149.307
6.17537, 18, -46.9561, -15.6617, 39.2656, 32.5649, 75.3374, -149.084
6.18424, 18, -46.9067, -15.6859, 39.3312, 32.7059, 75.4154, -148.863
6.19151, 18, -46.8567, -15.7105, 39.3965, 32.8468, 75.493, -148.642
6.19983, 19, -46.8061, -15.7351, 39.4617, 32.9873, 75.5697, -148.423
6.20835, 19, -46.7548, -15.7602, 39.5266, 33.1275, 75.646, -148.204
6.21566, 19, -46.7026, -15.7855, 39.5913, 33.2676, 75.7211, -147.987
6.22373, 19, -46.6498, -15.8112, 39.6558, 33.4073, 75.7959, -147.771
6.23228, 19, -46.5963, -15.8374, 39.7199, 33.5469, 75.8695, -147.556
6.24016, 20, -46.5421, -15.8637, 39.784, 33.6861, 75.9429, -147.342
6.24795, 20, -46.4874, -15.8905, 39.8477, 33.825, 76.0146, -147.129
6.25798, 20, -46.432, -15.9177, 39.9112, 33.9637, 76.0863, -146.918
6.26437, 20, -46.376, -15.9454, 39.9746, 34.1018, 76.1565, -146.707
6.27428, 20, -46.3195, -15.9733, 40.0377, 34.2397, 76.2268, -146.498
6.28008, 20, -46.2909, -15.9874, 40.1007, 34.3773, 76.2953, -146.289
6.28828, 21, -46.2043, -16.0304, 40.1634, 34.5146, 76.3638, -146.081
6.29517, 21, -46.1751, -16.0449, 40.1946, 34.583, 76.3976, -145.978
6.30316, 21, -46.1159, -16.0743, 40.257, 34.7195, 76.4641, -145.772
6.31237, 21, -46.0257, -16.119, 40.3499, 34.9236, 76.5633, -145.465
6.31919, 21, -45.9953, -16.134, 40.3806, 34.9913, 76.5956, -145.363
6.32884, 22, -45.9026, -16.1796, 40.4725, 35.1939, 76.6927, -145.059
6.33657, 22, -45.8401, -16.2105, 40.5333, 35.3284, 76.7558, -144.857
6.34322, 22, -45.8085, -16.226, 40.5636, 35.3954, 76.7877, -144.757
6.35269, 22, -45.7126, -16.2731, 40.6539, 35.5955, 76.8804, -144.456
6.36079, 22, -45.6477, -16.3049, 40.7137, 35.7281, 76.9418, -144.257
6.36874, 22, -45.582, -16.337, 40.7731, 35.8601, 77.0022, -144.058
6.37693, 23, -45.5154, -16.3693, 40.832, 35.9914, 77.0616, -143.86
6.38314, 23, -45.4818, -16.3855, 40.8613, 36.0568, 77.0916, -143.761
6.39279, 23, -45.414, -16.4182, 40.9196, 36.2523, 77.1787, -143.466
6.40162, 23, -45.3453, -16.4511, 40.9773, 36.317, 77.2076, -143.367
6.40716, 23, -45.2757, -16.4842, 41.0345, 36.4458, 77.2653, -143.172
6.4152, 24, -45.2053, -16.5175, 41.0912, 36.5738, 77.3212, -142.977
6.42332, 24, -45.1339, -16.5509, 41.1472, 36.701, 77.3777, -142.782
6.43195, 24, -45.0616, -16.5845, 41.2026, 36.8274, 77.433, -142.588
6.43923, 24, -44.9882, -16.6183, 41.2576, 36.9528, 77.4873, -142.394
6.44977, 24, -44.8766, -16.6692, 41.3388, 37.1394, 77.5687, -142.105
6.45536, 24, -44.839, -16.6862, 41.3655, 37.2011, 77.5951, -142.008
6.46321, 25, -44.7631, -16.7203, 41.4186, 37.3238, 77.6481, -141.816
6.4712, 25, -44.6861, -16.7544, 41.4709, 37.4455, 77.7009, -141.623
6.48022, 25, -44.6084, -16.7886, 41.5225, 37.566, 77.7519, -141.431
6.48813, 25, -44.5296, -16.8228, 41.5734, 37.6859, 77.8034, -141.24
6.49522, 25, -44.45, -16.8569, 41.6236, 37.8046, 77.8542, -141.048
6.50333, 26, -44.3692, -16.891, 41.6729, 37.9224, 77.9038, -140.857
6.51122, 26, -44.2874, -16.925, 41.7215, 38.0391, 77.9539, -140.666
6.51923, 26, -44.2045, -16.959, 41.7693, 38.1546, 78.0031, -140.475
6.52723, 26, -44.1208, -16.9929, 41.8162, 38.2692, 78.0509, -140.284
6.53517, 26, -44.0362, -17.0267, 41.8623, 38.3826, 78.0993, -140.094
6.54316, 26, -43.9506, -17.0605, 41.9076, 38.4948, 78.1469, -139.904
6.5514, 27, -43.864, -17.094, 41.9521, 38.6059, 78.1933, -139.713
6.55917, 27, -43.7765, -17.1274, 41.9957, 38.7161, 78.2402, -139.523
6.56716, 27, -43.6881, -17.1607, 42.0384, 38.8252, 78.2867, -139.333
6.57523, 27, -43.5987, -17.1938, 42.0803, 38.933, 78.3317, -139.143
6.58328, 27, -43.5082, -17.2267, 42.1212, 39.0397, 78.3769, -138.953
6.59128, 28, -43.4167, -17.2594, 42.1612, 39.1453, 78.4221, -138.763
6.59942, 28, -43.3242, -17.2918, 42.2004, 39.2498, 78.466, -138.573
6.60814, 28, -43.2307, -17.3241, 42.2386, 39.353, 78.5098, -138.384
6.61532, 28, -43.1363, -17.3561, 42.2759, 39.4552, 78.554, -138.194
6.62375, 28, -43.0409, -17.3878, 42.3124, 39.5562, 78.597, -138.005
6.63218, 28, -42.9445, -17.4194, 42.3477, 39.6563, 78.6392, -137.815
6.63936, 29, -42.8469, -17.4507, 42.3821, 39.7551, 78.6819, -137.625
6.64833, 29, -42.7485, -17.4816, 42.4156, 39.8528, 78.7239, -137.436
6.66009, 29, -42.599, -17.5275, 42.464, 39.9972, 78.7855, -137.152
6.66417, 29, -42.5487, -17.5427, 42.4797, 40.0445, 78.8061, -137.057
6.67262, 29, -42.4474, -17.5729, 42.5103, 40.1386, 78.8475, -136.868
6.68032, 30, -42.3451, -17.6028, 42.54, 40.2317, 78.8877, -136.679
6.68739, 30, -42.242, -17.6322, 42.5687, 40.3236, 78.9273, -136.49
6.69567, 30, -42.138, -17.6614, 42.5964, 40.4142, 78.9671, -136.301
6.7036, 30, -42.0331, -17.6903, 42.6232, 40.5039, 79.0068, -136.112
6.71233, 30, -41.9271, -17.7188, 42.6491, 40.5925, 79.0454, -135.923
6.71963, 30, -41.8202, -17.747, 42.6739, 40.6797, 79.0838, -135.734
6.72875, 31, -41.7124, -17.7747, 42.6978, 40.766, 79.1226, -135.545
6.73713, 31, -41.6037, -17.8023, 42.7207, 40.8512, 79.1609, -135.356
6.74404, 31, -41.4941, -17.8292, 42.7427, 40.9351, 79.198, -135.168
6.75273, 31, -41.3835, -17.8559, 42.7639, 41.0181, 79.2349, -134.979
6.75973, 31, -41.3279, -17.8691, 42.7838, 41.0997, 79.2723, -134.79
6.76817, 32, -41.16, -17.9081, 42.8031, 41.1806, 79.309, -134.602
6.77674, 32, -41.1036, -17.921, 42.8123, 41.26, 79.3449, -134.413
6.78445, 32, -40.9331, -17.9589, 42.8383, 41.3388, 79.3806, -134.225
6.79124, 32, -40.8759, -17.9714, 42.8465, 41.3775, 79.3987, -134.131
6.79931, 32, -40.7607, -17.9961, 42.8625, 41.4549, 79.4347, -133.944
6.80855, 32, -40.6447, -18.0323, 42.8843, 41.5683, 79.4868, -133.662
6.81639, 33, -40.469, -18.0561, 42.8977, 41.6426, 79.5209, -133.474
6.82322, 33, -40.41, -18.0677, 42.9041, 41.6793, 79.5382, -133.38
6.83251, 33, -40.2319, -18.1022, 42.9217, 41.7881, 79.5896, -133.099
6.83915, 33, -40.1722, -18.1135, 42.9271, 41.8237, 79.6064, -133.006
6.84899, 33, -39.992, -18.1467, 42.9417, 41.9294, 79.6557, -132.725
6.85546, 34, -39.9314, -18.1576, 42.9461, 41.9639, 79.6721, -132.632
6.86557, 34, -39.7485, -18.1897, 42.9582, 42.0665, 79.7219, -132.351
6.87268, 34, -39.6253, -18.2104, 42.9652, 42.1334, 79.7542, -132.165
6.88075, 34, -39.5013, -18.2309, 42.9711, 42.1998, 79.7858, -131.978
6.88905, 34, -39.4389, -18.2409, 42.9737, 42.2647, 79.8171, -131.792
6.89689, 35, -39.3138, -18.2604, 42.9783, 42.3291, 79.8488, -131.606
6.90335, 35, -39.1881, -18.2798, 42.982, 42.3605, 79.8647, -131.513
6.91221, 35, -39.0616, -18.2988, 42.9847, 42.4231, 79.8956, -131.327
6.92172, 35, -38.8703, -18.3261, 42.987, 42.5147, 79.9411, -131.049
6.92722, 35, -38.8062, -18.335, 42.9874, 42.5449, 79.9561, -130.956
6.93515, 35, -38.6773, -18.3526, 42.9877, 42.6048, 79.9865, -130.771
6.94318, 36, -38.5474, -18.3697, 42.9874, 42.6627, 80.0168, -130.586
6.95208, 36, -38.417, -18.3862, 42.9863, 42.7206, 80.0463, -130.4
6.96015, 36, -38.2859, -18.4024, 42.9842, 42.777, 80.0752, -130.216
6.96815, 36, -38.1541, -18.4182, 42.9813, 42.8324, 80.1039, -130.031
6.97824, 36, -37.9551, -18.4408, 42.975, 42.9141, 80.1473, -129.755
6.98327, 36, -37.8884, -18.4479, 42.9724, 42.9403, 80.1617, -129.663
6.99114, 37, -37.7546, -18.462, 42.9665, 42.9931, 80.1899, -129.479
6.99931, 37, -37.6199, -18.476, 42.9596, 43.045, 80.2175, -129.295
7.00721, 37, -37.4846, -18.4894, 42.9517, 43.0951, 80.2448, -129.112
7.01519, 37, -37.3484, -18.502, 42.9429, 43.1453, 80.2723, -128.928
7.02338, 37, -37.2118, -18.5142, 42.9332, 43.1941, 80.2998, -128.745
7.03218, 38, -37.0745, -18.5262, 42.9225, 43.2414, 80.3268, -128.563
7.04018, 38, -36.9365, -18.5378, 42.9109, 43.2884, 80.353, -128.38
7.04779, 38, -36.7978, -18.5489, 42.8983, 43.3342, 80.3787, -128.198
7.05621, 38, -36.6582, -18.5592, 42.885, 43.3785, 80.4044, -128.015
7.06325, 38, -36.5178, -18.569, 42.8708, 43.4225, 80.4303, -127.833
7.07228, 38, -36.3768, -18.5783, 42.8556, 43.4657, 80.4561, -127.652
7.08035, 39, -36.235, -18.5871, 42.8392, 43.5072, 80.4812, -127.471
7.08739, 39, -36.0926, -18.5956, 42.8221, 43.5477, 80.506, -127.29
7.09707, 39, -35.9496, -18.6037, 42.8042, 43.5881, 80.5304, -127.109
7.10329, 39, -35.8059, -18.6113, 42.7854, 43.627, 80.5549, -126.928
7.11131, 39, -35.6616, -18.6182, 42.7658, 43.6646, 80.5797, -126.748
7.11924, 40, -35.5167, -18.6245, 42.7453, 43.7017, 80.6041, -126.568
7.12745, 40, -35.3712, -18.6303, 42.7237, 43.7384, 80.628, -126.388
7.13532, 40, -35.225, -18.6358, 42.7014, 43.7735, 80.6512, -126.209
7.14333, 40, -35.0782, -18.6408, 42.6782, 43.8072, 80.6741, -126.029
7.15121, 40, -34.9308, -18.6453, 42.6543, 43.8403, 80.697, -125.85
7.1595, 41, -34.7827, -18.6493, 42.6295, 43.8732, 80.72, -125.671
7.16718, 41, -34.6341, -18.6529, 42.6037, 43.9048, 80.7429, -125.493
7.17564, 41, -34.4851, -18.656, 42.5773, 43.935, 80.7652, -125.315
7.18422, 41, -34.3351, -18.6587, 42.55, 43.9642, 80.7871, -125.137
7.19214, 41, -34.1847, -18.661, 42.5219, 43.9929, 80.8085, -124.96
7.19985, 41, -34.0338, -18.6629, 42.4928, 44.021, 80.8299, -124.782
7.20749, 42, -33.8823, -18.6643, 42.4631, 44.0478, 80.8513, -124.605
7.21638, 42, -33.7301, -18.6653, 42.4326, 44.0734, 80.8729, -124.429
7.22367, 42, -33.5772, -18.6658, 42.4013, 44.0978, 80.8942, -124.253
7.23229, 42, -33.4235, -18.666, 42.369, 44.1216, 80.915, -124.077
7.23974, 42, -33.2692, -18.6661, 42.3362, 44.1448, 80.9352, -123.901
7.24851, 42, -33.1145, -18.6659, 42.3026, 44.1673, 80.9551, -123.726
7.25625, 43, -32.959, -18.6653, 42.2681, 44.1886, 80.9747, -123.55
7.26387, 43, -32.8029, -18.6641, 42.2329, 44.2086, 80.9944, -123.376
7.27223, 43, -32.6465, -18.6626, 42.1969, 44.2276, 81.0142, -123.201
7.28052, 43, -32.568, -18.6616, 42.1786, 44.2367, 81.024, -123.114
7.28714, 43, -32.4104, -18.6592, 42.1414, 44.2541, 81.0433, -122.941
7.2965, 44, -32.173, -18.6546, 42.0842, 44.279, 81.0714, -122.681
7.30544, 44, -32.014, -18.6509, 42.045, 44.2947, 81.0897, -122.508
7.31113, 44, -31.9344, -18.6489, 42.0251, 44.3022, 81.0987, -122.421
7.3207, 44, -31.6949, -18.642, 41.9645, 44.3235, 81.1255, -122.162
7.32714, 44, -31.6148, -18.6394, 41.9439, 44.33, 81.1344, -122.076
7.33667, 45, -31.3738, -18.6306, 41.881, 44.3476, 81.1613, -121.818
7.34563, 45, -31.2124, -18.6241, 41.838, 44.358, 81.1792, -121.647
7.35401, 45, -31.0502, -18.6172, 41.7943, 44.3671, 81.1966, -121.475
7.3591, 45, -30.9689, -18.6136, 41.7722, 44.3714, 81.205, -121.39
7.3672, 45, -30.8057, -18.606, 41.7273, 44.379, 81.2217, -121.219
7.37534, 45, -30.642, -18.5976, 41.6818, 44.3857, 81.238, -121.049
7.38394, 46, -30.4775, -18.5886, 41.6355, 44.3914, 81.2541, -120.879
7.39113, 46, -30.3125, -18.5792, 41.5884, 44.396, 81.2701, -120.709
7.40082, 46, -30.147, -18.5693, 41.5163, 44.4011, 81.2943, -120.455
7.40813, 46, -29.9809, -18.559, 41.4919, 44.4023, 81.3023, -120.37
7.41615, 46, -29.8143, -18.5482, 41.4425, 44.4041, 81.3185, -120.201
7.42431, 47, -29.6469, -18.5367, 41.3922, 44.4049, 81.3344, -120.032
7.43123, 47, -29.4789, -18.5244, 41.3412, 44.4052, 81.35, -119.864
7.43913, 47, -29.3103, -18.5116, 41.2894, 44.405, 81.3651, -119.696
7.44824, 47, -29.141, -18.4982, 41.2368, 44.4039, 81.3801, -119.528
7.45619, 47, -28.9712, -18.4844, 41.1833, 44.4013, 81.3949, -119.36
7.46323, 47, -28.801, -18.4698, 41.1291, 44.3976, 81.4096, -119.192
7.47208, 48, -28.6301, -18.4545, 41.0741, 44.3926, 81.4244, -119.025
7.47997, 48, -28.4588, -18.4389, 41.0183, 44.3864, 81.4395, -118.858
7.48712, 48, -28.2869, -18.4228, 40.9617, 44.379, 81.4546, -118.691
7.49763, 48, -28.0282, -18.3972, 40.8753, 44.3657, 81.4773, -118.442
7.50413, 48, -27.9417, -18.3883, 40.8461, 44.3606, 81.4848, -118.358
7.51221, 49, -27.7681, -18.3702, 40.787, 44.3496, 81.4995, -118.192
7.52169, 49, -27.5936, -18.3515, 40.727, 44.3371, 81.5139, -117.943
7.52735, 49, -27.4182, -18.332, 40.666, 44.3232, 81.5282, -117.86
7.53512, 49, -27.242, -18.3118, 40.6043, 44.3077, 81.5424, -117.694
7.5432, 49, -27.0655, -18.2909, 40.5415, 44.2906, 81.5567, -117.529
7.55231, 49, -26.8884, -18.2693, 40.478, 44.2723, 81.5712, -117.363
7.55919, 50, -26.7107, -18.247, 40.4136, 44.2532, 81.586, -117.198
7.56724, 50, -26.5323, -18.224, 40.3484, 44.2328, 81.601, -117.032
7.5752, 50, -26.3532, -18.2003, 40.2823, 44.2114, 81.6162, -116.867
7.58319, 50, -26.1734, -18.176, 40.2153, 44.1885, 81.6313, -116.702
7.59114, 50, -25.9928, -18.1508, 40.1473, 44.164, 81.6462, -116.537
7.59942, 51, -25.8115, -18.1249, 40.0784, 44.1379, 81.6612, -116.373
7.60819, 51, -25.6298, -18.0983, 40.0085, 44.111, 81.6762, -116.208
7.61523, 51, -25.4477, -18.0709, 39.9378, 44.0831, 81.6912, -116.043
7.6233, 51, -25.2654, -18.0429, 39.866, 44.0538, 81.7066, -115.878
7.63175, 51, -25.0825, -18.014, 39.7933, 44.0226, 81.7223, -115.713
7.64013, 51, -24.8988, -17.9844, 39.7198, 43.9898, 81.7384, -115.549
7.64746, 52, -24.7142, -17.954, 39.6454, 43.9562, 81.7549, -115.384
7.65632, 52, -24.5286, -17.9229, 39.5701, 43.9216, 81.7715, -115.22
7.66348, 52, -24.3421, -17.8907, 39.4939, 43.8851, 81.7879, -115.056
7.67171, 52, -24.1549, -17.8578, 39.4168, 43.8467, 81.8043, -114.891
7.6792, 52, -23.9669, -17.8242, 39.3386, 43.8078, 81.8208, -114.727
7.68765, 53, -23.7785, -17.7898, 39.2595, 43.7676, 81.8373, -114.562
7.69652, 53, -23.5895, -17.7545, 39.1793, 43.7252, 81.8541, -114.398
7.7049, 53, -23.3998, -17.7184, 39.0982, 43.6816, 81.8715, -114.234
7.71222, 53, -23.2095, -17.6817, 39.0164, 43.6373, 81.8894, -114.07
7.72361, 53, -22.9223, -17.6249, 38.892, 43.5669, 81.9167, -113.823
7.72843, 53, -22.8262, -17.6057, 38.85, 43.5429, 81.9258, -113.741
7.73625, 54, -22.6334, -17.5666, 38.7654, 43.4946, 81.9441, -113.577
7.74453, 54, -22.4403, -17.5266, 38.6798, 43.4438, 81.9623, -113.413
7.75175, 54, -22.2468, -17.4859, 38.5932, 43.3916, 81.9807, -113.248
7.76031, 54, -22.0528, -17.4444, 38.5056, 43.3385, 81.9995, -113.084
7.76771, 54, -21.9557, -17.4233, 38.4615, 43.2829, 82.0189, -112.92
7.77641, 55, -21.6627, -17.3589, 38.3281, 43.2269, 82.0389, -112.756
7.7843, 55, -21.4662, -17.315, 38.2382, 43.1691, 82.0591, -112.592
7.79111, 55, -21.3675, -17.2927, 38.1929, 43.1392, 82.0691, -112.509
7.80025, 55, -21.0699, -17.2246, 38.0556, 43.049, 82.0993, -112.263
7.80711, 55, -20.9703, -17.2016, 38.0093, 43.0177, 82.1093, -112.181
7.8163, 55, -20.6707, -17.1311, 37.8691, 42.9223, 82.1398, -111.936
7.82332, 56, -20.5707, -17.1073, 37.8219, 42.8898, 82.1502, -111.854
7.83336, 56, -20.2695, -17.0348, 37.6792, 42.7895, 82.1823, -111.608
7.83923, 56, -20.1686, -17.0103, 37.6313, 42.7555, 82.1932, -111.526
7.84857, 56, -19.8644, -16.9357, 37.4863, 42.6508, 82.2256, -111.281
7.85699, 56, -19.6605, -16.8851, 37.3885, 42.5793, 82.2473, -111.117
7.86465, 57, -19.4563, -16.8338, 37.2897, 42.5059, 82.2691, -110.953
7.87298, 57, -19.2517, -16.7819, 37.19, 42.4311, 82.2913, -110.79
7.88125, 57, -19.0468, -16.7292, 37.0895, 42.3547, 82.3141, -110.627
7.88869, 57, -18.9442, -16.6759, 36.9884, 42.2766, 82.3373, -110.463
7.89773, 57, -18.6354, -16.6218, 36.8867, 42.197, 82.3606, -110.299
7.90729, 58, -18.4281, -16.567, 36.7841, 42.1156, 82.3838, -110.136
7.91217, 58, -18.3239, -16.5393, 36.7325, 42.0745, 82.3955, -110.054
7.92014, 58, -18.1144, -16.4833, 36.6285, 41.9906, 82.4187, -109.891
7.92813, 58, -17.9037, -16.4267, 36.5235, 41.9053, 82.4425, -109.728
7.93612, 58, -17.6926, -16.3694, 36.4178, 41.8184, 82.467, -109.565
7.94317, 58, -17.481, -16.3114, 36.3116, 41.7298, 82.4917, -109.402
7.95124, 59, -17.2687, -16.2529, 36.2048, 41.6395, 82.5164, -109.239
7.96015, 59, -17.0554, -16.1938, 36.0972, 41.5475, 82.5411, -109.076
7.96714, 59, -16.8411, -16.134, 35.9887, 41.4539, 82.566, -108.913
7.97512, 59, -16.626, -16.0736, 35.8791, 41.3585, 82.5915, -108.75
7.98325, 59, -16.4098, -16.0125, 35.7688, 41.2612, 82.6177, -108.588
7.99111, 59, -16.1929, -15.9508, 35.6579, 41.1625, 82.6441, -108.425
7.99927, 60, -15.9759, -15.8884, 35.5465, 41.0616, 82.6703, -108.262
8.00718, 60, -15.7593, -15.8254, 35.4344, 40.9591, 82.6965, -108.099
8.01511, 60, -15.5422, -15.7615, 35.3214, 40.8551, 82.723, -107.936
8.02329, 60, -15.3236, -15.6969, 35.2074, 40.7491, 82.7502, -107.773
8.03111, 60, -15.103, -15.6315, 35.0925, 40.6415, 82.778, -107.611
8.03912, 61, -14.8811, -15.5655, 34.9771, 40.532, 82.8058, -107.448
8.04733, 61, -14.6581, -15.4987, 34.8612, 40.4205, 82.8336, -107.285
8.05518, 61, -14.434, -15.4312, 34.7447, 40.3073, 82.8618, -107.123
8.06316, 61, -14.209, -15.3632, 34.6273, 40.1923, 82.8907, -106.96
8.07227, 61, -13.9831, -15.2944, 34.5089, 40.0755, 82.9204, -106.797
8.08094, 61, -13.7563, -15.225, 34.3896, 39.9568, 82.95, -106.634
8.08813, 62, -13.5284, -15.1549, 34.2698, 39.8362, 82.9796, -106.471
8.09733, 62, -13.2995, -15.0841, 34.1496, 39.7137, 83.0096, -106.308
8.10329, 62, -13.0704, -15.0125, 34.0286, 39.5892, 83.0404, -106.145
8.11119, 62, -12.8413, -14.9402, 33.9066, 39.4627, 83.072, -105.981
8.1192, 62, -12.6119, -14.8671, 33.7837, 39.3343, 83.1034, -105.818
8.12743, 63, -12.3818, -14.7932, 33.6601, 39.2041, 83.1351, -105.654
8.13953, 63, -12.1503, -14.6808, 33.4735, 39.0049, 83.1841, -105.409
8.14326, 63, -11.9176, -14.643, 33.4111, 38.9376, 83.2011, -105.327
8.15113, 63, -11.6835, -14.5667, 33.2856, 38.8014, 83.2351, -105.163
8.15991, 63, -11.4476, -14.4897, 33.1591, 38.663, 83.269, -104.999
8.16818, 63, -11.2104, -14.4117, 33.0318, 38.5227, 83.3033, -104.835
8.17549, 64, -10.972, -14.333, 32.9038, 38.3804, 83.3389, -104.67
8.18414, 64, -10.7321, -14.2534, 32.7752, 38.2361, 83.3753, -104.505
8.19131, 64, -10.4904, -14.1728, 32.6459, 38.0899, 83.4115, -104.341
8.19935, 64, -10.2473, -14.0915, 32.5159, 37.9413, 83.4483, -104.175
8.20745, 64, -10.004, -14.0092, 32.385, 37.7907, 83.4864, -104.01
8.2155, 65, -9.76099, -13.9261, 32.2534, 37.638, 83.5253, -103.844
8.22392, 65, -9.51826, -13.842, 32.1211, 37.4832, 83.564, -103.678
8.23256, 65, -9.27548, -13.757, 31.9881, 37.3264, 83.6035, -103.512
8.23962, 65, -9.03189, -13.671, 31.8544, 37.1676, 83.6447, -103.345
8.2485, 65, -8.78645, -13.584, 31.7201, 37.0066, 83.6863, -103.178
8.25575, 65, -8.539, -13.4963, 31.5851, 36.8435, 83.7281, -103.012
8.26433, 66, -8.29024, -13.4076, 31.4493, 36.6784, 83.7714, -102.844
8.27303, 66, -8.04058, -13.3181, 31.3128, 36.5113, 83.8157, -102.677
8.28117, 66, -7.78902, -13.2276, 31.1756, 36.3422, 83.8597, -102.509
8.28894, 66, -7.53509, -13.1362, 31.0379, 36.1709, 83.9049, -102.34
8.29759, 66, -7.27933, -13.0439, 30.8996, 35.9974, 83.9516, -102.172
8.30611, 67, -7.02262, -12.9504, 30.7606, 35.8219, 83.9983, -102.003
8.31308, 67, -6.76566, -12.8561, 30.6209, 35.6443, 84.0462, -101.834
8.32028, 67, -6.50898, -12.7608, 30.4806, 35.4646, 84.0956, -101.665
8.3271, 67, -6.38081, -12.7128, 30.4102, 35.374, 84.1203, -101.58
8.33645, 67, -5.99555, -12.5672, 30.1985, 35.0989, 84.1953, -101.324
8.34317, 67, -5.86649, -12.5182, 30.1277, 35.0063, 84.2212, -101.239
8.35124, 68, -5.60735, -12.4195, 29.9855, 34.8194, 84.273, -101.068
8.36066, 68, -5.2166, -12.2697, 29.771, 34.5351, 84.3526, -100.812
8.36863, 68, -4.9545, -12.1686, 29.6276, 34.343, 84.4072, -100.641
8.37756, 68, -4.69036, -12.0665, 29.4837, 34.1489, 84.4618, -100.469
8.38316, 68, -4.55757, -12.0151, 29.4116, 34.0511, 84.4899, -100.383
8.39269, 69, -4.29051, -11.8595, 29.1944, 33.7548, 84.5753, -100.124
8.40174, 69, -4.0217, -11.7547, 29.0493, 33.5546, 84.6333, -99.9514
8.40812, 69, -3.75187, -11.702, 28.9766, 33.4537, 84.663, -99.865
8.41615, 69, -3.48227, -11.5959, 28.8309, 33.2508, 84.7221, -99.6919
8.42498, 69, -3.2129, -11.4886, 28.6847, 33.0459, 84.8133, -99.4313
8.43524, 70, -2.80728, -11.3258, 28.4646, 32.7351, 84.8746, -99.257
8.44007, 70, -2.6716, -11.271, 28.3913, 32.6304, 84.9058, -99.1699
8.44812, 70, -2.39957, -11.1608, 28.2443, 32.4198, 84.9698, -98.9953
8.45616, 70, -2.12682, -11.0499, 28.097, 32.2074, 85.0332, -98.8204
8.46421, 70, -1.85323, -10.938, 27.9493, 31.993, 85.0987, -98.6454
8.47231, 70, -1.57848, -10.8252, 27.8014, 31.7769, 85.1646, -98.47
8.47923, 71, -1.30173, -10.7113, 27.6536, 31.5591, 85.2319, -98.2942
8.4881, 71, -1.0226, -10.5963, 27.5058, 31.3395, 85.3, -98.118
8.4977, 71, -0.602185, -10.4224, 27.2835, 31.0066, 85.4044, -97.8532
8.50416, 71, -0.462007, -10.364, 27.2093, 30.8947, 85.4394, -97.7649
8.51211, 71, -0.181374, -10.2466, 27.0609, 30.6698, 85.5104, -97.588
8.52173, 72, 0.0998698, -10.1283, 26.9126, 30.4433, 85.6188, -97.3219
8.52731, 72, 0.381808, -10.0089, 26.7642, 30.2152, 85.6555, -97.2329
8.53612, 72, 0.664487, -9.88862, 26.6157, 29.9854, 85.7297, -97.0548
8.54674, 72, 1.08929, -9.70655, 26.393, 29.638, 85.8426, -96.787
8.55216, 72, 1.23103, -9.64543, 26.3189, 29.5215, 85.8806, -96.6976
8.55913, 72, 1.51545, -9.52256, 26.1707, 29.2873, 85.9573, -96.5187
8.56716, 73, 1.80169, -9.3988, 26.0225, 29.0516, 86.0352, -96.3398
8.57524, 73, 2.08939, -9.27402, 25.8744, 28.8146, 86.1143, -96.1605
8.58314, 73, 2.37764, -9.14811, 25.7266, 28.5762, 86.1941, -95.9806
8.59112, 73, 2.66627, -9.0213, 25.5791, 28.3364, 86.2753, -95.8005
8.59932, 73, 2.95529, -8.89356, 25.4316, 28.0954, 86.3573, -95.6198
8.60716, 73, 3.24503, -8.76491, 25.2842, 27.8533, 86.4408, -95.4391
8.61518, 74, 3.53599, -8.63533, 25.1371, 27.61, 86.5249, -95.258
8.6239, 74, 3.82749, -8.50454, 24.9905, 27.3652, 86.6102, -95.0763
8.63324, 74, 4.11878, -8.37279, 24.8442, 27.1193, 86.6969, -94.8942
8.6401, 74, 4.41003, -8.24007, 24.698, 26.8726, 86.7842, -94.7119
8.64757, 74, 4.70202, -8.10653, 24.552, 26.6249, 86.8732, -94.5292
8.6563, 75, 4.995, -7.97212, 24.4065, 26.3763, 86.9631, -94.3461
8.66372, 75, 5.28893, -7.83665, 24.2616, 26.1267, 87.054, -94.1631
8.67315, 75, 5.58316, -7.69998, 24.117, 25.8764, 87.1464, -93.9794
8.68009, 75, 5.87715, -7.56222, 23.9728, 25.6253, 87.2399, -93.7953
8.68722, 75, 6.17115, -7.42348, 23.8288, 25.3735, 87.3346, -93.6108
8.69529, 75, 6.46621, -7.28394, 23.6854, 25.1211, 87.4303, -93.4262
8.70627, 76, 6.76199, -7.14327, 23.5427, 24.8681, 87.5275, -93.2412
8.71141, 76, 7.05751, -7.00129, 23.4004, 24.6146, 87.6257, -93.056
8.71946, 76, 7.35264, -6.85821, 23.2585, 24.3606, 87.7252, -92.8701
8.72854, 76, 7.64769, -6.71405, 23.1171, 24.1062, 87.8261, -92.6837
8.73557, 76, 7.9433, -6.569, 22.9764, 23.8513, 87.9283, -92.4966
8.74369, 77, 8.23997, -6.42298, 22.8362, 23.596, 88.0318, -92.3093
8.75341, 77, 8.53689, -6.27559, 22.6968, 23.3407, 88.1368, -92.1218
8.75967, 77, 8.83285, -6.12701, 22.5578, 23.085, 88.2427, -91.934
8.76822, 77, 9.12845, -5.97724, 22.4194, 22.8296, 88.3502, -91.7456
8.77503, 77, 9.27645, -5.90198, 22.3506, 22.7019, 88.4045, -91.6512
8.78448, 78, 9.72129, -5.67472, 22.1449, 22.3188, 88.569, -91.3673
8.79112, 78, 9.86953, -5.59823, 22.0767, 22.1911, 88.6245, -91.2724
8.80061, 78, 10.313, -5.36676, 21.8729, 21.8083, 88.793, -90.9871
8.80818, 78, 10.6076, -5.21106, 21.7379, 21.5534, 88.907, -90.7964
8.81513, 78, 10.7549, -5.13289, 21.6707, 21.4262, 88.9646, -90.7008
8.82339, 78, 11.0498, -4.97591, 21.5368, 21.172, 89.0806, -90.5091
8.8329, 79, 11.4928, -4.73784, 21.3374, 20.7913, 89.2571, -90.2208
8.84118, 79, 11.7871, -4.57749, 21.2053, 20.5381, 89.3765, -90.0279
8.84709, 79, 11.9338, -4.49697, 21.1395, 20.4118, 89.4366, -89.9313
8.85652, 79, 12.3733, -4.25412, 20.9433, 20.0337, 89.6193, -89.641
8.86313, 79, 12.5196, -4.17245, 20.8783, 19.9081, 89.6809, -89.5438
8.87321, 80, 12.958, -3.92472, 20.6845, 19.5324, 89.8677, -89.2516
8.87932, 80, 13.1037, -3.84138, 20.6203, 19.4077, 89.9307, -89.154
8.88876, 80, 13.5387, -3.59014, 20.4287, 19.0349, 90.1215, -88.8602
8.89672, 80, 13.6833, -3.5059, 20.3021, 18.7876, 90.2505, -88.6637
8.90308, 80, 13.9728, -3.3361, 20.2391, 18.6643, 90.3155, -88.5652
8.91108, 80, 14.2625, -3.16442, 20.1136, 18.4188, 90.4468, -88.3673
8.92099, 81, 14.5512, -2.99152, 19.9891, 18.1745, 90.5793, -88.169
8.93033, 81, 14.8387, -2.818, 19.8652, 17.9312, 90.7133, -87.87
8.93507, 81, 15.1249, -2.64319, 19.7421, 17.6896, 90.8487, -87.7702
8.94589, 81, 15.5524, -2.37731, 19.5588, 17.3297, 91.0544, -87.4697
8.95209, 81, 15.6945, -2.28793, 19.4981, 17.2104, 91.1237, -87.3692
8.9601, 82, 15.9781, -2.1086, 19.3774, 16.973, 91.2634, -87.1674
8.96814, 82, 16.2598, -1.92853, 19.2576, 16.7371, 91.4048, -86.9652
8.97624, 82, 16.5398, -1.7466, 19.1382, 16.503, 91.5476, -86.7621
8.98312, 82, 16.8193, -1.56248, 19.0196, 16.2705, 91.6918, -86.5583
8.99109, 82, 17.0985, -1.37714, 18.9019, 16.04, 91.8376, -86.3538
8.99944, 82, 17.3771, -1.19083, 18.7852, 15.8115, 91.9849, -86.1483
9.00818, 83, 17.6545, -1.00268, 18.6692, 15.5848, 92.1336, -85.9418
9.01609, 83, 17.9301, -0.812382, 18.5538, 15.3601, 92.2841, -85.7348
9.02416, 83, 18.2034, -0.620808, 18.439, 15.1375, 92.4359, -85.5268
9.03208, 83, 18.4752, -0.428311, 18.3249, 14.917, 92.5892, -85.3183
9.04107, 83, 18.7456, -0.234175, 18.2118, 14.6988, 92.744, -85.1087
9.04823, 84, 19.014, -0.0382003, 18.0995, 14.4827, 92.9003, -84.8982
9.05535, 84, 19.2802, 0.158802, 17.9879, 14.2689, 93.0581, -84.6866
9.06307, 84, 19.545, 0.357102, 17.8767, 14.0576, 93.2175, -84.4745
9.07237, 84, 19.8093, 0.55748, 17.7661, 13.8486, 93.3782, -84.2615
9.08011, 84, 20.0729, 0.759742, 17.6564, 13.642, 93.5403, -84.0477
9.08815, 84, 20.3359, 0.963018, 17.5477, 13.4379, 93.704, -83.8326
9.09507, 85, 20.5974, 1.16761, 17.4398, 13.2363, 93.869, -83.6166
9.10489, 85, 20.8565, 1.37412, 17.3326, 13.0375, 94.0353, -83.3997
9.11114, 85, 21.113, 1.58225, 17.2257, 12.8411, 94.2028, -83.182
9.11917, 85, 21.3674, 1.79151, 17.1195, 12.6476, 94.3715, -82.9637
9.12723, 85, 21.6201, 2.00257, 17.0142, 12.457, 94.5416, -82.744
9.13539, 86, 21.8704, 2.21547, 16.91, 12.2692, 94.7128, -82.5235
9.14322, 86, 22.1181, 2.42915, 16.8067, 12.0841, 94.8856, -82.302
9.15142, 86, 22.3637, 2.64389, 16.704, 11.9019, 95.0594, -82.0798
9.16014, 86, 22.6081, 2.86058, 16.6018, 11.7228, 95.2344, -81.8566
9.16778, 86, 22.8515, 3.07858, 16.5002, 11.5465, 95.4108, -81.6323
9.17994, 87, 23.2146, 3.40787, 16.3499, 11.2879, 95.6772, -81.2943
9.18421, 87, 23.335, 3.51861, 16.3004, 11.2031, 95.7665, -81.1812
9.19193, 87, 23.5742, 3.74114, 16.202, 11.036, 95.9458, -80.9547
9.19934, 87, 23.8102, 3.96406, 16.1044, 10.8718, 96.1258, -80.7273
9.20732, 87, 24.0433, 4.18795, 16.0074, 10.7108, 96.3067, -80.4988
9.21545, 87, 24.2742, 4.41314, 15.9112, 10.5529, 96.488, -80.2696
9.22398, 88, 24.503, 4.63869, 15.8159, 10.3981, 96.67, -80.0396
9.23169, 88, 24.7293, 4.86495, 15.7219, 10.2463, 96.8525, -79.8092
9.24017, 88, 24.9535, 5.09273, 15.629, 10.0977, 97.0353, -79.5779
9.24764, 88, 25.1758, 5.32123, 15.5371, 9.95223, 97.2187, -79.3457
9.25659, 88, 25.3964, 5.54993, 15.4461, 9.81006, 97.4022, -79.1128
9.26369, 88, 25.6151, 5.77973, 15.356, 9.67097, 97.5861, -78.8793
9.27234, 89, 25.8324, 6.0103, 15.2668, 9.5352, 97.77, -78.6454
9.28125, 89, 26.048, 6.24112, 15.1788, 9.40239, 97.954, -78.4108
9.28706, 89, 26.1551, 6.35694, 15.1352, 9.33725, 98.0462, -78.2932
9.29661, 89, 26.4729, 6.70603, 15.0062, 9.14669, 98.3226, -77.9395
9.30307, 89, 26.5778, 6.82247, 14.9638, 9.08474, 98.415, -77.8213
9.31217, 90, 26.8887, 7.17245, 14.838, 8.90386, 98.6917, -77.4662
9.31907, 90, 26.9912, 7.28956, 14.7967, 8.84508, 98.784, -77.3474
9.32928, 90, 27.2952, 7.64112, 14.6743, 8.67381, 99.0606, -76.9901
9.33509, 90, 27.3953, 7.75856, 14.634, 8.61825, 99.1528, -76.8708
9.34855, 90, 27.7898, 8.23104, 14.4755, 8.40403, 99.5208, -76.3925
9.35296, 90, 27.8871, 8.34911, 14.4366, 8.35241, 99.6125, -76.2726
9.3591, 91, 27.9839, 8.46714, 14.398, 8.30159, 99.7044, -76.1524
9.36943, 91, 28.2715, 8.8223, 14.2837, 8.15409, 99.9795, -75.7911
9.37508, 91, 28.3664, 8.94079, 14.2462, 8.10663, 100.071, -75.6704
9.38561, 91, 28.6488, 9.29627, 14.1351, 7.96874, 100.346, -75.308
9.39112, 91, 28.7421, 9.41525, 14.0986, 7.92428, 100.437, -75.1868
9.40093, 92, 29.0189, 9.77296, 13.9904, 7.79608, 100.711, -74.822
9.4095, 92, 29.1103, 9.89208, 13.9548, 7.75474, 100.802, -74.7002
9.41513, 92, 29.2913, 10.1308, 13.8843, 7.67472, 100.985, -74.4559
9.42408, 92, 29.4701, 10.3701, 13.8148, 7.59761, 101.167, -74.2114
9.43208, 92, 29.6471, 10.6094, 13.7463, 7.52439, 101.349, -73.966
9.44013, 92, 29.8218, 10.8493, 13.6788, 7.45334, 101.531, -73.7197
9.44807, 93, 29.9942, 11.0902, 13.6122, 7.38647, 101.713, -73.4726
9.45613, 93, 30.1643, 11.331, 13.5465, 7.32192, 101.894, -73.225
9.46413, 93, 30.3317, 11.5719, 13.4816, 7.26156, 102.075, -72.9764
9.47214, 93, 30.4967, 11.8135, 13.4176, 7.20383, 102.256, -72.7268
9.47909, 93, 30.6597, 12.0553, 13.3545, 7.1491, 102.437, -72.4765
9.48702, 94, 30.8206, 12.298, 13.2924, 7.09859, 102.618, -72.2256
9.49608, 94, 30.9798, 12.5421, 13.2311, 7.05017, 102.799, -71.9741
9.50306, 94, 31.1372, 12.7864, 13.1706, 7.00525, 102.98, -71.7216
9.51106, 94, 31.2926, 13.0308, 13.111, 6.96436, 103.16, -71.4681
9.5217, 94, 31.5225, 13.3977, 13.0234, 6.90771, 103.429, -71.0866
9.52806, 94, 31.5981, 13.5198, 12.9947, 6.89031, 103.519, -70.9591
9.53608, 95, 31.748, 13.7643, 12.9379, 6.85847, 103.698, -70.7035
9.54493, 95, 31.8962, 14.0096, 12.882, 6.8301, 103.877, -70.4469
9.55207, 95, 32.0427, 14.2547, 12.827, 6.8049, 104.055, -70.1896
9.56009, 95, 32.1874, 14.4996, 12.773, 6.78246, 104.233, -69.9318
9.56894, 95, 32.3301, 14.7448, 12.7199, 6.76276, 104.41, -69.6734
9.57601, 96, 32.4706, 14.9898, 12.6679, 6.74604, 104.586, -69.414
9.58413, 96, 32.6087, 15.2345, 12.6169, 6.73236, 104.762, -69.154
9.59105, 96, 32.7446, 15.4798, 12.5668, 6.72195, 104.936, -68.8931
9.60007, 96, 32.8786, 15.7249, 12.5178, 6.71467, 105.11, -68.632
9.60813, 96, 33.0105, 15.9694, 12.4698, 6.71044, 105.283, -68.3701
9.61514, 96, 33.1404, 16.2142, 12.4229, 6.70857, 105.455, -68.1076
9.62321, 97, 33.2682, 16.4586, 12.3773, 6.70862, 105.626, -67.8447
9.63145, 97, 33.3938, 16.7026, 12.3328, 6.71171, 105.797, -67.5818
9.63915, 97, 33.5175, 16.9472, 12.2893, 6.71806, 105.966, -67.3181
9.64805, 97, 33.6396, 17.1914, 12.2468, 6.72765, 106.134, -67.0536
9.65613, 97, 33.7604, 17.4348, 12.2054, 6.74042, 106.301, -66.7888
9.66306, 98, 33.8799, 17.6783, 12.165, 6.75656, 106.467, -66.5237
9.67115, 98, 33.9978, 17.9212, 12.1259, 6.77571, 106.632, -66.2582
9.67909, 98, 34.1141, 18.1633, 12.0877, 6.79733, 106.796, -65.9919
9.68711, 98, 34.2289, 18.4057, 12.0505, 6.8214, 106.959, -65.7253
9.69622, 98, 34.342, 18.648, 12.0144, 6.84794, 107.121, -65.4585
9.7033, 98, 34.4539, 18.8894, 11.9793, 6.8776, 107.281, -65.1911
9.71138, 99, 34.5643, 19.1307, 11.9452, 6.91052, 107.441, -64.9231
9.72022, 99, 34.6734, 19.3714, 11.9122, 6.94565, 107.599, -64.6545
9.72746, 99, 34.781, 19.6112, 11.8802, 6.98268, 107.757, -64.3856
9.73555, 99, 34.8867, 19.851, 11.8492, 7.02241, 107.913, -64.1164
9.74422, 99, 34.9903, 20.0904, 11.8193, 7.0654, 108.067, -63.8464
9.75203, 100, 35.0924, 20.3283, 11.7906, 7.11001, 108.221, -63.5763
9.76016, 100, 35.193, 20.5655, 11.7629, 7.15713, 108.372, -63.3063
9.76765, 100, 35.2428, 20.6838, 11.7365, 7.20722, 108.523, -63.0365
9.77617, 100, 35.3901, 21.0369, 11.7113, 7.25876, 108.671, -62.7665
9.78369, 100, 35.4386, 21.1541, 11.6992, 7.28525, 108.818, -62.4966
9.79232, 100, 35.5818, 21.5055, 11.6651, 7.36889, 108.962, -62.2273
9.79904, 101, 35.6288, 21.6219, 11.6544, 7.39736, 109.034, -62.0929
9.80818, 101, 35.7679, 21.9684, 11.6244, 7.48623, 109.244, -61.6908
9.81509, 101, 35.8137, 22.0833, 11.6151, 7.51673, 109.313, -61.5573
9.82512, 101, 35.9495, 22.4251, 11.5895, 7.61041, 109.515, -61.1581
9.8311, 101, 35.9943, 22.538, 11.5816, 7.64277, 109.581, -61.0257
9.84068, 102, 36.1271, 22.8748, 11.5602, 7.74109, 109.776, -60.63
9.84922, 102, 36.2145, 23.0976, 11.5477, 7.80892, 109.902, -60.3671
9.85509, 102, 36.2576, 23.2082, 11.542, 7.84295, 109.964, -60.2361
9.86463, 102, 36.3855, 23.5387, 11.5263, 7.94838, 110.147, -59.8441
9.87269, 102, 36.4695, 23.7586, 11.517, 8.02027, 110.267, -59.5832
9.88059, 102, 36.5523, 23.9776, 11.5087, 8.0946, 110.386, -59.3219
9.88885, 103, 36.6343, 24.1963, 11.5011, 8.17035, 110.504, -59.0601
9.89666, 103, 36.7155, 24.4144, 11.4942, 8.24897, 110.622, -58.7975
9.90457, 103, 36.7558, 24.5228, 11.491, 8.2889, 110.739, -58.5339
9.9127, 103, 36.8359, 24.7371, 11.4853, 8.37091, 110.797, -58.2699
9.92009, 103, 36.9152, 24.9488, 11.4806, 8.45462, 110.913, -58.1379
9.92801, 104, 36.9935, 25.1579, 11.4773, 8.54066, 111.024, -57.8754
9.93614, 104, 37.0709, 25.3637, 11.4756, 8.62837, 111.132, -57.6156
9.94404, 104, 37.1473, 25.5668, 11.4757, 8.71699, 111.233, -57.3595
9.95204, 104, 37.2224, 25.7685, 11.4781, 8.80689, 111.328, -57.1078
9.9601, 104, 37.2966, 25.968, 11.4829, 8.89732, 111.415, -56.8611
9.96804, 104, 37.37, 26.1636, 11.4895, 8.98823, 111.496, -56.6189
9.97611, 104, 37.4426, 26.3559, 11.4977, 9.07994, 111.573, -56.3804
9.9841, 104, 37.5147, 26.5457, 11.5072, 9.17238, 111.646, -56.1444
9.99204, 104, 37.5865, 26.7327, 11.5172, 9.26551, 111.716, -55.91
10.0001, 104, 37.6577, 26.9167, 11.5276, 9.3595, 111.785, -55.6769
10.0081, 104, 37.7285, 27.0993, 11.5383, 9.45418, 111.853, -55.4446
10.0161, 104, 37.7989, 27.2816, 11.5489, 9.54971, 111.921, -55.2131
10.024, 104, 37.8688, 27.4634, 11.5595, 9.64608, 111.988, -54.9817
10.0321, 104, 37.9383, 27.6448, 11.5701, 9.74331, 112.055, -54.7506
10.0417, 104, 38.0076, 27.8265, 11.5805, 9.84127, 112.121, -54.405
10.048, 104, 38.0767, 28.0088, 11.5909, 9.94001, 112.188, -54.29
10.0561, 104, 38.1455, 28.1912, 11.6013, 10.0398, 112.254, -54.0605
10.064, 104, 38.2142, 28.3737, 11.6116, 10.1404, 112.32, -53.8311
10.072, 104, 38.2826, 28.5568, 11.622, 10.2418, 112.386, -53.6019
10.0801, 104, 38.3504, 28.7406, 11.6322, 10.3443, 112.452, -53.373
10.0872, 104, 38.418, 28.9245, 11.6424, 10.4472, 112.517, -53.1447
10.095, 104, 38.4852, 29.108, 11.6526, 10.5511, 112.582, -52.9166
10.104, 104, 38.5522, 29.2917, 11.6627, 10.6558, 112.647, -52.6888
10.1121, 104, 38.6187, 29.4759, 11.6727, 10.7612, 112.711, -52.4613
10.1202, 104, 38.6848, 29.66, 11.6825, 10.8675, 112.776, -52.2343
10.1272, 104, 38.7506, 29.8436, 11.6922, 10.9746, 112.84, -52.0078
10.1353, 104, 38.8158, 30.0277, 11.702, 11.0825, 112.905, -51.7816
10.1431, 104, 38.8806, 30.2122, 11.7115, 11.1913, 112.968, -51.5552
10.1518, 104, 38.9449, 30.3968, 11.721, 11.3007, 113.032, -51.3293
10.16, 104, 39.0085, 30.5804, 11.7304, 11.411, 113.095, -51.1038
10.1681, 104, 39.071, 30.7625, 11.7397, 11.5218, 113.158, -50.8791
10.1751, 104, 39.1315, 30.942, 11.7484, 11.6329, 113.222, -50.6555
10.1831, 104, 39.1898, 31.1159, 11.7567, 11.7434, 113.283, -50.4344
10.1911, 104, 39.2456, 31.2822, 11.7644, 11.8521, 113.344, -50.2183
10.1992, 104, 39.2989, 31.4406, 11.7715, 11.9572, 113.402, -50.0105
10.2075, 104, 39.3494, 31.5896, 11.7779, 12.0571, 113.457, -49.8146
10.2153, 104, 39.3964, 31.7272, 11.7838, 12.1495, 113.508, -49.6342
10.2234, 104, 39.4395, 31.8528, 11.7894, 12.2331, 113.552, -49.4724
10.2316, 104, 39.4784, 31.9662, 11.7946, 12.3056, 113.591, -49.3316
10.2402, 104, 39.5129, 32.0662, 11.7995, 12.3679, 113.624, -49.2124
10.2477, 104, 39.5423, 32.1517, 11.8041, 12.4184, 113.651, -49.1151
10.2562, 104, 39.5668, 32.2229, 11.8083, 12.4579, 113.672, -49.0378
10.2636, 104, 39.587, 32.2808, 11.8122, 12.4885, 113.687, -48.9795
10.2722, 104, 39.6024, 32.327, 11.8157, 12.5109, 113.698, -48.9372
10.2797, 104, 39.6136, 32.3622, 11.8186, 12.5266, 113.706, -48.9081
10.2882, 104, 39.6214, 32.388, 11.821, 12.5368, 113.71, -48.8892
10.295, 104, 39.6243, 32.3981, 11.822, 12.5404, 113.712, -48.8827
10.3041, 104, 39.6304, 32.4193, 11.8244, 12.5467, 113.715, -48.8716
10.3122, 105, 39.6318, 32.4238, 11.825, 12.5478, 113.715, -48.8686
10.3191, 105, 39.6336, 32.4299, 11.826, 12.5492, 113.716, -48.8677
10.3282, 105, 39.6333, 32.4347, 11.827, 12.55, 113.716, -48.8666
10.335, 105, 39.633, 32.4357, 11.8273, 12.5501, 113.716, -48.8664
10.3443, 105, 39.6317, 32.4375, 11.8279, 12.5502, 113.716, -48.8663
10.3511, 105, 39.6315, 32.438, 11.8282, 12.5502, 113.716, -48.8662
10.3606, 105, 39.6312, 32.4395, 11.8288, 12.5503, 113.716, -48.8663
10.3686, 105, 39.6314, 32.4405, 11.8293, 12.5503, 113.716, -48.8663
10.3765, 105, 39.6319, 32.4413, 11.8297, 12.5503, 113.716, -48.8665
10.3847, 105, 39.6325, 32.4421, 11.8301, 12.5503, 113.716, -48.8666
10.3926, 105, 39.6332, 32.4427, 11.8304, 12.5503, 113.716, -48.8667
10.4006, 105, 39.6334, 32.4432, 11.8306, 12.5503, 113.716, -48.8668
10.4087, 105, 39.6342, 32.4434, 11.8307, 12.5502, 113.716, -48.8669
10.416, 105, 39.6353, 32.4437, 11.8308, 12.5503, 113.716, -48.8669
