rpiRobotics/ARM-21-02-F-19-Robot-Motion-Program/data_performance_abb/curve_2/baseline/100L/realrobot/bisect/run_2realrobot_curve_exe_v300.0_z10.csv
timestamp, cmd_num, J1, J2, J3, J4, J5, J6
0.000376, -1, 39.6331, 32.444, 11.8323, 12.5483, 113.716, -48.8694
0.006166, -1, 39.6331, 32.444, 11.8323, 12.5483, 113.716, -48.8694
0.008222, -1, 39.6331, 32.444, 11.8323, 12.5483, 113.716, -48.8694
0.031487, -1, 39.6331, 32.444, 11.8323, 12.5482, 113.716, -48.8695
0.032755, -1, 39.6331, 32.444, 11.8323, 12.5482, 113.716, -48.8695
0.035052, -1, 39.6331, 32.444, 11.8323, 12.5482, 113.716, -48.8694
0.039762, -1, 39.6331, 32.444, 11.8323, 12.5483, 113.716, -48.8694
0.047703, -1, 39.6331, 32.444, 11.8323, 12.5483, 113.716, -48.8695
0.055703, -1, 39.6325, 32.444, 11.8323, 12.5483, 113.716, -48.8694
0.063763, -1, 39.6301, 32.4435, 11.8323, 12.5483, 113.716, -48.8694
0.071735, -1, 39.6248, 32.442, 11.8322, 12.5482, 113.716, -48.8697
0.079718, -1, 39.6159, 32.4389, 11.8321, 12.5482, 113.715, -48.8714
0.087765, -1, 39.6027, 32.4335, 11.8321, 12.5482, 113.714, -48.8757
0.095692, -1, 39.583, 32.4249, 11.8321, 12.5481, 113.71, -48.8861
0.103702, -1, 39.5545, 32.4121, 11.8326, 12.5481, 113.704, -48.9064
0.1118, -1, 39.5162, 32.3944, 11.8348, 12.5481, 113.692, -48.9395
0.119693, -1, 39.4669, 32.3704, 11.8398, 12.5481, 113.673, -48.9895
0.127712, -1, 39.4049, 32.3399, 11.8482, 12.5481, 113.645, -49.0607
0.135762, -1, 39.3297, 32.302, 11.861, 12.5482, 113.608, -49.1547
0.143693, -1, 39.2408, 32.2562, 11.8788, 12.5484, 113.562, -49.2742
0.151833, -1, 39.138, 32.2026, 11.9013, 12.549, 113.505, -49.4192
0.159721, -1, 39.021, 32.1412, 11.9281, 12.5499, 113.438, -49.5889
0.167723, -1, 38.8906, 32.0724, 11.9587, 12.5513, 113.362, -49.7815
0.176597, -1, 38.7478, 31.9971, 11.9927, 12.5531, 113.278, -49.9937
0.183814, -1, 38.5936, 31.9158, 12.029, 12.5552, 113.188, -50.2217
0.19179, -1, 38.4294, 31.8296, 12.0668, 12.5574, 113.093, -50.462
0.200543, -1, 38.2572, 31.7394, 12.1056, 12.5597, 112.995, -50.7104
0.207789, -1, 38.0788, 31.6462, 12.1446, 12.5621, 112.895, -50.964
0.215812, -1, 37.8952, 31.5508, 12.1835, 12.5646, 112.793, -51.2209
0.225015, -1, 37.7077, 31.4539, 12.2224, 12.5669, 112.691, -51.4794
0.231709, -1, 37.5175, 31.3562, 12.2611, 12.5694, 112.589, -51.7389
0.240115, -1, 37.3259, 31.2583, 12.2999, 12.5719, 112.486, -51.9986
0.246781, -1, 37.2298, 31.2093, 12.3194, 12.5731, 112.435, -52.1285
0.255777, -1, 36.9414, 31.0626, 12.3775, 12.577, 112.28, -52.5185
0.264026, -1, 36.7495, 30.9649, 12.4163, 12.5796, 112.177, -52.7789
0.270669, -1, 36.6537, 30.916, 12.4357, 12.5809, 112.126, -52.9091
0.280011, -1, 36.3663, 30.7695, 12.494, 12.5848, 111.971, -53.2997
0.286675, -1, 36.2706, 30.7207, 12.5134, 12.5861, 111.919, -53.43
0.296089, -1, 35.9834, 30.5739, 12.5717, 12.59, 111.765, -53.8208
0.302782, -1, 35.8876, 30.5249, 12.5912, 12.5914, 111.714, -53.9513
0.312357, -1, 35.6001, 30.3779, 12.6496, 12.5952, 111.559, -54.3418
0.320234, -1, 35.4081, 30.2797, 12.6884, 12.5978, 111.456, -54.6023
0.326745, -1, 35.3119, 30.2306, 12.7078, 12.5992, 111.404, -54.7325
0.336523, -1, 35.0232, 30.0832, 12.7662, 12.603, 111.25, -55.1237
0.344271, -1, 34.9271, 30.0339, 12.7856, 12.6043, 111.147, -55.3843
0.351685, -1, 34.7348, 29.9354, 12.8245, 12.6069, 111.095, -55.5146
0.359736, -1, 34.5424, 29.837, 12.8633, 12.6094, 110.992, -55.7754
0.367667, -1, 34.3501, 29.7386, 12.9023, 12.6121, 110.889, -56.0362
0.375672, -1, 34.158, 29.6403, 12.9412, 12.6147, 110.786, -56.2973
0.383728, -1, 33.966, 29.5421, 12.9802, 12.6173, 110.683, -56.558
0.391683, -1, 33.7743, 29.4438, 13.0192, 12.62, 110.58, -56.8188
0.399691, -1, 33.5825, 29.3455, 13.058, 12.6227, 110.476, -57.0798
0.407711, -1, 33.3903, 29.2472, 13.0969, 12.6253, 110.374, -57.341
0.41572, -1, 33.1977, 29.1487, 13.1359, 12.628, 110.27, -57.6019
0.423771, -1, 33.005, 29.0502, 13.1746, 12.6306, 110.167, -57.863
0.431686, -1, 32.812, 28.9517, 13.2136, 12.6332, 110.064, -58.1242
0.439737, -1, 32.6187, 28.8531, 13.2525, 12.636, 109.961, -58.3855
0.447719, -1, 32.4251, 28.7544, 13.2913, 12.6387, 109.858, -58.6466
0.455662, -1, 32.2313, 28.6557, 13.3302, 12.6413, 109.755, -58.9077
0.463742, -1, 32.0372, 28.557, 13.369, 12.6441, 109.652, -59.1689
0.471684, -1, 31.8433, 28.4582, 13.4078, 12.6469, 109.549, -59.4303
0.479687, -1, 31.6496, 28.3595, 13.4469, 12.6496, 109.446, -59.6917
0.488667, -1, 31.4562, 28.2608, 13.4858, 12.6524, 109.343, -59.9528
0.623145, -1, 28.1722, 26.5831, 14.1479, 12.6972, 107.587, -64.3992
0.624445, -1, 28.1722, 26.5831, 14.1479, 12.6972, 107.587, -64.3992
0.625634, -1, 28.1722, 26.5831, 14.1479, 12.6972, 107.587, -64.3992
0.628517, -1, 28.0756, 26.5337, 14.1674, 12.6985, 107.535, -64.53
0.629726, -1, 28.0756, 26.5337, 14.1674, 12.6985, 107.535, -64.53
0.631759, -1, 27.9791, 26.4843, 14.1869, 12.6997, 107.484, -64.6609
0.632958, -1, 27.9791, 26.4843, 14.1869, 12.6997, 107.484, -64.6609
0.635758, -1, 27.8827, 26.4349, 14.2064, 12.701, 107.432, -64.7917
0.77464, -1, 24.5975, 24.755, 14.8688, 12.7403, 105.677, -69.2413
0.776705, -1, 24.5014, 24.7056, 14.8883, 12.7415, 105.625, -69.3722
0.777907, -1, 24.5014, 24.7056, 14.8883, 12.7415, 105.625, -69.3722
0.779848, -1, 24.4053, 24.6561, 14.9078, 12.7427, 105.573, -69.5032
0.782086, -1, 24.4053, 24.6561, 14.9078, 12.7427, 105.573, -69.5032
0.783941, -1, 24.3091, 24.6066, 14.9273, 12.744, 105.522, -69.634
0.785429, -1, 24.3091, 24.6066, 14.9273, 12.744, 105.522, -69.634
0.788304, -1, 24.2128, 24.5572, 14.9468, 12.7452, 105.47, -69.7648
0.789605, -1, 24.2128, 24.5572, 14.9468, 12.7452, 105.47, -69.7648
0.790896, -1, 24.2128, 24.5572, 14.9468, 12.7452, 105.47, -69.7648
0.792869, -1, 24.1166, 24.5078, 14.9663, 12.7463, 105.419, -69.8955
0.794259, -1, 24.1166, 24.5078, 14.9663, 12.7463, 105.419, -69.8955
0.796993, -1, 24.0202, 24.4584, 14.9858, 12.7474, 105.367, -70.0262
0.798233, -1, 24.0202, 24.4584, 14.9858, 12.7474, 105.367, -70.0262
0.800193, -1, 23.9238, 24.409, 15.0053, 12.7486, 105.315, -70.1569
0.805943, -1, 23.8274, 24.3596, 15.0248, 12.7498, 105.263, -70.2878
0.807206, -1, 23.8274, 24.3596, 15.0248, 12.7498, 105.263, -70.2878
0.809265, -1, 23.7309, 24.3101, 15.0442, 12.751, 105.212, -70.4186
0.81051, -1, 23.7309, 24.3101, 15.0442, 12.751, 105.212, -70.4186
0.812511, -1, 23.6343, 24.2607, 15.0637, 12.7522, 105.16, -70.5496
0.813761, -1, 23.6343, 24.2607, 15.0637, 12.7522, 105.16, -70.5496
0.815143, -1, 23.6343, 24.2607, 15.0637, 12.7522, 105.16, -70.5496
0.818707, -1, 23.5377, 24.2113, 15.0832, 12.7534, 105.108, -70.6805
0.82163, -1, 23.441, 24.1619, 15.1026, 12.7546, 105.057, -70.8113
0.822834, -1, 23.441, 24.1619, 15.1026, 12.7546, 105.057, -70.8113
0.824874, -1, 23.3443, 24.1125, 15.1221, 12.7558, 105.005, -70.9421
0.826128, -1, 23.3443, 24.1125, 15.1221, 12.7558, 105.005, -70.9421
0.828008, -1, 23.3443, 24.1125, 15.1221, 12.7558, 105.005, -70.9421
0.830279, -1, 23.2474, 24.0631, 15.1415, 12.7571, 104.953, -71.0729
0.832088, -1, 23.2474, 24.0631, 15.1415, 12.7571, 104.953, -71.2038
0.835268, -1, 23.1504, 24.0136, 15.161, 12.7583, 104.901, -71.2038
0.837309, -1, 23.0534, 23.9641, 15.1804, 12.7595, 104.85, -71.3347
0.838651, -1, 23.0534, 23.9641, 15.1804, 12.7595, 104.85, -71.3347
0.840488, -1, 22.9564, 23.9147, 15.1999, 12.7607, 104.798, -71.4657
0.841927, -1, 22.9564, 23.9147, 15.1999, 12.7607, 104.798, -71.4657
0.843133, -1, 22.9564, 23.9147, 15.1999, 12.7607, 104.798, -71.4657
0.848308, -1, 22.8593, 23.8653, 15.2193, 12.762, 104.695, -71.7275
0.856472, -1, 22.6654, 23.7666, 15.2583, 12.7657, 104.591, -71.989
0.863651, -1, 22.4715, 23.6679, 15.2973, 12.7669, 104.54, -72.1198
0.871726, -1, 22.2781, 23.5693, 15.3363, 12.7694, 104.436, -72.3812
0.879649, -1, 22.0849, 23.4706, 15.3752, 12.772, 104.333, -72.6427
0.887633, -1, 21.8919, 23.3719, 15.4141, 12.7746, 104.23, -72.9043
0.895651, -1, 21.6994, 23.2732, 15.4531, 12.7773, 104.126, -73.1656
0.903654, -1, 21.5073, 23.1744, 15.492, 12.78, 104.023, -73.427
0.911752, -1, 21.3151, 23.0756, 15.531, 12.7827, 103.92, -73.6884
0.919777, -1, 21.1228, 22.977, 15.57, 12.7854, 103.817, -73.95
0.927669, -1, 20.9302, 22.8784, 15.6089, 12.7881, 103.714, -74.2113
0.935704, -1, 20.7378, 22.7798, 15.6478, 12.7908, 103.611, -74.4723
0.943646, -1, 20.5451, 22.6812, 15.6867, 12.7935, 103.508, -74.7336
0.951697, -1, 20.352, 22.5826, 15.7256, 12.7962, 103.405, -74.9949
0.958714, -1, 20.1583, 22.4839, 15.7645, 12.7989, 103.302, -75.2561
0.967656, -1, 19.9645, 22.3852, 15.8034, 12.8016, 103.198, -75.5173
0.975646, -1, 19.7708, 22.2866, 15.8421, 12.8043, 103.096, -75.7784
0.984649, -1, 19.5772, 22.188, 15.881, 12.807, 102.993, -76.0397
0.991646, -1, 19.3837, 22.0894, 15.9199, 12.8098, 102.889, -76.3008
1.00064, -1, 19.1907, 21.9907, 15.9588, 12.8125, 102.787, -76.5618
1.00773, -1, 18.9979, 21.892, 15.9977, 12.8152, 102.683, -76.8227
1.01564, -1, 18.8054, 21.7934, 16.0365, 12.8178, 102.58, -77.0837
1.02365, -1, 18.6133, 21.6946, 16.0752, 12.8205, 102.478, -77.3448
1.03164, -1, 18.4216, 21.5961, 16.1142, 12.8232, 102.375, -77.6054
1.03964, -1, 18.2297, 21.4976, 16.153, 12.8258, 102.272, -77.8663
1.04774, -1, 18.0378, 21.3991, 16.1918, 12.8283, 102.169, -78.1269
1.05577, -1, 17.846, 21.3008, 16.2307, 12.8308, 102.066, -78.3878
1.06364, -1, 17.654, 21.2025, 16.2696, 12.8333, 101.963, -78.6483
1.07174, -1, 17.4616, 21.1042, 16.3084, 12.8357, 101.86, -78.9088
1.07968, -1, 17.2687, 21.0059, 16.3473, 12.8381, 101.757, -79.1694
1.08765, -1, 17.0755, 20.9076, 16.386, 12.8405, 101.654, -79.43
1.09573, -1, 16.8825, 20.8094, 16.4249, 12.8428, 101.551, -79.6905
1.10364, -1, 16.6893, 20.7113, 16.4637, 12.8451, 101.448, -79.951
1.11165, -1, 16.4963, 20.613, 16.5024, 12.8474, 101.346, -80.2115
1.11977, -1, 16.3034, 20.5147, 16.5411, 12.8498, 101.243, -80.4722
1.12765, -1, 16.1111, 20.4164, 16.5799, 12.8521, 101.141, -80.7326
1.13564, -1, 15.9192, 20.318, 16.6187, 12.8544, 101.038, -80.9928
1.14374, -1, 15.7275, 20.2194, 16.6575, 12.8566, 100.935, -81.2527
1.15164, -1, 15.5362, 20.121, 16.6961, 12.859, 100.833, -81.5129
1.15972, -1, 15.345, 20.0227, 16.7348, 12.8613, 100.73, -81.7732
1.1685, -1, 15.1539, 19.9244, 16.7736, 12.8635, 100.627, -82.0329
1.17568, -1, 14.9627, 19.8262, 16.8123, 12.8658, 100.525, -82.2928
1.1838, -1, 14.7714, 19.7282, 16.8511, 12.8681, 100.422, -82.5527
1.19255, -1, 14.58, 19.6301, 16.8898, 12.8704, 100.32, -82.8128
1.19975, -1, 14.3881, 19.532, 16.9286, 12.8728, 100.217, -83.0724
1.20783, -1, 14.1959, 19.434, 16.9673, 12.875, 100.115, -83.3319
1.21653, -1, 14.0035, 19.3361, 17.0061, 12.8772, 100.012, -83.5915
1.22372, -1, 13.811, 19.2382, 17.0447, 12.8796, 99.9096, -83.8511
1.23179, -1, 13.6184, 19.1405, 17.0835, 12.8818, 99.807, -84.1107
1.24057, -1, 13.4261, 19.0426, 17.1222, 12.8842, 99.7044, -84.37
1.24774, -1, 13.2341, 18.9447, 17.1607, 12.8865, 99.6023, -84.6292
1.25604, -1, 13.0426, 18.8468, 17.1993, 12.8889, 99.4998, -84.8887
1.26461, -1, 12.8513, 18.7488, 17.238, 12.8912, 99.3973, -85.148
1.27187, -1, 12.6603, 18.6509, 17.2766, 12.8936, 99.2953, -85.4069
1.28, -1, 12.4697, 18.5531, 17.3152, 12.896, 99.1929, -85.6659
1.28959, -1, 12.2795, 18.4553, 17.3538, 12.8984, 99.0905, -85.9248
1.29613, -1, 12.0893, 18.3575, 17.3923, 12.9008, 98.9886, -86.1838
1.30264, -1, 11.9942, 18.3087, 17.4116, 12.902, 98.9375, -86.3133
1.31216, -1, 11.7085, 18.1624, 17.4695, 12.9057, 98.7844, -86.7013
1.32023, -1, 11.5176, 18.0647, 17.508, 12.9082, 98.6826, -86.96
1.32905, -1, 11.3266, 17.9672, 17.5466, 12.9106, 98.5807, -87.2186
1.33624, -1, 11.1354, 17.8697, 17.5852, 12.913, 98.4788, -87.4771
1.34424, -1, 10.9438, 17.7722, 17.6237, 12.9156, 98.3769, -87.7353
1.35337, -1, 10.848, 17.7235, 17.643, 12.9181, 98.2749, -87.9936
1.35963, -1, 10.6562, 17.6261, 17.6815, 12.9194, 98.2239, -88.1228
1.3677, -1, 10.4647, 17.5286, 17.7199, 12.9219, 98.1222, -88.3811
1.37563, -1, 10.2736, 17.431, 17.7583, 12.9245, 98.0201, -88.6391
1.38271, -1, 10.0828, 17.3335, 17.7967, 12.9271, 97.9182, -88.8971
1.3917, -1, 9.89237, 17.2359, 17.8351, 12.9298, 97.8165, -89.1552
1.39963, -1, 9.7022, 17.1384, 17.8734, 12.9323, 97.7144, -89.4133
1.4077, -1, 9.51256, 17.041, 17.9117, 12.9351, 97.6125, -89.6713
1.41704, -1, 9.22876, 16.8949, 17.9693, 12.9392, 97.4597, -90.0577
1.42271, -1, 9.13407, 16.8463, 17.9885, 12.9405, 97.4089, -90.1865
1.43168, -1, 8.94474, 16.7492, 18.0268, 12.9432, 97.3071, -90.444
1.43963, -1, 8.7552, 16.652, 18.0652, 12.9459, 97.2055, -90.7016
1.44764, -1, 8.56558, 16.5548, 18.1036, 12.9484, 97.1037, -90.9588
1.45573, -1, 8.37589, 16.4578, 18.1419, 12.9512, 97.0022, -91.216
1.46363, -1, 8.18563, 16.3608, 18.1802, 12.9537, 96.9007, -91.4731
1.47162, -1, 7.99506, 16.2639, 18.2186, 12.9564, 96.799, -91.7303
1.47971, -1, 7.80447, 16.1671, 18.2568, 12.9591, 96.6977, -91.9872
1.48867, -1, 7.61387, 16.0702, 18.2951, 12.9616, 96.5962, -92.2439
1.49563, -1, 7.42343, 15.9733, 18.3335, 12.9641, 96.4947, -92.5007
1.50368, -1, 7.23324, 15.8764, 18.3716, 12.9667, 96.3935, -92.7575
1.51163, -1, 7.04344, 15.7794, 18.4097, 12.9692, 96.2921, -93.0141
1.51967, -1, 6.85394, 15.6825, 18.448, 12.9717, 96.1908, -93.2705
1.52764, -1, 6.66505, 15.5856, 18.4861, 12.9742, 96.0901, -93.5269
1.53567, -1, 6.47663, 15.4888, 18.5241, 12.9767, 95.989, -93.7833
1.54369, -1, 6.28843, 15.3921, 18.5623, 12.9792, 95.8879, -94.0398
1.55162, -1, 6.10028, 15.2954, 18.6004, 12.9816, 95.7873, -94.2957
1.55963, -1, 5.91205, 15.1987, 18.6386, 12.9839, 95.6862, -94.5516
1.56771, -1, 5.72371, 15.102, 18.6767, 12.9862, 95.5852, -94.8075
1.57563, -1, 5.53515, 15.0054, 18.7148, 12.9886, 95.4845, -95.0635
1.58366, -1, 5.34641, 14.9089, 18.7529, 12.9908, 95.3836, -95.3192
1.5917, -1, 5.15727, 14.8125, 18.791, 12.993, 95.2829, -95.5747
1.59962, -1, 4.96778, 14.7162, 18.829, 12.9952, 95.1824, -95.8301
1.60763, -1, 4.77834, 14.6198, 18.867, 12.9975, 95.0815, -96.0856
1.6157, -1, 4.58888, 14.5234, 18.9051, 12.9997, 94.9808, -96.3408
1.62366, -1, 4.39965, 14.4271, 18.9431, 13.0019, 94.8802, -96.5958
1.63163, -1, 4.21075, 14.3307, 18.9811, 13.0041, 94.7793, -96.8507
1.6397, -1, 4.02212, 14.2343, 19.0191, 13.0064, 94.6785, -97.1059
1.64763, -1, 3.83405, 14.1381, 19.057, 13.0087, 94.5776, -97.3609
1.6557, -1, 3.64653, 14.0419, 19.095, 13.0109, 94.4768, -97.6157
1.66375, -1, 3.45937, 13.9457, 19.1329, 13.0132, 94.3762, -97.8704
1.67166, -1, 3.27244, 13.8497, 19.1706, 13.0155, 94.2755, -98.1251
1.67974, -1, 3.08549, 13.7537, 19.2085, 13.0177, 94.1747, -98.3798
1.68791, -1, 2.89848, 13.6576, 19.2465, 13.02, 94.0742, -98.6343
1.69573, -1, 2.7114, 13.5616, 19.2843, 13.0223, 93.9736, -98.8883
1.70381, -1, 2.52415, 13.4657, 19.3222, 13.0245, 93.8731, -99.1425
1.71208, -1, 2.33673, 13.3698, 19.3599, 13.0268, 93.7729, -99.3966
1.7193, -1, 2.1488, 13.274, 19.3977, 13.0291, 93.6725, -99.6506
1.72781, -1, 1.9606, 13.1782, 19.4356, 13.0313, 93.5722, -99.9043
1.73628, -1, 1.77248, 13.0823, 19.4733, 13.0337, 93.4724, -100.158
1.74366, -1, 1.58422, 12.9866, 19.511, 13.0359, 93.3722, -100.411
1.75177, -1, 1.39609, 12.8908, 19.5488, 13.0381, 93.2722, -100.665
1.76054, -1, 1.20826, 12.7949, 19.5865, 13.0405, 93.1724, -100.918
1.76777, -1, 1.02083, 12.6992, 19.6242, 13.0428, 93.0722, -101.171
1.77593, -1, 0.834082, 12.6037, 19.662, 13.0451, 92.9723, -101.424
1.78476, -1, 0.647717, 12.5081, 19.6996, 13.0476, 92.8727, -101.677
1.79199, -1, 0.461798, 12.4126, 19.7372, 13.05, 92.7727, -101.93
1.80006, -1, 0.276217, 12.3172, 19.7749, 13.0525, 92.6729, -102.183
1.80662, -1, 0.183511, 12.2696, 19.7937, 13.0537, 92.6234, -102.309
1.81616, -1, -0.0945795, 12.1266, 19.8499, 13.0574, 92.4739, -102.688
1.82421, -1, -0.280283, 12.0313, 19.8876, 13.0598, 92.3743, -102.941
1.83302, -1, -0.466167, 11.9361, 19.9252, 13.0623, 92.2752, -103.193
1.84024, -1, -0.652427, 11.8411, 19.9627, 13.0648, 92.1755, -103.445
1.84828, -1, -0.838924, 11.7461, 20.0003, 13.0674, 92.076, -103.697
1.8571, -1, -0.932196, 11.6986, 20.0191, 13.0686, 92.0265, -103.823
1.86268, -1, -1.11891, 11.6036, 20.0565, 13.0711, 91.927, -104.075
1.87266, -1, -1.39934, 11.461, 20.1128, 13.075, 91.778, -104.452
1.87962, -1, -1.49275, 11.4134, 20.1315, 13.0762, 91.7286, -104.578
1.88668, -1, -1.67935, 11.3183, 20.1688, 13.0787, 91.6294, -104.83
1.89567, -1, -1.86557, 11.2233, 20.2063, 13.0814, 91.5302, -105.081
1.90361, -1, -2.05128, 11.1283, 20.2438, 13.084, 91.4312, -105.332
1.91062, -1, -2.2364, 11.0334, 20.2811, 13.0866, 91.3319, -105.583
1.91965, -1, -2.42121, 10.9385, 20.3185, 13.0893, 91.2327, -105.834
1.92761, -1, -2.60562, 10.8438, 20.3559, 13.092, 91.1337, -106.085
1.93567, -1, -2.78952, 10.749, 20.3931, 13.0947, 91.0345, -106.336
1.94361, -1, -2.97347, 10.6542, 20.4305, 13.0973, 90.9353, -106.587
1.9516, -1, -3.15758, 10.5596, 20.4678, 13.0998, 90.8366, -106.837
1.95973, -1, -3.34192, 10.465, 20.505, 13.1024, 90.7377, -107.088
1.96762, -1, -3.52653, 10.3706, 20.5423, 13.1049, 90.6388, -107.339
1.97562, -1, -3.71128, 10.2762, 20.5796, 13.1074, 90.5401, -107.589
1.98461, -1, -3.89634, 10.1819, 20.6169, 13.1099, 90.4412, -107.839
1.99162, -1, -4.08171, 10.0876, 20.6542, 13.1123, 90.3426, -108.089
1.99967, -1, -4.26723, 9.99331, 20.6913, 13.1148, 90.2441, -108.339
2.00764, -1, -4.45285, 9.899, 20.7285, 13.117, 90.1452, -108.588
2.01582, -1, -4.6382, 9.80466, 20.7658, 13.1193, 90.0467, -108.838
2.02361, -1, -4.8231, 9.71048, 20.8029, 13.1216, 89.9484, -109.087
2.03165, -1, -5.00761, 9.61639, 20.8399, 13.1241, 89.8499, -109.337
2.04043, -1, -5.19133, 9.52234, 20.8771, 13.1264, 89.7514, -109.586
2.0476, -1, -5.37472, 9.42829, 20.9142, 13.1287, 89.6533, -109.835
2.05562, -1, -5.55763, 9.33437, 20.9513, 13.131, 89.5548, -110.084
2.06445, -1, -5.74001, 9.24047, 20.9884, 13.1333, 89.4565, -110.333
2.0716, -1, -5.92237, 9.14656, 21.0254, 13.1356, 89.3585, -110.581
2.07961, -1, -6.1048, 9.05268, 21.0624, 13.1378, 89.2602, -110.83
2.08843, -1, -6.28752, 8.95892, 21.0995, 13.14, 89.1621, -111.078
2.09562, -1, -6.47043, 8.86533, 21.1364, 13.1422, 89.0644, -111.327
2.10361, -1, -6.65363, 8.77169, 21.1732, 13.1443, 88.9664, -111.575
2.11247, -1, -6.83727, 8.67807, 21.2101, 13.1465, 88.8684, -111.823
2.11961, -1, -7.02113, 8.58453, 21.247, 13.1486, 88.7707, -112.071
2.12764, -1, -7.20529, 8.49098, 21.2838, 13.1507, 88.6727, -112.319
2.13641, -1, -7.38948, 8.39736, 21.3208, 13.1528, 88.575, -112.566
2.14361, -1, -7.57331, 8.30376, 21.3576, 13.155, 88.4775, -112.814
2.15161, -1, -7.7569, 8.21031, 21.3943, 13.1572, 88.3797, -113.061
2.16049, -1, -7.94, 8.11691, 21.4313, 13.1594, 88.2823, -113.309
2.16761, -1, -8.12257, 8.02353, 21.468, 13.1616, 88.1851, -113.556
2.17566, -1, -8.30441, 7.9303, 21.5047, 13.1639, 88.0876, -113.803
2.18446, -1, -8.4858, 7.83705, 21.5416, 13.1661, 87.9902, -114.05
2.19171, -1, -8.66677, 7.7439, 21.5784, 13.1684, 87.893, -114.296
2.1997, -1, -8.84747, 7.65073, 21.6151, 13.1707, 87.7954, -114.543
2.20855, -1, -9.02822, 7.55766, 21.6519, 13.1729, 87.698, -114.789
2.21582, -1, -9.2093, 7.46467, 21.6886, 13.1752, 87.6009, -115.036
2.22372, -1, -9.39056, 7.37184, 21.7252, 13.1774, 87.5036, -115.282
2.23256, -1, -9.57222, 7.279, 21.7619, 13.1796, 87.4064, -115.528
2.23961, -1, -9.7541, 7.18622, 21.7986, 13.1819, 87.3094, -115.774
2.24769, -1, -9.93645, 7.09352, 21.8351, 13.184, 87.2122, -116.021
2.25661, -1, -10.119, 7.0008, 21.8717, 13.1862, 87.115, -116.266
2.26371, -1, -10.3016, 6.90803, 21.9083, 13.1885, 87.0179, -116.512
2.27209, -1, -10.4841, 6.81529, 21.9448, 13.1906, 86.9208, -116.757
2.28079, -1, -10.6665, 6.72259, 21.9815, 13.1929, 86.8237, -117.003
2.28787, -1, -10.8484, 6.62997, 22.0179, 13.1953, 86.7269, -117.248
2.29619, -1, -11.0296, 6.53738, 22.0543, 13.1978, 86.6299, -117.493
2.304, -1, -11.2101, 6.44484, 22.0909, 13.2002, 86.5332, -117.738
2.31206, -1, -11.3901, 6.35236, 22.1274, 13.2026, 86.4367, -117.983
2.31869, -1, -11.4799, 6.30613, 22.1456, 13.2038, 86.3882, -118.106
2.32812, -1, -11.749, 6.1675, 22.2003, 13.2075, 86.2433, -118.473
2.33616, -1, -11.9282, 6.07523, 22.2368, 13.21, 86.1468, -118.717
2.34434, -1, -12.1075, 5.98301, 22.2732, 13.2125, 86.0501, -118.961
2.35218, -1, -12.1972, 5.93693, 22.2914, 13.2149, 85.9537, -119.206
2.35875, -1, -12.3769, 5.84492, 22.3279, 13.2162, 85.9057, -119.328
2.36764, -1, -12.5569, 5.75292, 22.3641, 13.2187, 85.8092, -119.572
2.37559, -1, -12.7373, 5.66094, 22.4004, 13.2211, 85.7128, -119.816
2.38359, -1, -12.9182, 5.56902, 22.4368, 13.2236, 85.617, -120.059
2.39166, -1, -13.0992, 5.47712, 22.473, 13.226, 85.5209, -120.303
2.39959, -1, -13.2805, 5.3851, 22.5092, 13.2284, 85.425, -120.547
2.40894, -1, -13.5519, 5.24724, 22.5637, 13.2321, 85.2815, -120.912
2.41559, -1, -13.6422, 5.2013, 22.5818, 13.2334, 85.2334, -121.033
2.42369, -1, -13.8225, 5.10943, 22.6179, 13.236, 85.1376, -121.276
2.43161, -1, -14.0021, 5.01759, 22.6541, 13.2386, 85.042, -121.519
2.43959, -1, -14.1808, 4.92588, 22.6902, 13.2411, 84.9463, -121.762
2.44764, -1, -14.3591, 4.83418, 22.7263, 13.2437, 84.8507, -122.005
2.4556, -1, -14.5371, 4.74253, 22.7625, 13.2462, 84.7552, -122.247
2.4636, -1, -14.7148, 4.65096, 22.7987, 13.2488, 84.6596, -122.49
2.47166, -1, -14.8924, 4.55947, 22.8348, 13.2512, 84.5638, -122.732
2.47959, -1, -15.0701, 4.46805, 22.8709, 13.2537, 84.4683, -122.974
2.48859, -1, -15.2481, 4.37681, 22.9071, 13.2561, 84.3726, -123.216
2.49566, -1, -15.4265, 4.28551, 22.9431, 13.2585, 84.2769, -123.458
2.50464, -1, -15.6053, 4.19424, 22.9792, 13.2608, 84.1814, -123.7
2.51164, -1, -15.7845, 4.10302, 23.0152, 13.2631, 84.0857, -123.942
2.51966, -1, -15.9637, 4.01181, 23.0511, 13.2653, 83.9903, -124.183
2.52762, -1, -16.1431, 3.92053, 23.0871, 13.2674, 83.8948, -124.425
2.53559, -1, -16.323, 3.82928, 23.1231, 13.2695, 83.7993, -124.666
2.54365, -1, -16.5024, 3.73809, 23.1589, 13.2717, 83.7039, -124.908
2.5516, -1, -16.6815, 3.64698, 23.1947, 13.2739, 83.6086, -125.149
2.55966, -1, -16.8599, 3.55588, 23.2306, 13.2762, 83.5133, -125.39
2.56759, -1, -17.0376, 3.46485, 23.2664, 13.2783, 83.4179, -125.631
2.57559, -1, -17.2145, 3.37389, 23.3023, 13.2805, 83.3226, -125.872
2.58365, -1, -17.3911, 3.28301, 23.3382, 13.2828, 83.2276, -126.112
2.59163, -1, -17.5674, 3.19219, 23.3739, 13.2848, 83.1325, -126.353
2.59959, -1, -17.7435, 3.10154, 23.4098, 13.287, 83.0375, -126.593
2.60766, -1, -17.9195, 3.01096, 23.4457, 13.2891, 82.9429, -126.833
2.61559, -1, -18.0956, 2.92052, 23.4814, 13.2912, 82.848, -127.073
2.62359, -1, -18.2721, 2.83017, 23.5171, 13.2933, 82.7533, -127.314
2.63166, -1, -18.449, 2.73974, 23.5529, 13.2954, 82.6588, -127.553
2.63959, -1, -18.6264, 2.64938, 23.5886, 13.2974, 82.564, -127.793
2.6476, -1, -18.8041, 2.55908, 23.6243, 13.2995, 82.4694, -128.032
2.65565, -1, -18.9821, 2.46863, 23.66, 13.3015, 82.3751, -128.272
2.66359, -1, -19.1604, 2.37813, 23.6956, 13.3035, 82.2805, -128.512
2.6716, -1, -19.3385, 2.28777, 23.7311, 13.3055, 82.1861, -128.751
2.67972, -1, -19.5162, 2.19735, 23.7668, 13.3076, 82.0923, -128.99
2.68766, -1, -19.6934, 2.10693, 23.8022, 13.3097, 81.9979, -129.229
2.69575, -1, -19.87, 2.01666, 23.8376, 13.3119, 81.9037, -129.468
2.70374, -1, -20.0458, 1.92639, 23.8732, 13.3141, 81.81, -129.707
2.71169, -1, -20.221, 1.83617, 23.9087, 13.3163, 81.7157, -129.945
2.71977, -1, -20.3959, 1.74607, 23.9441, 13.3185, 81.6217, -130.183
2.7277, -1, -20.5705, 1.65599, 23.9797, 13.3207, 81.5279, -130.422
2.73559, -1, -20.7449, 1.56605, 24.0152, 13.3229, 81.4338, -130.66
2.74374, -1, -20.9195, 1.47618, 24.0505, 13.325, 81.34, -130.898
2.75162, -1, -21.0945, 1.38646, 24.086, 13.3273, 81.2464, -131.136
2.75966, -1, -21.2698, 1.29675, 24.1215, 13.3294, 81.1526, -131.374
2.76782, -1, -21.4455, 1.20704, 24.1568, 13.3316, 81.0586, -131.612
2.77577, -1, -21.6215, 1.11743, 24.1921, 13.3338, 80.965, -131.849
2.78461, -1, -21.7977, 1.02779, 24.2276, 13.336, 80.8711, -132.086
2.79193, -1, -21.974, 0.938161, 24.263, 13.3382, 80.7773, -132.324
2.79868, -1, -22.0622, 0.893371, 24.2806, 13.3392, 80.7304, -132.442
2.80884, -1, -22.3271, 0.759047, 24.3337, 13.3425, 80.5899, -132.798
2.81609, -1, -22.5032, 0.669575, 24.3689, 13.3448, 80.4963, -133.035
2.82421, -1, -22.6789, 0.580057, 24.4042, 13.3471, 80.4027, -133.272
2.83303, -1, -22.8539, 0.490651, 24.4395, 13.3495, 80.3091, -133.509
2.84016, -1, -23.0279, 0.401249, 24.4746, 13.3519, 80.2156, -133.746
2.84824, -1, -23.2016, 0.311901, 24.5097, 13.3545, 80.1221, -133.982
2.85696, -1, -23.2882, 0.267261, 24.5273, 13.3556, 80.0756, -134.219
2.86424, -1, -23.4614, 0.17799, 24.5625, 13.358, 79.982, -134.455
2.87162, -1, -23.6345, 0.0888234, 24.5977, 13.3604, 79.8887, -134.573
2.87958, -1, -23.8079, -0.000253751, 24.633, 13.3628, 79.7956, -134.809
2.88758, -1, -23.9813, -0.089225, 24.6682, 13.3653, 79.7023, -135.046
2.89565, -1, -24.1549, -0.178163, 24.7032, 13.3678, 79.6092, -135.281
2.90359, -1, -24.3288, -0.267098, 24.7383, 13.3702, 79.5161, -135.517
2.9106, -1, -24.5031, -0.355987, 24.7735, 13.3727, 79.4231, -135.753
2.91958, -1, -24.6777, -0.444843, 24.8085, 13.3751, 79.33, -135.988
2.9276, -1, -24.8526, -0.533728, 24.8435, 13.3774, 79.2371, -136.224
2.93564, -1, -25.0277, -0.622581, 24.8787, 13.3798, 79.1441, -136.459
2.94357, -1, -25.2027, -0.711382, 24.9137, 13.3822, 79.0511, -136.694
2.95157, -1, -25.3773, -0.800141, 24.9487, 13.3845, 78.9584, -136.929
2.95965, -1, -25.5515, -0.888975, 24.9838, 13.387, 78.8658, -137.164
2.96763, -1, -25.7251, -0.977695, 25.0186, 13.3894, 78.7729, -137.399
2.97557, -1, -25.898, -1.06637, 25.0534, 13.3918, 78.6803, -137.634
2.98516, -1, -26.0704, -1.15507, 25.0885, 13.3943, 78.588, -137.986
2.99158, -1, -26.2425, -1.24367, 25.1234, 13.3967, 78.4953, -138.103
3.00057, -1, -26.4142, -1.33215, 25.1582, 13.399, 78.4027, -138.337
3.00764, -1, -26.586, -1.42053, 25.1931, 13.4013, 78.3105, -138.572
3.01569, -1, -26.758, -1.50884, 25.2281, 13.4035, 78.2178, -138.806
3.02458, -1, -26.9303, -1.59703, 25.2629, 13.4058, 78.1255, -139.04
3.03164, -1, -27.1027, -1.68517, 25.2978, 13.408, 78.0334, -139.274
3.03961, -1, -27.2752, -1.77338, 25.3327, 13.4101, 77.9411, -139.507
3.04757, -1, -27.448, -1.86142, 25.3674, 13.4124, 77.849, -139.741
3.05559, -1, -27.6212, -1.94953, 25.4022, 13.4144, 77.7571, -139.974
3.06361, -1, -27.7945, -2.03777, 25.4371, 13.4165, 77.665, -140.208
3.0716, -1, -27.9679, -2.12578, 25.4718, 13.4186, 77.573, -140.441
3.07959, -1, -28.1411, -2.21381, 25.5065, 13.4206, 77.4811, -140.675
3.0876, -1, -28.3143, -2.30186, 25.5414, 13.4226, 77.3891, -140.908
3.09565, -1, -28.4871, -2.38993, 25.5761, 13.4246, 77.2969, -141.14
3.10358, -1, -28.6595, -2.47786, 25.6108, 13.4268, 77.2048, -141.373
3.1116, -1, -28.8313, -2.56584, 25.6455, 13.4289, 77.1127, -141.606
3.11961, -1, -29.0024, -2.6538, 25.6802, 13.4311, 77.0208, -141.839
3.12757, -1, -29.173, -2.74164, 25.7147, 13.4333, 76.9288, -142.072
3.13561, -1, -29.3435, -2.82943, 25.7494, 13.4353, 76.8372, -142.304
3.14361, -1, -29.5142, -2.91713, 25.7841, 13.4374, 76.7452, -142.537
3.15161, -1, -29.685, -3.0047, 25.8186, 13.4394, 76.6533, -142.769
3.15957, -1, -29.856, -3.09225, 25.8532, 13.4415, 76.5618, -143.002
3.1676, -1, -30.027, -3.17971, 25.8878, 13.4436, 76.4698, -143.234
3.17645, -1, -30.1979, -3.26721, 25.9223, 13.4457, 76.3782, -143.466
3.18363, -1, -30.369, -3.35464, 25.9569, 13.4477, 76.2867, -143.697
3.19168, -1, -30.5406, -3.44208, 25.9915, 13.4498, 76.1951, -143.929
3.20132, -1, -30.7124, -3.52963, 26.0259, 13.4517, 76.1036, -144.161
3.20767, -1, -30.8843, -3.61701, 26.0604, 13.4538, 76.0123, -144.392
3.21576, -1, -31.0561, -3.70442, 26.095, 13.4557, 75.9208, -144.624
3.22404, -1, -31.2278, -3.79176, 26.1295, 13.4578, 75.8295, -144.855
3.23163, -1, -31.3993, -3.87909, 26.1638, 13.4599, 75.7383, -145.086
3.23983, -1, -31.5701, -3.96636, 26.1983, 13.462, 75.647, -145.318
3.24905, -1, -31.7406, -4.05359, 26.2328, 13.4642, 75.5558, -145.548
3.25561, -1, -31.9106, -4.14084, 26.2672, 13.4663, 75.4647, -145.779
3.26379, -1, -32.0802, -4.22806, 26.3017, 13.4685, 75.3736, -146.01
3.27325, -1, -32.2495, -4.31514, 26.3361, 13.4708, 75.2823, -146.241
3.27981, -1, -32.4189, -4.40219, 26.3703, 13.473, 75.1912, -146.472
3.28818, -1, -32.5886, -4.48917, 26.4047, 13.4751, 75.1007, -146.702
3.2974, -1, -32.7583, -4.57608, 26.4392, 13.4772, 75.0096, -146.932
3.30393, -1, -32.9279, -4.66298, 26.4734, 13.4794, 74.9188, -147.163
3.31209, -1, -33.0976, -4.74986, 26.5076, 13.4815, 74.8284, -147.393
3.32164, -1, -33.2674, -4.83671, 26.542, 13.4838, 74.7376, -147.623
3.3282, -1, -33.4374, -4.92354, 26.5763, 13.486, 74.6471, -147.853
3.33645, -1, -33.6078, -5.01049, 26.6105, 13.4883, 74.5565, -148.083
3.34634, -1, -33.7781, -5.09723, 26.6448, 13.4904, 74.4659, -148.313
3.35221, -1, -33.9484, -5.184, 26.679, 13.4927, 74.3753, -148.542
3.36017, -1, -34.0336, -5.22737, 26.696, 13.4938, 74.33, -148.772
3.36895, -1, -34.2037, -5.31411, 26.7301, 13.496, 74.2397, -148.887
3.37561, -1, -34.3739, -5.40073, 26.7645, 13.4983, 74.1489, -149.116
3.3836, -1, -34.5436, -5.48737, 26.7986, 13.5007, 74.0584, -149.345
3.39158, -1, -34.7129, -5.57402, 26.8326, 13.5031, 73.968, -149.575
3.39961, -1, -34.8816, -5.66061, 26.8668, 13.5055, 73.8774, -149.804
3.40756, -1, -35.05, -5.74708, 26.9009, 13.508, 73.7869, -150.033
3.41555, -1, -35.2182, -5.83352, 26.935, 13.5104, 73.6966, -150.262
3.42257, -1, -35.3865, -5.91987, 26.9691, 13.5128, 73.6062, -150.491
3.43159, -1, -35.5551, -6.00605, 27.0032, 13.5152, 73.5158, -150.72
3.4396, -1, -35.7235, -6.09223, 27.0371, 13.5175, 73.4254, -150.948
3.44757, -1, -35.892, -6.1784, 27.0712, 13.5199, 73.3353, -151.177
3.45555, -1, -36.0606, -6.26453, 27.1053, 13.5222, 73.2448, -151.405
3.46362, -1, -36.2291, -6.3506, 27.1392, 13.5246, 73.1544, -151.634
3.47156, -1, -36.3978, -6.43675, 27.1731, 13.527, 73.0643, -151.862
3.47955, -1, -36.5667, -6.52297, 27.2071, 13.5293, 72.9737, -152.091
3.4899, -1, -36.7356, -6.60913, 27.2411, 13.5316, 72.8835, -152.319
3.49453, -1, -36.9046, -6.69526, 27.275, 13.5339, 72.7934, -152.547
3.50355, -1, -37.0736, -6.78141, 27.3089, 13.5362, 72.7033, -152.775
3.51155, -1, -37.2423, -6.86755, 27.3428, 13.5385, 72.6133, -153.003
3.51965, -1, -37.4109, -6.95357, 27.3766, 13.5406, 72.5234, -153.23
3.52756, -1, -37.5789, -7.03962, 27.4106, 13.5429, 72.4335, -153.458
3.53559, -1, -37.7466, -7.12562, 27.4446, 13.5452, 72.3437, -153.685
3.54362, -1, -37.9142, -7.2116, 27.4784, 13.5474, 72.254, -153.913
3.55155, -1, -38.0817, -7.29751, 27.5123, 13.5496, 72.1644, -154.14
3.55955, -1, -38.2491, -7.38334, 27.5462, 13.5517, 72.0745, -154.368
3.56765, -1, -38.4165, -7.4691, 27.58, 13.5539, 71.9848, -154.595
3.57556, -1, -38.5837, -7.5548, 27.6139, 13.556, 71.8954, -154.822
3.58361, -1, -38.751, -7.64051, 27.6478, 13.5581, 71.8055, -155.049
3.59155, -1, -38.9183, -7.72622, 27.6816, 13.5601, 71.716, -155.276
3.59959, -1, -39.0856, -7.81183, 27.7153, 13.5622, 71.627, -155.503
3.60763, -1, -39.2532, -7.89751, 27.7492, 13.5641, 71.5374, -155.73
3.61555, -1, -39.4207, -7.98321, 27.783, 13.5661, 71.4481, -155.956
3.62356, -1, -39.5884, -8.06876, 27.8166, 13.568, 71.3587, -156.183
3.63163, -1, -39.7561, -8.15429, 27.8503, 13.5699, 71.2695, -156.41
3.63955, -1, -39.9237, -8.23979, 27.8841, 13.5719, 71.1801, -156.636
3.64757, -1, -40.0913, -8.32527, 27.9178, 13.5739, 71.0907, -156.862
3.65561, -1, -40.2587, -8.41063, 27.9515, 13.5759, 71.0016, -157.089
3.66355, -1, -40.4259, -8.49605, 27.9853, 13.5778, 70.912, -157.315
3.6717, -1, -40.5929, -8.58143, 28.0189, 13.5798, 70.8228, -157.541
3.67955, -1, -40.7596, -8.66682, 28.0525, 13.5817, 70.7338, -157.767
3.68763, -1, -40.9262, -8.75217, 28.0862, 13.5837, 70.6446, -157.993
3.69589, -1, -41.0927, -8.83746, 28.1199, 13.5858, 70.5555, -158.219
3.70367, -1, -41.259, -8.92268, 28.1534, 13.5878, 70.4665, -158.445
3.71161, -1, -41.4252, -9.00785, 28.1869, 13.5898, 70.3773, -158.67
3.72008, -1, -41.5915, -9.09298, 28.2206, 13.5919, 70.288, -158.896
3.72767, -1, -41.7577, -9.17805, 28.2541, 13.5938, 70.199, -159.121
3.73561, -1, -41.9241, -9.2631, 28.2877, 13.5958, 70.1098, -159.347
3.74438, -1, -42.0906, -9.34813, 28.3214, 13.5978, 70.0208, -159.572
3.75158, -1, -42.2568, -9.43321, 28.3549, 13.5999, 69.9317, -159.798
3.75959, -1, -42.4231, -9.51824, 28.3884, 13.6019, 69.843, -160.023
3.7685, -1, -42.5895, -9.60322, 28.4219, 13.6039, 69.7539, -160.248
3.77568, -1, -42.7559, -9.68814, 28.4554, 13.6059, 69.6651, -160.473
3.78372, -1, -42.9223, -9.77313, 28.4887, 13.6079, 69.5766, -160.698
3.79189, -1, -43.0886, -9.85803, 28.5222, 13.61, 69.4877, -160.923
3.80069, -1, -43.2548, -9.94296, 28.5557, 13.6121, 69.399, -161.148
3.80793, -1, -43.4208, -10.0278, 28.5892, 13.6142, 69.3105, -161.373
3.81611, -1, -43.5869, -10.1128, 28.6227, 13.6162, 69.2218, -161.598
3.82487, -1, -43.7528, -10.1977, 28.6561, 13.6183, 69.1332, -161.822
3.8321, -1, -43.9187, -10.2825, 28.6895, 13.6205, 69.0447, -162.047
3.84014, -1, -44.0843, -10.3672, 28.7228, 13.6227, 68.9562, -162.271
3.84877, -1, -44.2496, -10.4519, 28.7564, 13.6248, 68.8675, -162.495
3.85616, -1, -44.3322, -10.5365, 28.7897, 13.627, 68.7789, -162.72
3.86419, -1, -44.4974, -10.5788, 28.8064, 13.6293, 68.6905, -162.944
3.87158, -1, -44.6625, -10.6633, 28.8397, 13.6303, 68.6461, -163.056
3.87955, -1, -44.8277, -10.7477, 28.8732, 13.6325, 68.5575, -163.28
3.88761, -1, -44.9931, -10.8322, 28.9066, 13.6347, 68.469, -163.504
3.89554, -1, -45.1585, -10.9167, 28.9399, 13.6369, 68.3807, -163.728
3.90354, -1, -45.3238, -11.0012, 28.9734, 13.6391, 68.2921, -163.952
3.91159, -1, -45.489, -11.0857, 29.0067, 13.6414, 68.2037, -164.176
3.91954, -1, -45.6543, -11.1701, 29.0398, 13.6436, 68.1157, -164.4
3.92756, -1, -45.8195, -11.2545, 29.0731, 13.6459, 68.0271, -164.623
3.93562, -1, -45.9838, -11.3384, 29.1066, 13.6482, 67.9388, -164.847
3.94354, -1, -46.1453, -11.4208, 29.14, 13.6504, 67.8509, -165.07
3.95154, -1, -46.3024, -11.5003, 29.1736, 13.6528, 67.7634, -165.291
3.95959, -1, -46.453, -11.5754, 29.2071, 13.6552, 67.6781, -165.507
3.96755, -1, -46.5944, -11.6454, 29.2394, 13.6575, 67.5965, -165.713
3.97554, -1, -46.7243, -11.7089, 29.2693, 13.6597, 67.5217, -165.903
3.9836, -1, -46.8397, -11.7651, 29.2959, 13.6617, 67.4544, -166.072
3.99154, -1, -46.9389, -11.8144, 29.3182, 13.6633, 67.3983, -166.215
3.99956, -1, -47.0218, -11.8575, 29.3349, 13.6646, 67.3532, -166.329
4.00762, -1, -47.0894, -11.8945, 29.3463, 13.6654, 67.3193, -166.414
4.01662, -1, -47.1422, -11.9241, 29.3537, 13.6658, 67.2958, -166.474
4.02357, -1, -47.1814, -11.9465, 29.3577, 13.666, 67.2805, -166.512
4.03252, -1, -47.2093, -11.9621, 29.3595, 13.6661, 67.2716, -166.535
4.03957, -1, -47.2277, -11.9722, 29.3604, 13.6662, 67.2668, -166.547
4.04755, -1, -47.2388, -11.9782, 29.3608, 13.6662, 67.2644, -166.553
4.05557, 2, -47.2445, -11.9812, 29.361, 13.6663, 67.2632, -166.555
4.06354, 2, -47.2467, -11.9825, 29.3612, 13.6663, 67.2626, -166.557
4.07153, 2, -47.2468, -11.983, 29.3613, 13.6664, 67.2624, -166.557
4.07966, 2, -47.2465, -11.9832, 29.3613, 13.6664, 67.2623, -166.558
4.08755, 2, -47.2465, -11.9832, 29.3614, 13.6664, 67.2622, -166.558
4.09553, 2, -47.2468, -11.9833, 29.3614, 13.6664, 67.2622, -166.558
4.10363, 2, -47.2477, -11.9835, 29.3615, 13.6664, 67.2622, -166.558
4.11154, 2, -47.249, -11.984, 29.3615, 13.6664, 67.2622, -166.558
4.11952, 2, -47.2508, -11.9847, 29.3615, 13.6664, 67.2622, -166.558
4.12761, 2, -47.2525, -11.9856, 29.3615, 13.6664, 67.2622, -166.558
4.13554, 2, -47.2539, -11.9865, 29.3615, 13.6664, 67.2622, -166.558
4.14354, 2, -47.255, -11.9871, 29.3615, 13.6664, 67.2623, -166.558
4.1516, 2, -47.2555, -11.9876, 29.3615, 13.6664, 67.2622, -166.558
4.15954, 2, -47.2557, -11.9877, 29.3615, 13.6664, 67.2622, -166.558
4.16755, 2, -47.2558, -11.9878, 29.3616, 13.6664, 67.2622, -166.558
4.1756, 2, -47.2555, -11.9878, 29.3615, 13.6664, 67.2622, -166.558
4.18356, 2, -47.255, -11.9878, 29.3615, 13.6664, 67.2622, -166.558
4.19161, 2, -47.2544, -11.9878, 29.3615, 13.6664, 67.2622, -166.558
4.19969, 2, -47.254, -11.9878, 29.3616, 13.6664, 67.2622, -166.558
4.20767, 2, -47.2537, -11.9878, 29.3616, 13.6664, 67.2622, -166.558
4.21563, 2, -47.2537, -11.9878, 29.3616, 13.6664, 67.2622, -166.558
4.2237, 2, -47.2538, -11.988, 29.3616, 13.6664, 67.2622, -166.558
4.23164, 2, -47.2539, -11.9883, 29.3616, 13.6664, 67.2622, -166.558
4.23959, 2, -47.2545, -11.9886, 29.3616, 13.6664, 67.2623, -166.558
4.24768, 2, -47.2551, -11.9889, 29.3616, 13.6664, 67.2623, -166.558
4.25565, 2, -47.2556, -11.9891, 29.3616, 13.6664, 67.2623, -166.558
4.26358, 2, -47.2558, -11.9892, 29.3616, 13.6664, 67.2622, -166.558
4.27169, 2, -47.2558, -11.9893, 29.3616, 13.6664, 67.2622, -166.558
4.27971, 2, -47.2558, -11.9892, 29.3616, 13.6664, 67.2622, -166.558
4.28783, 2, -47.2556, -11.9892, 29.3616, 13.6664, 67.2623, -166.558
4.29587, 2, -47.2552, -11.9891, 29.3616, 13.6664, 67.2623, -166.558
4.30402, 2, -47.2547, -11.9891, 29.3616, 13.6664, 67.2623, -166.558
4.31209, 2, -47.2544, -11.9891, 29.3616, 13.6664, 67.2622, -166.558
4.32004, 2, -47.2541, -11.9891, 29.3616, 13.6664, 67.2622, -166.558
4.32808, 2, -47.2539, -11.9891, 29.3616, 13.6663, 67.2622, -166.558
4.33616, 2, -47.2538, -11.9892, 29.3616, 13.6664, 67.2623, -166.557
4.34412, 2, -47.2538, -11.9892, 29.3616, 13.6664, 67.2623, -166.557
4.35238, 2, -47.2538, -11.9893, 29.3616, 13.6664, 67.2623, -166.557
4.36021, 2, -47.2538, -11.9893, 29.3616, 13.6664, 67.2623, -166.558
4.3683, 2, -47.2539, -11.9893, 29.3616, 13.6664, 67.2623, -166.558
4.37556, 2, -47.2539, -11.9893, 29.3616, 13.6664, 67.2623, -166.558
4.38352, 2, -47.2539, -11.9893, 29.3616, 13.6664, 67.2623, -166.558
4.39157, 2, -47.254, -11.9892, 29.3616, 13.6664, 67.2623, -166.557
4.39952, 2, -47.2539, -11.9892, 29.3616, 13.6663, 67.2624, -166.557
4.40754, 2, -47.2538, -11.9891, 29.3616, 13.6664, 67.2624, -166.557
4.41557, 2, -47.2536, -11.9891, 29.3616, 13.6664, 67.2624, -166.557
4.42354, 2, -47.2535, -11.9891, 29.3616, 13.6664, 67.2624, -166.557
4.4316, 2, -47.2533, -11.9891, 29.3616, 13.6664, 67.2623, -166.557
4.4396, 2, -47.2532, -11.9891, 29.3616, 13.6664, 67.2623, -166.557
4.44753, 2, -47.2531, -11.9891, 29.3616, 13.6664, 67.2623, -166.557
4.45553, 2, -47.253, -11.9891, 29.3616, 13.6663, 67.2624, -166.557
4.46357, 2, -47.253, -11.9891, 29.3616, 13.6663, 67.2623, -166.557
4.47152, 2, -47.253, -11.9891, 29.3616, 13.6663, 67.2623, -166.557
4.47952, 2, -47.2529, -11.9891, 29.3616, 13.6663, 67.2623, -166.557
4.4876, 2, -47.2528, -11.9891, 29.3616, 13.6663, 67.2624, -166.557
4.49552, 2, -47.2527, -11.9891, 29.3616, 13.6663, 67.2624, -166.557
4.50452, 2, -47.2527, -11.989, 29.3616, 13.6663, 67.2624, -166.557
4.51158, 2, -47.2526, -11.9889, 29.3616, 13.6663, 67.2624, -166.557
4.51952, 2, -47.2525, -11.9889, 29.3616, 13.6663, 67.2624, -166.557
4.52757, 2, -47.2524, -11.9889, 29.3616, 13.6663, 67.2624, -166.557
4.53558, 2, -47.2523, -11.9889, 29.3616, 13.6663, 67.2624, -166.557
4.54355, 2, -47.2522, -11.9889, 29.3616, 13.6663, 67.2624, -166.557
4.55152, 2, -47.2522, -11.9889, 29.3616, 13.6663, 67.2624, -166.557
4.55959, 2, -47.2521, -11.9889, 29.3616, 13.6663, 67.2624, -166.557
4.56753, 2, -47.252, -11.9889, 29.3616, 13.6663, 67.2625, -166.557
4.57552, 2, -47.2519, -11.9889, 29.3616, 13.6663, 67.2625, -166.557
4.58358, 2, -47.2518, -11.9889, 29.3616, 13.6663, 67.2624, -166.557
4.59152, 2, -47.2517, -11.9888, 29.3616, 13.6663, 67.2625, -166.557
4.59952, 2, -47.2516, -11.9888, 29.3616, 13.6663, 67.2625, -166.557
4.60762, 2, -47.2515, -11.9887, 29.3616, 13.6663, 67.2625, -166.557
4.61551, 2, -47.2514, -11.9886, 29.3616, 13.6663, 67.2625, -166.557
4.62352, 2, -47.2512, -11.9886, 29.3616, 13.6663, 67.2625, -166.557
4.63158, 2, -47.2511, -11.9886, 29.3616, 13.6662, 67.2625, -166.557
4.63951, 2, -47.251, -11.9886, 29.3616, 13.6662, 67.2625, -166.557
4.64753, 2, -47.2509, -11.9886, 29.3616, 13.6663, 67.2625, -166.557
4.65558, 2, -47.2508, -11.9886, 29.3616, 13.6663, 67.2625, -166.557
4.66352, 2, -47.2507, -11.9886, 29.3616, 13.6663, 67.2625, -166.557
4.67153, 2, -47.2506, -11.9886, 29.3616, 13.6662, 67.2625, -166.557
4.67957, 2, -47.2505, -11.9886, 29.3616, 13.6662, 67.2625, -166.557
4.68754, 2, -47.2505, -11.9886, 29.3616, 13.6662, 67.2625, -166.557
4.6956, 2, -47.2504, -11.9886, 29.3616, 13.6662, 67.2626, -166.557
4.70367, 2, -47.2503, -11.9885, 29.3616, 13.6662, 67.2626, -166.557
4.71164, 2, -47.2503, -11.9884, 29.3616, 13.6663, 67.2626, -166.557
4.71962, 2, -47.2502, -11.9884, 29.3616, 13.6662, 67.2626, -166.557
4.72769, 2, -47.2501, -11.9883, 29.3616, 13.6662, 67.2627, -166.557
4.73562, 2, -47.25, -11.9883, 29.3616, 13.6662, 67.2626, -166.557
4.74358, 2, -47.2499, -11.9883, 29.3616, 13.6662, 67.2627, -166.557
4.75159, 2, -47.2499, -11.9883, 29.3616, 13.6661, 67.2627, -166.557
4.75954, 2, -47.2498, -11.9882, 29.3616, 13.6661, 67.2627, -166.557
4.76757, 2, -47.2498, -11.9882, 29.3616, 13.6661, 67.2627, -166.557
4.77568, 2, -47.2497, -11.9882, 29.3616, 13.6661, 67.2627, -166.557
4.78366, 2, -47.2497, -11.9882, 29.3616, 13.6661, 67.2627, -166.557
4.79205, 2, -47.2497, -11.9882, 29.3616, 13.6661, 67.2627, -166.556
4.79988, 2, -47.2496, -11.9882, 29.3616, 13.6661, 67.2627, -166.556
4.80788, 2, -47.2496, -11.9882, 29.3616, 13.6661, 67.2628, -166.556
4.81628, 2, -47.2496, -11.9881, 29.3616, 13.6661, 67.2628, -166.556
4.82404, 2, -47.2495, -11.988, 29.3616, 13.6661, 67.2628, -166.556
4.83203, 2, -47.2494, -11.988, 29.3616, 13.6661, 67.2628, -166.556
4.84029, 2, -47.2494, -11.9879, 29.3616, 13.6661, 67.2629, -166.556
4.84811, 2, -47.2493, -11.9879, 29.3616, 13.6661, 67.2628, -166.556
4.8561, 2, -47.2492, -11.9879, 29.3616, 13.6661, 67.2628, -166.556
4.86434, 2, -47.2491, -11.9879, 29.3616, 13.6661, 67.2628, -166.556
4.8721, 2, -47.2491, -11.9879, 29.3616, 13.6661, 67.2628, -166.556
4.87954, 2, -47.2491, -11.9879, 29.3616, 13.666, 67.2628, -166.556
4.8884, 2, -47.249, -11.9879, 29.3616, 13.666, 67.2629, -166.556
4.89555, 2, -47.249, -11.9878, 29.3616, 13.666, 67.2629, -166.556
4.9035, 2, -47.249, -11.9878, 29.3616, 13.6659, 67.2629, -166.556
4.9115, 2, -47.249, -11.9878, 29.3616, 13.666, 67.2629, -166.556
4.91956, 2, -47.2489, -11.9877, 29.3616, 13.666, 67.2629, -166.556
4.92751, 2, -47.2489, -11.9877, 29.3616, 13.6659, 67.2629, -166.556
4.9355, 2, -47.2488, -11.9876, 29.3616, 13.6659, 67.2629, -166.556
4.94359, 2, -47.2488, -11.9876, 29.3616, 13.6659, 67.2628, -166.556
4.9515, 2, -47.2487, -11.9876, 29.3616, 13.6659, 67.2629, -166.556
4.9595, 2, -47.2486, -11.9875, 29.3616, 13.6659, 67.2629, -166.556
4.96756, 2, -47.2485, -11.9875, 29.3616, 13.6659, 67.263, -166.556
4.9755, 2, -47.2484, -11.9875, 29.3616, 13.6659, 67.263, -166.556
4.98361, 2, -47.2483, -11.9875, 29.3616, 13.6659, 67.2629, -166.556
4.99157, 2, -47.2483, -11.9875, 29.3616, 13.6659, 67.263, -166.556
4.9995, 2, -47.2483, -11.9875, 29.3616, 13.6659, 67.263, -166.556
5.0094, 2, -47.2483, -11.9875, 29.3616, 13.6658, 67.263, -166.556
5.01557, 2, -47.2483, -11.9874, 29.3616, 13.6658, 67.2631, -166.556
5.0235, 2, -47.2482, -11.9874, 29.3616, 13.6658, 67.2631, -166.556
5.03154, 2, -47.2482, -11.9873, 29.3615, 13.6658, 67.2631, -166.556
5.03956, 2, -47.2481, -11.9873, 29.3616, 13.6658, 67.2631, -166.556
5.04755, 2, -47.2481, -11.9873, 29.3616, 13.6658, 67.263, -166.556
5.05564, 2, -47.248, -11.9873, 29.3616, 13.6658, 67.263, -166.556
5.0645, 2, -47.2479, -11.9873, 29.3616, 13.6658, 67.263, -166.556
5.0715, 2, -47.2479, -11.9872, 29.3616, 13.6657, 67.2631, -166.556
5.0795, 2, -47.2478, -11.9872, 29.3616, 13.6657, 67.263, -166.556
5.08759, 2, -47.2477, -11.9872, 29.3616, 13.6657, 67.263, -166.556
5.0955, 2, -47.2477, -11.9872, 29.3616, 13.6656, 67.2631, -166.556
5.1035, 2, -47.2477, -11.9872, 29.3616, 13.6656, 67.263, -166.556
5.1116, 2, -47.2476, -11.9871, 29.3616, 13.6656, 67.263, -166.556
5.1195, 2, -47.2477, -11.9871, 29.3616, 13.6656, 67.2631, -166.556
5.12751, 2, -47.2476, -11.9871, 29.3616, 13.6656, 67.2631, -166.556
5.13558, 2, -47.2476, -11.987, 29.3616, 13.6656, 67.263, -166.556
5.1435, 4, -47.2475, -11.987, 29.3616, 13.6656, 67.2631, -166.556
5.1515, 4, -47.2474, -11.987, 29.3616, 13.6656, 67.2631, -166.556
5.15958, 4, -47.2474, -11.9869, 29.3616, 13.6656, 67.2631, -166.556
5.1675, 4, -47.2473, -11.9869, 29.3616, 13.6656, 67.2631, -166.556
5.1755, 4, -47.2473, -11.9869, 29.3616, 13.6656, 67.2631, -166.556
5.18358, 4, -47.2472, -11.9869, 29.3616, 13.6656, 67.2631, -166.556
5.19153, 4, -47.2472, -11.9869, 29.3616, 13.6656, 67.2631, -166.556
5.19958, 4, -47.2472, -11.9869, 29.3616, 13.6655, 67.2631, -166.556
5.20767, 4, -47.2471, -11.9868, 29.3616, 13.6655, 67.2631, -166.556
5.21563, 4, -47.2471, -11.9868, 29.3616, 13.6655, 67.2631, -166.556
5.2236, 4, -47.2471, -11.9867, 29.3616, 13.6655, 67.2631, -166.556
5.23168, 4, -47.2471, -11.9867, 29.3616, 13.6655, 67.2631, -166.556
5.23979, 4, -47.247, -11.9867, 29.3615, 13.6655, 67.2631, -166.556
5.2644, 4, -47.2469, -11.9866, 29.3616, 13.6655, 67.2631, -166.556
5.26627, 4, -47.2469, -11.9866, 29.3616, 13.6655, 67.2631, -166.556
5.26878, 4, -47.2468, -11.9866, 29.3615, 13.6655, 67.2632, -166.556
5.27203, 4, -47.2468, -11.9866, 29.3616, 13.6655, 67.2632, -166.555
5.28264, 4, -47.2468, -11.9866, 29.3616, 13.6654, 67.2632, -166.555
5.28809, 4, -47.2468, -11.9866, 29.3616, 13.6654, 67.2631, -166.555
5.29608, 4, -47.2472, -11.9868, 29.3617, 13.6655, 67.2631, -166.555
5.30495, 4, -47.2487, -11.9877, 29.3626, 13.666, 67.2634, -166.555
5.31187, 4, -47.2519, -11.9905, 29.366, 13.6707, 67.2647, -166.555
5.32051, 4, -47.2568, -11.996, 29.374, 13.6869, 67.2685, -166.552
5.3311, 4, -47.2638, -12.0046, 29.3893, 13.7195, 67.277, -166.545
5.33602, 5, -47.2738, -12.0167, 29.4143, 13.7742, 67.292, -166.533
5.3442, 5, -47.287, -12.0331, 29.4508, 13.8563, 67.3145, -166.514
5.35205, 5, -47.3038, -12.0541, 29.499, 13.9654, 67.3454, -166.489
5.36009, 5, -47.3136, -12.079, 29.5586, 14.1011, 67.3829, -166.456
5.3701, 5, -47.3469, -12.1077, 29.6275, 14.2579, 67.426, -166.419
5.37687, 5, -47.3722, -12.1399, 29.7036, 14.4302, 67.4742, -166.378
5.38351, 5, -47.3857, -12.1572, 29.7438, 14.5204, 67.4993, -166.357
5.39148, 5, -47.4144, -12.1937, 29.8269, 14.7055, 67.5498, -166.313
5.39953, 5, -47.4446, -12.2319, 29.9125, 14.8947, 67.6017, -166.268
5.40749, 5, -47.4757, -12.2713, 29.9997, 15.0859, 67.6544, -166.222
5.4155, 5, -47.5079, -12.3114, 30.0881, 15.2782, 67.7061, -166.177
5.42367, 5, -47.5406, -12.352, 30.1773, 15.4712, 67.7585, -166.132
5.43168, 5, -47.5737, -12.3928, 30.2671, 15.6644, 67.8106, -166.087
5.43949, 5, -47.6069, -12.4338, 30.3575, 15.8577, 67.8617, -166.042
5.44757, 5, -47.6401, -12.4749, 30.4483, 16.0511, 67.9135, -165.997
5.45549, 5, -47.6734, -12.516, 30.5396, 16.2447, 67.9647, -165.953
5.46352, 5, -47.7065, -12.5571, 30.6316, 16.4382, 68.015, -165.908
5.47149, 5, -47.7393, -12.5985, 30.7241, 16.6318, 68.0661, -165.864
5.4795, 5, -47.7721, -12.6399, 30.8173, 16.8255, 68.116, -165.82
5.48915, 5, -47.8051, -12.7022, 30.9582, 17.116, 68.1905, -165.755
5.49563, 5, -47.8383, -12.7232, 31.0054, 17.2129, 68.2154, -165.733
5.50346, 5, -47.8722, -12.7652, 31.1, 17.4065, 68.2643, -165.69
5.51155, 5, -47.9062, -12.8073, 31.1949, 17.6002, 68.3129, -165.647
5.52053, 5, -47.9402, -12.8497, 31.2904, 17.7939, 68.362, -165.604
5.52749, 5, -47.9743, -12.8923, 31.3866, 17.9878, 68.41, -165.562
5.53558, 5, -48.0084, -12.9352, 31.4834, 18.1817, 68.4576, -165.519
5.54372, 5, -48.0428, -12.9782, 31.5807, 18.3755, 68.5057, -165.477
5.55152, 5, -48.0773, -13.0214, 31.6785, 18.5695, 68.5528, -165.435
5.5595, 5, -48.1118, -13.0645, 31.7765, 18.7634, 68.5995, -165.393
5.56846, 5, -48.1465, -13.1079, 31.8749, 18.9575, 68.6469, -165.352
5.57563, 5, -48.1813, -13.1514, 31.974, 19.1516, 68.6933, -165.31
5.5845, 5, -48.2161, -13.1949, 32.0738, 19.3456, 68.739, -165.27
5.59506, 5, -48.2682, -13.2604, 32.2247, 19.6367, 68.8084, -165.209
5.59963, 5, -48.2854, -13.2824, 32.2752, 19.7337, 68.8312, -165.189
5.60748, 5, -48.3201, -13.3264, 32.3765, 19.9279, 68.8761, -165.148
5.61567, 5, -48.3551, -13.3704, 32.478, 20.1219, 68.9215, -165.107
5.62348, 5, -48.3901, -13.4146, 32.58, 20.3159, 68.9668, -165.068
5.63148, 5, -48.4254, -13.459, 32.6827, 20.51, 69.0108, -165.028
5.63956, 5, -48.4607, -13.5035, 32.786, 20.7042, 69.0549, -164.988
5.64771, 5, -48.4964, -13.5482, 32.89, 20.8984, 69.0994, -164.949
5.65657, 5, -48.5321, -13.593, 32.9945, 21.0927, 69.1427, -164.909
5.66348, 5, -48.5677, -13.6379, 33.0991, 21.2868, 69.1859, -164.871
5.67156, 5, -48.603, -13.6829, 33.2039, 21.4811, 69.2296, -164.832
5.6795, 5, -48.6376, -13.7278, 33.3093, 21.6753, 69.2726, -164.793
5.68748, 5, -48.6712, -13.7725, 33.4151, 21.8687, 69.3149, -164.753
5.69563, 5, -48.7036, -13.8168, 33.521, 22.0611, 69.3581, -164.711
5.70359, 5, -48.7345, -13.8606, 33.6263, 22.2511, 69.402, -164.666
5.71157, 5, -48.7636, -13.9034, 33.7301, 22.4376, 69.4459, -164.615
5.71998, 6, -48.7903, -13.9452, 33.832, 22.6189, 69.4915, -164.556
5.72825, 6, -48.8142, -13.9856, 33.9314, 22.794, 69.5393, -164.488
5.73559, 6, -48.8351, -14.0245, 34.0282, 22.9618, 69.5878, -164.408
5.74371, 6, -48.8525, -14.0619, 34.1221, 23.1219, 69.6386, -164.317
5.75193, 6, -48.8662, -14.0977, 34.2129, 23.2741, 69.6918, -164.214
5.75952, 6, -48.8763, -14.1316, 34.3005, 23.4188, 69.746, -164.1
5.76758, 6, -48.883, -14.1637, 34.3848, 23.5567, 69.8026, -163.975
5.7764, 7, -48.8865, -14.1942, 34.4661, 23.6882, 69.8604, -163.84
5.78458, 7, -48.8871, -14.2234, 34.5451, 23.8144, 69.9189, -163.698
5.79448, 7, -48.885, -14.251, 34.6219, 23.9362, 69.9795, -163.548
5.80012, 7, -48.8802, -14.2774, 34.6968, 24.0538, 70.0403, -163.392
5.80888, 7, -48.8733, -14.3027, 34.77, 24.1681, 70.1031, -163.231
5.81584, 7, -48.8647, -14.327, 34.8413, 24.2789, 70.1662, -163.064
5.82434, 7, -48.8546, -14.3505, 34.911, 24.3872, 70.2301, -162.893
5.83198, 7, -48.8432, -14.373, 34.9794, 24.4932, 70.2951, -162.718
5.84, 8, -48.8305, -14.3949, 35.0466, 24.5974, 70.3604, -162.54
5.84858, 8, -48.8168, -14.4161, 35.1128, 24.7002, 70.4271, -162.359
5.85604, 8, -48.802, -14.4365, 35.1779, 24.8017, 70.4934, -162.175
5.86405, 8, -48.7942, -14.4466, 35.2423, 24.9026, 70.5612, -161.99
5.87262, 8, -48.7697, -14.4762, 35.3059, 25.0029, 70.6287, -161.804
5.88031, 8, -48.7612, -14.4858, 35.3375, 25.1024, 70.6974, -161.615
5.88751, 8, -48.7438, -14.5046, 35.4002, 25.1522, 70.7315, -161.521
5.89552, 9, -48.7257, -14.5232, 35.4625, 25.2515, 70.7999, -161.331
5.90347, 9, -48.707, -14.5414, 35.5243, 25.3506, 70.869, -161.141
5.91147, 9, -48.6881, -14.5593, 35.5856, 25.4499, 70.9378, -160.951
5.91959, 9, -48.6688, -14.5771, 35.6466, 25.5495, 71.0073, -160.761
5.92751, 9, -48.6493, -14.5947, 35.7072, 25.6492, 71.076, -160.571
5.93548, 9, -48.6295, -14.612, 35.7676, 25.7494, 71.1459, -160.381
5.94683, 9, -48.5997, -14.6376, 35.8578, 25.9007, 71.25, -160.096
5.95335, 10, -48.5798, -14.6547, 35.9178, 26.0019, 71.3197, -159.906
5.95944, 10, -48.5699, -14.6632, 35.9476, 26.0528, 71.3543, -159.811
5.96905, 10, -48.5399, -14.6882, 36.0371, 26.2062, 71.4593, -159.528
5.97546, 10, -48.5299, -14.6967, 36.0669, 26.2574, 71.4939, -159.434
5.98347, 10, -48.5098, -14.7137, 36.1264, 26.3606, 71.5641, -159.246
5.99155, 10, -48.4895, -14.7303, 36.1859, 26.4645, 71.6333, -159.058
5.99962, 10, -48.469, -14.7469, 36.2453, 26.5688, 71.7031, -158.871
6.00745, 10, -48.4483, -14.7636, 36.3046, 26.6738, 71.7724, -158.685
6.01648, 11, -48.4277, -14.7804, 36.3637, 26.7792, 71.8419, -158.5
6.02346, 11, -48.4068, -14.797, 36.4227, 26.885, 71.9111, -158.315
6.03148, 11, -48.386, -14.8135, 36.4816, 26.9915, 71.9801, -158.13
6.03957, 11, -48.3652, -14.8303, 36.5403, 27.0982, 72.0493, -157.946
6.04862, 11, -48.3444, -14.8471, 36.5991, 27.2053, 72.1182, -157.762
6.05847, 11, -48.3128, -14.8718, 36.6871, 27.3669, 72.2215, -157.488
6.06346, 11, -48.3022, -14.88, 36.7164, 27.4209, 72.256, -157.397
6.07154, 12, -48.2811, -14.8968, 36.775, 27.5293, 72.325, -157.214
6.07947, 12, -48.2598, -14.9134, 36.8333, 27.6381, 72.3933, -157.032
6.08753, 12, -48.2383, -14.9296, 36.8915, 27.7469, 72.4621, -156.851
6.09551, 12, -48.2165, -14.9462, 36.9497, 27.8562, 72.53, -156.67
6.10348, 12, -48.1946, -14.9629, 37.0075, 27.9655, 72.5986, -156.49
6.11154, 12, -48.1722, -14.9793, 37.0653, 28.0751, 72.6663, -156.31
6.12289, 12, -48.1381, -15.0038, 37.1515, 28.2397, 72.7686, -156.04
6.1276, 13, -48.1266, -15.0122, 37.1801, 28.2946, 72.8021, -155.95
6.13549, 13, -48.1036, -15.0287, 37.2372, 28.4047, 72.8702, -155.771
6.14355, 13, -48.0802, -15.045, 37.2941, 28.5148, 72.9373, -155.592
6.15146, 13, -48.0566, -15.0614, 37.3508, 28.6249, 73.0049, -155.413
6.15951, 13, -48.0328, -15.0779, 37.4074, 28.735, 73.0722, -155.235
6.16749, 13, -48.0087, -15.0944, 37.4638, 28.845, 73.1392, -155.057
6.17572, 13, -47.9841, -15.1106, 37.5199, 28.9551, 73.2066, -154.878
6.18449, 14, -47.9595, -15.1267, 37.5759, 29.0652, 73.2733, -154.7
6.19147, 14, -47.9344, -15.1431, 37.6316, 29.1751, 73.3405, -154.523
6.19957, 14, -47.9089, -15.1593, 37.687, 29.2852, 73.4065, -154.345
6.20757, 14, -47.8829, -15.1753, 37.7422, 29.3951, 73.4734, -154.168
6.21556, 14, -47.8566, -15.1915, 37.7971, 29.5049, 73.5394, -153.991
6.22388, 14, -47.8297, -15.2078, 37.8517, 29.6146, 73.6061, -153.814
6.23241, 14, -47.8027, -15.2239, 37.9061, 29.724, 73.6719, -153.637
6.23957, 14, -47.7754, -15.2399, 37.9603, 29.8334, 73.738, -153.461
6.24763, 15, -47.7478, -15.256, 38.0142, 29.9427, 73.8037, -153.284
6.25547, 15, -47.7198, -15.2723, 38.068, 30.0518, 73.8694, -153.109
6.2635, 15, -47.6914, -15.2883, 38.1216, 30.1609, 73.9351, -152.932
6.27156, 15, -47.6626, -15.3043, 38.1748, 30.2696, 74.0001, -152.757
6.27957, 15, -47.6334, -15.3205, 38.2278, 30.3782, 74.0657, -152.581
6.28777, 15, -47.6039, -15.3368, 38.2807, 30.4868, 74.1303, -152.406
6.29786, 15, -47.574, -15.3527, 38.3332, 30.595, 74.1957, -152.231
6.3046, 16, -47.5437, -15.3687, 38.3855, 30.7031, 74.2596, -152.056
6.31284, 16, -47.5128, -15.385, 38.4377, 30.8112, 74.3243, -151.882
6.31983, 16, -47.4817, -15.4013, 38.4895, 30.919, 74.3881, -151.708
6.32796, 16, -47.4502, -15.4174, 38.5411, 31.0269, 74.4521, -151.535
6.33706, 16, -47.4183, -15.4336, 38.5926, 31.1345, 74.5158, -151.361
6.34399, 16, -47.3859, -15.4503, 38.6439, 31.2419, 74.5785, -151.189
6.35627, 16, -47.3368, -15.475, 38.7204, 31.4027, 74.6731, -150.931
6.36024, 16, -47.3203, -15.4832, 38.7458, 31.4562, 74.7041, -150.845
6.36905, 17, -47.3038, -15.4914, 38.7966, 31.5632, 74.7672, -150.673
6.37646, 17, -47.2537, -15.5167, 38.8471, 31.6701, 74.829, -150.502
6.38349, 17, -47.2368, -15.5251, 38.8723, 31.7234, 74.8598, -150.417
6.39149, 17, -47.2025, -15.5418, 38.9227, 31.8302, 74.9221, -150.246
6.39961, 17, -47.168, -15.5587, 38.973, 31.9369, 74.9831, -150.076
6.40899, 17, -47.1331, -15.5847, 39.0479, 32.0965, 75.0752, -149.822
6.41545, 17, -47.0978, -15.5933, 39.0728, 32.1496, 75.1053, -149.738
6.42348, 18, -47.062, -15.6104, 39.1224, 32.2558, 75.1653, -149.57
6.43146, 18, -47.0259, -15.628, 39.1718, 32.3619, 75.2257, -149.402
6.43946, 18, -46.9896, -15.6458, 39.2212, 32.4679, 75.2846, -149.234
6.44885, 18, -46.9343, -15.6725, 39.2951, 32.6265, 75.3736, -148.985
6.45545, 18, -46.9156, -15.6815, 39.3197, 32.6794, 75.4027, -148.902
6.46345, 18, -46.8781, -15.6999, 39.3687, 32.7852, 75.4608, -148.736
6.47384, 18, -46.8214, -15.7275, 39.4421, 32.9434, 75.5475, -148.489
6.47966, 19, -46.8024, -15.7367, 39.4664, 32.9962, 75.5759, -148.407
6.48922, 19, -46.7446, -15.7649, 39.5394, 33.1538, 75.662, -148.161
6.49544, 19, -46.7251, -15.7744, 39.5637, 33.2063, 75.6901, -148.079
6.50445, 19, -46.6859, -15.7934, 39.6122, 33.3113, 75.746, -147.917
6.51145, 19, -46.6464, -15.8126, 39.6606, 33.4161, 75.8022, -147.755
6.52044, 19, -46.6064, -15.8322, 39.7087, 33.5208, 75.8571, -147.594
6.52758, 19, -46.5659, -15.8519, 39.7568, 33.6253, 75.9124, -147.433
6.53569, 20, -46.5251, -15.8718, 39.8047, 33.7296, 75.9671, -147.273
6.5445, 20, -46.4841, -15.892, 39.8524, 33.8338, 76.0206, -147.114
6.55144, 20, -46.4425, -15.9124, 39.9002, 33.9378, 76.0745, -146.955
6.55955, 20, -46.4006, -15.9331, 39.9477, 34.0415, 76.1274, -146.797
6.56745, 20, -46.3584, -15.954, 39.9952, 34.145, 76.1799, -146.639
6.57561, 20, -46.3159, -15.975, 40.0425, 34.2484, 76.2327, -146.482
6.5835, 20, -46.2728, -15.9963, 40.0898, 34.3516, 76.284, -146.326
6.59145, 20, -46.2295, -16.0177, 40.1369, 34.4547, 76.3352, -146.17
6.59944, 21, -46.1859, -16.0393, 40.1838, 34.5575, 76.3865, -146.015
6.60756, 21, -46.1418, -16.0613, 40.2306, 34.6601, 76.4363, -145.86
6.61545, 21, -46.097, -16.0834, 40.2773, 34.7624, 76.4863, -145.706
6.62345, 21, -46.0521, -16.1055, 40.3238, 34.8643, 76.5363, -145.552
6.63152, 21, -46.0068, -16.1282, 40.37, 34.9662, 76.5847, -145.399
6.63944, 21, -45.9609, -16.1508, 40.4161, 35.0677, 76.6334, -145.247
6.64931, 21, -45.9145, -16.1736, 40.462, 35.1688, 76.6821, -145.095
6.65559, 22, -45.8679, -16.1969, 40.5077, 35.2699, 76.7294, -144.944
6.66366, 22, -45.8208, -16.2201, 40.5532, 35.3707, 76.7769, -144.792
6.67149, 22, -45.7732, -16.2436, 40.5986, 35.4709, 76.8244, -144.642
6.67944, 22, -45.7251, -16.2673, 40.6437, 35.571, 76.8704, -144.492
6.6877, 22, -45.6766, -16.291, 40.6886, 35.6706, 76.9162, -144.342
6.69546, 22, -45.6276, -16.3152, 40.7333, 35.7699, 76.9622, -144.193
6.70368, 22, -45.5782, -16.3392, 40.7779, 35.8689, 77.007, -144.044
6.7116, 23, -45.5284, -16.3634, 40.822, 35.9674, 77.0516, -143.896
6.7196, 23, -45.478, -16.3879, 40.866, 36.0655, 77.0966, -143.747
6.72758, 23, -45.4272, -16.4123, 40.9097, 36.1634, 77.1404, -143.599
6.73561, 23, -45.376, -16.437, 40.9532, 36.2609, 77.1834, -143.452
6.74362, 23, -45.3241, -16.4618, 40.9964, 36.358, 77.227, -143.305
6.75169, 23, -45.2718, -16.4866, 41.0391, 36.4545, 77.27, -143.158
6.76043, 23, -45.219, -16.5117, 41.0817, 36.5506, 77.3119, -143.012
6.76748, 23, -45.1656, -16.5367, 41.1239, 36.6462, 77.354, -142.866
6.7755, 24, -45.1117, -16.562, 41.1656, 36.7413, 77.3964, -142.72
6.78368, 24, -45.0574, -16.5873, 41.2073, 36.836, 77.4376, -142.574
6.79159, 24, -45.0026, -16.6126, 41.2485, 36.9301, 77.4783, -142.429
6.79966, 24, -44.9474, -16.6381, 41.2893, 37.0239, 77.5194, -142.284
6.80782, 24, -44.8917, -16.6635, 41.3299, 37.1171, 77.5601, -142.139
6.81581, 24, -44.8354, -16.6892, 41.37, 37.2096, 77.5998, -141.995
6.8258, 24, -44.7786, -16.7147, 41.4098, 37.3018, 77.6394, -141.851
6.83456, 25, -44.7211, -16.7402, 41.4492, 37.3934, 77.6794, -141.706
6.84096, 25, -44.663, -16.7659, 41.4881, 37.4843, 77.7184, -141.562
6.84798, 25, -44.6046, -16.7914, 41.5267, 37.5746, 77.7565, -141.418
6.85653, 25, -44.5454, -16.8172, 41.5649, 37.6645, 77.795, -141.274
6.86502, 25, -44.4859, -16.8428, 41.6027, 37.7537, 77.8335, -141.13
6.87202, 25, -44.456, -16.8556, 41.6214, 37.8425, 77.8711, -140.987
6.88267, 25, -44.3652, -16.894, 41.6769, 37.9307, 77.9082, -140.844
6.88833, 26, -44.3346, -16.9067, 41.7133, 38.0183, 77.9457, -140.7
6.89546, 26, -44.273, -16.9324, 41.7314, 38.0617, 77.9645, -140.629
6.90348, 26, -44.2109, -16.9578, 41.7672, 38.1485, 78.0014, -140.486
6.91143, 26, -44.1483, -16.9832, 41.8025, 38.2345, 78.0373, -140.343
6.91951, 26, -44.0852, -17.0087, 41.8373, 38.3199, 78.0733, -140.2
6.92758, 26, -44.0216, -17.034, 41.8718, 38.4048, 78.1096, -140.057
6.93684, 26, -43.9574, -17.072, 41.9224, 38.5307, 78.1626, -139.843
6.94342, 26, -43.8927, -17.0845, 41.9391, 38.5725, 78.18, -139.772
6.95144, 27, -43.8274, -17.1096, 41.9722, 38.6551, 78.2148, -139.629
6.96106, 27, -43.7283, -17.147, 42.0206, 38.7786, 78.2677, -139.415
6.96744, 27, -43.695, -17.1595, 42.0365, 38.8195, 78.285, -139.344
6.97701, 27, -43.5943, -17.1968, 42.0837, 38.9408, 78.3356, -139.13
6.98343, 27, -43.5604, -17.2091, 42.0991, 38.981, 78.3524, -139.058
6.99143, 27, -43.4923, -17.2337, 42.1295, 39.0608, 78.3864, -138.916
7.00187, 27, -43.3891, -17.2704, 42.1743, 39.1793, 78.437, -138.702
7.00767, 28, -43.3543, -17.2825, 42.189, 39.2184, 78.4534, -138.632
7.01644, 28, -43.2845, -17.307, 42.2179, 39.2965, 78.4861, -138.489
7.02352, 28, -43.2142, -17.331, 42.2463, 39.3735, 78.519, -138.347
7.03249, 28, -43.1433, -17.3549, 42.2742, 39.4502, 78.5523, -138.205
7.03943, 28, -43.0719, -17.3788, 42.3017, 39.5259, 78.5847, -138.063
7.04754, 28, -42.9999, -17.4025, 42.3285, 39.6014, 78.6165, -137.921
7.05557, 28, -42.9274, -17.4261, 42.3547, 39.676, 78.648, -137.778
7.06446, 29, -42.8542, -17.4496, 42.3804, 39.7502, 78.68, -137.636
7.07143, 29, -42.7805, -17.4728, 42.4057, 39.8234, 78.7117, -137.494
7.07943, 29, -42.7064, -17.4959, 42.4304, 39.8964, 78.7428, -137.352
7.0875, 29, -42.6316, -17.5188, 42.4546, 39.9684, 78.7735, -137.21
7.09543, 29, -42.5563, -17.5417, 42.4781, 40.04, 78.8042, -137.068
7.10359, 29, -42.4805, -17.5644, 42.5012, 40.1104, 78.8354, -136.926
7.11707, 29, -42.3655, -17.5979, 42.5348, 40.2155, 78.8811, -136.713
7.11957, 30, -42.327, -17.6091, 42.5457, 40.2501, 78.896, -136.642
7.12744, 30, -42.2496, -17.6312, 42.5671, 40.3193, 78.9255, -136.5
7.1355, 30, -42.1716, -17.653, 42.5881, 40.387, 78.9553, -136.359
7.14343, 30, -42.0932, -17.6748, 42.6085, 40.455, 78.9853, -136.217
7.15142, 30, -42.0142, -17.6963, 42.6285, 40.5215, 79.0148, -136.075
7.1595, 30, -41.9347, -17.7175, 42.6479, 40.5883, 79.0438, -135.934
7.16744, 30, -41.8547, -17.7389, 42.6665, 40.6535, 79.0725, -135.792
7.17741, 30, -41.7742, -17.7597, 42.6847, 40.7189, 79.1014, -135.65
7.18358, 31, -41.6932, -17.7805, 42.7025, 40.783, 79.1306, -135.509
7.19642, 31, -41.5707, -17.8114, 42.7278, 40.879, 79.1734, -135.297
7.19945, 31, -41.5296, -17.8215, 42.7361, 40.9102, 79.1873, -135.226
7.20749, 31, -41.4469, -17.8416, 42.7524, 40.9726, 79.2149, -135.085
7.2159, 31, -41.3638, -17.8616, 42.768, 41.0347, 79.2426, -134.943
7.22352, 31, -41.2801, -17.8812, 42.7829, 41.0955, 79.2707, -134.801
7.2326, 31, -41.1961, -17.9007, 42.7974, 41.1568, 79.2984, -134.66
7.2396, 32, -41.1116, -17.9201, 42.8114, 41.2163, 79.3256, -134.518
7.24824, 32, -41.0266, -17.9392, 42.8246, 41.2761, 79.3523, -134.377
7.25543, 32, -40.9411, -17.958, 42.8372, 41.3349, 79.379, -134.236
7.2635, 32, -40.8552, -17.9767, 42.8495, 41.393, 79.4061, -134.095
7.27234, 32, -40.7688, -17.9952, 42.8614, 41.4513, 79.4331, -133.954
7.27981, 32, -40.682, -18.0134, 42.8727, 41.5078, 79.4595, -133.813
7.28793, 32, -40.5946, -18.0314, 42.8834, 41.5646, 79.4854, -133.672
7.29564, 32, -40.5068, -18.0494, 42.8934, 41.6205, 79.511, -133.532
7.30397, 33, -40.4184, -18.067, 42.903, 41.6756, 79.5366, -133.391
7.31187, 33, -40.3296, -18.0842, 42.9121, 41.7309, 79.5625, -133.251
7.31979, 33, -40.2404, -18.1014, 42.9207, 41.7846, 79.5881, -133.11
7.32786, 33, -40.1507, -18.1185, 42.9288, 41.8381, 79.6132, -132.97
7.33599, 33, -40.0606, -18.1351, 42.9364, 41.8914, 79.6379, -132.83
7.34398, 33, -39.97, -18.1515, 42.9432, 41.9432, 79.6624, -132.689
7.35293, 33, -39.879, -18.1678, 42.9496, 41.9953, 79.6872, -132.549
7.36106, 34, -39.7874, -18.184, 42.9555, 42.0466, 79.7121, -132.408
7.36854, 34, -39.6953, -18.1995, 42.961, 42.0965, 79.7367, -132.268
7.37603, 34, -39.6491, -18.2072, 42.9636, 42.1218, 79.7607, -132.128
7.384, 34, -39.5563, -18.2227, 42.9683, 42.1722, 79.7726, -131.989
7.39146, 34, -39.4632, -18.238, 42.9725, 42.221, 79.7961, -131.919
7.39945, 34, -39.3696, -18.2528, 42.9761, 42.2699, 79.8196, -131.779
7.40885, 34, -39.2284, -18.2746, 42.9806, 42.342, 79.8553, -131.57
7.41748, 35, -39.1337, -18.2891, 42.9829, 42.3889, 79.8788, -131.43
7.42349, 35, -39.0861, -18.2963, 42.9839, 42.4124, 79.8904, -131.361
7.43142, 35, -38.9907, -18.3101, 42.9854, 42.4592, 79.9134, -131.221
7.43941, 35, -38.8948, -18.3236, 42.9865, 42.5045, 79.936, -131.082
7.44747, 35, -38.7986, -18.337, 42.9871, 42.5497, 79.9585, -130.943
7.46091, 35, -38.605, -18.3633, 42.9874, 42.6386, 80.0043, -130.665
7.46337, 35, -38.605, -18.3633, 42.9874, 42.6386, 80.0043, -130.665
7.47167, 36, -38.5076, -18.3758, 42.9872, 42.6819, 80.0269, -130.526
7.47942, 36, -38.4098, -18.3881, 42.9867, 42.7254, 80.0489, -130.388
7.48919, 36, -38.2623, -18.4062, 42.985, 42.7885, 80.0813, -130.18
7.49548, 36, -38.2129, -18.4123, 42.9841, 42.8091, 80.0919, -130.11
7.50342, 36, -38.1137, -18.4241, 42.9819, 42.8507, 80.1134, -129.972
7.51241, 36, -38.0141, -18.4352, 42.9791, 42.8918, 80.1351, -129.834
7.51949, 36, -37.9142, -18.4461, 42.9757, 42.9316, 80.1569, -129.696
7.52854, 36, -37.8139, -18.4568, 42.9718, 42.9709, 80.1783, -129.558
7.53555, 37, -37.7131, -18.4673, 42.9673, 43.0105, 80.1993, -129.42
7.54443, 37, -37.6121, -18.4778, 42.9622, 43.0492, 80.2199, -129.282
7.55158, 37, -37.5108, -18.4879, 42.9564, 43.0868, 80.2403, -129.145
7.55942, 37, -37.409, -18.4975, 42.95, 43.1242, 80.2608, -129.007
7.56744, 37, -37.3068, -18.5068, 42.943, 43.1618, 80.2815, -128.87
7.5788, 37, -37.1527, -18.5205, 42.9318, 43.216, 80.3124, -128.664
7.58356, 37, -37.1011, -18.525, 42.9277, 43.2336, 80.3224, -128.596
7.59241, 38, -36.9977, -18.5338, 42.9193, 43.2687, 80.3423, -128.459
7.5995, 38, -36.8938, -18.5424, 42.9104, 43.304, 80.3617, -128.322
7.60741, 38, -36.7895, -18.5507, 42.9008, 43.3382, 80.3809, -128.185
7.61541, 38, -36.6847, -18.5584, 42.8906, 43.3714, 80.4001, -128.048
7.62348, 38, -36.5795, -18.5657, 42.8802, 43.4043, 80.4194, -127.912
7.63164, 38, -36.4741, -18.5729, 42.8692, 43.4374, 80.4388, -127.775
7.64046, 38, -36.3683, -18.5799, 42.8575, 43.4696, 80.4582, -127.639
7.64837, 39, -36.2622, -18.5865, 42.8453, 43.5006, 80.4771, -127.503
7.65548, 39, -36.1557, -18.593, 42.8326, 43.5309, 80.4957, -127.368
7.66342, 39, -36.0488, -18.5993, 42.8194, 43.5611, 80.5142, -127.232
7.67145, 39, -35.9415, -18.6054, 42.8057, 43.5914, 80.5323, -127.096
7.67949, 39, -35.8337, -18.6111, 42.7914, 43.6207, 80.5508, -126.961
7.68741, 39, -35.7256, -18.6164, 42.7768, 43.6492, 80.5693, -126.826
7.69551, 39, -35.6172, -18.6214, 42.7619, 43.6771, 80.5879, -126.69
7.70388, 39, -35.5084, -18.626, 42.7463, 43.7048, 80.6062, -126.555
7.71168, 40, -35.3993, -18.6304, 42.73, 43.7324, 80.6242, -126.421
7.71954, 40, -35.2898, -18.6347, 42.7133, 43.7593, 80.6418, -126.286
7.72826, 40, -35.1799, -18.6386, 42.6961, 43.7851, 80.659, -126.152
7.73554, 40, -35.0697, -18.6422, 42.6784, 43.8102, 80.6761, -126.017
7.74351, 40, -34.9591, -18.6455, 42.6605, 43.835, 80.6932, -125.883
7.75341, 40, -34.8481, -18.6486, 42.6421, 43.8597, 80.7104, -125.748
7.75943, 40, -34.7368, -18.6515, 42.623, 43.8842, 80.7278, -125.614
7.76747, 41, -34.6254, -18.654, 42.6035, 43.9078, 80.745, -125.48
7.7779, 41, -34.5137, -18.6564, 42.5836, 43.9305, 80.7618, -125.347
7.78455, 41, -34.4016, -18.6586, 42.5631, 43.9525, 80.7783, -125.214
7.79152, 41, -34.2891, -18.6607, 42.5423, 43.9741, 80.7945, -125.08
7.80052, 41, -34.1762, -18.6625, 42.521, 43.9955, 80.8106, -124.947
7.80764, 41, -34.063, -18.664, 42.4991, 44.0167, 80.8265, -124.814
7.81577, 41, -33.9494, -18.6653, 42.4769, 44.0374, 80.8425, -124.681
7.82424, 42, -33.8353, -18.6663, 42.4542, 44.0572, 80.8587, -124.549
7.83277, 42, -33.7209, -18.667, 42.4311, 44.0762, 80.8749, -124.416
7.83995, 42, -33.6062, -18.6674, 42.4076, 44.0945, 80.891, -124.284
7.84856, 42, -33.4911, -18.6677, 42.3835, 44.1123, 80.9068, -124.152
7.85726, 42, -33.3757, -18.6677, 42.3591, 44.1298, 80.9223, -124.021
7.86492, 42, -33.2601, -18.6678, 42.3342, 44.147, 80.9374, -123.889
7.87252, 42, -33.144, -18.6677, 42.309, 44.164, 80.9522, -123.757
7.88001, 42, -33.0859, -18.6676, 42.2961, 44.1724, 80.967, -123.626
7.88793, 43, -32.9692, -18.6674, 42.2701, 44.1885, 80.9743, -123.56
7.89643, 43, -32.7936, -18.6666, 42.2304, 44.2112, 80.9963, -123.364
7.90427, 43, -32.735, -18.6662, 42.217, 44.2183, 81.0037, -123.233
7.9116, 43, -32.6176, -18.6653, 42.1897, 44.2323, 81.0186, -123.168
7.91944, 43, -32.4998, -18.664, 42.1618, 44.2455, 81.0333, -123.037
7.92914, 43, -32.3226, -18.6616, 42.1193, 44.2645, 81.0549, -122.842
7.9354, 43, -32.2633, -18.6606, 42.105, 44.2707, 81.0619, -122.777
7.94476, 44, -32.0849, -18.6569, 42.0613, 44.2886, 81.0826, -122.582
7.9514, 44, -32.0252, -18.6554, 42.0464, 44.2945, 81.0893, -122.517
7.95961, 44, -31.9055, -18.6522, 42.0165, 44.306, 81.1028, -122.387
7.96899, 44, -31.7256, -18.6468, 41.9709, 44.322, 81.1228, -122.193
7.97696, 44, -31.6054, -18.6428, 41.9399, 44.3319, 81.1361, -122.064
7.98348, 44, -31.5453, -18.6406, 41.9243, 44.3365, 81.1428, -121.999
7.99139, 44, -31.4248, -18.6362, 41.8928, 44.3453, 81.1563, -121.87
8.001, 45, -31.3038, -18.6314, 41.8608, 44.3534, 81.1765, -121.677
8.00984, 45, -31.1827, -18.6263, 41.8119, 44.3644, 81.1897, -121.548
8.01542, 45, -31.0608, -18.621, 41.7954, 44.3677, 81.1963, -121.484
8.02344, 45, -30.9388, -18.6155, 41.7621, 44.374, 81.209, -121.356
8.03254, 45, -30.8165, -18.6099, 41.7283, 44.3796, 81.2215, -121.228
8.03944, 45, -30.694, -18.6038, 41.6941, 44.3847, 81.2337, -121.1
8.04739, 45, -30.571, -18.5972, 41.6597, 44.3892, 81.2458, -120.972
8.05544, 45, -30.4476, -18.5903, 41.6247, 44.3932, 81.2577, -120.845
8.06444, 46, -30.3239, -18.5831, 41.5892, 44.3966, 81.2696, -120.717
8.07144, 46, -30.1997, -18.5756, 41.5534, 44.3995, 81.2816, -120.59
8.07965, 46, -30.075, -18.5676, 41.5171, 44.4018, 81.2936, -120.463
8.08842, 46, -29.9502, -18.5595, 41.4804, 44.4037, 81.3057, -120.336
8.09539, 46, -29.8251, -18.5512, 41.4433, 44.4049, 81.3179, -120.21
8.1035, 46, -29.6997, -18.5426, 41.4057, 44.4056, 81.33, -120.083
8.11143, 46, -29.5741, -18.5334, 41.3676, 44.406, 81.3418, -119.957
8.11945, 47, -29.4482, -18.524, 41.3292, 44.4062, 81.3534, -119.831
8.13124, 47, -29.2587, -18.5093, 41.2706, 44.4059, 81.3703, -119.642
8.13553, 47, -29.1952, -18.5042, 41.2509, 44.4056, 81.3759, -119.579
8.14437, 47, -29.0679, -18.494, 41.2111, 44.4044, 81.3869, -119.453
8.15239, 47, -28.9405, -18.4834, 41.1707, 44.4024, 81.3979, -119.327
8.15939, 47, -28.8128, -18.4724, 41.13, 44.3996, 81.4089, -119.201
8.16743, 47, -28.6847, -18.4609, 41.0889, 44.3961, 81.4199, -119.076
8.17641, 48, -28.5563, -18.449, 41.0472, 44.392, 81.4311, -118.95
8.18348, 48, -28.4278, -18.4369, 41.0052, 44.387, 81.4423, -118.825
8.19141, 48, -28.2988, -18.4247, 40.9627, 44.3814, 81.4537, -118.7
8.19943, 48, -28.1694, -18.412, 40.9197, 44.3752, 81.4652, -118.576
8.20783, 48, -28.0398, -18.3988, 40.8763, 44.3682, 81.4765, -118.451
8.21625, 48, -27.9099, -18.3853, 40.8323, 44.3605, 81.4878, -118.326
8.22359, 48, -27.7797, -18.3715, 40.7879, 44.3521, 81.4987, -118.202
8.23178, 48, -27.649, -18.3575, 40.7431, 44.3429, 81.5096, -118.077
8.23953, 49, -27.5179, -18.343, 40.6976, 44.3328, 81.5203, -117.952
8.24763, 49, -27.3863, -18.328, 40.6518, 44.3219, 81.5309, -117.828
8.25746, 49, -27.2541, -18.3128, 40.6054, 44.3101, 81.5415, -117.704
8.26366, 49, -27.1217, -18.2974, 40.5585, 44.2973, 81.5521, -117.58
8.2717, 49, -26.9891, -18.2814, 40.5111, 44.2837, 81.5629, -117.456
8.27942, 49, -26.856, -18.2648, 40.4633, 44.2695, 81.5738, -117.332
8.28762, 49, -26.7227, -18.2481, 40.4149, 44.2549, 81.5848, -117.208
8.29565, 50, -26.5891, -18.2311, 40.366, 44.2398, 81.5961, -117.084
8.3036, 50, -26.455, -18.2135, 40.3167, 44.2241, 81.6076, -116.96
8.31254, 50, -26.3207, -18.1955, 40.267, 44.2077, 81.6191, -116.836
8.32008, 50, -26.186, -18.1773, 40.2167, 44.1904, 81.6304, -116.712
8.3285, 50, -26.0509, -18.1586, 40.1658, 44.1722, 81.6417, -116.588
8.3358, 50, -25.9154, -18.1393, 40.1145, 44.153, 81.653, -116.464
8.34397, 50, -25.7796, -18.1197, 40.0626, 44.1331, 81.6641, -116.341
8.35196, 51, -25.6434, -18.0996, 40.0102, 44.1128, 81.6753, -116.217
8.36077, 51, -25.5069, -18.079, 39.9574, 44.092, 81.6864, -116.094
8.36827, 51, -25.3699, -18.0582, 39.904, 44.0708, 81.6978, -115.97
8.37601, 51, -25.2326, -18.0368, 39.85, 44.0485, 81.7093, -115.846
8.38484, 51, -25.095, -18.015, 39.7955, 44.025, 81.7211, -115.723
8.39293, 51, -24.9571, -17.9929, 39.7405, 44.0005, 81.7331, -115.6
8.39938, 51, -24.888, -17.9817, 39.7128, 43.9881, 81.7392, -115.538
8.40743, 51, -24.7498, -17.9588, 39.6571, 43.9629, 81.7517, -115.414
8.41545, 52, -24.6111, -17.9356, 39.6009, 43.9372, 81.7643, -115.291
8.42341, 52, -24.4718, -17.9119, 39.5442, 43.9107, 81.7768, -115.168
8.43454, 52, -24.262, -17.8754, 39.458, 43.8686, 81.7953, -114.983
8.44101, 52, -24.1215, -17.8506, 39.4, 43.8397, 81.8076, -114.859
8.44941, 52, -23.9806, -17.8252, 39.3413, 43.8105, 81.8198, -114.736
8.45537, 52, -23.91, -17.8124, 39.3118, 43.7957, 81.8259, -114.674
8.46497, 52, -23.6977, -17.7733, 39.2226, 43.7499, 81.8445, -114.489
8.47307, 53, -23.5556, -17.7467, 39.1623, 43.7175, 81.8571, -114.366
8.4794, 53, -23.4844, -17.7333, 39.132, 43.7012, 81.8636, -114.305
8.49216, 53, -23.2704, -17.6922, 39.0403, 43.6518, 81.8835, -114.12
8.49532, 53, -23.199, -17.6783, 39.0095, 43.635, 81.8903, -114.059
8.50499, 53, -23.0557, -17.6501, 38.9475, 43.5826, 81.9109, -113.874
8.51144, 53, -22.9122, -17.6216, 38.8851, 43.5645, 81.9177, -113.812
8.51939, 53, -22.7684, -17.5926, 38.822, 43.5286, 81.9314, -113.689
8.52838, 54, -22.6241, -17.5631, 38.7585, 43.4922, 81.9451, -113.566
8.53542, 54, -22.4794, -17.5331, 38.6944, 43.4544, 81.9587, -113.443
8.54344, 54, -22.3343, -17.5026, 38.6297, 43.4152, 81.9724, -113.319
8.55136, 54, -22.1888, -17.4718, 38.5645, 43.376, 81.9863, -113.197
8.56008, 54, -22.0427, -17.4405, 38.4989, 43.3362, 82.0004, -113.073
8.56979, 54, -21.8231, -17.3927, 38.3995, 43.2735, 82.0222, -112.889
8.57541, 54, -21.7496, -17.3766, 38.3661, 43.2525, 82.0297, -112.827
8.58367, 55, -21.6024, -17.3439, 38.2991, 43.2104, 82.045, -112.704
8.59137, 55, -21.4549, -17.3109, 38.2315, 43.1668, 82.0602, -112.581
8.59939, 55, -21.3069, -17.2773, 38.1634, 43.1218, 82.0754, -112.458
8.6117, 55, -21.0841, -17.2262, 38.0604, 43.0542, 82.0979, -112.273
8.61652, 55, -21.0098, -17.2089, 38.0257, 43.0309, 82.1054, -112.211
8.62362, 55, -20.8606, -17.1742, 37.9561, 42.9832, 82.1205, -112.088
8.63138, 55, -20.7109, -17.1388, 37.8858, 42.9356, 82.1357, -111.965
8.63938, 55, -20.5608, -17.1031, 37.8151, 42.887, 82.1512, -111.843
8.64744, 56, -20.4101, -17.0672, 37.744, 42.8368, 82.167, -111.72
8.65549, 56, -20.2589, -17.0307, 37.6724, 42.7869, 82.1833, -111.597
8.66358, 56, -20.1073, -16.9939, 37.6005, 42.7355, 82.1997, -111.474
8.67235, 56, -19.9554, -16.9566, 37.528, 42.6829, 82.2161, -111.351
8.67939, 56, -19.803, -16.919, 37.455, 42.6305, 82.2323, -111.229
8.68737, 56, -19.6504, -16.881, 37.3815, 42.5763, 82.2484, -111.106
8.69544, 56, -19.4977, -16.8425, 37.3075, 42.5214, 82.2647, -110.983
8.70358, 57, -19.3446, -16.8037, 37.233, 42.4661, 82.2811, -110.86
8.71556, 57, -19.1142, -16.7446, 37.1205, 42.3803, 82.3065, -110.677
8.72059, 57, -19.0371, -16.7248, 37.0827, 42.3519, 82.3151, -110.615
8.72774, 57, -18.8826, -16.6848, 37.007, 42.2932, 82.3327, -110.493
8.73568, 57, -18.7276, -16.6444, 36.9307, 42.2337, 82.3504, -110.37
8.74351, 57, -18.5722, -16.6036, 36.8541, 42.1738, 82.3679, -110.247
8.75147, 57, -18.4162, -16.5624, 36.777, 42.1121, 82.3853, -110.125
8.76009, 58, -18.2596, -16.5208, 36.6994, 42.0506, 82.4027, -110.002
8.76837, 58, -18.1025, -16.4789, 36.6213, 41.987, 82.4201, -109.88
8.7754, 58, -17.9449, -16.4365, 36.5427, 41.9234, 82.4377, -109.758
8.78341, 58, -17.787, -16.3937, 36.4636, 41.8583, 82.4558, -109.636
8.79176, 58, -17.6286, -16.3506, 36.3842, 41.7927, 82.4743, -109.514
8.80044, 58, -17.4698, -16.3071, 36.3045, 41.7262, 82.493, -109.391
8.80763, 58, -17.3106, -16.2633, 36.2243, 41.6583, 82.5116, -109.269
8.81562, 58, -17.1509, -16.2192, 36.1437, 41.5901, 82.5301, -109.147
8.82382, 59, -16.9909, -16.1747, 36.0627, 41.5202, 82.5487, -109.025
8.8318, 59, -16.8303, -16.1298, 35.981, 41.4501, 82.5673, -108.902
8.84157, 59, -16.6693, -16.0846, 35.8989, 41.3783, 82.5863, -108.78
8.85359, 59, -16.427, -16.0159, 35.7751, 41.2693, 82.6157, -108.597
8.85601, 59, -16.3459, -15.9929, 35.7336, 41.2324, 82.6256, -108.536
8.8639, 59, -16.1837, -15.9466, 35.6505, 41.1584, 82.6456, -108.414
8.87248, 59, -16.0209, -15.8998, 35.567, 41.0826, 82.6653, -108.292
8.88001, 60, -15.9394, -15.8526, 35.483, 41.0063, 82.6848, -108.17
8.89266, 60, -15.7762, -15.8288, 35.4409, 40.9677, 82.6946, -108.109
8.89665, 60, -15.5301, -15.7569, 35.3136, 40.8508, 82.7243, -107.926
8.90499, 60, -15.3652, -15.7084, 35.2282, 40.7714, 82.7446, -107.803
8.91317, 60, -15.1997, -15.6596, 35.1423, 40.6911, 82.7654, -107.681
8.91941, 60, -15.1167, -15.635, 35.0992, 40.6506, 82.7759, -107.62
8.92742, 60, -14.9507, -15.5856, 35.0129, 40.5687, 82.7968, -107.499
8.93533, 61, -14.7842, -15.5358, 34.9262, 40.4858, 82.8176, -107.377
8.94337, 61, -14.6172, -15.4856, 34.8391, 40.4016, 82.8385, -107.255
8.95141, 61, -14.4495, -15.4352, 34.7515, 40.3169, 82.8596, -107.133
8.95936, 61, -14.2813, -15.3842, 34.6635, 40.2308, 82.881, -107.01
8.96982, 61, -14.0275, -15.3072, 34.5303, 40.0999, 82.9143, -106.827
8.97745, 61, -13.8578, -15.2553, 34.4412, 40.0116, 82.9367, -106.705
8.98336, 61, -13.7728, -15.2291, 34.3965, 39.9668, 82.9478, -106.643
8.99394, 62, -13.5171, -15.1503, 34.262, 39.8312, 82.9811, -106.46
9.00101, 62, -13.3463, -15.0971, 34.1718, 39.7395, 83.0034, -106.338
9.00737, 62, -13.2608, -15.0704, 34.1265, 39.6931, 83.0147, -106.277
9.0195, 62, -13.0037, -14.9895, 33.99, 39.5524, 83.0494, -106.093
9.0235, 62, -12.9178, -14.9624, 33.9442, 39.5051, 83.0613, -106.032
9.03156, 62, -12.7454, -14.9077, 33.8522, 39.4094, 83.0851, -105.909
9.03945, 62, -12.5722, -14.8527, 33.7599, 39.3127, 83.1088, -105.786
9.04736, 62, -12.3983, -14.7972, 33.6674, 39.215, 83.1326, -105.664
9.05538, 63, -12.2237, -14.7414, 33.5745, 39.1162, 83.1566, -105.541
9.06346, 63, -12.0485, -14.685, 33.4811, 39.0161, 83.1814, -105.418
9.07151, 63, -11.873, -14.6284, 33.3874, 38.9151, 83.2068, -105.296
9.08034, 63, -11.6967, -14.5713, 33.293, 38.8128, 83.2323, -105.173
9.08742, 63, -11.5198, -14.5137, 33.198, 38.7093, 83.2578, -105.05
9.09536, 63, -11.3422, -14.4557, 33.1028, 38.6048, 83.2833, -104.927
9.10336, 63, -11.1642, -14.3971, 33.0073, 38.499, 83.3092, -104.803
9.11232, 64, -10.9855, -14.3381, 32.9114, 38.3922, 83.3359, -104.68
9.11996, 64, -10.8062, -14.2785, 32.8151, 38.2843, 83.3632, -104.556
9.12842, 64, -10.6264, -14.2184, 32.7184, 38.1752, 83.3905, -104.432
9.13535, 64, -10.4462, -14.1576, 32.6211, 38.065, 83.4177, -104.309
9.14501, 64, -10.2657, -14.0964, 32.5233, 37.9535, 83.4453, -104.185
9.15152, 64, -10.0849, -14.0347, 32.4251, 37.8407, 83.4736, -104.061
9.16246, 64, -9.81277, -13.9413, 32.2775, 37.6696, 83.5173, -103.875
9.16735, 64, -9.72174, -13.91, 32.2281, 37.6119, 83.5319, -103.812
9.17536, 65, -9.53907, -13.847, 32.129, 37.4958, 83.561, -103.688
9.18343, 65, -9.35549, -13.7835, 32.0294, 37.3785, 83.5904, -103.563
9.19137, 65, -9.17103, -13.7195, 31.9291, 37.26, 83.6206, -103.438
9.19949, 65, -8.98593, -13.655, 31.8284, 37.1406, 83.6518, -103.313
9.20747, 65, -8.80033, -13.5899, 31.7275, 37.0196, 83.6831, -103.188
9.2154, 65, -8.61425, -13.5244, 31.6263, 36.8976, 83.7144, -103.063
9.22344, 65, -8.4276, -13.4582, 31.5249, 36.7745, 83.7462, -102.938
9.23237, 66, -8.24045, -13.3915, 31.4231, 36.6501, 83.779, -102.812
9.2399, 66, -8.0526, -13.3241, 31.3207, 36.5249, 83.8124, -102.687
9.24858, 66, -7.86372, -13.2563, 31.2178, 36.3982, 83.8455, -102.56
9.25633, 66, -7.67412, -13.1879, 31.1145, 36.2705, 83.8788, -102.435
9.26385, 66, -7.48422, -13.119, 31.011, 36.1415, 83.913, -102.308
9.27135, 66, -7.29409, -13.0496, 30.9074, 36.0112, 83.9481, -102.182
9.27938, 66, -7.10365, -12.9798, 30.8033, 35.8799, 83.9831, -102.055
9.28843, 67, -6.91279, -12.9094, 30.6989, 35.7474, 84.0184, -101.929
9.2975, 67, -6.72147, -12.8385, 30.5938, 35.6136, 84.0546, -101.802
9.30377, 67, -6.52936, -12.7671, 30.4883, 35.4788, 84.0918, -101.675
9.31167, 67, -6.33658, -12.6951, 30.3826, 35.3429, 84.1289, -101.547
9.32035, 67, -6.14283, -12.6225, 30.2768, 35.2056, 84.166, -101.419
9.32768, 67, -5.94824, -12.5494, 30.1709, 35.0672, 84.2042, -101.292
9.3362, 67, -5.75298, -12.4756, 30.0645, 34.9277, 84.2434, -101.164
9.34791, 68, -5.45925, -12.364, 29.9041, 34.7163, 84.3017, -100.972
9.35234, 68, -5.36109, -12.3265, 29.8504, 34.6453, 84.3215, -100.908
9.36035, 68, -5.16415, -12.2511, 29.7428, 34.5022, 84.3622, -100.779
9.36791, 68, -4.96639, -12.1752, 29.6352, 34.3581, 84.4033, -100.651
9.37645, 68, -4.76777, -12.0988, 29.5275, 34.2128, 84.4442, -100.522
9.38419, 68, -4.6682, -12.0219, 29.4195, 34.0663, 84.486, -100.393
9.39134, 68, -4.46884, -11.9832, 29.3654, 33.9927, 84.5074, -100.329
9.40038, 68, -4.16911, -11.8663, 29.2021, 33.7701, 84.5715, -100.135
9.40741, 69, -4.06908, -11.8271, 29.1475, 33.6953, 84.5928, -100.07
9.41538, 69, -3.869, -11.7484, 29.0384, 33.5448, 84.6366, -99.9404
9.42352, 69, -3.66898, -11.6692, 28.9293, 33.3933, 84.6813, -99.8108
9.43147, 69, -3.4684, -11.5895, 28.8201, 33.2407, 84.7255, -99.6808
9.43938, 69, -3.26667, -11.5091, 28.7106, 33.0872, 84.7705, -99.5506
9.44735, 69, -3.0638, -11.4281, 28.6007, 32.9326, 84.8168, -99.4203
9.45673, 69, -2.75791, -11.3057, 28.4351, 32.6986, 84.8858, -99.2242
9.46538, 70, -2.55354, -11.2233, 28.3248, 32.5412, 84.9333, -99.0934
9.47355, 70, -2.45113, -11.1819, 28.2146, 32.3828, 84.9814, -98.9624
9.48318, 70, -2.14301, -11.0571, 28.1043, 32.2234, 85.0289, -98.831
9.4873, 70, -2.03988, -11.0153, 28.049, 32.1433, 85.0531, -98.7654
9.49547, 70, -1.83301, -10.9312, 27.9382, 31.9824, 85.1027, -98.6342
9.50336, 70, -1.62539, -10.8465, 27.8271, 31.8204, 85.1519, -98.5027
9.51288, 70, -1.41697, -10.7613, 27.716, 31.6573, 85.2017, -98.3052
9.51942, 70, -1.20829, -10.6757, 27.6051, 31.4934, 85.2532, -98.2391
9.5284, 71, -0.999689, -10.5895, 27.4943, 31.3283, 85.3041, -98.1067
9.53534, 71, -0.79148, -10.5029, 27.3833, 31.1623, 85.3556, -97.9744
9.54681, 71, -0.479529, -10.3719, 27.2162, 30.9111, 85.4346, -97.7755
9.55257, 71, -0.375179, -10.328, 27.1604, 30.827, 85.4608, -97.7092
9.55932, 71, -0.165753, -10.2398, 27.0489, 30.658, 85.5145, -97.5763
9.56744, 71, 0.0446817, -10.1512, 26.9377, 30.4881, 85.5688, -97.4435
9.57555, 71, 0.255857, -10.062, 26.8265, 30.3175, 85.6228, -97.3103
9.58448, 72, 0.467843, -9.97226, 26.7154, 30.1459, 85.6782, -97.1767
9.59134, 72, 0.680735, -9.88202, 26.6039, 29.9733, 85.7337, -97.043
9.59941, 72, 0.894114, -9.79124, 26.4923, 29.8, 85.7897, -96.9091
9.60734, 72, 1.10784, -9.69986, 26.3808, 29.6257, 85.8468, -96.7751
9.61535, 72, 1.32217, -9.60804, 26.2696, 29.4508, 85.9035, -96.641
9.62368, 72, 1.5374, -9.51571, 26.1587, 29.275, 85.9616, -96.5067
9.63317, 72, 1.75353, -9.42287, 26.0478, 29.0983, 86.02, -96.3727
9.63933, 73, 1.96965, -9.3294, 25.9367, 28.9208, 86.0787, -96.2382
9.64747, 73, 2.18524, -9.23543, 25.8253, 28.7425, 86.1387, -96.1037
9.65535, 73, 2.40024, -9.14088, 25.7141, 28.5634, 86.1982, -95.9687
9.66334, 73, 2.61494, -9.04589, 25.6035, 28.3835, 86.2592, -95.8335
9.67489, 73, 2.93751, -8.90243, 25.4378, 28.1126, 86.3511, -95.6304
9.67955, 73, 3.04534, -8.85432, 25.3827, 28.0219, 86.3823, -95.5626
9.68734, 73, 3.26187, -8.75778, 25.2722, 27.84, 86.4452, -95.427
9.69555, 74, 3.47945, -8.66069, 25.1616, 27.6575, 86.5079, -95.2913
9.70343, 74, 3.69771, -8.56302, 25.0512, 27.4741, 86.5721, -95.1553
9.7114, 74, 3.9162, -8.46481, 24.9414, 27.2902, 86.6359, -95.0191
9.71945, 74, 4.13514, -8.36598, 24.8318, 27.1056, 86.7015, -94.8824
9.72743, 74, 4.35514, -8.26657, 24.7224, 26.9206, 86.7667, -94.7456
9.73552, 74, 4.57627, -8.16658, 24.6129, 26.735, 86.8332, -94.6088
9.7435, 74, 4.79783, -8.06608, 24.5034, 26.5489, 86.9001, -94.4715
9.75179, 74, 5.01892, -7.96506, 24.3941, 26.3622, 86.9676, -94.3343
9.76039, 75, 5.23949, -7.86351, 24.2854, 26.1751, 87.0361, -94.197
9.7674, 75, 5.4595, -7.76131, 24.177, 25.9876, 87.1047, -94.0593
9.77547, 75, 5.67877, -7.65848, 24.0689, 25.7993, 87.1749, -93.9217
9.78338, 75, 5.89753, -7.5551, 23.9608, 25.6108, 87.2448, -93.7836
9.79145, 75, 6.11658, -7.45107, 23.8526, 25.422, 87.3162, -93.6452
9.79976, 75, 6.33648, -7.34654, 23.7447, 25.2327, 87.3872, -93.5068
9.80847, 75, 6.55723, -7.24155, 23.6375, 25.0432, 87.4597, -93.3681
9.81559, 76, 6.77822, -7.1359, 23.5307, 24.8533, 87.5325, -93.2293
9.8245, 76, 6.99945, -7.02956, 23.4242, 24.6632, 87.6065, -93.0904
9.83184, 76, 7.22145, -6.92264, 23.3177, 24.4728, 87.6805, -92.951
9.83978, 76, 7.44441, -6.81501, 23.2112, 24.2821, 87.7556, -92.8113
9.84863, 76, 7.66809, -6.70673, 23.105, 24.0911, 87.8313, -92.6714
9.85591, 76, 7.89206, -6.59792, 22.9994, 23.9, 87.9082, -92.5311
9.86449, 76, 8.11598, -6.48857, 22.8944, 23.7086, 87.9854, -92.3906
9.87379, 77, 8.33939, -6.37861, 22.7898, 23.5171, 88.0637, -92.25
9.8813, 77, 8.56176, -6.26788, 22.6853, 23.3254, 88.1427, -92.1094
9.88934, 77, 8.78277, -6.15644, 22.5808, 23.1336, 88.2221, -91.9686
9.89586, 77, 8.89294, -6.10048, 22.5286, 23.0377, 88.2621, -91.8982
9.9051, 77, 9.22336, -5.9318, 22.373, 22.7501, 88.3834, -91.6862
9.91243, 77, 9.44394, -5.81862, 22.2701, 22.5585, 88.4654, -91.5446
9.91936, 77, 9.55426, -5.76185, 22.2188, 22.4627, 88.5064, -91.4735
9.93155, 78, 9.8856, -5.59035, 22.0653, 22.1752, 88.631, -91.2601
9.93535, 78, 9.99632, -5.53278, 22.0142, 22.0795, 88.6728, -91.1888
9.94467, 78, 10.3295, -5.35913, 21.8612, 21.7924, 88.7997, -90.9748
9.95141, 78, 10.4408, -5.3009, 21.8103, 21.6969, 88.8422, -90.9033
9.95938, 78, 10.6635, -5.184, 21.7092, 21.5058, 88.9282, -90.7601
9.96885, 78, 10.998, -5.00767, 21.5588, 21.2197, 89.0585, -90.5448
9.97721, 78, 11.221, -4.88926, 21.4589, 21.0291, 89.1459, -90.4007
9.9848, 78, 11.3321, -4.77002, 21.3592, 20.8388, 89.2344, -90.2564
9.99139, 79, 11.5535, -4.71007, 21.3095, 20.7438, 89.279, -90.1843
10.0009, 79, 11.8836, -4.52933, 21.1607, 20.4589, 89.4135, -89.967
10.0074, 79, 11.9932, -4.46877, 21.1114, 20.3642, 89.4587, -89.8946
10.017, 79, 12.212, -4.2862, 20.9645, 20.0804, 89.5958, -89.6769
10.0257, 79, 12.5388, -4.16358, 20.8672, 19.8919, 89.688, -89.5314
10.0338, 79, 12.6476, -4.04004, 20.7702, 19.7037, 89.7811, -89.3854
10.0394, 79, 12.8654, -3.97798, 20.7218, 19.6098, 89.828, -89.3123
10.0473, 80, 13.0836, -3.85327, 20.6252, 19.4225, 89.9224, -89.1659
10.0553, 80, 13.3018, -3.72787, 20.5291, 19.2357, 90.0172, -89.0192
10.0633, 80, 13.5203, -3.60192, 20.4334, 19.0496, 90.1129, -88.872
10.0714, 80, 13.7392, -3.47528, 20.3384, 18.8639, 90.2097, -88.7247
10.0794, 80, 13.9584, -3.34781, 20.244, 18.6789, 90.3069, -88.5773
10.0873, 80, 14.1772, -3.21944, 20.1498, 18.4946, 90.4052, -88.429
10.0953, 80, 14.3947, -3.09029, 20.0561, 18.3109, 90.5042, -88.2803
10.1035, 80, 14.611, -2.9605, 19.9627, 18.1278, 90.6038, -88.1312
10.1115, 81, 14.8264, -2.83012, 19.8697, 17.9454, 90.7044, -87.9817
10.1193, 81, 15.0407, -2.69892, 19.7773, 17.7638, 90.8059, -87.832
10.1273, 81, 15.2537, -2.56682, 19.6854, 17.583, 90.9078, -87.6821
10.1354, 81, 15.466, -2.43382, 19.5939, 17.4031, 91.0108, -87.5319
10.1433, 81, 15.6779, -2.3, 19.5029, 17.2238, 91.1146, -87.3814
10.1516, 81, 15.8897, -2.16559, 19.4123, 17.0454, 91.219, -87.2304
10.1603, 81, 16.1011, -2.03047, 19.322, 16.8679, 91.3245, -87.0789
10.1674, 82, 16.312, -1.89445, 19.2321, 16.6913, 91.4307, -86.927
10.1753, 82, 16.5231, -1.7574, 19.1427, 16.5159, 91.5379, -86.7746
10.1833, 82, 16.7343, -1.61947, 19.0538, 16.3412, 91.6462, -86.6216
10.1914, 82, 16.9453, -1.48078, 18.9655, 16.1677, 91.7549, -86.4687
10.1995, 82, 17.1555, -1.34143, 18.8775, 15.9952, 91.8646, -86.315
10.2073, 82, 17.3646, -1.2012, 18.79, 15.8238, 91.9752, -86.1609
10.2155, 82, 17.5729, -1.0599, 18.7028, 15.6535, 92.0864, -86.0063
10.2247, 83, 17.78, -0.91774, 18.616, 15.4843, 92.1989, -85.8511
10.2349, 83, 17.9855, -0.703116, 18.4864, 15.2324, 92.3686, -85.6177
10.2404, 83, 18.1895, -0.63126, 18.4434, 15.1492, 92.4258, -85.5395
10.2474, 83, 18.3924, -0.48702, 18.3579, 14.9835, 92.5408, -85.3831
10.2562, 83, 18.5946, -0.341754, 18.2729, 14.819, 92.6562, -85.2264
10.2634, 83, 18.7962, -0.195417, 18.1882, 14.6557, 92.7729, -85.0691
10.2715, 83, 18.9974, -0.0482914, 18.104, 14.4937, 92.8902, -84.9111
10.2806, 84, 19.1981, 0.0994611, 18.02, 14.3329, 93.0082, -84.7526
10.2883, 84, 19.3984, 0.248071, 17.9365, 14.1736, 93.1274, -84.594
10.2954, 84, 19.5983, 0.397876, 17.8533, 14.0157, 93.2471, -84.4347
10.3037, 84, 19.7978, 0.548721, 17.7705, 13.859, 93.3679, -84.275
10.3115, 84, 19.9963, 0.700406, 17.6883, 13.7037, 93.4893, -84.1147
10.3197, 84, 20.194, 0.852697, 17.6065, 13.5498, 93.6115, -83.9539
10.3281, 84, 20.3907, 1.00577, 17.5252, 13.3972, 93.7347, -83.7925
10.3365, 84, 20.5863, 1.16008, 17.4442, 13.2462, 93.8585, -83.6304
10.3438, 85, 20.7802, 1.31529, 17.3635, 13.0966, 93.9831, -83.4678
10.3525, 85, 20.9726, 1.47115, 17.2832, 12.9485, 94.1083, -83.3049
10.3598, 85, 21.1636, 1.62745, 17.2033, 12.8017, 94.2344, -83.1415
10.3684, 85, 21.3532, 1.78466, 17.1239, 12.6566, 94.3609, -82.9776
10.3767, 85, 21.5417, 1.94291, 17.0449, 12.5131, 94.4884, -82.8132
10.3846, 85, 21.7294, 2.10207, 16.9664, 12.3712, 94.6164, -82.6479
10.392, 85, 21.9164, 2.26183, 16.8883, 12.231, 94.745, -82.4824
10.4006, 86, 22.1027, 2.42197, 16.8107, 12.0925, 94.8746, -82.316
10.4074, 86, 22.1956, 2.50239, 16.7721, 12.0237, 94.9397, -82.2327
10.4164, 86, 22.4732, 2.74557, 16.6566, 11.8199, 95.1361, -81.9823
10.4233, 86, 22.5653, 2.82711, 16.6184, 11.7529, 95.2017, -81.8985
10.4314, 86, 22.749, 2.99045, 16.5422, 11.6201, 95.3337, -81.7307
10.4405, 86, 23.0228, 3.23651, 16.4289, 11.424, 95.5328, -81.4776
10.4473, 86, 23.1136, 3.3191, 16.3915, 11.3594, 95.5994, -81.3931
10.4555, 87, 23.2942, 3.48501, 16.3169, 11.2317, 95.7335, -81.2238
10.4637, 87, 23.4735, 3.65174, 16.2427, 11.1055, 95.8677, -81.0537
10.4714, 87, 23.6516, 3.81857, 16.169, 10.9812, 96.0029, -80.8836
10.4793, 87, 23.8277, 3.98566, 16.0959, 10.8584, 96.1379, -80.713
10.4898, 87, 24.0887, 4.23796, 15.987, 10.6776, 96.3418, -80.4558
10.4953, 87, 24.1748, 4.32236, 15.9509, 10.6182, 96.4098, -80.3698
10.5035, 87, 24.3463, 4.49115, 15.8791, 10.5007, 96.5461, -80.1977
10.5114, 87, 24.5168, 4.65995, 15.8078, 10.385, 96.6828, -80.0252
10.5209, 88, 24.6866, 4.82967, 15.7371, 10.2711, 96.8196, -79.8524
10.5289, 88, 24.8555, 5.00048, 15.6671, 10.1589, 96.9567, -79.6793
10.5353, 88, 25.0235, 5.17183, 15.5976, 10.0485, 97.094, -79.5054
10.5434, 88, 25.1905, 5.34311, 15.5288, 9.93966, 97.2317, -79.3311
10.5523, 88, 25.3566, 5.51471, 15.4606, 9.83297, 97.3692, -79.1563
10.5593, 88, 25.5221, 5.68749, 15.3928, 9.72783, 97.5072, -78.9811
10.5674, 88, 25.6865, 5.86099, 15.3255, 9.62468, 97.6452, -78.8058
10.5758, 89, 25.85, 6.03432, 15.259, 9.52339, 97.7832, -78.6302
10.5863, 89, 26.0124, 6.29466, 15.1602, 9.37436, 97.9903, -78.366
10.5914, 89, 26.1734, 6.38186, 15.1275, 9.32568, 98.0594, -78.2777
10.5994, 89, 26.3329, 6.55675, 15.0627, 9.22965, 98.1973, -78.1009
10.6073, 89, 26.4909, 6.73146, 14.9986, 9.13527, 98.3357, -77.9238
10.6154, 89, 26.6472, 6.90583, 14.9351, 9.04283, 98.4742, -77.7464
10.6267, 89, 26.8789, 7.16847, 14.841, 8.9075, 98.6819, -77.48
10.6325, 90, 26.9554, 7.25635, 14.81, 8.86341, 98.751, -77.391
10.6393, 90, 27.1073, 7.43219, 14.7482, 8.77624, 98.8897, -77.2125
10.6474, 90, 27.2581, 7.60766, 14.6871, 8.69126, 99.0279, -77.0337
10.6553, 90, 27.4076, 7.78357, 14.6267, 8.60764, 99.1663, -76.8547
10.6633, 90, 27.5559, 7.96039, 14.5668, 8.5261, 99.3044, -76.6754
10.6714, 90, 27.7034, 8.13761, 14.5075, 8.4459, 99.4424, -76.4959
10.6795, 90, 27.8501, 8.31443, 14.449, 8.36811, 99.5802, -76.3162
10.6883, 90, 27.9962, 8.49116, 14.391, 8.29156, 99.7178, -76.1361
10.6963, 91, 28.1415, 8.66871, 14.3337, 8.21722, 99.8555, -75.9556
10.7034, 91, 28.2859, 8.84671, 14.2769, 8.14455, 99.9929, -75.7749
10.7114, 91, 28.4294, 9.02435, 14.2208, 8.07397, 100.131, -75.5939
10.7194, 91, 28.5716, 9.20181, 14.1653, 8.00467, 100.268, -75.4126
10.7277, 91, 28.7126, 9.37999, 14.1103, 7.93758, 100.405, -75.2312
10.7363, 91, 28.8524, 9.55894, 14.0557, 7.87166, 100.542, -75.0491
10.7434, 91, 28.9908, 9.73776, 14.0018, 7.80851, 100.679, -74.8666
10.7515, 92, 29.1279, 9.91611, 13.9485, 7.746, 100.816, -74.6838
10.7599, 92, 29.2637, 10.095, 13.8957, 7.68616, 100.953, -74.5006
10.7684, 92, 29.3981, 10.2747, 13.8433, 7.62748, 101.089, -74.3173
10.7754, 92, 29.531, 10.4545, 13.7916, 7.57074, 101.226, -74.1337
10.7842, 92, 29.6624, 10.6337, 13.7403, 7.51652, 101.362, -73.9496
10.7914, 92, 29.7921, 10.8133, 13.6897, 7.46267, 101.499, -73.7649
10.8016, 92, 29.9204, 10.9939, 13.6395, 7.41162, 101.635, -73.5798
10.8079, 93, 30.0476, 11.1744, 13.59, 7.36233, 101.771, -73.3943
10.8165, 93, 30.1741, 11.3546, 13.5408, 7.31408, 101.907, -73.2085
10.8236, 93, 30.2996, 11.535, 13.4921, 7.26884, 102.043, -73.0224
10.8318, 93, 30.4242, 11.7163, 13.444, 7.22527, 102.179, -72.8357
10.8406, 93, 30.5479, 11.8981, 13.3963, 7.18248, 102.315, -72.6484
10.8477, 93, 30.6707, 12.0795, 13.3492, 7.14221, 102.451, -72.4606
10.8563, 93, 30.7924, 12.2614, 13.3026, 7.10422, 102.586, -72.2723
10.8638, 93, 30.9134, 12.4444, 13.2565, 7.06751, 102.722, -72.0839
10.8724, 94, 31.0332, 12.6279, 13.2108, 7.03204, 102.857, -71.8951
10.8799, 94, 31.1522, 12.8109, 13.1656, 6.99912, 102.993, -71.7057
10.8885, 94, 31.2699, 12.9937, 13.121, 6.96825, 103.128, -71.5156
10.8959, 94, 31.3282, 13.0854, 13.0989, 6.95346, 103.263, -71.3251
10.9043, 94, 31.5012, 13.3609, 13.0331, 6.911, 103.398, -71.1343
10.9114, 94, 31.5582, 13.4524, 13.0115, 6.89752, 103.465, -71.0387
10.9193, 94, 31.6714, 13.6351, 12.9686, 6.87226, 103.6, -70.8474
10.9285, 95, 31.8388, 13.9102, 12.9052, 6.83845, 103.801, -70.5592
10.9353, 95, 31.894, 14.0023, 12.8843, 6.82812, 103.868, -70.4629
10.9433, 95, 32.0036, 14.1862, 12.8429, 6.8088, 104.002, -70.2699
10.9528, 95, 32.1656, 14.4614, 12.782, 6.78279, 104.202, -69.9797
10.9607, 95, 32.2719, 14.6455, 12.7419, 6.7673, 104.335, -69.7859
10.9673, 95, 32.3246, 14.7377, 12.722, 6.76013, 104.401, -69.6889
10.9792, 95, 32.481, 15.0136, 12.6636, 6.74109, 104.6, -69.3972
10.9849, 96, 32.584, 15.1971, 12.6253, 6.73075, 104.732, -69.202
10.9938, 96, 32.6861, 15.3814, 12.5875, 6.7223, 104.863, -69.0065
10.9993, 96, 32.7368, 15.4737, 12.5689, 6.71866, 104.928, -68.9087
11.0089, 96, 32.8873, 15.7497, 12.5137, 6.71074, 105.124, -68.615
11.0179, 96, 32.9369, 15.8414, 12.4956, 6.70753, 105.253, -68.4186
11.0234, 96, 33.0353, 16.0248, 12.46, 6.70651, 105.318, -68.3203
11.0323, 96, 33.1325, 16.2086, 12.4249, 6.70538, 105.447, -68.1233
11.0394, 96, 33.229, 16.3923, 12.3905, 6.70516, 105.576, -67.9262
11.0484, 97, 33.3246, 16.5753, 12.3567, 6.70616, 105.704, -67.7287
11.0575, 97, 33.4664, 16.8502, 12.3072, 6.71141, 105.895, -67.4325
11.0634, 97, 33.5131, 16.9421, 12.291, 6.71402, 105.958, -67.3335
11.0714, 97, 33.6059, 17.1256, 12.259, 6.72057, 106.084, -67.1353
11.0793, 97, 33.6976, 17.3081, 12.2277, 6.72904, 106.21, -66.9367
11.0874, 97, 33.7883, 17.4904, 12.1969, 6.73933, 106.335, -66.7381
11.0953, 97, 33.878, 17.6732, 12.1667, 6.75153, 106.46, -66.5393
11.1033, 98, 33.9668, 17.8556, 12.1372, 6.76578, 106.584, -66.3403
11.1114, 98, 34.0547, 18.0371, 12.1083, 6.78155, 106.707, -66.1408
11.1193, 98, 34.1415, 18.2187, 12.0798, 6.79863, 106.83, -65.9411
11.1273, 98, 34.2274, 18.4008, 12.052, 6.81696, 106.952, -65.741
11.1354, 98, 34.3123, 18.5827, 12.0248, 6.83668, 107.073, -65.5409
11.1433, 98, 34.3961, 18.7636, 11.9982, 6.85788, 107.194, -65.3405
11.1514, 98, 34.4792, 18.9443, 11.9721, 6.88097, 107.314, -65.1399
11.1593, 99, 34.5614, 19.1254, 11.9466, 6.90594, 107.434, -64.9388
11.1673, 99, 34.6426, 19.3063, 11.9218, 6.93228, 107.553, -64.7375
11.1754, 99, 34.7231, 19.4864, 11.8975, 6.95952, 107.671, -64.536
11.1833, 99, 34.8026, 19.6662, 11.8737, 6.98788, 107.789, -64.3342
11.1914, 99, 34.8812, 19.8464, 11.8504, 7.0178, 107.906, -64.1323
11.1993, 99, 34.959, 20.0264, 11.8278, 7.04985, 108.022, -63.9299
11.2073, 99, 35.0359, 20.2054, 11.8059, 7.08309, 108.138, -63.7272
11.2154, 99, 35.112, 20.3837, 11.7847, 7.11715, 108.253, -63.5246
11.2233, 100, 35.1873, 20.5622, 11.7641, 7.15262, 108.366, -63.3219
11.2314, 100, 35.2619, 20.7405, 11.7439, 7.19012, 108.479, -63.1195
11.2394, 100, 35.3357, 20.918, 11.7246, 7.22865, 108.591, -62.917
11.2474, 100, 35.4086, 21.0947, 11.706, 7.26759, 108.702, -62.7144
11.2554, 100, 35.4808, 21.2714, 11.6881, 7.30797, 108.812, -62.5118
11.2635, 100, 35.5522, 21.4478, 11.6712, 7.35031, 108.921, -62.3096
11.2715, 100, 35.6231, 21.623, 11.655, 7.39306, 109.029, -62.1078
11.2793, 101, 35.6934, 21.7969, 11.6395, 7.43657, 109.135, -61.9064
11.2875, 101, 35.7629, 21.9702, 11.6248, 7.48197, 109.24, -61.7054
11.2953, 101, 35.8317, 22.1429, 11.6109, 7.52776, 109.343, -61.5049
11.3033, 101, 35.8999, 22.3141, 11.5978, 7.57402, 109.445, -61.305
11.3117, 101, 35.9673, 22.4836, 11.5856, 7.62213, 109.545, -61.1059
11.3196, 101, 36.0343, 22.6526, 11.5742, 7.67079, 109.643, -60.9075
11.3276, 101, 36.1008, 22.8209, 11.5637, 7.71982, 109.74, -60.7097
11.3357, 102, 36.1669, 22.9882, 11.554, 7.7705, 109.836, -60.5123
11.3446, 102, 36.2325, 23.154, 11.5449, 7.82145, 109.93, -60.3155
11.3519, 102, 36.2975, 23.319, 11.5367, 7.87296, 110.022, -60.1193
11.3604, 102, 36.3618, 23.4841, 11.5289, 7.92593, 110.113, -59.9236
11.3723, 102, 36.457, 23.7313, 11.5185, 8.00574, 110.248, -59.6309
11.3758, 102, 36.4884, 23.8132, 11.5153, 8.03317, 110.292, -59.5333
11.3844, 102, 36.5506, 23.9769, 11.5095, 8.08881, 110.38, -59.3379
11.3919, 102, 36.5815, 24.141, 11.5039, 8.14475, 110.468, -59.142
11.4006, 103, 36.6428, 24.2234, 11.5013, 8.17357, 110.512, -59.044
11.4079, 103, 36.7034, 24.388, 11.4962, 8.23233, 110.601, -58.8472
11.4166, 103, 36.7934, 24.6329, 11.489, 8.32244, 110.733, -58.5506
11.4233, 103, 36.8232, 24.714, 11.4868, 8.35359, 110.777, -58.4512
11.4313, 103, 36.8823, 24.8757, 11.4826, 8.41569, 110.866, -58.252
11.4393, 103, 36.941, 25.0369, 11.479, 8.47997, 110.952, -58.0528
11.4473, 103, 36.9992, 25.1962, 11.4761, 8.54499, 111.038, -57.8545
11.4554, 104, 37.0568, 25.3532, 11.4744, 8.61095, 111.12, -57.6579
11.465, 104, 37.1422, 25.585, 11.4737, 8.71112, 111.237, -57.3677
11.4736, 104, 37.1983, 25.7373, 11.4748, 8.77877, 111.309, -57.1778
11.4794, 104, 37.2261, 25.8125, 11.476, 8.81262, 111.344, -57.0842
11.4889, 104, 37.3089, 26.0344, 11.4818, 8.91456, 111.44, -56.8078
11.4977, 104, 37.3635, 26.179, 11.4872, 8.98268, 111.499, -56.6272
11.5033, 104, 37.3907, 26.2505, 11.4903, 9.01666, 111.527, -56.5377
11.5132, 104, 37.4719, 26.4623, 11.5008, 9.12025, 111.61, -56.2722
11.5193, 104, 37.4989, 26.532, 11.5046, 9.15471, 111.636, -56.1843
11.5283, 104, 37.5526, 26.6701, 11.5121, 9.22466, 111.687, -56.009
11.5363, 104, 37.6063, 26.8067, 11.5198, 9.29417, 111.74, -55.8344
11.5443, 104, 37.6596, 26.9427, 11.5276, 9.36509, 111.791, -55.6601
11.5513, 104, 37.7127, 27.0786, 11.5356, 9.43567, 111.841, -55.486
11.5593, 104, 37.7657, 27.2145, 11.5437, 9.50744, 111.892, -55.3125
11.5673, 104, 37.8185, 27.3506, 11.5517, 9.57908, 111.943, -55.1389
11.5753, 104, 37.871, 27.4867, 11.5598, 9.65177, 111.993, -54.9656
11.5833, 104, 37.9235, 27.6229, 11.5678, 9.72443, 112.044, -54.7921
11.5913, 104, 37.9758, 27.7595, 11.5757, 9.79807, 112.093, -54.6193
11.5993, 104, 38.028, 27.8966, 11.5836, 9.87144, 112.143, -54.4464
11.6073, 104, 38.0801, 28.0338, 11.5915, 9.94589, 112.193, -54.2741
11.6154, 104, 38.1318, 28.171, 11.5995, 10.0203, 112.242, -54.102
11.6233, 104, 38.1834, 28.308, 11.6074, 10.0958, 112.292, -53.9299
11.6314, 104, 38.235, 28.4451, 11.6153, 10.1711, 112.342, -53.7579
11.6393, 104, 38.2862, 28.5824, 11.6231, 10.2476, 112.391, -53.5859
11.6473, 104, 38.337, 28.7198, 11.6307, 10.3239, 112.44, -53.4144
11.6553, 104, 38.3876, 28.8572, 11.6384, 10.4013, 112.489, -53.243
11.6634, 104, 38.438, 28.9943, 11.6461, 10.4787, 112.538, -53.0721
11.6713, 104, 38.4882, 29.1315, 11.6538, 10.5568, 112.587, -52.9011
11.6793, 104, 38.5382, 29.2689, 11.6614, 10.6353, 112.636, -52.7302
11.6873, 104, 38.5879, 29.4064, 11.669, 10.7142, 112.684, -52.5594
11.6953, 104, 38.6374, 29.544, 11.6765, 10.7936, 112.733, -52.3889
11.7033, 104, 38.6867, 29.6818, 11.6838, 10.8733, 112.781, -52.2187
11.7113, 104, 38.736, 29.8196, 11.6912, 10.9536, 112.829, -52.0487
11.7193, 104, 38.7848, 29.9577, 11.6985, 11.034, 112.877, -51.879
11.7274, 104, 38.8336, 30.0962, 11.7059, 11.1156, 112.926, -51.7094
11.7354, 104, 38.8824, 30.2348, 11.7132, 11.1971, 112.973, -51.5397
11.7434, 104, 38.9309, 30.3735, 11.7205, 11.2794, 113.021, -51.3703
11.7514, 104, 38.9792, 30.5121, 11.7279, 11.3619, 113.069, -51.2011
11.7595, 104, 39.0274, 30.6506, 11.7351, 11.4447, 113.116, -51.0319
11.7674, 104, 39.0754, 30.7892, 11.7421, 11.5283, 113.163, -50.8632
11.7755, 104, 39.1231, 30.9279, 11.7491, 11.6119, 113.211, -50.6944
11.7833, 104, 39.1704, 31.0659, 11.7562, 11.6963, 113.258, -50.5259
11.7915, 104, 39.2169, 31.2027, 11.7632, 11.7808, 113.304, -50.3576
11.7993, 104, 39.2624, 31.3378, 11.77, 11.8654, 113.351, -50.1903
11.8074, 104, 39.3065, 31.4702, 11.7764, 11.9499, 113.397, -50.0244
11.8158, 104, 39.3488, 31.5974, 11.7824, 12.033, 113.443, -49.8613
