rpiRobotics/ARM-21-02-F-19-Robot-Motion-Program/data_performance_abb/curve_2/baseline/100L/realrobot/bisect/run_0realrobot_curve_exe_v300.0_z10.csv
timestamp, cmd_num, J1, J2, J3, J4, J5, J6
0.000403, -1, 39.632, 32.4419, 11.8325, 12.5483, 113.716, -48.8694
0.004299, -1, 39.632, 32.4419, 11.8325, 12.5483, 113.716, -48.8694
0.007728, -1, 39.632, 32.4419, 11.8325, 12.5484, 113.716, -48.8694
0.029661, -1, 39.632, 32.4419, 11.8325, 12.5484, 113.716, -48.8695
0.031668, -1, 39.632, 32.4419, 11.8325, 12.5484, 113.716, -48.8695
0.034874, -1, 39.632, 32.4419, 11.8325, 12.5483, 113.716, -48.8695
0.039603, -1, 39.632, 32.4419, 11.8325, 12.5484, 113.716, -48.8695
0.047669, -1, 39.6319, 32.4419, 11.8325, 12.5483, 113.716, -48.8695
0.055667, -1, 39.6308, 32.4416, 11.8325, 12.5484, 113.716, -48.8695
0.063594, -1, 39.6271, 32.4407, 11.8325, 12.5483, 113.716, -48.8697
0.071749, -1, 39.6201, 32.4385, 11.8324, 12.5483, 113.715, -48.8703
0.079648, -1, 39.6093, 32.4343, 11.8322, 12.5483, 113.715, -48.8729
0.088217, -1, 39.5933, 32.4273, 11.8321, 12.5484, 113.712, -48.8794
0.095697, -1, 39.5695, 32.4168, 11.8323, 12.5483, 113.708, -48.8943
0.103686, -1, 39.5361, 32.4016, 11.8334, 12.5484, 113.698, -48.9204
0.112412, -1, 39.4926, 32.3808, 11.8368, 12.5483, 113.683, -48.9614
0.120058, -1, 39.4371, 32.3536, 11.8435, 12.5484, 113.66, -49.0217
0.127805, -1, 39.3685, 32.3193, 11.8539, 12.5484, 113.628, -49.1043
0.136653, -1, 39.2865, 32.2773, 11.8691, 12.5487, 113.586, -49.2109
0.144026, -1, 39.1906, 32.2275, 11.8893, 12.5492, 113.535, -49.3434
0.151987, -1, 39.0807, 32.1698, 11.9139, 12.5502, 113.472, -49.5008
0.160782, -1, 38.9569, 32.1043, 11.9426, 12.5516, 113.401, -49.6821
0.168387, -1, 38.8202, 32.032, 11.975, 12.5534, 113.321, -49.8847
0.17607, -1, 38.6717, 31.9534, 12.0102, 12.5555, 113.234, -50.1053
0.184941, -1, 38.5122, 31.8694, 12.0473, 12.5576, 113.141, -50.3397
0.192172, -1, 38.429, 31.8257, 12.0856, 12.56, 113.044, -50.5845
0.199491, -1, 38.2567, 31.7354, 12.105, 12.5612, 112.995, -50.7096
0.207484, -1, 38.0783, 31.6422, 12.1441, 12.5636, 112.895, -50.9631
0.215539, -1, 37.8948, 31.5467, 12.1829, 12.566, 112.793, -51.22
0.223499, -1, 37.7072, 31.4498, 12.2217, 12.5684, 112.691, -51.4787
0.231554, -1, 37.517, 31.3521, 12.2605, 12.5708, 112.588, -51.7384
0.240774, -1, 37.2294, 31.2051, 12.3187, 12.5745, 112.434, -52.1278
0.247565, -1, 37.1333, 31.1561, 12.3381, 12.5757, 112.383, -52.2578
0.255533, -1, 36.941, 31.0583, 12.3768, 12.5784, 112.28, -52.518
0.26352, -1, 36.749, 30.9605, 12.4156, 12.5809, 112.177, -52.7784
0.271536, -1, 36.5574, 30.8628, 12.4545, 12.5835, 112.074, -53.0388
0.279538, -1, 36.3659, 30.7651, 12.4933, 12.5861, 111.971, -53.2992
0.287506, -1, 36.1743, 30.6672, 12.5321, 12.5886, 111.868, -53.5598
0.295498, -1, 35.9828, 30.5693, 12.571, 12.5912, 111.765, -53.8204
0.305836, -1, 35.6955, 30.4223, 12.6294, 12.5949, 111.61, -54.2112
0.311485, -1, 35.5996, 30.3733, 12.6489, 12.5961, 111.559, -54.3414
0.319522, -1, 35.4075, 30.2751, 12.6877, 12.5988, 111.456, -54.6019
0.328483, -1, 35.2151, 30.1769, 12.7265, 12.6013, 111.353, -54.8626
0.335479, -1, 35.0227, 30.0786, 12.7655, 12.6039, 111.25, -55.1234
0.343497, -1, 34.8304, 29.9802, 12.8044, 12.6065, 111.146, -55.384
0.35155, -1, 34.638, 29.8818, 12.8432, 12.609, 111.043, -55.6448
0.359487, -1, 34.4457, 29.7834, 12.8823, 12.6115, 110.94, -55.9057
0.367509, -1, 34.2536, 29.685, 12.9213, 12.6141, 110.837, -56.1668
0.375481, -1, 34.0616, 29.5868, 12.9602, 12.6167, 110.734, -56.4276
0.38347, -1, 33.8698, 29.4886, 12.9993, 12.6193, 110.631, -56.6884
0.391566, -1, 33.6779, 29.3903, 13.0382, 12.622, 110.528, -56.9493
0.3995, -1, 33.486, 29.292, 13.0771, 12.6246, 110.425, -57.2105
0.407489, -1, 33.2935, 29.1936, 13.1161, 12.6272, 110.322, -57.4716
0.415627, -1, 33.1008, 29.0951, 13.155, 12.6299, 110.218, -57.7326
0.423481, -1, 32.9079, 28.9966, 13.1939, 12.6325, 110.115, -57.9937
0.43148, -1, 32.7148, 28.8981, 13.2329, 12.6351, 110.012, -58.255
0.439598, -1, 32.5212, 28.7995, 13.2717, 12.6379, 109.909, -58.5163
0.447492, -1, 32.3274, 28.7009, 13.3106, 12.6405, 109.806, -58.7773
0.455481, -1, 32.1333, 28.6023, 13.3496, 12.6432, 109.703, -59.0384
0.46358, -1, 31.9393, 28.5036, 13.3884, 12.6459, 109.6, -59.2996
0.471489, -1, 31.7455, 28.4048, 13.4274, 12.6486, 109.497, -59.5611
0.479466, -1, 31.552, 28.3062, 13.4664, 12.6514, 109.394, -59.8223
0.487575, -1, 31.3587, 28.2076, 13.5053, 12.6542, 109.291, -60.0835
0.495484, -1, 31.1658, 28.1092, 13.5443, 12.657, 109.188, -60.345
0.503527, -1, 30.9734, 28.0107, 13.5833, 12.6598, 109.085, -60.6067
0.511685, -1, 30.7813, 27.9122, 13.6222, 12.6626, 108.981, -60.8679
0.519517, -1, 30.5893, 27.8137, 13.6613, 12.6654, 108.878, -61.1292
0.52764, -1, 30.3973, 27.7151, 13.7002, 12.6681, 108.775, -61.3907
0.536372, -1, 30.2051, 27.6164, 13.7392, 12.6708, 108.672, -61.6524
0.543581, -1, 30.0127, 27.5178, 13.7782, 12.6735, 108.569, -61.914
0.55165, -1, 29.8199, 27.4191, 13.8171, 12.6761, 108.465, -62.1756
0.560355, -1, 29.6265, 27.3204, 13.8559, 12.6788, 108.362, -62.4373
0.567596, -1, 29.4326, 27.2217, 13.8949, 12.6813, 108.259, -62.6991
0.575654, -1, 29.2385, 27.1229, 13.9338, 12.6838, 108.155, -62.9609
0.584875, -1, 29.0441, 27.0241, 13.9728, 12.6862, 108.052, -63.2223
0.591523, -1, 28.8496, 26.9253, 14.0118, 12.6887, 107.949, -63.4838
0.600393, -1, 28.6555, 26.8265, 14.0507, 12.6911, 107.845, -63.7454
0.60765, -1, 28.4613, 26.7277, 14.0897, 12.6936, 107.742, -64.0072
0.745975, -1, 25.1755, 25.0484, 14.7518, 12.7333, 105.986, -68.4566
0.747179, -1, 25.1755, 25.0484, 14.7518, 12.7333, 105.986, -68.4566
0.749431, -1, 25.0788, 24.999, 14.7714, 12.7344, 105.935, -68.5875
0.750637, -1, 25.0788, 24.999, 14.7714, 12.7344, 105.935, -68.5875
0.752664, -1, 24.9821, 24.9497, 14.7909, 12.7356, 105.883, -68.7183
0.754942, -1, 24.9821, 24.9497, 14.7909, 12.7356, 105.883, -68.7183
0.756748, -1, 24.8855, 24.9002, 14.8104, 12.7368, 105.831, -68.8491
0.759517, -1, 24.8855, 24.9002, 14.8104, 12.7368, 105.831, -68.8491
0.900488, -1, 21.5059, 23.1718, 15.4921, 12.7801, 104.023, -73.4275
0.902678, -1, 21.4098, 23.1225, 15.5115, 12.7815, 103.972, -73.5582
0.903884, -1, 21.4098, 23.1225, 15.5115, 12.7815, 103.972, -73.5582
0.905057, -1, 21.4098, 23.1225, 15.5115, 12.7815, 103.972, -73.5582
0.907081, -1, 21.3137, 23.0731, 15.531, 12.7828, 103.92, -73.6889
0.908364, -1, 21.3137, 23.0731, 15.531, 12.7828, 103.92, -73.6889
0.910313, -1, 21.2175, 23.0238, 15.5505, 12.7841, 103.868, -73.8198
0.914769, -1, 21.1214, 22.9745, 15.57, 12.7855, 103.817, -73.9506
0.916025, -1, 21.1214, 22.9745, 15.57, 12.7855, 103.817, -73.9506
0.917986, -1, 21.1214, 22.9745, 15.5895, 12.7868, 103.765, -74.0812
0.919532, -1, 21.0251, 22.9252, 15.5895, 12.7868, 103.765, -74.0812
0.920838, -1, 21.0251, 22.9252, 15.5895, 12.7868, 103.765, -74.0812
0.924084, -1, 20.9289, 22.8759, 15.6089, 12.7882, 103.714, -74.2117
0.925904, -1, 20.9289, 22.8759, 15.6089, 12.7882, 103.662, -74.3423
0.927487, -1, 20.8327, 22.8266, 15.6284, 12.7896, 103.662, -74.3423
0.931001, -1, 20.7365, 22.7774, 15.6479, 12.7909, 103.611, -74.4729
0.932299, -1, 20.7365, 22.7774, 15.6479, 12.7909, 103.611, -74.4729
0.934111, -1, 20.6403, 22.7281, 15.6674, 12.7923, 103.559, -74.6035
0.935568, -1, 20.6403, 22.7281, 15.6674, 12.7923, 103.559, -74.6035
0.936756, -1, 20.6403, 22.7281, 15.6674, 12.7923, 103.559, -74.6035
0.939537, -1, 20.5439, 22.6788, 15.6868, 12.7937, 103.507, -74.7342
0.940819, -1, 20.5439, 22.6788, 15.6868, 12.7937, 103.507, -74.7342
0.944479, -1, 20.4474, 22.6295, 15.7062, 12.7951, 103.456, -74.8649
0.946333, -1, 20.3507, 22.5802, 15.7256, 12.7964, 103.404, -74.9955
0.948552, -1, 20.3507, 22.5802, 15.7256, 12.7964, 103.404, -74.9955
0.951225, -1, 20.2539, 22.5309, 15.7451, 12.7978, 103.353, -75.1262
0.952471, -1, 20.2539, 22.5309, 15.7451, 12.7978, 103.353, -75.1262
0.954426, -1, 20.157, 22.4815, 15.7646, 12.7991, 103.301, -75.2568
0.955779, -1, 20.157, 22.4815, 15.7646, 12.7991, 103.301, -75.2568
0.957037, -1, 20.157, 22.4815, 15.7646, 12.7991, 103.301, -75.2568
0.960241, -1, 20.0601, 22.4322, 15.7841, 12.8004, 103.25, -75.3873
0.96152, -1, 20.0601, 22.4322, 15.7841, 12.8004, 103.25, -75.3873
0.963561, -1, 19.9632, 22.3829, 15.8035, 12.8018, 103.198, -75.5179
0.964793, -1, 19.9632, 22.3829, 15.8035, 12.8018, 103.198, -75.5179
0.966881, -1, 19.8664, 22.3335, 15.8228, 12.8032, 103.147, -75.6485
0.9681, -1, 19.8664, 22.3335, 15.8228, 12.8032, 103.147, -75.6485
0.969377, -1, 19.8664, 22.3335, 15.8228, 12.8032, 103.147, -75.6485
0.978632, -1, 19.576, 22.1856, 15.8811, 12.8072, 102.992, -76.0403
0.983531, -1, 19.4792, 22.1363, 15.9005, 12.8086, 102.941, -76.171
0.991461, -1, 19.2859, 22.0377, 15.9394, 12.8114, 102.838, -76.4321
0.999535, -1, 19.093, 21.9391, 15.9783, 12.814, 102.735, -76.693
1.00745, -1, 18.9004, 21.8405, 16.0171, 12.8167, 102.632, -76.9538
1.01547, -1, 18.7081, 21.7417, 16.0558, 12.8193, 102.529, -77.2149
1.02372, -1, 18.5162, 21.6431, 16.0947, 12.822, 102.426, -77.4759
1.03155, -1, 18.3244, 21.5446, 16.1336, 12.8246, 102.323, -77.7366
1.03966, -1, 18.1324, 21.4461, 16.1723, 12.8272, 102.22, -77.9974
1.04791, -1, 17.9405, 21.3477, 16.2112, 12.8297, 102.117, -78.2582
1.05557, -1, 17.7486, 21.2494, 16.2501, 12.8322, 102.014, -78.5189
1.06356, -1, 17.5564, 21.1512, 16.2889, 12.8347, 101.911, -78.7794
1.07216, -1, 17.3638, 21.0529, 16.3278, 12.8372, 101.808, -79.0398
1.07945, -1, 17.1707, 20.9546, 16.3665, 12.8395, 101.705, -79.3004
1.08771, -1, 16.9776, 20.8564, 16.4053, 12.8418, 101.602, -79.5611
1.09632, -1, 16.7845, 20.7583, 16.4441, 12.8442, 101.5, -79.8215
1.10363, -1, 16.5914, 20.6601, 16.4828, 12.8465, 101.397, -80.082
1.11168, -1, 16.3984, 20.5618, 16.5215, 12.8489, 101.294, -80.3425
1.12048, -1, 16.2058, 20.4635, 16.5602, 12.8511, 101.192, -80.6031
1.1277, -1, 16.0138, 20.3652, 16.599, 12.8534, 101.089, -80.8634
1.13596, -1, 15.822, 20.2667, 16.6378, 12.8557, 100.986, -81.1235
1.14468, -1, 15.6305, 20.1682, 16.6764, 12.858, 100.884, -81.3836
1.15192, -1, 15.4394, 20.0698, 16.7151, 12.8604, 100.781, -81.6438
1.16004, -1, 15.2482, 19.9716, 16.7539, 12.8627, 100.678, -81.9039
1.16886, -1, 15.0571, 19.8733, 16.7927, 12.8648, 100.576, -82.1636
1.17602, -1, 14.8658, 19.7753, 16.8314, 12.8671, 100.473, -82.4234
1.18428, -1, 14.6744, 19.6772, 16.8702, 12.8694, 100.371, -82.6834
1.19294, -1, 14.5786, 19.6281, 16.9089, 12.8717, 100.268, -82.9433
1.19996, -1, 14.3867, 19.5301, 16.9283, 12.8728, 100.217, -83.0731
1.20802, -1, 14.1945, 19.4321, 16.9671, 12.8751, 100.114, -83.3326
1.21546, -1, 14.002, 19.3341, 17.0059, 12.8773, 100.012, -83.5922
1.22344, -1, 13.8096, 19.2363, 17.0445, 12.8797, 99.9093, -83.8518
1.23151, -1, 13.617, 19.1386, 17.0833, 12.882, 99.8067, -84.1114
1.23944, -1, 13.4246, 19.0407, 17.122, 12.8843, 99.7041, -84.3706
1.24745, -1, 13.2326, 18.9428, 17.1605, 12.8866, 99.6019, -84.6299
1.25556, -1, 13.0412, 18.8449, 17.1992, 12.889, 99.4995, -84.8893
1.26347, -1, 12.8499, 18.7469, 17.2379, 12.8913, 99.397, -85.1487
1.27146, -1, 12.6589, 18.6489, 17.2765, 12.8937, 99.295, -85.4076
1.28123, -1, 12.3732, 18.5023, 17.3345, 12.8973, 99.1414, -85.796
1.28745, -1, 12.2781, 18.4534, 17.3538, 12.8985, 99.0902, -85.9255
1.29553, -1, 12.088, 18.3556, 17.3923, 12.901, 98.9883, -86.1846
1.30344, -1, 11.8977, 18.2581, 17.4309, 12.9034, 98.886, -86.4434
1.31185, -1, 11.7072, 18.1605, 17.4696, 12.9058, 98.7841, -86.7019
1.31943, -1, 11.5163, 18.0629, 17.5081, 12.9083, 98.6823, -86.9605
1.32928, -1, 11.3253, 17.9654, 17.5467, 12.9107, 98.5803, -87.2193
1.33623, -1, 11.1339, 17.8679, 17.5854, 12.9131, 98.4784, -87.4777
1.34343, -1, 10.9424, 17.7705, 17.6239, 12.9156, 98.3766, -87.736
1.35145, -1, 10.7507, 17.6731, 17.6624, 12.9181, 98.2745, -87.9942
1.36032, -1, 10.559, 17.5755, 17.7009, 12.9207, 98.1726, -88.2525
1.36849, -1, 10.3677, 17.478, 17.7393, 12.9233, 98.0708, -88.5109
1.37545, -1, 10.1768, 17.3805, 17.7778, 12.9257, 97.9688, -88.7689
1.38428, -1, 9.98617, 17.2829, 17.8161, 12.9285, 97.867, -89.027
1.39144, -1, 9.79589, 17.1854, 17.8544, 12.9311, 97.765, -89.2851
1.39946, -1, 9.60596, 17.0879, 17.8928, 12.9338, 97.6631, -89.5433
1.40835, -1, 9.41659, 16.9905, 17.9312, 12.9366, 97.5614, -89.8009
1.41545, -1, 9.22735, 16.8932, 17.9696, 12.9393, 97.4594, -90.0586
1.42355, -1, 9.03807, 16.796, 18.008, 12.942, 97.3576, -90.3161
1.43222, -1, 8.84863, 16.6988, 18.0463, 12.9447, 97.256, -90.5737
1.4395, -1, 8.65907, 16.6017, 18.0847, 12.9473, 97.1541, -90.8311
1.44748, -1, 8.46943, 16.5046, 18.1231, 12.95, 97.0525, -91.0882
1.45623, -1, 8.2794, 16.4076, 18.1614, 12.9527, 96.9511, -91.3454
1.46343, -1, 8.08891, 16.3107, 18.1997, 12.9552, 96.8494, -91.6026
1.47145, -1, 7.89828, 16.2139, 18.2381, 12.9579, 96.7479, -91.8597
1.48022, -1, 7.70768, 16.117, 18.2763, 12.9605, 96.6467, -92.1164
1.48744, -1, 7.51707, 16.0201, 18.3147, 12.963, 96.5451, -92.3732
1.49546, -1, 7.32674, 15.9232, 18.3529, 12.9657, 96.4438, -92.6299
1.50423, -1, 7.13676, 15.8262, 18.391, 12.9681, 96.3425, -92.8869
1.51144, -1, 6.94715, 15.7292, 18.4293, 12.9706, 96.241, -93.1433
1.51969, -1, 6.758, 15.6324, 18.4675, 12.9731, 96.14, -93.3997
1.52836, -1, 6.5694, 15.5355, 18.5054, 12.9756, 96.0392, -93.6561
1.53552, -1, 6.38111, 15.4388, 18.5436, 12.9781, 95.9381, -93.9125
1.54382, -1, 6.19308, 15.3421, 18.5818, 12.9806, 95.8372, -94.1687
1.55239, -1, 6.00494, 15.2454, 18.6199, 12.9829, 95.7363, -94.4246
1.55965, -1, 5.81653, 15.1487, 18.6581, 12.9853, 95.6353, -94.6805
1.56801, -1, 5.62816, 15.0521, 18.6962, 12.9876, 95.5344, -94.9365
1.57634, -1, 5.43953, 14.9555, 18.7342, 12.9898, 95.4337, -95.1923
1.58344, -1, 5.25053, 14.859, 18.7724, 12.9921, 95.3328, -95.4477
1.59229, -1, 5.06112, 14.7627, 18.8105, 12.9943, 95.2322, -95.7033
1.60038, -1, 4.87162, 14.6664, 18.8484, 12.9966, 95.1315, -95.9588
1.60748, -1, 4.68222, 14.57, 18.8866, 12.9988, 95.0307, -96.2142
1.61649, -1, 4.4928, 14.4737, 18.9246, 13.0009, 94.9301, -96.4693
1.62494, -1, 4.30367, 14.3773, 18.9626, 13.0032, 94.8293, -96.7242
1.6317, -1, 4.11485, 14.2808, 19.0006, 13.0053, 94.7284, -96.9792
1.64067, -1, 3.92652, 14.1845, 19.0385, 13.0077, 94.6276, -97.2342
1.64783, -1, 3.73879, 14.0883, 19.0765, 13.0098, 94.5267, -97.4892
1.65602, -1, 3.55145, 13.9921, 19.1144, 13.0121, 94.4259, -97.7439
1.66459, -1, 3.36447, 13.8961, 19.1522, 13.0144, 94.3254, -97.9986
1.67197, -1, 3.17755, 13.8, 19.19, 13.0167, 94.2247, -98.2534
1.68004, -1, 2.99063, 13.704, 19.228, 13.0189, 94.124, -98.5081
1.68805, -1, 2.80371, 13.608, 19.2659, 13.0212, 94.0236, -98.7623
1.69603, -1, 2.71016, 13.56, 19.2849, 13.0235, 93.923, -99.0164
1.70445, -1, 2.42922, 13.4161, 19.3416, 13.0258, 93.8226, -99.2705
1.71144, -1, 2.33546, 13.3681, 19.3605, 13.0269, 93.7725, -99.3976
1.71943, -1, 2.14755, 13.2724, 19.3983, 13.0291, 93.6721, -99.6516
1.72848, -1, 1.86526, 13.1287, 19.4551, 13.0325, 93.5218, -100.032
1.73542, -1, 1.77118, 13.0808, 19.4739, 13.0337, 93.4719, -100.159
1.74342, -1, 1.58284, 12.985, 19.5116, 13.0358, 93.3718, -100.413
1.75147, -1, 1.39464, 12.8891, 19.5495, 13.0382, 93.2718, -100.666
1.75953, -1, 1.20681, 12.7933, 19.5872, 13.0405, 93.1721, -100.919
1.76743, -1, 1.01939, 12.6976, 19.6249, 13.0429, 93.0718, -101.172
1.77547, -1, 0.832681, 12.6021, 19.6627, 13.0452, 92.9719, -101.425
1.78502, -1, 0.553292, 12.4587, 19.719, 13.0489, 92.8222, -101.805
1.79142, -1, 0.460397, 12.411, 19.7378, 13.0501, 92.7723, -101.931
1.80097, -1, 0.182075, 12.268, 19.7943, 13.0538, 92.6229, -102.31
1.80744, -1, 0.0894333, 12.2203, 19.8131, 13.055, 92.5732, -102.437
1.81542, -1, -0.0959826, 12.125, 19.8507, 13.0575, 92.4735, -102.689
1.82498, -1, -0.281649, 12.0298, 19.8883, 13.0599, 92.3243, -103.068
1.83143, -1, -0.467539, 11.9346, 19.9259, 13.0623, 92.2747, -103.194
1.84043, -1, -0.653762, 11.8396, 19.9634, 13.0648, 92.1751, -103.446
1.84743, -1, -0.840177, 11.7446, 20.001, 13.0673, 92.0756, -103.698
1.85543, -1, -1.02683, 11.6496, 20.0385, 13.0699, 91.9764, -103.95
1.86348, -1, -1.21371, 11.5545, 20.0759, 13.0724, 91.8769, -104.202
1.87142, -1, -1.40069, 11.4595, 20.1135, 13.0749, 91.7776, -104.454
1.87942, -1, -1.58748, 11.3644, 20.1508, 13.0775, 91.6786, -104.705
1.8875, -1, -1.77389, 11.2693, 20.1882, 13.0801, 91.5793, -104.957
1.89542, -1, -1.95991, 11.1743, 20.2257, 13.0828, 91.4802, -105.208
1.90342, -1, -2.14539, 11.0793, 20.2631, 13.0854, 91.3811, -105.459
1.91149, -1, -2.33035, 10.9844, 20.3004, 13.088, 91.2819, -105.71
1.91944, -1, -2.51502, 10.8897, 20.3378, 13.0907, 91.1827, -105.961
1.92751, -1, -2.69908, 10.7949, 20.375, 13.0934, 91.0837, -106.212
1.93548, -1, -2.8829, 10.7002, 20.4123, 13.096, 90.9845, -106.463
1.94342, -1, -3.06691, 10.6055, 20.4497, 13.0986, 90.8856, -106.713
1.95146, -1, -3.25107, 10.5108, 20.4869, 13.1012, 90.7867, -106.964
1.95949, -1, -3.43561, 10.4163, 20.5242, 13.1037, 90.6878, -107.215
1.96743, -1, -3.62028, 10.3219, 20.5614, 13.1062, 90.5891, -107.465
1.97543, -1, -3.80517, 10.2276, 20.5987, 13.1087, 90.4902, -107.715
1.98348, -1, -3.99035, 10.1333, 20.6359, 13.1111, 90.3915, -107.965
1.99141, -1, -4.17573, 10.039, 20.6731, 13.1136, 90.2929, -108.215
1.99951, -1, -4.36138, 9.94476, 20.7102, 13.1159, 90.1942, -108.465
2.00743, -1, -4.54688, 9.85042, 20.7474, 13.1182, 90.0955, -108.714
2.01549, -1, -4.73206, 9.75619, 20.7846, 13.1205, 89.9971, -108.964
2.02362, -1, -4.91687, 9.66203, 20.8217, 13.1229, 89.8986, -109.213
2.03147, -1, -5.10101, 9.56799, 20.8587, 13.1253, 89.8002, -109.463
2.03958, -1, -5.2845, 9.47391, 20.8959, 13.1276, 89.702, -109.712
2.04777, -1, -5.46769, 9.37996, 20.9329, 13.1299, 89.6035, -109.96
2.05553, -1, -5.65042, 9.28604, 20.97, 13.1322, 89.5051, -110.209
2.06366, -1, -5.83279, 9.19212, 21.0071, 13.1346, 89.4072, -110.458
2.07196, -1, -6.01514, 9.09825, 21.044, 13.1368, 89.3089, -110.707
2.08042, -1, -6.19765, 9.00444, 21.081, 13.139, 89.2107, -110.955
2.08756, -1, -6.38047, 8.91077, 21.1181, 13.1412, 89.113, -111.204
2.09626, -1, -6.5635, 8.81714, 21.1549, 13.1433, 89.0149, -111.452
2.10377, -1, -6.74684, 8.72353, 21.1917, 13.1455, 88.917, -111.7
2.1116, -1, -6.93063, 8.62998, 21.2287, 13.1476, 88.8193, -111.948
2.12044, -1, -7.11461, 8.53643, 21.2655, 13.1497, 88.7213, -112.196
2.12767, -1, -7.2988, 8.44288, 21.3024, 13.1518, 88.6234, -112.444
2.13577, -1, -7.48273, 8.34925, 21.3393, 13.1539, 88.5257, -112.691
2.14466, -1, -7.66648, 8.25574, 21.376, 13.1561, 88.428, -112.939
2.15198, -1, -7.84979, 8.16232, 21.4128, 13.1583, 88.3305, -113.186
2.1605, -1, -8.03261, 8.06891, 21.4497, 13.1605, 88.2332, -113.433
2.16886, -1, -8.21489, 7.97561, 21.4864, 13.1628, 88.1358, -113.68
2.17601, -1, -8.39652, 7.88236, 21.5231, 13.165, 88.0384, -113.928
2.18405, -1, -8.57772, 7.78915, 21.56, 13.1672, 87.9412, -114.174
2.19279, -1, -8.66819, 7.69601, 21.5968, 13.1696, 87.8438, -114.421
2.20028, -1, -8.84894, 7.64942, 21.6151, 13.1718, 87.7462, -114.667
2.20802, -1, -9.02975, 7.55633, 21.6519, 13.1729, 87.6491, -114.913
2.2154, -1, -9.21084, 7.46333, 21.6886, 13.1751, 87.6004, -115.037
2.2234, -1, -9.39211, 7.37052, 21.7253, 13.1774, 87.5031, -115.283
2.23146, -1, -9.57375, 7.27768, 21.762, 13.1795, 87.406, -115.529
2.23941, -1, -9.75558, 7.18491, 21.7986, 13.1819, 87.309, -115.775
2.24742, -1, -9.93795, 7.09221, 21.8351, 13.184, 87.2117, -116.022
2.25541, -1, -10.1205, 6.99948, 21.8717, 13.1862, 87.1145, -116.268
2.2635, -1, -10.3031, 6.90674, 21.9083, 13.1885, 87.0175, -116.513
2.2728, -1, -10.5768, 6.76761, 21.9632, 13.1918, 86.8717, -116.881
2.27941, -1, -10.6678, 6.72127, 21.9815, 13.193, 86.8232, -117.004
2.28743, -1, -10.8497, 6.62869, 22.0179, 13.1954, 86.7264, -117.249
2.29547, -1, -11.031, 6.53605, 22.0543, 13.1979, 86.6294, -117.495
2.30341, -1, -11.2115, 6.44354, 22.0909, 13.2002, 86.5327, -117.739
2.3138, -1, -11.4812, 6.30485, 22.1456, 13.2039, 86.3878, -118.107
2.31946, -1, -11.571, 6.25866, 22.1637, 13.2051, 86.3395, -118.229
2.32905, -1, -11.7504, 6.16625, 22.2185, 13.2089, 86.1947, -118.596
2.33541, -1, -11.9297, 6.07397, 22.2367, 13.2101, 86.1464, -118.718
2.34441, -1, -12.109, 5.98174, 22.2731, 13.2126, 86.0497, -118.963
2.35152, -1, -12.2885, 5.88966, 22.3095, 13.215, 85.9533, -119.207
2.36042, -1, -12.4683, 5.79764, 22.3459, 13.2175, 85.857, -119.451
2.36754, -1, -12.6485, 5.7056, 22.3821, 13.22, 85.7605, -119.695
2.37541, -1, -12.8291, 5.61367, 22.4184, 13.2225, 85.6643, -119.939
2.3834, -1, -13.0101, 5.52177, 22.4547, 13.225, 85.5685, -120.182
2.39141, -1, -13.1913, 5.42978, 22.4909, 13.2273, 85.4725, -120.426
2.40037, -1, -13.3725, 5.33778, 22.5271, 13.2297, 85.3765, -120.67
2.40846, -1, -13.5533, 5.24585, 22.5634, 13.2322, 85.281, -120.913
2.41643, -1, -13.7338, 5.15401, 22.5995, 13.2348, 85.1851, -121.156
2.42418, -1, -13.9139, 5.06214, 22.6356, 13.2374, 85.0892, -121.399
2.43147, -1, -14.093, 4.97037, 22.6719, 13.24, 84.9939, -121.642
2.4394, -1, -14.2714, 4.87867, 22.7079, 13.2425, 84.898, -121.885
2.44819, -1, -14.4496, 4.78705, 22.744, 13.245, 84.8024, -122.127
2.45543, -1, -14.6273, 4.69541, 22.7803, 13.2476, 84.707, -122.37
2.46339, -1, -14.805, 4.6039, 22.8164, 13.2501, 84.6111, -122.612
2.47219, -1, -14.9825, 4.51247, 22.8525, 13.2525, 84.5154, -122.855
2.47938, -1, -15.1604, 4.42115, 22.8888, 13.255, 84.4199, -123.097
2.4874, -1, -15.3386, 4.32986, 22.9249, 13.2573, 84.3242, -123.339
2.49621, -1, -15.5172, 4.23856, 22.9609, 13.2596, 84.2285, -123.58
2.5034, -1, -15.6962, 4.14732, 22.997, 13.2619, 84.1331, -123.822
2.51141, -1, -15.8755, 4.05613, 23.0329, 13.2642, 84.0375, -124.064
2.52027, -1, -16.0548, 3.96488, 23.0689, 13.2664, 83.9419, -124.305
2.52742, -1, -16.2346, 3.87362, 23.105, 13.2685, 83.8467, -124.547
2.53546, -1, -16.4142, 3.78248, 23.1409, 13.2706, 83.751, -124.788
2.5451, -1, -16.5934, 3.6913, 23.1766, 13.2728, 83.6556, -125.03
2.5524, -1, -16.7722, 3.60019, 23.2125, 13.2751, 83.5605, -125.271
2.55957, -1, -16.9504, 3.50918, 23.2484, 13.2773, 83.4649, -125.512
2.56786, -1, -17.1275, 3.41822, 23.2842, 13.2794, 83.3697, -125.753
2.57551, -1, -17.3042, 3.32734, 23.3201, 13.2817, 83.2747, -125.993
2.58358, -1, -17.4806, 3.23651, 23.3559, 13.2838, 83.1794, -126.234
2.59203, -1, -17.6567, 3.1458, 23.3916, 13.286, 83.0844, -126.474
2.59949, -1, -17.8327, 3.05523, 23.4276, 13.2881, 82.9897, -126.714
2.60751, -1, -18.0089, 2.96466, 23.4634, 13.2902, 82.8948, -126.955
2.61708, -1, -18.1853, 2.8743, 23.4991, 13.2923, 82.8, -127.195
2.6244, -1, -18.3619, 2.7839, 23.5349, 13.2944, 82.7056, -127.435
2.6317, -1, -18.5391, 2.69349, 23.5706, 13.2964, 82.6107, -127.674
2.64131, -1, -18.7166, 2.60313, 23.6063, 13.2985, 82.5161, -127.914
2.64774, -1, -18.8944, 2.51276, 23.6421, 13.3006, 82.4217, -128.154
2.65588, -1, -19.0726, 2.42225, 23.6777, 13.3025, 82.3272, -128.393
2.66548, -1, -19.2509, 2.33185, 23.7133, 13.3045, 82.2328, -128.632
2.67199, -1, -19.4289, 2.24147, 23.749, 13.3066, 82.1387, -128.871
2.68056, -1, -19.6063, 2.15106, 23.7845, 13.3087, 82.0446, -129.11
2.68951, -1, -19.7832, 2.06073, 23.8199, 13.3109, 81.9504, -129.349
2.69601, -1, -19.9594, 1.97046, 23.8555, 13.3131, 81.8562, -129.589
2.70399, -1, -20.0472, 1.92534, 23.8733, 13.3141, 81.8094, -129.827
2.7114, -1, -20.2224, 1.83513, 23.9088, 13.3164, 81.7152, -129.946
2.71943, -1, -20.3973, 1.74503, 23.9443, 13.3186, 81.6211, -130.185
2.72739, -1, -20.5719, 1.65498, 23.98, 13.3208, 81.5273, -130.423
2.73539, -1, -20.7463, 1.56502, 24.0155, 13.3229, 81.4332, -130.661
2.74343, -1, -20.9209, 1.47517, 24.0509, 13.3251, 81.3395, -130.899
2.7514, -1, -21.0959, 1.38546, 24.0865, 13.3273, 81.2458, -131.137
2.75938, -1, -21.2712, 1.29569, 24.1221, 13.3295, 81.152, -131.375
2.76751, -1, -21.4469, 1.20598, 24.1574, 13.3317, 81.0581, -131.613
2.77538, -1, -21.6229, 1.11639, 24.1929, 13.3338, 80.9644, -131.85
2.78339, -1, -21.7991, 1.02677, 24.2284, 13.336, 80.8705, -132.088
2.79348, -1, -22.0637, 0.892343, 24.2815, 13.3393, 80.7298, -132.444
2.79938, -1, -22.1521, 0.847584, 24.2992, 13.3403, 80.6831, -132.562
2.80898, -1, -22.4167, 0.713307, 24.3523, 13.3436, 80.5426, -132.918
2.817, -1, -22.5926, 0.623801, 24.3875, 13.346, 80.4489, -133.155
2.825, -1, -22.6804, 0.579054, 24.4228, 13.3484, 80.3555, -133.392
2.83146, -1, -22.8554, 0.489657, 24.4405, 13.3496, 80.3086, -133.51
2.84095, -1, -23.0293, 0.400269, 24.4756, 13.352, 80.2151, -133.747
2.84738, -1, -23.203, 0.310932, 24.5107, 13.3545, 80.1216, -133.984
2.85545, -1, -23.3763, 0.221605, 24.546, 13.3569, 80.0282, -134.22
2.86338, -1, -23.5493, 0.132431, 24.5812, 13.3594, 79.9348, -134.457
2.87139, -1, -23.7225, 0.0432978, 24.6164, 13.3617, 79.8415, -134.693
2.87946, -1, -23.8959, -0.0457424, 24.6516, 13.3641, 79.7485, -134.929
2.88738, -1, -24.0694, -0.134671, 24.6867, 13.3666, 79.6551, -135.165
2.89538, -1, -24.2432, -0.22363, 24.7218, 13.3691, 79.562, -135.401
2.90345, -1, -24.4173, -0.312579, 24.7569, 13.3715, 79.4691, -135.636
2.91138, -1, -24.5917, -0.401404, 24.792, 13.3739, 79.3759, -135.872
2.91937, -1, -24.7665, -0.490317, 24.827, 13.3763, 79.2829, -136.107
2.92747, -1, -24.9416, -0.579202, 24.8621, 13.3786, 79.1901, -136.343
2.93544, -1, -25.1167, -0.66801, 24.8972, 13.381, 79.097, -136.578
2.94338, -1, -25.2914, -0.756774, 24.9322, 13.3834, 79.0041, -136.813
2.95146, -1, -25.4657, -0.845567, 24.9672, 13.3858, 78.9116, -137.048
2.95941, -1, -25.6397, -0.934344, 25.0023, 13.3883, 78.8186, -137.283
2.96741, -1, -25.813, -1.02301, 25.037, 13.3906, 78.7259, -137.518
2.97546, -1, -25.9856, -1.11173, 25.072, 13.3931, 78.6336, -137.752
2.98338, -1, -26.1579, -1.20037, 25.1071, 13.3956, 78.541, -137.987
2.99137, -1, -26.3297, -1.28892, 25.1418, 13.3979, 78.4485, -138.221
2.99946, -1, -26.5014, -1.37736, 25.1767, 13.4002, 78.356, -138.456
3.00739, -1, -26.6733, -1.46571, 25.2117, 13.4024, 78.2636, -138.69
3.01544, -1, -26.8455, -1.554, 25.2466, 13.4047, 78.1711, -138.924
3.0237, -1, -27.0178, -1.64213, 25.2814, 13.4069, 78.0787, -139.158
3.03142, -1, -27.1903, -1.73034, 25.3163, 13.4091, 77.9867, -139.392
3.03952, -1, -27.363, -1.81853, 25.3512, 13.4112, 77.8943, -139.626
3.04778, -1, -27.5361, -1.90656, 25.3859, 13.4134, 77.8023, -139.859
3.05548, -1, -27.7094, -1.99474, 25.4208, 13.4155, 77.7105, -140.093
3.06357, -1, -27.8827, -2.08286, 25.4556, 13.4176, 77.6183, -140.326
3.07204, -1, -28.056, -2.17085, 25.4903, 13.4196, 77.5264, -140.56
3.07944, -1, -28.2292, -2.2589, 25.525, 13.4216, 77.4345, -140.793
3.08762, -1, -28.4022, -2.34693, 25.5599, 13.4237, 77.3423, -141.026
3.09621, -1, -28.5748, -2.43493, 25.5945, 13.4257, 77.2502, -141.259
3.10348, -1, -28.7469, -2.52288, 25.6292, 13.4278, 77.1583, -141.492
3.11148, -1, -28.9183, -2.61087, 25.6639, 13.43, 77.0661, -141.724
3.12053, -1, -29.0891, -2.69878, 25.6984, 13.4322, 76.9742, -141.957
3.12775, -1, -29.2595, -2.78656, 25.733, 13.4343, 76.8825, -142.19
3.13562, -1, -29.4301, -2.87431, 25.7677, 13.4364, 76.7905, -142.422
3.1445, -1, -29.6009, -2.96192, 25.8022, 13.4384, 76.6987, -142.654
3.15192, -1, -29.7719, -3.04944, 25.8367, 13.4404, 76.607, -142.887
3.1605, -1, -29.9429, -3.13697, 25.8713, 13.4426, 76.5152, -143.119
3.16826, -1, -30.1139, -3.22443, 25.9059, 13.4446, 76.4235, -143.351
3.17602, -1, -30.2849, -3.31193, 25.9403, 13.4467, 76.3318, -143.583
3.18394, -1, -30.4562, -3.39932, 25.9749, 13.4488, 76.2403, -143.815
3.192, -1, -30.628, -3.48682, 26.0095, 13.4507, 76.1487, -144.047
3.20056, -1, -30.7998, -3.57425, 26.0439, 13.4528, 76.0572, -144.278
3.20802, -1, -30.8857, -3.61791, 26.0611, 13.4548, 75.966, -144.509
3.21622, -1, -31.0575, -3.70526, 26.0957, 13.4558, 75.9202, -144.741
3.22338, -1, -31.2292, -3.79259, 26.1301, 13.4578, 75.8289, -144.857
3.23137, -1, -31.4007, -3.87989, 26.1645, 13.4599, 75.7377, -145.088
3.23942, -1, -31.5715, -3.96717, 26.199, 13.462, 75.6464, -145.319
3.24743, -1, -31.7419, -4.05437, 26.2334, 13.4642, 75.5552, -145.55
3.25537, -1, -31.9119, -4.14162, 26.2677, 13.4664, 75.464, -145.781
3.26489, -1, -32.1662, -4.27234, 26.3194, 13.4698, 75.3273, -146.127
3.27144, -1, -32.2509, -4.31588, 26.3366, 13.4709, 75.2817, -146.243
3.27939, -1, -32.4203, -4.4029, 26.3708, 13.473, 75.1906, -146.473
3.2889, -1, -32.6749, -4.53331, 26.4224, 13.4762, 75.0545, -146.819
3.29693, -1, -32.8445, -4.62021, 26.4567, 13.4783, 74.9637, -147.049
3.30342, -1, -32.9294, -4.66367, 26.4738, 13.4794, 74.9182, -147.164
3.31328, -1, -33.1839, -4.79396, 26.5252, 13.4827, 74.7825, -147.51
3.31939, -1, -33.2688, -4.83734, 26.5423, 13.4839, 74.737, -147.625
3.32897, -1, -33.4389, -4.92422, 26.5766, 13.4872, 74.601, -147.969
3.33714, -1, -33.6093, -5.01116, 26.6108, 13.4894, 74.5107, -148.199
3.34377, -1, -33.7795, -5.09791, 26.6451, 13.4905, 74.4653, -148.314
3.35136, -1, -33.9498, -5.18467, 26.6793, 13.4927, 74.3747, -148.544
3.35938, -1, -34.1201, -5.2714, 26.7134, 13.495, 74.2841, -148.773
3.36817, -1, -34.2903, -5.35811, 26.7476, 13.4972, 74.1937, -149.003
3.37536, -1, -34.4602, -5.44473, 26.7818, 13.4995, 74.103, -149.232
3.38336, -1, -34.6297, -5.5314, 26.8159, 13.5019, 74.0125, -149.462
3.39149, -1, -34.7985, -5.61803, 26.85, 13.5043, 73.9221, -149.691
3.3994, -1, -34.967, -5.70461, 26.8842, 13.5067, 73.8315, -149.92
3.40742, -1, -35.1354, -5.79112, 26.9183, 13.5092, 73.741, -150.149
3.41654, -1, -35.3037, -5.87757, 26.9524, 13.5116, 73.6508, -150.378
3.42336, -1, -35.4722, -5.96381, 26.9866, 13.514, 73.5602, -150.607
3.43143, -1, -35.6407, -6.05002, 27.0206, 13.5163, 73.4698, -150.836
3.43943, -1, -35.8092, -6.13624, 27.0545, 13.5187, 73.3798, -151.064
3.44741, -1, -35.9777, -6.22236, 27.0886, 13.5211, 73.2893, -151.293
3.45544, -1, -36.1462, -6.30846, 27.1227, 13.5235, 73.1989, -151.521
3.46341, -1, -36.3148, -6.39462, 27.1565, 13.5259, 73.1086, -151.75
3.47136, -1, -36.4837, -6.48085, 27.1905, 13.5282, 73.0183, -151.978
3.47942, -1, -36.6525, -6.56704, 27.2245, 13.5305, 72.928, -152.206
3.48743, -1, -36.8214, -6.6532, 27.2584, 13.5328, 72.8378, -152.434
3.49537, -1, -36.9904, -6.73935, 27.2923, 13.5351, 72.7478, -152.662
3.50343, -1, -37.1593, -6.82553, 27.3262, 13.5373, 72.6576, -152.891
3.5114, -1, -37.328, -6.91162, 27.36, 13.5395, 72.5676, -153.118
3.51936, -1, -37.4963, -6.99761, 27.3939, 13.5418, 72.4779, -153.346
3.52749, -1, -37.6642, -7.08363, 27.4279, 13.5441, 72.3878, -153.573
3.5354, -1, -37.8319, -7.16966, 27.4617, 13.5463, 72.2981, -153.801
3.54344, -1, -37.9994, -7.25559, 27.4955, 13.5484, 72.2085, -154.029
3.55154, -1, -38.1669, -7.34148, 27.5295, 13.5507, 72.1186, -154.256
3.55973, -1, -38.3343, -7.42731, 27.5633, 13.5529, 72.0289, -154.483
3.56752, -1, -38.5016, -7.51298, 27.5971, 13.555, 71.9394, -154.71
3.57554, -1, -38.6687, -7.59869, 27.631, 13.557, 71.8496, -154.937
3.58336, -1, -38.8361, -7.68438, 27.6649, 13.559, 71.76, -155.165
3.59138, -1, -39.0034, -7.77004, 27.6986, 13.5611, 71.6707, -155.391
3.59946, -1, -39.1708, -7.85562, 27.7324, 13.5632, 71.5815, -155.618
3.60752, -1, -39.3383, -7.94133, 27.7663, 13.5652, 71.492, -155.845
3.61541, -1, -39.5059, -8.02697, 27.8, 13.5671, 71.4026, -156.072
3.62374, -1, -39.6736, -8.11253, 27.8335, 13.569, 71.3136, -156.298
3.63163, -1, -39.8412, -8.19803, 27.8673, 13.571, 71.224, -156.525
3.63962, -1, -40.0088, -8.28352, 27.901, 13.5729, 71.1347, -156.751
3.64783, -1, -40.1764, -8.36889, 27.9346, 13.5749, 71.0455, -156.977
3.65575, -1, -40.3437, -8.45426, 27.9683, 13.5769, 70.956, -157.204
3.66387, -1, -40.5107, -8.53967, 28.0021, 13.5788, 70.8667, -157.43
3.67246, -1, -40.6776, -8.62503, 28.0356, 13.5808, 70.7776, -157.656
3.67988, -1, -40.8444, -8.7104, 28.0692, 13.5828, 70.6884, -157.882
3.68792, -1, -41.0108, -8.7957, 28.1029, 13.5848, 70.5993, -158.107
3.69649, -1, -41.1772, -8.881, 28.1365, 13.5869, 70.5102, -158.333
3.70401, -1, -41.2603, -8.9236, 28.1532, 13.5889, 70.4212, -158.559
3.71194, -1, -41.4265, -9.00873, 28.1868, 13.5899, 70.3766, -158.785
3.71996, -1, -41.5928, -9.09389, 28.2205, 13.5919, 70.2873, -158.897
3.72735, -1, -41.7591, -9.17894, 28.254, 13.5939, 70.1982, -159.123
3.73535, -1, -41.9255, -9.26395, 28.2876, 13.5958, 70.1091, -159.349
3.74339, -1, -42.0919, -9.34899, 28.3213, 13.5979, 70.02, -159.574
3.75136, -1, -42.2582, -9.43406, 28.3549, 13.5999, 69.931, -159.799
3.75936, -1, -42.4244, -9.51907, 28.3883, 13.6018, 69.8423, -160.025
3.76882, -1, -42.6741, -9.64648, 28.4387, 13.6049, 69.7089, -160.362
3.77541, -1, -42.7572, -9.68895, 28.4554, 13.6059, 69.6644, -160.475
3.7834, -1, -42.9236, -9.77393, 28.4888, 13.608, 69.5759, -160.7
3.79293, -1, -43.173, -9.90127, 28.5391, 13.611, 69.4426, -161.037
3.8009, -1, -43.3391, -9.9862, 28.5726, 13.6131, 69.3539, -161.262
3.80892, -1, -43.5052, -10.0711, 28.6061, 13.6152, 69.2655, -161.487
3.81695, -1, -43.6712, -10.1561, 28.6396, 13.6173, 69.1766, -161.712
3.82335, -1, -43.7542, -10.1985, 28.6563, 13.6183, 69.1324, -161.824
3.83142, -1, -43.9201, -10.2833, 28.6897, 13.6205, 69.0439, -162.049
3.84096, -1, -44.0857, -10.3681, 28.7231, 13.6226, 68.9111, -162.385
3.84735, -1, -44.2509, -10.4528, 28.7567, 13.6248, 68.8668, -162.497
3.85635, -1, -44.4161, -10.5373, 28.7901, 13.6271, 68.7782, -162.722
3.8644, -1, -44.5813, -10.6218, 28.8234, 13.6293, 68.6898, -162.946
3.87136, -1, -44.7465, -10.7063, 28.8568, 13.6314, 68.6011, -163.17
3.87942, -1, -44.9118, -10.7907, 28.8904, 13.6336, 68.5125, -163.394
3.88736, -1, -45.0772, -10.8752, 28.9237, 13.6358, 68.4242, -163.618
3.89535, -1, -45.2424, -10.9597, 28.9572, 13.638, 68.3356, -163.842
3.9034, -1, -45.4077, -11.0442, 28.9906, 13.6403, 68.2472, -164.066
3.91134, -1, -45.573, -11.1286, 29.0238, 13.6425, 68.159, -164.29
3.91934, -1, -45.7383, -11.213, 29.0571, 13.6448, 68.0707, -164.513
3.92742, -1, -45.9033, -11.2973, 29.0905, 13.6471, 67.9823, -164.737
3.93534, -1, -46.0664, -11.3806, 29.1239, 13.6493, 67.894, -164.96
3.9434, -1, -46.2259, -11.4617, 29.1574, 13.6517, 67.8064, -165.183
3.95141, -1, -46.38, -11.539, 29.191, 13.6541, 67.7197, -165.402
3.95935, -1, -46.5262, -11.6117, 29.2241, 13.6564, 67.636, -165.613
3.96739, -1, -46.6621, -11.6786, 29.2554, 13.6587, 67.5577, -165.812
3.97541, -1, -46.785, -11.7384, 29.2837, 13.6607, 67.4862, -165.992
3.9834, -1, -46.8922, -11.7911, 29.3082, 13.6626, 67.4245, -166.148
3.99134, -1, -46.9831, -11.8371, 29.3278, 13.664, 67.3739, -166.277
3.99941, -1, -47.0581, -11.8772, 29.3416, 13.665, 67.3346, -166.376
4.00735, -1, -47.118, -11.9105, 29.3508, 13.6656, 67.3061, -166.447
4.01535, -1, -47.1636, -11.9364, 29.3563, 13.6659, 67.287, -166.495
4.02341, -1, -47.1968, -11.9552, 29.3591, 13.6661, 67.2753, -166.525
4.03134, -1, -47.2198, -11.9679, 29.3603, 13.6661, 67.2687, -166.542
4.03938, -1, -47.2342, -11.9757, 29.3609, 13.6662, 67.2654, -166.55
4.04774, -1, -47.2423, -11.9799, 29.3611, 13.6663, 67.2638, -166.554
4.05544, 2, -47.2461, -11.9819, 29.3613, 13.6663, 67.2629, -166.556
4.06344, 2, -47.2469, -11.9828, 29.3615, 13.6663, 67.2626, -166.557
4.07152, 2, -47.2466, -11.9831, 29.3615, 13.6664, 67.2624, -166.557
4.07948, 2, -47.2464, -11.9832, 29.3616, 13.6664, 67.2623, -166.557
4.08742, 2, -47.2465, -11.9832, 29.3616, 13.6664, 67.2622, -166.558
4.09548, 2, -47.2472, -11.9834, 29.3617, 13.6664, 67.2622, -166.558
4.10337, 2, -47.2482, -11.9837, 29.3617, 13.6664, 67.2622, -166.558
4.11143, 2, -47.2499, -11.9844, 29.3617, 13.6664, 67.2622, -166.558
4.11947, 2, -47.2517, -11.9852, 29.3617, 13.6664, 67.2622, -166.558
4.12747, 2, -47.2533, -11.9861, 29.3617, 13.6664, 67.2622, -166.558
4.1361, 2, -47.2546, -11.9868, 29.3617, 13.6664, 67.2622, -166.558
4.14369, 2, -47.2553, -11.9874, 29.3617, 13.6664, 67.2622, -166.558
4.15166, 2, -47.2556, -11.9877, 29.3617, 13.6664, 67.2622, -166.558
4.16009, 2, -47.2557, -11.9878, 29.3617, 13.6664, 67.2622, -166.558
4.16847, 2, -47.2557, -11.9878, 29.3617, 13.6664, 67.2622, -166.558
4.17586, 2, -47.2552, -11.9878, 29.3617, 13.6664, 67.2622, -166.558
4.18445, 2, -47.2546, -11.9878, 29.3617, 13.6664, 67.2622, -166.558
4.19195, 2, -47.2541, -11.9877, 29.3617, 13.6664, 67.2622, -166.558
4.20052, 2, -47.2538, -11.9877, 29.3617, 13.6665, 67.2622, -166.558
4.20823, 2, -47.2537, -11.9878, 29.3617, 13.6665, 67.2622, -166.558
4.21599, 2, -47.2537, -11.9878, 29.3617, 13.6664, 67.2622, -166.558
4.22333, 2, -47.2538, -11.988, 29.3617, 13.6664, 67.2622, -166.558
4.23257, 2, -47.2542, -11.9884, 29.3617, 13.6664, 67.2623, -166.558
4.23938, 2, -47.2545, -11.9886, 29.3617, 13.6665, 67.2623, -166.558
4.24734, 2, -47.2551, -11.9889, 29.3617, 13.6664, 67.2623, -166.557
4.25533, 2, -47.2555, -11.9891, 29.3617, 13.6664, 67.2623, -166.557
4.26342, 2, -47.2558, -11.9892, 29.3617, 13.6664, 67.2623, -166.557
4.27133, 2, -47.2558, -11.9892, 29.3617, 13.6664, 67.2623, -166.557
4.28126, 2, -47.2556, -11.9892, 29.3617, 13.6664, 67.2623, -166.557
4.28739, 2, -47.2556, -11.9892, 29.3617, 13.6664, 67.2623, -166.557
4.29533, 2, -47.2552, -11.9891, 29.3617, 13.6664, 67.2623, -166.557
4.3053, 2, -47.2545, -11.9891, 29.3618, 13.6664, 67.2623, -166.557
4.31138, 2, -47.2544, -11.9891, 29.3617, 13.6664, 67.2623, -166.557
4.32112, 2, -47.254, -11.9891, 29.3617, 13.6664, 67.2623, -166.557
4.32734, 2, -47.2539, -11.9891, 29.3617, 13.6664, 67.2623, -166.557
4.33539, 2, -47.2538, -11.9892, 29.3617, 13.6663, 67.2623, -166.557
4.34492, 2, -47.2538, -11.9892, 29.3617, 13.6664, 67.2623, -166.557
4.35326, 2, -47.2538, -11.9893, 29.3617, 13.6664, 67.2623, -166.557
4.35939, 2, -47.2538, -11.9893, 29.3618, 13.6664, 67.2623, -166.557
4.36734, 2, -47.2539, -11.9893, 29.3618, 13.6664, 67.2623, -166.557
4.37634, 2, -47.2539, -11.9893, 29.3617, 13.6664, 67.2623, -166.557
4.38347, 2, -47.2539, -11.9893, 29.3617, 13.6663, 67.2623, -166.557
4.39132, 2, -47.2539, -11.9892, 29.3617, 13.6664, 67.2623, -166.557
4.39934, 2, -47.2538, -11.9892, 29.3617, 13.6664, 67.2623, -166.557
4.4074, 2, -47.2537, -11.9891, 29.3617, 13.6664, 67.2623, -166.557
4.41532, 2, -47.2536, -11.9891, 29.3617, 13.6663, 67.2623, -166.557
4.42333, 2, -47.2534, -11.9891, 29.3617, 13.6663, 67.2623, -166.557
4.43139, 2, -47.2533, -11.9891, 29.3617, 13.6663, 67.2623, -166.557
4.43933, 2, -47.2531, -11.9891, 29.3617, 13.6663, 67.2624, -166.557
4.4474, 2, -47.2531, -11.9891, 29.3617, 13.6663, 67.2624, -166.557
4.45539, 2, -47.253, -11.9891, 29.3617, 13.6663, 67.2624, -166.557
4.46332, 2, -47.253, -11.9891, 29.3617, 13.6664, 67.2624, -166.557
4.47136, 2, -47.2529, -11.9891, 29.3618, 13.6663, 67.2624, -166.557
4.47939, 2, -47.2529, -11.9891, 29.3617, 13.6664, 67.2624, -166.557
4.48733, 2, -47.2528, -11.9891, 29.3617, 13.6663, 67.2624, -166.557
4.49533, 2, -47.2528, -11.989, 29.3617, 13.6663, 67.2624, -166.557
4.50339, 2, -47.2526, -11.989, 29.3617, 13.6664, 67.2624, -166.557
4.51133, 2, -47.2526, -11.9889, 29.3617, 13.6664, 67.2624, -166.557
4.51932, 2, -47.2525, -11.9889, 29.3617, 13.6663, 67.2624, -166.557
4.52741, 2, -47.2524, -11.9889, 29.3617, 13.6663, 67.2624, -166.557
4.53534, 2, -47.2523, -11.9889, 29.3617, 13.6663, 67.2624, -166.557
4.54337, 2, -47.2522, -11.9889, 29.3617, 13.6663, 67.2624, -166.557
4.55147, 2, -47.2521, -11.9889, 29.3617, 13.6663, 67.2624, -166.557
4.55942, 2, -47.252, -11.9889, 29.3617, 13.6663, 67.2624, -166.557
4.56744, 2, -47.252, -11.9889, 29.3617, 13.6663, 67.2625, -166.557
4.57549, 2, -47.2519, -11.9889, 29.3617, 13.6663, 67.2625, -166.557
4.58343, 2, -47.2518, -11.9889, 29.3617, 13.6663, 67.2624, -166.557
4.59133, 2, -47.2517, -11.9889, 29.3617, 13.6663, 67.2624, -166.557
4.59939, 2, -47.2516, -11.9888, 29.3617, 13.6662, 67.2625, -166.557
4.60737, 2, -47.2515, -11.9887, 29.3617, 13.6662, 67.2625, -166.557
4.61542, 2, -47.2514, -11.9887, 29.3617, 13.6662, 67.2625, -166.557
4.62366, 2, -47.2512, -11.9886, 29.3617, 13.6662, 67.2625, -166.557
4.63152, 2, -47.2511, -11.9886, 29.3617, 13.6662, 67.2625, -166.557
4.6396, 2, -47.251, -11.9886, 29.3618, 13.6662, 67.2625, -166.557
4.64775, 2, -47.2509, -11.9886, 29.3618, 13.6663, 67.2625, -166.557
4.65566, 2, -47.2508, -11.9886, 29.3617, 13.6663, 67.2625, -166.557
4.66374, 2, -47.2507, -11.9886, 29.3617, 13.6663, 67.2626, -166.557
4.67191, 2, -47.2506, -11.9886, 29.3617, 13.6663, 67.2626, -166.557
4.68048, 2, -47.2506, -11.9886, 29.3617, 13.6663, 67.2626, -166.557
4.68787, 2, -47.2505, -11.9886, 29.3617, 13.6663, 67.2626, -166.557
4.69643, 2, -47.2504, -11.9885, 29.3617, 13.6663, 67.2626, -166.557
4.70388, 2, -47.2503, -11.9885, 29.3617, 13.6663, 67.2626, -166.557
4.71245, 2, -47.2502, -11.9884, 29.3617, 13.6662, 67.2626, -166.557
4.72011, 2, -47.2502, -11.9884, 29.3617, 13.6662, 67.2626, -166.557
4.72732, 2, -47.2501, -11.9883, 29.3617, 13.6662, 67.2626, -166.557
4.73531, 2, -47.25, -11.9883, 29.3617, 13.6662, 67.2627, -166.557
4.74446, 2, -47.2499, -11.9883, 29.3617, 13.6662, 67.2627, -166.557
4.75131, 2, -47.2498, -11.9883, 29.3617, 13.6662, 67.2627, -166.557
4.75931, 2, -47.2498, -11.9883, 29.3617, 13.6662, 67.2627, -166.557
4.76869, 2, -47.2497, -11.9883, 29.3617, 13.6661, 67.2627, -166.557
4.77531, 2, -47.2497, -11.9883, 29.3617, 13.6661, 67.2627, -166.556
4.7847, 2, -47.2497, -11.9883, 29.3617, 13.6661, 67.2627, -166.556
4.79143, 2, -47.2497, -11.9883, 29.3617, 13.6661, 67.2627, -166.556
4.79931, 2, -47.2496, -11.9882, 29.3617, 13.6661, 67.2627, -166.556
4.8089, 2, -47.2496, -11.9881, 29.3617, 13.6661, 67.2627, -166.556
4.81698, 2, -47.2495, -11.9881, 29.3617, 13.6661, 67.2627, -166.556
4.82487, 2, -47.2495, -11.988, 29.3617, 13.6661, 67.2628, -166.556
4.83137, 2, -47.2495, -11.988, 29.3617, 13.6661, 67.2628, -166.556
4.84102, 2, -47.2494, -11.988, 29.3617, 13.6661, 67.2628, -166.556
4.84731, 2, -47.2493, -11.988, 29.3617, 13.6661, 67.2628, -166.556
4.85632, 2, -47.2492, -11.9879, 29.3617, 13.666, 67.2628, -166.556
4.86437, 2, -47.2491, -11.9879, 29.3617, 13.666, 67.2628, -166.556
4.87131, 2, -47.2491, -11.9879, 29.3617, 13.666, 67.2629, -166.556
4.87937, 2, -47.249, -11.9879, 29.3617, 13.666, 67.2629, -166.556
4.88732, 2, -47.249, -11.9879, 29.3617, 13.666, 67.2629, -166.556
4.8953, 2, -47.249, -11.9879, 29.3617, 13.666, 67.2629, -166.556
4.90338, 2, -47.249, -11.9879, 29.3617, 13.666, 67.2629, -166.556
4.91131, 2, -47.249, -11.9878, 29.3617, 13.666, 67.2629, -166.556
4.91931, 2, -47.2489, -11.9878, 29.3617, 13.666, 67.2629, -166.556
4.92737, 2, -47.2489, -11.9877, 29.3617, 13.666, 67.263, -166.556
4.93542, 2, -47.2488, -11.9877, 29.3617, 13.666, 67.263, -166.556
4.94333, 2, -47.2487, -11.9876, 29.3617, 13.666, 67.263, -166.556
4.95143, 2, -47.2487, -11.9876, 29.3617, 13.6659, 67.263, -166.556
4.95931, 2, -47.2486, -11.9876, 29.3617, 13.6659, 67.263, -166.556
4.96731, 2, -47.2485, -11.9876, 29.3617, 13.6659, 67.263, -166.556
4.97541, 2, -47.2484, -11.9876, 29.3617, 13.6659, 67.263, -166.556
4.98333, 2, -47.2484, -11.9876, 29.3617, 13.6659, 67.263, -166.556
4.99131, 2, -47.2484, -11.9876, 29.3617, 13.6659, 67.263, -166.556
4.99938, 2, -47.2484, -11.9876, 29.3617, 13.6659, 67.263, -166.556
5.00732, 2, -47.2483, -11.9875, 29.3617, 13.6658, 67.263, -166.556
5.01531, 2, -47.2483, -11.9875, 29.3617, 13.6658, 67.2631, -166.556
5.02339, 2, -47.2483, -11.9874, 29.3617, 13.6658, 67.2631, -166.556
5.03131, 2, -47.2483, -11.9874, 29.3617, 13.6658, 67.2631, -166.556
5.03934, 2, -47.2482, -11.9873, 29.3617, 13.6658, 67.263, -166.556
5.04744, 2, -47.2481, -11.9873, 29.3617, 13.6658, 67.2631, -166.556
5.05559, 2, -47.248, -11.9873, 29.3617, 13.6658, 67.263, -166.556
5.06431, 2, -47.2479, -11.9873, 29.3617, 13.6657, 67.2631, -166.556
5.0715, 2, -47.2479, -11.9873, 29.3617, 13.6657, 67.2631, -166.556
5.07944, 2, -47.2478, -11.9873, 29.3617, 13.6657, 67.2631, -166.556
5.08741, 2, -47.2477, -11.9873, 29.3617, 13.6657, 67.2631, -166.556
5.09548, 2, -47.2477, -11.9873, 29.3617, 13.6656, 67.2631, -166.556
5.10338, 2, -47.2477, -11.9872, 29.3617, 13.6656, 67.2631, -166.556
5.11169, 2, -47.2476, -11.9872, 29.3617, 13.6656, 67.2631, -166.556
5.12032, 2, -47.2476, -11.9871, 29.3617, 13.6656, 67.2631, -166.556
5.12742, 2, -47.2476, -11.9871, 29.3617, 13.6656, 67.2631, -166.556
5.13566, 4, -47.2476, -11.9871, 29.3617, 13.6656, 67.2631, -166.556
5.14366, 4, -47.2475, -11.987, 29.3617, 13.6656, 67.2631, -166.556
5.15177, 4, -47.2474, -11.987, 29.3617, 13.6656, 67.2631, -166.556
5.16031, 4, -47.2474, -11.987, 29.3617, 13.6655, 67.2631, -166.556
5.16777, 4, -47.2473, -11.987, 29.3617, 13.6656, 67.2631, -166.556
5.17646, 4, -47.2473, -11.987, 29.3617, 13.6656, 67.2631, -166.556
5.18401, 4, -47.2472, -11.987, 29.3617, 13.6656, 67.2631, -166.556
5.19187, 4, -47.2472, -11.9869, 29.3617, 13.6656, 67.2631, -166.556
5.20048, 4, -47.2472, -11.9869, 29.3617, 13.6655, 67.2631, -166.556
5.20793, 4, -47.2472, -11.9869, 29.3617, 13.6655, 67.2631, -166.556
5.21593, 4, -47.2472, -11.9869, 29.3617, 13.6655, 67.2631, -166.555
5.22455, 4, -47.2471, -11.9869, 29.3617, 13.6655, 67.2631, -166.555
5.23129, 4, -47.2471, -11.9868, 29.3617, 13.6655, 67.2631, -166.555
5.24058, 4, -47.247, -11.9867, 29.3617, 13.6655, 67.2631, -166.556
5.27333, 4, -47.2468, -11.9867, 29.3617, 13.6654, 67.2632, -166.556
5.27711, 4, -47.2468, -11.9867, 29.3617, 13.6654, 67.2632, -166.556
5.27903, 4, -47.2468, -11.9867, 29.3617, 13.6654, 67.2632, -166.555
5.28162, 4, -47.2467, -11.9867, 29.3617, 13.6654, 67.2632, -166.555
5.28531, 4, -47.2467, -11.9867, 29.3617, 13.6654, 67.2632, -166.555
5.28758, 4, -47.2467, -11.9867, 29.3617, 13.6654, 67.2632, -166.555
5.29529, 4, -47.2472, -11.9869, 29.3618, 13.6654, 67.2632, -166.555
5.30348, 4, -47.2487, -11.9878, 29.3628, 13.6659, 67.2635, -166.555
5.31155, 4, -47.2519, -11.9906, 29.3661, 13.6707, 67.2647, -166.555
5.31936, 4, -47.2568, -11.9961, 29.3741, 13.6869, 67.2685, -166.552
5.32947, 4, -47.2684, -12.0101, 29.4005, 13.7435, 67.2835, -166.54
5.33527, 5, -47.2738, -12.0167, 29.4143, 13.7742, 67.2919, -166.533
5.34337, 5, -47.287, -12.0331, 29.4507, 13.8562, 67.3145, -166.515
5.35372, 5, -47.3039, -12.0541, 29.499, 13.9654, 67.3454, -166.489
5.35929, 5, -47.324, -12.079, 29.5585, 14.101, 67.3828, -166.457
5.36736, 5, -47.3469, -12.1076, 29.6273, 14.2578, 67.4258, -166.419
5.37647, 5, -47.3722, -12.1398, 29.7034, 14.4302, 67.474, -166.379
5.38348, 5, -47.3999, -12.1751, 29.7847, 14.6123, 67.5243, -166.336
5.39132, 5, -47.4294, -12.2125, 29.8691, 14.7997, 67.5752, -166.291
5.39934, 5, -47.46, -12.2514, 29.9556, 14.9901, 67.628, -166.245
5.4073, 5, -47.4917, -12.2911, 30.0434, 15.182, 67.6801, -166.2
5.41532, 5, -47.5241, -12.3315, 30.1323, 15.3747, 67.732, -166.155
5.42361, 5, -47.557, -12.3723, 30.2218, 15.5678, 67.7847, -166.11
5.43604, 5, -47.6069, -12.4337, 30.3572, 15.8577, 67.8615, -166.042
5.44025, 5, -47.6235, -12.4542, 30.4025, 15.9545, 67.8874, -166.02
5.44837, 5, -47.6567, -12.4953, 30.4936, 16.1479, 67.9391, -165.976
5.45535, 5, -47.6899, -12.5365, 30.5853, 16.3415, 67.9896, -165.931
5.46331, 5, -47.7228, -12.5777, 30.6775, 16.535, 68.0403, -165.886
5.4732, 5, -47.7556, -12.6191, 30.7704, 16.7287, 68.0911, -165.842
5.47932, 5, -47.7885, -12.6606, 30.8639, 16.9223, 68.1406, -165.799
5.48735, 5, -47.8216, -12.7022, 30.958, 17.116, 68.1904, -165.755
5.49529, 5, -47.8551, -12.7442, 31.0524, 17.3097, 68.2399, -165.712
5.50511, 5, -47.8891, -12.7863, 31.1471, 17.5034, 68.2884, -165.669
5.51136, 5, -47.9231, -12.8285, 31.2424, 17.6972, 68.3374, -165.626
5.51929, 5, -47.9572, -12.8711, 31.3382, 17.8909, 68.3862, -165.584
5.52729, 5, -47.9913, -12.9139, 31.4346, 18.0848, 68.4336, -165.541
5.53536, 5, -48.0256, -12.9568, 31.5317, 18.2787, 68.4816, -165.498
5.54334, 5, -48.0601, -13, 31.6294, 18.4726, 68.5294, -165.456
5.55144, 5, -48.0946, -13.0431, 31.7272, 18.6665, 68.5761, -165.415
5.55937, 5, -48.1292, -13.0864, 31.8254, 18.8604, 68.6232, -165.373
5.56739, 5, -48.164, -13.1298, 31.9243, 19.0545, 68.6702, -165.332
5.57562, 5, -48.1988, -13.1733, 32.0236, 19.2485, 68.7161, -165.29
5.5844, 5, -48.2336, -13.2169, 32.1238, 19.4426, 68.762, -165.25
5.59135, 5, -48.2682, -13.2607, 32.2245, 19.6367, 68.8084, -165.209
5.59972, 5, -48.3028, -13.3046, 32.3256, 19.8309, 68.8536, -165.169
5.60845, 5, -48.3376, -13.3486, 32.4269, 20.025, 68.8987, -165.128
5.61532, 5, -48.3726, -13.3928, 32.5286, 20.219, 68.9442, -165.088
5.6236, 5, -48.4077, -13.437, 32.6309, 20.413, 68.9888, -165.048
5.63233, 5, -48.4431, -13.4815, 32.7339, 20.6072, 69.0327, -165.009
5.63946, 5, -48.4786, -13.5261, 32.8376, 20.8014, 69.0772, -164.969
5.6479, 5, -48.5143, -13.5708, 32.9418, 20.9956, 69.1211, -164.929
5.65657, 5, -48.55, -13.6156, 33.0462, 21.1898, 69.1642, -164.89
5.6645, 5, -48.5854, -13.6605, 33.1509, 21.384, 69.2077, -164.851
5.67177, 5, -48.6205, -13.7055, 33.256, 21.5782, 69.2513, -164.812
5.67987, 5, -48.6547, -13.7503, 33.3616, 21.7721, 69.2938, -164.773
5.68866, 5, -48.6876, -13.7948, 33.4675, 21.9652, 69.3364, -164.732
5.69583, 5, -48.7192, -13.8389, 33.5731, 22.1565, 69.3801, -164.689
5.70441, 5, -48.7493, -13.8822, 33.6778, 22.3449, 69.4239, -164.641
5.71269, 5, -48.7636, -13.9035, 33.7295, 22.529, 69.4684, -164.586
5.72166, 6, -48.8026, -13.9656, 33.8814, 22.7073, 69.5152, -164.523
5.72869, 6, -48.8251, -14.0053, 33.9795, 22.8789, 69.5635, -164.45
5.73529, 6, -48.8351, -14.0246, 34.0276, 22.9618, 69.5878, -164.408
5.74329, 6, -48.8525, -14.062, 34.1215, 23.1218, 69.6386, -164.317
5.75244, 6, -48.8716, -14.115, 34.2564, 23.3474, 69.7189, -164.158
5.75928, 6, -48.8762, -14.1317, 34.2998, 23.4188, 69.7461, -164.1
5.76855, 6, -48.8851, -14.1793, 34.4251, 23.6232, 69.8316, -163.909
5.77528, 7, -48.8865, -14.1944, 34.4655, 23.6883, 69.8604, -163.84
5.78328, 7, -48.8871, -14.2235, 34.5445, 23.8144, 69.9189, -163.698
5.79268, 7, -48.8829, -14.2645, 34.659, 23.9955, 70.0098, -163.471
5.79942, 7, -48.8802, -14.2775, 34.6963, 24.0538, 70.0403, -163.392
5.80748, 7, -48.8733, -14.3028, 34.7694, 24.1681, 70.1031, -163.231
5.81531, 7, -48.8647, -14.3271, 34.8407, 24.2789, 70.1661, -163.064
5.82519, 7, -48.849, -14.362, 34.9448, 24.4405, 70.2627, -162.806
5.8315, 8, -48.8431, -14.3731, 34.9788, 24.4932, 70.2951, -162.718
5.83927, 8, -48.8305, -14.395, 35.046, 24.5974, 70.3603, -162.54
5.84727, 8, -48.8168, -14.4162, 35.1122, 24.7002, 70.427, -162.359
5.85628, 8, -48.8019, -14.4367, 35.1774, 24.8018, 70.4934, -162.175
5.86434, 8, -48.7862, -14.4568, 35.2418, 24.9027, 70.5612, -161.99
5.87372, 8, -48.7612, -14.4859, 35.337, 25.0528, 70.663, -161.71
5.88309, 8, -48.7525, -14.4954, 35.3684, 25.1025, 70.6974, -161.521
5.88919, 9, -48.7348, -14.5141, 35.4309, 25.2018, 70.7654, -161.426
5.89529, 9, -48.7164, -14.5325, 35.493, 25.3011, 70.8345, -161.237
5.90327, 9, -48.6976, -14.5505, 35.5546, 25.4002, 70.9032, -161.046
5.91127, 9, -48.6784, -14.5683, 35.6158, 25.4996, 70.9727, -160.857
5.91934, 9, -48.6591, -14.586, 35.6766, 25.5994, 71.0416, -160.666
5.92727, 9, -48.6394, -14.6034, 35.7371, 25.6992, 71.1109, -160.476
5.93528, 9, -48.6195, -14.6205, 35.7974, 25.7996, 71.1804, -160.286
5.94334, 9, -48.5996, -14.6376, 35.8576, 25.9006, 71.25, -160.096
5.95243, 10, -48.5798, -14.6547, 35.9175, 26.0019, 71.3197, -159.906
5.95968, 10, -48.5598, -14.6715, 35.9773, 26.1037, 71.3893, -159.717
5.96728, 10, -48.5398, -14.6882, 36.0369, 26.2061, 71.4593, -159.528
5.97528, 10, -48.5198, -14.7051, 36.0965, 26.3089, 71.529, -159.34
5.98338, 10, -48.4996, -14.722, 36.1559, 26.4125, 71.5989, -159.152
5.99127, 10, -48.4792, -14.7385, 36.2154, 26.5165, 71.668, -158.965
5.99941, 10, -48.4586, -14.7551, 36.2748, 26.6211, 71.7379, -158.778
6.00832, 11, -48.438, -14.772, 36.334, 26.7264, 71.807, -158.593
6.0155, 11, -48.4172, -14.7886, 36.393, 26.832, 71.8767, -158.407
6.02327, 11, -48.3964, -14.8051, 36.452, 26.9382, 71.9454, -158.222
6.03127, 11, -48.3756, -14.8218, 36.5108, 27.0448, 72.0149, -158.038
6.03956, 11, -48.3547, -14.8386, 36.5695, 27.1517, 72.0836, -157.854
6.04877, 11, -48.3338, -14.8552, 36.6283, 27.259, 72.153, -157.671
6.0573, 11, -48.3127, -14.8717, 36.6869, 27.3669, 72.2215, -157.488
6.06366, 12, -48.2917, -14.8883, 36.7455, 27.4751, 72.2906, -157.306
6.07137, 12, -48.2706, -14.9051, 36.8039, 27.5837, 72.359, -157.124
6.07938, 12, -48.2492, -14.9214, 36.8622, 27.6925, 72.4278, -156.942
6.08743, 12, -48.2274, -14.9378, 36.9204, 27.8015, 72.496, -156.761
6.09534, 12, -48.2056, -14.9545, 36.9784, 27.9109, 72.5643, -156.58
6.10328, 12, -48.1835, -14.9711, 37.0362, 28.0204, 72.6324, -156.4
6.11136, 12, -48.1609, -14.9874, 37.0939, 28.13, 72.7005, -156.22
6.11943, 12, -48.1381, -15.0038, 37.1512, 28.2397, 72.7686, -156.04
6.12857, 13, -48.1153, -15.0205, 37.2085, 28.3497, 72.8361, -155.861
6.13727, 13, -48.0921, -15.0369, 37.2655, 28.4598, 72.9041, -155.682
6.14348, 13, -48.0685, -15.0532, 37.3224, 28.5698, 72.971, -155.503
6.15157, 13, -48.0448, -15.0696, 37.379, 28.6799, 73.0389, -155.324
6.1597, 13, -48.0209, -15.0862, 37.4355, 28.79, 73.1055, -155.146
6.16781, 13, -47.9964, -15.1025, 37.4917, 28.9001, 73.1732, -154.968
6.17613, 13, -47.9718, -15.1187, 37.5478, 29.0101, 73.2398, -154.789
6.18388, 14, -47.947, -15.135, 37.6036, 29.1201, 73.3072, -154.611
6.19281, 14, -47.9217, -15.1513, 37.6592, 29.2301, 73.3735, -154.434
6.19984, 14, -47.896, -15.1674, 37.7145, 29.3402, 73.44, -154.257
6.20844, 14, -47.8698, -15.1834, 37.7696, 29.45, 73.5065, -154.08
6.21692, 14, -47.8566, -15.1997, 37.8243, 29.5597, 73.5727, -153.903
6.22457, 14, -47.8162, -15.2159, 37.8788, 29.6693, 73.6392, -153.726
6.23328, 14, -47.7891, -15.2319, 37.9331, 29.7787, 73.7047, -153.549
6.24011, 15, -47.7754, -15.2399, 37.9602, 29.8881, 73.771, -153.372
6.24731, 15, -47.7478, -15.256, 38.0142, 29.9427, 73.8037, -153.284
6.25662, 15, -47.7056, -15.2804, 38.0948, 30.1063, 73.9025, -153.02
6.2633, 15, -47.6914, -15.2884, 38.1215, 30.1609, 73.9351, -152.932
6.27138, 15, -47.6625, -15.3044, 38.1748, 30.2696, 74.0002, -152.757
6.28061, 15, -47.6187, -15.3287, 38.2542, 30.4326, 74.098, -152.493
6.28725, 15, -47.6039, -15.3368, 38.2806, 30.4868, 74.1304, -152.406
6.29875, 15, -47.5589, -15.3608, 38.3594, 30.6491, 74.2278, -152.143
6.3034, 16, -47.5436, -15.3688, 38.3855, 30.7031, 74.2596, -152.056
6.31125, 16, -47.5128, -15.3851, 38.4377, 30.8112, 74.3243, -151.882
6.31938, 16, -47.4816, -15.4013, 38.4895, 30.919, 74.3882, -151.708
6.32886, 16, -47.4342, -15.4254, 38.5668, 31.0807, 74.4842, -151.448
6.33692, 16, -47.4182, -15.4419, 38.6182, 31.1882, 74.547, -151.275
6.34332, 16, -47.3859, -15.4502, 38.6438, 31.2418, 74.5785, -151.189
6.35307, 16, -47.3532, -15.4668, 38.7203, 31.4028, 74.6731, -150.931
6.35969, 17, -47.3203, -15.4831, 38.7458, 31.4563, 74.7041, -150.845
6.36729, 17, -47.2872, -15.4997, 38.7966, 31.5632, 74.7672, -150.673
6.37529, 17, -47.2537, -15.5166, 38.847, 31.6701, 74.829, -150.502
6.38326, 17, -47.2198, -15.5334, 38.8975, 31.7769, 74.891, -150.331
6.3913, 17, -47.1853, -15.5501, 38.9478, 31.8837, 74.9527, -150.161
6.39963, 17, -47.1506, -15.5672, 38.9979, 31.9902, 75.0137, -149.991
6.40813, 17, -47.1155, -15.5845, 39.0477, 32.0965, 75.0752, -149.822
6.41623, 18, -47.08, -15.6017, 39.0975, 32.2028, 75.1351, -149.654
6.42428, 18, -47.0441, -15.619, 39.147, 32.3089, 75.1956, -149.486
6.43231, 18, -47.0079, -15.6368, 39.1964, 32.4148, 75.2552, -149.318
6.44026, 18, -46.9713, -15.6546, 39.2457, 32.5207, 75.3144, -149.151
6.44738, 18, -46.9343, -15.6724, 39.295, 32.6266, 75.3737, -148.984
6.45526, 18, -46.897, -15.6906, 39.344, 32.7323, 75.4316, -148.818
6.46332, 18, -46.8594, -15.7091, 39.393, 32.8379, 75.4901, -148.653
6.47469, 19, -46.8026, -15.7366, 39.4662, 32.9961, 75.576, -148.407
6.4805, 19, -46.7834, -15.7459, 39.4905, 33.0488, 75.6047, -148.325
6.48825, 19, -46.7448, -15.7649, 39.5392, 33.1538, 75.662, -148.161
6.49532, 19, -46.7057, -15.7838, 39.5877, 33.2588, 75.7179, -147.998
6.50326, 19, -46.6664, -15.8028, 39.6361, 33.3637, 75.7743, -147.836
6.51125, 19, -46.6266, -15.8223, 39.6843, 33.4684, 75.8298, -147.674
6.51932, 19, -46.5864, -15.842, 39.7324, 33.573, 75.8847, -147.513
6.52749, 19, -46.5458, -15.8617, 39.7805, 33.6775, 75.94, -147.353
6.53629, 20, -46.5049, -15.8818, 39.8282, 33.7817, 75.9938, -147.193
6.54364, 20, -46.4636, -15.9021, 39.876, 33.8857, 76.0476, -147.034
6.55129, 20, -46.4217, -15.9227, 39.9236, 33.9896, 76.1012, -146.876
6.55934, 20, -46.3797, -15.9435, 39.9711, 34.0933, 76.1535, -146.718
6.56776, 20, -46.3374, -15.9644, 40.0185, 34.1967, 76.2063, -146.56
6.57641, 20, -46.2946, -15.9855, 40.0657, 34.3, 76.2585, -146.404
6.58422, 20, -46.2514, -16.007, 40.1129, 34.4032, 76.3094, -146.248
6.59137, 20, -46.208, -16.0284, 40.1599, 34.5062, 76.361, -146.092
6.59942, 21, -46.1641, -16.0502, 40.2068, 34.6087, 76.4115, -145.937
6.60726, 21, -46.1196, -16.0723, 40.2535, 34.7112, 76.4612, -145.783
6.61528, 21, -46.0748, -16.0944, 40.3001, 34.8135, 76.5115, -145.629
6.62336, 21, -46.0297, -16.1168, 40.3464, 34.9153, 76.5606, -145.476
6.63141, 21, -45.984, -16.1395, 40.3926, 35.0169, 76.609, -145.323
6.63938, 21, -45.9378, -16.1621, 40.4387, 35.1183, 76.658, -145.171
6.6496, 21, -45.8913, -16.1853, 40.4844, 35.2193, 76.7059, -145.019
6.65642, 22, -45.8445, -16.2085, 40.53, 35.3204, 76.7531, -144.868
6.66362, 22, -45.7971, -16.2318, 40.5754, 35.4208, 76.8008, -144.717
6.67164, 22, -45.7492, -16.2555, 40.6207, 35.521, 76.8475, -144.567
6.67977, 22, -45.701, -16.2792, 40.6657, 35.6209, 76.8932, -144.417
6.68842, 22, -45.6522, -16.303, 40.7105, 35.7202, 76.9393, -144.268
6.69582, 22, -45.603, -16.3272, 40.7551, 35.8195, 76.9847, -144.119
6.70802, 23, -45.5284, -16.3634, 40.8214, 35.9674, 77.0515, -143.896
6.71242, 23, -45.5033, -16.3757, 40.8434, 36.0164, 77.0741, -143.821
6.72075, 23, -45.478, -16.3879, 40.8654, 36.1146, 77.1187, -143.673
6.72825, 23, -45.4017, -16.4245, 40.9308, 36.2123, 77.1619, -143.526
6.73524, 23, -45.376, -16.437, 40.9525, 36.261, 77.1834, -143.452
6.74324, 23, -45.3242, -16.4618, 40.9957, 36.358, 77.2269, -143.305
6.75203, 23, -45.2718, -16.4866, 41.0384, 36.4546, 77.27, -143.158
6.76206, 23, -45.1924, -16.5242, 41.1021, 36.5985, 77.3328, -142.939
6.76852, 24, -45.1387, -16.5493, 41.1441, 36.6938, 77.3753, -142.793
6.77524, 24, -45.1117, -16.562, 41.1649, 36.7413, 77.3964, -142.72
6.78455, 24, -45.0302, -16.5999, 41.2272, 36.8831, 77.458, -142.502
6.79124, 24, -45.0027, -16.6126, 41.2477, 36.9301, 77.4783, -142.429
6.80159, 24, -44.9197, -16.6508, 41.309, 37.0707, 77.54, -142.212
6.80729, 24, -44.8917, -16.6635, 41.3292, 37.1172, 77.5601, -142.139
6.81685, 24, -44.8071, -16.7019, 41.3892, 37.2559, 77.6195, -141.923
6.82587, 25, -44.75, -16.7274, 41.429, 37.3477, 77.6595, -141.778
6.83147, 25, -44.7211, -16.7402, 41.4486, 37.3934, 77.6794, -141.706
6.8397, 25, -44.6631, -16.7658, 41.4875, 37.4843, 77.7184, -141.562
6.84724, 25, -44.6047, -16.7914, 41.5262, 37.5746, 77.7566, -141.418
6.8553, 25, -44.5455, -16.8171, 41.5644, 37.6644, 77.7951, -141.274
6.8643, 25, -44.4859, -16.8427, 41.6022, 37.7536, 77.8336, -141.13
6.87223, 25, -44.4259, -16.8683, 41.6396, 37.8424, 77.8711, -140.987
6.87971, 25, -44.3651, -16.8938, 41.6766, 37.9307, 77.9082, -140.844
6.88821, 26, -44.3038, -16.9194, 41.7129, 38.0183, 77.9457, -140.701
6.89624, 26, -44.242, -16.945, 41.749, 38.1052, 77.9831, -140.558
6.90434, 26, -44.1797, -16.9704, 41.7846, 38.1915, 78.0194, -140.414
6.91124, 26, -44.1169, -16.9959, 41.8197, 38.2773, 78.0552, -140.271
6.91925, 26, -44.0535, -17.0212, 41.8544, 38.3623, 78.0913, -140.128
6.92737, 26, -43.9897, -17.0466, 41.8886, 38.4468, 78.1274, -139.986
6.93621, 26, -43.9252, -17.0719, 41.9223, 38.5307, 78.1626, -139.843
6.94428, 27, -43.8602, -17.0969, 41.9556, 38.6139, 78.1974, -139.7
6.95224, 27, -43.7946, -17.122, 41.9884, 38.6966, 78.2324, -139.558
6.95931, 27, -43.7284, -17.1469, 42.0206, 38.7787, 78.2676, -139.415
6.96731, 27, -43.6618, -17.1718, 42.0524, 38.8602, 78.302, -139.272
6.97524, 27, -43.5945, -17.1967, 42.0838, 38.9408, 78.3356, -139.13
6.9833, 27, -43.5265, -17.2213, 42.1146, 39.021, 78.3694, -138.987
6.99128, 27, -43.4581, -17.2459, 42.1448, 39.1004, 78.4035, -138.845
7.00115, 28, -43.3891, -17.2703, 42.1746, 39.1792, 78.437, -138.702
7.00737, 28, -43.3195, -17.2947, 42.2039, 39.2574, 78.4698, -138.561
7.0153, 28, -43.2494, -17.3189, 42.2325, 39.3349, 78.5025, -138.418
7.02324, 28, -43.1789, -17.3429, 42.2607, 39.4119, 78.5357, -138.276
7.0313, 28, -43.1077, -17.3669, 42.2884, 39.4879, 78.5686, -138.134
7.0393, 28, -43.036, -17.3907, 42.3157, 39.5638, 78.6007, -137.992
7.04726, 28, -42.9638, -17.4143, 42.3422, 39.6385, 78.6323, -137.85
7.05639, 28, -42.891, -17.4379, 42.3682, 39.7133, 78.664, -137.707
7.06339, 29, -42.8175, -17.4612, 42.3938, 39.7868, 78.696, -137.565
7.07176, 29, -42.7436, -17.4844, 42.4188, 39.8601, 78.7273, -137.423
7.08024, 29, -42.669, -17.5075, 42.4433, 39.9323, 78.7583, -137.281
7.08741, 29, -42.594, -17.5303, 42.4671, 40.0044, 78.7888, -137.139
7.09587, 29, -42.5185, -17.5532, 42.4904, 40.0751, 78.8198, -136.997
7.10448, 29, -42.4423, -17.5757, 42.5133, 40.1458, 78.8508, -136.855
7.11221, 29, -42.3656, -17.5981, 42.5356, 40.2154, 78.8811, -136.713
7.11933, 30, -42.2884, -17.6203, 42.5573, 40.2848, 78.9107, -136.571
7.12825, 30, -42.2107, -17.6422, 42.5785, 40.3531, 78.9403, -136.429
7.13568, 30, -42.1325, -17.664, 42.5992, 40.4211, 78.9703, -136.288
7.14341, 30, -42.0538, -17.6858, 42.6193, 40.4883, 79.0002, -136.146
7.15249, 30, -41.9746, -17.707, 42.6391, 40.555, 79.0294, -136.004
7.15961, 30, -41.8948, -17.7284, 42.6581, 40.621, 79.0582, -135.863
7.16763, 30, -41.8146, -17.7495, 42.6765, 40.6863, 79.0869, -135.721
7.17665, 30, -41.7339, -17.7702, 42.6946, 40.7513, 79.116, -135.579
7.18456, 31, -41.6525, -17.791, 42.7119, 40.8151, 79.145, -135.438
7.19185, 31, -41.5707, -17.8115, 42.7286, 40.8789, 79.1734, -135.296
7.20046, 31, -41.4883, -17.8317, 42.7451, 40.9412, 79.2012, -135.155
7.20782, 31, -41.4054, -17.8518, 42.7611, 41.0039, 79.2287, -135.014
7.21635, 31, -41.322, -17.8716, 42.7763, 41.0651, 79.2567, -134.872
7.22378, 31, -41.2802, -17.8814, 42.7837, 41.0955, 79.2846, -134.73
7.23227, 31, -41.1962, -17.9008, 42.7982, 41.1866, 79.312, -134.589
7.2392, 32, -41.1117, -17.9203, 42.8121, 41.2162, 79.3256, -134.518
7.24727, 32, -41.0267, -17.9394, 42.8253, 41.2761, 79.3523, -134.377
7.25638, 32, -40.8983, -17.9676, 42.8441, 41.3638, 79.3925, -134.166
7.26325, 32, -40.8553, -17.9769, 42.8503, 41.3931, 79.4061, -134.095
7.27276, 32, -40.7255, -18.0045, 42.8678, 41.4797, 79.4465, -133.884
7.27939, 32, -40.682, -18.0136, 42.8734, 41.5078, 79.4596, -133.813
7.28834, 32, -40.5946, -18.0316, 42.8841, 41.5647, 79.4983, -133.602
7.29525, 33, -40.5068, -18.0496, 42.8941, 41.6206, 79.5111, -133.532
7.30566, 33, -40.374, -18.0758, 42.9084, 41.7034, 79.5496, -133.321
7.31127, 33, -40.3295, -18.0844, 42.9129, 41.7309, 79.5626, -133.251
7.32087, 33, -40.1955, -18.1102, 42.9256, 41.8111, 79.6008, -133.04
7.32986, 33, -40.1056, -18.127, 42.9334, 41.8649, 79.6256, -132.9
7.33679, 33, -40.0152, -18.1434, 42.9406, 41.9174, 79.6502, -132.759
7.34484, 33, -39.9244, -18.1598, 42.9472, 41.9692, 79.6748, -132.619
7.35314, 34, -39.8332, -18.1761, 42.9533, 42.0213, 79.6997, -132.479
7.36363, 34, -39.7413, -18.1919, 42.9591, 42.0716, 79.7246, -132.338
7.36818, 34, -39.6952, -18.1996, 42.9617, 42.0966, 79.7368, -132.268
7.37622, 34, -39.6026, -18.2151, 42.9667, 42.1472, 79.7608, -132.128
7.38322, 34, -39.5097, -18.2306, 42.9712, 42.1968, 79.7844, -131.989
7.39122, 34, -39.4164, -18.2456, 42.9751, 42.2453, 79.8078, -131.849
7.40268, 34, -39.2755, -18.2675, 42.9799, 42.3183, 79.8433, -131.64
7.40852, 34, -39.2284, -18.2747, 42.9813, 42.342, 79.8553, -131.57
7.41523, 35, -39.1337, -18.2892, 42.9836, 42.3888, 79.8788, -131.43
7.4233, 35, -39.0385, -18.3034, 42.9854, 42.4359, 79.9019, -131.291
7.43122, 35, -38.9429, -18.3169, 42.9867, 42.4819, 79.9246, -131.152
7.43922, 35, -38.8468, -18.3303, 42.9875, 42.527, 79.9472, -131.013
7.44729, 35, -38.7504, -18.3437, 42.9879, 42.5725, 79.9698, -130.874
7.45544, 35, -38.6536, -18.3569, 42.988, 42.617, 79.9927, -130.735
7.46319, 35, -38.5563, -18.3697, 42.9879, 42.6602, 80.0156, -130.596
7.47127, 36, -38.4587, -18.382, 42.9874, 42.7036, 80.0378, -130.457
7.4793, 36, -38.3607, -18.3943, 42.9865, 42.7467, 80.0597, -130.318
7.48722, 36, -38.2623, -18.4064, 42.9851, 42.7885, 80.0812, -130.18
7.49526, 36, -38.1632, -18.4184, 42.9831, 42.8299, 80.1026, -130.041
7.50329, 36, -38.0638, -18.4298, 42.9804, 42.8715, 80.1243, -129.903
7.51121, 36, -37.9641, -18.4408, 42.9772, 42.9119, 80.146, -129.765
7.51921, 36, -37.864, -18.4516, 42.9735, 42.9512, 80.1677, -129.627
7.52766, 37, -37.7635, -18.4622, 42.9692, 42.9908, 80.1889, -129.489
7.53634, 37, -37.6626, -18.4727, 42.9643, 43.0301, 80.2097, -129.351
7.54322, 37, -37.5615, -18.483, 42.9588, 43.0681, 80.2301, -129.214
7.55137, 37, -37.46, -18.4928, 42.9526, 43.1054, 80.2505, -129.076
7.55928, 37, -37.358, -18.5023, 42.9458, 43.1432, 80.2711, -128.939
7.56731, 37, -37.2556, -18.5116, 42.9386, 43.1802, 80.2918, -128.801
7.57874, 37, -37.1527, -18.5206, 42.9269, 43.2336, 80.3225, -128.596
7.58353, 37, -37.0495, -18.5295, 42.9228, 43.2511, 80.3324, -128.527
7.59235, 38, -36.9459, -18.5382, 42.914, 43.2865, 80.3521, -128.39
7.59928, 38, -36.8419, -18.5467, 42.9047, 43.3213, 80.3713, -128.253
7.60739, 38, -36.7373, -18.5547, 42.8947, 43.3549, 80.3905, -128.117
7.61525, 38, -36.6322, -18.5622, 42.8844, 43.3878, 80.4098, -127.98
7.62332, 38, -36.5269, -18.5694, 42.8737, 43.4208, 80.4292, -127.843
7.63165, 38, -36.4213, -18.5765, 42.8623, 43.4536, 80.4486, -127.707
7.64029, 38, -36.3153, -18.5833, 42.8504, 43.4851, 80.4678, -127.571
7.6474, 39, -36.209, -18.5898, 42.8378, 43.5158, 80.4865, -127.436
7.6564, 39, -36.1023, -18.5962, 42.8248, 43.546, 80.5049, -127.3
7.66358, 39, -35.9953, -18.6025, 42.8114, 43.5763, 80.5232, -127.164
7.67175, 39, -35.8878, -18.6084, 42.7974, 43.6061, 80.5415, -127.029
7.68058, 39, -35.7798, -18.6139, 42.7829, 43.635, 80.5599, -126.893
7.68772, 39, -35.6715, -18.619, 42.7681, 43.6632, 80.5786, -126.758
7.69632, 39, -35.5628, -18.6238, 42.7529, 43.6909, 80.5971, -126.623
7.70415, 40, -35.4539, -18.6283, 42.7369, 43.7186, 80.6153, -126.488
7.71307, 40, -35.3446, -18.6326, 42.7203, 43.746, 80.6331, -126.353
7.7204, 40, -35.2349, -18.6367, 42.7034, 43.7722, 80.6505, -126.219
7.72777, 40, -35.1799, -18.6386, 42.6948, 43.785, 80.6676, -126.084
7.737, 40, -35.0145, -18.6439, 42.6682, 43.8225, 80.6846, -125.95
7.74448, 40, -34.9036, -18.6471, 42.6501, 43.8473, 80.7018, -125.815
7.75285, 40, -34.7924, -18.65, 42.6314, 43.872, 80.719, -125.681
7.76028, 40, -34.681, -18.6527, 42.612, 43.896, 80.7364, -125.547
7.76726, 41, -34.6253, -18.654, 42.6022, 43.9077, 80.7449, -125.48
7.77815, 41, -34.4576, -18.6575, 42.5722, 43.9415, 80.77, -125.28
7.78622, 41, -34.3452, -18.6596, 42.5516, 43.9633, 80.7863, -125.147
7.79261, 41, -34.2326, -18.6615, 42.5306, 43.9848, 80.8025, -125.014
7.80063, 41, -34.1195, -18.6632, 42.509, 44.0061, 80.8184, -124.881
7.80875, 41, -34.0061, -18.6646, 42.4869, 44.0271, 80.8344, -124.748
7.81672, 41, -33.8923, -18.6658, 42.4645, 44.0473, 80.8504, -124.615
7.82478, 42, -33.7781, -18.6666, 42.4417, 44.0667, 80.8667, -124.483
7.83284, 42, -33.6635, -18.6672, 42.4184, 44.0854, 80.8829, -124.35
7.84078, 42, -33.5487, -18.6675, 42.3946, 44.1034, 80.899, -124.219
7.8488, 42, -33.4911, -18.6675, 42.3826, 44.1211, 80.9146, -124.087
7.85754, 42, -33.3179, -18.6676, 42.3458, 44.1385, 80.9298, -123.955
7.86818, 42, -33.202, -18.6676, 42.3208, 44.1556, 80.9448, -123.823
7.87223, 42, -33.144, -18.6676, 42.3081, 44.1641, 80.9523, -123.757
7.88022, 43, -33.0275, -18.6674, 42.2823, 44.1806, 80.967, -123.626
7.88821, 43, -32.9107, -18.667, 42.2562, 44.1962, 80.9816, -123.494
7.89522, 43, -32.7935, -18.6664, 42.2297, 44.2111, 80.9964, -123.363
7.90332, 43, -32.6763, -18.6656, 42.2027, 44.2253, 81.0112, -123.233
7.91247, 43, -32.5587, -18.6644, 42.1751, 44.2389, 81.026, -123.102
7.91921, 43, -32.4408, -18.663, 42.1472, 44.252, 81.0407, -122.972
7.92813, 43, -32.3225, -18.6613, 42.1188, 44.2645, 81.055, -122.842
7.93651, 44, -32.2039, -18.6591, 42.0901, 44.2768, 81.0689, -122.712
7.9432, 44, -32.0848, -18.6565, 42.0609, 44.2887, 81.0826, -122.582
7.95282, 44, -31.9653, -18.6535, 42.0312, 44.3004, 81.0961, -122.452
7.95934, 44, -31.8456, -18.6501, 42.0012, 44.3115, 81.1095, -122.322
7.96728, 44, -31.7256, -18.6464, 41.9708, 44.322, 81.1229, -122.193
7.97526, 44, -31.6055, -18.6424, 41.9398, 44.3319, 81.1362, -122.064
7.9832, 44, -31.4851, -18.6381, 41.9085, 44.341, 81.1495, -121.935
7.99126, 44, -31.3644, -18.6335, 41.8768, 44.3496, 81.163, -121.806
7.99923, 45, -31.2433, -18.6285, 41.8446, 44.3573, 81.1766, -121.677
8.00827, 45, -31.1218, -18.6234, 41.8119, 44.3644, 81.1898, -121.548
8.0152, 45, -30.9998, -18.618, 41.7788, 44.371, 81.2027, -121.42
8.02327, 45, -30.8777, -18.6125, 41.7453, 44.377, 81.2153, -121.292
8.03138, 45, -30.7553, -18.6067, 41.7113, 44.3823, 81.2276, -121.164
8.03926, 45, -30.6325, -18.6004, 41.6771, 44.387, 81.2397, -121.036
8.04722, 45, -30.5093, -18.5937, 41.6424, 44.3913, 81.2517, -120.909
8.05616, 46, -30.3858, -18.5867, 41.6071, 44.395, 81.2636, -120.781
8.06347, 46, -30.2619, -18.5793, 41.5715, 44.3982, 81.2756, -120.654
8.07128, 46, -30.1374, -18.5716, 41.5355, 44.4008, 81.2876, -120.527
8.07949, 46, -30.0126, -18.5635, 41.4989, 44.4029, 81.2997, -120.4
8.08849, 46, -29.8877, -18.5553, 41.4621, 44.4044, 81.3119, -120.273
8.09535, 46, -29.7625, -18.5469, 41.4248, 44.4055, 81.3241, -120.147
8.10337, 46, -29.637, -18.5381, 41.3869, 44.4059, 81.336, -120.02
8.11195, 46, -29.5112, -18.5287, 41.3486, 44.4061, 81.3477, -119.894
8.12026, 47, -29.3851, -18.5192, 41.31, 44.4062, 81.3591, -119.768
8.13028, 47, -29.2586, -18.5093, 41.2708, 44.4059, 81.3704, -119.642
8.13568, 47, -29.1316, -18.4991, 41.2312, 44.4051, 81.3815, -119.516
8.14427, 47, -29.0043, -18.4888, 41.1912, 44.4035, 81.3925, -119.39
8.15157, 47, -28.8767, -18.478, 41.1506, 44.4011, 81.4035, -119.264
8.1595, 47, -28.7488, -18.4667, 41.1097, 44.3979, 81.4145, -119.139
8.16759, 47, -28.6206, -18.4551, 41.0683, 44.3941, 81.4256, -119.013
8.17621, 48, -28.4922, -18.4431, 41.0264, 44.3895, 81.4368, -118.888
8.18369, 48, -28.3634, -18.431, 40.9842, 44.3842, 81.4481, -118.763
8.19231, 48, -28.2342, -18.4186, 40.9414, 44.3783, 81.4596, -118.638
8.19995, 48, -28.1046, -18.4056, 40.8982, 44.3717, 81.471, -118.513
8.20848, 48, -27.975, -18.3922, 40.8546, 44.3643, 81.4823, -118.389
8.21637, 48, -27.8449, -18.3786, 40.8104, 44.3564, 81.4934, -118.264
8.22382, 48, -27.7797, -18.3717, 40.7657, 44.3476, 81.5043, -118.139
8.2322, 49, -27.5836, -18.3506, 40.7206, 44.338, 81.5151, -118.015
8.24055, 49, -27.5179, -18.3432, 40.6977, 44.3328, 81.5204, -117.952
8.24719, 49, -27.3863, -18.3282, 40.6519, 44.3219, 81.531, -117.828
8.25649, 49, -27.1879, -18.3054, 40.5822, 44.3038, 81.5468, -117.642
8.26572, 49, -27.0554, -18.2897, 40.535, 44.2906, 81.5574, -117.517
8.27118, 49, -26.989, -18.2816, 40.5113, 44.2837, 81.5628, -117.455
8.28041, 49, -26.7894, -18.2566, 40.4393, 44.2622, 81.5792, -117.27
8.2872, 49, -26.7227, -18.2483, 40.4151, 44.2549, 81.5848, -117.207
8.29745, 50, -26.5222, -18.2225, 40.3416, 44.232, 81.6018, -117.021
8.3072, 50, -26.3879, -18.2047, 40.2921, 44.216, 81.6133, -116.897
8.3114, 50, -26.3207, -18.1957, 40.2671, 44.2077, 81.6191, -116.835
8.31917, 50, -26.186, -18.1775, 40.2169, 44.1905, 81.6304, -116.712
8.32729, 50, -26.0509, -18.1587, 40.166, 44.1722, 81.6417, -116.588
8.33678, 50, -25.8475, -18.1297, 40.0888, 44.143, 81.6584, -116.402
8.34578, 50, -25.7115, -18.1098, 40.0367, 44.1229, 81.6696, -116.279
8.35278, 51, -25.6434, -18.0997, 40.0104, 44.1024, 81.6807, -116.155
8.36072, 51, -25.5069, -18.0792, 39.9575, 44.092, 81.6864, -116.093
8.36819, 51, -25.3699, -18.0583, 39.9042, 44.0707, 81.6978, -115.97
8.37624, 51, -25.2326, -18.037, 39.8502, 44.0485, 81.7093, -115.846
8.38436, 51, -25.095, -18.0151, 39.7957, 44.025, 81.721, -115.723
8.39116, 51, -24.957, -17.993, 39.7407, 44.0005, 81.733, -115.599
8.39921, 51, -24.8189, -17.9704, 39.6852, 43.9755, 81.7454, -115.476
8.40722, 52, -24.6805, -17.9474, 39.6293, 43.9501, 81.758, -115.353
8.41524, 52, -24.5415, -17.924, 39.5728, 43.9241, 81.7705, -115.23
8.42319, 52, -24.402, -17.8999, 39.5159, 43.897, 81.783, -115.106
8.43229, 52, -24.262, -17.8755, 39.4583, 43.8686, 81.7953, -114.983
8.44255, 52, -24.051, -17.838, 39.371, 43.8252, 81.8137, -114.798
8.44718, 52, -23.9805, -17.8253, 39.3416, 43.8105, 81.8198, -114.736
8.4553, 52, -23.8393, -17.7997, 39.2825, 43.7807, 81.8321, -114.613
8.46338, 53, -23.6977, -17.7734, 39.2228, 43.7499, 81.8445, -114.489
8.4712, 53, -23.5555, -17.7468, 39.1626, 43.7175, 81.8572, -114.366
8.48337, 53, -23.3418, -17.706, 39.0713, 43.6684, 81.8768, -114.181
8.48733, 53, -23.2704, -17.6923, 39.0406, 43.6518, 81.8835, -114.12
8.49522, 53, -23.1274, -17.6644, 38.9788, 43.618, 81.8973, -113.997
8.50329, 53, -22.984, -17.6359, 38.9167, 43.5826, 81.911, -113.874
8.51118, 53, -22.8404, -17.6072, 38.8539, 43.5466, 81.9247, -113.751
8.51919, 53, -22.6963, -17.578, 38.7906, 43.5105, 81.9383, -113.628
8.52724, 54, -22.5518, -17.5483, 38.7268, 43.4735, 81.9519, -113.504
8.53545, 54, -22.4069, -17.518, 38.6624, 43.4349, 81.9656, -113.381
8.54319, 54, -22.2616, -17.4873, 38.5975, 43.3956, 81.9793, -113.258
8.55118, 54, -22.1157, -17.4562, 38.5321, 43.3563, 81.9933, -113.135
8.55952, 54, -21.9695, -17.4248, 38.4662, 43.3156, 82.0075, -113.012
8.56816, 54, -21.8231, -17.3928, 38.3998, 43.2735, 82.0222, -112.889
8.5754, 54, -21.676, -17.3603, 38.3329, 43.2315, 82.0373, -112.765
8.58358, 55, -21.5286, -17.3275, 38.2656, 43.1888, 82.0527, -112.642
8.59165, 55, -21.3808, -17.2942, 38.1977, 43.1442, 82.0678, -112.519
8.59935, 55, -21.2327, -17.2604, 38.1294, 43.0994, 82.0829, -112.396
8.60935, 55, -21.0841, -17.2262, 38.0606, 43.0541, 82.0979, -112.273
8.61601, 55, -20.9352, -17.1917, 37.9912, 43.007, 82.113, -112.15
8.62417, 55, -20.7859, -17.1566, 37.9212, 42.9594, 82.128, -112.027
8.63121, 55, -20.6359, -17.121, 37.8507, 42.9116, 82.1434, -111.904
8.64005, 56, -20.4855, -17.0852, 37.7798, 42.862, 82.1591, -111.781
8.64742, 56, -20.3346, -17.049, 37.7085, 42.8119, 82.1751, -111.658
8.65548, 56, -20.1832, -17.0123, 37.6368, 42.7615, 82.1915, -111.536
8.66432, 56, -20.0314, -16.9752, 37.5646, 42.7092, 82.2078, -111.413
8.67218, 56, -19.8793, -16.9378, 37.4918, 42.6568, 82.2241, -111.29
8.6796, 56, -19.7267, -16.8999, 37.4186, 42.6037, 82.2403, -111.167
8.68824, 56, -19.574, -16.8617, 37.3449, 42.5488, 82.2565, -111.045
8.69589, 56, -19.4212, -16.823, 37.2706, 42.494, 82.2728, -110.922
8.70437, 57, -19.2679, -16.784, 37.1959, 42.4374, 82.2894, -110.8
8.7127, 57, -19.1141, -16.7446, 37.1208, 42.3803, 82.3063, -110.677
8.72115, 57, -18.9599, -16.7048, 37.0451, 42.3229, 82.3237, -110.554
8.72782, 57, -18.8826, -16.6646, 36.9692, 42.2634, 82.3414, -110.431
8.73638, 57, -18.65, -16.624, 36.8927, 42.204, 82.3589, -110.309
8.74317, 57, -18.5723, -16.6035, 36.8543, 42.1738, 82.3677, -110.247
8.75227, 57, -18.3381, -16.5415, 36.7385, 42.0814, 82.3938, -110.063
8.75914, 58, -18.2596, -16.5207, 36.6996, 42.0506, 82.4024, -110.002
8.7691, 58, -18.0239, -16.4576, 36.5823, 41.9552, 82.4286, -109.819
8.77639, 58, -17.8661, -16.4149, 36.5034, 41.8912, 82.4465, -109.697
8.78322, 58, -17.787, -16.3935, 36.4638, 41.8584, 82.4556, -109.636
8.79416, 58, -17.5494, -16.3288, 36.3446, 41.7598, 82.4835, -109.452
8.79924, 58, -17.4699, -16.307, 36.3047, 41.7262, 82.4928, -109.391
8.80864, 58, -17.2308, -16.2411, 36.1843, 41.6244, 82.5207, -109.208
8.81526, 59, -17.1509, -16.219, 36.1439, 41.59, 82.53, -109.147
8.82322, 59, -16.9909, -16.1745, 36.0628, 41.5202, 82.5485, -109.024
8.83117, 59, -16.8303, -16.1296, 35.9812, 41.4501, 82.5672, -108.902
8.84098, 59, -16.5887, -16.0617, 35.8579, 41.3424, 82.5959, -108.719
8.84716, 59, -16.5079, -16.0387, 35.8167, 41.3061, 82.6057, -108.658
8.8553, 59, -16.346, -15.9927, 35.7339, 41.2323, 82.6256, -108.536
8.86476, 59, -16.1837, -15.9464, 35.6507, 41.1583, 82.6455, -108.353
8.87389, 60, -16.0209, -15.8996, 35.5252, 41.0446, 82.6751, -108.231
8.88017, 60, -15.8578, -15.8524, 35.4832, 41.0063, 82.6849, -108.17
8.89003, 60, -15.6123, -15.7808, 35.3563, 40.8901, 82.7144, -107.987
8.89545, 60, -15.5301, -15.7567, 35.3138, 40.8507, 82.7244, -107.926
8.90315, 60, -15.3652, -15.7083, 35.2284, 40.7714, 82.7447, -107.804
8.91116, 60, -15.1996, -15.6594, 35.1425, 40.691, 82.7655, -107.681
8.91923, 60, -15.0337, -15.6101, 35.0562, 40.6099, 82.7865, -107.56
8.92716, 60, -14.8674, -15.5606, 34.9697, 40.5274, 82.8074, -107.438
8.93523, 61, -14.7007, -15.5106, 34.8828, 40.4439, 82.8282, -107.316
8.94317, 61, -14.5334, -15.4603, 34.7955, 40.3594, 82.8491, -107.193
8.95123, 61, -14.3655, -15.4096, 34.7077, 40.2739, 82.8703, -107.071
8.95917, 61, -14.1968, -15.3585, 34.6193, 40.1874, 82.892, -106.949
8.9674, 61, -14.0276, -15.3071, 34.5304, 40.0999, 82.9144, -106.827
8.97621, 61, -13.8578, -15.2551, 34.4413, 40.0115, 82.9368, -106.704
8.98416, 61, -13.6876, -15.2028, 34.3518, 39.9218, 82.959, -106.582
8.99218, 62, -13.5171, -15.1501, 34.2621, 39.8311, 82.9812, -106.46
9.00023, 62, -13.3463, -15.0969, 34.1719, 39.7395, 83.0035, -106.338
9.00817, 62, -13.1752, -15.0433, 34.0813, 39.6465, 83.0263, -106.215
9.01631, 62, -13.0036, -14.9893, 33.9901, 39.5524, 83.0497, -106.093
9.02717, 62, -12.8316, -14.9349, 33.8984, 39.4574, 83.0734, -105.97
9.03116, 62, -12.6588, -14.8801, 33.8062, 39.3612, 83.097, -105.847
9.03927, 62, -12.4853, -14.8249, 33.7138, 39.264, 83.1207, -105.725
9.04718, 62, -12.3111, -14.7692, 33.6211, 39.1658, 83.1446, -105.602
9.05523, 63, -12.1361, -14.7132, 33.5279, 39.0663, 83.1689, -105.479
9.06731, 63, -11.873, -14.6284, 33.3874, 38.9151, 83.2068, -105.295
9.07142, 63, -11.7849, -14.5999, 33.3403, 38.8641, 83.2196, -105.234
9.08016, 63, -11.6084, -14.5426, 33.2456, 38.7612, 83.2451, -105.111
9.08734, 63, -11.4312, -14.4848, 33.1505, 38.6572, 83.2705, -104.988
9.09532, 63, -11.2534, -14.4265, 33.0552, 38.5521, 83.2961, -104.865
9.10327, 63, -11.075, -14.3677, 32.9595, 38.4457, 83.3224, -104.742
9.11133, 64, -10.896, -14.3084, 32.8635, 38.3385, 83.3495, -104.618
9.12007, 64, -10.7164, -14.2485, 32.767, 38.2299, 83.3767, -104.495
9.12822, 64, -10.5364, -14.1881, 32.6699, 38.1203, 83.404, -104.371
9.13526, 64, -10.3559, -14.1271, 32.5724, 38.0094, 83.4313, -104.247
9.14418, 64, -10.1752, -14.0657, 32.4743, 37.8973, 83.4592, -104.123
9.15173, 64, -9.9943, -14.0037, 32.3761, 37.784, 83.4879, -103.999
9.15942, 64, -9.81279, -13.9414, 32.2776, 37.6695, 83.5172, -103.875
9.16856, 65, -9.63058, -13.8787, 32.1786, 37.5539, 83.5463, -103.751
9.17638, 65, -9.44742, -13.8154, 32.0793, 37.4373, 83.5756, -103.626
9.1836, 65, -9.2634, -13.7517, 31.9794, 37.3194, 83.6053, -103.501
9.19265, 65, -9.07864, -13.6875, 31.8788, 37.2005, 83.6362, -103.376
9.20121, 65, -8.89329, -13.6226, 31.778, 37.0803, 83.6675, -103.251
9.20771, 65, -8.70739, -13.5573, 31.6769, 36.9587, 83.6987, -103.126
9.2164, 65, -8.521, -13.4915, 31.5756, 36.8363, 83.7302, -103.001
9.22459, 65, -8.3341, -13.425, 31.474, 36.7124, 83.7624, -102.875
9.23182, 66, -8.14657, -13.3579, 31.3719, 36.5876, 83.7957, -102.75
9.24299, 66, -7.9581, -13.2903, 31.2692, 36.4617, 83.8289, -102.624
9.24852, 66, -7.76891, -13.2221, 31.1661, 36.3345, 83.862, -102.498
9.25631, 66, -7.57914, -13.1535, 31.0626, 36.2062, 83.8956, -102.372
9.26324, 66, -7.48417, -13.119, 31.0109, 36.1415, 83.9129, -102.309
9.27115, 66, -7.29407, -13.0497, 30.9072, 36.0112, 83.9481, -102.182
9.28037, 66, -7.00826, -12.9448, 30.751, 35.8138, 84.0007, -101.992
9.28722, 67, -6.91281, -12.9095, 30.6987, 35.7474, 84.0184, -101.929
9.29696, 67, -6.62548, -12.8031, 30.5409, 35.5464, 84.0732, -101.739
9.30314, 67, -6.52933, -12.7673, 30.4881, 35.4788, 84.0919, -101.675
9.31273, 67, -6.23981, -12.659, 30.3295, 35.2744, 84.1474, -101.483
9.32074, 67, -6.04559, -12.5861, 30.2237, 35.1366, 84.185, -101.356
9.32868, 67, -5.85061, -12.5126, 30.1176, 34.9976, 84.2239, -101.228
9.33675, 67, -5.65517, -12.4385, 30.011, 34.8576, 84.2628, -101.1
9.34494, 68, -5.45929, -12.364, 29.904, 34.7163, 84.3017, -100.972
9.3568, 68, -5.2627, -12.2888, 29.7964, 34.5739, 84.3417, -100.779
9.3601, 68, -5.16408, -12.2511, 29.7426, 34.5022, 84.3622, -100.779
9.36728, 68, -4.96629, -12.1752, 29.635, 34.358, 84.4033, -100.651
9.3762, 68, -4.7677, -12.0988, 29.5273, 34.2128, 84.4441, -100.522
9.38315, 68, -4.56854, -12.0219, 29.4193, 34.0663, 84.4859, -100.393
9.39122, 68, -4.36894, -11.9444, 29.3109, 33.9187, 84.5288, -100.264
9.39918, 68, -4.16902, -11.8664, 29.2019, 33.77, 84.5713, -100.134
9.41045, 69, -3.86904, -11.7484, 29.0383, 33.5447, 84.6366, -99.9399
9.41866, 69, -3.66895, -11.6692, 28.9293, 33.3932, 84.6812, -99.8104
9.42332, 69, -3.56878, -11.6294, 28.8747, 33.3171, 84.7034, -99.7456
9.43112, 69, -3.3678, -11.5493, 28.7655, 33.1641, 84.7478, -99.6155
9.43921, 69, -3.1655, -11.4686, 28.6558, 33.0101, 84.7937, -99.4855
9.44715, 69, -2.96204, -11.3874, 28.5457, 32.855, 84.8399, -99.3549
9.45528, 69, -2.75787, -11.3055, 28.4353, 32.6987, 84.8859, -99.2241
9.46315, 70, -2.55348, -11.2232, 28.325, 32.5412, 84.9333, -99.0934
9.47141, 70, -2.3486, -11.1404, 28.2148, 32.3829, 84.9814, -98.9623
9.4802, 70, -2.143, -11.057, 28.1045, 32.2234, 85.0289, -98.831
9.48816, 70, -1.9365, -10.9732, 27.994, 32.0629, 85.0778, -98.6998
9.49614, 70, -1.72923, -10.8888, 27.8831, 31.9015, 85.1274, -98.5686
9.50421, 70, -1.52122, -10.8039, 27.772, 31.739, 85.1765, -98.437
9.51214, 70, -1.31263, -10.7184, 27.6611, 31.5754, 85.2273, -98.3052
9.51923, 71, -1.10397, -10.6325, 27.5502, 31.4109, 85.2787, -98.173
9.5272, 71, -0.895481, -10.5461, 27.4394, 31.2454, 85.3296, -98.0407
9.53516, 71, -0.687602, -10.4592, 27.3283, 31.0788, 85.3821, -97.9083
9.5436, 71, -0.479483, -10.3717, 27.2169, 30.9111, 85.4347, -97.7757
9.5523, 71, -0.270476, -10.2838, 27.1053, 30.7426, 85.4875, -97.643
9.55918, 71, -0.0606103, -10.1954, 26.994, 30.5732, 85.5418, -97.5102
9.5705, 71, 0.150127, -10.1065, 26.8828, 30.403, 85.6228, -97.3104
9.57628, 72, 0.361674, -10.017, 26.7716, 30.2318, 85.6505, -97.2437
9.58324, 72, 0.574128, -9.92704, 26.6604, 30.0596, 85.7062, -97.1101
9.59126, 72, 0.787246, -9.83654, 26.5488, 29.8867, 85.7615, -96.9762
9.59932, 72, 1.00092, -9.7454, 26.4372, 29.7129, 85.8183, -96.8422
9.60725, 72, 1.21496, -9.65377, 26.3258, 29.5384, 85.8752, -96.7081
9.61515, 72, 1.42977, -9.5617, 26.2148, 29.363, 85.9323, -96.5738
9.62351, 72, 1.64556, -9.4691, 26.104, 29.1867, 85.9909, -96.4397
9.63221, 72, 1.86179, -9.37596, 25.993, 29.0097, 86.0491, -96.3054
9.6392, 73, 2.07758, -9.28226, 25.8817, 28.8318, 86.1086, -96.171
9.64733, 73, 2.29276, -9.18803, 25.7703, 28.6531, 86.1683, -96.0362
9.65543, 73, 2.50754, -9.09322, 25.6594, 28.4735, 86.2284, -95.901
9.66336, 73, 2.7223, -8.99805, 25.5488, 28.2934, 86.2899, -95.7658
9.67177, 73, 2.93745, -8.90227, 25.4384, 28.1125, 86.3511, -95.6303
9.68051, 73, 3.15342, -8.80598, 25.3279, 27.931, 86.414, -95.4946
9.68753, 73, 3.37056, -8.70919, 25.2173, 27.7489, 86.4764, -95.3592
9.69565, 74, 3.58851, -8.61184, 25.1068, 27.5659, 86.54, -95.2232
9.70463, 74, 3.80694, -8.51387, 24.9966, 27.3822, 86.6039, -95.087
9.71167, 74, 4.02565, -8.41537, 24.8869, 27.1979, 86.6684, -94.9505
9.72025, 74, 4.24506, -8.31632, 24.7774, 27.0132, 86.7342, -94.8137
9.72867, 74, 4.46563, -8.21659, 24.6679, 26.8279, 86.7996, -94.6769
9.73568, 74, 4.57631, -8.16652, 24.6131, 26.7351, 86.8332, -94.5398
9.74561, 74, 4.90856, -8.01556, 24.4488, 26.4556, 86.9335, -94.4024
9.75402, 75, 5.12935, -7.91431, 24.3398, 26.2687, 87.002, -94.2652
9.76125, 75, 5.34968, -7.81242, 24.2312, 26.0814, 87.0701, -94.1279
9.76719, 75, 5.45954, -7.76125, 24.1771, 25.9876, 87.1047, -94.059
9.77632, 75, 5.78812, -7.60687, 24.0149, 25.7051, 87.2096, -93.8523
9.78313, 75, 5.89747, -7.55511, 23.9608, 25.6108, 87.2448, -93.7833
9.7924, 75, 6.22635, -7.39894, 23.7986, 25.3274, 87.3516, -93.5758
9.79927, 75, 6.3364, -7.34664, 23.7447, 25.2328, 87.3872, -93.5066
9.80717, 75, 6.55715, -7.24167, 23.6374, 25.0432, 87.4598, -93.3678
9.81665, 76, 6.8888, -7.08303, 23.4773, 24.7582, 87.5695, -93.1595
9.82469, 76, 7.11035, -6.97644, 23.3708, 24.5681, 87.6434, -93.0205
9.83265, 76, 7.33282, -6.86918, 23.2643, 24.3775, 87.7181, -92.8811
9.8409, 76, 7.55619, -6.76127, 23.1579, 24.1866, 87.7934, -92.7413
9.84876, 76, 7.78004, -6.65276, 23.052, 23.9955, 87.8698, -92.6012
9.85672, 76, 7.89207, -6.59828, 22.9467, 23.8044, 87.9467, -92.4608
9.86477, 76, 8.11602, -6.48893, 22.8943, 23.6128, 88.0246, -92.3204
9.87299, 77, 8.33941, -6.37896, 22.7897, 23.4213, 88.1031, -92.1796
9.87937, 77, 8.56181, -6.26822, 22.6852, 23.3254, 88.1428, -92.1093
9.8882, 77, 8.78282, -6.15678, 22.5807, 23.1336, 88.2221, -91.9686
9.89614, 77, 9.00303, -6.04482, 22.4765, 22.9419, 88.3025, -91.8275
9.90414, 77, 9.22331, -5.93224, 22.3729, 22.7501, 88.3834, -91.6861
9.9122, 77, 9.44383, -5.81909, 22.27, 22.5586, 88.4655, -91.5444
9.92144, 77, 9.77495, -5.6482, 22.1164, 22.271, 88.5893, -91.3313
9.92831, 78, 9.88552, -5.59081, 22.0652, 22.1752, 88.631, -91.26
9.93613, 78, 10.1072, -5.47549, 21.9631, 21.9839, 88.7151, -91.1174
9.9443, 78, 10.3295, -5.35949, 21.8611, 21.7925, 88.7997, -90.9748
9.95213, 78, 10.552, -5.24288, 21.7596, 21.6014, 88.8851, -90.832
9.96012, 78, 10.775, -5.12567, 21.6589, 21.4104, 88.9714, -90.6887
9.97153, 78, 11.1096, -4.94878, 21.5088, 21.1244, 89.1022, -90.4731
9.97625, 78, 11.221, -4.88948, 21.4589, 21.0291, 89.146, -90.4009
9.98318, 78, 11.443, -4.77018, 21.3593, 20.8389, 89.2344, -90.2567
9.99118, 79, 11.6638, -4.65012, 21.2598, 20.6488, 89.3238, -90.1122
9.99913, 79, 11.8836, -4.52946, 21.1608, 20.4589, 89.4134, -89.9672
10.0072, 79, 12.1026, -4.40814, 21.0624, 20.2695, 89.5042, -89.8223
10.0151, 79, 12.321, -4.28633, 20.9646, 20.0804, 89.5958, -89.6771
10.0233, 79, 12.5387, -4.16374, 20.8673, 19.8919, 89.688, -89.5316
10.0321, 79, 12.7563, -4.04018, 20.7703, 19.7036, 89.7811, -89.3857
10.0392, 79, 12.9745, -3.91583, 20.6736, 19.5161, 89.8751, -89.2393
10.0471, 80, 13.1927, -3.79076, 20.5773, 19.329, 89.9696, -89.0927
10.0554, 80, 13.4109, -3.66507, 20.4813, 19.1425, 90.0649, -88.9459
10.0632, 80, 13.6297, -3.53878, 20.3861, 18.9567, 90.1612, -88.7986
10.0712, 80, 13.8488, -3.41175, 20.2914, 18.7713, 90.2581, -88.6511
10.0797, 80, 14.0679, -3.2838, 20.1971, 18.5867, 90.3559, -88.5033
10.0873, 80, 14.2861, -3.15499, 20.1032, 18.4027, 90.4546, -88.3549
10.0965, 80, 14.5029, -3.02548, 20.0096, 18.2193, 90.5538, -88.2061
10.1043, 81, 14.7188, -2.89536, 19.9163, 18.0365, 90.6541, -88.0567
10.1121, 81, 14.9337, -2.76462, 19.8236, 17.8545, 90.7551, -87.9072
10.1193, 81, 15.1474, -2.63296, 19.7314, 17.6733, 90.8567, -87.7572
10.1271, 81, 15.36, -2.50042, 19.6397, 17.4929, 90.9592, -87.6072
10.1362, 81, 15.572, -2.36701, 19.5485, 17.3133, 91.0627, -87.4569
10.1432, 81, 15.7838, -2.23288, 19.4577, 17.1344, 91.1667, -87.3061
10.1524, 81, 15.9954, -2.09811, 19.3672, 16.9566, 91.2716, -87.1547
10.1605, 81, 16.2066, -1.96258, 19.2771, 16.7795, 91.3776, -87.003
10.1681, 82, 16.4176, -1.82604, 19.1873, 16.6034, 91.4843, -86.8509
10.1754, 82, 16.6287, -1.68852, 19.0981, 16.4285, 91.592, -86.6982
10.1837, 82, 16.8399, -1.5502, 19.0095, 16.2542, 91.7004, -86.5453
10.1922, 82, 17.0506, -1.41118, 18.9214, 16.0814, 91.8096, -86.392
10.1997, 82, 17.2602, -1.27145, 18.8337, 15.9094, 91.92, -86.2382
10.2082, 82, 17.469, -1.13064, 18.7463, 15.7385, 92.0306, -86.0837
10.2157, 82, 17.6767, -0.988843, 18.6593, 15.5688, 92.1425, -85.9287
10.2245, 83, 17.883, -0.846236, 18.5726, 15.4, 92.2553, -85.7733
10.233, 83, 18.0877, -0.702985, 18.4863, 15.2324, 92.3687, -85.6175
10.2401, 83, 18.2911, -0.559136, 18.4006, 15.0662, 92.4833, -85.4613
10.2479, 83, 18.3924, -0.486921, 18.3579, 14.9835, 92.5984, -85.3049
10.2562, 83, 18.6954, -0.268615, 18.2305, 14.7373, 92.7144, -85.1479
10.2632, 83, 18.7962, -0.195341, 18.1882, 14.6558, 92.7729, -85.0692
10.2726, 83, 19.0976, 0.0255466, 18.0618, 14.4132, 92.949, -84.832
10.2846, 84, 19.3983, 0.248109, 17.9363, 14.1737, 93.1274, -84.594
10.2871, 84, 19.3983, 0.248109, 17.9363, 14.1737, 93.1274, -84.594
10.2953, 84, 19.5983, 0.397944, 17.8531, 14.0157, 93.2472, -84.4346
10.3046, 84, 19.8972, 0.624567, 17.7292, 13.7812, 93.4286, -84.1949
10.3111, 84, 19.9964, 0.700498, 17.6881, 13.7037, 93.4894, -84.1147
10.3225, 84, 20.2925, 0.929229, 17.5657, 13.4733, 93.6731, -83.8729
10.3292, 84, 20.4886, 1.08288, 17.4845, 13.3215, 93.7965, -83.7112
10.3373, 85, 20.6834, 1.23771, 17.4037, 13.1711, 93.9207, -83.5487
10.3432, 85, 20.7802, 1.31542, 17.3634, 13.0966, 93.9831, -83.4674
10.3529, 85, 21.0683, 1.54934, 17.2431, 12.8748, 94.1712, -83.2227
10.3607, 85, 21.1637, 1.62756, 17.2032, 12.7289, 94.2976, -83.0591
10.3696, 85, 21.3533, 1.78479, 17.1238, 12.6566, 94.3608, -82.977
10.3758, 85, 21.5417, 1.94298, 17.0449, 12.5131, 94.4882, -82.8126
10.3856, 85, 21.823, 2.18199, 16.9272, 12.301, 94.6805, -82.5647
10.3912, 85, 21.9163, 2.26189, 16.8882, 12.2311, 94.745, -82.4819
10.3992, 86, 22.1026, 2.42203, 16.8106, 12.0924, 94.8747, -82.3158
10.4071, 86, 22.2882, 2.58317, 16.7334, 11.9553, 95.0049, -82.1491
10.4152, 86, 22.4732, 2.74557, 16.6566, 11.8199, 95.136, -81.9822
10.4231, 86, 22.6573, 2.90876, 16.5802, 11.6863, 95.2676, -81.8145
10.4311, 86, 22.8406, 3.07232, 16.5042, 11.5543, 95.4001, -81.6463
10.4392, 86, 23.0229, 3.23658, 16.4289, 11.424, 95.5329, -81.4775
10.4475, 86, 23.2042, 3.40203, 16.354, 11.2954, 95.6665, -81.3083
10.4563, 87, 23.3841, 3.56847, 16.2797, 11.1685, 95.8006, -81.1387
10.4641, 87, 23.5628, 3.7353, 16.2058, 11.0431, 95.9353, -80.9686
10.4722, 87, 23.7399, 3.90221, 16.1324, 10.9194, 96.0705, -80.7984
10.4792, 87, 23.915, 4.06968, 16.0595, 10.7977, 96.2058, -80.6273
10.4871, 87, 24.0886, 4.2381, 15.987, 10.6775, 96.3418, -80.4557
10.4986, 87, 24.3462, 4.49131, 15.8791, 10.5007, 96.5461, -80.1976
10.5043, 87, 24.4316, 4.57567, 15.8434, 10.4427, 96.6145, -80.1114
10.5121, 88, 24.6019, 4.74481, 15.7725, 10.3278, 96.7511, -79.9387
10.5192, 88, 24.7712, 4.91506, 15.7021, 10.2147, 96.8882, -79.7658
10.5271, 88, 24.9397, 5.08622, 15.6324, 10.1035, 97.0253, -79.5923
10.5352, 88, 25.1072, 5.25751, 15.5633, 9.9938, 97.1628, -79.4181
10.5431, 88, 25.2737, 5.42887, 15.4947, 9.88601, 97.3003, -79.2435
10.5513, 88, 25.4396, 5.60106, 15.4267, 9.78011, 97.4382, -79.0685
10.5601, 88, 25.6044, 5.77423, 15.3592, 9.67595, 97.5762, -78.8934
10.5672, 88, 25.7683, 5.94775, 15.2923, 9.57385, 97.7143, -78.7179
10.5752, 89, 25.9313, 6.12096, 15.226, 9.47328, 97.8521, -78.5423
10.5832, 89, 26.0931, 6.29473, 15.1603, 9.37438, 97.9902, -78.3662
10.5913, 89, 26.2534, 6.46931, 15.0951, 9.27755, 98.1283, -78.1895
10.5993, 89, 26.4121, 6.64418, 15.0306, 9.18222, 98.2665, -78.0127
10.6072, 89, 26.5693, 6.81867, 14.9668, 9.0888, 98.4051, -77.8352
10.6153, 89, 26.7248, 6.99314, 14.9036, 8.99744, 98.5435, -77.6578
10.6246, 89, 26.8789, 7.16845, 14.841, 8.90755, 98.682, -77.4801
10.6322, 90, 27.0316, 7.34431, 14.7791, 8.81963, 98.8204, -77.3019
10.6401, 90, 27.1828, 7.51997, 14.7176, 8.73346, 98.9589, -77.1234
10.6482, 90, 27.333, 7.69552, 14.6568, 8.64926, 99.097, -76.9444
10.6552, 90, 27.4818, 7.87187, 14.5966, 8.5667, 99.2355, -76.7653
10.6643, 90, 27.6298, 8.0491, 14.537, 8.4857, 99.3735, -76.5858
10.6714, 90, 27.7769, 8.22618, 14.4781, 8.40685, 99.5115, -76.4064
10.6803, 90, 27.9233, 8.40275, 14.4199, 8.32948, 99.649, -76.2266
10.6879, 91, 28.0691, 8.57981, 14.3622, 8.25415, 99.7868, -76.0461
10.6965, 91, 28.214, 8.75771, 14.3052, 8.18054, 99.9241, -75.8655
10.7036, 91, 28.3579, 8.93562, 14.2487, 8.10918, 100.062, -75.6846
10.7117, 91, 28.5008, 9.11298, 14.1929, 8.039, 100.199, -75.5036
10.7207, 91, 28.6424, 9.29071, 14.1376, 7.97106, 100.336, -75.3224
10.7281, 91, 28.7828, 9.46939, 14.0829, 7.9043, 100.473, -75.1407
10.7363, 91, 28.9218, 9.64839, 14.0286, 7.83995, 100.61, -74.9583
10.7437, 91, 28.9908, 9.73771, 14.0017, 7.77709, 100.747, -74.7757
10.7523, 92, 29.1959, 10.0053, 13.922, 7.7157, 100.884, -74.5926
10.7592, 92, 29.2637, 10.0949, 13.8956, 7.68616, 100.953, -74.501
10.7681, 92, 29.4646, 10.3646, 13.8174, 7.59875, 101.158, -74.2258
10.7751, 92, 29.5309, 10.4544, 13.7915, 7.57085, 101.226, -74.1339
10.7843, 92, 29.7275, 10.7233, 13.7149, 7.48935, 101.431, -73.8576
10.7912, 92, 29.7922, 10.8133, 13.6896, 7.46268, 101.499, -73.7652
10.8006, 92, 29.9842, 11.0841, 13.6147, 7.38693, 101.703, -73.4874
10.8089, 93, 30.111, 11.2645, 13.5653, 7.33791, 101.839, -73.3016
10.8151, 93, 30.1741, 11.3545, 13.5408, 7.31412, 101.907, -73.2088
10.8245, 93, 30.3621, 11.6254, 13.468, 7.24694, 102.111, -72.9293
10.8311, 93, 30.4243, 11.7163, 13.444, 7.22527, 102.179, -72.8358
10.8407, 93, 30.6094, 11.9889, 13.3727, 7.16192, 102.383, -72.5546
10.8505, 93, 30.7317, 12.1704, 13.3259, 7.12299, 102.518, -72.3667
10.857, 93, 30.8531, 12.3528, 13.2796, 7.08579, 102.654, -72.1783
10.8655, 94, 30.9735, 12.5362, 13.2337, 7.04953, 102.79, -71.9896
10.8712, 94, 31.0333, 12.6279, 13.2109, 7.03207, 102.857, -71.895
10.8801, 94, 31.1522, 12.8109, 13.1657, 6.99915, 102.993, -71.7056
10.8881, 94, 31.2699, 12.9938, 13.1211, 6.96826, 103.128, -71.5154
10.8961, 94, 31.3863, 13.1772, 13.0769, 6.93904, 103.263, -71.325
10.9041, 94, 31.5013, 13.3609, 13.0332, 6.91106, 103.398, -71.1342
10.9121, 94, 31.615, 13.5438, 12.9902, 6.88467, 103.532, -70.943
10.9201, 94, 31.7275, 13.7267, 12.9475, 6.86056, 103.667, -70.7514
10.9271, 95, 31.8388, 13.9103, 12.9054, 6.83842, 103.801, -70.5592
10.9351, 95, 31.9489, 14.0945, 12.8637, 6.81828, 103.935, -70.3664
10.9431, 95, 32.0578, 14.2781, 12.8226, 6.79975, 104.069, -70.1732
10.9521, 95, 32.1655, 14.4615, 12.7822, 6.78286, 104.202, -69.9796
10.9592, 95, 32.2718, 14.6456, 12.7421, 6.76735, 104.335, -69.7859
10.9671, 95, 32.3769, 14.83, 12.7026, 6.75339, 104.468, -69.5918
10.9761, 95, 32.4809, 15.0138, 12.6638, 6.74109, 104.6, -69.3972
10.9842, 96, 32.5839, 15.1973, 12.6256, 6.73073, 104.732, -69.2021
10.9921, 96, 32.6861, 15.3816, 12.5878, 6.72224, 104.863, -69.0067
11.0002, 96, 32.7871, 15.5662, 12.5506, 6.71545, 104.993, -68.8109
11.0082, 96, 32.8873, 15.7499, 12.514, 6.71067, 105.124, -68.6151
11.0161, 96, 32.9863, 15.9332, 12.478, 6.70748, 105.253, -68.4187
11.0251, 96, 33.0841, 16.1168, 12.4427, 6.70576, 105.382, -68.2219
11.0321, 96, 33.1809, 16.3008, 12.4079, 6.70515, 105.511, -68.0248
11.0392, 97, 33.277, 16.484, 12.3737, 6.70546, 105.64, -67.8276
11.0474, 97, 33.3723, 16.667, 12.3403, 6.70748, 105.767, -67.6301
11.0552, 97, 33.4665, 16.8504, 12.3074, 6.71144, 105.895, -67.4326
11.0632, 97, 33.5598, 17.0341, 12.2751, 6.71713, 106.021, -67.2345
11.0714, 97, 33.652, 17.2171, 12.2434, 6.72456, 106.147, -67.036
11.0792, 97, 33.7431, 17.3993, 12.2124, 6.73397, 106.272, -66.8375
11.0873, 97, 33.8333, 17.5819, 12.1818, 6.74523, 106.397, -66.6387
11.0952, 97, 33.9225, 17.7647, 12.1519, 6.75847, 106.522, -66.4399
11.1033, 98, 34.0108, 17.9466, 12.1227, 6.77348, 106.645, -66.2407
11.1112, 98, 34.0982, 18.1279, 12.094, 6.78998, 106.768, -66.0411
11.1193, 98, 34.1845, 18.3097, 12.0658, 6.80771, 106.891, -65.841
11.1271, 98, 34.2699, 18.4918, 12.0383, 6.82665, 107.012, -65.641
11.1352, 98, 34.3542, 18.6733, 12.0114, 6.84703, 107.134, -65.4407
11.1432, 98, 34.4377, 18.8539, 11.985, 6.86918, 107.254, -65.2402
11.1515, 98, 34.5202, 19.0347, 11.9591, 6.89324, 107.374, -65.0395
11.1593, 99, 34.602, 19.2158, 11.934, 6.91898, 107.494, -64.8382
11.1674, 99, 34.6829, 19.3964, 11.9093, 6.9458, 107.612, -64.6368
11.1754, 99, 34.7629, 19.5762, 11.8853, 6.97353, 107.73, -64.4348
11.1834, 99, 34.842, 19.7561, 11.8617, 7.0026, 107.848, -64.2329
11.1916, 99, 34.9202, 19.9364, 11.8387, 7.03364, 107.964, -64.0307
11.2002, 99, 34.9976, 20.116, 11.8165, 7.06641, 108.08, -63.8283
11.2076, 99, 35.0741, 20.2945, 11.7948, 7.09996, 108.195, -63.6257
11.2162, 100, 35.1498, 20.4728, 11.7739, 7.13464, 108.31, -63.423
11.2246, 100, 35.2249, 20.6513, 11.7535, 7.17107, 108.423, -63.2204
11.2317, 100, 35.299, 20.8293, 11.7337, 7.2093, 108.535, -63.018
11.2402, 100, 35.3724, 21.0062, 11.7148, 7.24796, 108.647, -62.8154
11.2488, 100, 35.4087, 21.0946, 11.7055, 7.26754, 108.702, -62.7141
11.2561, 100, 35.5166, 21.3595, 11.6791, 7.329, 108.867, -62.4106
11.2632, 100, 35.5523, 21.4476, 11.6707, 7.35032, 108.921, -62.3095
11.2725, 101, 35.6583, 21.7099, 11.6466, 7.41469, 109.082, -62.007
11.2791, 101, 35.6934, 21.7967, 11.639, 7.43664, 109.135, -61.9064
11.2871, 101, 35.7629, 21.97, 11.6243, 7.482, 109.24, -61.7053
11.2967, 101, 35.8658, 22.2285, 11.6037, 7.55077, 109.394, -61.4048
11.3051, 101, 35.9336, 22.3988, 11.5911, 7.59787, 109.495, -61.2053
11.3125, 101, 36.0008, 22.568, 11.5792, 7.64656, 109.594, -61.0066
11.3191, 101, 36.0342, 22.6524, 11.5736, 7.67083, 109.643, -60.9075
11.3294, 101, 36.1338, 22.9047, 11.5582, 7.74503, 109.788, -60.611
11.3351, 102, 36.1668, 22.9882, 11.5534, 7.77054, 109.836, -60.5124
11.345, 102, 36.2649, 23.2365, 11.5402, 7.84697, 109.976, -60.2174
11.3527, 102, 36.3296, 23.4016, 11.5322, 7.89933, 110.068, -60.0213
11.3607, 102, 36.3935, 23.5667, 11.5247, 7.95238, 110.158, -59.826
11.3688, 102, 36.4253, 23.6491, 11.5179, 8.00572, 110.248, -59.6308
11.3766, 102, 36.4882, 23.8132, 11.5148, 8.03318, 110.292, -59.5332
11.3841, 102, 36.5505, 23.9769, 11.5089, 8.08879, 110.38, -59.3378
11.3921, 103, 36.6121, 24.141, 11.5033, 8.14476, 110.468, -59.1421
11.4001, 103, 36.6731, 24.3056, 11.4981, 8.20297, 110.556, -58.9457
11.4081, 103, 36.7334, 24.4699, 11.4932, 8.26185, 110.644, -58.7485
11.4161, 103, 36.7933, 24.633, 11.4884, 8.32248, 110.733, -58.5506
11.4241, 103, 36.8528, 24.7949, 11.4841, 8.38467, 110.821, -58.3517
11.4321, 103, 36.9116, 24.9565, 11.4801, 8.44749, 110.909, -58.1525
11.4401, 103, 36.9701, 25.1169, 11.4768, 8.51259, 110.995, -57.9538
11.4481, 104, 37.028, 25.2751, 11.4745, 8.57756, 111.079, -57.7562
11.4561, 104, 37.0854, 25.431, 11.4733, 8.64451, 111.16, -57.5608
11.4641, 104, 37.1422, 25.5851, 11.4732, 8.71111, 111.237, -57.368
11.4721, 104, 37.1983, 25.7374, 11.4743, 8.77879, 111.309, -57.1781
11.4801, 104, 37.2538, 25.8872, 11.4772, 8.84628, 111.376, -56.9916
11.4872, 104, 37.3089, 26.0345, 11.4815, 8.91459, 111.44, -56.808
11.4951, 104, 37.3636, 26.1791, 11.4871, 8.98272, 111.499, -56.6275
11.5041, 104, 37.4179, 26.3216, 11.4936, 9.05123, 111.555, -56.4491
11.5121, 104, 37.472, 26.4624, 11.5008, 9.12025, 111.61, -56.2726
11.5201, 104, 37.5259, 26.6013, 11.5083, 9.18956, 111.662, -56.0969
11.5271, 104, 37.5796, 26.7386, 11.516, 9.25945, 111.714, -55.9219
11.5352, 104, 37.6331, 26.8748, 11.5238, 9.32957, 111.766, -55.7472
11.5431, 104, 37.6862, 27.0107, 11.5318, 9.40049, 111.816, -55.5729
11.5511, 104, 37.7392, 27.1466, 11.5399, 9.47146, 111.867, -55.3992
11.5592, 104, 37.7922, 27.2826, 11.5479, 9.54332, 111.918, -55.2256
11.5673, 104, 37.8448, 27.4187, 11.556, 9.61535, 111.967, -55.0522
11.5751, 104, 37.8973, 27.5548, 11.5641, 9.6881, 112.018, -54.8788
11.5832, 104, 37.9498, 27.6912, 11.5721, 9.76113, 112.069, -54.7056
11.5915, 104, 38.002, 27.8281, 11.5799, 9.83471, 112.118, -54.5327
11.5993, 104, 38.0541, 27.9653, 11.5879, 9.90853, 112.168, -54.36
11.6072, 104, 38.1061, 28.1025, 11.5959, 9.98306, 112.218, -54.1879
11.6157, 104, 38.1577, 28.2396, 11.6038, 10.058, 112.267, -54.0157
11.6241, 104, 38.2092, 28.3765, 11.6118, 10.1333, 112.317, -53.8438
11.6311, 104, 38.2606, 28.5138, 11.6196, 10.2093, 112.366, -53.6718
11.6399, 104, 38.3117, 28.6512, 11.6273, 10.2857, 112.415, -53.5001
11.6481, 104, 38.3624, 28.7886, 11.6349, 10.3627, 112.465, -53.3286
11.6552, 104, 38.4129, 28.9258, 11.6426, 10.4398, 112.514, -53.1575
11.6641, 104, 38.4632, 29.063, 11.6504, 10.5178, 112.562, -52.9865
11.6722, 104, 38.5132, 29.2003, 11.658, 10.5959, 112.612, -52.8155
11.6794, 104, 38.5631, 29.3377, 11.6656, 10.6748, 112.66, -52.6448
11.6883, 104, 38.6126, 29.4753, 11.6732, 10.7536, 112.708, -52.4742
11.6955, 104, 38.662, 29.613, 11.6806, 10.8334, 112.757, -52.3038
11.7036, 104, 38.7113, 29.7508, 11.6878, 10.9133, 112.805, -52.1338
11.7123, 104, 38.7603, 29.8888, 11.6952, 10.9937, 112.853, -51.964
11.7198, 104, 38.8091, 30.0271, 11.7026, 11.0748, 112.902, -51.7944
11.7282, 104, 38.8579, 30.1655, 11.7099, 11.1562, 112.949, -51.6246
11.7357, 104, 38.9066, 30.3042, 11.7172, 11.2383, 112.997, -51.455
11.7442, 104, 38.955, 30.4429, 11.7245, 11.3205, 113.045, -51.2855
11.7517, 104, 38.9791, 30.5122, 11.7282, 11.3619, 113.092, -51.1162
11.7602, 104, 39.0515, 30.72, 11.7389, 11.4864, 113.139, -50.9474
11.7671, 104, 39.0754, 30.7893, 11.7424, 11.5282, 113.163, -50.8631
11.7751, 104, 39.1231, 30.9279, 11.7494, 11.6119, 113.211, -50.6943
11.7843, 104, 39.1938, 31.1345, 11.76, 11.7385, 113.281, -50.4416
11.7911, 104, 39.217, 31.2028, 11.7635, 11.7809, 113.304, -50.3575
11.8003, 104, 39.2846, 31.4046, 11.7736, 11.9077, 113.374, -50.107
11.8071, 104, 39.3065, 31.4702, 11.7767, 11.9499, 113.397, -50.0242
