rpiRobotics/ARM-21-02-F-19-Robot-Motion-Program/data_performance_abb/curve_2/baseline/100L/realrobot/bisect/run_0realrobot_curve_exe_v200.0_z10.csv
timestamp, cmd_num, J1, J2, J3, J4, J5, J6
0.001048, -1, 39.6324, 32.4425, 11.8325, 12.5483, 113.716, -48.8696
0.005111, -1, 39.6324, 32.4425, 11.8325, 12.5483, 113.716, -48.8695
0.007206, -1, 39.6324, 32.4425, 11.8325, 12.5483, 113.716, -48.8695
0.030157, -1, 39.6324, 32.4425, 11.8325, 12.5483, 113.716, -48.8695
0.031463, -1, 39.6324, 32.4425, 11.8325, 12.5483, 113.716, -48.8695
0.03404, -1, 39.6324, 32.4425, 11.8325, 12.5483, 113.716, -48.8694
0.040072, -1, 39.6324, 32.4425, 11.8325, 12.5483, 113.716, -48.8695
0.048074, -1, 39.6323, 32.4425, 11.8324, 12.5483, 113.716, -48.8695
0.056015, -1, 39.6318, 32.4424, 11.8325, 12.5483, 113.716, -48.8695
0.064009, -1, 39.6295, 32.4419, 11.8324, 12.5483, 113.716, -48.8695
0.071004, -1, 39.6241, 32.4404, 11.8324, 12.5483, 113.715, -48.8698
0.079013, -1, 39.6152, 32.4372, 11.8323, 12.5483, 113.715, -48.8713
0.088024, -1, 39.6019, 32.4318, 11.8323, 12.5483, 113.714, -48.8756
0.095004, -1, 39.5821, 32.4232, 11.8323, 12.5483, 113.71, -48.8862
0.10403, -1, 39.5535, 32.4104, 11.8328, 12.5483, 113.703, -48.9065
0.113076, -1, 39.515, 32.3926, 11.8349, 12.5483, 113.691, -48.9397
0.119003, -1, 39.4656, 32.3686, 11.8399, 12.5483, 113.672, -48.9899
0.128035, -1, 39.4035, 32.338, 11.8483, 12.5483, 113.645, -49.0613
0.136009, -1, 39.3281, 32.3, 11.8611, 12.5484, 113.607, -49.1553
0.144026, -1, 39.239, 32.2541, 11.879, 12.5488, 113.561, -49.275
0.152052, -1, 39.136, 32.2004, 11.9014, 12.5495, 113.504, -49.42
0.159006, -1, 39.0189, 32.1389, 11.9282, 12.5505, 113.437, -49.5898
0.168019, -1, 38.8884, 32.0699, 11.9589, 12.5521, 113.361, -49.7822
0.176025, -1, 38.7457, 31.9945, 11.9929, 12.554, 113.277, -49.9944
0.184076, -1, 38.5914, 31.9131, 12.0291, 12.5561, 113.187, -50.2223
0.191123, -1, 38.4272, 31.8268, 12.0669, 12.5585, 113.092, -50.4624
0.199919, -1, 38.255, 31.7365, 12.1057, 12.5608, 112.994, -50.7109
0.208105, -1, 38.0766, 31.6432, 12.1448, 12.5632, 112.894, -50.9643
0.215265, -1, 37.8931, 31.5478, 12.1836, 12.5657, 112.793, -51.2212
0.224323, -1, 37.7056, 31.4508, 12.2225, 12.568, 112.691, -51.4798
0.231052, -1, 37.5154, 31.3531, 12.2613, 12.5704, 112.588, -51.7393
0.239145, -1, 37.3238, 31.2551, 12.3001, 12.5729, 112.485, -51.9988
0.247051, -1, 37.1317, 31.1572, 12.339, 12.5752, 112.383, -52.2586
0.256039, -1, 36.9395, 31.0594, 12.3777, 12.5779, 112.28, -52.5188
0.263586, -1, 36.7476, 30.9616, 12.4165, 12.5804, 112.176, -52.7793
0.271273, -1, 36.5559, 30.8639, 12.4553, 12.583, 112.074, -53.0395
0.279295, -1, 36.3644, 30.7662, 12.4942, 12.5856, 111.971, -53.2999
0.287516, -1, 36.173, 30.6684, 12.533, 12.5881, 111.868, -53.5603
0.296923, -1, 35.9815, 30.5705, 12.5719, 12.5907, 111.765, -53.821
0.304103, -1, 35.79, 30.4725, 12.6108, 12.5933, 111.662, -54.0816
0.311974, -1, 35.5982, 30.3745, 12.6497, 12.5958, 111.559, -54.3418
0.320945, -1, 35.4062, 30.2763, 12.6885, 12.5984, 111.456, -54.6023
0.328117, -1, 35.2138, 30.178, 12.7273, 12.601, 111.352, -54.8629
0.335731, -1, 35.0214, 30.0797, 12.7663, 12.6035, 111.249, -55.1237
0.344911, -1, 34.8291, 29.9813, 12.8051, 12.6061, 111.146, -55.3843
0.352019, -1, 34.6368, 29.8828, 12.8439, 12.6087, 111.043, -55.6451
0.359837, -1, 34.5407, 29.8336, 12.8634, 12.61, 110.992, -55.7755
0.368949, -1, 34.2524, 29.6861, 12.9219, 12.6139, 110.837, -56.1669
0.376159, -1, 34.0605, 29.5879, 12.9608, 12.6164, 110.734, -56.4275
0.383092, -1, 33.9646, 29.5388, 12.9803, 12.6178, 110.683, -56.558
0.393141, -1, 33.677, 29.3914, 13.0386, 12.6217, 110.528, -56.9493
0.399007, -1, 33.5811, 29.3423, 13.0581, 12.623, 110.476, -57.0798
0.408489, -1, 33.2927, 29.1948, 13.1166, 12.627, 110.322, -57.4714
0.416457, -1, 33.0999, 29.0962, 13.1555, 12.6296, 110.218, -57.7323
0.424595, -1, 32.9071, 28.9978, 13.1943, 12.6322, 110.115, -57.9934
0.432548, -1, 32.714, 28.8992, 13.2333, 12.6349, 110.012, -58.2547
0.440542, -1, 32.5205, 28.8006, 13.2721, 12.6376, 109.909, -58.5161
0.446994, -1, 32.4236, 28.7512, 13.2915, 12.639, 109.858, -58.6466
0.456843, -1, 32.1327, 28.6033, 13.3499, 12.643, 109.703, -59.0383
0.464569, -1, 32.0356, 28.5539, 13.3888, 12.6457, 109.6, -59.2995
0.471, -1, 31.8417, 28.4551, 13.4082, 12.6471, 109.548, -59.4302
0.481254, -1, 31.5512, 28.3072, 13.4668, 12.6512, 109.394, -59.8223
0.487055, -1, 31.4546, 28.2579, 13.4862, 12.6527, 109.342, -59.9529
0.497104, -1, 31.1652, 28.1102, 13.5447, 12.6568, 109.188, -60.345
0.632784, -1, 27.9779, 26.4819, 14.1872, 12.6998, 107.484, -64.6612
0.634822, -1, 27.8815, 26.4326, 14.2067, 12.701, 107.432, -64.792
0.636909, -1, 27.8815, 26.4326, 14.2067, 12.701, 107.432, -64.792
0.639019, -1, 27.7851, 26.3831, 14.2262, 12.7022, 107.38, -64.9229
0.640232, -1, 27.7851, 26.3831, 14.2262, 12.7022, 107.38, -64.9229
0.642077, -1, 27.7851, 26.3831, 14.2456, 12.7034, 107.329, -65.0539
0.643433, -1, 27.6887, 26.3337, 14.2456, 12.7034, 107.329, -65.0539
0.646339, -1, 27.5925, 26.2843, 14.2651, 12.7046, 107.277, -65.1847
0.784939, -1, 24.3078, 24.6046, 14.9273, 12.7439, 105.521, -69.634
0.786138, -1, 24.3078, 24.6046, 14.9273, 12.7439, 105.521, -69.634
0.78831, -1, 24.2116, 24.5552, 14.9468, 12.7451, 105.47, -69.7648
0.789502, -1, 24.2116, 24.5552, 14.9468, 12.7451, 105.47, -69.7648
0.791409, -1, 24.1153, 24.5058, 14.9663, 12.7463, 105.418, -69.8955
0.792902, -1, 24.1153, 24.5058, 14.9663, 12.7463, 105.418, -69.8955
0.794156, -1, 24.1153, 24.5058, 14.9663, 12.7463, 105.418, -69.8955
0.800115, -1, 23.9226, 24.407, 15.0053, 12.7485, 105.315, -70.1571
0.801403, -1, 23.9226, 24.407, 15.0053, 12.7485, 105.315, -70.1571
0.803311, -1, 23.9226, 24.407, 15.0053, 12.7498, 105.263, -70.2879
0.805517, -1, 23.8262, 24.3576, 15.0248, 12.7498, 105.263, -70.2879
0.807311, -1, 23.8262, 24.3576, 15.0442, 12.7511, 105.211, -70.4188
0.808749, -1, 23.7297, 24.3082, 15.0442, 12.7511, 105.211, -70.4188
0.809942, -1, 23.7297, 24.3082, 15.0442, 12.7511, 105.211, -70.4188
0.811966, -1, 23.6332, 24.2588, 15.0637, 12.7522, 105.16, -70.5497
0.815462, -1, 23.5366, 24.2094, 15.0831, 12.7534, 105.108, -70.6807
0.816957, -1, 23.5366, 24.2094, 15.0831, 12.7534, 105.108, -70.6807
0.818157, -1, 23.5366, 24.2094, 15.0831, 12.7534, 105.108, -70.6807
0.820934, -1, 23.4399, 24.16, 15.1026, 12.7546, 105.056, -70.8115
0.822187, -1, 23.4399, 24.16, 15.1026, 12.7546, 105.056, -70.8115
0.824276, -1, 23.3431, 24.1106, 15.1221, 12.7558, 105.005, -70.9423
0.825471, -1, 23.3431, 24.1106, 15.1221, 12.7558, 105.005, -70.9423
0.828856, -1, 23.2463, 24.0612, 15.1415, 12.7571, 104.953, -71.0732
0.8301, -1, 23.2463, 24.0612, 15.1415, 12.7571, 104.953, -71.0732
0.832152, -1, 23.1493, 24.0117, 15.161, 12.7583, 104.901, -71.2041
0.833423, -1, 23.1493, 24.0117, 15.161, 12.7583, 104.901, -71.2041
0.834599, -1, 23.1493, 24.0117, 15.161, 12.7583, 104.901, -71.2041
0.836684, -1, 23.0523, 23.9623, 15.1804, 12.7595, 104.85, -71.335
0.838039, -1, 23.0523, 23.9623, 15.1804, 12.7595, 104.85, -71.335
0.839925, -1, 22.9553, 23.9128, 15.1999, 12.7607, 104.798, -71.4658
0.842572, -1, 22.9553, 23.9128, 15.1999, 12.7607, 104.798, -71.4658
0.845474, -1, 22.8582, 23.8634, 15.2193, 12.7619, 104.746, -71.5968
0.84676, -1, 22.8582, 23.8634, 15.2193, 12.7619, 104.746, -71.5968
0.848759, -1, 22.7612, 23.8141, 15.2388, 12.7631, 104.694, -71.7278
0.850036, -1, 22.7612, 23.8141, 15.2388, 12.7631, 104.694, -71.7278
0.852811, -1, 22.6643, 23.7647, 15.2584, 12.7644, 104.643, -71.8586
0.856188, -1, 22.5673, 23.7154, 15.2779, 12.7656, 104.591, -71.9893
0.862969, -1, 22.4704, 23.6661, 15.2974, 12.7669, 104.539, -72.12
0.872058, -1, 22.1804, 23.5181, 15.3558, 12.7707, 104.384, -72.5122
0.878994, -1, 22.0837, 23.4688, 15.3753, 12.772, 104.333, -72.643
0.888141, -1, 21.7944, 23.3208, 15.4338, 12.7759, 104.178, -73.0354
0.894977, -1, 21.6982, 23.2714, 15.4533, 12.7772, 104.126, -73.166
0.904277, -1, 21.41, 23.1232, 15.5116, 12.7813, 103.972, -73.5581
0.91103, -1, 21.3138, 23.0739, 15.5311, 12.7826, 103.92, -73.6888
0.920545, -1, 21.0254, 22.926, 15.5896, 12.7867, 103.765, -74.081
0.928565, -1, 20.8329, 22.8274, 15.6286, 12.7894, 103.662, -74.3421
0.936506, -1, 20.6404, 22.7288, 15.6676, 12.7921, 103.559, -74.6033
0.944595, -1, 20.4476, 22.6302, 15.7064, 12.7948, 103.456, -74.8646
0.953441, -1, 20.2541, 22.5315, 15.7453, 12.7975, 103.353, -75.126
0.959047, -1, 20.1572, 22.4821, 15.7649, 12.7988, 103.301, -75.2565
0.968619, -1, 19.9634, 22.3341, 15.8231, 12.803, 103.147, -75.6482
0.977429, -1, 19.7699, 22.2848, 15.8424, 12.8044, 103.095, -75.9094
0.983085, -1, 19.5762, 22.1862, 15.8814, 12.8069, 102.992, -76.0401
0.993059, -1, 19.2861, 22.0383, 15.9398, 12.8111, 102.838, -76.4318
0.998971, -1, 19.1896, 21.989, 15.9592, 12.8124, 102.786, -76.5622
1.008, -1, 18.9968, 21.8904, 15.9982, 12.8151, 102.683, -76.823
1.01605, -1, 18.8043, 21.7918, 16.037, 12.8178, 102.58, -77.084
1.02399, -1, 18.6122, 21.6931, 16.0758, 12.8205, 102.477, -77.345
1.03098, -1, 18.4204, 21.5946, 16.1147, 12.8232, 102.374, -77.6057
1.04003, -1, 18.2286, 21.496, 16.1536, 12.8258, 102.272, -77.8665
1.04799, -1, 18.0367, 21.3976, 16.1924, 12.8283, 102.169, -78.1272
1.055, -1, 17.8448, 21.2993, 16.2313, 12.8308, 102.066, -78.3881
1.06407, -1, 17.6527, 21.2009, 16.2702, 12.8333, 101.963, -78.6486
1.07198, -1, 17.4604, 21.1027, 16.309, 12.8358, 101.86, -78.9091
1.07896, -1, 17.2676, 21.0044, 16.3479, 12.8382, 101.757, -79.1697
1.08798, -1, 17.0745, 20.9061, 16.3867, 12.8406, 101.654, -79.4304
1.096, -1, 16.8814, 20.8079, 16.4256, 12.8429, 101.551, -79.6908
1.10497, -1, 16.6883, 20.7097, 16.4644, 12.8452, 101.448, -79.9513
1.11197, -1, 16.4952, 20.6116, 16.5031, 12.8476, 101.346, -80.2118
1.11999, -1, 16.3023, 20.5133, 16.5419, 12.8498, 101.243, -80.4725
1.12804, -1, 16.11, 20.415, 16.5806, 12.8522, 101.14, -80.733
1.13599, -1, 15.9182, 20.3166, 16.6194, 12.8544, 101.038, -80.9932
1.14398, -1, 15.7265, 20.2181, 16.6582, 12.8568, 100.935, -81.2532
1.15201, -1, 15.5351, 20.1197, 16.6968, 12.8591, 100.832, -81.5134
1.15903, -1, 15.344, 20.0215, 16.7355, 12.8614, 100.73, -81.7736
1.16805, -1, 15.1529, 19.9233, 16.7744, 12.8636, 100.627, -82.0334
1.17602, -1, 14.9618, 19.8251, 16.813, 12.8659, 100.525, -82.2932
1.18397, -1, 14.7704, 19.727, 16.8517, 12.8682, 100.422, -82.5531
1.19205, -1, 14.5789, 19.6289, 16.8905, 12.8704, 100.319, -82.8131
1.19997, -1, 14.3871, 19.5308, 16.9292, 12.8728, 100.217, -83.0729
1.20797, -1, 14.1949, 19.4328, 16.9679, 12.8751, 100.114, -83.3323
1.21609, -1, 14.0024, 19.3348, 17.0067, 12.8773, 100.012, -83.5919
1.22397, -1, 13.8099, 19.237, 17.0452, 12.8797, 99.9093, -83.8516
1.23198, -1, 13.6174, 19.1392, 17.0839, 12.882, 99.8068, -84.1111
1.24005, -1, 13.425, 19.0413, 17.1226, 12.8843, 99.7041, -84.3704
1.24798, -1, 13.233, 18.9434, 17.1611, 12.8866, 99.6019, -84.6297
1.25599, -1, 13.0414, 18.8456, 17.1997, 12.8889, 99.4995, -84.8891
1.26404, -1, 12.8502, 18.7476, 17.2384, 12.8912, 99.397, -85.1484
1.27197, -1, 12.6593, 18.6497, 17.2769, 12.8936, 99.295, -85.4073
1.27997, -1, 12.4686, 18.5519, 17.3155, 12.8961, 99.1927, -85.6662
1.28858, -1, 12.2785, 18.4541, 17.354, 12.8984, 99.0903, -85.9251
1.29602, -1, 12.0883, 18.3564, 17.3925, 12.9009, 98.9884, -86.1842
1.30433, -1, 11.898, 18.2588, 17.4311, 12.9033, 98.8861, -86.443
1.31148, -1, 11.7074, 18.1612, 17.4697, 12.9057, 98.7841, -86.7015
1.31955, -1, 11.5166, 18.0636, 17.5081, 12.9082, 98.6824, -86.9602
1.32865, -1, 11.3256, 17.966, 17.5467, 12.9106, 98.5804, -87.219
1.33609, -1, 11.1343, 17.8685, 17.5853, 12.9131, 98.4785, -87.4774
1.3441, -1, 10.9427, 17.771, 17.6238, 12.9156, 98.3767, -87.7357
1.35274, -1, 10.751, 17.6736, 17.6623, 12.9181, 98.2746, -87.9939
1.36, -1, 10.5594, 17.5761, 17.7007, 12.9206, 98.1728, -88.2523
1.36801, -1, 10.368, 17.4786, 17.7391, 12.9232, 98.0709, -88.5106
1.37699, -1, 10.177, 17.3811, 17.7775, 12.9257, 97.9689, -88.7685
1.38411, -1, 9.98647, 17.2835, 17.8159, 12.9284, 97.8672, -89.0266
1.39216, -1, 9.79618, 17.186, 17.8542, 12.931, 97.7652, -89.2848
1.39895, -1, 9.70115, 17.1372, 17.8734, 12.9322, 97.7142, -89.4139
1.40702, -1, 9.51159, 17.0398, 17.9117, 12.9351, 97.6122, -89.6719
1.41495, -1, 9.32236, 16.9425, 17.95, 12.9378, 97.5105, -89.9295
1.42547, -1, 9.03839, 16.7966, 18.0076, 12.9417, 97.3576, -90.3158
1.431, -1, 8.94365, 16.748, 18.0267, 12.9431, 97.3068, -90.4446
1.44106, -1, 8.65934, 16.6022, 18.0843, 12.9471, 97.1542, -90.8309
1.44937, -1, 8.46968, 16.5051, 18.1227, 12.9498, 97.0526, -91.088
1.45502, -1, 8.37476, 16.4566, 18.1418, 12.9511, 97.0018, -91.2167
1.46457, -1, 8.0892, 16.3112, 18.1993, 12.955, 96.8495, -91.6025
1.4736, -1, 7.99394, 16.2627, 18.2185, 12.9563, 96.748, -91.8596
1.47996, -1, 7.80336, 16.1659, 18.2567, 12.9589, 96.6974, -91.9879
1.48862, -1, 7.61275, 16.069, 18.2949, 12.9615, 96.5959, -92.373
1.49601, -1, 7.42231, 15.972, 18.3333, 12.964, 96.4944, -92.5014
1.50301, -1, 7.23212, 15.8751, 18.3714, 12.9666, 96.3932, -92.7582
1.51203, -1, 7.04234, 15.7781, 18.4096, 12.9692, 96.2917, -93.0148
1.51997, -1, 6.85296, 15.6812, 18.4479, 12.9717, 96.1904, -93.2711
1.52696, -1, 6.66403, 15.5843, 18.4859, 12.9742, 96.0898, -93.5276
1.53597, -1, 6.47556, 15.4875, 18.524, 12.9767, 95.9886, -93.7839
1.54395, -1, 6.28739, 15.3908, 18.5622, 12.9792, 95.8876, -94.0404
1.55203, -1, 6.0993, 15.2941, 18.6003, 12.9817, 95.7869, -94.2963
1.55996, -1, 5.91104, 15.1975, 18.6385, 12.984, 95.6858, -94.5523
1.56797, -1, 5.72266, 15.1008, 18.6767, 12.9863, 95.5848, -94.8082
1.57602, -1, 5.53418, 15.0042, 18.7148, 12.9886, 95.4843, -95.0642
1.58396, -1, 5.34539, 14.9077, 18.7529, 12.9909, 95.3833, -95.3198
1.59196, -1, 5.15623, 14.8113, 18.791, 12.9931, 95.2826, -95.5752
1.59895, -1, 4.9667, 14.715, 18.829, 12.9953, 95.1821, -95.8307
1.60803, -1, 4.77727, 14.6186, 18.8671, 12.9976, 95.0812, -96.0861
1.61697, -1, 4.58781, 14.5222, 18.9052, 12.9997, 94.9805, -96.3413
1.62295, -1, 4.39852, 14.4259, 18.9432, 13.0019, 94.8799, -96.5963
1.63197, -1, 4.20957, 14.3295, 18.9812, 13.0041, 94.779, -96.8512
1.63996, -1, 4.02101, 14.2331, 19.0192, 13.0064, 94.6781, -97.1063
1.64798, -1, 3.83298, 14.1368, 19.0571, 13.0087, 94.5772, -97.3613
1.65601, -1, 3.64547, 14.0407, 19.095, 13.0108, 94.4764, -97.6161
1.66403, -1, 3.45832, 13.9445, 19.133, 13.0131, 94.3758, -97.8708
1.67199, -1, 3.27141, 13.8485, 19.1707, 13.0155, 94.2751, -98.1256
1.67904, -1, 3.08443, 13.7525, 19.2086, 13.0177, 94.1744, -98.3804
1.68802, -1, 2.89748, 13.6565, 19.2466, 13.02, 94.0739, -98.6347
1.69599, -1, 2.71041, 13.5605, 19.2845, 13.0223, 93.9733, -98.8889
1.70395, -1, 2.52313, 13.4646, 19.3223, 13.0245, 93.8729, -99.1431
1.71201, -1, 2.33575, 13.3687, 19.3601, 13.0269, 93.7725, -99.3973
1.71999, -1, 2.14781, 13.2729, 19.3979, 13.0291, 93.6721, -99.6512
1.72798, -1, 1.95966, 13.177, 19.4358, 13.0312, 93.5719, -99.9048
1.73602, -1, 1.77146, 13.0812, 19.4735, 13.0336, 93.472, -100.159
1.74397, -1, 1.58316, 12.9854, 19.5112, 13.0358, 93.3719, -100.412
1.75195, -1, 1.39501, 12.8896, 19.5491, 13.0381, 93.2719, -100.666
1.76001, -1, 1.20715, 12.7938, 19.5868, 13.0404, 93.1721, -100.919
1.76799, -1, 1.01976, 12.6981, 19.6245, 13.0428, 93.072, -101.172
1.77597, -1, 0.833114, 12.6026, 19.6622, 13.0451, 92.972, -101.425
1.78408, -1, 0.646757, 12.507, 19.6998, 13.0475, 92.8723, -101.678
1.79199, -1, 0.460826, 12.4115, 19.7374, 13.05, 92.7723, -101.931
1.79999, -1, 0.275219, 12.3162, 19.7751, 13.0525, 92.6726, -102.184
1.80829, -1, 0.089833, 12.2208, 19.8127, 13.0549, 92.5733, -102.436
1.81547, -1, -0.0955756, 12.1255, 19.8502, 13.0574, 92.4736, -102.689
1.8241, -1, -0.281208, 12.0303, 19.8879, 13.0598, 92.374, -102.941
1.83247, -1, -0.467093, 11.9351, 19.9255, 13.0623, 92.2748, -103.194
1.83953, -1, -0.653351, 11.84, 19.963, 13.0648, 92.1752, -103.446
1.84809, -1, -0.839764, 11.7451, 20.0006, 13.0673, 92.0757, -103.698
1.85644, -1, -0.933071, 11.6975, 20.0193, 13.0686, 92.0261, -103.824
1.86293, -1, -1.11984, 11.6025, 20.0567, 13.0711, 91.9267, -104.076
1.87199, -1, -1.40033, 11.4599, 20.113, 13.0749, 91.7777, -104.453
1.87894, -1, -1.49374, 11.4124, 20.1318, 13.0762, 91.7282, -104.579
1.88697, -1, -1.68035, 11.3173, 20.1691, 13.0788, 91.6291, -104.831
1.89617, -1, -1.95953, 11.1747, 20.2253, 13.0827, 91.4803, -105.208
1.90293, -1, -2.05226, 11.1273, 20.244, 13.084, 91.4309, -105.333
1.911, -1, -2.23744, 11.0323, 20.2814, 13.0866, 91.3316, -105.584
1.9204, -1, -2.51456, 10.8901, 20.3375, 13.0907, 91.1828, -105.961
1.92693, -1, -2.60665, 10.8427, 20.3561, 13.092, 91.1334, -106.086
1.93499, -1, -2.79055, 10.7479, 20.3934, 13.0947, 91.0341, -106.337
1.94455, -1, -3.06644, 10.6059, 20.4494, 13.0985, 90.8856, -106.713
1.95342, -1, -3.2506, 10.5113, 20.4867, 13.1011, 90.7868, -106.963
1.95901, -1, -3.34279, 10.464, 20.5052, 13.1024, 90.7374, -107.089
1.96858, -1, -3.61982, 10.3224, 20.5612, 13.1062, 90.5891, -107.465
1.97745, -1, -3.71222, 10.2752, 20.5799, 13.1075, 90.4903, -107.715
1.983, -1, -3.89725, 10.1809, 20.6171, 13.1099, 90.4409, -107.84
1.99315, -1, -4.17532, 10.0394, 20.673, 13.1136, 90.2929, -108.214
1.999, -1, -4.26814, 9.99229, 20.6916, 13.1147, 90.2437, -108.339
2.00903, -1, -4.54651, 9.85081, 20.7473, 13.1182, 90.0956, -108.714
2.01518, -1, -4.63916, 9.80365, 20.766, 13.1194, 90.0464, -108.839
2.02399, -1, -4.8241, 9.70947, 20.8031, 13.1216, 89.9481, -109.088
2.03093, -1, -5.00867, 9.61537, 20.8401, 13.1241, 89.8495, -109.338
2.03999, -1, -5.19247, 9.52131, 20.8773, 13.1264, 89.7511, -109.587
2.048, -1, -5.37582, 9.42727, 20.9144, 13.1288, 89.6529, -109.836
2.05498, -1, -5.5588, 9.33337, 20.9515, 13.1311, 89.5545, -110.084
2.06395, -1, -5.74131, 9.23947, 20.9887, 13.1333, 89.4563, -110.333
2.07199, -1, -5.92359, 9.14557, 21.0257, 13.1356, 89.3582, -110.582
2.07895, -1, -6.10597, 9.05174, 21.0626, 13.1378, 89.2599, -110.831
2.08795, -1, -6.28868, 8.95797, 21.0997, 13.14, 89.1618, -111.079
2.09602, -1, -6.47155, 8.86435, 21.1367, 13.1422, 89.0642, -111.327
2.103, -1, -6.65468, 8.7707, 21.1734, 13.1443, 88.9661, -111.576
2.11195, -1, -6.83828, 8.67712, 21.2104, 13.1465, 88.8681, -111.824
2.12094, -1, -7.02219, 8.58355, 21.2473, 13.1486, 88.7704, -112.072
2.12693, -1, -7.20632, 8.49001, 21.2841, 13.1508, 88.6724, -112.319
2.13596, -1, -7.39047, 8.39639, 21.3211, 13.1529, 88.5746, -112.567
2.144, -1, -7.57431, 8.30275, 21.3579, 13.155, 88.4771, -112.815
2.152, -1, -7.7579, 8.20929, 21.3946, 13.1572, 88.3794, -113.062
2.15979, -1, -7.94093, 8.11591, 21.4315, 13.1595, 88.282, -113.309
2.16804, -1, -8.12356, 8.02254, 21.4683, 13.1616, 88.1847, -113.557
2.17596, -1, -8.30545, 7.92927, 21.505, 13.1638, 88.0872, -113.804
2.18396, -1, -8.48682, 7.83603, 21.5418, 13.1661, 87.9899, -114.051
2.19199, -1, -8.66782, 7.74287, 21.5786, 13.1684, 87.8926, -114.297
2.19994, -1, -8.84855, 7.6497, 21.6153, 13.1707, 87.7951, -114.544
2.20796, -1, -9.02933, 7.55662, 21.6521, 13.1729, 87.6977, -114.79
2.21603, -1, -9.21042, 7.46362, 21.6888, 13.1751, 87.6005, -115.037
2.22394, -1, -9.39173, 7.37083, 21.7254, 13.1774, 87.5032, -115.283
2.23189, -1, -9.57336, 7.278, 21.7621, 13.1795, 87.4061, -115.529
2.24, -1, -9.75529, 7.18521, 21.7988, 13.1819, 87.3091, -115.775
2.24793, -1, -9.93763, 7.09253, 21.8352, 13.184, 87.2118, -116.021
2.25597, -1, -10.1201, 6.99981, 21.8718, 13.1862, 87.1146, -116.267
2.264, -1, -10.3027, 6.90705, 21.9084, 13.1885, 87.0176, -116.513
2.27194, -1, -10.4852, 6.81431, 21.945, 13.1907, 86.9204, -116.758
2.28005, -1, -10.6675, 6.72163, 21.9816, 13.1929, 86.8234, -117.004
2.28796, -1, -10.8493, 6.62904, 22.0181, 13.1953, 86.7265, -117.249
2.29595, -1, -11.0306, 6.53643, 22.0545, 13.1978, 86.6295, -117.494
2.30475, -1, -11.2112, 6.44392, 22.091, 13.2001, 86.5328, -117.739
2.31203, -1, -11.391, 6.35147, 22.1275, 13.2026, 86.4363, -117.984
2.31957, -1, -11.5707, 6.25903, 22.1639, 13.2051, 86.3395, -118.229
2.32885, -1, -11.75, 6.16662, 22.2004, 13.2075, 86.243, -118.474
2.33608, -1, -11.9292, 6.07439, 22.2369, 13.21, 86.1465, -118.718
2.34376, -1, -12.1086, 5.98216, 22.2732, 13.2125, 86.0498, -118.962
2.35291, -1, -12.2881, 5.89009, 22.3097, 13.2149, 85.9534, -119.206
2.35994, -1, -12.4679, 5.79808, 22.3461, 13.2174, 85.8571, -119.451
2.36798, -1, -12.6481, 5.7061, 22.3822, 13.2199, 85.7606, -119.694
2.37605, -1, -12.8287, 5.61418, 22.4186, 13.2223, 85.6644, -119.938
2.38292, -1, -12.9192, 5.56822, 22.4368, 13.2236, 85.6166, -120.06
2.39239, -1, -13.1909, 5.43028, 22.491, 13.2273, 85.4726, -120.426
2.39895, -1, -13.2815, 5.38428, 22.5091, 13.2285, 85.4246, -120.547
2.40693, -1, -13.4626, 5.29233, 22.5454, 13.231, 85.3289, -120.791
2.41632, -1, -13.7335, 5.15451, 22.5996, 13.2348, 85.1851, -121.156
2.42297, -1, -13.8236, 5.10858, 22.6177, 13.236, 85.1373, -121.277
2.43092, -1, -14.0032, 5.01675, 22.6539, 13.2386, 85.0416, -121.52
2.4408, -1, -14.2711, 4.87919, 22.708, 13.2425, 84.898, -121.885
2.4492, -1, -14.4493, 4.78754, 22.7441, 13.245, 84.8025, -122.127
2.45653, -1, -14.627, 4.69588, 22.7803, 13.2475, 84.7071, -122.37
2.46452, -1, -14.8046, 4.60438, 22.8164, 13.25, 84.6113, -122.612
2.47344, -1, -14.8934, 4.55864, 22.8524, 13.2524, 84.5156, -122.854
2.47892, -1, -15.0712, 4.46719, 22.8705, 13.2536, 84.4679, -122.975
2.48915, -1, -15.3383, 4.3303, 22.9246, 13.2573, 84.3244, -123.338
2.49498, -1, -15.4275, 4.28462, 22.9426, 13.2585, 84.2765, -123.459
2.50495, -1, -15.6959, 4.14773, 22.9967, 13.2619, 84.1333, -123.822
2.51194, -1, -15.7855, 4.10212, 23.0146, 13.263, 84.0854, -123.943
2.51994, -1, -15.9648, 4.0109, 23.0505, 13.2653, 83.9899, -124.184
2.52692, -1, -16.1443, 3.91963, 23.0865, 13.2674, 83.8944, -124.426
2.53602, -1, -16.3241, 3.82842, 23.1225, 13.2695, 83.799, -124.667
2.54392, -1, -16.5035, 3.73722, 23.1582, 13.2717, 83.7035, -124.909
2.55194, -1, -16.6825, 3.64609, 23.194, 13.2739, 83.6082, -125.15
2.55992, -1, -16.861, 3.55503, 23.2299, 13.2761, 83.5129, -125.391
2.56798, -1, -17.0387, 3.46401, 23.2657, 13.2784, 83.4175, -125.632
2.57491, -1, -17.2156, 3.37305, 23.3016, 13.2806, 83.3222, -125.873
2.58392, -1, -17.392, 3.28223, 23.3374, 13.2828, 83.2271, -126.113
2.59201, -1, -17.5683, 3.19141, 23.3731, 13.2849, 83.1319, -126.354
2.59893, -1, -17.7444, 3.10074, 23.409, 13.2871, 83.0371, -126.594
2.60793, -1, -17.9204, 3.01012, 23.4449, 13.2891, 82.9424, -126.834
2.61692, -1, -18.0966, 2.91964, 23.4805, 13.2912, 82.8475, -127.074
2.62291, -1, -18.2731, 2.82928, 23.5162, 13.2933, 82.7529, -127.314
2.63194, -1, -18.4501, 2.73888, 23.552, 13.2954, 82.6584, -127.554
2.63999, -1, -18.6275, 2.64851, 23.5876, 13.2975, 82.5636, -127.794
2.64791, -1, -18.8051, 2.55821, 23.6232, 13.2995, 82.469, -128.033
2.65593, -1, -18.9831, 2.46773, 23.659, 13.3015, 82.3747, -128.273
2.66402, -1, -19.1614, 2.37725, 23.6945, 13.3034, 82.2801, -128.512
2.67197, -1, -19.3396, 2.28687, 23.7301, 13.3056, 82.1857, -128.751
2.67992, -1, -19.5173, 2.19649, 23.7657, 13.3077, 82.0918, -128.99
2.68801, -1, -19.6945, 2.1061, 23.8011, 13.3099, 81.9975, -129.229
2.69594, -1, -19.871, 2.01581, 23.8365, 13.312, 81.9033, -129.469
2.70395, -1, -20.0469, 1.92557, 23.8721, 13.3141, 81.8095, -129.707
2.71198, -1, -20.222, 1.83536, 23.9077, 13.3163, 81.7153, -129.946
2.71992, -1, -20.397, 1.74522, 23.9431, 13.3186, 81.6212, -130.184
2.72798, -1, -20.5716, 1.65513, 23.9788, 13.3207, 81.5275, -130.423
2.73593, -1, -20.746, 1.56517, 24.0144, 13.3229, 81.4334, -130.661
2.74392, -1, -20.9207, 1.47532, 24.0497, 13.325, 81.3396, -130.899
2.752, -1, -21.0956, 1.38562, 24.0853, 13.3272, 81.246, -131.137
2.75992, -1, -21.2709, 1.29587, 24.1208, 13.3294, 81.1521, -131.374
2.76793, -1, -21.4465, 1.2062, 24.1562, 13.3316, 81.0583, -131.612
2.77599, -1, -21.6225, 1.11662, 24.1916, 13.3338, 80.9646, -131.85
2.78397, -1, -21.7987, 1.02697, 24.2272, 13.336, 80.8707, -132.087
2.79203, -1, -21.9751, 0.937354, 24.2626, 13.3382, 80.7769, -132.325
2.79992, -1, -22.1517, 0.847751, 24.298, 13.3403, 80.6833, -132.562
2.80816, -1, -22.3282, 0.758211, 24.3335, 13.3425, 80.5896, -132.799
2.81545, -1, -22.5043, 0.668774, 24.3687, 13.3447, 80.4959, -133.036
2.82401, -1, -22.6799, 0.579267, 24.404, 13.3471, 80.4023, -133.273
2.8324, -1, -22.8549, 0.489877, 24.4393, 13.3495, 80.3087, -133.51
2.83949, -1, -23.029, 0.400474, 24.4745, 13.3519, 80.2152, -133.747
2.84804, -1, -23.2027, 0.311131, 24.5097, 13.3544, 80.1217, -133.984
2.85661, -1, -23.376, 0.221839, 24.5449, 13.3568, 80.0283, -134.22
2.86393, -1, -23.549, 0.132632, 24.5802, 13.3592, 79.9349, -134.456
2.87195, -1, -23.7223, 0.0435066, 24.6154, 13.3616, 79.8416, -134.692
2.8789, -1, -23.8089, -0.00105209, 24.633, 13.3628, 79.7951, -134.811
2.88691, -1, -23.9823, -0.0900127, 24.6683, 13.3653, 79.7018, -135.047
2.89608, -1, -24.2429, -0.223416, 24.721, 13.3691, 79.5621, -135.4
2.90294, -1, -24.3299, -0.267883, 24.7386, 13.3703, 79.5157, -135.518
2.91093, -1, -24.5041, -0.356745, 24.7738, 13.3726, 79.4226, -135.754
2.92028, -1, -24.7662, -0.490059, 24.8264, 13.3762, 79.2831, -136.107
2.9269, -1, -24.8537, -0.534498, 24.8439, 13.3774, 79.2367, -136.225
2.93496, -1, -25.0288, -0.623283, 24.8792, 13.3798, 79.1437, -136.46
2.94449, -1, -25.291, -0.756453, 24.9318, 13.3833, 79.0043, -136.813
2.95333, -1, -25.4654, -0.845287, 24.9669, 13.3857, 78.9117, -137.048
2.96053, -1, -25.6394, -0.93404, 25.0019, 13.3882, 78.8188, -137.283
2.96862, -1, -25.8126, -1.02271, 25.0368, 13.3906, 78.726, -137.518
2.97732, -1, -25.899, -1.06707, 25.0542, 13.393, 78.6337, -137.752
2.98296, -1, -26.0715, -1.15577, 25.0893, 13.3943, 78.5875, -137.869
2.99296, -1, -26.3294, -1.28863, 25.1417, 13.3979, 78.4486, -138.221
2.99994, -1, -26.4153, -1.33289, 25.1591, 13.399, 78.4022, -138.338
3.00697, -1, -26.587, -1.42132, 25.1941, 13.4013, 78.3101, -138.573
3.01702, -1, -26.8451, -1.55379, 25.2466, 13.4047, 78.1713, -138.924
3.02291, -1, -26.9313, -1.59787, 25.264, 13.4058, 78.125, -139.041
3.03202, -1, -27.1037, -1.68601, 25.2989, 13.4081, 78.0329, -139.275
3.03994, -1, -27.2762, -1.77425, 25.3338, 13.4102, 77.9405, -139.509
3.04791, -1, -27.449, -1.86231, 25.3686, 13.4124, 77.8485, -139.742
3.05492, -1, -27.6222, -1.95038, 25.4034, 13.4144, 77.7565, -139.975
3.06391, -1, -27.7955, -2.03858, 25.4384, 13.4165, 77.6645, -140.209
3.07192, -1, -27.9688, -2.12657, 25.4731, 13.4186, 77.5725, -140.442
3.07891, -1, -28.1421, -2.21462, 25.5078, 13.4206, 77.4805, -140.676
3.08791, -1, -28.3153, -2.30266, 25.5427, 13.4226, 77.3886, -140.909
3.09594, -1, -28.4881, -2.39069, 25.5774, 13.4247, 77.2964, -141.142
3.10291, -1, -28.6605, -2.47867, 25.612, 13.4268, 77.2043, -141.375
3.11191, -1, -28.8323, -2.56664, 25.6468, 13.429, 77.1124, -141.607
3.12089, -1, -29.0034, -2.65459, 25.6814, 13.4311, 77.0203, -141.84
3.1269, -1, -29.174, -2.74245, 25.716, 13.4333, 76.9283, -142.073
3.13592, -1, -29.3445, -2.83023, 25.7506, 13.4354, 76.8367, -142.305
3.14392, -1, -29.5152, -2.91791, 25.7853, 13.4374, 76.7448, -142.538
3.15196, -1, -29.686, -3.00544, 25.8197, 13.4394, 76.6529, -142.77
3.15993, -1, -29.857, -3.09299, 25.8543, 13.4414, 76.5614, -143.003
3.16795, -1, -30.028, -3.18043, 25.8889, 13.4435, 76.4694, -143.235
3.176, -1, -30.1989, -3.26789, 25.9234, 13.4455, 76.3778, -143.467
3.18392, -1, -30.3701, -3.35528, 25.958, 13.4476, 76.2862, -143.699
3.19192, -1, -30.5416, -3.44271, 25.9926, 13.4497, 76.1945, -143.931
3.20043, -1, -30.7134, -3.53022, 26.027, 13.4517, 76.103, -144.162
3.20699, -1, -30.8853, -3.61756, 26.0614, 13.4538, 76.0118, -144.393
3.21592, -1, -31.0571, -3.70493, 26.096, 13.4557, 75.9203, -144.625
3.2247, -1, -31.2289, -3.79225, 26.1304, 13.4578, 75.829, -144.856
3.23191, -1, -31.4003, -3.87956, 26.1647, 13.4599, 75.7378, -145.088
3.23991, -1, -31.5711, -3.96685, 26.1992, 13.462, 75.6466, -145.319
3.24868, -1, -31.7416, -4.05406, 26.2336, 13.4642, 75.5553, -145.55
3.25591, -1, -31.9115, -4.14131, 26.2679, 13.4664, 75.4642, -145.78
3.26391, -1, -32.0811, -4.2285, 26.3023, 13.4686, 75.3731, -146.011
3.27272, -1, -32.2504, -4.31559, 26.3367, 13.4709, 75.2819, -146.242
3.27992, -1, -32.4198, -4.40266, 26.3709, 13.473, 75.1908, -146.473
3.2879, -1, -32.5896, -4.48961, 26.4053, 13.4751, 75.1002, -146.703
3.29685, -1, -32.7593, -4.5765, 26.4397, 13.4772, 75.0091, -146.934
3.30391, -1, -32.9289, -4.6634, 26.4739, 13.4794, 74.9184, -147.164
3.31196, -1, -33.0986, -4.7503, 26.508, 13.4815, 74.828, -147.394
3.32094, -1, -33.2685, -4.83711, 26.5423, 13.4838, 74.7371, -147.624
3.328, -1, -33.4385, -4.92396, 26.5766, 13.486, 74.6465, -147.854
3.33613, -1, -33.6088, -5.01091, 26.6108, 13.4882, 74.5559, -148.084
3.3457, -1, -33.7791, -5.0977, 26.645, 13.4904, 74.4654, -148.314
3.35201, -1, -33.9494, -5.18444, 26.6792, 13.4927, 74.3748, -148.544
3.36011, -1, -34.1197, -5.2712, 26.7132, 13.495, 74.2843, -148.773
3.36688, -1, -34.2048, -5.31458, 26.7303, 13.4961, 74.2392, -148.888
3.37599, -1, -34.4598, -5.44454, 26.7817, 13.4995, 74.1032, -149.232
3.38402, -1, -34.6294, -5.53122, 26.8158, 13.5019, 74.0127, -149.461
3.39089, -1, -34.7139, -5.57454, 26.8328, 13.503, 73.9676, -149.576
3.39897, -1, -34.8825, -5.66111, 26.8669, 13.5055, 73.8769, -149.805
3.40846, -1, -35.1351, -5.79087, 26.9181, 13.5091, 73.7412, -150.148
3.41488, -1, -35.2192, -5.83413, 26.9351, 13.5103, 73.6961, -150.263
3.4243, -1, -35.4718, -5.96356, 26.9863, 13.514, 73.5605, -150.606
3.43088, -1, -35.5561, -6.00666, 27.0034, 13.5151, 73.5153, -150.721
3.44117, -1, -35.8088, -6.13602, 27.0543, 13.5187, 73.3799, -151.064
3.44846, -1, -35.9774, -6.22215, 27.0884, 13.5211, 73.2894, -151.292
3.45686, -1, -36.1458, -6.30825, 27.1224, 13.5235, 73.1991, -151.521
3.46535, -1, -36.3144, -6.3944, 27.1562, 13.5259, 73.1088, -151.749
3.47088, -1, -36.3988, -6.43752, 27.1732, 13.527, 73.0637, -151.864
3.48051, -1, -36.5677, -6.52376, 27.2073, 13.5294, 72.9282, -152.206
3.4892, -1, -36.7366, -6.60995, 27.2412, 13.5317, 72.883, -152.32
3.49488, -1, -36.9056, -6.69611, 27.2751, 13.5339, 72.7929, -152.548
3.50396, -1, -37.0746, -6.7823, 27.3091, 13.5362, 72.7027, -152.776
3.51194, -1, -37.2434, -6.86841, 27.343, 13.5384, 72.6127, -153.004
3.51892, -1, -37.4119, -6.95441, 27.3768, 13.5407, 72.5229, -153.232
3.52796, -1, -37.5799, -7.04048, 27.4108, 13.5429, 72.433, -153.459
3.53589, -1, -37.7477, -7.12649, 27.4448, 13.5452, 72.3432, -153.687
3.54293, -1, -37.9153, -7.21248, 27.4785, 13.5474, 72.2534, -153.914
3.55193, -1, -38.0828, -7.29839, 27.5124, 13.5496, 72.1638, -154.142
3.55989, -1, -38.2502, -7.38424, 27.5464, 13.5518, 72.074, -154.369
3.56692, -1, -38.4176, -7.46998, 27.5802, 13.5539, 71.9843, -154.596
3.57589, -1, -38.5848, -7.55568, 27.614, 13.556, 71.8948, -154.823
3.58389, -1, -38.7521, -7.64141, 27.6479, 13.5581, 71.805, -155.051
3.59089, -1, -38.9194, -7.72709, 27.6816, 13.5601, 71.7154, -155.278
3.59989, -1, -39.0867, -7.81269, 27.7153, 13.5622, 71.6263, -155.504
3.60789, -1, -39.2542, -7.89836, 27.7492, 13.5642, 71.5368, -155.731
3.61756, -1, -39.4218, -7.98404, 27.783, 13.5661, 71.4028, -156.071
3.62389, -1, -39.5894, -8.06958, 27.8165, 13.5681, 71.3583, -156.185
3.63289, -1, -39.7571, -8.15511, 27.8502, 13.57, 71.2689, -156.411
3.63995, -1, -39.9247, -8.24061, 27.8839, 13.572, 71.1796, -156.638
3.6479, -1, -40.0923, -8.32604, 27.9176, 13.5739, 71.0901, -156.864
3.65589, -1, -40.2598, -8.41136, 27.9512, 13.5759, 71.001, -157.09
3.66395, -1, -40.427, -8.49677, 27.985, 13.5778, 70.9115, -157.316
3.67194, -1, -40.594, -8.58215, 28.0186, 13.5798, 70.8223, -157.542
3.67999, -1, -40.7607, -8.66752, 28.0522, 13.5818, 70.7333, -157.768
3.68788, -1, -40.9273, -8.75286, 28.0859, 13.5838, 70.644, -157.994
3.69591, -1, -41.0937, -8.83814, 28.1195, 13.5858, 70.5549, -158.22
3.70394, -1, -41.26, -8.92337, 28.1531, 13.5878, 70.466, -158.446
3.71194, -1, -41.4262, -9.0085, 28.1866, 13.5898, 70.3767, -158.671
3.7199, -1, -41.5925, -9.09361, 28.2203, 13.5918, 70.2875, -158.897
3.72796, -1, -41.7587, -9.1787, 28.2539, 13.5938, 70.1984, -159.122
3.73588, -1, -41.9251, -9.26376, 28.2874, 13.5958, 70.1093, -159.348
3.7439, -1, -42.0916, -9.34878, 28.3211, 13.5978, 70.0203, -159.574
3.75196, -1, -42.2578, -9.43382, 28.3547, 13.5998, 69.9313, -159.799
3.75988, -1, -42.4241, -9.51884, 28.3882, 13.6018, 69.8425, -160.024
3.76804, -1, -42.5905, -9.60381, 28.4217, 13.6038, 69.7535, -160.249
3.77591, -1, -42.7569, -9.68874, 28.4552, 13.6059, 69.6646, -160.474
3.78389, -1, -42.9233, -9.7737, 28.4886, 13.608, 69.5761, -160.7
3.79192, -1, -43.0897, -9.85861, 28.5221, 13.61, 69.4871, -160.924
3.80003, -1, -43.2558, -9.9435, 28.5556, 13.612, 69.3985, -161.149
3.80792, -1, -43.4219, -10.0284, 28.5891, 13.6141, 69.3099, -161.374
3.81596, -1, -43.588, -10.1133, 28.6226, 13.6163, 69.2212, -161.599
3.82422, -1, -43.7539, -10.1983, 28.6562, 13.6183, 69.1326, -161.824
3.83142, -1, -43.9197, -10.283, 28.6896, 13.6206, 69.0441, -162.048
3.84004, -1, -44.0853, -10.3678, 28.723, 13.6227, 68.9556, -162.272
3.84822, -1, -44.2507, -10.4525, 28.7565, 13.6249, 68.867, -162.497
3.85547, -1, -44.3332, -10.4948, 28.79, 13.627, 68.7784, -162.721
3.86404, -1, -44.581, -10.6215, 28.8233, 13.6293, 68.69, -162.945
3.87241, -1, -44.7462, -10.7061, 28.8568, 13.6314, 68.6012, -163.169
3.87889, -1, -44.8288, -10.7483, 28.8736, 13.6325, 68.557, -163.281
3.888, -1, -45.0768, -10.875, 28.9237, 13.6358, 68.4244, -163.617
3.89608, -1, -45.2421, -10.9596, 28.9571, 13.638, 68.3358, -163.841
3.90294, -1, -45.3248, -11.0018, 28.9739, 13.6391, 68.2916, -163.954
3.91219, -1, -45.5727, -11.1284, 29.0238, 13.6426, 68.1592, -164.289
3.91886, -1, -45.6553, -11.1706, 29.0403, 13.6437, 68.1152, -164.401
3.92829, -1, -45.903, -11.2971, 29.0904, 13.6471, 67.9825, -164.737
3.93489, -1, -45.9848, -11.3389, 29.1071, 13.6482, 67.9383, -164.848
3.94443, -1, -46.2255, -11.4614, 29.1573, 13.6517, 67.8065, -165.183
3.95246, -1, -46.3796, -11.5388, 29.191, 13.6541, 67.7199, -165.401
3.96049, -1, -46.5258, -11.6115, 29.2241, 13.6563, 67.6361, -165.613
3.96848, -1, -46.6617, -11.6784, 29.2553, 13.6586, 67.5578, -165.812
3.97678, -1, -46.7846, -11.7382, 29.2836, 13.6606, 67.4862, -165.992
3.98453, -1, -46.8403, -11.7655, 29.3081, 13.6626, 67.4245, -166.148
3.99259, -1, -46.9394, -11.8148, 29.3186, 13.6641, 67.374, -166.277
4.00078, -1, -47.0578, -11.8771, 29.3415, 13.6651, 67.3346, -166.375
4.00797, -1, -47.0897, -11.8947, 29.3466, 13.6654, 67.3191, -166.415
4.01596, -1, -47.1423, -11.9243, 29.3539, 13.6658, 67.2957, -166.474
4.02412, -1, -47.1816, -11.9465, 29.3579, 13.6661, 67.2805, -166.512
4.03091, -1, -47.2094, -11.9621, 29.3597, 13.6662, 67.2716, -166.535
4.0399, -1, -47.2277, -11.9722, 29.3606, 13.6662, 67.2667, -166.547
4.04789, -1, -47.2389, -11.9781, 29.361, 13.6663, 67.2644, -166.553
4.05589, 2, -47.2446, -11.981, 29.3612, 13.6663, 67.2632, -166.555
4.0639, 2, -47.2468, -11.9823, 29.3613, 13.6664, 67.2627, -166.557
4.07188, 2, -47.2468, -11.9829, 29.3614, 13.6664, 67.2624, -166.557
4.07999, 2, -47.2465, -11.9831, 29.3615, 13.6664, 67.2623, -166.558
4.0879, 2, -47.2464, -11.9832, 29.3615, 13.6664, 67.2623, -166.558
4.09587, 2, -47.2468, -11.9833, 29.3615, 13.6664, 67.2622, -166.558
4.1039, 2, -47.2478, -11.9835, 29.3616, 13.6664, 67.2622, -166.558
4.11349, 2, -47.2491, -11.984, 29.3616, 13.6664, 67.2622, -166.558
4.11988, 2, -47.2509, -11.9847, 29.3616, 13.6664, 67.2622, -166.558
4.12886, 2, -47.2526, -11.9856, 29.3616, 13.6664, 67.2622, -166.558
4.13592, 2, -47.254, -11.9864, 29.3616, 13.6664, 67.2622, -166.558
4.14388, 2, -47.2551, -11.987, 29.3616, 13.6664, 67.2622, -166.558
4.1519, 2, -47.2555, -11.9874, 29.3616, 13.6664, 67.2622, -166.558
4.1599, 2, -47.2558, -11.9876, 29.3616, 13.6664, 67.2622, -166.558
4.16787, 2, -47.2558, -11.9877, 29.3616, 13.6664, 67.2623, -166.558
4.17593, 2, -47.2555, -11.9877, 29.3616, 13.6665, 67.2622, -166.558
4.18394, 2, -47.255, -11.9877, 29.3616, 13.6665, 67.2622, -166.558
4.19188, 2, -47.2544, -11.9877, 29.3617, 13.6665, 67.2622, -166.558
4.19991, 2, -47.254, -11.9876, 29.3617, 13.6665, 67.2622, -166.558
4.20792, 2, -47.2537, -11.9877, 29.3617, 13.6665, 67.2622, -166.558
4.21587, 2, -47.2537, -11.9877, 29.3617, 13.6665, 67.2622, -166.558
4.2239, 2, -47.2538, -11.9879, 29.3617, 13.6664, 67.2623, -166.558
4.23192, 2, -47.254, -11.9882, 29.3617, 13.6664, 67.2623, -166.558
4.23987, 2, -47.2546, -11.9885, 29.3617, 13.6664, 67.2623, -166.558
4.24789, 2, -47.2552, -11.9888, 29.3616, 13.6664, 67.2622, -166.558
4.25591, 2, -47.2557, -11.989, 29.3617, 13.6664, 67.2622, -166.558
4.26387, 2, -47.2558, -11.9891, 29.3616, 13.6664, 67.2622, -166.558
4.2719, 2, -47.2559, -11.9891, 29.3617, 13.6664, 67.2623, -166.558
4.27991, 2, -47.2557, -11.9891, 29.3617, 13.6664, 67.2623, -166.558
4.28787, 2, -47.2556, -11.989, 29.3617, 13.6664, 67.2623, -166.558
4.29589, 2, -47.2552, -11.989, 29.3617, 13.6664, 67.2623, -166.558
4.30393, 2, -47.2547, -11.9889, 29.3617, 13.6664, 67.2623, -166.558
4.31191, 2, -47.2544, -11.9889, 29.3617, 13.6664, 67.2623, -166.558
4.31998, 2, -47.2541, -11.9889, 29.3617, 13.6664, 67.2623, -166.557
4.32802, 2, -47.2539, -11.989, 29.3617, 13.6664, 67.2622, -166.557
4.33597, 2, -47.2539, -11.989, 29.3617, 13.6664, 67.2623, -166.557
4.34404, 2, -47.2538, -11.9891, 29.3617, 13.6664, 67.2623, -166.557
4.35205, 2, -47.2539, -11.9891, 29.3617, 13.6664, 67.2623, -166.557
4.35992, 2, -47.2538, -11.9892, 29.3617, 13.6663, 67.2623, -166.557
4.36803, 2, -47.2539, -11.9892, 29.3617, 13.6663, 67.2623, -166.557
4.37609, 2, -47.254, -11.9892, 29.3617, 13.6664, 67.2623, -166.557
4.38287, 2, -47.254, -11.9892, 29.3617, 13.6664, 67.2623, -166.557
4.39206, 2, -47.2539, -11.9891, 29.3617, 13.6664, 67.2623, -166.557
4.39885, 2, -47.2539, -11.9891, 29.3617, 13.6665, 67.2623, -166.557
4.40812, 2, -47.2538, -11.989, 29.3617, 13.6664, 67.2623, -166.557
4.41491, 2, -47.2537, -11.989, 29.3617, 13.6664, 67.2623, -166.557
4.42447, 2, -47.2534, -11.989, 29.3617, 13.6664, 67.2623, -166.557
4.43228, 2, -47.2533, -11.989, 29.3617, 13.6664, 67.2623, -166.557
4.43887, 2, -47.2532, -11.989, 29.3617, 13.6664, 67.2623, -166.557
4.44844, 2, -47.2531, -11.989, 29.3617, 13.6664, 67.2623, -166.557
4.45647, 2, -47.2531, -11.989, 29.3617, 13.6664, 67.2623, -166.557
4.46441, 2, -47.253, -11.989, 29.3617, 13.6663, 67.2623, -166.557
4.4727, 2, -47.253, -11.989, 29.3617, 13.6664, 67.2623, -166.557
4.48048, 2, -47.253, -11.989, 29.3617, 13.6663, 67.2623, -166.557
4.48841, 2, -47.2529, -11.989, 29.3617, 13.6663, 67.2623, -166.557
4.49588, 2, -47.2528, -11.9889, 29.3617, 13.6663, 67.2623, -166.557
4.50386, 2, -47.2528, -11.9889, 29.3617, 13.6663, 67.2624, -166.557
4.51192, 2, -47.2527, -11.9888, 29.3617, 13.6663, 67.2624, -166.557
4.51992, 2, -47.2526, -11.9888, 29.3617, 13.6663, 67.2624, -166.557
4.52786, 2, -47.2525, -11.9888, 29.3617, 13.6663, 67.2624, -166.557
4.53589, 2, -47.2524, -11.9888, 29.3617, 13.6663, 67.2624, -166.557
4.54388, 2, -47.2523, -11.9888, 29.3617, 13.6663, 67.2624, -166.557
4.55187, 2, -47.2522, -11.9888, 29.3617, 13.6663, 67.2624, -166.557
4.55987, 2, -47.2521, -11.9888, 29.3617, 13.6663, 67.2624, -166.557
4.56788, 2, -47.2521, -11.9888, 29.3617, 13.6663, 67.2624, -166.557
4.57595, 2, -47.252, -11.9888, 29.3617, 13.6663, 67.2624, -166.557
4.58388, 2, -47.2519, -11.9888, 29.3616, 13.6663, 67.2625, -166.557
4.59189, 2, -47.2517, -11.9888, 29.3617, 13.6663, 67.2625, -166.557
4.59985, 2, -47.2516, -11.9887, 29.3617, 13.6663, 67.2625, -166.557
4.60788, 2, -47.2516, -11.9887, 29.3617, 13.6663, 67.2625, -166.557
4.6177, 2, -47.2514, -11.9886, 29.3617, 13.6663, 67.2625, -166.557
4.62388, 2, -47.2513, -11.9886, 29.3617, 13.6663, 67.2625, -166.557
4.63284, 2, -47.2512, -11.9886, 29.3617, 13.6662, 67.2626, -166.557
4.63993, 2, -47.2511, -11.9886, 29.3617, 13.6662, 67.2626, -166.557
4.64886, 2, -47.251, -11.9886, 29.3617, 13.6663, 67.2626, -166.557
4.65587, 2, -47.2509, -11.9886, 29.3617, 13.6663, 67.2625, -166.557
4.66389, 2, -47.2508, -11.9886, 29.3617, 13.6663, 67.2625, -166.557
4.67187, 2, -47.2507, -11.9886, 29.3617, 13.6662, 67.2625, -166.557
4.67991, 2, -47.2506, -11.9886, 29.3617, 13.6662, 67.2626, -166.557
4.68792, 2, -47.2505, -11.9885, 29.3617, 13.6662, 67.2626, -166.557
4.69584, 2, -47.2505, -11.9885, 29.3617, 13.6662, 67.2626, -166.557
4.7039, 2, -47.2504, -11.9885, 29.3616, 13.6662, 67.2626, -166.557
4.7119, 2, -47.2504, -11.9884, 29.3616, 13.6662, 67.2626, -166.557
4.71985, 2, -47.2503, -11.9884, 29.3617, 13.6662, 67.2626, -166.557
4.72788, 2, -47.2502, -11.9883, 29.3616, 13.6662, 67.2626, -166.557
4.73589, 2, -47.2501, -11.9883, 29.3617, 13.6662, 67.2627, -166.557
4.74385, 2, -47.25, -11.9883, 29.3617, 13.6662, 67.2627, -166.557
4.75188, 2, -47.2499, -11.9883, 29.3617, 13.6662, 67.2627, -166.556
4.75988, 2, -47.2499, -11.9883, 29.3617, 13.6661, 67.2627, -166.556
4.76786, 2, -47.2499, -11.9883, 29.3617, 13.6661, 67.2627, -166.556
4.77587, 2, -47.2499, -11.9883, 29.3617, 13.6662, 67.2627, -166.556
4.78389, 2, -47.2498, -11.9883, 29.3617, 13.6661, 67.2627, -166.556
4.79187, 2, -47.2498, -11.9883, 29.3617, 13.6661, 67.2627, -166.556
4.79988, 2, -47.2498, -11.9882, 29.3617, 13.6661, 67.2627, -166.556
4.80791, 2, -47.2498, -11.9882, 29.3617, 13.6661, 67.2627, -166.556
4.8159, 2, -47.2497, -11.9881, 29.3616, 13.666, 67.2627, -166.556
4.82396, 2, -47.2497, -11.9881, 29.3616, 13.6661, 67.2628, -166.556
4.83199, 2, -47.2496, -11.988, 29.3616, 13.666, 67.2628, -166.556
4.83994, 2, -47.2495, -11.988, 29.3617, 13.666, 67.2628, -166.556
4.84802, 2, -47.2494, -11.988, 29.3617, 13.6661, 67.2628, -166.556
4.85602, 2, -47.2493, -11.988, 29.3617, 13.6661, 67.2628, -166.556
4.86369, 2, -47.2493, -11.988, 29.3616, 13.666, 67.2628, -166.556
4.87201, 2, -47.2492, -11.988, 29.3616, 13.666, 67.2629, -166.556
4.87992, 2, -47.2491, -11.988, 29.3616, 13.6659, 67.2628, -166.556
4.88795, 2, -47.2491, -11.9879, 29.3616, 13.666, 67.2629, -166.556
4.89594, 2, -47.2491, -11.9879, 29.3617, 13.6659, 67.2628, -166.556
4.904, 2, -47.2491, -11.9879, 29.3617, 13.6659, 67.2628, -166.556
4.91089, 2, -47.2491, -11.9879, 29.3617, 13.6659, 67.2629, -166.556
4.92035, 2, -47.249, -11.9878, 29.3617, 13.6659, 67.2629, -166.556
4.92684, 2, -47.249, -11.9878, 29.3617, 13.6659, 67.2629, -166.556
4.93648, 2, -47.2489, -11.9877, 29.3617, 13.6659, 67.263, -166.556
4.94431, 2, -47.2488, -11.9877, 29.3617, 13.6659, 67.263, -166.556
4.95084, 2, -47.2488, -11.9877, 29.3616, 13.6659, 67.263, -166.556
4.96077, 2, -47.2487, -11.9876, 29.3616, 13.6659, 67.263, -166.556
4.96847, 2, -47.2486, -11.9876, 29.3616, 13.6659, 67.263, -166.556
4.97645, 2, -47.2485, -11.9876, 29.3616, 13.6658, 67.263, -166.556
4.98465, 2, -47.2485, -11.9876, 29.3616, 13.6658, 67.263, -166.556
4.99251, 2, -47.2485, -11.9876, 29.3616, 13.6658, 67.263, -166.556
4.99986, 2, -47.2485, -11.9876, 29.3616, 13.6658, 67.263, -166.556
5.00871, 2, -47.2484, -11.9876, 29.3617, 13.6658, 67.263, -166.556
5.01592, 2, -47.2484, -11.9876, 29.3617, 13.6658, 67.263, -166.556
5.0239, 2, -47.2484, -11.9875, 29.3616, 13.6658, 67.263, -166.556
5.03184, 2, -47.2483, -11.9875, 29.3616, 13.6658, 67.263, -166.556
5.03987, 2, -47.2482, -11.9874, 29.3616, 13.6658, 67.2631, -166.556
5.04786, 2, -47.2481, -11.9874, 29.3616, 13.6657, 67.2631, -166.556
5.05759, 2, -47.248, -11.9874, 29.3616, 13.6657, 67.2631, -166.556
5.06418, 2, -47.248, -11.9873, 29.3616, 13.6657, 67.2631, -166.556
5.07187, 2, -47.2479, -11.9873, 29.3616, 13.6657, 67.2631, -166.556
5.07983, 2, -47.2479, -11.9873, 29.3616, 13.6657, 67.2631, -166.556
5.08786, 2, -47.2478, -11.9873, 29.3616, 13.6657, 67.2631, -166.556
5.09582, 2, -47.2478, -11.9873, 29.3616, 13.6657, 67.2631, -166.556
5.10383, 2, -47.2478, -11.9873, 29.3616, 13.6657, 67.2631, -166.556
5.11187, 2, -47.2478, -11.9873, 29.3616, 13.6656, 67.2631, -166.556
5.12139, 4, -47.2478, -11.9872, 29.3616, 13.6657, 67.2631, -166.556
5.12782, 4, -47.2477, -11.9872, 29.3616, 13.6656, 67.2631, -166.556
5.13781, 4, -47.2477, -11.9871, 29.3616, 13.6656, 67.2631, -166.556
5.14389, 4, -47.2476, -11.9871, 29.3616, 13.6656, 67.2631, -166.556
5.15183, 4, -47.2476, -11.9871, 29.3616, 13.6656, 67.2631, -166.556
5.15986, 4, -47.2475, -11.9871, 29.3616, 13.6656, 67.2631, -166.556
5.16787, 4, -47.2474, -11.9871, 29.3616, 13.6655, 67.2631, -166.556
5.17582, 4, -47.2474, -11.987, 29.3616, 13.6655, 67.2631, -166.556
5.1839, 4, -47.2473, -11.987, 29.3616, 13.6655, 67.2631, -166.556
5.19191, 4, -47.2472, -11.987, 29.3616, 13.6655, 67.2631, -166.556
5.19982, 4, -47.2472, -11.987, 29.3616, 13.6655, 67.2631, -166.556
5.20788, 4, -47.2472, -11.987, 29.3616, 13.6655, 67.2631, -166.556
5.21586, 4, -47.2472, -11.987, 29.3617, 13.6654, 67.2631, -166.556
5.2427, 4, -47.2471, -11.9868, 29.3616, 13.6654, 67.2632, -166.556
5.24513, 4, -47.2471, -11.9868, 29.3616, 13.6654, 67.2632, -166.556
5.24796, 4, -47.247, -11.9868, 29.3617, 13.6654, 67.2631, -166.556
5.24982, 4, -47.247, -11.9868, 29.3617, 13.6654, 67.2631, -166.556
5.25607, 4, -47.247, -11.9868, 29.3617, 13.6654, 67.2632, -166.556
5.26382, 4, -47.2469, -11.9868, 29.3616, 13.6654, 67.2631, -166.556
5.27182, 4, -47.247, -11.9868, 29.3617, 13.6654, 67.2632, -166.556
5.27991, 4, -47.2479, -11.9873, 29.362, 13.6655, 67.2633, -166.556
5.28782, 4, -47.2501, -11.9889, 29.3638, 13.6672, 67.2638, -166.555
5.29582, 4, -47.2536, -11.9923, 29.3687, 13.6765, 67.266, -166.554
5.30393, 4, -47.2585, -11.998, 29.3785, 13.6981, 67.2712, -166.55
5.31187, 4, -47.2651, -12.006, 29.3951, 13.7348, 67.2809, -166.542
5.3199, 5, -47.274, -12.0167, 29.4198, 13.7908, 67.2961, -166.53
5.32826, 5, -47.2853, -12.0306, 29.4529, 13.8665, 67.3172, -166.512
5.33536, 5, -47.2986, -12.0473, 29.4935, 13.9599, 67.3437, -166.49
5.34392, 5, -47.3136, -12.0664, 29.5405, 14.0683, 67.3738, -166.464
5.35235, 5, -47.3303, -12.0876, 29.5923, 14.1861, 67.4064, -166.436
5.35937, 5, -47.3392, -12.0991, 29.647, 14.3096, 67.4405, -166.406
5.36881, 5, -47.368, -12.1361, 29.7034, 14.4358, 67.4764, -166.376
5.37584, 5, -47.3883, -12.1618, 29.7607, 14.5635, 67.5121, -166.346
5.38463, 5, -47.4095, -12.1881, 29.8186, 14.6918, 67.5473, -166.316
5.3921, 5, -47.431, -12.2147, 29.8768, 14.8204, 67.5824, -166.285
5.39886, 5, -47.4418, -12.2281, 29.9061, 14.8846, 67.6002, -166.27
5.40879, 5, -47.4744, -12.2685, 29.9942, 15.078, 67.6537, -166.223
5.41639, 5, -47.4963, -12.2955, 30.0534, 15.2069, 67.6885, -166.193
5.42416, 5, -47.5181, -12.3225, 30.1129, 15.3358, 67.7232, -166.163
5.43081, 5, -47.529, -12.336, 30.1428, 15.4004, 67.7407, -166.148
5.43883, 5, -47.5508, -12.3631, 30.2027, 15.5295, 67.7761, -166.118
5.44831, 5, -47.5832, -12.4037, 30.2929, 15.7233, 67.8279, -166.072
5.4572, 5, -47.6047, -12.4307, 30.3533, 15.8524, 67.8619, -166.042
5.46297, 5, -47.6155, -12.4443, 30.3836, 15.9169, 67.879, -166.027
5.47159, 5, -47.6372, -12.4715, 30.4444, 16.046, 67.9138, -165.998
5.47887, 5, -47.6591, -12.499, 30.5054, 16.175, 67.9481, -165.968
5.48691, 5, -47.6812, -12.5265, 30.5666, 16.3041, 67.9817, -165.939
5.49645, 5, -47.7035, -12.5542, 30.6281, 16.4332, 68.0322, -165.894
5.5038, 5, -47.7261, -12.582, 30.6898, 16.5622, 68.0493, -165.879
5.51284, 5, -47.7598, -12.6241, 30.7829, 16.7559, 68.1001, -165.835
5.51985, 5, -47.771, -12.638, 30.814, 16.8203, 68.1166, -165.821
5.52786, 5, -47.7934, -12.6661, 30.8765, 16.9494, 68.1494, -165.792
5.53481, 5, -47.816, -12.6941, 30.9393, 17.0785, 68.1824, -165.763
5.54514, 5, -47.8386, -12.7222, 31.0337, 17.2723, 68.2322, -165.72
5.5508, 5, -47.8613, -12.7504, 31.0653, 17.3369, 68.2485, -165.705
5.5598, 5, -47.8842, -12.7784, 31.1286, 17.4659, 68.2808, -165.676
5.56781, 5, -47.9069, -12.8066, 31.1922, 17.5951, 68.313, -165.648
5.57582, 5, -47.9293, -12.8348, 31.256, 17.7242, 68.3459, -165.62
5.58284, 5, -47.9519, -12.8633, 31.32, 17.8534, 68.3785, -165.591
5.5918, 5, -47.9744, -12.8917, 31.3843, 17.9827, 68.4103, -165.563
5.5998, 5, -47.997, -12.9202, 31.4488, 18.1119, 68.4419, -165.535
5.60682, 5, -48.0198, -12.9489, 31.5135, 18.2412, 68.4737, -165.506
5.6158, 5, -48.0428, -12.9778, 31.5784, 18.3704, 68.5058, -165.478
5.62624, 5, -48.0659, -13.0067, 31.6436, 18.4996, 68.5374, -165.45
5.6308, 5, -48.089, -13.0355, 31.7089, 18.6289, 68.5686, -165.422
5.64058, 5, -48.1122, -13.0644, 31.7744, 18.758, 68.5996, -165.395
5.64781, 5, -48.1355, -13.0934, 31.8401, 18.8874, 68.6312, -165.367
5.65588, 5, -48.1586, -13.1224, 31.9061, 19.0168, 68.6627, -165.34
5.66382, 5, -48.1818, -13.1515, 31.9723, 19.1462, 68.6936, -165.312
5.67188, 5, -48.2052, -13.1806, 32.0388, 19.2755, 68.724, -165.284
5.67981, 5, -48.2283, -13.2097, 32.1055, 19.4047, 68.7545, -165.257
5.68783, 5, -48.2515, -13.239, 32.1725, 19.5341, 68.7854, -165.231
5.69591, 5, -48.2747, -13.2682, 32.2397, 19.6634, 68.8162, -165.204
5.7038, 5, -48.298, -13.2976, 32.3071, 19.7928, 68.8463, -165.177
5.71182, 5, -48.3212, -13.327, 32.3747, 19.9221, 68.8762, -165.15
5.71989, 5, -48.3446, -13.3565, 32.4424, 20.0515, 68.9063, -165.122
5.72781, 5, -48.3681, -13.386, 32.5103, 20.1808, 68.9367, -165.096
5.73595, 5, -48.3915, -13.4155, 32.5785, 20.31, 68.9668, -165.069
5.74328, 5, -48.4149, -13.4451, 32.647, 20.4394, 68.9963, -165.043
5.75084, 5, -48.4386, -13.4748, 32.7157, 20.5688, 69.0254, -165.017
5.75989, 5, -48.4622, -13.5046, 32.7847, 20.6983, 69.0548, -164.99
5.76781, 5, -48.4858, -13.5344, 32.8539, 20.8276, 69.0845, -164.963
5.7758, 5, -48.5096, -13.5641, 32.9233, 20.9571, 69.1138, -164.937
5.78388, 5, -48.5333, -13.5941, 32.9928, 21.0865, 69.1427, -164.91
5.79184, 5, -48.5569, -13.624, 33.0625, 21.2158, 69.1713, -164.885
5.79981, 5, -48.5805, -13.6539, 33.1324, 21.3452, 69.2001, -164.859
5.80796, 5, -48.6043, -13.6841, 33.2025, 21.4748, 69.2293, -164.833
5.81679, 5, -48.6279, -13.7142, 33.2729, 21.6043, 69.2582, -164.807
5.82387, 5, -48.6516, -13.7444, 33.3434, 21.7338, 69.2865, -164.781
5.8319, 5, -48.6753, -13.7746, 33.4143, 21.8632, 69.3145, -164.755
5.84024, 5, -48.6984, -13.8046, 33.4852, 21.9926, 69.3426, -164.729
5.84736, 5, -48.7208, -13.8346, 33.5562, 22.1214, 69.3714, -164.703
5.85703, 5, -48.7425, -13.8643, 33.627, 22.2493, 69.4001, -164.675
5.86394, 5, -48.7634, -13.8936, 33.6972, 22.3759, 69.4288, -164.645
5.87198, 5, -48.7832, -13.9224, 33.7666, 22.5004, 69.4578, -164.612
5.87984, 5, -48.8019, -13.9507, 33.835, 22.6222, 69.4877, -164.574
5.88819, 6, -48.8193, -13.9784, 33.9022, 22.7408, 69.5191, -164.532
5.89587, 6, -48.8354, -14.0052, 33.9681, 22.8557, 69.551, -164.485
5.90394, 6, -48.8496, -14.0313, 34.0325, 22.9671, 69.5833, -164.432
5.91201, 6, -48.8618, -14.0565, 34.0954, 23.0747, 69.6163, -164.373
5.92006, 6, -48.872, -14.0809, 34.1568, 23.1784, 69.6509, -164.309
5.92683, 6, -48.8764, -14.0928, 34.1868, 23.229, 69.6687, -164.274
5.93614, 6, -48.8872, -14.1269, 34.2748, 23.375, 69.7226, -164.163
5.94281, 6, -48.8899, -14.1378, 34.3034, 23.422, 69.7407, -164.124
5.95229, 6, -48.8956, -14.1696, 34.387, 23.5582, 69.7972, -163.997
5.96033, 6, -48.8975, -14.1897, 34.4412, 23.6455, 69.836, -163.908
5.96842, 6, -48.8983, -14.2094, 34.4943, 23.7304, 69.8746, -163.814
5.97634, 7, -48.8982, -14.2285, 34.5464, 23.8131, 69.9136, -163.718
5.98466, 7, -48.8969, -14.2468, 34.5975, 23.8944, 69.9539, -163.618
5.99241, 7, -48.8959, -14.2558, 34.6228, 23.9341, 69.9944, -163.516
5.99979, 7, -48.893, -14.2734, 34.6727, 24.0126, 70.0146, -163.463
6.00784, 7, -48.8892, -14.2906, 34.7218, 24.0895, 70.0555, -163.357
6.0158, 7, -48.8845, -14.3072, 34.7701, 24.1652, 70.0976, -163.249
6.02382, 7, -48.8789, -14.3233, 34.8176, 24.2389, 70.1401, -163.138
6.03184, 7, -48.8726, -14.3393, 34.8643, 24.3116, 70.182, -163.025
6.03983, 7, -48.8655, -14.3548, 34.9105, 24.3828, 70.2249, -162.91
6.04781, 7, -48.8578, -14.3695, 34.956, 24.4534, 70.2685, -162.793
6.05703, 7, -48.8497, -14.384, 35.001, 24.5571, 70.3333, -162.615
6.0669, 8, -48.8362, -14.4056, 35.0675, 24.6262, 70.3775, -162.494
6.07175, 8, -48.8313, -14.4125, 35.0896, 24.6601, 70.3999, -162.434
6.07884, 8, -48.8214, -14.426, 35.1332, 24.7279, 70.4442, -162.312
6.08779, 8, -48.811, -14.4394, 35.1764, 24.7956, 70.4884, -162.189
6.09591, 8, -48.8, -14.4528, 35.2193, 24.8624, 70.5337, -162.066
6.10638, 8, -48.7828, -14.4726, 35.2831, 24.9626, 70.6014, -161.88
6.11081, 8, -48.777, -14.479, 35.3042, 24.9958, 70.624, -161.817
6.11979, 8, -48.7651, -14.4915, 35.3461, 25.0625, 70.6699, -161.691
6.12781, 8, -48.753, -14.5041, 35.3878, 25.1282, 70.7159, -161.565
6.13679, 8, -48.7408, -14.5165, 35.4293, 25.1946, 70.7611, -161.438
6.14378, 8, -48.7284, -14.5289, 35.4705, 25.2601, 70.807, -161.312
6.15179, 9, -48.7157, -14.5408, 35.5115, 25.3264, 70.8534, -161.185
6.15996, 9, -48.7029, -14.5525, 35.5525, 25.392, 70.899, -161.057
6.1701, 9, -48.6835, -14.5701, 35.6136, 25.4916, 70.9685, -160.867
6.17479, 9, -48.677, -14.576, 35.6339, 25.5245, 70.9918, -160.804
6.18378, 9, -48.6639, -14.5878, 35.6744, 25.591, 71.0375, -160.677
6.1919, 9, -48.6506, -14.5993, 35.7147, 25.6575, 71.0834, -160.55
6.19985, 9, -48.6372, -14.6106, 35.7551, 25.724, 71.1302, -160.423
6.20788, 9, -48.6238, -14.622, 35.7951, 25.7912, 71.1762, -160.296
6.2158, 9, -48.6104, -14.6333, 35.835, 25.858, 71.2224, -160.17
6.22378, 9, -48.5968, -14.6448, 35.875, 25.9258, 71.2694, -160.043
6.23193, 9, -48.5832, -14.6562, 35.9149, 25.9929, 71.316, -159.916
6.23921, 10, -48.5696, -14.6672, 35.9548, 26.0611, 71.3619, -159.79
6.24785, 10, -48.5559, -14.6783, 35.9946, 26.1288, 71.4089, -159.665
6.2558, 10, -48.5424, -14.6894, 36.0342, 26.1975, 71.4556, -159.539
6.26382, 10, -48.5288, -14.7006, 36.074, 26.2654, 71.5016, -159.413
6.27184, 10, -48.5152, -14.7119, 36.1137, 26.3344, 71.5485, -159.288
6.28052, 10, -48.5015, -14.723, 36.1532, 26.4033, 71.5952, -159.163
6.28779, 10, -48.4878, -14.7338, 36.1928, 26.4728, 71.641, -159.038
6.29579, 10, -48.4739, -14.7448, 36.2325, 26.5421, 71.6875, -158.913
6.30459, 10, -48.4601, -14.7558, 36.272, 26.6121, 71.734, -158.789
6.31179, 10, -48.4463, -14.7671, 36.3115, 26.682, 71.7798, -158.665
6.31985, 10, -48.4325, -14.7783, 36.3508, 26.7524, 71.8261, -158.541
6.32944, 11, -48.4187, -14.7893, 36.3902, 26.8228, 71.8728, -158.418
6.33763, 11, -48.4049, -14.8003, 36.4295, 26.8936, 71.9184, -158.294
6.34394, 11, -48.391, -14.8114, 36.4688, 26.9645, 71.9644, -158.171
6.35189, 11, -48.3772, -14.8225, 36.5079, 27.0356, 72.011, -158.048
6.35998, 11, -48.3633, -14.8338, 36.5471, 27.1069, 72.0566, -157.926
6.36797, 11, -48.3494, -14.845, 36.5863, 27.1783, 72.1025, -157.803
6.3758, 11, -48.3354, -14.8559, 36.6255, 27.25, 72.1491, -157.681
6.38478, 11, -48.3212, -14.8668, 36.6646, 27.3219, 72.1949, -157.559
6.39181, 11, -48.3071, -14.8778, 36.7036, 27.3939, 72.2404, -157.437
6.39986, 11, -48.2929, -14.8888, 36.7427, 27.466, 72.2867, -157.316
6.40827, 11, -48.2786, -14.9, 36.7816, 27.5384, 72.3324, -157.194
6.41474, 12, -48.2714, -14.9055, 36.801, 27.5745, 72.355, -157.134
6.42403, 12, -48.2499, -14.9216, 36.8593, 27.6835, 72.4238, -156.952
6.43101, 12, -48.2427, -14.9271, 36.8787, 27.7196, 72.4468, -156.892
6.44069, 12, -48.221, -14.9436, 36.9369, 27.829, 72.5146, -156.711
6.44827, 12, -48.2065, -14.9548, 36.9756, 27.902, 72.5602, -156.59
6.45478, 12, -48.1991, -14.9604, 36.9948, 27.9386, 72.5832, -156.53
6.46432, 12, -48.1769, -14.9768, 37.0524, 28.048, 72.6509, -156.351
6.47237, 12, -48.1619, -14.9877, 37.0909, 28.1211, 72.6963, -156.231
6.48056, 12, -48.1468, -14.9987, 37.1292, 28.1943, 72.7422, -156.111
6.48837, 12, -48.1393, -15.0097, 37.1673, 28.2675, 72.7871, -155.992
6.4965, 12, -48.124, -15.0209, 37.2055, 28.3409, 72.8319, -155.872
6.50474, 13, -48.1087, -15.0264, 37.2436, 28.4144, 72.8776, -155.752
6.5116, 13, -48.0931, -15.0372, 37.2626, 28.451, 72.9001, -155.693
6.51878, 13, -48.0776, -15.048, 37.3005, 28.5246, 72.9445, -155.574
6.52781, 13, -48.0619, -15.0589, 37.3384, 28.5979, 72.9894, -155.454
6.53583, 13, -48.046, -15.0698, 37.376, 28.6715, 73.0349, -155.335
6.54377, 13, -48.0301, -15.0809, 37.4137, 28.7447, 73.0792, -155.217
6.55484, 13, -48.0056, -15.0972, 37.4701, 28.8548, 73.1463, -155.039
6.55992, 13, -47.9973, -15.1025, 37.4887, 28.8915, 73.169, -154.979
6.56777, 13, -47.9808, -15.1132, 37.5261, 28.9651, 73.2136, -154.86
6.57583, 13, -47.9642, -15.124, 37.5635, 29.0384, 73.2579, -154.741
6.58392, 13, -47.9475, -15.1349, 37.6006, 29.1118, 73.3031, -154.623
6.59175, 14, -47.9305, -15.1459, 37.6376, 29.1851, 73.3478, -154.504
6.59993, 14, -47.9135, -15.1567, 37.6746, 29.2585, 73.3916, -154.386
6.60778, 14, -47.8965, -15.1673, 37.7114, 29.3318, 73.436, -154.268
6.61578, 14, -47.8793, -15.1781, 37.7481, 29.4052, 73.4805, -154.15
6.62384, 14, -47.8618, -15.1889, 37.7848, 29.4784, 73.5243, -154.032
6.63281, 14, -47.844, -15.1998, 37.8211, 29.5516, 73.5686, -153.915
6.63989, 14, -47.8262, -15.2107, 37.8575, 29.6248, 73.6134, -153.797
6.64882, 14, -47.8081, -15.2214, 37.8938, 29.6977, 73.6571, -153.679
6.65579, 14, -47.79, -15.232, 37.93, 29.7705, 73.7008, -153.561
6.66383, 14, -47.7716, -15.2426, 37.9661, 29.8435, 73.7453, -153.443
6.67177, 14, -47.7532, -15.2533, 38.0021, 29.9164, 73.7891, -153.325
6.68006, 15, -47.7347, -15.2642, 38.0379, 29.9892, 73.8325, -153.208
6.69094, 15, -47.7066, -15.2802, 38.0916, 30.0984, 73.8989, -153.032
6.6958, 15, -47.6971, -15.2855, 38.1095, 30.1346, 73.9208, -152.973
6.70383, 15, -47.6778, -15.296, 38.1449, 30.2073, 73.964, -152.856
6.71178, 15, -47.6586, -15.3067, 38.1803, 30.2797, 74.0076, -152.739
6.71983, 15, -47.6391, -15.3175, 38.2157, 30.3522, 74.0515, -152.622
6.72777, 15, -47.6194, -15.3284, 38.2509, 30.4245, 74.0946, -152.504
6.73583, 15, -47.5996, -15.3391, 38.286, 30.497, 74.1378, -152.388
6.74376, 15, -47.5796, -15.3497, 38.3211, 30.569, 74.1816, -152.271
6.75178, 15, -47.5596, -15.3603, 38.3559, 30.6412, 74.2247, -152.154
6.75988, 15, -47.5392, -15.371, 38.3907, 30.713, 74.2672, -152.038
6.76781, 16, -47.5186, -15.3819, 38.4255, 30.7851, 74.3103, -151.922
6.77655, 16, -47.4979, -15.3929, 38.46, 30.8568, 74.3535, -151.806
6.78556, 16, -47.4772, -15.4036, 38.4944, 30.9289, 74.3956, -151.69
6.79101, 16, -47.4562, -15.4143, 38.5289, 31.0007, 74.4382, -151.575
6.79898, 16, -47.4351, -15.425, 38.5633, 31.0727, 74.4813, -151.459
6.80719, 16, -47.4139, -15.4359, 38.5975, 31.1442, 74.5233, -151.344
6.81509, 16, -47.3926, -15.4469, 38.6317, 31.2159, 74.5649, -151.228
6.82326, 16, -47.3709, -15.458, 38.6658, 31.2874, 74.6074, -151.113
6.83192, 16, -47.3491, -15.4688, 38.6997, 31.3591, 74.6495, -150.999
6.8399, 16, -47.3273, -15.4796, 38.7337, 31.4303, 74.6908, -150.884
6.84788, 16, -47.3052, -15.4906, 38.7677, 31.5018, 74.7326, -150.77
6.85603, 17, -47.283, -15.5016, 38.8014, 31.573, 74.7748, -150.655
6.86405, 17, -47.2606, -15.5129, 38.835, 31.6442, 74.816, -150.541
6.87192, 17, -47.2382, -15.5241, 38.8688, 31.7153, 74.8569, -150.427
6.87981, 17, -47.2153, -15.5352, 38.9024, 31.7865, 74.8986, -150.313
6.88787, 17, -47.1923, -15.5464, 38.9359, 31.8578, 74.9398, -150.2
6.89583, 17, -47.1695, -15.5577, 38.9694, 31.9288, 74.9804, -150.086
6.90392, 17, -47.1463, -15.5692, 39.0027, 31.9999, 75.0211, -149.973
6.91194, 17, -47.1229, -15.5809, 39.0359, 32.0708, 75.0623, -149.861
6.9188, 17, -47.1111, -15.5866, 39.0525, 32.1064, 75.0826, -149.804
6.92826, 17, -47.0757, -15.6037, 39.1024, 32.2125, 75.1424, -149.636
6.93475, 17, -47.0637, -15.6095, 39.1189, 32.2481, 75.1624, -149.58
6.94414, 18, -47.0275, -15.627, 39.1683, 32.354, 75.2228, -149.412
6.951, 18, -47.0154, -15.633, 39.1848, 32.3895, 75.2425, -149.356
6.9612, 18, -46.9791, -15.6508, 39.2342, 32.4953, 75.3014, -149.189
6.96675, 18, -46.9669, -15.6566, 39.2507, 32.5308, 75.3212, -149.134
6.97631, 18, -46.9301, -15.6743, 39.3, 32.6361, 75.3805, -148.967
6.98441, 18, -46.9053, -15.6864, 39.3327, 32.7067, 75.419, -148.856
6.99327, 18, -46.8802, -15.6987, 39.3653, 32.7771, 75.4576, -148.746
7.00115, 18, -46.8552, -15.7109, 39.398, 32.8477, 75.4967, -148.636
7.00682, 18, -46.8426, -15.717, 39.4143, 32.8826, 75.516, -148.581
7.01758, 18, -46.8046, -15.7352, 39.4631, 32.9884, 75.5729, -148.417
7.02375, 18, -46.7919, -15.7414, 39.4793, 33.0232, 75.5919, -148.362
7.0309, 19, -46.7662, -15.754, 39.5117, 33.0938, 75.6304, -148.253
7.03979, 19, -46.7403, -15.7667, 39.5442, 33.1634, 75.6685, -148.144
7.04682, 19, -46.7144, -15.7793, 39.5764, 33.2336, 75.7057, -148.035
7.05583, 19, -46.6883, -15.7919, 39.6087, 33.3034, 75.7429, -147.927
7.06375, 19, -46.662, -15.8047, 39.6411, 33.3735, 75.7806, -147.818
7.07075, 19, -46.6355, -15.8177, 39.6732, 33.4431, 75.8178, -147.71
7.0798, 19, -46.6087, -15.8309, 39.7052, 33.513, 75.8542, -147.603
7.08675, 19, -46.5817, -15.8438, 39.7373, 33.5826, 75.8907, -147.496
7.09575, 19, -46.5546, -15.8569, 39.7694, 33.6523, 75.9278, -147.39
7.10379, 19, -46.5275, -15.8702, 39.8013, 33.7218, 75.9643, -147.283
7.11075, 19, -46.5002, -15.8838, 39.8331, 33.7913, 75.9999, -147.177
7.1198, 20, -46.4728, -15.8973, 39.865, 33.8608, 76.0355, -147.071
7.12792, 20, -46.4452, -15.9107, 39.8968, 33.9301, 76.0716, -146.965
7.1358, 20, -46.4173, -15.9244, 39.9285, 33.9994, 76.1072, -146.859
7.1448, 20, -46.3893, -15.9383, 39.9603, 34.0683, 76.1421, -146.754
7.15175, 20, -46.3612, -15.9524, 39.992, 34.1375, 76.1769, -146.649
7.15986, 20, -46.3329, -15.9663, 40.0235, 34.2061, 76.2123, -146.544
7.16777, 20, -46.3045, -15.9802, 40.055, 34.2752, 76.2473, -146.439
7.17576, 20, -46.2759, -15.9944, 40.0866, 34.3437, 76.2814, -146.335
7.18381, 20, -46.2471, -16.0089, 40.118, 34.4128, 76.3153, -146.231
7.19175, 20, -46.2182, -16.0232, 40.1493, 34.4811, 76.3495, -146.128
7.20049, 20, -46.1891, -16.0374, 40.1806, 34.5501, 76.3837, -146.024
7.2079, 21, -46.1598, -16.052, 40.2119, 34.618, 76.4171, -145.921
7.21575, 21, -46.1302, -16.0668, 40.243, 34.6868, 76.4502, -145.817
7.2238, 21, -46.1003, -16.0817, 40.2741, 34.7546, 76.4835, -145.715
7.23175, 21, -46.0703, -16.0963, 40.3052, 34.8232, 76.5171, -145.612
7.23987, 21, -46.0403, -16.1112, 40.3362, 34.8908, 76.5501, -145.51
7.24967, 21, -46.01, -16.1264, 40.3669, 34.9589, 76.5823, -145.408
7.25574, 21, -45.9795, -16.1416, 40.3977, 35.0264, 76.6144, -145.307
7.26382, 21, -45.9488, -16.1566, 40.4285, 35.0941, 76.6471, -145.206
7.27177, 21, -45.918, -16.1718, 40.459, 35.1614, 76.6796, -145.104
7.27979, 21, -45.887, -16.1874, 40.4895, 35.2287, 76.7113, -145.004
7.28783, 21, -45.8559, -16.2029, 40.52, 35.2962, 76.7427, -144.903
7.29574, 22, -45.8245, -16.2183, 40.5504, 35.3631, 76.7744, -144.802
7.3035, 22, -45.7928, -16.2337, 40.5806, 35.4304, 76.8064, -144.702
7.31675, 22, -45.745, -16.2576, 40.6259, 35.5306, 76.8529, -144.551
7.31979, 22, -45.7289, -16.2655, 40.641, 35.564, 76.8682, -144.502
7.32786, 22, -45.6968, -16.2811, 40.6709, 35.6302, 76.8985, -144.401
7.33583, 22, -45.6644, -16.297, 40.7007, 35.6969, 76.9292, -144.302
7.34411, 22, -45.6316, -16.3132, 40.7306, 35.7627, 76.9599, -144.203
7.35137, 22, -45.5987, -16.3294, 40.7603, 35.8291, 76.99, -144.104
7.35988, 22, -45.5657, -16.3454, 40.7898, 35.8947, 77.0197, -144.004
7.36837, 22, -45.5325, -16.3614, 40.8192, 35.9606, 77.0492, -143.905
7.37606, 22, -45.4989, -16.3779, 40.8486, 36.0259, 77.0794, -143.806
7.3849, 23, -45.4652, -16.3942, 40.8779, 36.0912, 77.1092, -143.708
7.39248, 23, -45.4314, -16.4104, 40.9069, 36.1566, 77.1386, -143.609
7.39981, 23, -45.3974, -16.4269, 40.9359, 36.2215, 77.1673, -143.51
7.40783, 23, -45.3632, -16.4435, 40.9649, 36.2868, 77.1958, -143.412
7.41671, 23, -45.3285, -16.46, 40.9936, 36.351, 77.2249, -143.314
7.42449, 23, -45.2938, -16.4765, 41.0221, 36.416, 77.2538, -143.216
7.43288, 23, -45.2589, -16.4932, 41.0505, 36.4797, 77.2822, -143.119
7.44013, 23, -45.2237, -16.51, 41.079, 36.5444, 77.31, -143.021
7.44674, 23, -45.206, -16.5183, 41.0931, 36.5763, 77.324, -142.973
7.45485, 23, -45.1704, -16.5349, 41.1212, 36.6394, 77.352, -142.875
7.46275, 23, -45.1345, -16.5517, 41.1491, 36.7034, 77.3805, -142.778
7.47411, 24, -45.0806, -16.5772, 41.1909, 36.798, 77.4224, -142.633
7.48122, 24, -45.0443, -16.5939, 41.2184, 36.8612, 77.4497, -142.535
7.48833, 24, -45.0077, -16.6108, 41.2459, 36.9234, 77.4767, -142.439
7.49637, 24, -44.9894, -16.6193, 41.2732, 36.9865, 77.504, -142.342
7.50522, 24, -44.9526, -16.6364, 41.2868, 37.0175, 77.5316, -142.245
7.51075, 24, -44.9155, -16.6533, 41.314, 37.0795, 77.5452, -142.197
7.5198, 24, -44.8782, -16.6702, 41.3408, 37.1419, 77.572, -142.101
7.52777, 24, -44.8406, -16.6874, 41.3675, 37.2032, 77.5984, -142.004
7.53577, 24, -44.8028, -16.7045, 41.394, 37.2651, 77.6247, -141.908
7.54374, 24, -44.7647, -16.7214, 41.4206, 37.326, 77.6512, -141.812
7.55189, 24, -44.7264, -16.7384, 41.4467, 37.3874, 77.6779, -141.716
7.55896, 25, -44.6879, -16.7557, 41.4728, 37.448, 77.7042, -141.619
7.56781, 25, -44.6491, -16.7727, 41.4986, 37.5082, 77.7298, -141.524
7.57473, 25, -44.6101, -16.7897, 41.5244, 37.5688, 77.7552, -141.427
7.58373, 25, -44.5708, -16.8069, 41.5499, 37.6283, 77.7807, -141.332
7.59073, 25, -44.5311, -16.8242, 41.5751, 37.6885, 77.8064, -141.235
7.5998, 25, -44.4914, -16.8411, 41.6004, 37.7477, 77.8322, -141.14
7.60779, 25, -44.4515, -16.8581, 41.6254, 37.8068, 77.8573, -141.044
7.61475, 25, -44.4114, -16.8753, 41.6502, 37.8662, 77.8822, -140.949
7.62376, 25, -44.3708, -16.8923, 41.6747, 37.9245, 77.9068, -140.853
7.63419, 25, -44.3301, -16.9092, 41.699, 37.9835, 77.9315, -140.758
7.63876, 25, -44.2892, -16.9263, 41.7232, 38.0414, 77.9567, -140.662
7.64835, 26, -44.2481, -16.9435, 41.7472, 38.0993, 77.9817, -140.567
7.65653, 26, -44.2065, -16.9603, 41.771, 38.1572, 78.0061, -140.472
7.66373, 26, -44.1649, -16.9771, 41.7946, 38.2142, 78.0302, -140.376
7.67184, 26, -44.123, -16.9942, 41.8179, 38.2719, 78.0538, -140.281
7.67977, 26, -44.0807, -17.0113, 41.841, 38.3283, 78.0778, -140.186
7.68775, 26, -44.0382, -17.028, 41.864, 38.3849, 78.1019, -140.09
7.69979, 26, -43.9742, -17.0534, 41.898, 38.4693, 78.1378, -139.947
7.70378, 26, -43.9528, -17.0619, 41.9093, 38.497, 78.1495, -139.9
7.71175, 26, -43.9095, -17.0787, 41.9317, 38.5532, 78.1728, -139.805
7.71981, 26, -43.866, -17.0952, 41.9538, 38.6084, 78.1958, -139.71
7.72795, 26, -43.8225, -17.112, 41.9759, 38.6633, 78.219, -139.615
7.73487, 27, -43.7786, -17.1289, 41.9974, 38.7188, 78.2425, -139.52
7.74374, 27, -43.7343, -17.1454, 42.0188, 38.773, 78.266, -139.425
7.75173, 27, -43.6899, -17.1618, 42.04, 38.8277, 78.2891, -139.329
7.75995, 27, -43.6453, -17.1786, 42.061, 38.882, 78.3118, -139.234
7.76773, 27, -43.6002, -17.1953, 42.0819, 38.9354, 78.3341, -139.139
7.77579, 27, -43.5551, -17.2116, 42.1026, 38.9895, 78.3564, -139.044
7.78375, 27, -43.5097, -17.2279, 42.1229, 39.0424, 78.3789, -138.949
7.79173, 27, -43.4641, -17.2444, 42.143, 39.0952, 78.4018, -138.854
7.79984, 27, -43.4181, -17.2608, 42.1628, 39.1483, 78.4242, -138.759
7.80792, 27, -43.372, -17.2768, 42.1824, 39.2002, 78.4464, -138.664
7.81573, 27, -43.3256, -17.293, 42.202, 39.2525, 78.4683, -138.57
7.82392, 28, -43.2788, -17.3094, 42.2212, 39.3045, 78.4899, -138.475
7.83615, 28, -43.2085, -17.3334, 42.2496, 39.3811, 78.5228, -138.333
7.83926, 28, -43.1849, -17.3413, 42.259, 39.407, 78.5338, -138.286
7.84782, 28, -43.1376, -17.3573, 42.2775, 39.4581, 78.5561, -138.191
7.8562, 28, -43.09, -17.3735, 42.2958, 39.5081, 78.5778, -138.096
7.86331, 28, -43.0422, -17.3893, 42.314, 39.5591, 78.5992, -138.001
7.87363, 28, -42.9941, -17.4049, 42.3317, 39.6091, 78.6203, -137.906
7.87983, 28, -42.9458, -17.4207, 42.3493, 39.6585, 78.6412, -137.812
7.88787, 28, -42.8972, -17.4367, 42.3667, 39.7088, 78.6623, -137.717
7.89826, 28, -42.8483, -17.4522, 42.3836, 39.7579, 78.6837, -137.622
7.90417, 28, -42.7992, -17.4676, 42.4004, 39.8065, 78.705, -137.527
7.91216, 29, -42.7499, -17.4832, 42.4172, 39.8557, 78.7259, -137.433
7.92056, 29, -42.7003, -17.4987, 42.4338, 39.9039, 78.7464, -137.338
7.92799, 29, -42.6503, -17.5139, 42.4499, 39.9517, 78.7668, -137.244
7.93602, 29, -42.6003, -17.529, 42.4658, 40.0001, 78.7871, -137.149
7.94278, 29, -42.5753, -17.5367, 42.4737, 40.0239, 78.7973, -137.101
7.95075, 29, -42.5249, -17.552, 42.4892, 40.0706, 78.818, -137.006
7.96105, 29, -42.4488, -17.5745, 42.5117, 40.1415, 78.8492, -136.864
7.96828, 29, -42.3979, -17.5893, 42.5268, 40.188, 78.8695, -136.769
7.97639, 29, -42.3465, -17.6043, 42.5417, 40.2339, 78.8896, -136.675
7.98517, 29, -42.2949, -17.6192, 42.5561, 40.2805, 78.9093, -136.58
7.99076, 29, -42.2691, -17.6266, 42.5632, 40.3035, 78.9191, -136.533
8.00068, 30, -42.1913, -17.6483, 42.5844, 40.3712, 78.9486, -136.392
8.00669, 30, -42.1652, -17.6556, 42.5913, 40.3939, 78.9585, -136.345
8.01677, 30, -42.0868, -17.6776, 42.6114, 40.4619, 78.9885, -136.203
8.02375, 30, -42.0605, -17.6848, 42.6181, 40.4841, 78.9985, -136.156
8.03173, 30, -42.0077, -17.699, 42.6314, 40.5284, 79.0181, -136.061
8.03878, 30, -41.9548, -17.7131, 42.6444, 40.5732, 79.0375, -135.967
8.04774, 30, -41.9015, -17.7274, 42.657, 40.6169, 79.0566, -135.872
8.05472, 30, -41.848, -17.7416, 42.6693, 40.6601, 79.0757, -135.778
8.06375, 30, -41.7944, -17.7555, 42.6814, 40.7039, 79.0949, -135.684
8.07172, 30, -41.7405, -17.7693, 42.6932, 40.7472, 79.1143, -135.589
8.07873, 30, -41.6863, -17.7832, 42.7048, 40.7896, 79.1339, -135.495
8.08772, 31, -41.632, -17.7971, 42.7162, 40.8323, 79.1532, -135.401
8.09592, 31, -41.5774, -17.8108, 42.7273, 40.875, 79.1721, -135.306
8.1075, 31, -41.4951, -17.8309, 42.7438, 40.9372, 79.1999, -135.165
8.11169, 31, -41.4676, -17.8376, 42.7492, 40.958, 79.209, -135.118
8.11971, 31, -41.4123, -17.851, 42.7597, 40.9999, 79.2273, -135.024
8.12675, 31, -41.3568, -17.8645, 42.77, 41.0409, 79.2458, -134.929
8.13572, 31, -41.3011, -17.8776, 42.78, 41.0812, 79.2645, -134.835
8.14604, 31, -41.2171, -17.8969, 42.7945, 41.1426, 79.2924, -134.693
8.15178, 31, -41.1891, -17.9034, 42.7992, 41.1629, 79.3016, -134.646
8.15971, 31, -41.1329, -17.9164, 42.8084, 41.2025, 79.3198, -134.551
8.16897, 32, -41.0764, -17.9294, 42.8173, 41.2419, 79.3376, -134.457
8.17592, 32, -41.0197, -17.942, 42.8261, 41.282, 79.3554, -134.363
8.18371, 32, -40.9627, -17.9545, 42.8346, 41.3215, 79.3731, -134.269
8.19177, 32, -40.9055, -17.9669, 42.8429, 41.3601, 79.391, -134.175
8.19971, 32, -40.8482, -17.9795, 42.8511, 41.3989, 79.409, -134.081
8.20776, 32, -40.7905, -17.992, 42.859, 41.4381, 79.4272, -133.987
8.21578, 32, -40.7327, -18.0041, 42.8667, 41.4762, 79.4451, -133.893
8.22373, 32, -40.6747, -18.0161, 42.8743, 41.5136, 79.4627, -133.799
8.23181, 32, -40.6164, -18.0282, 42.8814, 41.5514, 79.48, -133.705
8.23972, 32, -40.558, -18.0403, 42.8882, 41.5893, 79.497, -133.611
8.24772, 32, -40.4993, -18.0523, 42.8948, 41.6263, 79.5138, -133.518
8.256, 33, -40.4403, -18.0639, 42.9012, 41.6627, 79.5309, -133.424
8.26372, 33, -40.3812, -18.0753, 42.9075, 41.6997, 79.548, -133.33
8.27194, 33, -40.3219, -18.0868, 42.9134, 41.7367, 79.5653, -133.236
8.27969, 33, -40.2624, -18.0983, 42.9193, 41.7724, 79.5825, -133.143
8.28772, 33, -40.2028, -18.1098, 42.9248, 41.8078, 79.5994, -133.049
8.29589, 33, -40.143, -18.1211, 42.9301, 41.8435, 79.6159, -132.956
8.30372, 33, -40.083, -18.1321, 42.935, 41.8793, 79.6324, -132.862
8.31179, 33, -40.0228, -18.1431, 42.9397, 41.9141, 79.6487, -132.768
8.32008, 33, -39.9623, -18.1541, 42.9442, 41.9485, 79.6649, -132.675
8.32707, 33, -39.9015, -18.1652, 42.9484, 41.9831, 79.6813, -132.581
8.33607, 33, -39.8405, -18.1761, 42.9525, 42.018, 79.698, -132.488
8.34568, 34, -39.7793, -18.1867, 42.9564, 42.0518, 79.7148, -132.394
8.35197, 34, -39.718, -18.197, 42.9601, 42.0851, 79.7314, -132.301
8.36005, 34, -39.6564, -18.2074, 42.9636, 42.1185, 79.7477, -132.208
8.36731, 34, -39.5947, -18.2177, 42.9669, 42.1524, 79.7636, -132.114
8.37585, 34, -39.5327, -18.2281, 42.9699, 42.1856, 79.7794, -132.021
8.38436, 34, -39.4705, -18.2383, 42.9726, 42.2181, 79.795, -131.928
8.39178, 34, -39.4082, -18.2481, 42.9751, 42.2504, 79.8105, -131.835
8.4008, 34, -39.3456, -18.2578, 42.9774, 42.2832, 79.8261, -131.742
8.40775, 34, -39.283, -18.2675, 42.9794, 42.3157, 79.8419, -131.649
8.41584, 34, -39.2201, -18.2771, 42.9813, 42.3472, 79.8578, -131.556
8.42482, 34, -39.1571, -18.2869, 42.9829, 42.3783, 79.8738, -131.463
8.43196, 34, -39.0937, -18.2965, 42.9842, 42.4096, 79.8894, -131.37
8.43874, 35, -39.062, -18.3012, 42.9848, 42.4254, 79.8971, -131.324
8.44902, 35, -38.9666, -18.3149, 42.9862, 42.4719, 79.9199, -131.184
8.45674, 35, -38.9026, -18.3239, 42.9869, 42.5021, 79.9349, -131.091
8.4643, 35, -38.8386, -18.3329, 42.9873, 42.5319, 79.9498, -130.999
8.47306, 35, -38.7743, -18.3418, 42.9876, 42.5622, 79.9648, -130.906
8.48028, 35, -38.7098, -18.3507, 42.9877, 42.5925, 79.9799, -130.814
8.48929, 35, -38.6452, -18.3595, 42.9877, 42.6218, 79.9952, -130.721
8.4987, 35, -38.5803, -18.368, 42.9877, 42.6506, 80.0107, -130.629
8.5042, 35, -38.5478, -18.3722, 42.9877, 42.665, 80.0183, -130.583
8.51324, 35, -38.4828, -18.3803, 42.9876, 42.7083, 80.0407, -130.443
8.51931, 35, -38.4176, -18.3885, 42.9874, 42.7228, 80.048, -130.397
8.52854, 36, -38.3523, -18.3966, 42.9871, 42.7514, 80.0696, -130.258
8.5357, 36, -38.2866, -18.4046, 42.9865, 42.7793, 80.0768, -130.212
8.54278, 36, -38.2208, -18.4127, 42.9858, 42.8068, 80.0909, -130.12
8.55175, 36, -38.1548, -18.4207, 42.9847, 42.8344, 80.1051, -130.027
8.55972, 36, -38.0886, -18.4284, 42.9834, 42.8622, 80.1194, -129.935
8.56918, 36, -37.9891, -18.4394, 42.9808, 42.9031, 80.1411, -129.797
8.57482, 36, -37.9558, -18.443, 42.9797, 42.9164, 80.1485, -129.751
8.58375, 36, -37.889, -18.4502, 42.9775, 42.9426, 80.163, -129.659
8.59169, 36, -37.8221, -18.4573, 42.9749, 42.9686, 80.1774, -129.567
8.5987, 36, -37.7551, -18.4644, 42.972, 42.9951, 80.1915, -129.476
8.60797, 37, -37.6878, -18.4714, 42.9689, 43.0214, 80.2053, -129.383
8.61582, 37, -37.6204, -18.4785, 42.9655, 43.0471, 80.219, -129.292
8.62385, 37, -37.553, -18.4853, 42.9617, 43.0723, 80.2325, -129.2
8.63389, 37, -37.4512, -18.4951, 42.9555, 43.1096, 80.2528, -129.062
8.63978, 37, -37.4172, -18.4982, 42.9533, 43.1221, 80.2596, -129.016
8.64879, 37, -37.349, -18.5044, 42.9486, 43.1473, 80.2733, -128.925
8.65569, 37, -37.2807, -18.5106, 42.9436, 43.1723, 80.2872, -128.833
8.66377, 37, -37.2122, -18.5167, 42.9385, 43.1965, 80.3011, -128.742
8.67171, 37, -37.1436, -18.5227, 42.9333, 43.2201, 80.3148, -128.651
8.67975, 37, -37.0749, -18.5286, 42.9277, 43.2434, 80.3282, -128.56
8.68777, 37, -37.0058, -18.5345, 42.9219, 43.2667, 80.3414, -128.468
8.69587, 38, -36.9367, -18.5404, 42.9159, 43.2903, 80.3544, -128.377
8.70382, 38, -36.8673, -18.5461, 42.9096, 43.3137, 80.3672, -128.286
8.71173, 38, -36.7977, -18.5515, 42.903, 43.3364, 80.3798, -128.194
8.71976, 38, -36.728, -18.5568, 42.8961, 43.3587, 80.3925, -128.103
8.7277, 38, -36.6581, -18.5618, 42.889, 43.3805, 80.4053, -128.012
8.73572, 38, -36.5881, -18.5667, 42.8818, 43.4023, 80.4181, -127.921
8.74477, 38, -36.5178, -18.5715, 42.8745, 43.4243, 80.431, -127.83
8.7517, 38, -36.4475, -18.5763, 42.8668, 43.4463, 80.4441, -127.739
8.75976, 38, -36.3769, -18.5808, 42.8589, 43.4679, 80.4571, -127.648
8.7677, 38, -36.3062, -18.5853, 42.8508, 43.4888, 80.4699, -127.558
8.77571, 38, -36.2353, -18.5896, 42.8422, 43.5092, 80.4825, -127.467
8.78396, 39, -36.1642, -18.5938, 42.8334, 43.5292, 80.4949, -127.377
8.79169, 39, -36.093, -18.598, 42.8245, 43.5493, 80.5071, -127.287
8.79997, 39, -36.0216, -18.6021, 42.8154, 43.5694, 80.5192, -127.196
8.8077, 39, -35.9501, -18.6062, 42.8061, 43.5895, 80.5313, -127.106
8.8157, 39, -35.8783, -18.6101, 42.7967, 43.6095, 80.5435, -127.016
8.82391, 39, -35.8063, -18.6138, 42.7869, 43.6288, 80.5558, -126.925
8.83173, 39, -35.7343, -18.6174, 42.7769, 43.6477, 80.5682, -126.835
8.83999, 39, -35.6621, -18.6208, 42.7669, 43.6663, 80.5807, -126.745
8.84789, 39, -35.5897, -18.624, 42.7565, 43.6847, 80.5933, -126.655
8.8558, 39, -35.5172, -18.6271, 42.746, 43.7032, 80.6057, -126.565
8.86421, 39, -35.4445, -18.63, 42.7352, 43.7216, 80.6178, -126.475
8.87152, 40, -35.3716, -18.6328, 42.7241, 43.7401, 80.6297, -126.385
8.88054, 40, -35.2985, -18.6355, 42.7128, 43.7581, 80.6414, -126.296
8.88817, 40, -35.2253, -18.638, 42.7014, 43.7755, 80.6529, -126.206
8.89468, 40, -35.1887, -18.6392, 42.6955, 43.784, 80.6586, -126.161
8.90374, 40, -35.0787, -18.6427, 42.6778, 43.809, 80.6754, -126.026
8.91255, 40, -35.0051, -18.6449, 42.6658, 43.8254, 80.6867, -125.937
8.92035, 40, -34.9313, -18.647, 42.6537, 43.8419, 80.698, -125.847
8.92791, 40, -34.8572, -18.6491, 42.6413, 43.8584, 80.7094, -125.758
8.93594, 40, -34.7831, -18.6511, 42.6287, 43.8749, 80.721, -125.668
8.945, 40, -34.7089, -18.653, 42.6157, 43.8912, 80.7327, -125.579
8.95216, 40, -34.6344, -18.6549, 42.6026, 43.907, 80.7443, -125.489
8.96012, 41, -34.56, -18.6566, 42.5894, 43.9223, 80.7557, -125.401
8.96821, 41, -34.4854, -18.6582, 42.5758, 43.9371, 80.7669, -125.311
8.97663, 41, -34.4105, -18.6597, 42.5621, 43.9517, 80.7778, -125.223
8.98668, 41, -34.3355, -18.6611, 42.5483, 43.966, 80.7887, -125.134
8.99228, 41, -34.2604, -18.6624, 42.5344, 43.9803, 80.7994, -125.045
9.00035, 41, -34.185, -18.6636, 42.5201, 43.9944, 80.81, -124.956
9.0083, 41, -34.1474, -18.6641, 42.5128, 44.0016, 80.8206, -124.867
9.0163, 41, -34.0719, -18.6651, 42.4981, 44.0158, 80.8258, -124.778
9.02678, 41, -33.9584, -18.6665, 42.4759, 44.0368, 80.8418, -124.69
9.03279, 41, -33.8824, -18.6672, 42.4608, 44.0502, 80.8525, -124.601
9.03968, 41, -33.8444, -18.6675, 42.4532, 44.0567, 80.8579, -124.557
9.04786, 42, -33.7681, -18.6681, 42.4379, 44.0695, 80.8689, -124.469
9.05572, 42, -33.6918, -18.6686, 42.4225, 44.0819, 80.8799, -124.38
9.06373, 42, -33.6153, -18.6689, 42.4067, 44.094, 80.8908, -124.293
9.07168, 42, -33.5386, -18.6691, 42.3907, 44.1058, 80.9015, -124.204
9.07968, 42, -33.4619, -18.6691, 42.3746, 44.1175, 80.912, -124.117
9.08769, 42, -33.3849, -18.6692, 42.3582, 44.129, 80.9222, -124.029
9.09571, 42, -33.3079, -18.6692, 42.3416, 44.1405, 80.9323, -123.941
9.10367, 42, -33.2307, -18.6692, 42.3251, 44.152, 80.9422, -123.853
9.11167, 42, -33.1533, -18.6691, 42.3083, 44.1635, 80.952, -123.766
9.11948, 42, -33.0758, -18.6691, 42.2912, 44.1747, 80.9617, -123.678
9.12768, 42, -32.998, -18.669, 42.2739, 44.1856, 80.9714, -123.59
9.13569, 43, -32.9201, -18.6689, 42.2565, 44.196, 80.9811, -123.503
9.14429, 43, -32.8422, -18.6688, 42.2387, 44.2062, 80.9908, -123.415
9.15453, 43, -32.725, -18.6684, 42.2118, 44.2205, 81.0055, -123.284
9.15968, 43, -32.6859, -18.6682, 42.2028, 44.2252, 81.0105, -123.241
9.16776, 43, -32.6075, -18.6677, 42.1846, 44.2343, 81.0205, -123.154
9.17569, 43, -32.529, -18.667, 42.166, 44.243, 81.0304, -123.067
9.1837, 43, -32.4503, -18.6662, 42.1474, 44.2515, 81.0403, -122.981
9.19494, 43, -32.332, -18.6646, 42.1189, 44.264, 81.0546, -122.851
9.19967, 43, -32.2925, -18.664, 42.1094, 44.2681, 81.0593, -122.808
9.20768, 43, -32.2135, -18.6626, 42.0904, 44.2762, 81.0686, -122.72
9.2158, 43, -32.1342, -18.661, 42.071, 44.2843, 81.0777, -122.634
9.22381, 44, -32.0548, -18.6591, 42.0513, 44.2921, 81.0867, -122.547
9.23173, 44, -31.9752, -18.657, 42.0316, 44.2999, 81.0957, -122.461
9.23968, 44, -31.8955, -18.6547, 42.0115, 44.3076, 81.1045, -122.374
9.24768, 44, -31.8156, -18.6523, 41.9914, 44.3149, 81.1133, -122.288
9.25576, 44, -31.7357, -18.6497, 41.9711, 44.3221, 81.1221, -122.201
9.26368, 44, -31.6557, -18.6471, 41.9505, 44.3289, 81.1309, -122.115
9.27174, 44, -31.5755, -18.6443, 41.9299, 44.3352, 81.1399, -122.029
9.27967, 44, -31.4952, -18.6413, 41.909, 44.3413, 81.1488, -121.943
9.28767, 44, -31.4147, -18.6382, 41.8878, 44.3471, 81.1578, -121.858
9.29575, 44, -31.334, -18.6349, 41.8665, 44.3525, 81.167, -121.772
9.30371, 44, -31.2532, -18.6315, 41.8449, 44.3576, 81.176, -121.686
9.31172, 45, -31.1722, -18.6279, 41.8232, 44.3623, 81.185, -121.6
9.31984, 45, -31.0911, -18.6242, 41.8014, 44.3668, 81.1938, -121.515
9.32848, 45, -31.0099, -18.6204, 41.7794, 44.3711, 81.2024, -121.429
9.33578, 45, -30.9285, -18.6166, 41.7572, 44.3751, 81.2109, -121.344
9.34376, 45, -30.8469, -18.6127, 41.7347, 44.3788, 81.2191, -121.258
9.3518, 45, -30.7653, -18.6087, 41.712, 44.3823, 81.2272, -121.173
9.35984, 45, -30.6833, -18.6044, 41.6892, 44.3856, 81.2352, -121.087
9.36889, 45, -30.6013, -18.6, 41.6662, 44.3886, 81.2431, -121.002
9.37578, 45, -30.5192, -18.5953, 41.6431, 44.3914, 81.251, -120.918
9.38388, 45, -30.4369, -18.5904, 41.6196, 44.394, 81.2589, -120.833
9.39168, 45, -30.3545, -18.5855, 41.5961, 44.3964, 81.2667, -120.748
9.40002, 46, -30.272, -18.5805, 41.5723, 44.3985, 81.2746, -120.663
9.408, 46, -30.1892, -18.5753, 41.5484, 44.4003, 81.2825, -120.579
9.41577, 46, -30.1063, -18.5699, 41.5243, 44.4019, 81.2906, -120.494
9.42384, 46, -30.0232, -18.5644, 41.4998, 44.4033, 81.2988, -120.409
9.4319, 46, -29.94, -18.5588, 41.4753, 44.4045, 81.3069, -120.324
9.44002, 46, -29.8566, -18.5532, 41.4506, 44.4053, 81.3152, -120.24
9.44677, 46, -29.8149, -18.5504, 41.4382, 44.4057, 81.3193, -120.198
9.45641, 46, -29.6895, -18.5416, 41.4007, 44.4065, 81.3315, -120.071
9.46412, 46, -29.6057, -18.5355, 41.3753, 44.4067, 81.3395, -119.987
9.47228, 46, -29.5218, -18.5291, 41.3498, 44.4068, 81.3473, -119.903
9.48027, 46, -29.4378, -18.5227, 41.3241, 44.4068, 81.355, -119.819
9.48825, 47, -29.3536, -18.5162, 41.2982, 44.4068, 81.3626, -119.735
9.49651, 47, -29.2691, -18.5095, 41.272, 44.4067, 81.3699, -119.651
9.50647, 47, -29.1845, -18.5026, 41.2458, 44.4065, 81.3772, -119.567
9.51228, 47, -29.1421, -18.4991, 41.2325, 44.406, 81.3846, -119.483
9.51966, 47, -29.0573, -18.4921, 41.206, 44.4057, 81.3883, -119.441
9.52767, 47, -28.9724, -18.485, 41.1791, 44.4047, 81.3955, -119.357
9.53571, 47, -28.8874, -18.4776, 41.1521, 44.4031, 81.4027, -119.273
9.54483, 47, -28.7596, -18.4661, 41.1114, 44.4002, 81.4136, -119.147
9.55169, 47, -28.7169, -18.4622, 41.0977, 44.399, 81.4173, -119.106
9.55973, 47, -28.6315, -18.4543, 41.0701, 44.3964, 81.4246, -119.022
9.56768, 47, -28.546, -18.4464, 41.0423, 44.3934, 81.4321, -118.938
9.57588, 48, -28.4602, -18.4383, 41.0143, 44.3901, 81.4396, -118.854
9.58369, 48, -28.3743, -18.4303, 40.9862, 44.3865, 81.4473, -118.771
9.59167, 48, -28.2882, -18.4223, 40.9578, 44.3825, 81.455, -118.688
9.59971, 48, -28.2019, -18.4138, 40.9291, 44.3782, 81.4628, -118.605
9.60767, 48, -28.1156, -18.405, 40.9003, 44.3736, 81.4705, -118.522
9.61567, 48, -28.0291, -18.3961, 40.8714, 44.3687, 81.4781, -118.439
9.62586, 48, -27.8993, -18.3825, 40.8273, 44.3608, 81.4894, -118.314
9.63171, 48, -27.8559, -18.3778, 40.8126, 44.358, 81.4931, -118.272
9.6397, 48, -27.7688, -18.3686, 40.7829, 44.3522, 81.5004, -118.19
9.64867, 48, -27.6815, -18.3593, 40.7531, 44.346, 81.5075, -118.106
9.65571, 48, -27.594, -18.3497, 40.723, 44.3395, 81.5146, -118.023
9.66467, 49, -27.5065, -18.3397, 40.6927, 44.3325, 81.5216, -117.94
9.67282, 49, -27.4188, -18.3297, 40.6622, 44.3251, 81.5286, -117.857
9.67971, 49, -27.331, -18.3196, 40.6314, 44.3172, 81.5355, -117.775
9.68767, 49, -27.2431, -18.3094, 40.6004, 44.3089, 81.5424, -117.691
9.69566, 49, -27.155, -18.2991, 40.5692, 44.3002, 81.5494, -117.609
9.70374, 49, -27.0667, -18.2886, 40.5378, 44.291, 81.5564, -117.526
9.71165, 49, -26.9782, -18.2777, 40.5061, 44.2816, 81.5635, -117.444
9.7197, 49, -26.8896, -18.2667, 40.4742, 44.272, 81.5707, -117.361
9.7278, 49, -26.8008, -18.2555, 40.4422, 44.2622, 81.578, -117.278
9.73565, 49, -26.7119, -18.2443, 40.4098, 44.2523, 81.5854, -117.195
9.74463, 49, -26.6229, -18.233, 40.3772, 44.2423, 81.5931, -117.113
9.75485, 50, -26.489, -18.2153, 40.3281, 44.2267, 81.6047, -116.988
9.75966, 50, -26.4443, -18.2093, 40.3116, 44.2215, 81.6086, -116.947
9.76774, 50, -26.3547, -18.1973, 40.2783, 44.2108, 81.6164, -116.865
9.77565, 50, -26.2649, -18.1853, 40.2449, 44.1996, 81.624, -116.782
9.78365, 50, -26.175, -18.1732, 40.2113, 44.188, 81.6316, -116.7
9.79361, 50, -26.0849, -18.1606, 40.1774, 44.1759, 81.6392, -116.617
9.79966, 50, -25.9947, -18.1478, 40.1432, 44.1633, 81.6466, -116.535
9.80778, 50, -25.9043, -18.1349, 40.109, 44.1503, 81.6541, -116.452
9.81566, 50, -25.8137, -18.1219, 40.0744, 44.1369, 81.6614, -116.37
9.82366, 50, -25.7231, -18.1088, 40.0394, 44.1234, 81.6688, -116.288
9.83174, 50, -25.6323, -18.0953, 40.0045, 44.1098, 81.6762, -116.205
9.83968, 51, -25.5415, -18.0815, 39.9693, 44.0961, 81.6836, -116.123
9.84798, 51, -25.4504, -18.0678, 39.9337, 44.0822, 81.691, -116.04
9.85669, 51, -25.359, -18.054, 39.898, 44.068, 81.6986, -115.958
9.86382, 51, -25.2675, -18.0399, 39.8621, 44.0534, 81.7061, -115.875
9.87177, 51, -25.1759, -18.0253, 39.8258, 44.0382, 81.7139, -115.793
9.87977, 51, -25.0842, -18.0106, 39.7895, 44.0224, 81.7218, -115.71
9.88792, 51, -24.9923, -17.996, 39.7529, 44.006, 81.7299, -115.628
9.89566, 51, -24.9003, -17.9813, 39.716, 43.9893, 81.7381, -115.546
9.90369, 51, -24.808, -17.966, 39.6789, 43.9726, 81.7465, -115.463
9.91175, 51, -24.7155, -17.9505, 39.6418, 43.9557, 81.755, -115.381
9.92012, 51, -24.6227, -17.9352, 39.6042, 43.9387, 81.7635, -115.299
9.92819, 52, -24.5296, -17.9197, 39.5665, 43.9213, 81.7719, -115.217
9.93587, 52, -24.4365, -17.9036, 39.5286, 43.9035, 81.7802, -115.135
9.94406, 52, -24.3433, -17.8873, 39.4903, 43.885, 81.7885, -115.053
9.95069, 52, -24.2967, -17.8792, 39.4711, 43.8756, 81.7926, -115.012
9.96004, 52, -24.1566, -17.8549, 39.4133, 43.8465, 81.8048, -114.888
9.9692, 52, -24.063, -17.838, 39.3743, 43.8271, 81.8128, -114.806
9.9747, 52, -24.0161, -17.8295, 39.3548, 43.8173, 81.8168, -114.764
9.98426, 52, -23.875, -17.8042, 39.2959, 43.788, 81.8289, -114.641
9.99226, 52, -23.7807, -17.7868, 39.2563, 43.7679, 81.837, -114.559
10.0002, 52, -23.6861, -17.7691, 39.2164, 43.7472, 81.8453, -114.477
10.0084, 52, -23.5915, -17.7515, 39.1763, 43.7258, 81.8536, -114.395
10.0162, 53, -23.5441, -17.7428, 39.1561, 43.7149, 81.8579, -114.354
10.0229, 53, -23.4493, -17.7248, 39.1157, 43.693, 81.8664, -114.272
10.0316, 53, -23.3543, -17.7065, 39.075, 43.6712, 81.8752, -114.19
10.0396, 53, -23.2593, -17.6882, 39.0341, 43.6492, 81.8842, -114.108
10.0477, 53, -23.1641, -17.6697, 38.993, 43.6268, 81.8934, -114.026
10.0557, 53, -23.0685, -17.6509, 38.9517, 43.6037, 81.9027, -113.945
10.0636, 53, -22.9728, -17.6318, 38.9101, 43.58, 81.912, -113.862
10.0718, 53, -22.877, -17.6126, 38.8684, 43.556, 81.9213, -113.78
10.0796, 53, -22.7809, -17.5932, 38.8262, 43.532, 81.9304, -113.698
10.0877, 53, -22.6846, -17.5736, 38.784, 43.5079, 81.9395, -113.616
10.0948, 53, -22.5883, -17.5538, 38.7415, 43.4836, 81.9486, -113.534
10.1038, 54, -22.4918, -17.5338, 38.6987, 43.4584, 81.9576, -113.451
10.1117, 54, -22.3952, -17.5135, 38.6558, 43.4324, 81.9666, -113.369
10.1196, 54, -22.2984, -17.4931, 38.6125, 43.4062, 81.9758, -113.287
10.1278, 54, -22.2014, -17.4725, 38.569, 43.38, 81.9849, -113.205
10.1357, 54, -22.104, -17.4519, 38.5253, 43.3537, 81.9942, -113.123
10.1437, 54, -22.0067, -17.431, 38.4813, 43.3269, 82.0036, -113.041
10.1527, 54, -21.9092, -17.4098, 38.4372, 43.2991, 82.0132, -112.959
10.1586, 54, -21.8116, -17.3885, 38.3929, 43.2709, 82.0231, -112.876
10.1677, 54, -21.7136, -17.3669, 38.3483, 43.2428, 82.0333, -112.795
10.1757, 54, -21.6155, -17.345, 38.3036, 43.2148, 82.0436, -112.712
10.1836, 54, -21.517, -17.3231, 38.2586, 43.1862, 82.0539, -112.63
10.1923, 55, -21.4184, -17.3009, 38.2134, 43.1566, 82.0642, -112.548
10.2035, 55, -21.2703, -17.2671, 38.1451, 43.1115, 82.0793, -112.425
10.2077, 55, -21.2208, -17.2558, 38.1223, 43.0965, 82.0844, -112.384
10.2157, 55, -21.1217, -17.2331, 38.0765, 43.0665, 82.0944, -112.302
10.2237, 55, -21.0226, -17.2101, 38.0303, 43.0357, 82.1043, -112.22
10.2316, 55, -20.9232, -17.187, 37.984, 43.0039, 82.1142, -112.138
10.243, 55, -20.7734, -17.1519, 37.914, 42.9562, 82.1291, -112.015
10.2476, 55, -20.7235, -17.1402, 37.8905, 42.9404, 82.1341, -111.974
10.2557, 55, -20.6235, -17.1166, 37.8434, 42.9085, 82.1443, -111.893
10.2636, 55, -20.5233, -17.0927, 37.7962, 42.8756, 82.1547, -111.81
10.2727, 55, -20.4231, -17.0689, 37.7487, 42.8419, 82.1652, -111.729
10.2806, 56, -20.3227, -17.0447, 37.701, 42.8085, 82.176, -111.647
10.2877, 56, -20.222, -17.0203, 37.6532, 42.775, 82.187, -111.565
10.2958, 56, -20.1211, -16.9958, 37.6052, 42.7407, 82.1981, -111.483
10.3036, 56, -20.02, -16.9708, 37.557, 42.7056, 82.2091, -111.4
10.3117, 56, -19.9185, -16.9459, 37.5085, 42.6706, 82.22, -111.319
10.3197, 56, -19.8168, -16.9208, 37.4598, 42.6358, 82.2309, -111.237
10.3277, 56, -19.7149, -16.8954, 37.4109, 42.6003, 82.2416, -111.155
10.3357, 56, -19.6132, -16.87, 37.3618, 42.5636, 82.2523, -111.073
10.3438, 56, -19.5115, -16.8443, 37.3125, 42.5269, 82.263, -110.992
10.3517, 56, -19.4096, -16.8186, 37.2629, 42.4903, 82.2739, -110.91
10.3597, 56, -19.3074, -16.7926, 37.2132, 42.453, 82.2849, -110.828
10.3679, 57, -19.205, -16.7665, 37.1631, 42.4146, 82.296, -110.747
10.3764, 57, -19.1023, -16.7402, 37.1129, 42.3766, 82.3074, -110.665
10.3838, 57, -18.9993, -16.7136, 37.0625, 42.3386, 82.319, -110.583
10.3917, 57, -18.8962, -16.6871, 37.0119, 42.2994, 82.3309, -110.501
10.3996, 57, -18.793, -16.6602, 36.9612, 42.2595, 82.3429, -110.42
10.4077, 57, -18.6896, -16.6332, 36.9103, 42.22, 82.3547, -110.338
10.4176, 57, -18.5859, -16.6059, 36.8591, 42.1801, 82.3664, -110.256
10.424, 57, -18.482, -16.5785, 36.8078, 42.1388, 82.3781, -110.174
10.4319, 57, -18.3777, -16.5509, 36.7562, 42.0977, 82.3896, -110.092
10.4423, 57, -18.2732, -16.523, 36.7044, 42.0568, 82.4011, -110.011
10.4484, 57, -18.1686, -16.4952, 36.6525, 42.0149, 82.4126, -109.929
10.4587, 58, -18.0638, -16.4671, 36.6003, 41.9721, 82.4241, -109.848
10.4647, 58, -17.9588, -16.4389, 36.5479, 41.9297, 82.4359, -109.766
10.4724, 58, -17.8537, -16.4105, 36.4953, 41.8868, 82.4478, -109.685
10.4802, 58, -17.7485, -16.382, 36.4425, 41.8427, 82.4599, -109.604
10.4889, 58, -17.643, -16.3533, 36.3894, 41.7991, 82.4724, -109.522
10.4962, 58, -17.5374, -16.3246, 36.3363, 41.7554, 82.485, -109.441
10.505, 58, -17.4314, -16.2956, 36.283, 41.7103, 82.4976, -109.359
10.5124, 58, -17.3253, -16.2664, 36.2296, 41.6651, 82.5101, -109.278
10.5204, 58, -17.2721, -16.2518, 36.2027, 41.6427, 82.5163, -109.237
10.5276, 58, -17.1657, -16.2222, 36.1489, 41.5972, 82.5286, -109.156
10.5357, 58, -17.059, -16.1927, 36.095, 41.5504, 82.5409, -109.074
10.5438, 59, -16.952, -16.1628, 36.0407, 41.5042, 82.5532, -108.992
10.5517, 59, -16.8448, -16.1328, 35.9863, 41.4575, 82.5656, -108.911
10.5597, 59, -16.7376, -16.1027, 35.9318, 41.4093, 82.5781, -108.829
10.5676, 59, -16.6301, -16.0725, 35.877, 41.3616, 82.5909, -108.748
10.5757, 59, -16.5225, -16.042, 35.8219, 41.3136, 82.6038, -108.667
10.5827, 59, -16.4147, -16.0114, 35.7668, 41.2641, 82.6171, -108.586
10.5917, 59, -16.3067, -15.9806, 35.7114, 41.2151, 82.6306, -108.504
10.5986, 59, -16.1985, -15.9498, 35.656, 41.1659, 82.644, -108.423
10.6076, 59, -16.0901, -15.9187, 35.6003, 41.1152, 82.6573, -108.342
10.6156, 59, -15.9813, -15.8874, 35.5445, 41.065, 82.6705, -108.26
10.6237, 59, -15.8726, -15.8558, 35.4885, 41.014, 82.6835, -108.179
10.6316, 60, -15.7637, -15.8242, 35.4323, 40.9621, 82.6965, -108.097
10.6398, 60, -15.6546, -15.7921, 35.3758, 40.9109, 82.7095, -108.016
10.6485, 60, -15.5451, -15.76, 35.3192, 40.8585, 82.7226, -107.934
10.6547, 60, -15.4353, -15.7277, 35.2623, 40.8055, 82.7359, -107.853
10.6636, 60, -15.3251, -15.6953, 35.2053, 40.7528, 82.7495, -107.771
10.6717, 60, -15.2148, -15.6627, 35.148, 40.6988, 82.7635, -107.69
10.6796, 60, -15.1041, -15.6298, 35.0906, 40.645, 82.7776, -107.609
10.6898, 60, -14.9379, -15.5805, 35.0041, 40.5631, 82.7988, -107.487
10.6956, 60, -14.8824, -15.564, 34.9753, 40.5353, 82.8057, -107.446
10.7037, 60, -14.7712, -15.5307, 34.9174, 40.4803, 82.8196, -107.365
10.7116, 60, -14.6599, -15.4972, 34.8593, 40.4241, 82.8335, -107.284
10.7198, 61, -14.5483, -15.4637, 34.801, 40.3676, 82.8474, -107.202
10.7277, 61, -14.4365, -15.4299, 34.7425, 40.3112, 82.8613, -107.121
10.7356, 61, -14.3245, -15.3959, 34.6838, 40.2533, 82.8755, -107.039
10.7436, 61, -14.2122, -15.3617, 34.6249, 40.1961, 82.8899, -106.957
10.7517, 61, -14.0997, -15.3274, 34.5659, 40.1376, 82.9047, -106.876
10.7597, 61, -13.987, -15.2928, 34.5066, 40.079, 82.9198, -106.794
10.7677, 61, -13.8739, -15.2581, 34.4472, 40.0204, 82.9348, -106.713
10.7756, 61, -13.7607, -15.2233, 34.3876, 39.9603, 82.9498, -106.631
10.7836, 61, -13.6472, -15.1883, 34.3279, 39.9008, 82.9646, -106.55
10.7917, 61, -13.5337, -15.1532, 34.268, 39.8399, 82.9794, -106.468
10.7996, 61, -13.4199, -15.1177, 34.2079, 39.7791, 82.994, -106.387
10.8076, 62, -13.3058, -15.0822, 34.1477, 39.7179, 83.0089, -106.306
10.8158, 62, -13.1915, -15.0464, 34.0872, 39.6556, 83.0239, -106.224
10.827, 62, -13.0769, -14.9925, 33.996, 39.5618, 83.0471, -106.102
10.831, 62, -12.9622, -14.9744, 33.9656, 39.53, 83.055, -106.06
10.8391, 62, -12.8474, -14.9381, 33.9044, 39.4671, 83.071, -105.979
10.8472, 62, -12.7323, -14.9017, 33.8431, 39.4026, 83.0869, -105.897
10.856, 62, -12.6171, -14.865, 33.7817, 39.3384, 83.1027, -105.815
10.8649, 62, -12.5014, -14.8283, 33.72, 39.2734, 83.1185, -105.733
10.8717, 62, -12.3854, -14.7913, 33.6582, 39.208, 83.1343, -105.651
10.8803, 62, -12.2689, -14.754, 33.5963, 39.1426, 83.1502, -105.57
10.8877, 62, -12.152, -14.7167, 33.5341, 39.0758, 83.1664, -105.488
10.896, 63, -12.0351, -14.6791, 33.4718, 39.0094, 83.183, -105.407
10.9042, 63, -11.9181, -14.6414, 33.4093, 38.9416, 83.1999, -105.325
10.9116, 63, -11.8008, -14.6035, 33.3465, 38.8742, 83.2171, -105.243
10.9197, 63, -11.6834, -14.5654, 33.2835, 38.8054, 83.2343, -105.161
10.9286, 63, -11.5656, -14.527, 33.2204, 38.7368, 83.2513, -105.08
10.9358, 63, -11.4476, -14.4884, 33.157, 38.6671, 83.2683, -104.998
10.9447, 63, -11.3292, -14.4497, 33.0935, 38.5976, 83.2853, -104.915
10.952, 63, -11.2106, -14.4106, 33.0297, 38.5267, 83.3024, -104.834
10.96, 63, -11.0918, -14.3713, 32.9659, 38.4561, 83.3198, -104.751
10.9666, 63, -11.0324, -14.3516, 32.9339, 38.4204, 83.3286, -104.71
10.9747, 63, -10.9134, -14.3121, 32.8698, 38.3486, 83.3468, -104.628
10.9842, 64, -10.7342, -14.2522, 32.7734, 38.2402, 83.3743, -104.504
10.9931, 64, -10.6144, -14.2121, 32.7088, 38.1676, 83.3925, -104.421
11.0011, 64, -10.4941, -14.1716, 32.644, 38.0939, 83.4106, -104.338
11.0066, 64, -10.4338, -14.1513, 32.6115, 38.0571, 83.4197, -104.298
11.017, 64, -10.3131, -14.1106, 32.5464, 37.983, 83.4472, -104.173
11.0236, 64, -10.1923, -14.0697, 32.481, 37.9081, 83.4565, -104.132
11.0317, 64, -10.0715, -14.0286, 32.4156, 37.8327, 83.4755, -104.05
11.0407, 64, -9.88994, -13.9665, 32.3172, 37.7189, 83.505, -103.926
11.0476, 64, -9.8294, -13.9457, 32.2843, 37.6805, 83.5148, -103.884
11.0556, 64, -9.70816, -13.9041, 32.2184, 37.6036, 83.5342, -103.801
11.0626, 64, -9.58658, -13.8622, 32.1523, 37.5261, 83.5537, -103.718
11.0749, 65, -9.40322, -13.7989, 32.0527, 37.4094, 83.5829, -103.593
11.0796, 65, -9.3419, -13.7777, 32.0194, 37.37, 83.5928, -103.552
11.0876, 65, -9.21908, -13.735, 31.9527, 37.2911, 83.6128, -103.468
11.0957, 65, -9.096, -13.6921, 31.8858, 37.2117, 83.6334, -103.385
11.1036, 65, -8.9726, -13.6489, 31.8186, 37.1319, 83.6543, -103.302
11.1106, 65, -8.8489, -13.6055, 31.7515, 37.0513, 83.6752, -103.219
11.1196, 65, -8.72487, -13.5618, 31.6841, 36.9701, 83.6961, -103.135
11.1267, 65, -8.60051, -13.5179, 31.6166, 36.8889, 83.717, -103.052
11.1357, 65, -8.47575, -13.4738, 31.549, 36.8067, 83.7381, -102.969
11.1436, 65, -8.35084, -13.4294, 31.4811, 36.7243, 83.7596, -102.885
11.1535, 66, -8.22598, -13.3626, 31.379, 36.5996, 83.793, -102.76
11.1597, 66, -8.10099, -13.3402, 31.3448, 36.5577, 83.8042, -102.717
11.17, 66, -7.97583, -13.2952, 31.2764, 36.4736, 83.8264, -102.634
11.1756, 66, -7.85038, -13.2501, 31.2076, 36.3889, 83.8484, -102.549
11.1836, 66, -7.72459, -13.2046, 31.1388, 36.304, 83.8705, -102.465
11.1917, 66, -7.5984, -13.159, 31.0699, 36.2183, 83.8929, -102.381
11.1996, 66, -7.47184, -13.1132, 31.0009, 36.1321, 83.9158, -102.297
11.2076, 66, -7.34497, -13.0671, 30.9317, 36.0453, 83.9393, -102.213
11.2156, 66, -7.21798, -13.0207, 30.8623, 35.9581, 83.9627, -102.128
11.2237, 66, -7.09067, -12.9741, 30.7929, 35.8702, 83.9861, -102.044
11.2316, 66, -6.96307, -12.9272, 30.7232, 35.782, 84.0096, -101.959
11.2404, 66, -6.83528, -12.88, 30.6534, 35.6933, 84.0332, -101.875
11.2503, 67, -6.64316, -12.8087, 30.5483, 35.5591, 84.07, -101.747
11.2556, 67, -6.57899, -12.7848, 30.5131, 35.5141, 84.0825, -101.705
11.2637, 67, -6.45055, -12.7369, 30.4428, 35.4239, 84.1074, -101.62
11.2716, 67, -6.32195, -12.6886, 30.3724, 35.333, 84.1322, -101.535
11.2796, 67, -6.19299, -12.6402, 30.3019, 35.2414, 84.1569, -101.45
11.2895, 67, -6.06365, -12.5916, 30.2313, 35.1496, 84.1818, -101.364
11.2956, 67, -5.93405, -12.5428, 30.1605, 35.0569, 84.2075, -101.279
11.3036, 67, -5.80412, -12.4937, 30.0896, 34.9639, 84.2336, -101.194
11.3116, 67, -5.67367, -12.4444, 30.0184, 34.8707, 84.2597, -101.109
11.3198, 67, -5.54289, -12.3949, 29.9471, 34.7766, 84.2856, -101.023
11.3276, 67, -5.41181, -12.3452, 29.8756, 34.6822, 84.3117, -100.938
11.3356, 68, -5.28049, -12.2951, 29.8039, 34.5873, 84.3384, -100.852
11.3442, 68, -5.14901, -12.2449, 29.7322, 34.4916, 84.3659, -100.767
11.3517, 68, -5.01736, -12.1945, 29.6605, 34.3954, 84.3935, -100.682
11.3597, 68, -4.8856, -12.1437, 29.5887, 34.2989, 84.4208, -100.596
11.368, 68, -4.75353, -12.0926, 29.5167, 34.2018, 84.4481, -100.51
11.3757, 68, -4.6212, -12.0413, 29.4446, 34.104, 84.4757, -100.424
11.3841, 68, -4.48865, -11.9897, 29.3724, 34.0061, 84.5041, -100.338
11.3914, 68, -4.42231, -11.9638, 29.3362, 33.9569, 84.5327, -100.252
11.3996, 68, -4.2228, -11.8857, 29.2275, 33.8083, 84.5612, -100.166
11.4084, 68, -4.08957, -11.8334, 29.1548, 33.7089, 84.5897, -100.079
11.4159, 68, -3.95608, -11.781, 29.0822, 33.6087, 84.6185, -99.9928
11.4243, 69, -3.82222, -11.7283, 29.0095, 33.508, 84.6481, -99.906
11.4325, 69, -3.68827, -11.6754, 28.9367, 33.4071, 84.678, -99.8199
11.44, 69, -3.55398, -11.6226, 28.8638, 33.3055, 84.7077, -99.7331
11.4467, 69, -3.48671, -11.5959, 28.8273, 33.2546, 84.7224, -99.69
11.4567, 69, -3.28441, -11.5157, 28.7177, 33.1013, 84.767, -99.5597
11.4641, 69, -3.14927, -11.462, 28.6444, 32.9983, 84.7979, -99.4734
11.4729, 69, -3.01398, -11.4079, 28.5711, 32.8949, 84.8288, -99.386
11.4801, 69, -2.87829, -11.3536, 28.4976, 32.7911, 84.8595, -99.2992
11.4866, 69, -2.81034, -11.3263, 28.4609, 32.739, 84.8749, -99.2556
11.497, 69, -2.60605, -11.244, 28.3506, 32.5818, 84.9215, -99.1246
11.5042, 69, -2.46939, -11.1887, 28.2772, 32.4765, 84.9538, -99.0371
11.5122, 70, -2.40095, -11.1611, 28.2036, 32.3707, 84.9858, -98.9497
11.521, 70, -2.19536, -11.0778, 28.13, 32.2646, 85.0175, -98.8622
11.5287, 70, -2.05808, -11.0219, 28.0562, 32.1579, 85.0494, -98.7747
11.5356, 70, -1.98933, -10.9939, 28.0193, 32.1043, 85.0656, -98.7312
11.5436, 70, -1.85166, -10.9379, 27.9454, 31.997, 85.0987, -98.6435
11.5506, 70, -1.71384, -10.8817, 27.8714, 31.8891, 85.1318, -98.5564
11.5596, 70, -1.5758, -10.8252, 27.7973, 31.7808, 85.1646, -98.4683
11.5688, 70, -1.36839, -10.7402, 27.6863, 31.6173, 85.2146, -98.3371
11.5756, 70, -1.2992, -10.7118, 27.6493, 31.5626, 85.2318, -98.2928
11.5836, 70, -1.16062, -10.6546, 27.5753, 31.4531, 85.2663, -98.2048
11.5918, 71, -1.02174, -10.5972, 27.5013, 31.3429, 85.3003, -98.1164
11.5996, 71, -0.882597, -10.5395, 27.4272, 31.2324, 85.3343, -98.0283
11.6076, 71, -0.743281, -10.4815, 27.3531, 31.1215, 85.369, -97.9399
11.6156, 71, -0.603908, -10.4232, 27.2789, 31.01, 85.4044, -97.8516
11.6237, 71, -0.464194, -10.3647, 27.2046, 30.898, 85.4393, -97.763
11.6316, 71, -0.324323, -10.306, 27.1304, 30.7858, 85.4744, -97.6742
11.6396, 71, -0.184185, -10.2471, 27.0561, 30.6729, 85.5102, -97.5859
11.6491, 71, -0.043573, -10.1881, 26.982, 30.5599, 85.5467, -97.4972
11.6556, 71, 0.0972515, -10.129, 26.9078, 30.4464, 85.5827, -97.4086
11.6646, 71, 0.238294, -10.0695, 26.8336, 30.3324, 85.6187, -97.3195
11.6717, 71, 0.379557, -10.01, 26.7593, 30.2182, 85.6552, -97.2309
11.6806, 72, 0.521157, -9.95011, 26.685, 30.1033, 85.6924, -97.1414
11.6883, 72, 0.662957, -9.89002, 26.6107, 29.9883, 85.7291, -97.0523
11.6957, 72, 0.804983, -9.82954, 26.5364, 29.873, 85.7661, -96.9626
11.7036, 72, 0.947358, -9.76884, 26.4621, 29.7571, 85.8037, -96.8737
11.7117, 72, 1.08979, -9.70784, 26.3879, 29.641, 85.8421, -96.784
11.7196, 72, 1.23231, -9.64662, 26.3138, 29.5244, 85.8798, -96.6951
11.7277, 72, 1.37498, -9.5851, 26.2397, 29.4076, 85.9176, -96.6052
11.7388, 72, 1.58921, -9.49248, 26.1286, 29.2314, 85.9759, -96.4714
11.7436, 72, 1.66075, -9.4615, 26.0916, 29.1724, 85.9954, -96.4265
11.7516, 72, 1.80399, -9.39943, 26.0175, 29.0543, 86.0341, -96.3374
11.7597, 72, 1.94727, -9.33718, 25.9434, 28.9359, 86.0731, -96.2476
11.7678, 73, 2.09069, -9.27473, 25.8692, 28.8173, 86.1132, -96.1583
11.7757, 73, 2.23431, -9.21209, 25.7951, 28.6982, 86.1532, -96.0682
11.7836, 73, 2.378, -9.14921, 25.7211, 28.5789, 86.1928, -95.9784
