rpiRobotics/ARM-21-02-F-19-Robot-Motion-Program/data_performance_abb/curve_2/baseline/100L/realrobot/bisect/run_4realrobot_curve_exe_v200.0_z10.csv
timestamp, cmd_num, J1, J2, J3, J4, J5, J6
0.001031, -1, 39.6335, 32.4442, 11.8324, 12.5482, 113.716, -48.8696
0.004879, -1, 39.6335, 32.4441, 11.8324, 12.5483, 113.716, -48.8696
0.007702, -1, 39.6335, 32.4441, 11.8324, 12.5483, 113.716, -48.8696
0.02841, -1, 39.6334, 32.4441, 11.8324, 12.5482, 113.716, -48.8696
0.033101, -1, 39.6334, 32.4442, 11.8324, 12.5482, 113.716, -48.8696
0.034597, -1, 39.6334, 32.4442, 11.8324, 12.5482, 113.716, -48.8696
0.039538, -1, 39.6334, 32.4442, 11.8324, 12.5482, 113.716, -48.8695
0.047483, -1, 39.6334, 32.4441, 11.8324, 12.5482, 113.716, -48.8695
0.055539, -1, 39.6327, 32.4441, 11.8324, 12.5482, 113.716, -48.8695
0.063468, -1, 39.6303, 32.4436, 11.8324, 12.5482, 113.716, -48.8696
0.071501, -1, 39.625, 32.4421, 11.8324, 12.5482, 113.716, -48.8699
0.079525, -1, 39.616, 32.4391, 11.8323, 12.5482, 113.715, -48.8714
0.087534, -1, 39.6028, 32.4337, 11.8322, 12.5482, 113.714, -48.8756
0.095471, -1, 39.5832, 32.4251, 11.8323, 12.5482, 113.711, -48.886
0.103517, -1, 39.5548, 32.4124, 11.8328, 12.5481, 113.704, -48.9061
0.111515, -1, 39.5165, 32.3946, 11.835, 12.5481, 113.692, -48.9392
0.119469, -1, 39.4672, 32.3707, 11.84, 12.5481, 113.673, -48.9893
0.127534, -1, 39.4054, 32.3401, 11.8485, 12.5482, 113.646, -49.0606
0.13549, -1, 39.3303, 32.3021, 11.8613, 12.5482, 113.609, -49.1546
0.143467, -1, 39.2415, 32.2563, 11.8792, 12.5484, 113.563, -49.2741
0.151515, -1, 39.1386, 32.2027, 11.9017, 12.549, 113.506, -49.419
0.159489, -1, 39.0217, 32.1411, 11.9285, 12.5499, 113.438, -49.5886
0.167487, -1, 38.8912, 32.0723, 11.9591, 12.5513, 113.363, -49.781
0.175533, -1, 38.7485, 31.9969, 11.9931, 12.5531, 113.279, -49.993
0.183493, -1, 38.5942, 31.9156, 12.0294, 12.5552, 113.189, -50.2211
0.191468, -1, 38.4299, 31.8294, 12.0671, 12.5574, 113.094, -50.4612
0.199542, -1, 38.2577, 31.7392, 12.1059, 12.5598, 112.996, -50.7096
0.207633, -1, 38.0792, 31.646, 12.145, 12.5621, 112.895, -50.9631
0.215503, -1, 37.8956, 31.5507, 12.1839, 12.5645, 112.794, -51.2201
0.223516, -1, 37.708, 31.4538, 12.2227, 12.5668, 112.692, -51.4787
0.23156, -1, 37.5177, 31.3562, 12.2615, 12.5693, 112.589, -51.7383
0.239641, -1, 37.3261, 31.2582, 12.3004, 12.5718, 112.486, -51.9979
0.247615, -1, 37.1341, 31.1603, 12.3392, 12.5742, 112.384, -52.2577
0.255631, -1, 36.9418, 31.0626, 12.3779, 12.577, 112.281, -52.5179
0.263654, -1, 36.7498, 30.9648, 12.4167, 12.5795, 112.177, -52.7784
0.27148, -1, 36.5583, 30.8671, 12.4556, 12.5821, 112.074, -53.0387
0.279553, -1, 36.3668, 30.7694, 12.4944, 12.5848, 111.971, -53.2992
0.287596, -1, 36.1753, 30.6716, 12.5333, 12.5873, 111.868, -53.5596
0.295626, -1, 35.9839, 30.5738, 12.5722, 12.5899, 111.765, -53.8203
0.303602, -1, 35.7924, 30.4758, 12.6112, 12.5926, 111.662, -54.081
0.311747, -1, 35.6007, 30.3778, 12.6501, 12.5951, 111.559, -54.3413
0.319717, -1, 35.4088, 30.2796, 12.6889, 12.5978, 111.456, -54.6018
0.328205, -1, 35.2164, 30.1813, 12.7277, 12.6004, 111.353, -54.8625
0.33584, -1, 35.0239, 30.083, 12.7667, 12.6029, 111.25, -55.1232
0.343929, -1, 34.8316, 29.9846, 12.8055, 12.6056, 111.147, -55.3838
0.352096, -1, 34.6393, 29.8861, 12.8443, 12.6082, 111.044, -55.6446
0.360023, -1, 34.4469, 29.7877, 12.8833, 12.6107, 110.941, -55.9055
0.368063, -1, 34.2547, 29.6894, 12.9223, 12.6134, 110.838, -56.1665
0.376274, -1, 34.0626, 29.5912, 12.9612, 12.616, 110.734, -56.4273
0.384056, -1, 33.9667, 29.493, 13.0002, 12.6186, 110.632, -56.6881
0.392059, -1, 33.7749, 29.4438, 13.0197, 12.62, 110.528, -56.9491
0.400179, -1, 33.583, 29.3455, 13.0585, 12.6226, 110.477, -57.2103
0.407457, -1, 33.3908, 29.2472, 13.0975, 12.6253, 110.374, -57.3409
0.415466, -1, 33.1982, 29.1488, 13.1364, 12.6279, 110.27, -57.6018
0.423599, -1, 33.0055, 29.0502, 13.1752, 12.6306, 110.167, -57.8629
0.431452, -1, 32.8125, 28.9517, 13.2141, 12.6333, 110.064, -58.1241
0.439549, -1, 32.6192, 28.8531, 13.2531, 12.636, 109.961, -58.3855
0.44747, -1, 32.4256, 28.7545, 13.2919, 12.6387, 109.858, -58.6467
0.455452, -1, 32.2317, 28.6558, 13.3308, 12.6414, 109.755, -58.9077
0.463537, -1, 32.0377, 28.557, 13.3696, 12.6441, 109.652, -59.1688
0.471566, -1, 31.8437, 28.4583, 13.4085, 12.6469, 109.549, -59.4303
0.479475, -1, 31.6501, 28.3595, 13.4475, 12.6496, 109.446, -59.6917
0.487582, -1, 31.4567, 28.2609, 13.4864, 12.6525, 109.343, -59.9529
0.495457, -1, 31.2636, 28.1623, 13.5253, 12.6552, 109.24, -60.2144
0.503456, -1, 31.0709, 28.0639, 13.5644, 12.6581, 109.137, -60.4757
0.51154, -1, 30.8787, 27.9654, 13.6034, 12.6609, 109.033, -60.7372
0.519474, -1, 30.6866, 27.8669, 13.6423, 12.6638, 108.93, -60.9985
0.527454, -1, 30.4947, 27.7684, 13.6813, 12.6665, 108.827, -61.2597
0.535542, -1, 30.3025, 27.6697, 13.7203, 12.6692, 108.724, -61.5214
0.544548, -1, 30.1103, 27.5709, 13.7592, 12.6719, 108.621, -61.7831
0.551453, -1, 29.9176, 27.4722, 13.7982, 12.6746, 108.517, -62.0446
0.559543, -1, 29.7245, 27.3735, 13.837, 12.6772, 108.414, -62.3062
0.567457, -1, 29.5309, 27.2747, 13.8758, 12.6798, 108.311, -62.5678
0.575448, -1, 29.3369, 27.176, 13.9148, 12.6824, 108.207, -62.8297
0.583537, -1, 29.1427, 27.0771, 13.9538, 12.6849, 108.104, -63.0914
0.591457, -1, 28.9483, 26.9782, 13.9927, 12.6874, 108.001, -63.3527
0.599515, -1, 28.754, 26.8794, 14.0316, 12.6898, 107.897, -63.6143
0.607895, -1, 28.5598, 26.7805, 14.0706, 12.6923, 107.794, -63.8761
0.615508, -1, 28.3659, 26.6818, 14.1096, 12.6949, 107.691, -64.1378
0.623521, -1, 28.1725, 26.5831, 14.1486, 12.6973, 107.587, -64.3993
0.760901, -1, 24.887, 24.9032, 14.8108, 12.7367, 105.831, -68.8488
0.762086, -1, 24.887, 24.9032, 14.8108, 12.7367, 105.831, -68.8488
0.764336, -1, 24.7904, 24.8539, 14.8303, 12.738, 105.78, -68.9797
0.765627, -1, 24.7904, 24.8539, 14.8303, 12.738, 105.78, -68.9797
0.767605, -1, 24.694, 24.8045, 14.8497, 12.7392, 105.728, -69.1105
0.768897, -1, 24.694, 24.8045, 14.8497, 12.7392, 105.728, -69.1105
0.770075, -1, 24.694, 24.8045, 14.8497, 12.7392, 105.728, -69.1105
0.776089, -1, 24.5015, 24.7056, 14.8887, 12.7416, 105.625, -69.3724
0.913745, -1, 21.219, 23.0265, 15.5509, 12.784, 103.869, -73.8194
0.915027, -1, 21.219, 23.0265, 15.5509, 12.784, 103.869, -73.8194
0.917628, -1, 21.1229, 22.9772, 15.5703, 12.7853, 103.817, -73.9502
0.918829, -1, 21.1229, 22.9772, 15.5703, 12.7853, 103.817, -73.9502
0.922018, -1, 21.0267, 22.9279, 15.5898, 12.7867, 103.766, -74.0809
0.92328, -1, 21.0267, 22.9279, 15.5898, 12.7867, 103.766, -74.0809
0.925337, -1, 20.9305, 22.8786, 15.6092, 12.7881, 103.714, -74.2114
0.929514, -1, 20.8343, 22.8292, 15.6287, 12.7894, 103.663, -74.342
0.930874, -1, 20.8343, 22.8292, 15.6287, 12.7894, 103.663, -74.342
0.932922, -1, 20.738, 22.78, 15.6482, 12.7908, 103.611, -74.4726
0.934268, -1, 20.738, 22.78, 15.6482, 12.7908, 103.611, -74.4726
0.935484, -1, 20.738, 22.78, 15.6482, 12.7908, 103.611, -74.4726
0.937601, -1, 20.6417, 22.7307, 15.6677, 12.7922, 103.559, -74.6032
0.9388, -1, 20.6417, 22.7307, 15.6677, 12.7922, 103.559, -74.6032
0.941443, -1, 20.5454, 22.6814, 15.687, 12.7936, 103.508, -74.7338
0.944981, -1, 20.4489, 22.6321, 15.7064, 12.795, 103.456, -74.8644
0.947094, -1, 20.4489, 22.6321, 15.7064, 12.795, 103.456, -74.8644
0.949084, -1, 20.3522, 22.5828, 15.7258, 12.7963, 103.405, -74.9951
0.950457, -1, 20.3522, 22.5828, 15.7258, 12.7963, 103.405, -74.9951
0.951704, -1, 20.3522, 22.5828, 15.7258, 12.7963, 103.405, -74.9951
0.95448, -1, 20.2554, 22.5334, 15.7453, 12.7977, 103.353, -75.1258
0.955709, -1, 20.2554, 22.5334, 15.7453, 12.7977, 103.353, -75.1258
0.959428, -1, 20.1585, 22.4841, 15.7648, 12.799, 103.302, -75.2563
0.96143, -1, 20.0616, 22.4347, 15.7842, 12.8004, 103.25, -75.3868
0.962693, -1, 20.0616, 22.4347, 15.7842, 12.8004, 103.25, -75.3868
0.963899, -1, 20.0616, 22.4347, 15.7842, 12.8004, 103.25, -75.3868
0.965925, -1, 19.9647, 22.3854, 15.8036, 12.8017, 103.199, -75.5174
0.967157, -1, 19.9647, 22.3854, 15.8036, 12.8017, 103.199, -75.5174
0.969007, -1, 19.8678, 22.336, 15.8229, 12.8032, 103.147, -75.6481
0.971296, -1, 19.8678, 22.336, 15.8229, 12.8032, 103.147, -75.6481
0.974241, -1, 19.771, 22.2867, 15.8423, 12.8045, 103.096, -75.7787
0.975477, -1, 19.771, 22.2867, 15.8423, 12.8045, 103.096, -75.7787
0.978339, -1, 19.6742, 22.2374, 15.8617, 12.8058, 103.044, -75.9093
0.979542, -1, 19.6742, 22.2374, 15.8617, 12.8058, 103.044, -75.9093
0.981655, -1, 19.5775, 22.1881, 15.8812, 12.8071, 102.993, -76.0399
0.982854, -1, 19.5775, 22.1881, 15.8812, 12.8071, 102.993, -76.0399
0.984868, -1, 19.4807, 22.1388, 15.9007, 12.8085, 102.941, -76.1706
0.994305, -1, 19.2874, 22.0401, 15.9395, 12.8112, 102.838, -76.4316
0.999451, -1, 19.1909, 21.9908, 15.9589, 12.8125, 102.787, -76.5621
1.00747, -1, 18.998, 21.8922, 15.9978, 12.8153, 102.683, -76.8229
1.01705, -1, 18.7096, 21.7442, 16.056, 12.8193, 102.529, -77.2144
1.02583, -1, 18.6135, 21.6948, 16.0754, 12.8206, 102.478, -77.345
1.03147, -1, 18.4218, 21.5963, 16.1143, 12.8232, 102.375, -77.6056
1.04049, -1, 18.2299, 21.4977, 16.1531, 12.8258, 102.272, -77.8664
1.04745, -1, 18.038, 21.3993, 16.1919, 12.8284, 102.169, -78.1271
1.0555, -1, 17.8461, 21.3009, 16.2308, 12.8309, 102.066, -78.388
1.06343, -1, 17.6541, 21.2026, 16.2697, 12.8334, 101.963, -78.6484
1.07144, -1, 17.4617, 21.1044, 16.3085, 12.8359, 101.86, -78.9088
1.07945, -1, 17.2688, 21.006, 16.3474, 12.8383, 101.757, -79.1694
1.08745, -1, 17.0756, 20.9078, 16.3862, 12.8407, 101.654, -79.4301
1.09544, -1, 16.8826, 20.8095, 16.425, 12.843, 101.551, -79.6907
1.10343, -1, 16.6895, 20.7113, 16.4638, 12.8454, 101.448, -79.9511
1.1115, -1, 16.4965, 20.6131, 16.5025, 12.8476, 101.346, -80.2115
1.11945, -1, 16.3035, 20.5148, 16.5412, 12.8499, 101.243, -80.4722
1.12743, -1, 16.1112, 20.4165, 16.58, 12.8522, 101.141, -80.7327
1.13551, -1, 15.9193, 20.3181, 16.6187, 12.8545, 101.038, -80.9928
1.14343, -1, 15.7277, 20.2196, 16.6574, 12.8568, 100.935, -81.2529
1.15143, -1, 15.5364, 20.1212, 16.6961, 12.8592, 100.833, -81.5131
1.15954, -1, 15.3452, 20.0229, 16.7347, 12.8615, 100.73, -81.7733
1.16743, -1, 15.1542, 19.9247, 16.7736, 12.8637, 100.627, -82.033
1.17545, -1, 14.963, 19.8265, 16.8123, 12.8659, 100.525, -82.2928
1.1835, -1, 14.7716, 19.7284, 16.851, 12.8682, 100.422, -82.5527
1.19144, -1, 14.5801, 19.6303, 16.8897, 12.8705, 100.32, -82.8129
1.19948, -1, 14.3882, 19.5322, 16.9284, 12.8728, 100.217, -83.0727
1.20747, -1, 14.196, 19.4342, 16.9672, 12.8751, 100.115, -83.3321
1.21545, -1, 14.0036, 19.3362, 17.006, 12.8773, 100.012, -83.5917
1.22353, -1, 13.811, 19.2383, 17.0445, 12.8797, 99.9096, -83.8514
1.23151, -1, 13.6185, 19.1406, 17.0832, 12.8819, 99.8071, -84.1108
1.23959, -1, 13.4261, 19.0427, 17.122, 12.8843, 99.7044, -84.3702
1.24762, -1, 13.2341, 18.9448, 17.1605, 12.8866, 99.6022, -84.6295
1.25554, -1, 13.0426, 18.8469, 17.1991, 12.889, 99.4998, -84.8888
1.26354, -1, 12.8514, 18.7489, 17.2378, 12.8913, 99.3973, -85.1482
1.27163, -1, 12.6604, 18.651, 17.2764, 12.8937, 99.2953, -85.4072
1.27949, -1, 12.4698, 18.5532, 17.315, 12.8961, 99.1928, -85.666
1.28762, -1, 12.2797, 18.4554, 17.3536, 12.8985, 99.0906, -85.925
1.29577, -1, 12.0896, 18.3577, 17.3921, 12.901, 98.9886, -86.184
1.30425, -1, 11.8992, 18.2601, 17.4308, 12.9034, 98.8863, -86.4427
1.31161, -1, 11.7088, 18.1625, 17.4694, 12.9058, 98.7844, -86.7012
1.31971, -1, 11.518, 18.0648, 17.5078, 12.9083, 98.6827, -86.9599
1.32854, -1, 11.3269, 17.9673, 17.5465, 12.9108, 98.5806, -87.2187
1.3358, -1, 11.1355, 17.8697, 17.5851, 12.9132, 98.4788, -87.4771
1.34414, -1, 10.9439, 17.7723, 17.6236, 12.9157, 98.3769, -87.7353
1.35273, -1, 10.7522, 17.6749, 17.6621, 12.9182, 98.2749, -87.9935
1.36, -1, 10.5605, 17.5774, 17.7005, 12.9207, 98.173, -88.2519
1.36853, -1, 10.3692, 17.4799, 17.739, 12.9232, 98.0711, -88.5102
1.37684, -1, 10.1782, 17.3824, 17.7775, 12.9257, 97.9692, -88.7682
1.38401, -1, 9.98763, 17.2848, 17.8158, 12.9284, 97.8674, -89.0264
1.39231, -1, 9.79734, 17.1872, 17.8541, 12.931, 97.7654, -89.2845
1.4009, -1, 9.70232, 17.1385, 17.8733, 12.9337, 97.6635, -89.5426
1.40743, -1, 9.5127, 17.0411, 17.9117, 12.9351, 97.6126, -89.6715
1.41549, -1, 9.32348, 16.9437, 17.95, 12.9378, 97.5108, -89.9291
1.42342, -1, 9.13422, 16.8464, 17.9885, 12.9405, 97.4089, -90.1866
1.43142, -1, 8.94488, 16.7492, 18.0268, 12.9432, 97.3071, -90.4442
1.43952, -1, 8.75533, 16.6521, 18.0651, 12.9458, 97.2054, -90.7017
1.44742, -1, 8.56575, 16.5549, 18.1036, 12.9485, 97.1037, -90.9589
1.45549, -1, 8.37598, 16.4578, 18.1419, 12.9512, 97.0022, -91.2163
1.46343, -1, 8.18568, 16.3609, 18.1801, 12.9538, 96.9007, -91.4734
1.47142, -1, 7.99511, 16.264, 18.2185, 12.9564, 96.7991, -91.7307
1.47955, -1, 7.80455, 16.1672, 18.2568, 12.9591, 96.6978, -91.9875
1.48742, -1, 7.61396, 16.0703, 18.295, 12.9616, 96.5963, -92.2441
1.49543, -1, 7.42346, 15.9733, 18.3333, 12.9641, 96.4948, -92.5009
1.5035, -1, 7.23328, 15.8764, 18.3714, 12.9667, 96.3935, -92.7576
1.51141, -1, 7.04349, 15.7795, 18.4096, 12.9692, 96.2921, -93.0143
1.52184, -1, 6.85404, 15.6825, 18.467, 12.973, 96.1404, -93.3989
1.52749, -1, 6.66512, 15.5856, 18.486, 12.9743, 96.0901, -93.5271
1.53647, -1, 6.47671, 15.4889, 18.5239, 12.9768, 95.989, -93.7835
1.54351, -1, 6.2885, 15.3921, 18.5621, 12.9793, 95.8879, -94.0399
1.55243, -1, 6.10045, 15.2954, 18.6002, 12.9817, 95.7873, -94.2958
1.55951, -1, 5.91221, 15.1988, 18.6384, 12.984, 95.6861, -94.5518
1.56842, -1, 5.72384, 15.1021, 18.6766, 12.9864, 95.5851, -94.8077
1.57548, -1, 5.53534, 15.0055, 18.7146, 12.9887, 95.4845, -95.0637
1.5835, -1, 5.34655, 14.909, 18.7527, 12.991, 95.3836, -95.3193
1.59142, -1, 5.1574, 14.8125, 18.7909, 12.9932, 95.2829, -95.5747
1.59949, -1, 4.9679, 14.7162, 18.8289, 12.9955, 95.1824, -95.8302
1.60743, -1, 4.77841, 14.6198, 18.8669, 12.9977, 95.0815, -96.0858
1.61547, -1, 4.58896, 14.5235, 18.9051, 12.9999, 94.9808, -96.3409
1.62375, -1, 4.3997, 14.4271, 18.9431, 13.0021, 94.8802, -96.5959
1.63141, -1, 4.21079, 14.3307, 18.9811, 13.0043, 94.7793, -96.8508
1.63951, -1, 4.02218, 14.2343, 19.0191, 13.0065, 94.6784, -97.1059
1.64824, -1, 3.83415, 14.1381, 19.057, 13.0088, 94.5776, -97.361
1.65542, -1, 3.64664, 14.0419, 19.095, 13.011, 94.4768, -97.6157
1.66347, -1, 3.45948, 13.9457, 19.1329, 13.0134, 94.3762, -97.8705
1.67221, -1, 3.27258, 13.8497, 19.1707, 13.0157, 94.2755, -98.1252
1.67947, -1, 3.0856, 13.7537, 19.2086, 13.0179, 94.1747, -98.3801
1.68747, -1, 2.89864, 13.6576, 19.2466, 13.0202, 94.0742, -98.6344
1.69623, -1, 2.71161, 13.5617, 19.2845, 13.0225, 93.9736, -98.8885
1.70341, -1, 2.52433, 13.4657, 19.3224, 13.0247, 93.8731, -99.1427
1.71156, -1, 2.33694, 13.3699, 19.3601, 13.027, 93.7729, -99.3967
1.72027, -1, 2.14903, 13.2741, 19.398, 13.0293, 93.6725, -99.6507
1.72751, -1, 1.96081, 13.1783, 19.4359, 13.0314, 93.5723, -99.9043
1.73574, -1, 1.77265, 13.0824, 19.4736, 13.0338, 93.4723, -100.158
1.74431, -1, 1.58433, 12.9866, 19.5113, 13.036, 93.3722, -100.412
1.75154, -1, 1.39618, 12.8908, 19.5491, 13.0382, 93.2722, -100.665
1.75996, -1, 1.20835, 12.795, 19.5868, 13.0406, 93.1724, -100.918
1.76831, -1, 1.02092, 12.6993, 19.6245, 13.0429, 93.0722, -101.171
1.77548, -1, 0.83416, 12.6037, 19.6623, 13.0453, 92.9723, -101.425
1.78411, -1, 0.647745, 12.5081, 19.6999, 13.0477, 92.8726, -101.678
1.79248, -1, 0.461888, 12.4127, 19.7375, 13.0502, 92.7726, -101.931
1.79949, -1, 0.276265, 12.3173, 19.7752, 13.0526, 92.6729, -102.183
1.8083, -1, 0.0908981, 12.222, 19.8127, 13.0551, 92.5737, -102.436
1.81648, -1, -0.0944655, 12.1267, 19.8503, 13.0575, 92.4739, -102.688
1.82362, -1, -0.280111, 12.0314, 19.888, 13.06, 92.3744, -102.941
1.83254, -1, -0.465996, 11.9362, 19.9256, 13.0625, 92.2752, -103.193
1.84062, -1, -0.652243, 11.8412, 19.9631, 13.0649, 92.1756, -103.445
1.84787, -1, -0.838664, 11.7462, 20.0007, 13.0674, 92.0761, -103.697
1.85673, -1, -1.02535, 11.6511, 20.0381, 13.0699, 91.9769, -103.949
1.86392, -1, -1.21222, 11.5561, 20.0755, 13.0725, 91.8773, -104.201
1.872, -1, -1.39921, 11.461, 20.1131, 13.075, 91.7781, -104.452
1.88086, -1, -1.58598, 11.3659, 20.1505, 13.0775, 91.6791, -104.704
1.88797, -1, -1.77244, 11.2708, 20.1878, 13.0801, 91.5798, -104.956
1.89613, -1, -1.95845, 11.1758, 20.2254, 13.0828, 91.4806, -105.207
1.90478, -1, -2.05121, 11.1283, 20.2441, 13.0841, 91.4312, -105.333
1.91141, -1, -2.23637, 11.0335, 20.2814, 13.0867, 91.332, -105.583
1.92009, -1, -2.42124, 10.9386, 20.3189, 13.0894, 91.2327, -105.834
1.92741, -1, -2.60565, 10.8439, 20.3562, 13.0921, 91.1337, -106.085
1.9354, -1, -2.78951, 10.7491, 20.3934, 13.0947, 91.0345, -106.336
1.94345, -1, -2.97338, 10.6544, 20.4308, 13.0973, 90.9354, -106.587
1.9514, -1, -3.15742, 10.5597, 20.4682, 13.0999, 90.8367, -106.838
1.95952, -1, -3.34174, 10.4651, 20.5053, 13.1025, 90.7377, -107.088
1.9674, -1, -3.52636, 10.3707, 20.5426, 13.105, 90.6387, -107.339
1.97541, -1, -3.71109, 10.2764, 20.5799, 13.1075, 90.5402, -107.589
1.98346, -1, -3.89614, 10.182, 20.6171, 13.1099, 90.4412, -107.839
1.9935, -1, -4.17419, 10.0406, 20.673, 13.1136, 90.2934, -108.214
1.99945, -1, -4.267, 9.99346, 20.6916, 13.1148, 90.2441, -108.339
2.00898, -1, -4.54539, 9.85196, 20.7474, 13.1182, 90.096, -108.713
2.01758, -1, -4.73056, 9.75771, 20.7847, 13.1205, 89.9976, -108.963
2.02347, -1, -4.82298, 9.71061, 20.8032, 13.1217, 89.9484, -109.087
2.03139, -1, -5.00754, 9.61652, 20.8402, 13.1241, 89.8498, -109.337
2.04041, -1, -5.1913, 9.52247, 20.8774, 13.1264, 89.7515, -109.586
2.04748, -1, -5.37466, 9.42843, 20.9145, 13.1287, 89.6533, -109.835
2.05646, -1, -5.55757, 9.33454, 20.9516, 13.1311, 89.5548, -110.084
2.06346, -1, -5.74005, 9.24064, 20.9887, 13.1334, 89.4566, -110.333
2.07147, -1, -5.92238, 9.14671, 21.0257, 13.1357, 89.3586, -110.581
2.07945, -1, -6.10479, 9.05287, 21.0626, 13.1379, 89.2603, -110.83
2.08741, -1, -6.28751, 8.95911, 21.0997, 13.1401, 89.1622, -111.078
2.09547, -1, -6.47042, 8.86547, 21.1366, 13.1424, 89.0645, -111.327
2.10341, -1, -6.65354, 8.77184, 21.1733, 13.1444, 88.9664, -111.575
2.1114, -1, -6.83717, 8.67823, 21.2103, 13.1466, 88.8685, -111.823
2.11952, -1, -7.02103, 8.58467, 21.2472, 13.1487, 88.7708, -112.071
2.12741, -1, -7.20519, 8.49112, 21.284, 13.1508, 88.6728, -112.319
2.1354, -1, -7.38934, 8.39753, 21.3209, 13.1529, 88.575, -112.566
2.14347, -1, -7.57316, 8.30389, 21.3577, 13.1551, 88.4775, -112.814
2.1514, -1, -7.75672, 8.21045, 21.3945, 13.1572, 88.3797, -113.061
2.15952, -1, -7.93978, 8.11707, 21.4314, 13.1594, 88.2823, -113.309
2.16746, -1, -8.12239, 8.02366, 21.4681, 13.1617, 88.1851, -113.556
2.1754, -1, -8.3043, 7.93039, 21.5048, 13.1639, 88.0876, -113.803
2.18341, -1, -8.48568, 7.83715, 21.5417, 13.1662, 87.9902, -114.05
2.19146, -1, -8.66674, 7.74396, 21.5784, 13.1685, 87.893, -114.297
2.19945, -1, -8.84743, 7.65079, 21.6152, 13.1707, 87.7955, -114.543
2.20742, -1, -9.02815, 7.5577, 21.6519, 13.173, 87.6981, -114.789
2.21546, -1, -9.20925, 7.4647, 21.6886, 13.1752, 87.601, -115.036
2.22341, -1, -9.39054, 7.37189, 21.7252, 13.1774, 87.5037, -115.282
2.23156, -1, -9.57213, 7.27906, 21.7619, 13.1796, 87.4065, -115.528
2.23955, -1, -9.75406, 7.18627, 21.7985, 13.1819, 87.3094, -115.774
2.24749, -1, -9.93642, 7.09357, 21.835, 13.1841, 87.2121, -116.021
2.25557, -1, -10.1189, 7.00083, 21.8715, 13.1863, 87.115, -116.267
2.2635, -1, -10.3016, 6.90806, 21.9081, 13.1886, 87.018, -116.512
2.27151, -1, -10.4841, 6.81532, 21.9447, 13.1907, 86.9208, -116.757
2.27965, -1, -10.6664, 6.72262, 21.9813, 13.193, 86.8237, -117.003
2.2874, -1, -10.8483, 6.63003, 22.0177, 13.1954, 86.7269, -117.248
2.29544, -1, -11.0295, 6.53743, 22.0541, 13.1978, 86.63, -117.493
2.30351, -1, -11.21, 6.44492, 22.0907, 13.2003, 86.5332, -117.738
2.31165, -1, -11.3899, 6.35243, 22.1271, 13.2027, 86.4367, -117.983
2.31966, -1, -11.5696, 6.26, 22.1635, 13.2051, 86.3399, -118.228
2.32769, -1, -11.7489, 6.1676, 22.1999, 13.2076, 86.2433, -118.473
2.33569, -1, -11.9281, 6.07531, 22.2364, 13.2101, 86.1469, -118.717
2.34405, -1, -12.1074, 5.9831, 22.2727, 13.2125, 86.0502, -118.961
2.3525, -1, -12.2869, 5.89101, 22.3092, 13.215, 85.9538, -119.206
2.36001, -1, -12.4668, 5.79897, 22.3455, 13.2175, 85.8575, -119.45
2.36801, -1, -12.647, 5.70696, 22.3817, 13.22, 85.761, -119.694
2.37656, -1, -12.8276, 5.61501, 22.418, 13.2225, 85.6648, -119.937
2.38401, -1, -13.0086, 5.52312, 22.4544, 13.2249, 85.569, -120.181
2.3921, -1, -13.1897, 5.4311, 22.4905, 13.2274, 85.473, -120.425
2.40096, -1, -13.2804, 5.33911, 22.5268, 13.2298, 85.3771, -120.669
2.40813, -1, -13.4614, 5.29318, 22.545, 13.231, 85.3293, -120.79
2.41544, -1, -13.6421, 5.20126, 22.5812, 13.2335, 85.2335, -121.033
2.42341, -1, -13.8224, 5.10941, 22.6173, 13.2361, 85.1377, -121.276
2.43139, -1, -14.002, 5.01764, 22.6535, 13.2387, 85.0421, -121.519
2.43943, -1, -14.1807, 4.92594, 22.6896, 13.2412, 84.9465, -121.762
2.44739, -1, -14.359, 4.83425, 22.7256, 13.2438, 84.8508, -122.005
2.45541, -1, -14.5369, 4.74265, 22.7619, 13.2463, 84.7553, -122.247
2.46343, -1, -14.7146, 4.65106, 22.7981, 13.2488, 84.6596, -122.49
2.4714, -1, -14.8922, 4.55954, 22.8341, 13.2513, 84.5639, -122.732
2.47943, -1, -15.0699, 4.46814, 22.8702, 13.2537, 84.4683, -122.974
2.48738, -1, -15.2479, 4.37687, 22.9064, 13.2562, 84.3727, -123.216
2.4954, -1, -15.4263, 4.28558, 22.9424, 13.2585, 84.277, -123.458
2.50343, -1, -15.6052, 4.19431, 22.9784, 13.2608, 84.1814, -123.7
2.51138, -1, -15.7843, 4.1031, 23.0145, 13.2631, 84.0858, -123.942
2.52186, -1, -16.0532, 3.96627, 23.0683, 13.2664, 83.9425, -124.304
2.52745, -1, -16.1431, 3.92062, 23.0864, 13.2675, 83.8948, -124.425
2.53697, -1, -16.3229, 3.8294, 23.1223, 13.2696, 83.7994, -124.787
2.54338, -1, -16.5024, 3.73821, 23.1581, 13.2717, 83.7039, -124.908
2.55147, -1, -16.6814, 3.64713, 23.1939, 13.2739, 83.6086, -125.149
2.5605, -1, -16.8599, 3.55603, 23.2298, 13.2762, 83.5132, -125.39
2.56744, -1, -17.0376, 3.465, 23.2656, 13.2784, 83.4179, -125.631
2.57545, -1, -17.2144, 3.37407, 23.3015, 13.2805, 83.3226, -125.872
2.58338, -1, -17.3909, 3.28324, 23.3373, 13.2828, 83.2276, -126.112
2.59149, -1, -17.5672, 3.1924, 23.3731, 13.2849, 83.1324, -126.353
2.59938, -1, -17.7432, 3.10176, 23.409, 13.287, 83.0375, -126.593
2.60738, -1, -17.9193, 3.01116, 23.4449, 13.2891, 82.9429, -126.833
2.61546, -1, -18.0955, 2.92072, 23.4806, 13.2912, 82.8479, -127.073
2.62337, -1, -18.272, 2.83034, 23.5163, 13.2934, 82.7533, -127.313
2.6314, -1, -18.4489, 2.73995, 23.5521, 13.2954, 82.6588, -127.553
2.63945, -1, -18.6263, 2.64961, 23.5878, 13.2975, 82.564, -127.793
2.64738, -1, -18.8039, 2.55929, 23.6235, 13.2996, 82.4695, -128.032
2.65539, -1, -18.9819, 2.46884, 23.6593, 13.3015, 82.3751, -128.272
2.66345, -1, -19.1602, 2.37835, 23.6949, 13.3035, 82.2805, -128.511
2.67139, -1, -19.3384, 2.28797, 23.7305, 13.3055, 82.1862, -128.75
2.67937, -1, -19.5161, 2.19755, 23.7663, 13.3077, 82.0923, -128.99
2.68745, -1, -19.6932, 2.10712, 23.8018, 13.3098, 81.998, -129.229
2.69545, -1, -19.8698, 2.01685, 23.8372, 13.312, 81.9038, -129.468
2.70338, -1, -20.0456, 1.9266, 23.8728, 13.3141, 81.81, -129.706
2.71164, -1, -20.2209, 1.83639, 23.9084, 13.3163, 81.7158, -129.945
2.7194, -1, -20.3958, 1.74627, 23.9439, 13.3185, 81.6218, -130.183
2.72746, -1, -20.5704, 1.65622, 23.9796, 13.3207, 81.5279, -130.422
2.73632, -1, -20.7448, 1.56627, 24.0151, 13.3229, 81.4339, -130.66
2.74346, -1, -20.9194, 1.4764, 24.0505, 13.3251, 81.34, -130.898
2.75154, -1, -21.0944, 1.38669, 24.0861, 13.3273, 81.2464, -131.136
2.7595, -1, -21.2697, 1.29694, 24.1216, 13.3295, 81.1525, -131.374
2.76748, -1, -21.4454, 1.20728, 24.157, 13.3316, 81.0587, -131.611
2.77555, -1, -21.6214, 1.11768, 24.1924, 13.3338, 80.965, -131.849
2.78577, -1, -21.7976, 1.02801, 24.2279, 13.3359, 80.8712, -132.087
2.79146, -1, -21.9739, 0.938388, 24.2633, 13.3382, 80.7774, -132.324
2.79943, -1, -22.1505, 0.848831, 24.2987, 13.3403, 80.6838, -132.561
2.80818, -1, -22.327, 0.759259, 24.3341, 13.3425, 80.59, -132.798
2.8164, -1, -22.5031, 0.669725, 24.3693, 13.3447, 80.4964, -133.035
2.82353, -1, -22.6788, 0.58023, 24.4046, 13.3471, 80.4028, -133.272
2.83234, -1, -22.8538, 0.490809, 24.4399, 13.3495, 80.3092, -133.509
2.83977, -1, -23.0278, 0.40141, 24.4751, 13.3519, 80.2156, -133.746
2.84845, -1, -23.2015, 0.312081, 24.5102, 13.3545, 80.1221, -133.982
2.85654, -1, -23.3748, 0.222775, 24.5455, 13.3569, 80.0287, -134.219
2.86392, -1, -23.5478, 0.133569, 24.5807, 13.3593, 79.9353, -134.455
2.87252, -1, -23.7211, 0.0444421, 24.6159, 13.3616, 79.842, -134.691
2.88075, -1, -23.8945, -0.0446074, 24.6512, 13.3641, 79.749, -134.928
2.88801, -1, -24.0679, -0.133523, 24.6863, 13.3665, 79.6557, -135.164
2.89595, -1, -24.1548, -0.222508, 24.7214, 13.369, 79.5626, -135.399
2.90478, -1, -24.3287, -0.266986, 24.7566, 13.3714, 79.4697, -135.635
2.91198, -1, -24.503, -0.355885, 24.7742, 13.3727, 79.4231, -135.87
2.91936, -1, -24.6776, -0.444779, 24.8092, 13.3751, 79.3301, -135.988
2.92738, -1, -24.8525, -0.533665, 24.8443, 13.3775, 79.2371, -136.224
2.93541, -1, -25.0276, -0.622505, 24.8795, 13.3798, 79.1442, -136.459
2.94336, -1, -25.2026, -0.711342, 24.9145, 13.3821, 79.0512, -136.694
2.95138, -1, -25.3771, -0.800074, 24.9495, 13.3845, 78.9584, -136.929
2.95944, -1, -25.5512, -0.888908, 24.9846, 13.3869, 78.8658, -137.164
2.96738, -1, -25.7248, -0.977608, 25.0195, 13.3894, 78.7729, -137.399
2.97536, -1, -25.8978, -1.0663, 25.0544, 13.3917, 78.6802, -137.634
2.98341, -1, -26.0703, -1.15496, 25.0895, 13.3942, 78.5881, -137.868
2.99298, -1, -26.3282, -1.28782, 25.1417, 13.3978, 78.4491, -138.22
3.00248, -1, -26.4999, -1.37628, 25.1766, 13.4002, 78.3566, -138.454
3.00737, -1, -26.5858, -1.42046, 25.1941, 13.4013, 78.3105, -138.572
3.01536, -1, -26.7578, -1.50876, 25.2291, 13.4035, 78.218, -138.806
3.02572, -1, -26.9301, -1.59695, 25.2813, 13.4069, 78.0794, -139.156
3.03136, -1, -27.1025, -1.68512, 25.2988, 13.408, 78.0334, -139.273
3.04036, -1, -27.2751, -1.77335, 25.3337, 13.4102, 77.9412, -139.507
3.04744, -1, -27.4479, -1.86145, 25.3684, 13.4124, 77.8491, -139.741
3.05642, -1, -27.621, -1.94955, 25.4031, 13.4144, 77.7571, -139.974
3.06336, -1, -27.7943, -2.03776, 25.438, 13.4165, 77.665, -140.208
3.07148, -1, -27.9677, -2.12578, 25.4728, 13.4186, 77.573, -140.441
3.07936, -1, -28.141, -2.21381, 25.5075, 13.4206, 77.4811, -140.675
3.08737, -1, -28.3142, -2.30185, 25.5423, 13.4227, 77.389, -140.908
3.09544, -1, -28.487, -2.3899, 25.577, 13.4248, 77.2969, -141.141
3.10337, -1, -28.6593, -2.47781, 25.6117, 13.4269, 77.2048, -141.373
3.11136, -1, -28.8311, -2.56575, 25.6464, 13.429, 77.1129, -141.606
3.11942, -1, -29.0022, -2.65368, 25.681, 13.4311, 77.0208, -141.839
3.12736, -1, -29.1728, -2.74155, 25.7156, 13.4332, 76.9288, -142.072
3.13544, -1, -29.3434, -2.82932, 25.7502, 13.4353, 76.8372, -142.304
3.14337, -1, -29.514, -2.91699, 25.7849, 13.4374, 76.7452, -142.537
3.15136, -1, -29.6849, -3.00458, 25.8194, 13.4394, 76.6534, -142.769
3.15942, -1, -29.856, -3.09211, 25.8539, 13.4415, 76.5619, -143.002
3.16736, -1, -30.0269, -3.17955, 25.8885, 13.4436, 76.4699, -143.234
3.17537, -1, -30.1979, -3.26707, 25.923, 13.4456, 76.3783, -143.466
3.18344, -1, -30.369, -3.35452, 25.9576, 13.4477, 76.2867, -143.697
3.19136, -1, -30.5405, -3.44195, 25.9922, 13.4498, 76.195, -143.929
3.19939, -1, -30.7123, -3.52949, 26.0266, 13.4518, 76.1036, -144.161
3.20741, -1, -30.8842, -3.61683, 26.0611, 13.4538, 76.0123, -144.392
3.21535, -1, -31.056, -3.7042, 26.0956, 13.4558, 75.9208, -144.624
3.22365, -1, -31.2277, -3.79155, 26.1301, 13.4578, 75.8295, -144.855
3.23139, -1, -31.3991, -3.87886, 26.1644, 13.4599, 75.7383, -145.086
3.23947, -1, -31.57, -3.96613, 26.1989, 13.462, 75.6472, -145.317
3.24774, -1, -31.7404, -4.05336, 26.2334, 13.4642, 75.5558, -145.548
3.25546, -1, -31.9104, -4.14061, 26.2677, 13.4664, 75.4647, -145.779
3.26354, -1, -32.08, -4.22779, 26.3021, 13.4686, 75.3737, -146.01
3.27194, -1, -32.2493, -4.31486, 26.3366, 13.4709, 75.2824, -146.241
3.27946, -1, -32.4187, -4.40193, 26.3708, 13.473, 75.1913, -146.471
3.28736, -1, -32.5885, -4.48892, 26.4051, 13.4751, 75.1008, -146.702
3.29614, -1, -32.7582, -4.57582, 26.4396, 13.4772, 75.0097, -146.932
3.30348, -1, -32.9278, -4.66276, 26.4738, 13.4794, 74.9189, -147.163
3.3114, -1, -33.0975, -4.74968, 26.5079, 13.4816, 74.8285, -147.393
3.32031, -1, -33.2673, -4.83652, 26.5423, 13.4839, 74.7377, -147.623
3.32789, -1, -33.4373, -4.9234, 26.5765, 13.4861, 74.6471, -147.853
3.33636, -1, -33.6077, -5.01034, 26.6107, 13.4883, 74.5565, -148.083
3.34461, -1, -33.778, -5.09708, 26.645, 13.4905, 74.4659, -148.313
3.35179, -1, -33.9482, -5.18379, 26.6792, 13.4927, 74.3753, -148.542
3.35985, -1, -34.1185, -5.27051, 26.7133, 13.495, 74.2848, -148.772
3.36872, -1, -34.2887, -5.35723, 26.7476, 13.4972, 74.1944, -149.001
3.37608, -1, -34.4586, -5.44386, 26.7818, 13.4995, 74.1037, -149.231
3.38392, -1, -34.6282, -5.53051, 26.8159, 13.5019, 74.0132, -149.46
3.39285, -1, -34.7971, -5.61712, 26.85, 13.5043, 73.9229, -149.689
3.39997, -1, -34.8815, -5.7037, 26.8842, 13.5067, 73.8322, -149.918
3.40848, -1, -35.1341, -5.79017, 26.9183, 13.5091, 73.7417, -150.147
3.41535, -1, -35.2182, -5.83339, 26.9353, 13.5103, 73.6967, -150.262
3.42335, -1, -35.3865, -5.91973, 26.9695, 13.5128, 73.6063, -150.491
3.43141, -1, -35.555, -6.00593, 27.0036, 13.5152, 73.5159, -150.72
3.43937, -1, -35.7235, -6.09215, 27.0376, 13.5175, 73.4255, -150.948
3.44739, -1, -35.8919, -6.17832, 27.0717, 13.5199, 73.3353, -151.177
3.45535, -1, -36.0604, -6.26446, 27.1058, 13.5222, 73.2448, -151.405
3.46336, -1, -36.229, -6.35055, 27.1397, 13.5246, 73.1544, -151.634
3.47141, -1, -36.3977, -6.43675, 27.1735, 13.527, 73.0643, -151.862
3.47935, -1, -36.5666, -6.52298, 27.2076, 13.5293, 72.9738, -152.09
3.48968, -1, -36.8199, -6.65226, 27.2584, 13.5327, 72.8385, -152.433
3.49541, -1, -36.9044, -6.69533, 27.2754, 13.5339, 72.7935, -152.547
3.50493, -1, -37.1578, -6.8246, 27.3263, 13.5373, 72.6582, -152.889
3.51434, -1, -37.3265, -6.91068, 27.3601, 13.5395, 72.5683, -153.116
3.51942, -1, -37.4107, -6.95367, 27.377, 13.5407, 72.5235, -153.23
3.52735, -1, -37.5788, -7.03978, 27.411, 13.5429, 72.4335, -153.458
3.53757, -1, -37.7466, -7.12581, 27.4449, 13.5452, 72.3437, -153.685
3.5434, -1, -37.9142, -7.21178, 27.4787, 13.5473, 72.254, -153.913
3.5524, -1, -38.0816, -7.29768, 27.5125, 13.5496, 72.1644, -154.14
3.55936, -1, -38.2491, -7.38352, 27.5465, 13.5517, 72.0745, -154.367
3.56741, -1, -38.4164, -7.46924, 27.5803, 13.5538, 71.9848, -154.595
3.57541, -1, -38.5836, -7.55494, 27.6141, 13.5559, 71.8954, -154.822
3.58334, -1, -38.7509, -7.64066, 27.6481, 13.558, 71.8056, -155.049
3.59148, -1, -38.9182, -7.72636, 27.6818, 13.5601, 71.7161, -155.276
3.59937, -1, -39.0855, -7.81203, 27.7155, 13.5622, 71.627, -155.503
3.60741, -1, -39.2531, -7.89769, 27.7494, 13.5642, 71.5374, -155.73
3.61536, -1, -39.4206, -7.98338, 27.7832, 13.5661, 71.4481, -155.956
3.62335, -1, -39.5883, -8.06897, 27.8167, 13.5681, 71.3588, -156.183
3.63141, -1, -39.756, -8.15449, 27.8504, 13.57, 71.2695, -156.41
3.63936, -1, -39.9236, -8.23995, 27.8842, 13.5719, 71.1802, -156.636
3.64735, -1, -40.0912, -8.32537, 27.9178, 13.5739, 71.0907, -156.862
3.65542, -1, -40.2587, -8.41072, 27.9515, 13.5758, 71.0016, -157.089
3.66334, -1, -40.4258, -8.4961, 27.9852, 13.5778, 70.9121, -157.315
3.67135, -1, -40.5928, -8.58145, 28.0188, 13.5797, 70.8228, -157.541
3.67941, -1, -40.7595, -8.66683, 28.0523, 13.5817, 70.7338, -157.767
3.68734, -1, -40.9261, -8.75215, 28.086, 13.5838, 70.6446, -157.993
3.69537, -1, -41.0925, -8.83744, 28.1197, 13.5858, 70.5555, -158.218
3.70341, -1, -41.2589, -8.92268, 28.1532, 13.5878, 70.4666, -158.444
3.71134, -1, -41.4251, -9.00781, 28.1867, 13.5898, 70.3774, -158.67
3.71949, -1, -41.5913, -9.09295, 28.2204, 13.5918, 70.2881, -158.895
3.72736, -1, -41.7577, -9.17804, 28.2539, 13.5938, 70.199, -159.121
3.73539, -1, -41.924, -9.26307, 28.2874, 13.5959, 70.1099, -159.346
3.74377, -1, -42.0904, -9.34806, 28.321, 13.5979, 70.0209, -159.572
3.75143, -1, -42.2567, -9.43317, 28.3545, 13.5999, 69.9319, -159.797
3.75944, -1, -42.423, -9.51819, 28.3879, 13.6019, 69.8432, -160.022
3.76785, -1, -42.5894, -9.60313, 28.4214, 13.6039, 69.7541, -160.248
3.77546, -1, -42.7558, -9.68809, 28.4549, 13.606, 69.6652, -160.473
3.7834, -1, -42.9221, -9.77307, 28.4882, 13.608, 69.5767, -160.698
3.79147, -1, -43.0885, -9.85797, 28.5216, 13.6101, 69.4877, -160.923
3.79999, -1, -43.2546, -9.94289, 28.5551, 13.6121, 69.3991, -161.148
3.80833, -1, -43.4207, -10.0278, 28.5885, 13.6142, 69.3105, -161.372
3.81547, -1, -43.5867, -10.1127, 28.6219, 13.6163, 69.2218, -161.597
3.82428, -1, -43.7527, -10.1976, 28.6554, 13.6183, 69.1333, -161.822
3.83153, -1, -43.9185, -10.2824, 28.6887, 13.6205, 69.0449, -162.046
3.83968, -1, -44.0841, -10.3672, 28.722, 13.6226, 68.9565, -162.271
3.84834, -1, -44.2494, -10.4519, 28.7556, 13.6248, 68.8678, -162.495
3.85576, -1, -44.4146, -10.5364, 28.7889, 13.627, 68.7792, -162.719
3.86384, -1, -44.5798, -10.621, 28.8222, 13.6292, 68.6908, -162.944
3.87252, -1, -44.745, -10.7055, 28.8556, 13.6314, 68.602, -163.168
3.87988, -1, -44.9104, -10.7899, 28.889, 13.6336, 68.5135, -163.392
3.88844, -1, -45.0757, -10.8744, 28.9223, 13.6358, 68.4251, -163.616
3.8962, -1, -45.241, -10.9589, 28.9557, 13.6379, 68.3365, -163.84
3.90396, -1, -45.3237, -11.0434, 28.9891, 13.6402, 68.248, -164.064
3.91242, -1, -45.5715, -11.1278, 29.0223, 13.6425, 68.1598, -164.288
3.91936, -1, -45.6541, -11.17, 29.0389, 13.6437, 68.1158, -164.4
3.92828, -1, -45.9018, -11.2965, 29.0889, 13.6471, 67.983, -164.735
3.93544, -1, -45.9837, -11.3383, 29.1056, 13.6482, 67.9389, -164.847
3.94336, -1, -46.1452, -11.4207, 29.139, 13.6504, 67.8509, -165.07
3.95156, -1, -46.3024, -11.5001, 29.1725, 13.6528, 67.7634, -165.291
3.9595, -1, -46.4529, -11.5753, 29.206, 13.6552, 67.6782, -165.507
3.96732, -1, -46.5943, -11.6453, 29.2383, 13.6574, 67.5965, -165.713
3.97536, -1, -46.7242, -11.7088, 29.2683, 13.6597, 67.5216, -165.903
3.98338, -1, -46.8396, -11.7651, 29.2948, 13.6616, 67.4544, -166.072
3.99288, -1, -46.9823, -11.8367, 29.3262, 13.664, 67.3743, -166.276
4.00095, -1, -47.0574, -11.8768, 29.3402, 13.6651, 67.3348, -166.375
4.00738, -1, -47.0893, -11.8945, 29.3454, 13.6654, 67.3193, -166.414
4.01705, -1, -47.1632, -11.9361, 29.3551, 13.6659, 67.2871, -166.495
4.02333, -1, -47.1813, -11.9464, 29.3568, 13.666, 67.2805, -166.512
4.03135, -1, -47.2092, -11.962, 29.3587, 13.6661, 67.2715, -166.535
4.04097, -1, -47.2277, -11.9721, 29.3595, 13.6662, 67.2652, -166.55
4.04832, -1, -47.2389, -11.9781, 29.3599, 13.6663, 67.2643, -166.553
4.05538, 2, -47.2446, -11.981, 29.3602, 13.6664, 67.2631, -166.556
4.06334, 2, -47.2468, -11.9823, 29.3604, 13.6664, 67.2626, -166.557
4.07133, 2, -47.2468, -11.9829, 29.3606, 13.6664, 67.2623, -166.557
4.07944, 2, -47.2465, -11.983, 29.3607, 13.6664, 67.2622, -166.558
4.08733, 2, -47.2464, -11.9831, 29.3608, 13.6664, 67.2622, -166.558
4.09534, 2, -47.2468, -11.9832, 29.3608, 13.6664, 67.2622, -166.558
4.1035, 2, -47.2477, -11.9834, 29.3609, 13.6665, 67.2622, -166.558
4.11132, 2, -47.249, -11.9839, 29.3609, 13.6665, 67.2622, -166.558
4.11932, 2, -47.2509, -11.9847, 29.3609, 13.6665, 67.2622, -166.558
4.12739, 2, -47.2526, -11.9855, 29.3609, 13.6665, 67.2622, -166.558
4.13534, 2, -47.2541, -11.9863, 29.3609, 13.6664, 67.2622, -166.558
4.14335, 2, -47.2551, -11.987, 29.3609, 13.6664, 67.2622, -166.558
4.15135, 2, -47.2556, -11.9874, 29.3609, 13.6664, 67.2622, -166.558
4.15932, 2, -47.2558, -11.9876, 29.3609, 13.6664, 67.2622, -166.558
4.16736, 2, -47.2558, -11.9876, 29.3609, 13.6665, 67.2622, -166.558
4.17536, 2, -47.2556, -11.9876, 29.361, 13.6665, 67.2622, -166.558
4.18332, 2, -47.2551, -11.9876, 29.361, 13.6665, 67.2622, -166.558
4.19137, 2, -47.2545, -11.9876, 29.361, 13.6664, 67.2621, -166.558
4.19934, 2, -47.2541, -11.9876, 29.361, 13.6665, 67.2622, -166.558
4.20733, 2, -47.2538, -11.9876, 29.361, 13.6665, 67.2622, -166.558
4.21539, 2, -47.2538, -11.9877, 29.361, 13.6664, 67.2622, -166.558
4.22335, 2, -47.2538, -11.9878, 29.361, 13.6665, 67.2622, -166.558
4.23135, 2, -47.254, -11.9881, 29.361, 13.6664, 67.2622, -166.558
4.2394, 2, -47.2546, -11.9885, 29.361, 13.6664, 67.2621, -166.558
4.24748, 2, -47.2552, -11.9888, 29.361, 13.6664, 67.2622, -166.558
4.25545, 2, -47.2557, -11.989, 29.361, 13.6664, 67.2622, -166.558
4.26347, 2, -47.2559, -11.989, 29.361, 13.6664, 67.2622, -166.558
4.27147, 2, -47.2559, -11.989, 29.361, 13.6664, 67.2622, -166.558
4.27942, 2, -47.2558, -11.989, 29.361, 13.6664, 67.2622, -166.558
4.28748, 2, -47.2557, -11.989, 29.361, 13.6664, 67.2622, -166.558
4.29545, 2, -47.2553, -11.989, 29.361, 13.6664, 67.2622, -166.558
4.30335, 2, -47.2548, -11.9889, 29.361, 13.6664, 67.2622, -166.558
4.3115, 2, -47.2545, -11.9889, 29.361, 13.6664, 67.2622, -166.558
4.31945, 2, -47.2542, -11.989, 29.361, 13.6664, 67.2622, -166.558
4.32743, 2, -47.254, -11.989, 29.361, 13.6664, 67.2622, -166.558
4.33566, 2, -47.2539, -11.989, 29.361, 13.6663, 67.2622, -166.558
4.34377, 2, -47.2539, -11.9891, 29.361, 13.6664, 67.2622, -166.558
4.3524, 2, -47.2539, -11.9892, 29.361, 13.6664, 67.2623, -166.558
4.35985, 2, -47.2538, -11.9892, 29.361, 13.6664, 67.2623, -166.558
4.36843, 2, -47.2539, -11.9892, 29.361, 13.6664, 67.2622, -166.558
4.37584, 2, -47.254, -11.9892, 29.3611, 13.6663, 67.2622, -166.557
4.38442, 2, -47.254, -11.9891, 29.3611, 13.6664, 67.2623, -166.557
4.39227, 2, -47.2539, -11.9891, 29.361, 13.6664, 67.2622, -166.557
4.3999, 2, -47.2539, -11.989, 29.361, 13.6664, 67.2622, -166.557
4.40843, 2, -47.2538, -11.989, 29.361, 13.6664, 67.2623, -166.557
4.4161, 2, -47.2538, -11.989, 29.361, 13.6664, 67.2623, -166.557
4.42331, 2, -47.2536, -11.989, 29.361, 13.6664, 67.2623, -166.557
4.43235, 2, -47.2533, -11.989, 29.361, 13.6664, 67.2623, -166.557
4.43933, 2, -47.2533, -11.989, 29.361, 13.6664, 67.2623, -166.557
4.44731, 2, -47.2532, -11.989, 29.361, 13.6664, 67.2623, -166.557
4.45663, 2, -47.2531, -11.9891, 29.361, 13.6664, 67.2624, -166.557
4.46332, 2, -47.2531, -11.9891, 29.361, 13.6664, 67.2624, -166.557
4.47131, 2, -47.253, -11.9891, 29.361, 13.6664, 67.2624, -166.557
4.48077, 2, -47.2529, -11.989, 29.361, 13.6664, 67.2624, -166.557
4.48909, 2, -47.2529, -11.989, 29.361, 13.6663, 67.2624, -166.557
4.4968, 2, -47.2528, -11.989, 29.361, 13.6663, 67.2624, -166.557
4.50492, 2, -47.2527, -11.9889, 29.361, 13.6664, 67.2624, -166.557
4.51132, 2, -47.2527, -11.9889, 29.361, 13.6664, 67.2624, -166.557
4.52097, 2, -47.2525, -11.9889, 29.3611, 13.6664, 67.2624, -166.557
4.52735, 2, -47.2525, -11.9888, 29.3611, 13.6664, 67.2624, -166.557
4.53711, 2, -47.2524, -11.9888, 29.361, 13.6664, 67.2624, -166.557
4.54331, 2, -47.2523, -11.9888, 29.361, 13.6664, 67.2624, -166.557
4.55231, 2, -47.2522, -11.9888, 29.3611, 13.6663, 67.2624, -166.557
4.55932, 2, -47.2522, -11.9888, 29.361, 13.6663, 67.2624, -166.557
4.56832, 2, -47.2521, -11.9888, 29.361, 13.6663, 67.2624, -166.557
4.57537, 2, -47.252, -11.9888, 29.361, 13.6663, 67.2624, -166.557
4.58337, 2, -47.2519, -11.9888, 29.3611, 13.6663, 67.2625, -166.557
4.59131, 2, -47.2518, -11.9888, 29.361, 13.6663, 67.2625, -166.557
4.59935, 2, -47.2516, -11.9888, 29.361, 13.6663, 67.2625, -166.557
4.60734, 2, -47.2515, -11.9887, 29.3611, 13.6663, 67.2625, -166.557
4.61532, 2, -47.2514, -11.9887, 29.3611, 13.6663, 67.2625, -166.557
4.62336, 2, -47.2513, -11.9886, 29.3611, 13.6663, 67.2625, -166.557
4.63132, 2, -47.2512, -11.9886, 29.3611, 13.6663, 67.2625, -166.557
4.63931, 2, -47.2511, -11.9886, 29.3611, 13.6663, 67.2625, -166.557
4.64737, 2, -47.251, -11.9886, 29.361, 13.6663, 67.2625, -166.557
4.65534, 2, -47.2509, -11.9886, 29.361, 13.6663, 67.2625, -166.557
4.66331, 2, -47.2508, -11.9886, 29.361, 13.6663, 67.2625, -166.557
4.67136, 2, -47.2507, -11.9886, 29.361, 13.6662, 67.2625, -166.557
4.67933, 2, -47.2506, -11.9886, 29.3611, 13.6662, 67.2625, -166.557
4.68731, 2, -47.2505, -11.9886, 29.3611, 13.6662, 67.2625, -166.557
4.69537, 2, -47.2504, -11.9886, 29.3611, 13.6662, 67.2626, -166.557
4.70333, 2, -47.2504, -11.9885, 29.361, 13.6662, 67.2626, -166.557
4.7113, 2, -47.2503, -11.9884, 29.3611, 13.6662, 67.2626, -166.557
4.71936, 2, -47.2503, -11.9884, 29.3611, 13.6662, 67.2627, -166.557
4.72732, 2, -47.2502, -11.9883, 29.361, 13.6662, 67.2626, -166.557
4.73535, 2, -47.25, -11.9883, 29.361, 13.6662, 67.2626, -166.557
4.7434, 2, -47.25, -11.9883, 29.361, 13.6662, 67.2626, -166.557
4.75145, 2, -47.2499, -11.9883, 29.361, 13.6662, 67.2627, -166.557
4.7594, 2, -47.2499, -11.9883, 29.3611, 13.6661, 67.2627, -166.557
4.76745, 2, -47.2498, -11.9883, 29.3611, 13.6662, 67.2628, -166.557
4.77546, 2, -47.2498, -11.9883, 29.3611, 13.6662, 67.2627, -166.557
4.78341, 2, -47.2497, -11.9883, 29.361, 13.6661, 67.2627, -166.557
4.79146, 2, -47.2497, -11.9883, 29.361, 13.6662, 67.2628, -166.556
4.79932, 2, -47.2497, -11.9882, 29.3611, 13.6662, 67.2628, -166.556
4.80733, 2, -47.2496, -11.9882, 29.3611, 13.6661, 67.2628, -166.556
4.81543, 2, -47.2496, -11.9881, 29.361, 13.666, 67.2628, -166.556
4.82342, 2, -47.2496, -11.988, 29.361, 13.666, 67.2628, -166.556
4.83147, 2, -47.2495, -11.988, 29.361, 13.666, 67.2628, -166.556
4.83989, 2, -47.2494, -11.988, 29.361, 13.666, 67.2628, -166.556
4.84835, 2, -47.2493, -11.9879, 29.3611, 13.666, 67.2628, -166.556
4.85563, 2, -47.2492, -11.9879, 29.3611, 13.666, 67.2629, -166.556
4.86411, 2, -47.2491, -11.9879, 29.361, 13.666, 67.2629, -166.556
4.87184, 2, -47.2491, -11.988, 29.361, 13.666, 67.2629, -166.556
4.88044, 2, -47.2491, -11.9879, 29.3611, 13.666, 67.263, -166.556
4.8883, 2, -47.249, -11.9879, 29.361, 13.666, 67.2629, -166.556
4.89588, 2, -47.249, -11.9879, 29.361, 13.666, 67.2629, -166.556
4.90445, 2, -47.249, -11.9879, 29.361, 13.666, 67.263, -166.556
4.91214, 2, -47.249, -11.9878, 29.361, 13.666, 67.263, -166.556
4.91996, 2, -47.249, -11.9878, 29.361, 13.666, 67.2631, -166.556
4.92729, 2, -47.2489, -11.9877, 29.361, 13.6659, 67.263, -166.556
4.93633, 2, -47.2488, -11.9877, 29.361, 13.6659, 67.263, -166.556
4.94332, 2, -47.2487, -11.9876, 29.3611, 13.6659, 67.263, -166.556
4.9513, 2, -47.2487, -11.9876, 29.361, 13.6659, 67.263, -166.556
4.96074, 2, -47.2485, -11.9876, 29.361, 13.6659, 67.263, -166.556
4.9673, 2, -47.2485, -11.9876, 29.361, 13.6659, 67.263, -166.556
4.9753, 2, -47.2485, -11.9876, 29.3611, 13.6659, 67.263, -166.556
4.98512, 2, -47.2484, -11.9876, 29.361, 13.6659, 67.2631, -166.556
4.9913, 2, -47.2484, -11.9876, 29.3611, 13.6659, 67.2631, -166.556
5.00079, 2, -47.2484, -11.9876, 29.361, 13.6658, 67.2631, -166.556
5.0092, 2, -47.2483, -11.9875, 29.361, 13.6659, 67.2631, -166.556
5.01531, 2, -47.2484, -11.9875, 29.361, 13.6658, 67.2631, -166.556
5.02494, 2, -47.2483, -11.9874, 29.361, 13.6658, 67.263, -166.556
5.03133, 2, -47.2482, -11.9874, 29.361, 13.6658, 67.263, -166.556
5.03931, 2, -47.2482, -11.9874, 29.361, 13.6658, 67.263, -166.556
5.04832, 2, -47.2481, -11.9873, 29.3611, 13.6658, 67.263, -166.556
5.05731, 2, -47.248, -11.9873, 29.361, 13.6658, 67.2631, -166.556
5.06328, 2, -47.2479, -11.9873, 29.361, 13.6658, 67.2631, -166.556
5.07134, 2, -47.2479, -11.9873, 29.361, 13.6658, 67.2631, -166.556
5.08031, 2, -47.2478, -11.9873, 29.361, 13.6658, 67.2631, -166.556
5.08834, 2, -47.2478, -11.9873, 29.361, 13.6658, 67.2631, -166.556
5.09531, 2, -47.2477, -11.9873, 29.361, 13.6658, 67.2631, -166.556
5.10333, 2, -47.2477, -11.9873, 29.361, 13.6657, 67.2631, -166.556
5.11131, 2, -47.2477, -11.9872, 29.361, 13.6656, 67.2631, -166.556
5.11938, 2, -47.2476, -11.9872, 29.361, 13.6656, 67.2631, -166.556
5.12732, 2, -47.2476, -11.9871, 29.361, 13.6656, 67.2631, -166.556
5.13531, 2, -47.2476, -11.9871, 29.361, 13.6656, 67.2631, -166.556
5.14331, 4, -47.2476, -11.987, 29.3611, 13.6656, 67.2631, -166.556
5.15135, 4, -47.2475, -11.987, 29.361, 13.6656, 67.2631, -166.556
5.1593, 4, -47.2474, -11.987, 29.361, 13.6656, 67.2631, -166.556
5.16731, 4, -47.2473, -11.987, 29.361, 13.6656, 67.2631, -166.556
5.17534, 4, -47.2473, -11.987, 29.361, 13.6656, 67.2631, -166.556
5.18329, 4, -47.2472, -11.9869, 29.361, 13.6656, 67.2631, -166.556
5.19131, 4, -47.2472, -11.9869, 29.361, 13.6655, 67.2631, -166.556
5.19942, 4, -47.2471, -11.9869, 29.361, 13.6655, 67.2631, -166.556
5.20729, 4, -47.2471, -11.9869, 29.361, 13.6655, 67.2631, -166.556
5.21532, 4, -47.2471, -11.9869, 29.361, 13.6655, 67.2631, -166.556
5.22333, 4, -47.247, -11.9868, 29.3611, 13.6655, 67.2631, -166.556
5.23129, 4, -47.247, -11.9868, 29.3611, 13.6655, 67.2632, -166.556
5.23954, 4, -47.247, -11.9867, 29.361, 13.6655, 67.2632, -166.556
5.2658, 4, -47.2468, -11.9867, 29.361, 13.6654, 67.2632, -166.555
5.26848, 4, -47.2468, -11.9867, 29.3611, 13.6654, 67.2631, -166.555
5.27083, 4, -47.2468, -11.9867, 29.3611, 13.6654, 67.2631, -166.555
5.27283, 4, -47.2468, -11.9867, 29.3611, 13.6654, 67.2631, -166.555
5.28053, 4, -47.2467, -11.9866, 29.3611, 13.6654, 67.2632, -166.555
5.28828, 4, -47.2467, -11.9866, 29.3611, 13.6654, 67.2632, -166.555
5.29546, 4, -47.2468, -11.9867, 29.3611, 13.6654, 67.2632, -166.555
5.30392, 4, -47.2477, -11.9871, 29.3615, 13.6655, 67.2633, -166.555
5.31227, 4, -47.25, -11.9887, 29.3634, 13.6672, 67.2639, -166.555
5.31941, 4, -47.2535, -11.9921, 29.3683, 13.6764, 67.2661, -166.554
5.3282, 4, -47.2584, -11.9977, 29.3783, 13.6979, 67.2713, -166.55
5.33551, 4, -47.2651, -12.0057, 29.395, 13.7346, 67.2811, -166.542
5.3436, 5, -47.274, -12.0164, 29.4198, 13.7906, 67.2963, -166.529
5.35251, 5, -47.2853, -12.0303, 29.4531, 13.8662, 67.3173, -166.512
5.35982, 5, -47.2985, -12.0471, 29.4938, 13.9595, 67.3438, -166.49
5.36832, 5, -47.3134, -12.0663, 29.5408, 14.0679, 67.374, -166.464
5.37658, 5, -47.3301, -12.0876, 29.5927, 14.1858, 67.4065, -166.435
5.38381, 5, -47.3484, -12.1112, 29.6475, 14.3093, 67.4407, -166.406
5.39328, 5, -47.3678, -12.1362, 29.704, 14.4355, 67.4765, -166.376
5.39988, 5, -47.3882, -12.1619, 29.7615, 14.5632, 67.5123, -166.346
5.40894, 5, -47.4093, -12.1882, 29.8195, 14.6917, 67.5474, -166.315
5.41828, 5, -47.4309, -12.2147, 29.8778, 14.8201, 67.5825, -166.285
5.42394, 5, -47.4417, -12.2281, 29.9071, 14.8844, 67.6182, -166.254
5.43127, 5, -47.4633, -12.2551, 29.966, 15.0133, 67.6361, -166.238
5.44063, 5, -47.4962, -12.2954, 30.0548, 15.2067, 67.6885, -166.193
5.44846, 5, -47.518, -12.3225, 30.1145, 15.3356, 67.7232, -166.162
5.45527, 5, -47.5289, -12.336, 30.1444, 15.4003, 67.7407, -166.147
5.46458, 5, -47.5616, -12.3766, 30.2345, 15.594, 67.7936, -166.102
5.47128, 5, -47.5724, -12.3901, 30.2646, 15.6586, 67.8109, -166.087
5.48138, 5, -47.6046, -12.4308, 30.3552, 15.8523, 67.8619, -166.042
5.48743, 5, -47.6154, -12.4443, 30.3855, 15.9168, 67.879, -166.027
5.49525, 5, -47.6371, -12.4716, 30.4464, 16.0459, 67.9137, -165.997
5.50579, 5, -47.6701, -12.5129, 30.5381, 16.2396, 67.965, -165.953
5.51131, 5, -47.6812, -12.5266, 30.5687, 16.3041, 67.9817, -165.938
5.52086, 5, -47.7148, -12.5682, 30.661, 16.4977, 68.0322, -165.893
5.52977, 5, -47.7375, -12.5962, 30.7228, 16.6268, 68.0664, -165.864
5.53571, 5, -47.7487, -12.6102, 30.7538, 16.6914, 68.0834, -165.849
5.54327, 5, -47.771, -12.6382, 30.8161, 16.8204, 68.1166, -165.82
5.55227, 5, -47.7935, -12.6662, 30.8786, 16.9494, 68.1494, -165.791
5.56104, 5, -47.8161, -12.6942, 30.9414, 17.0785, 68.1824, -165.748
5.56809, 5, -47.8387, -12.7223, 31.0043, 17.2077, 68.2157, -165.734
5.57529, 5, -47.8614, -12.7505, 31.0674, 17.3368, 68.2485, -165.705
5.58583, 5, -47.8956, -12.7927, 31.1625, 17.5305, 68.2969, -165.661
5.59138, 5, -47.9069, -12.8068, 31.1943, 17.5951, 68.3131, -165.647
5.59927, 5, -47.9294, -12.835, 31.2582, 17.7242, 68.3459, -165.619
5.60728, 5, -47.9518, -12.8634, 31.3222, 17.8533, 68.3785, -165.591
5.61528, 5, -47.9744, -12.8918, 31.3864, 17.9827, 68.4104, -165.563
5.62327, 5, -47.9969, -12.9204, 31.451, 18.1119, 68.4419, -165.534
5.63128, 5, -48.0197, -12.9491, 31.5157, 18.2411, 68.4737, -165.506
5.63927, 5, -48.0428, -12.978, 31.5807, 18.3703, 68.5058, -165.478
5.64734, 5, -48.0659, -13.0068, 31.6458, 18.4996, 68.5374, -165.45
5.65528, 5, -48.089, -13.0356, 31.7111, 18.6288, 68.5686, -165.422
5.66372, 5, -48.1122, -13.0645, 31.7766, 18.758, 68.5996, -165.395
5.67227, 5, -48.1354, -13.0934, 31.8423, 18.8874, 68.6311, -165.367
5.68039, 5, -48.1586, -13.1225, 31.9083, 19.0168, 68.6627, -165.34
5.69031, 5, -48.1935, -13.166, 32.0077, 19.2108, 68.7089, -165.298
5.69533, 5, -48.2052, -13.1805, 32.0409, 19.2755, 68.724, -165.284
5.70328, 5, -48.2282, -13.2097, 32.1077, 19.4047, 68.7544, -165.258
5.71131, 5, -48.2514, -13.239, 32.1747, 19.5341, 68.7854, -165.231
5.71931, 5, -48.2747, -13.2682, 32.2419, 19.6634, 68.8162, -165.204
5.72728, 5, -48.298, -13.2975, 32.3093, 19.7928, 68.8463, -165.177
5.7353, 5, -48.3211, -13.3269, 32.3768, 19.9222, 68.8762, -165.15
5.74336, 5, -48.3446, -13.3564, 32.4446, 20.0515, 68.9063, -165.123
5.75135, 5, -48.3682, -13.3858, 32.5124, 20.1809, 68.9368, -165.096
5.75965, 5, -48.3915, -13.4154, 32.5805, 20.31, 68.9668, -165.07
5.76827, 5, -48.415, -13.445, 32.6489, 20.4394, 68.9963, -165.043
5.77543, 5, -48.4387, -13.4747, 32.7176, 20.5687, 69.0254, -165.017
5.78337, 5, -48.4623, -13.5044, 32.7865, 20.6982, 69.0548, -164.991
5.79185, 5, -48.486, -13.5342, 32.8557, 20.8275, 69.0845, -164.964
5.79943, 5, -48.5097, -13.564, 32.925, 20.957, 69.1138, -164.937
5.80737, 5, -48.5335, -13.594, 32.9945, 21.0864, 69.1426, -164.911
5.81612, 5, -48.557, -13.6239, 33.0642, 21.2158, 69.1712, -164.885
5.82338, 5, -48.5806, -13.654, 33.134, 21.3452, 69.2, -164.859
5.8317, 5, -48.6043, -13.6841, 33.2041, 21.4748, 69.2293, -164.834
5.84024, 5, -48.6279, -13.7143, 33.2745, 21.6044, 69.2582, -164.808
5.84766, 5, -48.6517, -13.7445, 33.345, 21.7339, 69.2865, -164.782
5.85553, 5, -48.6753, -13.7747, 33.4158, 21.8632, 69.3145, -164.755
5.86447, 5, -48.6984, -13.8048, 33.4867, 21.9926, 69.3426, -164.729
5.87178, 5, -48.7208, -13.8348, 33.5577, 22.1215, 69.3713, -164.703
5.88048, 5, -48.7425, -13.8646, 33.6284, 22.2493, 69.4, -164.675
5.88789, 5, -48.7633, -13.8939, 33.6986, 22.3759, 69.4288, -164.645
5.89636, 5, -48.7831, -13.9228, 33.768, 22.5004, 69.4578, -164.612
5.90386, 5, -48.8018, -13.951, 33.8364, 22.6222, 69.4877, -164.574
5.91216, 6, -48.8193, -13.9787, 33.9035, 22.7407, 69.519, -164.532
5.92044, 6, -48.8353, -14.0055, 33.9694, 22.8557, 69.551, -164.485
5.92807, 6, -48.8495, -14.0316, 34.0338, 22.9671, 69.5833, -164.432
5.93531, 6, -48.8559, -14.0444, 34.0654, 23.0214, 69.5997, -164.403
5.94436, 6, -48.8719, -14.0812, 34.158, 23.1785, 69.6508, -164.309
5.95126, 6, -48.8763, -14.0931, 34.1881, 23.229, 69.6687, -164.274
5.96047, 6, -48.887, -14.1272, 34.276, 23.375, 69.7225, -164.163
5.96733, 6, -48.8897, -14.1381, 34.3045, 23.4219, 69.7406, -164.124
5.97531, 6, -48.8939, -14.1596, 34.3605, 23.5135, 69.7779, -164.04
5.98465, 6, -48.8974, -14.19, 34.4423, 23.6455, 69.836, -163.908
5.99127, 6, -48.8979, -14.1999, 34.469, 23.6881, 69.8553, -163.861
6.00073, 7, -48.898, -14.2288, 34.5474, 23.8131, 69.9136, -163.718
6.00748, 7, -48.8975, -14.238, 34.5732, 23.8539, 69.9336, -163.668
6.01676, 7, -48.8958, -14.256, 34.649, 23.9735, 69.9945, -163.516
6.02481, 7, -48.8911, -14.2824, 34.6985, 24.0515, 70.035, -163.411
6.0329, 7, -48.8869, -14.2992, 34.7472, 24.1274, 70.0764, -163.303
6.03926, 7, -48.8844, -14.3074, 34.7713, 24.1652, 70.0977, -163.249
6.04878, 7, -48.8789, -14.3235, 34.8188, 24.2389, 70.1401, -163.138
6.05626, 7, -48.8725, -14.3395, 34.8655, 24.3116, 70.182, -163.025
6.06333, 7, -48.8655, -14.3549, 34.9117, 24.3829, 70.2249, -162.91
6.07138, 7, -48.8578, -14.3696, 34.9572, 24.4535, 70.2685, -162.793
6.08046, 7, -48.8497, -14.3841, 35.0022, 24.5228, 70.3116, -162.674
6.08746, 8, -48.8409, -14.3985, 35.0466, 24.5918, 70.3552, -162.555
6.09626, 8, -48.8314, -14.4126, 35.0907, 24.6602, 70.3999, -162.434
6.10425, 8, -48.8216, -14.4261, 35.1343, 24.728, 70.4442, -162.312
6.1123, 8, -48.8111, -14.4395, 35.1775, 24.7956, 70.4884, -162.189
6.12026, 8, -48.8001, -14.4528, 35.2204, 24.8625, 70.5337, -162.066
6.12986, 8, -48.7829, -14.4726, 35.2841, 24.9627, 70.6014, -161.88
6.13526, 8, -48.7771, -14.479, 35.3052, 24.9959, 70.6239, -161.817
6.14332, 8, -48.7653, -14.4915, 35.3471, 25.0626, 70.6699, -161.691
6.15125, 8, -48.7532, -14.504, 35.3887, 25.1282, 70.7159, -161.565
6.15928, 8, -48.741, -14.5164, 35.4302, 25.1946, 70.7611, -161.438
6.16737, 8, -48.7285, -14.5288, 35.4713, 25.2601, 70.807, -161.312
6.17523, 9, -48.7158, -14.5407, 35.5122, 25.3264, 70.8534, -161.185
6.18352, 9, -48.7031, -14.5524, 35.5531, 25.392, 70.899, -161.058
6.19126, 9, -48.6902, -14.5642, 35.5938, 25.4584, 70.945, -160.931
6.19925, 9, -48.6772, -14.5759, 35.6344, 25.5244, 70.9918, -160.804
6.20737, 9, -48.6641, -14.5877, 35.6749, 25.5909, 71.0375, -160.677
6.21526, 9, -48.6508, -14.5992, 35.7151, 25.6575, 71.0834, -160.551
6.22326, 9, -48.6374, -14.6106, 35.7554, 25.724, 71.1302, -160.424
6.23132, 9, -48.6239, -14.6219, 35.7954, 25.7912, 71.1763, -160.296
6.23925, 9, -48.6105, -14.6332, 35.8352, 25.858, 71.2223, -160.17
6.24734, 9, -48.5969, -14.6447, 35.8752, 25.9258, 71.2694, -160.043
6.25552, 9, -48.5834, -14.6561, 35.915, 25.9928, 71.3159, -159.917
6.26445, 10, -48.5697, -14.6671, 35.9547, 26.0611, 71.3619, -159.79
6.27225, 10, -48.556, -14.6782, 35.9945, 26.1287, 71.4089, -159.665
6.27936, 10, -48.5425, -14.6893, 36.0341, 26.1974, 71.4555, -159.539
6.28741, 10, -48.5289, -14.7005, 36.0737, 26.2655, 71.5015, -159.413
6.29542, 10, -48.5153, -14.7118, 36.1134, 26.3345, 71.5485, -159.288
6.30387, 10, -48.5016, -14.7229, 36.1529, 26.4034, 71.5953, -159.163
6.31231, 10, -48.4878, -14.7338, 36.1924, 26.4729, 71.641, -159.038
6.31929, 10, -48.474, -14.7448, 36.232, 26.5421, 71.6875, -158.913
6.32849, 10, -48.4602, -14.7558, 36.2714, 26.6121, 71.7341, -158.789
6.33538, 10, -48.4464, -14.767, 36.3109, 26.6821, 71.7798, -158.665
6.34355, 10, -48.4326, -14.7783, 36.3502, 26.7524, 71.8262, -158.541
6.35156, 11, -48.4188, -14.7893, 36.3894, 26.8229, 71.8728, -158.418
6.36101, 11, -48.405, -14.8003, 36.4288, 26.8936, 71.9184, -158.295
6.36771, 11, -48.3911, -14.8114, 36.468, 26.9645, 71.9644, -158.171
6.37629, 11, -48.3774, -14.8225, 36.5071, 27.0357, 72.011, -158.049
6.38383, 11, -48.3636, -14.8338, 36.5463, 27.1069, 72.0566, -157.926
6.39241, 11, -48.3496, -14.8449, 36.5854, 27.1783, 72.1025, -157.803
6.39984, 11, -48.3356, -14.8558, 36.6246, 27.2498, 72.1491, -157.681
6.41029, 11, -48.3215, -14.8668, 36.6637, 27.3218, 72.1949, -157.559
6.41637, 11, -48.3073, -14.8777, 36.7027, 27.3938, 72.2404, -157.438
6.42408, 11, -48.3002, -14.8833, 36.7222, 27.466, 72.2867, -157.316
6.43184, 11, -48.2859, -14.8944, 36.7613, 27.5023, 72.3097, -157.256
6.43922, 12, -48.2716, -14.9055, 36.8001, 27.5745, 72.355, -157.134
6.44729, 12, -48.2573, -14.9162, 36.8389, 27.6474, 72.4007, -157.013
6.45617, 12, -48.2429, -14.9271, 36.8778, 27.7196, 72.4469, -156.892
6.46337, 12, -48.2284, -14.9381, 36.9165, 27.7927, 72.4921, -156.771
6.4728, 12, -48.2067, -14.9548, 36.9746, 27.902, 72.5602, -156.59
6.48058, 12, -48.192, -14.9659, 37.0131, 27.975, 72.606, -156.47
6.48729, 12, -48.1846, -14.9714, 37.0322, 28.0113, 72.6285, -156.41
6.49678, 12, -48.1622, -14.9877, 37.09, 28.1212, 72.6963, -156.231
6.50485, 12, -48.147, -14.9986, 37.1283, 28.1944, 72.7422, -156.111
6.51275, 12, -48.1319, -15.0096, 37.1664, 28.2675, 72.7871, -155.991
6.52117, 12, -48.1166, -15.0208, 37.2045, 28.3409, 72.8319, -155.872
6.52784, 13, -48.1089, -15.0264, 37.2236, 28.3778, 72.8547, -155.812
6.53781, 13, -48.0855, -15.0426, 37.2805, 28.4879, 72.9223, -155.633
6.54324, 13, -48.0777, -15.048, 37.2995, 28.5246, 72.9444, -155.573
6.55224, 13, -48.062, -15.0588, 37.3374, 28.5979, 72.9894, -155.454
6.56028, 13, -48.0462, -15.0698, 37.375, 28.6715, 73.0348, -155.335
6.5683, 13, -48.0302, -15.0808, 37.4127, 28.7447, 73.0791, -155.217
6.5792, 13, -48.0056, -15.0971, 37.469, 28.8548, 73.1463, -155.038
6.58323, 13, -47.9974, -15.1024, 37.4877, 28.8916, 73.169, -154.979
6.59124, 13, -47.9809, -15.1131, 37.525, 28.9651, 73.2136, -154.86
6.59936, 13, -47.9643, -15.1239, 37.5624, 29.0385, 73.2578, -154.741
6.60739, 13, -47.9475, -15.1348, 37.5995, 29.1118, 73.3031, -154.623
6.61622, 14, -47.9306, -15.1458, 37.6366, 29.185, 73.3478, -154.504
6.62324, 14, -47.9136, -15.1566, 37.6736, 29.2585, 73.3916, -154.386
6.63124, 14, -47.8965, -15.1673, 37.7104, 29.3318, 73.4361, -154.268
6.63931, 14, -47.8793, -15.178, 37.7471, 29.4052, 73.4806, -154.15
6.64725, 14, -47.8618, -15.1888, 37.7838, 29.4783, 73.5244, -154.032
6.6553, 14, -47.844, -15.1997, 37.8202, 29.5516, 73.5686, -153.914
6.66325, 14, -47.8261, -15.2106, 37.8566, 29.6248, 73.6134, -153.797
6.67124, 14, -47.8081, -15.2213, 37.893, 29.6978, 73.6571, -153.679
6.67931, 14, -47.79, -15.2319, 37.9292, 29.7706, 73.7008, -153.561
6.68725, 14, -47.7717, -15.2426, 37.9654, 29.8436, 73.7453, -153.443
6.69523, 14, -47.7532, -15.2533, 38.0014, 29.9164, 73.7891, -153.325
6.70336, 15, -47.7347, -15.2642, 38.0373, 29.9891, 73.8325, -153.208
6.7122, 15, -47.7161, -15.2749, 38.0732, 30.0619, 73.8767, -153.09
6.71931, 15, -47.6971, -15.2854, 38.1089, 30.1346, 73.9207, -152.973
6.72723, 15, -47.6779, -15.296, 38.1445, 30.2073, 73.9639, -152.856
6.7353, 15, -47.6585, -15.3066, 38.18, 30.2797, 74.0075, -152.738
6.74331, 15, -47.6391, -15.3174, 38.2154, 30.3522, 74.0515, -152.621
6.752, 15, -47.6194, -15.3283, 38.2506, 30.4246, 74.0947, -152.504
6.76024, 15, -47.5995, -15.339, 38.2858, 30.497, 74.1378, -152.387
6.76743, 15, -47.5795, -15.3496, 38.321, 30.569, 74.1816, -152.271
6.77614, 15, -47.5595, -15.3602, 38.3558, 30.6412, 74.2247, -152.154
6.78334, 15, -47.5391, -15.3709, 38.3906, 30.713, 74.2672, -152.038
6.7914, 16, -47.5185, -15.3818, 38.4255, 30.7852, 74.3104, -151.922
6.80097, 16, -47.4979, -15.3928, 38.46, 30.8569, 74.3535, -151.806
6.81189, 16, -47.4772, -15.4035, 38.4944, 30.929, 74.3957, -151.632
6.81625, 16, -47.4562, -15.4141, 38.5289, 31.0006, 74.4382, -151.574
6.82326, 16, -47.435, -15.4249, 38.5633, 31.0727, 74.4813, -151.459
6.83136, 16, -47.4138, -15.4357, 38.5975, 31.1442, 74.5233, -151.344
6.83943, 16, -47.3925, -15.4468, 38.6317, 31.2159, 74.5649, -151.228
6.84745, 16, -47.3707, -15.4578, 38.6658, 31.2874, 74.6074, -151.113
6.85629, 16, -47.349, -15.4686, 38.6997, 31.3591, 74.6495, -150.999
6.86354, 16, -47.3272, -15.4795, 38.7336, 31.4303, 74.6908, -150.884
6.87174, 16, -47.3052, -15.4904, 38.7676, 31.5018, 74.7326, -150.77
6.88047, 17, -47.283, -15.5014, 38.8013, 31.573, 74.7749, -150.655
6.89248, 17, -47.2494, -15.5184, 38.8518, 31.68, 74.8364, -150.484
6.89583, 17, -47.2381, -15.524, 38.8687, 31.7154, 74.8569, -150.427
6.90437, 17, -47.2153, -15.535, 38.9023, 31.7866, 74.8985, -150.313
6.91179, 17, -47.1923, -15.5461, 38.9358, 31.8578, 74.9398, -150.199
6.92037, 17, -47.1694, -15.5575, 38.9694, 31.9289, 74.9802, -150.086
6.92775, 17, -47.1579, -15.5632, 38.9861, 31.9646, 75.0005, -150.03
6.93627, 17, -47.1228, -15.5806, 39.0359, 32.0708, 75.0623, -149.86
6.94327, 17, -47.1111, -15.5864, 39.0525, 32.1065, 75.0826, -149.804
6.95251, 17, -47.0757, -15.6035, 39.1023, 32.2126, 75.1424, -149.636
6.95922, 17, -47.0637, -15.6093, 39.1189, 32.2481, 75.1624, -149.58
6.96844, 18, -47.0275, -15.6268, 39.1683, 32.354, 75.2228, -149.412
6.97539, 18, -47.0154, -15.6328, 39.1848, 32.3895, 75.2425, -149.356
6.98467, 18, -46.9912, -15.6447, 39.2342, 32.4952, 75.3014, -149.189
6.99122, 18, -46.9669, -15.6564, 39.2506, 32.5307, 75.3213, -149.134
7.00069, 18, -46.9302, -15.6741, 39.2999, 32.6361, 75.3805, -148.967
7.00886, 18, -46.9054, -15.6862, 39.3326, 32.7067, 75.4191, -148.856
7.01762, 18, -46.8803, -15.6985, 39.3652, 32.7771, 75.4577, -148.746
7.02548, 18, -46.8552, -15.7108, 39.3979, 32.8476, 75.4967, -148.636
7.03128, 18, -46.8426, -15.7168, 39.4142, 32.8825, 75.516, -148.581
7.0418, 18, -46.8046, -15.7351, 39.4629, 32.9884, 75.5729, -148.417
7.04722, 18, -46.7919, -15.7413, 39.4791, 33.0232, 75.5919, -148.362
7.05754, 19, -46.7533, -15.7603, 39.5278, 33.1287, 75.6496, -148.198
7.06322, 19, -46.7404, -15.7667, 39.544, 33.1635, 75.6685, -148.144
7.07129, 19, -46.7144, -15.7792, 39.5763, 33.2336, 75.7057, -148.035
7.08028, 19, -46.6884, -15.7918, 39.6086, 33.3034, 75.7428, -147.927
7.08829, 19, -46.662, -15.8046, 39.6409, 33.3735, 75.7806, -147.819
7.09529, 19, -46.6355, -15.8177, 39.673, 33.4431, 75.8177, -147.71
7.10322, 19, -46.6088, -15.8308, 39.705, 33.513, 75.8542, -147.603
7.11123, 19, -46.5817, -15.8438, 39.7371, 33.5826, 75.8907, -147.496
7.11922, 19, -46.5546, -15.8568, 39.7692, 33.6523, 75.9278, -147.39
7.12729, 19, -46.5275, -15.8701, 39.801, 33.722, 75.9642, -147.283
7.13522, 19, -46.5002, -15.8837, 39.8328, 33.7914, 75.9999, -147.177
7.14322, 20, -46.4729, -15.8973, 39.8647, 33.8609, 76.0355, -147.071
7.15147, 20, -46.4452, -15.9107, 39.8965, 33.9302, 76.0716, -146.965
7.16026, 20, -46.4172, -15.9244, 39.9282, 33.9994, 76.1072, -146.859
7.16827, 20, -46.3893, -15.9383, 39.9599, 34.0682, 76.1421, -146.754
7.17623, 20, -46.3612, -15.9524, 39.9916, 34.1374, 76.1769, -146.649
7.18428, 20, -46.3328, -15.9663, 40.0231, 34.2061, 76.2122, -146.544
7.19221, 20, -46.3045, -15.9803, 40.0545, 34.2752, 76.2473, -146.44
7.2003, 20, -46.2758, -15.9945, 40.0861, 34.3437, 76.2814, -146.336
7.20721, 20, -46.247, -16.0089, 40.1175, 34.4128, 76.3152, -146.231
7.21521, 20, -46.2182, -16.0232, 40.1488, 34.4811, 76.3495, -146.128
7.2248, 20, -46.1891, -16.0375, 40.18, 34.5501, 76.3837, -146.024
7.23235, 21, -46.1597, -16.052, 40.2114, 34.618, 76.4172, -145.921
7.24027, 21, -46.1301, -16.0669, 40.2425, 34.6868, 76.4502, -145.818
7.24724, 21, -46.1002, -16.0817, 40.2736, 34.7546, 76.4835, -145.715
7.25544, 21, -46.0702, -16.0964, 40.3047, 34.8232, 76.5171, -145.613
7.26331, 21, -46.0402, -16.1112, 40.3356, 34.8907, 76.55, -145.51
7.27132, 21, -46.01, -16.1264, 40.3663, 34.9589, 76.5823, -145.409
7.28021, 21, -45.9795, -16.1416, 40.3971, 35.0264, 76.6145, -145.307
7.28734, 21, -45.9488, -16.1566, 40.4278, 35.0941, 76.6471, -145.206
7.29532, 21, -45.9179, -16.1718, 40.4584, 35.1615, 76.6796, -145.105
7.30338, 21, -45.8869, -16.1874, 40.4888, 35.2287, 76.7113, -145.004
7.31121, 21, -45.8558, -16.2029, 40.5193, 35.2962, 76.7427, -144.903
7.31933, 22, -45.8244, -16.2183, 40.5497, 35.3632, 76.7744, -144.802
7.3275, 22, -45.7927, -16.2337, 40.5799, 35.4305, 76.8064, -144.702
7.33621, 22, -45.7609, -16.2496, 40.6101, 35.497, 76.8376, -144.602
7.34372, 22, -45.7288, -16.2654, 40.6403, 35.5639, 76.8682, -144.502
7.35141, 22, -45.6966, -16.2811, 40.6703, 35.6302, 76.8985, -144.402
7.35961, 22, -45.6642, -16.2969, 40.7001, 35.6968, 76.9292, -144.302
7.36848, 22, -45.6315, -16.3131, 40.73, 35.7626, 76.9599, -144.203
7.37563, 22, -45.5987, -16.3293, 40.7598, 35.8291, 76.99, -144.104
7.38375, 22, -45.5656, -16.3453, 40.7893, 35.8946, 77.0197, -144.004
7.3928, 22, -45.5324, -16.3614, 40.8188, 35.9606, 77.0493, -143.905
7.40047, 22, -45.4989, -16.3779, 40.8482, 36.0258, 77.0794, -143.806
7.40901, 23, -45.4651, -16.3942, 40.8775, 36.0913, 77.1093, -143.707
7.41668, 23, -45.4313, -16.4103, 40.9066, 36.1566, 77.1386, -143.608
7.42381, 23, -45.4143, -16.4185, 40.9211, 36.2215, 77.1673, -143.51
7.43222, 23, -45.363, -16.4435, 40.9646, 36.2868, 77.1958, -143.412
7.4392, 23, -45.3457, -16.4518, 40.9791, 36.3187, 77.2103, -143.363
7.44881, 23, -45.2936, -16.4764, 41.0219, 36.416, 77.2539, -143.216
7.4571, 23, -45.2587, -16.4931, 41.0504, 36.4798, 77.2822, -143.118
7.46439, 23, -45.2235, -16.5099, 41.0789, 36.5444, 77.3101, -143.021
7.4712, 23, -45.2058, -16.5182, 41.093, 36.5763, 77.324, -142.972
7.47926, 23, -45.1702, -16.5347, 41.1211, 36.6394, 77.352, -142.875
7.48722, 23, -45.1344, -16.5515, 41.1491, 36.7034, 77.3805, -142.778
7.4952, 24, -45.0985, -16.5686, 41.177, 36.7663, 77.4086, -142.681
7.50619, 24, -45.0441, -16.5937, 41.2185, 36.8613, 77.4498, -142.535
7.51125, 24, -45.0259, -16.6021, 41.2322, 36.8923, 77.4633, -142.487
7.52083, 24, -44.9708, -16.6276, 41.2733, 36.9865, 77.5041, -142.342
7.52966, 24, -44.9339, -16.6446, 41.3006, 37.0484, 77.5316, -142.245
7.53526, 24, -44.9154, -16.653, 41.3142, 37.0795, 77.5452, -142.197
7.54571, 24, -44.8593, -16.6784, 41.3544, 37.1726, 77.5853, -142.052
7.55115, 24, -44.8405, -16.6871, 41.3677, 37.2031, 77.5984, -142.004
7.55921, 24, -44.8027, -16.7041, 41.3943, 37.2651, 77.6247, -141.908
7.56726, 24, -44.7647, -16.721, 41.4209, 37.326, 77.6513, -141.812
7.57762, 24, -44.7071, -16.7466, 41.4601, 37.4178, 77.6912, -141.668
7.58519, 25, -44.6877, -16.7552, 41.4731, 37.448, 77.7042, -141.62
7.5912, 25, -44.6489, -16.7722, 41.499, 37.5082, 77.7299, -141.524
7.5992, 25, -44.6099, -16.7892, 41.5248, 37.5688, 77.7552, -141.427
7.60726, 25, -44.5707, -16.8064, 41.5503, 37.6282, 77.7807, -141.332
7.6152, 25, -44.5311, -16.8236, 41.5756, 37.6884, 77.8064, -141.236
7.62409, 25, -44.4913, -16.8406, 41.6008, 37.7476, 77.8322, -141.14
7.6312, 25, -44.4515, -16.8576, 41.6258, 37.8067, 77.8573, -141.044
7.63921, 25, -44.4113, -16.8748, 41.6507, 37.8661, 77.8822, -140.949
7.64807, 25, -44.3707, -16.8918, 41.6752, 37.9244, 77.9068, -140.853
7.65521, 25, -44.33, -16.9087, 41.6995, 37.9835, 77.9316, -140.758
7.6632, 25, -44.2892, -16.9258, 41.7237, 38.0414, 77.9567, -140.662
7.67285, 26, -44.248, -16.943, 41.7477, 38.0993, 77.9817, -140.568
7.68103, 26, -44.2064, -16.9598, 41.7715, 38.1573, 78.0061, -140.472
7.68726, 26, -44.1648, -16.9767, 41.795, 38.2142, 78.0301, -140.377
7.69521, 26, -44.123, -16.9938, 41.8184, 38.2719, 78.0538, -140.281
7.7032, 26, -44.0807, -17.0108, 41.8415, 38.3283, 78.0777, -140.186
7.71126, 26, -44.0382, -17.0275, 41.8645, 38.3848, 78.1019, -140.091
7.71921, 26, -43.9956, -17.0444, 41.8872, 38.4415, 78.1259, -139.995
7.7272, 26, -43.9527, -17.0615, 41.9097, 38.497, 78.1495, -139.9
7.73526, 26, -43.9095, -17.0783, 41.9321, 38.5532, 78.1726, -139.805
7.7432, 26, -43.866, -17.0949, 41.9543, 38.6083, 78.1957, -139.71
7.75146, 26, -43.8225, -17.1117, 41.9763, 38.6633, 78.2189, -139.615
7.76026, 27, -43.7786, -17.1286, 41.9978, 38.7188, 78.2424, -139.52
7.76728, 27, -43.7344, -17.1451, 42.0192, 38.773, 78.266, -139.425
7.77536, 27, -43.69, -17.1616, 42.0404, 38.8278, 78.2891, -139.33
7.7833, 27, -43.6453, -17.1783, 42.0614, 38.882, 78.3118, -139.234
7.7913, 27, -43.6003, -17.195, 42.0823, 38.9354, 78.3341, -139.139
7.79932, 27, -43.5551, -17.2113, 42.1029, 38.9895, 78.3564, -139.044
7.80782, 27, -43.5098, -17.2277, 42.1232, 39.0425, 78.379, -138.949
7.81621, 27, -43.4642, -17.2442, 42.1434, 39.0952, 78.4019, -138.854
7.82324, 27, -43.4182, -17.2606, 42.1631, 39.1483, 78.4243, -138.759
7.8321, 27, -43.372, -17.2767, 42.1828, 39.2001, 78.4464, -138.665
7.83941, 27, -43.3256, -17.2929, 42.2024, 39.2524, 78.4683, -138.57
7.84771, 28, -43.2789, -17.3093, 42.2216, 39.3045, 78.4899, -138.475
7.85693, 28, -43.232, -17.3253, 42.2405, 39.3554, 78.5118, -138.381
7.86427, 28, -43.185, -17.3412, 42.2594, 39.4071, 78.5339, -138.286
7.87154, 28, -43.1376, -17.3572, 42.2778, 39.458, 78.5561, -138.191
7.88046, 28, -43.09, -17.3733, 42.2962, 39.5081, 78.5778, -138.096
7.88775, 28, -43.0423, -17.3891, 42.3144, 39.5591, 78.5992, -138.001
7.89802, 28, -42.9941, -17.4048, 42.3322, 39.609, 78.6203, -137.906
7.90429, 28, -42.9457, -17.4206, 42.3497, 39.6585, 78.6412, -137.812
7.91177, 28, -42.8972, -17.4365, 42.3671, 39.7088, 78.6624, -137.717
7.92078, 28, -42.8482, -17.452, 42.3841, 39.7579, 78.6837, -137.622
7.92816, 28, -42.7991, -17.4674, 42.4008, 39.8065, 78.705, -137.527
7.93516, 29, -42.7744, -17.4751, 42.4092, 39.8312, 78.7155, -137.48
7.94482, 29, -42.7002, -17.4985, 42.4342, 39.9039, 78.7465, -137.338
7.95228, 29, -42.6503, -17.5136, 42.4504, 39.9518, 78.7669, -137.244
7.95918, 29, -42.6253, -17.5212, 42.4584, 39.976, 78.777, -137.196
7.96921, 29, -42.5501, -17.5441, 42.482, 40.0472, 78.8076, -137.054
7.97641, 29, -42.4996, -17.5594, 42.4972, 40.094, 78.8284, -136.959
7.98318, 29, -42.4742, -17.5668, 42.5047, 40.1177, 78.8389, -136.912
7.99126, 29, -42.4233, -17.5817, 42.5198, 40.1648, 78.8595, -136.817
8.00065, 29, -42.3465, -17.604, 42.5422, 40.2339, 78.8897, -136.675
8.00724, 29, -42.3208, -17.6114, 42.5495, 40.2572, 78.8996, -136.628
8.01678, 29, -42.2433, -17.6335, 42.5708, 40.3262, 78.9289, -136.486
8.02511, 30, -42.1913, -17.648, 42.5849, 40.3712, 78.9486, -136.392
8.03333, 30, -42.1652, -17.6552, 42.5986, 40.4169, 78.9685, -136.298
8.03919, 30, -42.113, -17.6699, 42.6053, 40.4396, 78.9785, -136.25
8.04884, 30, -42.0341, -17.6916, 42.6253, 40.5062, 79.0083, -136.109
8.05525, 30, -42.0077, -17.6987, 42.6319, 40.5284, 79.0181, -136.061
8.06475, 30, -41.9548, -17.7128, 42.6449, 40.5732, 79.0374, -135.967
8.0722, 30, -41.9016, -17.727, 42.6575, 40.6169, 79.0565, -135.872
8.08024, 30, -41.8481, -17.7413, 42.6698, 40.6602, 79.0756, -135.778
8.08818, 30, -41.7945, -17.7552, 42.6819, 40.704, 79.0949, -135.683
8.09622, 30, -41.7406, -17.769, 42.6938, 40.7472, 79.1142, -135.589
8.10425, 30, -41.6864, -17.7828, 42.7054, 40.7895, 79.1339, -135.495
8.11119, 31, -41.6321, -17.7968, 42.7167, 40.8323, 79.1532, -135.401
8.12201, 31, -41.5774, -17.8106, 42.7279, 40.8959, 79.1814, -135.259
8.12732, 31, -41.5226, -17.8239, 42.7389, 40.9166, 79.1907, -135.212
8.13524, 31, -41.4676, -17.8373, 42.7498, 40.958, 79.209, -135.118
8.14318, 31, -41.4123, -17.8508, 42.7603, 40.9998, 79.2273, -135.024
8.15119, 31, -41.3568, -17.8642, 42.7706, 41.0409, 79.2458, -134.929
8.15928, 31, -41.3011, -17.8773, 42.7805, 41.0812, 79.2644, -134.835
8.16718, 31, -41.2452, -17.8902, 42.7902, 41.122, 79.2831, -134.74
8.17524, 31, -41.1891, -17.9032, 42.7998, 41.1629, 79.3016, -134.646
8.18325, 31, -41.1329, -17.9163, 42.8089, 41.2025, 79.3197, -134.551
8.19119, 31, -41.0764, -17.9292, 42.8179, 41.2419, 79.3377, -134.457
8.19942, 32, -41.0197, -17.9419, 42.8266, 41.282, 79.3554, -134.363
8.20822, 32, -40.9627, -17.9543, 42.8351, 41.3215, 79.3731, -134.269
8.21518, 32, -40.9055, -17.9669, 42.8434, 41.3601, 79.3909, -134.175
8.22324, 32, -40.8481, -17.9794, 42.8516, 41.3989, 79.409, -134.081
8.2312, 32, -40.7905, -17.9919, 42.8595, 41.4381, 79.4272, -133.987
8.23918, 32, -40.7326, -18.004, 42.8672, 41.4762, 79.4451, -133.893
8.24739, 32, -40.6747, -18.0161, 42.8747, 41.5136, 79.4626, -133.799
8.25522, 32, -40.6165, -18.0281, 42.8819, 41.5514, 79.4799, -133.705
8.26325, 32, -40.5581, -18.0402, 42.8886, 41.5893, 79.4969, -133.611
8.27166, 32, -40.4993, -18.0522, 42.8952, 41.6263, 79.5138, -133.517
8.27927, 32, -40.4403, -18.0638, 42.9017, 41.6628, 79.5308, -133.424
8.28729, 33, -40.3812, -18.0753, 42.9079, 41.6998, 79.5479, -133.33
8.29598, 33, -40.3219, -18.0868, 42.9139, 41.7366, 79.5652, -133.236
8.30416, 33, -40.2624, -18.0982, 42.9197, 41.7724, 79.5824, -133.143
8.31122, 33, -40.2028, -18.1098, 42.9252, 41.8078, 79.5993, -133.049
8.32195, 33, -40.143, -18.1211, 42.9304, 41.8435, 79.616, -132.956
8.32731, 33, -40.083, -18.132, 42.9354, 41.8793, 79.6323, -132.862
8.3361, 33, -40.0227, -18.143, 42.9401, 41.9141, 79.6486, -132.768
8.34333, 33, -39.9622, -18.154, 42.9445, 41.9485, 79.6648, -132.675
8.35147, 33, -39.9015, -18.1651, 42.9488, 41.9832, 79.6813, -132.581
8.36051, 33, -39.8404, -18.1761, 42.9529, 42.018, 79.6979, -132.488
8.36749, 33, -39.7792, -18.1866, 42.9568, 42.0518, 79.7147, -132.394
8.37594, 34, -39.7179, -18.197, 42.9605, 42.085, 79.7312, -132.301
8.38442, 34, -39.6564, -18.2074, 42.964, 42.1185, 79.7476, -132.208
8.39175, 34, -39.5947, -18.2177, 42.9673, 42.1525, 79.7635, -132.114
8.40033, 34, -39.5327, -18.228, 42.9702, 42.1857, 79.7793, -132.021
8.40866, 34, -39.4705, -18.2383, 42.973, 42.2182, 79.7949, -131.928
8.41628, 34, -39.4082, -18.2481, 42.9755, 42.2505, 79.8104, -131.835
8.42455, 34, -39.3456, -18.2578, 42.9777, 42.2832, 79.826, -131.742
8.43179, 34, -39.3144, -18.2626, 42.9788, 42.2996, 79.8339, -131.649
8.44018, 34, -39.2201, -18.2771, 42.9816, 42.3472, 79.8578, -131.556
8.44718, 34, -39.1886, -18.282, 42.9824, 42.3628, 79.8658, -131.51
8.45636, 34, -39.0938, -18.2964, 42.9845, 42.4095, 79.8894, -131.37
8.46424, 35, -39.0303, -18.3058, 42.9856, 42.441, 79.9048, -131.277
8.47131, 35, -38.9985, -18.3104, 42.9861, 42.4565, 79.9124, -131.231
8.48055, 35, -38.9027, -18.3239, 42.9871, 42.502, 79.9351, -131.091
8.48723, 35, -38.8707, -18.3283, 42.9874, 42.517, 79.9426, -131.045
8.49734, 35, -38.7743, -18.3417, 42.9878, 42.5621, 79.965, -130.906
8.50322, 35, -38.7421, -18.3462, 42.9878, 42.5774, 79.9725, -130.86
8.51124, 35, -38.6776, -18.3551, 42.9879, 42.6072, 79.9878, -130.768
8.51981, 35, -38.6129, -18.3638, 42.9879, 42.6363, 80.0032, -130.675
8.52716, 35, -38.5479, -18.3721, 42.9879, 42.6649, 80.0185, -130.583
8.53765, 35, -38.4502, -18.3844, 42.9877, 42.7082, 80.0409, -130.443
8.54555, 36, -38.3849, -18.3925, 42.9874, 42.7372, 80.0556, -130.351
8.55333, 36, -38.3195, -18.4006, 42.987, 42.7653, 80.0699, -130.258
8.55916, 36, -38.2866, -18.4046, 42.9867, 42.7792, 80.077, -130.212
8.56905, 36, -38.2208, -18.4127, 42.9859, 42.8068, 80.0982, -130.073
8.57525, 36, -38.1548, -18.4207, 42.9848, 42.8343, 80.1053, -130.027
8.58421, 36, -38.0886, -18.4285, 42.9835, 42.8621, 80.1196, -129.935
8.59116, 36, -38.0223, -18.4358, 42.9818, 42.8897, 80.134, -129.843
8.59917, 36, -37.9558, -18.443, 42.9798, 42.9164, 80.1487, -129.751
8.60723, 36, -37.889, -18.4502, 42.9775, 42.9426, 80.1633, -129.659
8.61517, 36, -37.8221, -18.4574, 42.975, 42.9687, 80.1777, -129.567
8.62325, 36, -37.755, -18.4644, 42.9721, 42.9951, 80.1917, -129.476
8.63133, 36, -37.6878, -18.4715, 42.969, 43.0214, 80.2056, -129.384
8.63916, 37, -37.6204, -18.4785, 42.9655, 43.0471, 80.2192, -129.292
8.6474, 37, -37.553, -18.4854, 42.9618, 43.0723, 80.2328, -129.2
8.65621, 37, -37.4852, -18.4919, 42.9577, 43.0972, 80.2462, -129.108
8.66416, 37, -37.4172, -18.4983, 42.9533, 43.1221, 80.2598, -129.016
8.67217, 37, -37.349, -18.5045, 42.9486, 43.1474, 80.2734, -128.925
8.68026, 37, -37.2808, -18.5107, 42.9437, 43.1723, 80.2872, -128.833
8.68817, 37, -37.2123, -18.5168, 42.9386, 43.1965, 80.3011, -128.742
8.69618, 37, -37.1437, -18.5228, 42.9333, 43.2203, 80.3148, -128.65
8.70319, 37, -37.0749, -18.5286, 42.9277, 43.2435, 80.3282, -128.559
8.71116, 37, -37.006, -18.5346, 42.922, 43.2669, 80.3414, -128.468
8.72083, 38, -36.9368, -18.5404, 42.916, 43.2904, 80.3544, -128.377
8.7283, 38, -36.8673, -18.5461, 42.9097, 43.3137, 80.3671, -128.285
8.73617, 38, -36.7978, -18.5516, 42.9031, 43.3364, 80.3798, -128.194
8.74317, 38, -36.728, -18.5568, 42.8962, 43.3587, 80.3924, -128.103
8.75116, 38, -36.6581, -18.5618, 42.8891, 43.3806, 80.4052, -128.012
8.75943, 38, -36.5881, -18.5667, 42.882, 43.4024, 80.418, -127.921
8.76723, 38, -36.5178, -18.5716, 42.8746, 43.4244, 80.431, -127.83
8.77617, 38, -36.4474, -18.5763, 42.867, 43.4464, 80.444, -127.739
8.78326, 38, -36.3769, -18.5809, 42.859, 43.4679, 80.457, -127.649
8.79126, 38, -36.3062, -18.5854, 42.8509, 43.4888, 80.4698, -127.558
8.79981, 38, -36.2353, -18.5897, 42.8423, 43.5092, 80.4825, -127.468
8.80821, 39, -36.1642, -18.5939, 42.8335, 43.5291, 80.4948, -127.377
8.81517, 39, -36.093, -18.5981, 42.8247, 43.5492, 80.507, -127.287
8.82402, 39, -36.0215, -18.6023, 42.8156, 43.5693, 80.5192, -127.196
8.83121, 39, -35.95, -18.6064, 42.8063, 43.5895, 80.5313, -127.106
8.83928, 39, -35.8782, -18.6103, 42.7969, 43.6094, 80.5435, -127.016
8.84818, 39, -35.8063, -18.614, 42.7871, 43.6287, 80.5557, -126.925
8.85535, 39, -35.7343, -18.6176, 42.7772, 43.6476, 80.5682, -126.835
8.86424, 39, -35.6621, -18.621, 42.7672, 43.6662, 80.5807, -126.745
8.8715, 39, -35.5896, -18.6242, 42.7568, 43.6847, 80.5933, -126.655
8.87952, 39, -35.5171, -18.6272, 42.7463, 43.7031, 80.6057, -126.565
8.88853, 39, -35.4445, -18.6302, 42.7355, 43.7216, 80.6178, -126.475
8.8961, 39, -35.3716, -18.633, 42.7244, 43.74, 80.6297, -126.385
8.90409, 40, -35.2986, -18.6356, 42.7131, 43.758, 80.6413, -126.296
8.91245, 40, -35.2254, -18.6381, 42.7017, 43.7754, 80.6528, -126.206
8.91973, 40, -35.1521, -18.6405, 42.69, 43.7924, 80.6642, -126.116
8.92826, 40, -35.0787, -18.6428, 42.6781, 43.8089, 80.6754, -126.026
8.93658, 40, -35.0419, -18.6439, 42.6721, 43.8171, 80.6811, -125.982
8.94476, 40, -34.9312, -18.6471, 42.654, 43.8417, 80.698, -125.847
8.95225, 40, -34.8572, -18.6492, 42.6417, 43.8582, 80.7094, -125.758
8.95922, 40, -34.8201, -18.6502, 42.6354, 43.8665, 80.7152, -125.713
8.9692, 40, -34.7088, -18.6531, 42.616, 43.8911, 80.7327, -125.579
8.97515, 40, -34.6716, -18.6541, 42.6094, 43.899, 80.7385, -125.534
8.98469, 41, -34.5599, -18.6567, 42.5897, 43.9222, 80.7557, -125.4
8.99115, 41, -34.5226, -18.6575, 42.5829, 43.9297, 80.7613, -125.356
8.99934, 41, -34.4479, -18.6591, 42.5693, 43.9444, 80.7723, -125.267
9.00863, 41, -34.3354, -18.6612, 42.5486, 43.966, 80.7887, -125.133
9.01674, 41, -34.2604, -18.6625, 42.5347, 43.9802, 80.7994, -125.045
9.02478, 41, -34.185, -18.6637, 42.5204, 43.9944, 80.81, -124.956
9.0327, 41, -34.1096, -18.6647, 42.5057, 44.0086, 80.8205, -124.867
9.04075, 41, -34.0341, -18.6656, 42.491, 44.0228, 80.8312, -124.778
9.0471, 41, -33.9962, -18.6661, 42.4836, 44.0298, 80.8365, -124.734
9.05675, 41, -33.9203, -18.6669, 42.4686, 44.0435, 80.8525, -124.602
9.06481, 41, -33.8443, -18.6675, 42.4534, 44.0567, 80.8633, -124.513
9.07288, 42, -33.7681, -18.6681, 42.4381, 44.0695, 80.8688, -124.425
9.07915, 42, -33.6917, -18.6686, 42.4227, 44.0819, 80.8799, -124.381
9.08715, 42, -33.6152, -18.6689, 42.407, 44.094, 80.8907, -124.293
9.09521, 42, -33.5386, -18.6691, 42.3909, 44.1058, 80.9015, -124.205
9.10314, 42, -33.4619, -18.6691, 42.3748, 44.1175, 80.912, -124.117
9.11115, 42, -33.3849, -18.6692, 42.3585, 44.1291, 80.9222, -124.029
9.11916, 42, -33.3079, -18.6692, 42.3419, 44.1406, 80.9323, -123.942
9.12722, 42, -33.2307, -18.6692, 42.3253, 44.1521, 80.9422, -123.853
9.13514, 42, -33.1534, -18.6691, 42.3086, 44.1636, 80.952, -123.766
9.14316, 42, -33.0758, -18.6691, 42.2914, 44.1748, 80.9618, -123.678
9.15122, 42, -32.9981, -18.6691, 42.2741, 44.1856, 80.9714, -123.59
9.15917, 43, -32.9201, -18.669, 42.2567, 44.1961, 80.9811, -123.503
9.16791, 43, -32.8422, -18.6688, 42.239, 44.2062, 80.9908, -123.416
9.17696, 43, -32.7641, -18.6686, 42.2211, 44.2158, 81.0006, -123.328
9.1832, 43, -32.6859, -18.6683, 42.2031, 44.2252, 81.0105, -123.241
9.19122, 43, -32.6075, -18.6679, 42.1849, 44.2343, 81.0205, -123.154
9.19926, 43, -32.529, -18.6673, 42.1664, 44.243, 81.0304, -123.067
9.20716, 43, -32.4503, -18.6666, 42.1478, 44.2516, 81.0403, -122.981
9.21824, 43, -32.332, -18.6651, 42.1193, 44.2641, 81.0546, -122.851
9.22321, 43, -32.2926, -18.6644, 42.1098, 44.2682, 81.0593, -122.808
9.23116, 43, -32.2135, -18.6631, 42.0908, 44.2763, 81.0686, -122.72
9.2393, 43, -32.1343, -18.6615, 42.0713, 44.2843, 81.0777, -122.634
9.24728, 44, -32.0548, -18.6597, 42.0517, 44.2922, 81.0867, -122.547
9.25523, 44, -31.9752, -18.6577, 42.032, 44.3001, 81.0956, -122.461
9.2632, 44, -31.8955, -18.6554, 42.0119, 44.3077, 81.1045, -122.374
9.27124, 44, -31.8157, -18.653, 41.9918, 44.3151, 81.1133, -122.288
9.27929, 44, -31.7357, -18.6505, 41.9715, 44.3221, 81.1221, -122.201
9.28752, 44, -31.6558, -18.6478, 41.9509, 44.3289, 81.1309, -122.115
9.29531, 44, -31.5756, -18.645, 41.9303, 44.3353, 81.1397, -122.029
9.30325, 44, -31.4952, -18.642, 41.9094, 44.3414, 81.1487, -121.943
9.31121, 44, -31.4148, -18.6389, 41.8882, 44.3471, 81.1578, -121.858
9.31927, 44, -31.334, -18.6356, 41.8669, 44.3525, 81.1669, -121.771
9.32741, 44, -31.2532, -18.6321, 41.8453, 44.3576, 81.176, -121.686
9.33519, 45, -31.1723, -18.6285, 41.8236, 44.3624, 81.185, -121.6
9.34353, 45, -31.0911, -18.6248, 41.8018, 44.3669, 81.1937, -121.515
9.35213, 45, -31.0099, -18.621, 41.7797, 44.3711, 81.2024, -121.428
9.35941, 45, -30.9285, -18.6172, 41.7575, 44.3751, 81.2108, -121.343
9.36738, 45, -30.8469, -18.6132, 41.735, 44.3789, 81.2191, -121.258
9.37588, 45, -30.7653, -18.6092, 41.7123, 44.3824, 81.2272, -121.172
9.38424, 45, -30.6834, -18.6049, 41.6895, 44.3856, 81.2353, -121.087
9.39245, 45, -30.6014, -18.6004, 41.6665, 44.3886, 81.2432, -121.002
9.39973, 45, -30.5192, -18.5957, 41.6434, 44.3915, 81.2511, -120.917
9.40824, 45, -30.437, -18.5908, 41.62, 44.394, 81.2589, -120.832
9.41574, 45, -30.3547, -18.5859, 41.5964, 44.3963, 81.2667, -120.748
9.42424, 46, -30.272, -18.5808, 41.5726, 44.3984, 81.2746, -120.663
9.43315, 46, -30.1892, -18.5755, 41.5487, 44.4002, 81.2826, -120.579
9.43971, 46, -30.1477, -18.5728, 41.5367, 44.4011, 81.2866, -120.536
9.44817, 46, -30.0232, -18.5645, 41.5001, 44.4033, 81.2987, -120.409
9.45514, 46, -29.9815, -18.5617, 41.4879, 44.4039, 81.3028, -120.367
9.46421, 46, -29.8565, -18.5533, 41.4509, 44.4053, 81.3151, -120.24
9.47258, 46, -29.773, -18.5476, 41.4261, 44.406, 81.3234, -120.155
9.47913, 46, -29.7312, -18.5447, 41.4136, 44.4063, 81.3274, -120.113
9.48841, 46, -29.6056, -18.5354, 41.3756, 44.4067, 81.3394, -119.987
9.49513, 46, -29.5636, -18.5323, 41.3629, 44.4068, 81.3433, -119.944
9.50454, 46, -29.4377, -18.5227, 41.3244, 44.4069, 81.355, -119.819
9.51119, 47, -29.3956, -18.5194, 41.3115, 44.4069, 81.3587, -119.777
9.52119, 47, -29.2691, -18.5094, 41.2723, 44.4068, 81.37, -119.651
9.52876, 47, -29.1845, -18.5024, 41.246, 44.4065, 81.3773, -119.567
9.53666, 47, -29.0997, -18.4955, 41.2196, 44.406, 81.3846, -119.483
9.54473, 47, -29.0149, -18.4885, 41.1929, 44.4053, 81.3919, -119.399
9.55278, 47, -28.93, -18.4812, 41.1659, 44.4039, 81.3991, -119.315
9.56072, 47, -28.8874, -18.4774, 41.1524, 44.4031, 81.4027, -119.231
9.56815, 47, -28.8022, -18.4697, 41.1252, 44.4012, 81.41, -119.189
9.57519, 47, -28.7169, -18.4619, 41.0979, 44.3988, 81.4173, -119.106
9.58418, 47, -28.6314, -18.454, 41.0703, 44.3962, 81.4246, -119.022
9.59233, 47, -28.5459, -18.4461, 41.0424, 44.3933, 81.4321, -118.939
9.59926, 48, -28.4601, -18.438, 41.0144, 44.39, 81.4397, -118.855
9.60815, 48, -28.3742, -18.43, 40.9862, 44.3864, 81.4473, -118.771
9.61613, 48, -28.2881, -18.4219, 40.9577, 44.3824, 81.4551, -118.688
9.62314, 48, -28.2018, -18.4134, 40.9291, 44.3782, 81.4629, -118.605
9.63113, 48, -28.1156, -18.4046, 40.9003, 44.3736, 81.4706, -118.522
9.64163, 48, -27.9859, -18.3913, 40.8567, 44.3661, 81.482, -118.398
9.64815, 48, -27.9426, -18.3867, 40.842, 44.3635, 81.4857, -118.356
9.65613, 48, -27.8559, -18.3775, 40.8125, 44.358, 81.4932, -118.273
9.66572, 48, -27.7687, -18.3682, 40.7828, 44.3522, 81.504, -118.148
9.67213, 48, -27.6815, -18.3589, 40.753, 44.346, 81.5076, -118.107
9.68016, 48, -27.594, -18.3493, 40.7228, 44.3394, 81.5146, -118.024
9.69051, 49, -27.4626, -18.3343, 40.6773, 44.3288, 81.5252, -117.899
9.69628, 49, -27.4188, -18.3292, 40.662, 44.325, 81.5287, -117.858
9.70625, 49, -27.287, -18.3141, 40.6157, 44.313, 81.539, -117.733
9.71114, 49, -27.243, -18.309, 40.6001, 44.3088, 81.5426, -117.692
9.71919, 49, -27.155, -18.2988, 40.5689, 44.3001, 81.5495, -117.609
9.72714, 49, -27.0668, -18.2882, 40.5375, 44.2909, 81.5564, -117.526
9.73512, 49, -26.9783, -18.2773, 40.5058, 44.2816, 81.5636, -117.444
9.74319, 49, -26.8896, -18.2663, 40.4739, 44.272, 81.5708, -117.361
9.75113, 49, -26.8007, -18.2551, 40.4418, 44.2622, 81.5781, -117.279
9.75915, 49, -26.7118, -18.2439, 40.4094, 44.2523, 81.5855, -117.196
9.76733, 49, -26.6227, -18.2326, 40.3768, 44.2423, 81.5932, -117.113
9.77612, 50, -26.5336, -18.2209, 40.3441, 44.232, 81.6008, -117.03
9.78329, 50, -26.4442, -18.209, 40.3112, 44.2215, 81.6086, -116.947
9.79122, 50, -26.3546, -18.1969, 40.2779, 44.2107, 81.6164, -116.865
9.79924, 50, -26.2649, -18.1849, 40.2445, 44.1996, 81.6241, -116.782
9.80729, 50, -26.1749, -18.1728, 40.2109, 44.188, 81.6317, -116.7
9.81587, 50, -26.0849, -18.1602, 40.177, 44.1759, 81.6392, -116.617
9.8242, 50, -25.9947, -18.1474, 40.1428, 44.1633, 81.6467, -116.535
9.83116, 50, -25.9043, -18.1345, 40.1086, 44.1503, 81.6542, -116.452
9.84007, 50, -25.8137, -18.1215, 40.074, 44.1368, 81.6615, -116.37
9.84818, 50, -25.723, -18.1084, 40.0391, 44.1234, 81.6689, -116.288
9.85544, 50, -25.6323, -18.0949, 40.0041, 44.1097, 81.6763, -116.205
9.8651, 51, -25.5415, -18.0811, 39.9689, 44.096, 81.6836, -116.123
9.87293, 51, -25.4504, -18.0674, 39.9334, 44.0821, 81.6911, -116.04
9.88016, 51, -25.359, -18.0537, 39.8977, 44.068, 81.6986, -115.958
9.88752, 51, -25.2676, -18.0395, 39.8618, 44.0533, 81.7062, -115.875
9.89558, 51, -25.1759, -18.0249, 39.8255, 44.0382, 81.714, -115.793
9.90378, 51, -25.0842, -18.0102, 39.7891, 44.0224, 81.7218, -115.711
9.91412, 51, -24.9923, -17.9957, 39.7526, 44.006, 81.7298, -115.628
9.91971, 51, -24.9002, -17.9809, 39.7156, 43.9893, 81.7381, -115.546
9.92828, 51, -24.808, -17.9656, 39.6786, 43.9726, 81.7465, -115.464
9.93571, 51, -24.7618, -17.9579, 39.66, 43.9557, 81.755, -115.382
9.94423, 51, -24.6228, -17.935, 39.6038, 43.9387, 81.7635, -115.299
9.95109, 52, -24.5763, -17.9273, 39.5849, 43.93, 81.7677, -115.258
9.96022, 52, -24.4366, -17.9034, 39.5281, 43.9035, 81.7802, -115.135
9.96857, 52, -24.3434, -17.8871, 39.4899, 43.885, 81.7885, -115.053
9.97626, 52, -24.2502, -17.871, 39.4515, 43.8659, 81.7966, -114.97
9.98316, 52, -24.2034, -17.8629, 39.4322, 43.8562, 81.8007, -114.929
9.99244, 52, -24.0631, -17.8378, 39.3738, 43.827, 81.8129, -114.806
9.99911, 52, -24.0161, -17.8293, 39.3543, 43.8173, 81.8169, -114.764
10.0087, 52, -23.8752, -17.804, 39.2954, 43.788, 81.8289, -114.641
10.0192, 52, -23.7808, -17.7867, 39.2558, 43.7679, 81.837, -114.559
10.0246, 52, -23.6863, -17.769, 39.2159, 43.7472, 81.8452, -114.477
10.0327, 52, -23.5916, -17.7515, 39.1758, 43.7258, 81.8535, -114.395
10.041, 53, -23.4968, -17.7338, 39.1355, 43.7038, 81.8621, -114.313
10.0479, 53, -23.4494, -17.7247, 39.1153, 43.6929, 81.8664, -114.272
10.0551, 53, -23.3545, -17.7064, 39.0746, 43.6711, 81.8752, -114.19
10.0646, 53, -23.2595, -17.6881, 39.0336, 43.6491, 81.8842, -114.067
10.0721, 53, -23.1642, -17.6697, 38.9926, 43.6267, 81.8934, -114.026
10.0802, 53, -23.0687, -17.6509, 38.9513, 43.6037, 81.9027, -113.944
10.0881, 53, -22.9729, -17.6318, 38.9097, 43.58, 81.912, -113.862
10.0962, 53, -22.877, -17.6126, 38.868, 43.5559, 81.9212, -113.78
10.1041, 53, -22.7809, -17.5932, 38.8258, 43.5319, 81.9303, -113.698
10.1121, 53, -22.6846, -17.5736, 38.7837, 43.5079, 81.9395, -113.616
10.1191, 53, -22.5883, -17.5539, 38.7412, 43.4835, 81.9485, -113.534
10.1271, 54, -22.4918, -17.5339, 38.6983, 43.4583, 81.9575, -113.451
10.138, 54, -22.3952, -17.5136, 38.6555, 43.4323, 81.9666, -113.328
10.1432, 54, -22.2984, -17.4932, 38.6122, 43.4062, 81.9756, -113.287
10.1512, 54, -22.2014, -17.4727, 38.5688, 43.38, 81.9848, -113.205
10.1591, 54, -22.1041, -17.452, 38.5251, 43.3537, 81.9941, -113.123
10.1671, 54, -22.0067, -17.4312, 38.4811, 43.3268, 82.0036, -113.041
10.1761, 54, -21.9092, -17.41, 38.4371, 43.299, 82.0132, -112.959
10.1831, 54, -21.8116, -17.3887, 38.3927, 43.2708, 82.023, -112.877
10.1912, 54, -21.7137, -17.3671, 38.3481, 43.2428, 82.0331, -112.795
10.1992, 54, -21.6155, -17.3452, 38.3035, 43.2147, 82.0435, -112.713
10.2071, 54, -21.517, -17.3233, 38.2584, 43.1861, 82.0538, -112.631
10.2154, 55, -21.4184, -17.3011, 38.2133, 43.1566, 82.0642, -112.548
10.2242, 55, -21.3197, -17.2786, 38.1678, 43.1265, 82.0743, -112.466
10.2311, 55, -21.2207, -17.2561, 38.1222, 43.0965, 82.0843, -112.384
10.2401, 55, -21.1217, -17.2333, 38.0764, 43.0665, 82.0943, -112.302
10.2471, 55, -21.0226, -17.2103, 38.0302, 43.0358, 82.1042, -112.22
10.2551, 55, -20.9232, -17.1873, 37.9839, 43.004, 82.1141, -112.138
10.2631, 55, -20.8235, -17.164, 37.9374, 42.9721, 82.124, -112.056
10.2713, 55, -20.7235, -17.1405, 37.8905, 42.9404, 82.134, -111.974
10.2792, 55, -20.6235, -17.1168, 37.8434, 42.9086, 82.1443, -111.893
10.2872, 55, -20.5234, -17.0929, 37.7962, 42.8756, 82.1546, -111.81
10.2952, 55, -20.4231, -17.0691, 37.7488, 42.8419, 82.1652, -111.729
10.3033, 56, -20.3227, -17.0449, 37.7011, 42.8086, 82.1759, -111.647
10.3115, 56, -20.222, -17.0204, 37.6533, 42.775, 82.187, -111.565
10.3236, 56, -20.0706, -16.9835, 37.5813, 42.7232, 82.2036, -111.442
10.3271, 56, -20.02, -16.971, 37.5571, 42.7055, 82.2091, -111.401
10.3351, 56, -19.9185, -16.9461, 37.5086, 42.6706, 82.22, -111.319
10.3435, 56, -19.8168, -16.921, 37.46, 42.6358, 82.2309, -111.237
10.3512, 56, -19.715, -16.8955, 37.411, 42.6003, 82.2416, -111.156
10.3613, 56, -19.6132, -16.8701, 37.3618, 42.5636, 82.2523, -111.073
10.3675, 56, -19.5115, -16.8444, 37.3126, 42.5269, 82.2631, -110.992
10.3755, 56, -19.4096, -16.8187, 37.263, 42.4904, 82.2739, -110.91
10.3836, 56, -19.3074, -16.7927, 37.2132, 42.453, 82.2849, -110.828
10.3921, 57, -19.205, -16.7666, 37.1631, 42.4145, 82.2961, -110.747
10.4002, 57, -19.1022, -16.7403, 37.1129, 42.3766, 82.3074, -110.665
10.4077, 57, -18.9993, -16.7137, 37.0626, 42.3385, 82.3191, -110.583
10.4163, 57, -18.8961, -16.6872, 37.012, 42.2994, 82.3308, -110.501
10.4237, 57, -18.7929, -16.6603, 36.9613, 42.2595, 82.3428, -110.42
10.4322, 57, -18.6894, -16.6333, 36.9104, 42.22, 82.3547, -110.338
10.4407, 57, -18.6377, -16.606, 36.8592, 42.1801, 82.3664, -110.256
10.4483, 57, -18.482, -16.5786, 36.8079, 42.1389, 82.378, -110.174
10.4551, 57, -18.4298, -16.5648, 36.7821, 42.1183, 82.3838, -110.133
10.465, 57, -18.2732, -16.5232, 36.7046, 42.0569, 82.4011, -110.011
10.4723, 57, -18.1686, -16.4953, 36.6526, 42.0149, 82.4126, -109.929
10.4791, 58, -18.1161, -16.4812, 36.6266, 41.9934, 82.4183, -109.888
10.4895, 58, -17.9588, -16.4391, 36.5481, 41.9297, 82.4358, -109.766
10.4966, 58, -17.8536, -16.4106, 36.4954, 41.8868, 82.4478, -109.685
10.5031, 58, -17.801, -16.3964, 36.4691, 41.8648, 82.4538, -109.645
10.5134, 58, -17.6429, -16.3535, 36.3896, 41.799, 82.4724, -109.522
10.5191, 58, -17.5901, -16.3392, 36.3631, 41.7773, 82.4787, -109.482
10.5295, 58, -17.4313, -16.2958, 36.2833, 41.7103, 82.4976, -109.359
10.5357, 58, -17.3783, -16.2812, 36.2565, 41.6875, 82.5038, -109.319
10.5431, 58, -17.2721, -16.2519, 36.203, 41.6427, 82.5163, -109.237
10.5536, 58, -17.1123, -16.2077, 36.1222, 41.5738, 82.5348, -109.115
10.5615, 58, -17.0055, -16.178, 36.0681, 41.5272, 82.5471, -109.033
10.5713, 59, -16.8984, -16.148, 36.0138, 41.481, 82.5594, -108.952
10.5761, 59, -16.8448, -16.133, 35.9866, 41.4575, 82.5656, -108.911
10.5831, 59, -16.7376, -16.1028, 35.932, 41.4093, 82.5782, -108.829
10.5921, 59, -16.6301, -16.0726, 35.8773, 41.3617, 82.5909, -108.748
10.6001, 59, -16.5225, -16.0421, 35.8223, 41.3137, 82.6039, -108.667
10.6071, 59, -16.4147, -16.0114, 35.7672, 41.2642, 82.6171, -108.586
10.6162, 59, -16.3066, -15.9807, 35.7118, 41.2152, 82.6306, -108.504
10.6231, 59, -16.1984, -15.9499, 35.6563, 41.1659, 82.6441, -108.423
10.6312, 59, -16.09, -15.9187, 35.6007, 41.1152, 82.6573, -108.342
10.6391, 59, -15.9813, -15.8874, 35.5449, 41.065, 82.6705, -108.26
10.6471, 59, -15.8726, -15.8558, 35.4889, 41.014, 82.6835, -108.179
10.6561, 60, -15.7637, -15.8242, 35.4327, 40.9622, 82.6964, -108.097
10.6671, 60, -15.5998, -15.7762, 35.3478, 40.885, 82.716, -107.975
10.6712, 60, -15.545, -15.7601, 35.3195, 40.8585, 82.7225, -107.934
10.6791, 60, -15.4353, -15.7278, 35.2627, 40.8055, 82.7359, -107.853
10.6871, 60, -15.3251, -15.6954, 35.2056, 40.7529, 82.7495, -107.771
10.6952, 60, -15.2147, -15.6627, 35.1484, 40.6988, 82.7634, -107.69
10.7031, 60, -15.1041, -15.6299, 35.091, 40.6449, 82.7776, -107.609
10.7111, 60, -14.9933, -15.597, 35.0334, 40.5909, 82.7917, -107.527
10.7191, 60, -14.8823, -15.564, 34.9757, 40.5354, 82.8057, -107.446
10.7271, 60, -14.7712, -15.5307, 34.9179, 40.4804, 82.8195, -107.365
10.7354, 60, -14.6598, -15.4973, 34.8598, 40.4241, 82.8334, -107.284
10.7442, 61, -14.5482, -15.4637, 34.8015, 40.3677, 82.8473, -107.202
10.7512, 61, -14.4364, -15.4299, 34.743, 40.3113, 82.8613, -107.12
10.7592, 61, -14.3244, -15.3959, 34.6843, 40.2534, 82.8755, -107.039
10.7671, 61, -14.2122, -15.3617, 34.6254, 40.1962, 82.8899, -106.957
10.7752, 61, -14.0997, -15.3275, 34.5664, 40.1376, 82.9047, -106.876
10.7851, 61, -13.9869, -15.2929, 34.5071, 40.0791, 82.9197, -106.794
10.7921, 61, -13.874, -15.2582, 34.4477, 40.0203, 82.9348, -106.713
10.7992, 61, -13.7607, -15.2233, 34.3881, 39.9602, 82.9499, -106.631
10.8072, 61, -13.6472, -15.1883, 34.3283, 39.9007, 82.9647, -106.55
10.8161, 61, -13.5336, -15.1532, 34.2685, 39.8399, 82.9794, -106.468
10.8232, 61, -13.4198, -15.1177, 34.2084, 39.7791, 82.9941, -106.387
10.8312, 62, -13.3058, -15.0822, 34.1481, 39.7179, 83.0089, -106.305
10.8408, 62, -13.1914, -15.0464, 34.0876, 39.6556, 83.024, -106.224
10.8482, 62, -13.0769, -15.0105, 34.0268, 39.5936, 83.0394, -106.142
10.8552, 62, -12.9622, -14.9745, 33.9659, 39.53, 83.0551, -106.06
10.8634, 62, -12.8474, -14.9382, 33.9048, 39.467, 83.0711, -105.979
10.8714, 62, -12.7324, -14.9017, 33.8434, 39.4027, 83.087, -105.897
10.8802, 62, -12.6171, -14.8651, 33.7819, 39.3384, 83.1029, -105.815
10.8875, 62, -12.5015, -14.8284, 33.7202, 39.2734, 83.1186, -105.733
10.8955, 62, -12.3855, -14.7913, 33.6584, 39.208, 83.1343, -105.651
10.9044, 62, -12.2689, -14.7541, 33.5964, 39.1426, 83.1502, -105.57
10.9121, 62, -12.152, -14.7167, 33.5343, 39.0759, 83.1665, -105.488
10.9199, 63, -12.0351, -14.6791, 33.4719, 39.0094, 83.183, -105.406
10.9284, 63, -11.918, -14.6414, 33.4093, 38.9416, 83.2, -105.324
10.9357, 63, -11.8594, -14.6034, 33.3465, 38.8743, 83.2171, -105.243
10.9441, 63, -11.6832, -14.5653, 33.2835, 38.8055, 83.2343, -105.161
10.9526, 63, -11.6244, -14.5462, 33.252, 38.7368, 83.2513, -105.079
10.9591, 63, -11.5066, -14.5077, 33.1887, 38.7021, 83.2598, -105.039
10.969, 63, -11.3291, -14.4496, 33.0934, 38.5976, 83.2853, -104.915
10.9762, 63, -11.2106, -14.4106, 33.0297, 38.5267, 83.3024, -104.833
10.9831, 63, -11.1512, -14.391, 32.9978, 38.4914, 83.3111, -104.792
10.9932, 63, -10.973, -14.3319, 32.9018, 38.3844, 83.3377, -104.669
10.9991, 63, -10.9134, -14.3121, 32.8697, 38.3486, 83.3469, -104.627
11.0088, 64, -10.7341, -14.2522, 32.7732, 38.2402, 83.3744, -104.504
11.0172, 64, -10.6743, -14.2322, 32.7086, 38.1676, 83.3925, -104.421
11.0231, 64, -10.5542, -14.1918, 32.6762, 38.1308, 83.4016, -104.379
11.0327, 64, -10.3734, -14.1309, 32.5788, 38.0202, 83.4289, -104.256
11.0415, 64, -10.2527, -14.0901, 32.5135, 37.9454, 83.4473, -104.173
11.0471, 64, -10.1923, -14.0697, 32.4809, 37.9081, 83.4566, -104.132
11.0591, 64, -10.011, -14.0079, 32.3826, 37.7946, 83.4852, -104.008
11.0647, 64, -9.95046, -13.9873, 32.3169, 37.7189, 83.5049, -103.926
11.0726, 64, -9.82944, -13.9458, 32.2841, 37.6806, 83.5147, -103.884
11.0801, 64, -9.70821, -13.9041, 32.2181, 37.6035, 83.5341, -103.801
11.0889, 64, -9.58659, -13.8623, 32.152, 37.5261, 83.5536, -103.718
11.0971, 65, -9.40328, -13.7989, 32.0524, 37.4094, 83.5828, -103.593
11.1031, 65, -9.34196, -13.7777, 32.0192, 37.37, 83.5926, -103.552
11.1111, 65, -9.21917, -13.7351, 31.9524, 37.2911, 83.6127, -103.468
11.1191, 65, -9.0961, -13.6922, 31.8856, 37.2118, 83.6333, -103.385
11.1271, 65, -8.97263, -13.6489, 31.8184, 37.1319, 83.6543, -103.302
11.1351, 65, -8.84896, -13.6055, 31.7513, 37.0513, 83.6751, -103.218
11.1431, 65, -8.72496, -13.5619, 31.6839, 36.9702, 83.696, -103.135
11.1521, 65, -8.60054, -13.518, 31.6164, 36.8889, 83.7169, -103.052
11.1601, 65, -8.47575, -13.4739, 31.5488, 36.8067, 83.7379, -102.969
11.1681, 65, -8.35082, -13.4295, 31.481, 36.7242, 83.7595, -102.885
11.1751, 65, -8.22597, -13.385, 31.413, 36.6411, 83.7816, -102.802
11.1838, 66, -8.10102, -13.3403, 31.3447, 36.5577, 83.8041, -102.717
11.1929, 66, -7.97581, -13.2953, 31.2762, 36.4735, 83.8262, -102.633
11.1991, 66, -7.85043, -13.2502, 31.2076, 36.3889, 83.8484, -102.549
11.2071, 66, -7.72464, -13.2048, 31.1388, 36.304, 83.8704, -102.465
11.2151, 66, -7.59844, -13.1591, 31.0699, 36.2182, 83.8928, -102.381
11.2231, 66, -7.47186, -13.1134, 31.0008, 36.1321, 83.9158, -102.297
11.2342, 66, -7.28145, -13.0441, 30.8971, 36.0018, 83.951, -102.17
11.2391, 66, -7.21792, -13.0209, 30.8623, 35.958, 83.9627, -102.128
11.2471, 66, -7.09064, -12.9743, 30.7929, 35.8703, 83.986, -102.044
11.2553, 66, -6.96306, -12.9274, 30.7232, 35.7819, 84.0096, -101.959
11.2632, 66, -6.83532, -12.8803, 30.6534, 35.6933, 84.0332, -101.875
11.2712, 67, -6.7073, -12.8328, 30.5833, 35.604, 84.0576, -101.79
11.2792, 67, -6.57899, -12.7851, 30.5131, 35.5141, 84.0825, -101.705
11.2872, 67, -6.4506, -12.7372, 30.4429, 35.4238, 84.1074, -101.62
11.2952, 67, -6.32192, -12.689, 30.3725, 35.333, 84.1322, -101.535
11.3036, 67, -6.19294, -12.6405, 30.302, 35.2414, 84.1569, -101.45
11.3121, 67, -6.06363, -12.5919, 30.2314, 35.1496, 84.1819, -101.364
11.3201, 67, -5.93405, -12.543, 30.1606, 35.0569, 84.2075, -101.279
11.3271, 67, -5.80417, -12.4939, 30.0897, 34.9639, 84.2337, -101.194
11.3352, 67, -5.67376, -12.4446, 30.0186, 34.8706, 84.2597, -101.109
11.344, 67, -5.54296, -12.3951, 29.9473, 34.7766, 84.2857, -101.023
11.3521, 67, -5.41187, -12.3453, 29.8758, 34.6821, 84.3118, -100.938
11.3597, 68, -5.28052, -12.2953, 29.8042, 34.5872, 84.3384, -100.853
11.3736, 68, -5.0832, -12.2199, 29.6966, 34.4436, 84.3796, -100.725
11.3758, 68, -5.01735, -12.1946, 29.6607, 34.3954, 84.3934, -100.682
11.3841, 68, -4.88556, -12.1438, 29.589, 34.2989, 84.4207, -100.596
11.3922, 68, -4.75353, -12.0928, 29.517, 34.2017, 84.448, -100.51
11.3996, 68, -4.62124, -12.0414, 29.4449, 34.104, 84.4756, -100.425
11.4086, 68, -4.48873, -11.9898, 29.3726, 34.0061, 84.504, -100.338
11.4162, 68, -4.35597, -11.938, 29.3002, 33.9074, 84.5327, -100.252
11.4236, 68, -4.22286, -11.8859, 29.2277, 33.8084, 84.5612, -100.166
11.4327, 68, -4.08963, -11.8336, 29.155, 33.7089, 84.5897, -100.079
11.4402, 68, -3.95604, -11.7811, 29.0823, 33.6087, 84.6185, -99.9928
11.4476, 69, -3.88913, -11.7548, 29.046, 33.5584, 84.6332, -99.9492
11.4571, 69, -3.68829, -11.6757, 28.9368, 33.4071, 84.678, -99.8199
11.4652, 69, -3.55393, -11.6227, 28.8639, 33.3055, 84.7076, -99.733
11.4722, 69, -3.41933, -11.5694, 28.7909, 33.2036, 84.7371, -99.6467
11.4791, 69, -3.35192, -11.5427, 28.7543, 33.1525, 84.752, -99.6031
11.4871, 69, -3.21686, -11.4891, 28.6811, 33.0498, 84.7823, -99.5164
11.4971, 69, -3.01391, -11.408, 28.571, 32.8949, 84.8288, -99.3857
11.5064, 69, -2.87826, -11.3536, 28.4975, 32.7911, 84.8595, -99.299
11.5111, 69, -2.81033, -11.3263, 28.4608, 32.739, 84.8748, -99.2553
11.5214, 69, -2.60608, -11.2441, 28.3506, 32.5818, 84.9215, -99.1245
11.5271, 69, -2.53782, -11.2165, 28.3138, 32.5292, 84.9375, -99.0809
11.537, 70, -2.33252, -11.1334, 28.2035, 32.3707, 84.9857, -98.9496
11.5453, 70, -2.19541, -11.0777, 28.1298, 32.2646, 85.0174, -98.862
11.5511, 70, -2.12681, -11.0498, 28.093, 32.2113, 85.0333, -98.8181
11.5606, 70, -1.98938, -10.9659, 27.9822, 32.0507, 85.082, -98.6871
11.5694, 70, -1.85165, -10.9378, 27.9453, 31.9431, 85.1151, -98.5996
11.5751, 70, -1.71377, -10.8816, 27.8713, 31.8891, 85.1316, -98.556
11.5841, 70, -1.57579, -10.8252, 27.7973, 31.7807, 85.1644, -98.4679
11.5921, 70, -1.43752, -10.7685, 27.7233, 31.6719, 85.1976, -98.3806
11.6001, 70, -1.29916, -10.7117, 27.6494, 31.5626, 85.2316, -98.2923
11.6082, 70, -1.16056, -10.6545, 27.5754, 31.4531, 85.2662, -98.2045
11.6174, 71, -0.952192, -10.5683, 27.4645, 31.2877, 85.3172, -98.0716
11.6231, 71, -0.882596, -10.5394, 27.4275, 31.2324, 85.3342, -98.0278
11.6321, 71, -0.743264, -10.4813, 27.3534, 31.1214, 85.369, -97.9395
11.6402, 71, -0.603903, -10.4231, 27.2793, 31.01, 85.4045, -97.8512
11.6481, 71, -0.464282, -10.3646, 27.205, 30.898, 85.4395, -97.7627
11.6575, 71, -0.254348, -10.2764, 27.0937, 30.7294, 85.4922, -97.6299
11.6641, 71, -0.184255, -10.2469, 27.0566, 30.6729, 85.5102, -97.5855
11.6721, 71, -0.0436615, -10.1879, 26.9825, 30.5599, 85.5467, -97.4967
11.6809, 71, 0.0971921, -10.1287, 26.9083, 30.4464, 85.5828, -97.4082
11.688, 71, 0.238281, -10.0693, 26.834, 30.3325, 85.6187, -97.3192
11.6961, 71, 0.379581, -10.0097, 26.7598, 30.2183, 85.6552, -97.2306
11.7063, 72, 0.592048, -9.91992, 26.6483, 30.046, 85.7109, -97.0969
11.7113, 72, 0.662982, -9.88983, 26.6112, 29.9884, 85.7293, -97.0524
11.7201, 72, 0.80502, -9.82935, 26.5368, 29.873, 85.7662, -96.9627
11.7281, 72, 0.947372, -9.76867, 26.4626, 29.7571, 85.8038, -96.8738
11.7351, 72, 1.08975, -9.70767, 26.3884, 29.641, 85.8422, -96.7842
11.7441, 72, 1.23222, -9.64643, 26.3143, 29.5244, 85.8799, -96.6952
11.7511, 72, 1.37494, -9.58489, 26.2402, 29.4076, 85.9177, -96.6054
11.7592, 72, 1.51777, -9.52317, 26.1662, 29.2903, 85.9564, -96.5164
11.7671, 72, 1.66077, -9.46123, 26.0921, 29.1725, 85.9955, -96.4268
11.7751, 72, 1.80391, -9.39917, 26.018, 29.0544, 86.0341, -96.3377
11.7841, 72, 1.94718, -9.33689, 25.9439, 28.9359, 86.0732, -96.2478
