rpiRobotics/ARM-21-02-F-19-Robot-Motion-Program/data_performance_abb/curve_1/dual_arm/diffevo_pose1/grad_result/sim/dual_iteration_6.csv
timestamp,cmd_num,J1,J2,J3,J4,J5,J6,J1_2,J2_2,J3_2,J4_2,J5_2,J6_2
0.000000000000000000e+00,-1.000000000000000000e+00,3.401506042480468750e+01,-8.393335342407226562e+00,6.104836273193359375e+01,-1.625097045898437500e+02,6.126773834228515625e+01,-1.105851593017578125e+02,8.847190856933593750e+01,1.868481063842773438e+01,6.273899841308593750e+01,1.737012634277343750e+02,3.330283737182617188e+01,5.517691802978515625e+01
2.000000094994902611e-03,-1.000000000000000000e+00,3.401506042480468750e+01,-8.393335342407226562e+00,6.104836273193359375e+01,-1.625097045898437500e+02,6.126773834228515625e+01,-1.105851593017578125e+02,8.847190856933593750e+01,1.868481063842773438e+01,6.273899841308593750e+01,1.737012634277343750e+02,3.330283737182617188e+01,5.517691802978515625e+01
4.000000189989805222e-03,-1.000000000000000000e+00,3.401506042480468750e+01,-8.393335342407226562e+00,6.104836273193359375e+01,-1.625097045898437500e+02,6.126773834228515625e+01,-1.105851593017578125e+02,8.847190856933593750e+01,1.868481063842773438e+01,6.273899841308593750e+01,1.737012634277343750e+02,3.330283737182617188e+01,5.517691802978515625e+01
9.999999776482582092e-03,-1.000000000000000000e+00,3.401506042480468750e+01,-8.393335342407226562e+00,6.104836273193359375e+01,-1.625097045898437500e+02,6.126773834228515625e+01,-1.105851593017578125e+02,8.847190856933593750e+01,1.868481063842773438e+01,6.273899841308593750e+01,1.737012634277343750e+02,3.330283737182617188e+01,5.517691802978515625e+01
1.200000010430812836e-02,-1.000000000000000000e+00,3.401506042480468750e+01,-8.393335342407226562e+00,6.104836273193359375e+01,-1.625097045898437500e+02,6.126773834228515625e+01,-1.105851593017578125e+02,8.847190856933593750e+01,1.868481063842773438e+01,6.273899841308593750e+01,1.737012634277343750e+02,3.330283737182617188e+01,5.517691802978515625e+01
1.600000075995922089e-02,-1.000000000000000000e+00,3.401506042480468750e+01,-8.393335342407226562e+00,6.104836273193359375e+01,-1.625097045898437500e+02,6.126773834228515625e+01,-1.105851593017578125e+02,8.847190856933593750e+01,1.868481063842773438e+01,6.273899841308593750e+01,1.737012634277343750e+02,3.330283737182617188e+01,5.517691802978515625e+01
1.999999955296516418e-02,-1.000000000000000000e+00,3.401506042480468750e+01,-8.393335342407226562e+00,6.104836273193359375e+01,-1.625097045898437500e+02,6.126773834228515625e+01,-1.105851593017578125e+02,8.847190856933593750e+01,1.868481063842773438e+01,6.273899841308593750e+01,1.737012634277343750e+02,3.330283737182617188e+01,5.517691802978515625e+01
2.400000020861625671e-02,-1.000000000000000000e+00,3.401506042480468750e+01,-8.393335342407226562e+00,6.104836273193359375e+01,-1.625097045898437500e+02,6.126773834228515625e+01,-1.105851593017578125e+02,8.847190856933593750e+01,1.868481063842773438e+01,6.273899841308593750e+01,1.737012634277343750e+02,3.330283737182617188e+01,5.517691802978515625e+01
2.899999916553497314e-02,2.000000000000000000e+00,3.401506042480468750e+01,-8.393335342407226562e+00,6.104836273193359375e+01,-1.625097045898437500e+02,6.126773834228515625e+01,-1.105851593017578125e+02,8.847190856933593750e+01,1.868481063842773438e+01,6.273899841308593750e+01,1.737012634277343750e+02,3.330283737182617188e+01,5.517691802978515625e+01
3.500000014901161194e-02,2.000000000000000000e+00,3.401506042480468750e+01,-8.393335342407226562e+00,6.104836273193359375e+01,-1.625097045898437500e+02,6.126773834228515625e+01,-1.105851593017578125e+02,8.847190856933593750e+01,1.868481063842773438e+01,6.273899841308593750e+01,1.737012634277343750e+02,3.330283737182617188e+01,5.517691802978515625e+01
3.900000080466270447e-02,2.000000000000000000e+00,3.401506042480468750e+01,-8.393335342407226562e+00,6.104836273193359375e+01,-1.625097045898437500e+02,6.126773834228515625e+01,-1.105851593017578125e+02,8.847190856933593750e+01,1.868481063842773438e+01,6.273899841308593750e+01,1.737012634277343750e+02,3.330283737182617188e+01,5.517691802978515625e+01
4.100000113248825073e-02,2.000000000000000000e+00,3.401506042480468750e+01,-8.393335342407226562e+00,6.104836273193359375e+01,-1.625097045898437500e+02,6.126773834228515625e+01,-1.105851593017578125e+02,8.847190856933593750e+01,1.868481063842773438e+01,6.273899841308593750e+01,1.737012634277343750e+02,3.330283737182617188e+01,5.517691802978515625e+01
4.600000008940696716e-02,2.000000000000000000e+00,3.401506042480468750e+01,-8.393335342407226562e+00,6.104836273193359375e+01,-1.625097045898437500e+02,6.126773834228515625e+01,-1.105851593017578125e+02,8.847190856933593750e+01,1.868481063842773438e+01,6.273899841308593750e+01,1.737012634277343750e+02,3.330283737182617188e+01,5.517691802978515625e+01
4.800000041723251343e-02,2.000000000000000000e+00,3.401506042480468750e+01,-8.393335342407226562e+00,6.104836273193359375e+01,-1.625097045898437500e+02,6.126773834228515625e+01,-1.105851593017578125e+02,8.847190856933593750e+01,1.868481063842773438e+01,6.273899841308593750e+01,1.737012634277343750e+02,3.330283737182617188e+01,5.517691802978515625e+01
5.200000107288360596e-02,2.000000000000000000e+00,3.401506042480468750e+01,-8.393335342407226562e+00,6.104836273193359375e+01,-1.625097045898437500e+02,6.126773834228515625e+01,-1.105851593017578125e+02,8.847190856933593750e+01,1.868481063842773438e+01,6.273899841308593750e+01,1.737012634277343750e+02,3.330283737182617188e+01,5.517691802978515625e+01
5.600000172853469849e-02,2.000000000000000000e+00,3.401506042480468750e+01,-8.393335342407226562e+00,6.104836273193359375e+01,-1.625097045898437500e+02,6.126773834228515625e+01,-1.105851593017578125e+02,8.847190856933593750e+01,1.868481063842773438e+01,6.273899841308593750e+01,1.737012634277343750e+02,3.330283737182617188e+01,5.517691802978515625e+01
5.999999865889549255e-02,2.000000000000000000e+00,3.401506042480468750e+01,-8.393335342407226562e+00,6.104836273193359375e+01,-1.625097045898437500e+02,6.126773834228515625e+01,-1.105851593017578125e+02,8.847190856933593750e+01,1.868481063842773438e+01,6.273899841308593750e+01,1.737012634277343750e+02,3.330283737182617188e+01,5.517691802978515625e+01
6.400000303983688354e-02,2.000000000000000000e+00,3.401506042480468750e+01,-8.393335342407226562e+00,6.104836273193359375e+01,-1.625097045898437500e+02,6.126773834228515625e+01,-1.105851593017578125e+02,8.847190856933593750e+01,1.868481063842773438e+01,6.273899841308593750e+01,1.737012634277343750e+02,3.330283737182617188e+01,5.517691802978515625e+01
6.800000369548797607e-02,2.000000000000000000e+00,3.401506042480468750e+01,-8.393335342407226562e+00,6.104836273193359375e+01,-1.625097045898437500e+02,6.126773834228515625e+01,-1.105851593017578125e+02,8.847190856933593750e+01,1.868481063842773438e+01,6.273899841308593750e+01,1.737012634277343750e+02,3.330283737182617188e+01,5.517691802978515625e+01
7.199999690055847168e-02,2.000000000000000000e+00,3.401499176025390625e+01,-8.393314361572265625e+00,6.104835510253906250e+01,-1.625097045898437500e+02,6.126773834228515625e+01,-1.105851593017578125e+02,8.847190856933593750e+01,1.868481063842773438e+01,6.273899841308593750e+01,1.737012634277343750e+02,3.330283737182617188e+01,5.517691802978515625e+01
7.599999755620956421e-02,2.000000000000000000e+00,3.401461410522460938e+01,-8.393183708190917969e+00,6.104830169677734375e+01,-1.625096893310546875e+02,6.126773834228515625e+01,-1.105851593017578125e+02,8.847190856933593750e+01,1.868481063842773438e+01,6.273899841308593750e+01,1.737012634277343750e+02,3.330283737182617188e+01,5.517691802978515625e+01
7.999999821186065674e-02,2.000000000000000000e+00,3.401354598999023438e+01,-8.392777442932128906e+00,6.104812240600585938e+01,-1.625096893310546875e+02,6.126774597167968750e+01,-1.105851516723632812e+02,8.847190856933593750e+01,1.868481063842773438e+01,6.273899841308593750e+01,1.737012634277343750e+02,3.330283737182617188e+01,5.517691802978515625e+01
8.399999886751174927e-02,2.000000000000000000e+00,3.401141738891601562e+01,-8.391905784606933594e+00,6.104772567749023438e+01,-1.625096740722656250e+02,6.126777267456054688e+01,-1.105850982666015625e+02,8.847189331054687500e+01,1.868480682373046875e+01,6.273899078369140625e+01,1.737012634277343750e+02,3.330283737182617188e+01,5.517691802978515625e+01
8.799999952316284180e-02,2.000000000000000000e+00,3.400800323486328125e+01,-8.390404701232910156e+00,6.104702758789062500e+01,-1.625096588134765625e+02,6.126783752441406250e+01,-1.105849914550781250e+02,8.847180938720703125e+01,1.868477439880371094e+01,6.273896408081054688e+01,1.737012634277343750e+02,3.330284881591796875e+01,5.517691421508789062e+01
9.200000017881393433e-02,2.000000000000000000e+00,3.400314331054687500e+01,-8.388138771057128906e+00,6.104592132568359375e+01,-1.625096740722656250e+02,6.126796722412109375e+01,-1.105847396850585938e+02,8.847154235839843750e+01,1.868466758728027344e+01,6.273886108398437500e+01,1.737012939453125000e+02,3.330289077758789062e+01,5.517690658569335938e+01
9.600000083446502686e-02,2.000000000000000000e+00,3.399666213989257812e+01,-8.384976387023925781e+00,6.104431152343750000e+01,-1.625097503662109375e+02,6.126819229125976562e+01,-1.105842666625976562e+02,8.847093200683593750e+01,1.868440246582031250e+01,6.273859405517578125e+01,1.737013244628906250e+02,3.330299758911132812e+01,5.517687606811523438e+01
1.000000014901161194e-01,2.000000000000000000e+00,3.398846054077148438e+01,-8.380814552307128906e+00,6.104207229614257812e+01,-1.625099792480468750e+02,6.126857376098632812e+01,-1.105834579467773438e+02,8.846975708007812500e+01,1.868387794494628906e+01,6.273804092407226562e+01,1.737014312744140625e+02,3.330323028564453125e+01,5.517679214477539062e+01
1.040000021457672119e-01,2.000000000000000000e+00,3.397849273681640625e+01,-8.375582695007324219e+00,6.103910064697265625e+01,-1.625103912353515625e+02,6.126916885375976562e+01,-1.105821685791015625e+02,8.846778869628906250e+01,1.868295669555664062e+01,6.273701095581054688e+01,1.737016143798828125e+02,3.330367660522460938e+01,5.517660903930664062e+01
1.080000028014183044e-01,2.000000000000000000e+00,3.396660995483398438e+01,-8.369197845458984375e+00,6.103527450561523438e+01,-1.625110931396484375e+02,6.127003479003906250e+01,-1.105802688598632812e+02,8.846473693847656250e+01,1.868145751953125000e+01,6.273525238037109375e+01,1.737019653320312500e+02,3.330444335937500000e+01,5.517625808715820312e+01
1.120000034570693970e-01,2.000000000000000000e+00,3.395241928100585938e+01,-8.361496925354003906e+00,6.103042602539062500e+01,-1.625121307373046875e+02,6.127125167846679688e+01,-1.105775909423828125e+02,8.846031188964843750e+01,1.867919158935546875e+01,6.273250961303710938e+01,1.737025146484375000e+02,3.330567550659179688e+01,5.517565917968750000e+01
1.159999966621398926e-01,2.000000000000000000e+00,3.393539428710937500e+01,-8.352258682250976562e+00,6.102437210083007812e+01,-1.625135955810546875e+02,6.127286911010742188e+01,-1.105739898681640625e+02,8.845424652099609375e+01,1.867596626281738281e+01,6.272846603393554688e+01,1.737033691406250000e+02,3.330751419067382812e+01,5.517471313476562500e+01
1.199999973177909851e-01,2.000000000000000000e+00,3.391509246826171875e+01,-8.341292381286621094e+00,6.101694107055664062e+01,-1.625155487060546875e+02,6.127496719360351562e+01,-1.105693130493164062e+02,8.844630432128906250e+01,1.867159652709960938e+01,6.272284317016601562e+01,1.737045745849609375e+02,3.331010437011718750e+01,5.517332839965820312e+01
1.239999979734420776e-01,2.000000000000000000e+00,3.389131927490234375e+01,-8.328554153442382812e+00,6.100803756713867188e+01,-1.625180664062500000e+02,6.127760314941406250e+01,-1.105634002685546875e+02,8.843621826171875000e+01,1.866589355468750000e+01,6.271535873413085938e+01,1.737061920166015625e+02,3.331358337402343750e+01,5.517142105102539062e+01
1.280000060796737671e-01,2.000000000000000000e+00,3.386412429809570312e+01,-8.314126014709472656e+00,6.099759292602539062e+01,-1.625212402343750000e+02,6.128083419799804688e+01,-1.105561370849609375e+02,8.842370605468750000e+01,1.865868949890136719e+01,6.270578002929687500e+01,1.737082977294921875e+02,3.331805801391601562e+01,5.516892242431640625e+01
1.309999972581863403e-01,2.000000000000000000e+00,3.383359909057617188e+01,-8.298108100891113281e+00,6.098561096191406250e+01,-1.625251007080078125e+02,6.128470611572265625e+01,-1.105474090576171875e+02,8.840856170654296875e+01,1.864985656738281250e+01,6.269393920898437500e+01,1.737109222412109375e+02,3.332361984252929688e+01,5.516577911376953125e+01
1.360000073909759521e-01,2.000000000000000000e+00,3.379977035522460938e+01,-8.280541419982910156e+00,6.097206115722656250e+01,-1.625297088623046875e+02,6.128924179077148438e+01,-1.105371704101562500e+02,8.839069366455078125e+01,1.863933753967285156e+01,6.267973709106445312e+01,1.737140808105468750e+02,3.333030700683593750e+01,5.516197586059570312e+01
1.389999985694885254e-01,2.000000000000000000e+00,3.376264190673828125e+01,-8.261434555053710938e+00,6.095694732666015625e+01,-1.625350646972656250e+02,6.129444503784179688e+01,-1.105253982543945312e+02,8.837007904052734375e+01,1.862711715698242188e+01,6.266316986083984375e+01,1.737177581787109375e+02,3.333812332153320312e+01,5.515749740600585938e+01
1.439999938011169434e-01,2.000000000000000000e+00,3.372224044799804688e+01,-8.240783691406250000e+00,6.094028091430664062e+01,-1.625411376953125000e+02,6.130030822753906250e+01,-1.105121307373046875e+02,8.834677886962890625e+01,1.861323738098144531e+01,6.264428329467773438e+01,1.737219848632812500e+02,3.334704208374023438e+01,5.515237045288085938e+01
1.480000019073486328e-01,2.000000000000000000e+00,3.367851638793945312e+01,-8.218522071838378906e+00,6.092209243774414062e+01,-1.625478973388671875e+02,6.130678176879882812e+01,-1.104974594116210938e+02,8.832093048095703125e+01,1.859779548645019531e+01,6.262322616577148438e+01,1.737266998291015625e+02,3.335700225830078125e+01,5.514663314819335938e+01
1.519999951124191284e-01,2.000000000000000000e+00,3.363137435913085938e+01,-8.194534301757812500e+00,6.090239334106445312e+01,-1.625552673339843750e+02,6.131382369995117188e+01,-1.104814834594726562e+02,8.829280853271484375e+01,1.858094406127929688e+01,6.260020065307617188e+01,1.737318572998046875e+02,3.336790084838867188e+01,5.514033889770507812e+01
1.560000032186508179e-01,2.000000000000000000e+00,3.358084869384765625e+01,-8.168774604797363281e+00,6.088125991821289062e+01,-1.625631561279296875e+02,6.132137680053710938e+01,-1.104643707275390625e+02,8.826270294189453125e+01,1.856287193298339844e+01,6.257546997070312500e+01,1.737374114990234375e+02,3.337960433959960938e+01,5.513357162475585938e+01
1.599999964237213135e-01,2.000000000000000000e+00,3.352722549438476562e+01,-8.141349792480468750e+00,6.085882949829101562e+01,-1.625715026855468750e+02,6.132936859130859375e+01,-1.104462585449218750e+02,8.823088073730468750e+01,1.854376983642578125e+01,6.254932403564453125e+01,1.737432708740234375e+02,3.339199066162109375e+01,5.512641143798828125e+01
1.640000045299530029e-01,2.000000000000000000e+00,3.347100067138671875e+01,-8.112478256225585938e+00,6.083528137207031250e+01,-1.625802307128906250e+02,6.133773040771484375e+01,-1.104272994995117188e+02,8.819760131835937500e+01,1.852382087707519531e+01,6.252204895019531250e+01,1.737493896484375000e+02,3.340489959716796875e+01,5.511895370483398438e+01
1.679999977350234985e-01,2.000000000000000000e+00,3.341268157958984375e+01,-8.082367897033691406e+00,6.081079864501953125e+01,-1.625892333984375000e+02,6.134640502929687500e+01,-1.104076538085937500e+02,8.816310882568359375e+01,1.850321578979492188e+01,6.249392318725585938e+01,1.737556762695312500e+02,3.341819763183593750e+01,5.511128997802734375e+01
1.720000058412551880e-01,2.000000000000000000e+00,3.335255432128906250e+01,-8.051155090332031250e+00,6.078553009033203125e+01,-1.625984954833984375e+02,6.135530853271484375e+01,-1.103874740600585938e+02,8.812770080566406250e+01,1.848213195800781250e+01,6.246521759033203125e+01,1.737620849609375000e+02,3.343176269531250000e+01,5.510349273681640625e+01
1.759999990463256836e-01,2.000000000000000000e+00,3.329073333740234375e+01,-8.018920898437500000e+00,6.075958633422851562e+01,-1.626079254150390625e+02,6.136440277099609375e+01,-1.103668899536132812e+02,8.809162902832031250e+01,1.846072387695312500e+01,6.243612670898437500e+01,1.737685852050781250e+02,3.344549179077148438e+01,5.509562683105468750e+01
1.800000071525573730e-01,2.000000000000000000e+00,3.322727584838867188e+01,-7.985754013061523438e+00,6.073308563232421875e+01,-1.626174468994140625e+02,6.137361526489257812e+01,-1.103460388183593750e+02,8.805509948730468750e+01,1.843911170959472656e+01,6.240681838989257812e+01,1.737751007080078125e+02,3.345931625366210938e+01,5.508772277832031250e+01
1.840000003576278687e-01,2.000000000000000000e+00,3.316234207153320312e+01,-7.951779842376708984e+00,6.070614242553710938e+01,-1.626270294189453125e+02,6.138291168212890625e+01,-1.103250045776367188e+02,8.801830291748046875e+01,1.841738128662109375e+01,6.237738800048828125e+01,1.737816467285156250e+02,3.347318267822265625e+01,5.507980728149414062e+01
1.879999935626983643e-01,2.000000000000000000e+00,3.309609222412109375e+01,-7.917125225067138672e+00,6.067885589599609375e+01,-1.626366271972656250e+02,6.139225387573242188e+01,-1.103038711547851562e+02,8.798137664794921875e+01,1.839559936523437500e+01,6.234791564941406250e+01,1.737881927490234375e+02,3.348706436157226562e+01,5.507189178466796875e+01
1.920000016689300537e-01,2.000000000000000000e+00,3.302869415283203125e+01,-7.881926536560058594e+00,6.065130233764648438e+01,-1.626462097167968750e+02,6.140161895751953125e+01,-1.102827072143554688e+02,8.794441986083984375e+01,1.837380790710449219e+01,6.231843566894531250e+01,1.737947540283203125e+02,3.350094985961914062e+01,5.506397628784179688e+01
1.959999948740005493e-01,2.000000000000000000e+00,3.296042633056640625e+01,-7.846357345581054688e+00,6.062359237670898438e+01,-1.626557769775390625e+02,6.141099548339843750e+01,-1.102615203857421875e+02,8.790745544433593750e+01,1.835202026367187500e+01,6.228896331787109375e+01,1.738013000488281250e+02,3.351483535766601562e+01,5.505606079101562500e+01
2.000000029802322388e-01,2.000000000000000000e+00,3.289167785644531250e+01,-7.810603141784667969e+00,6.059580612182617188e+01,-1.626653594970703125e+02,6.142037582397460938e+01,-1.102403335571289062e+02,8.787051391601562500e+01,1.833024024963378906e+01,6.225949859619140625e+01,1.738078460693359375e+02,3.352870941162109375e+01,5.504814910888671875e+01
2.039999961853027344e-01,2.000000000000000000e+00,3.282277679443359375e+01,-7.774796962738037109e+00,6.056800079345703125e+01,-1.626749114990234375e+02,6.142975234985351562e+01,-1.102191543579101562e+02,8.783358001708984375e+01,1.830846786499023438e+01,6.223004531860351562e+01,1.738143920898437500e+02,3.354257965087890625e+01,5.504024505615234375e+01
2.080000042915344238e-01,2.000000000000000000e+00,3.275386428833007812e+01,-7.738993644714355469e+00,6.054019546508789062e+01,-1.626844635009765625e+02,6.143912506103515625e+01,-1.101979827880859375e+02,8.779666900634765625e+01,1.828670310974121094e+01,6.220060729980468750e+01,1.738209381103515625e+02,3.355644607543945312e+01,5.503233718872070312e+01
2.119999974966049194e-01,2.000000000000000000e+00,3.268497848510742188e+01,-7.703202724456787109e+00,6.051240158081054688e+01,-1.626940307617187500e+02,6.144848632812500000e+01,-1.101768112182617188e+02,8.775976562500000000e+01,1.826494407653808594e+01,6.217116928100585938e+01,1.738274841308593750e+02,3.357031250000000000e+01,5.502443313598632812e+01
2.160000056028366089e-01,2.000000000000000000e+00,3.261611557006835938e+01,-7.667422771453857422e+00,6.048462295532226562e+01,-1.627035827636718750e+02,6.145785903930664062e+01,-1.101556625366210938e+02,8.772286987304687500e+01,1.824319076538085938e+01,6.214174652099609375e+01,1.738340148925781250e+02,3.358417129516601562e+01,5.501653289794921875e+01
2.199999988079071045e-01,2.000000000000000000e+00,3.254727172851562500e+01,-7.631654739379882812e+00,6.045684814453125000e+01,-1.627131195068359375e+02,6.146721649169921875e+01,-1.101345062255859375e+02,8.768598175048828125e+01,1.822144699096679688e+01,6.211233520507812500e+01,1.738405609130859375e+02,3.359802246093750000e+01,5.500863647460937500e+01
2.240000069141387939e-01,2.000000000000000000e+00,3.247845458984375000e+01,-7.595898628234863281e+00,6.042908096313476562e+01,-1.627226562500000000e+02,6.147658157348632812e+01,-1.101133575439453125e+02,8.764911651611328125e+01,1.819971084594726562e+01,6.208293151855468750e+01,1.738470916748046875e+02,3.361186981201171875e+01,5.500074005126953125e+01
2.280000001192092896e-01,2.000000000000000000e+00,3.240965652465820312e+01,-7.560153961181640625e+00,6.040132904052734375e+01,-1.627322082519531250e+02,6.148593902587890625e+01,-1.100922241210937500e+02,8.761225891113281250e+01,1.817798042297363281e+01,6.205353164672851562e+01,1.738536224365234375e+02,3.362571334838867188e+01,5.499284744262695312e+01
2.319999933242797852e-01,2.000000000000000000e+00,3.234088516235351562e+01,-7.524420738220214844e+00,6.037358093261718750e+01,-1.627417449951171875e+02,6.149528884887695312e+01,-1.100710983276367188e+02,8.757540893554687500e+01,1.815625762939453125e+01,6.202415084838867188e+01,1.738601379394531250e+02,3.363955688476562500e+01,5.498495864868164062e+01
2.360000014305114746e-01,2.000000000000000000e+00,3.227213287353515625e+01,-7.488699913024902344e+00,6.034584045410156250e+01,-1.627512817382812500e+02,6.150463867187500000e+01,-1.100499725341796875e+02,8.753858184814453125e+01,1.813454246520996094e+01,6.199477386474609375e+01,1.738666687011718750e+02,3.365338897705078125e+01,5.497706985473632812e+01
2.399999946355819702e-01,2.000000000000000000e+00,3.220340347290039062e+01,-7.452990531921386719e+00,6.031811141967773438e+01,-1.627608184814453125e+02,6.151398086547851562e+01,-1.100288467407226562e+02,8.750176239013671875e+01,1.811283302307128906e+01,6.196540451049804688e+01,1.738731994628906250e+02,3.366722106933593750e+01,5.496918487548828125e+01
2.440000027418136597e-01,2.000000000000000000e+00,3.213469314575195312e+01,-7.417292594909667969e+00,6.029039382934570312e+01,-1.627703399658203125e+02,6.152333450317382812e+01,-1.100077362060546875e+02,8.746495056152343750e+01,1.809113311767578125e+01,6.193604660034179688e+01,1.738797302246093750e+02,3.368104934692382812e+01,5.496130371093750000e+01
2.479999959468841553e-01,2.000000000000000000e+00,3.206601333618164062e+01,-7.381606578826904297e+00,6.026268386840820312e+01,-1.627798614501953125e+02,6.153266906738281250e+01,-1.099866409301757812e+02,8.742815399169921875e+01,1.806943893432617188e+01,6.190670394897460938e+01,1.738862457275390625e+02,3.369486999511718750e+01,5.495342636108398438e+01
2.520000040531158447e-01,2.000000000000000000e+00,3.199735069274902344e+01,-7.345932483673095703e+00,6.023498153686523438e+01,-1.627893829345703125e+02,6.154200744628906250e+01,-1.099655380249023438e+02,8.739136505126953125e+01,1.804775047302246094e+01,6.187736892700195312e+01,1.738927612304687500e+02,3.370868682861328125e+01,5.494554901123046875e+01
2.560000121593475342e-01,2.000000000000000000e+00,3.192871284484863281e+01,-7.310270309448242188e+00,6.020729064941406250e+01,-1.627989044189453125e+02,6.155134201049804688e+01,-1.099444503784179688e+02,8.735459899902343750e+01,1.802607154846191406e+01,6.184804153442382812e+01,1.738992767333984375e+02,3.372249984741210938e+01,5.493767547607421875e+01
2.599999904632568359e-01,2.000000000000000000e+00,3.186009407043457031e+01,-7.274619579315185547e+00,6.017960739135742188e+01,-1.628084259033203125e+02,6.156067276000976562e+01,-1.099233703613281250e+02,8.731783294677734375e+01,1.800439834594726562e+01,6.181872558593750000e+01,1.739057922363281250e+02,3.373630905151367188e+01,5.492980194091796875e+01
2.639999985694885254e-01,2.000000000000000000e+00,3.179150199890136719e+01,-7.238979339599609375e+00,6.015193176269531250e+01,-1.628179321289062500e+02,6.157000350952148438e+01,-1.099022903442382812e+02,8.728108215332031250e+01,1.798273277282714844e+01,6.178941726684570312e+01,1.739123077392578125e+02,3.375011062622070312e+01,5.492193603515625000e+01
2.680000066757202148e-01,2.000000000000000000e+00,3.172293090820312500e+01,-7.203352451324462891e+00,6.012427139282226562e+01,-1.628274383544921875e+02,6.157932662963867188e+01,-1.098812332153320312e+02,8.724434661865234375e+01,1.796107292175292969e+01,6.176011657714843750e+01,1.739188232421875000e+02,3.376390838623046875e+01,5.491406631469726562e+01
2.720000147819519043e-01,2.000000000000000000e+00,3.165437889099121094e+01,-7.167735576629638672e+00,6.009661483764648438e+01,-1.628369445800781250e+02,6.158864974975585938e+01,-1.098601684570312500e+02,8.720762634277343750e+01,1.793942260742187500e+01,6.173082733154296875e+01,1.739253387451171875e+02,3.377770233154296875e+01,5.490620040893554688e+01
2.759999930858612061e-01,2.000000000000000000e+00,3.158585166931152344e+01,-7.132131576538085938e+00,6.006896591186523438e+01,-1.628464508056640625e+02,6.159797286987304688e+01,-1.098391113281250000e+02,8.717090606689453125e+01,1.791777801513671875e+01,6.170154571533203125e+01,1.739318542480468750e+02,3.379149246215820312e+01,5.489833831787109375e+01
2.800000011920928955e-01,2.000000000000000000e+00,3.151734733581542969e+01,-7.096538543701171875e+00,6.004133224487304688e+01,-1.628559417724609375e+02,6.160728836059570312e+01,-1.098180618286132812e+02,8.713420867919921875e+01,1.789613914489746094e+01,6.167227935791015625e+01,1.739383544921875000e+02,3.380527877807617188e+01,5.489048004150390625e+01
2.840000092983245850e-01,2.000000000000000000e+00,3.144886589050292969e+01,-7.060956954956054688e+00,6.001369857788085938e+01,-1.628654479980468750e+02,6.161660385131835938e+01,-1.097970199584960938e+02,8.709751129150390625e+01,1.787450981140136719e+01,6.164301681518554688e+01,1.739448547363281250e+02,3.381906127929687500e+01,5.488262557983398438e+01
2.879999876022338867e-01,2.000000000000000000e+00,3.138040351867675781e+01,-7.025387287139892578e+00,5.998608398437500000e+01,-1.628749542236328125e+02,6.162591552734375000e+01,-1.097759857177734375e+02,8.706084442138671875e+01,1.785288619995117188e+01,6.161376571655273438e+01,1.739513549804687500e+02,3.383283615112304688e+01,5.487477111816406250e+01
2.919999957084655762e-01,2.000000000000000000e+00,3.131196784973144531e+01,-6.989829063415527344e+00,5.995846939086914062e+01,-1.628844299316406250e+02,6.163521957397460938e+01,-1.097549591064453125e+02,8.702416992187500000e+01,1.783127021789550781e+01,6.158452606201171875e+01,1.739578399658203125e+02,3.384661102294921875e+01,5.486692047119140625e+01
2.960000038146972656e-01,2.000000000000000000e+00,3.124354934692382812e+01,-6.954282283782958984e+00,5.993086624145507812e+01,-1.628939208984375000e+02,6.164452743530273438e+01,-1.097339401245117188e+02,8.698751831054687500e+01,1.780965805053710938e+01,6.155529022216796875e+01,1.739643402099609375e+02,3.386037826538085938e+01,5.485907363891601562e+01
3.000000119209289551e-01,2.000000000000000000e+00,3.117515563964843750e+01,-6.918746948242187500e+00,5.990327453613281250e+01,-1.629033966064453125e+02,6.165383148193359375e+01,-1.097129287719726562e+02,8.695087432861328125e+01,1.778805732727050781e+01,6.152607345581054688e+01,1.739708404541015625e+02,3.387414169311523438e+01,5.485122299194335938e+01
3.039999902248382568e-01,2.000000000000000000e+00,3.110678482055664062e+01,-6.883223056793212891e+00,5.987568664550781250e+01,-1.629128875732421875e+02,6.166312789916992188e+01,-1.096919174194335938e+02,8.691424560546875000e+01,1.776646041870117188e+01,6.149686050415039062e+01,1.739773406982421875e+02,3.388790130615234375e+01,5.484337997436523438e+01
3.079999983310699463e-01,2.000000000000000000e+00,3.103843498229980469e+01,-6.847710609436035156e+00,5.984811401367187500e+01,-1.629223632812500000e+02,6.167242050170898438e+01,-1.096709136962890625e+02,8.687763214111328125e+01,1.774487304687500000e+01,6.146765136718750000e+01,1.739838256835937500e+02,3.390165328979492188e+01,5.483554077148437500e+01
3.120000064373016357e-01,2.000000000000000000e+00,3.097010612487792969e+01,-6.812210083007812500e+00,5.982054519653320312e+01,-1.629318389892578125e+02,6.168170928955078125e+01,-1.096499252319335938e+02,8.684102630615234375e+01,1.772329139709472656e+01,6.143846130371093750e+01,1.739903106689453125e+02,3.391540527343750000e+01,5.482770156860351562e+01
3.160000145435333252e-01,2.000000000000000000e+00,3.090180206298828125e+01,-6.776720523834228516e+00,5.979299163818359375e+01,-1.629413146972656250e+02,6.169100189208984375e+01,-1.096289367675781250e+02,8.680442810058593750e+01,1.770171546936035156e+01,6.140927505493164062e+01,1.739968109130859375e+02,3.392914962768554688e+01,5.481986236572265625e+01
3.199999928474426270e-01,2.000000000000000000e+00,3.083351898193359375e+01,-6.741242408752441406e+00,5.976544189453125000e+01,-1.629507904052734375e+02,6.170029067993164062e+01,-1.096079559326171875e+02,8.676784515380859375e+01,1.768014717102050781e+01,6.138009643554687500e+01,1.740032806396484375e+02,3.394289016723632812e+01,5.481203460693359375e+01
3.240000009536743164e-01,2.000000000000000000e+00,3.076525878906250000e+01,-6.705775737762451172e+00,5.973789978027343750e+01,-1.629602508544921875e+02,6.170957183837890625e+01,-1.095869827270507812e+02,8.673126983642578125e+01,1.765858650207519531e+01,6.135093307495117188e+01,1.740097656250000000e+02,3.395663070678710938e+01,5.480420303344726562e+01
3.280000090599060059e-01,2.000000000000000000e+00,3.069701766967773438e+01,-6.670320510864257812e+00,5.971036911010742188e+01,-1.629697113037109375e+02,6.171885299682617188e+01,-1.095660171508789062e+02,8.669471740722656250e+01,1.763703155517578125e+01,6.132177352905273438e+01,1.740162353515625000e+02,3.397036361694335938e+01,5.479637145996093750e+01
3.319999873638153076e-01,2.000000000000000000e+00,3.062879943847656250e+01,-6.634877204895019531e+00,5.968284988403320312e+01,-1.629791717529296875e+02,6.172813034057617188e+01,-1.095450515747070312e+02,8.665817260742187500e+01,1.761548423767089844e+01,6.129262924194335938e+01,1.740227203369140625e+02,3.398408889770507812e+01,5.478854751586914062e+01
3.359999954700469971e-01,2.000000000000000000e+00,3.056060600280761719e+01,-6.599444389343261719e+00,5.965533828735351562e+01,-1.629886322021484375e+02,6.173740386962890625e+01,-1.095241012573242188e+02,8.662163543701171875e+01,1.759394645690917969e+01,6.126349258422851562e+01,1.740291900634765625e+02,3.399781417846679688e+01,5.478072357177734375e+01
3.400000035762786865e-01,2.000000000000000000e+00,3.049242973327636719e+01,-6.564023494720458984e+00,5.962783050537109375e+01,-1.629980773925781250e+02,6.174668121337890625e+01,-1.095031585693359375e+02,8.658510589599609375e+01,1.757241249084472656e+01,6.123435974121093750e+01,1.740356597900390625e+02,3.401153182983398438e+01,5.477290344238281250e+01
3.440000116825103760e-01,2.000000000000000000e+00,3.042427825927734375e+01,-6.528613567352294922e+00,5.960033416748046875e+01,-1.630075378417968750e+02,6.175594711303710938e+01,-1.094822158813476562e+02,8.654859924316406250e+01,1.755088615417480469e+01,6.120524215698242188e+01,1.740421447753906250e+02,3.402524566650390625e+01,5.476508331298828125e+01
3.479999899864196777e-01,2.000000000000000000e+00,3.035614776611328125e+01,-6.493215560913085938e+00,5.957284927368164062e+01,-1.630169830322265625e+02,6.176520919799804688e+01,-1.094612808227539062e+02,8.651210021972656250e+01,1.752936744689941406e+01,6.117613220214843750e+01,1.740485992431640625e+02,3.403895950317382812e+01,5.475726699829101562e+01
3.519999980926513672e-01,2.000000000000000000e+00,3.028804016113281250e+01,-6.457828521728515625e+00,5.954537200927734375e+01,-1.630264282226562500e+02,6.177447891235351562e+01,-1.094403533935546875e+02,8.647560882568359375e+01,1.750785446166992188e+01,6.114702987670898438e+01,1.740550842285156250e+02,3.405266189575195312e+01,5.474945449829101562e+01
3.560000061988830566e-01,2.000000000000000000e+00,3.021995353698730469e+01,-6.422453403472900391e+00,5.951789855957031250e+01,-1.630358734130859375e+02,6.178373336791992188e+01,-1.094194412231445312e+02,8.643913269042968750e+01,1.748634910583496094e+01,6.111793899536132812e+01,1.740615386962890625e+02,3.406636428833007812e+01,5.474164199829101562e+01
3.600000143051147461e-01,2.000000000000000000e+00,3.015189170837402344e+01,-6.387089729309082031e+00,5.949044418334960938e+01,-1.630453186035156250e+02,6.179299545288085938e+01,-1.093985290527343750e+02,8.640266418457031250e+01,1.746484947204589844e+01,6.108885574340820312e+01,1.740680084228515625e+02,3.408006286621093750e+01,5.473383331298828125e+01
3.639999926090240479e-01,2.000000000000000000e+00,3.008384895324707031e+01,-6.351737976074218750e+00,5.946298599243164062e+01,-1.630547485351562500e+02,6.180224227905273438e+01,-1.093776168823242188e+02,8.636621093750000000e+01,1.744335937500000000e+01,6.105978775024414062e+01,1.740744628906250000e+02,3.409375381469726562e+01,5.472602844238281250e+01
3.680000007152557373e-01,2.000000000000000000e+00,3.001582717895507812e+01,-6.316397190093994141e+00,5.943554687500000000e+01,-1.630641784667968750e+02,6.181149673461914062e+01,-1.093567199707031250e+02,8.632976531982421875e+01,1.742187309265136719e+01,6.103071975708007812e+01,1.740809173583984375e+02,3.410744094848632812e+01,5.471822357177734375e+01
3.720000088214874268e-01,2.000000000000000000e+00,2.994782829284667969e+01,-6.281068325042724609e+00,5.940811157226562500e+01,-1.630736083984375000e+02,6.182074737548828125e+01,-1.093358230590820312e+02,8.629334259033203125e+01,1.740039634704589844e+01,6.100167083740234375e+01,1.740873870849609375e+02,3.412112426757812500e+01,5.471042251586914062e+01
3.759999871253967285e-01,2.000000000000000000e+00,2.987985420227050781e+01,-6.245750904083251953e+00,5.938068771362304688e+01,-1.630830383300781250e+02,6.182998657226562500e+01,-1.093149414062500000e+02,8.625691986083984375e+01,1.737892532348632812e+01,6.097262191772460938e+01,1.740938262939453125e+02,3.413480758666992188e+01,5.470262527465820312e+01
3.799999952316284180e-01,2.000000000000000000e+00,2.981189727783203125e+01,-6.210444927215576172e+00,5.935327148437500000e+01,-1.630924682617187500e+02,6.183922958374023438e+01,-1.092940597534179688e+02,8.622051239013671875e+01,1.735746002197265625e+01,6.094358444213867188e+01,1.741002960205078125e+02,3.414847946166992188e+01,5.469483184814453125e+01
3.840000033378601074e-01,2.000000000000000000e+00,2.974396514892578125e+01,-6.175148963928222656e+00,5.932586288452148438e+01,-1.631018829345703125e+02,6.184846878051757812e+01,-1.092731857299804688e+02,8.618412017822265625e+01,1.733600234985351562e+01,6.091456604003906250e+01,1.741067352294921875e+02,3.416215133666992188e+01,5.468703842163085938e+01
3.880000114440917969e-01,2.000000000000000000e+00,2.967605209350585938e+01,-6.139863967895507812e+00,5.929846572875976562e+01,-1.631112976074218750e+02,6.185770416259765625e+01,-1.092523193359375000e+02,8.614773559570312500e+01,1.731455230712890625e+01,6.088554382324218750e+01,1.741131896972656250e+02,3.417581939697265625e+01,5.467924499511718750e+01
3.919999897480010986e-01,2.000000000000000000e+00,2.960816383361816406e+01,-6.104590415954589844e+00,5.927107620239257812e+01,-1.631207275390625000e+02,6.186693954467773438e+01,-1.092314682006835938e+02,8.611136627197265625e+01,1.729310798645019531e+01,6.085653686523437500e+01,1.741196441650390625e+02,3.418947982788085938e+01,5.467145919799804688e+01
3.959999978542327881e-01,2.000000000000000000e+00,2.954029464721679688e+01,-6.069327354431152344e+00,5.924369430541992188e+01,-1.631301422119140625e+02,6.187617492675781250e+01,-1.092106170654296875e+02,8.607500457763671875e+01,1.727167129516601562e+01,6.082754135131835938e+01,1.741260681152343750e+02,3.420314025878906250e+01,5.466366958618164062e+01
4.000000059604644775e-01,2.000000000000000000e+00,2.947244834899902344e+01,-6.034075736999511719e+00,5.921632003784179688e+01,-1.631395416259765625e+02,6.188540267944335938e+01,-1.091897583007812500e+02,8.603865051269531250e+01,1.725024223327636719e+01,6.079855346679687500e+01,1.741325225830078125e+02,3.421679306030273438e+01,5.465588760375976562e+01
4.040000140666961670e-01,2.000000000000000000e+00,2.940462303161621094e+01,-5.998835086822509766e+00,5.918895721435546875e+01,-1.631489410400390625e+02,6.189462280273437500e+01,-1.091689224243164062e+02,8.600231170654296875e+01,1.722881889343261719e+01,6.076957321166992188e+01,1.741389617919921875e+02,3.423043823242187500e+01,5.464810562133789062e+01
4.079999923706054688e-01,2.000000000000000000e+00,2.933681678771972656e+01,-5.963606357574462891e+00,5.916160202026367188e+01,-1.631583404541015625e+02,6.190384292602539062e+01,-1.091480941772460938e+02,8.596598815917968750e+01,1.720740318298339844e+01,6.074060058593750000e+01,1.741454010009765625e+02,3.424408721923828125e+01,5.464032745361328125e+01
4.120000004768371582e-01,2.000000000000000000e+00,2.926903724670410156e+01,-5.928388595581054688e+00,5.913425445556640625e+01,-1.631677398681640625e+02,6.191306304931640625e+01,-1.091272659301757812e+02,8.592967224121093750e+01,1.718599319458007812e+01,6.071163940429687500e+01,1.741518402099609375e+02,3.425772476196289062e+01,5.463255310058593750e+01
4.160000085830688477e-01,2.000000000000000000e+00,2.920127487182617188e+01,-5.893182277679443359e+00,5.910692214965820312e+01,-1.631771392822265625e+02,6.192227554321289062e+01,-1.091064453125000000e+02,8.589337158203125000e+01,1.716459083557128906e+01,6.068268585205078125e+01,1.741582641601562500e+02,3.427135848999023438e+01,5.462477493286132812e+01
4.199999868869781494e-01,2.000000000000000000e+00,2.913353729248046875e+01,-5.857986450195312500e+00,5.907958602905273438e+01,-1.631865386962890625e+02,6.193149185180664062e+01,-1.090856323242187500e+02,8.585708618164062500e+01,1.714319419860839844e+01,6.065374755859375000e+01,1.741647033691406250e+02,3.428499221801757812e+01,5.461700820922851562e+01
4.239999949932098389e-01,2.000000000000000000e+00,2.906581878662109375e+01,-5.822802543640136719e+00,5.905226516723632812e+01,-1.631959381103515625e+02,6.194069671630859375e+01,-1.090648269653320312e+02,8.582080078125000000e+01,1.712180519104003906e+01,6.062481307983398438e+01,1.741711425781250000e+02,3.429861831665039062e+01,5.460923767089843750e+01
4.280000030994415283e-01,2.000000000000000000e+00,2.899812507629394531e+01,-5.787629127502441406e+00,5.902495956420898438e+01,-1.632053222656250000e+02,6.194990539550781250e+01,-1.090440292358398438e+02,8.578453063964843750e+01,1.710042381286621094e+01,6.059589004516601562e+01,1.741775512695312500e+02,3.431224060058593750e+01,5.460147094726562500e+01
4.320000112056732178e-01,2.000000000000000000e+00,2.893045234680175781e+01,-5.752467632293701172e+00,5.899765014648437500e+01,-1.632147064208984375e+02,6.195911407470703125e+01,-1.090232315063476562e+02,8.574827575683593750e+01,1.707904815673828125e+01,6.056697082519531250e+01,1.741839904785156250e+02,3.432585906982421875e+01,5.459370803833007812e+01
4.359999895095825195e-01,2.000000000000000000e+00,2.886279869079589844e+01,-5.717317104339599609e+00,5.897035980224609375e+01,-1.632240905761718750e+02,6.196831130981445312e+01,-1.090024490356445312e+02,8.571203613281250000e+01,1.705768013000488281e+01,6.053806304931640625e+01,1.741904144287109375e+02,3.433947753906250000e+01,5.458594512939453125e+01
4.399999976158142090e-01,2.000000000000000000e+00,2.879516983032226562e+01,-5.682178020477294922e+00,5.894307327270507812e+01,-1.632334594726562500e+02,6.197750473022460938e+01,-1.089816741943359375e+02,8.567580413818359375e+01,1.703631973266601562e+01,6.050917434692382812e+01,1.741968383789062500e+02,3.435308456420898438e+01,5.457818603515625000e+01
4.440000057220458984e-01,2.000000000000000000e+00,2.872755813598632812e+01,-5.647049427032470703e+00,5.891579818725585938e+01,-1.632428436279296875e+02,6.198670578002929688e+01,-1.089608993530273438e+02,8.563957977294921875e+01,1.701496505737304688e+01,6.048028182983398438e+01,1.742032470703125000e+02,3.436669158935546875e+01,5.457043075561523438e+01
4.480000138282775879e-01,2.000000000000000000e+00,2.865997314453125000e+01,-5.611932277679443359e+00,5.888852691650390625e+01,-1.632522125244140625e+02,6.199589157104492188e+01,-1.089401321411132812e+02,8.560337066650390625e+01,1.699361610412597656e+01,6.045140457153320312e+01,1.742096710205078125e+02,3.438029098510742188e+01,5.456267547607421875e+01
4.519999921321868896e-01,2.000000000000000000e+00,2.859240531921386719e+01,-5.576826572418212891e+00,5.886126708984375000e+01,-1.632615966796875000e+02,6.200508499145507812e+01,-1.089193725585937500e+02,8.556717681884765625e+01,1.697227478027343750e+01,6.042253112792968750e+01,1.742160797119140625e+02,3.439389038085937500e+01,5.455492782592773438e+01
4.560000002384185791e-01,2.000000000000000000e+00,2.852486038208007812e+01,-5.541732311248779297e+00,5.883402252197265625e+01,-1.632709503173828125e+02,6.201427459716796875e+01,-1.088986206054687500e+02,8.553098297119140625e+01,1.695093917846679688e+01,6.039367294311523438e+01,1.742225036621093750e+02,3.440748214721679688e+01,5.454718017578125000e+01
4.600000083446502686e-01,2.000000000000000000e+00,2.845733642578125000e+01,-5.506648540496826172e+00,5.880677413940429688e+01,-1.632803192138671875e+02,6.202345275878906250e+01,-1.088778762817382812e+02,8.549481201171875000e+01,1.692961311340332031e+01,6.036482238769531250e+01,1.742289123535156250e+02,3.442107009887695312e+01,5.453942871093750000e+01
4.639999866485595703e-01,2.000000000000000000e+00,2.838983535766601562e+01,-5.471575736999511719e+00,5.877954483032226562e+01,-1.632896728515625000e+02,6.203263092041015625e+01,-1.088571319580078125e+02,8.545864868164062500e+01,1.690829277038574219e+01,6.033597946166992188e+01,1.742353210449218750e+02,3.443465042114257812e+01,5.453168869018554688e+01
4.679999947547912598e-01,2.000000000000000000e+00,2.832235527038574219e+01,-5.436514854431152344e+00,5.875231933593750000e+01,-1.632990264892578125e+02,6.204181289672851562e+01,-1.088364028930664062e+02,8.542249298095703125e+01,1.688697624206542969e+01,6.030714797973632812e+01,1.742417144775390625e+02,3.444823455810546875e+01,5.452394485473632812e+01
4.720000028610229492e-01,2.000000000000000000e+00,2.825489425659179688e+01,-5.401464462280273438e+00,5.872510147094726562e+01,-1.633083953857421875e+02,6.205098342895507812e+01,-1.088156738281250000e+02,8.538635253906250000e+01,1.686566925048828125e+01,6.027832412719726562e+01,1.742481231689453125e+02,3.446180725097656250e+01,5.451620864868164062e+01
4.760000109672546387e-01,2.000000000000000000e+00,2.818745613098144531e+01,-5.366425514221191406e+00,5.869789505004882812e+01,-1.633177490234375000e+02,6.206015777587890625e+01,-1.087949523925781250e+02,8.535021972656250000e+01,1.684436798095703125e+01,6.024951553344726562e+01,1.742545318603515625e+02,3.447537994384765625e+01,5.450847244262695312e+01
4.799999892711639404e-01,2.000000000000000000e+00,2.812004089355468750e+01,-5.331397533416748047e+00,5.867069625854492188e+01,-1.633270874023437500e+02,6.206932449340820312e+01,-1.087742385864257812e+02,8.531410217285156250e+01,1.682307624816894531e+01,6.022070693969726562e+01,1.742609405517578125e+02,3.448894500732421875e+01,5.450073623657226562e+01
4.839999973773956299e-01,2.000000000000000000e+00,2.805264663696289062e+01,-5.296380519866943359e+00,5.864350509643554688e+01,-1.633364410400390625e+02,6.207849121093750000e+01,-1.087535324096679688e+02,8.527799987792968750e+01,1.680178833007812500e+01,6.019190979003906250e+01,1.742673339843750000e+02,3.450250625610351562e+01,5.449300384521484375e+01
4.880000054836273193e-01,2.000000000000000000e+00,2.798527336120605469e+01,-5.261374950408935547e+00,5.861632156372070312e+01,-1.633457794189453125e+02,6.208765792846679688e+01,-1.087328262329101562e+02,8.524190521240234375e+01,1.678050804138183594e+01,6.016312789916992188e+01,1.742737426757812500e+02,3.451606369018554688e+01,5.448527526855468750e+01
4.920000135898590088e-01,2.000000000000000000e+00,2.791792106628417969e+01,-5.226380348205566406e+00,5.858915328979492188e+01,-1.633551177978515625e+02,6.209681701660156250e+01,-1.087121429443359375e+02,8.520581817626953125e+01,1.675923347473144531e+01,6.013434600830078125e+01,1.742801361083984375e+02,3.452961730957031250e+01,5.447754669189453125e+01
4.959999918937683105e-01,2.000000000000000000e+00,2.785058975219726562e+01,-5.191396713256835938e+00,5.856198883056640625e+01,-1.633644714355468750e+02,6.210596847534179688e+01,-1.086914520263671875e+02,8.516974639892578125e+01,1.673796844482421875e+01,6.010557556152343750e+01,1.742865295410156250e+02,3.454317092895507812e+01,5.446982192993164062e+01
5.000000000000000000e-01,2.000000000000000000e+00,2.778327941894531250e+01,-5.156424522399902344e+00,5.853483200073242188e+01,-1.633737945556640625e+02,6.211512756347656250e+01,-1.086707687377929688e+02,8.513368225097656250e+01,1.671670722961425781e+01,6.007682037353515625e+01,1.742929229736328125e+02,3.455671310424804688e+01,5.446210098266601562e+01
5.040000081062316895e-01,2.000000000000000000e+00,2.771599197387695312e+01,-5.121463775634765625e+00,5.850768280029296875e+01,-1.633831329345703125e+02,6.212427902221679688e+01,-1.086500930786132812e+02,8.509763336181640625e+01,1.669545364379882812e+01,6.004806518554687500e+01,1.742993011474609375e+02,3.457025527954101562e+01,5.445438385009765625e+01
5.080000162124633789e-01,2.000000000000000000e+00,2.764872550964355469e+01,-5.086514472961425781e+00,5.848054504394531250e+01,-1.633924560546875000e+02,6.213342666625976562e+01,-1.086294250488281250e+02,8.506159973144531250e+01,1.667420578002929688e+01,6.001933288574218750e+01,1.743056945800781250e+02,3.458379364013671875e+01,5.444666671752929688e+01
5.120000243186950684e-01,2.000000000000000000e+00,2.758147811889648438e+01,-5.051576614379882812e+00,5.845341491699218750e+01,-1.634017791748046875e+02,6.214257049560546875e+01,-1.086087646484375000e+02,8.502556610107421875e+01,1.665296554565429688e+01,5.999059677124023438e+01,1.743120727539062500e+02,3.459732437133789062e+01,5.443894958496093750e+01
5.159999728202819824e-01,2.000000000000000000e+00,2.751425552368164062e+01,-5.016650676727294922e+00,5.842629241943359375e+01,-1.634111022949218750e+02,6.215171051025390625e+01,-1.085881118774414062e+02,8.498955535888671875e+01,1.663173294067382812e+01,5.996187591552734375e+01,1.743184661865234375e+02,3.461085510253906250e+01,5.443124008178710938e+01
5.199999809265136719e-01,2.000000000000000000e+00,2.744705200195312500e+01,-4.981735229492187500e+00,5.839917755126953125e+01,-1.634204254150390625e+02,6.216085433959960938e+01,-1.085674667358398438e+02,8.495355224609375000e+01,1.661050605773925781e+01,5.993316268920898438e+01,1.743248443603515625e+02,3.462437820434570312e+01,5.442352676391601562e+01
5.239999890327453613e-01,2.000000000000000000e+00,2.737987136840820312e+01,-4.946830749511718750e+00,5.837207412719726562e+01,-1.634297332763671875e+02,6.216998672485351562e+01,-1.085468215942382812e+02,8.491755676269531250e+01,1.658928680419921875e+01,5.990445327758789062e+01,1.743312225341796875e+02,3.463789367675781250e+01,5.441582489013671875e+01
5.279999971389770508e-01,2.000000000000000000e+00,2.731271171569824219e+01,-4.911937236785888672e+00,5.834497833251953125e+01,-1.634390563964843750e+02,6.217912673950195312e+01,-1.085261917114257812e+02,8.488157653808593750e+01,1.656807327270507812e+01,5.987576293945312500e+01,1.743376007080078125e+02,3.465141296386718750e+01,5.440811538696289062e+01
5.320000052452087402e-01,2.000000000000000000e+00,2.724557113647460938e+01,-4.877053737640380859e+00,5.831789016723632812e+01,-1.634483642578125000e+02,6.218825149536132812e+01,-1.085055541992187500e+02,8.484561157226562500e+01,1.654686546325683594e+01,5.984707260131835938e+01,1.743439636230468750e+02,3.466492080688476562e+01,5.440041351318359375e+01
5.360000133514404297e-01,2.000000000000000000e+00,2.717845344543457031e+01,-4.842181205749511719e+00,5.829081726074218750e+01,-1.634576721191406250e+02,6.219738388061523438e+01,-1.084849319458007812e+02,8.480964660644531250e+01,1.652566719055175781e+01,5.981839370727539062e+01,1.743503417968750000e+02,3.467842864990234375e+01,5.439271545410156250e+01
5.400000214576721191e-01,2.000000000000000000e+00,2.711135482788085938e+01,-4.807319641113281250e+00,5.826374053955078125e+01,-1.634669799804687500e+02,6.220650863647460938e+01,-1.084643173217773438e+02,8.477369689941406250e+01,1.650447463989257812e+01,5.978972625732421875e+01,1.743567199707031250e+02,3.469193267822265625e+01,5.438501739501953125e+01
5.440000295639038086e-01,2.000000000000000000e+00,2.704427909851074219e+01,-4.772469043731689453e+00,5.823667907714843750e+01,-1.634762725830078125e+02,6.221563339233398438e+01,-1.084437103271484375e+02,8.473776245117187500e+01,1.648328781127929688e+01,5.976107025146484375e+01,1.743630981445312500e+02,3.470542907714843750e+01,5.437732315063476562e+01
5.479999780654907227e-01,2.000000000000000000e+00,2.697722434997558594e+01,-4.737628936767578125e+00,5.820963287353515625e+01,-1.634855804443359375e+02,6.222475051879882812e+01,-1.084231109619140625e+02,8.470183563232421875e+01,1.646210670471191406e+01,5.973241424560546875e+01,1.743694610595703125e+02,3.471892547607421875e+01,5.436963272094726562e+01
5.519999861717224121e-01,2.000000000000000000e+00,2.691019058227539062e+01,-4.702799797058105469e+00,5.818258285522460938e+01,-1.634948883056640625e+02,6.223387145996093750e+01,-1.084025039672851562e+02,8.466592407226562500e+01,1.644093513488769531e+01,5.970376968383789062e+01,1.743758239746093750e+02,3.473241424560546875e+01,5.436194229125976562e+01
5.559999942779541016e-01,2.000000000000000000e+00,2.684317779541015625e+01,-4.667982101440429688e+00,5.815555191040039062e+01,-1.635041656494140625e+02,6.224298095703125000e+01,-1.083819198608398438e+02,8.463002777099609375e+01,1.641976737976074219e+01,5.967513656616210938e+01,1.743821716308593750e+02,3.474589538574218750e+01,5.435425186157226562e+01
5.600000023841857910e-01,2.000000000000000000e+00,2.677618598937988281e+01,-4.633175849914550781e+00,5.812852478027343750e+01,-1.635134582519531250e+02,6.225209426879882812e+01,-1.083613357543945312e+02,8.459413146972656250e+01,1.639860725402832031e+01,5.964651870727539062e+01,1.743885498046875000e+02,3.475938034057617188e+01,5.434656524658203125e+01
5.640000104904174805e-01,2.000000000000000000e+00,2.670921516418457031e+01,-4.598379611968994141e+00,5.810150527954101562e+01,-1.635227508544921875e+02,6.226119613647460938e+01,-1.083407592773437500e+02,8.455825805664062500e+01,1.637745475769042969e+01,5.961790084838867188e+01,1.743949127197265625e+02,3.477285385131835938e+01,5.433888244628906250e+01
5.680000185966491699e-01,2.000000000000000000e+00,2.664226531982421875e+01,-4.563594341278076172e+00,5.807448959350585938e+01,-1.635320434570312500e+02,6.227030181884765625e+01,-1.083201904296875000e+02,8.452239227294921875e+01,1.635630798339843750e+01,5.958929443359375000e+01,1.744012603759765625e+02,3.478632736206054688e+01,5.433119964599609375e+01
5.720000267028808594e-01,2.000000000000000000e+00,2.657533836364746094e+01,-4.528820514678955078e+00,5.804748916625976562e+01,-1.635413208007812500e+02,6.227940750122070312e+01,-1.082996215820312500e+02,8.448653411865234375e+01,1.633516693115234375e+01,5.956069946289062500e+01,1.744076080322265625e+02,3.479979705810546875e+01,5.432352447509765625e+01
5.759999752044677734e-01,2.000000000000000000e+00,2.650842857360839844e+01,-4.494057178497314453e+00,5.802049636840820312e+01,-1.635505828857421875e+02,6.228850555419921875e+01,-1.082790756225585938e+02,8.445068359375000000e+01,1.631403541564941406e+01,5.953211212158203125e+01,1.744139709472656250e+02,3.481326293945312500e+01,5.431584930419921875e+01
5.799999833106994629e-01,2.000000000000000000e+00,2.644154167175292969e+01,-4.459305286407470703e+00,5.799351119995117188e+01,-1.635598602294921875e+02,6.229760360717773438e+01,-1.082585220336914062e+02,8.441484832763671875e+01,1.629290771484375000e+01,5.950353622436523438e+01,1.744203186035156250e+02,3.482672119140625000e+01,5.430817794799804688e+01
5.839999914169311523e-01,2.000000000000000000e+00,2.637467765808105469e+01,-4.424563884735107422e+00,5.796653366088867188e+01,-1.635691375732421875e+02,6.230670166015625000e+01,-1.082379760742187500e+02,8.437902069091796875e+01,1.627178955078125000e+01,5.947496414184570312e+01,1.744266662597656250e+02,3.484017562866210938e+01,5.430050277709960938e+01
5.879999995231628418e-01,2.000000000000000000e+00,2.630783081054687500e+01,-4.389833450317382812e+00,5.793956756591796875e+01,-1.635784149169921875e+02,6.231579208374023438e+01,-1.082174377441406250e+02,8.434321594238281250e+01,1.625067520141601562e+01,5.944640350341796875e+01,1.744330139160156250e+02,3.485363006591796875e+01,5.429283523559570312e+01
5.920000076293945312e-01,2.000000000000000000e+00,2.624100875854492188e+01,-4.355113983154296875e+00,5.791260910034179688e+01,-1.635876770019531250e+02,6.232487487792968750e+01,-1.081969070434570312e+02,8.430741882324218750e+01,1.622956848144531250e+01,5.941785049438476562e+01,1.744393615722656250e+02,3.486707687377929688e+01,5.428516769409179688e+01
5.960000157356262207e-01,2.000000000000000000e+00,2.617420578002929688e+01,-4.320405483245849609e+00,5.788565444946289062e+01,-1.635969543457031250e+02,6.233396148681640625e+01,-1.081763839721679688e+02,8.427162933349609375e+01,1.620846748352050781e+01,5.938930892944335938e+01,1.744456939697265625e+02,3.488051986694335938e+01,5.427750778198242188e+01
6.000000238418579102e-01,2.000000000000000000e+00,2.610742378234863281e+01,-4.285707473754882812e+00,5.785871124267578125e+01,-1.636062011718750000e+02,6.234304428100585938e+01,-1.081558609008789062e+02,8.423584747314453125e+01,1.618737411499023438e+01,5.936077117919921875e+01,1.744520568847656250e+02,3.489395904541015625e+01,5.426984405517578125e+01
6.039999723434448242e-01,2.000000000000000000e+00,2.604066085815429688e+01,-4.251020431518554688e+00,5.783177947998046875e+01,-1.636154632568359375e+02,6.235212326049804688e+01,-1.081353530883789062e+02,8.420008087158203125e+01,1.616628837585449219e+01,5.933224868774414062e+01,1.744583892822265625e+02,3.490739440917968750e+01,5.426218414306640625e+01
6.079999804496765137e-01,2.000000000000000000e+00,2.597392272949218750e+01,-4.216344356536865234e+00,5.780484771728515625e+01,-1.636247253417968750e+02,6.236119842529296875e+01,-1.081148376464843750e+02,8.416432189941406250e+01,1.614520645141601562e+01,5.930373382568359375e+01,1.744647216796875000e+02,3.492082595825195312e+01,5.425452804565429688e+01
6.119999885559082031e-01,2.000000000000000000e+00,2.590720367431640625e+01,-4.181677818298339844e+00,5.777793121337890625e+01,-1.636339721679687500e+02,6.237027740478515625e+01,-1.080943450927734375e+02,8.412857818603515625e+01,1.612413406372070312e+01,5.927522277832031250e+01,1.744710540771484375e+02,3.493425369262695312e+01,5.424687576293945312e+01
6.159999966621398926e-01,2.000000000000000000e+00,2.584050559997558594e+01,-4.147023200988769531e+00,5.775102615356445312e+01,-1.636432189941406250e+02,6.237934494018554688e+01,-1.080738525390625000e+02,8.409284973144531250e+01,1.610306549072265625e+01,5.924672698974609375e+01,1.744773864746093750e+02,3.494767379760742188e+01,5.423922348022460938e+01
6.200000047683715820e-01,2.000000000000000000e+00,2.577382469177246094e+01,-4.112379074096679688e+00,5.772412109375000000e+01,-1.636524658203125000e+02,6.238840866088867188e+01,-1.080533599853515625e+02,8.405712127685546875e+01,1.608200454711914062e+01,5.921823883056640625e+01,1.744837341308593750e+02,3.496109390258789062e+01,5.423157119750976562e+01
6.240000128746032715e-01,2.000000000000000000e+00,2.570716857910156250e+01,-4.077746391296386719e+00,5.769723129272460938e+01,-1.636617126464843750e+02,6.239748001098632812e+01,-1.080328826904296875e+02,8.402140808105468750e+01,1.606095123291015625e+01,5.918975830078125000e+01,1.744900512695312500e+02,3.497450637817382812e+01,5.422392654418945312e+01
6.280000209808349609e-01,2.000000000000000000e+00,2.564053153991699219e+01,-4.043123722076416016e+00,5.767034912109375000e+01,-1.636709442138671875e+02,6.240654373168945312e+01,-1.080124053955078125e+02,8.398571777343750000e+01,1.603990364074707031e+01,5.916128921508789062e+01,1.744963836669921875e+02,3.498791503906250000e+01,5.421628189086914062e+01
6.320000290870666504e-01,2.000000000000000000e+00,2.557391548156738281e+01,-4.008512020111083984e+00,5.764347076416015625e+01,-1.636802062988281250e+02,6.241559982299804688e+01,-1.079919357299804688e+02,8.395001983642578125e+01,1.601886367797851562e+01,5.913282012939453125e+01,1.745027008056640625e+02,3.500132369995117188e+01,5.420864105224609375e+01
6.359999775886535645e-01,2.000000000000000000e+00,2.550732040405273438e+01,-3.973911285400390625e+00,5.761660003662109375e+01,-1.636894378662109375e+02,6.242465972900390625e+01,-1.079714813232421875e+02,8.391434478759765625e+01,1.599782848358154297e+01,5.910436630249023438e+01,1.745090332031250000e+02,3.501472091674804688e+01,5.420100021362304688e+01
6.399999856948852539e-01,2.000000000000000000e+00,2.544074630737304688e+01,-3.939321041107177734e+00,5.758974456787109375e+01,-1.636986694335937500e+02,6.243371582031250000e+01,-1.079510269165039062e+02,8.387867736816406250e+01,1.597679996490478516e+01,5.907592391967773438e+01,1.745153503417968750e+02,3.502812194824218750e+01,5.419336318969726562e+01
6.439999938011169434e-01,2.000000000000000000e+00,2.537419128417968750e+01,-3.904741525650024414e+00,5.756288909912109375e+01,-1.637078857421875000e+02,6.244276428222656250e+01,-1.079305725097656250e+02,8.384301757812500000e+01,1.595577812194824219e+01,5.904748535156250000e+01,1.745216674804687500e+02,3.504151153564453125e+01,5.418572998046875000e+01
6.480000019073486328e-01,2.000000000000000000e+00,2.530765724182128906e+01,-3.870172739028930664e+00,5.753604507446289062e+01,-1.637171173095703125e+02,6.245181655883789062e+01,-1.079101333618164062e+02,8.380738067626953125e+01,1.593476295471191406e+01,5.901905822753906250e+01,1.745279846191406250e+02,3.505490112304687500e+01,5.417809677124023438e+01
6.520000100135803223e-01,2.000000000000000000e+00,2.524114418029785156e+01,-3.835613965988159180e+00,5.750920867919921875e+01,-1.637263488769531250e+02,6.246085739135742188e+01,-1.078896942138671875e+02,8.377173614501953125e+01,1.591375541687011719e+01,5.899063873291015625e+01,1.745343017578125000e+02,3.506828689575195312e+01,5.417046356201171875e+01
6.560000181198120117e-01,2.000000000000000000e+00,2.517465019226074219e+01,-3.801066398620605469e+00,5.748238754272460938e+01,-1.637355651855468750e+02,6.246990203857421875e+01,-1.078692703247070312e+02,8.373612213134765625e+01,1.589275264739990234e+01,5.896223068237304688e+01,1.745406036376953125e+02,3.508166503906250000e+01,5.416283798217773438e+01
6.600000262260437012e-01,2.000000000000000000e+00,2.510817909240722656e+01,-3.766529560089111328e+00,5.745556640625000000e+01,-1.637447814941406250e+02,6.247894287109375000e+01,-1.078488464355468750e+02,8.370050811767578125e+01,1.587175655364990234e+01,5.893383026123046875e+01,1.745469207763671875e+02,3.509504318237304688e+01,5.415521240234375000e+01
6.639999747276306152e-01,2.000000000000000000e+00,2.504172515869140625e+01,-3.732002973556518555e+00,5.742875671386718750e+01,-1.637540130615234375e+02,6.248797988891601562e+01,-1.078284225463867188e+02,8.366490173339843750e+01,1.585076713562011719e+01,5.890543746948242188e+01,1.745532379150390625e+02,3.510841751098632812e+01,5.414758682250976562e+01
6.679999828338623047e-01,2.000000000000000000e+00,2.497529602050781250e+01,-3.697487115859985352e+00,5.740195465087890625e+01,-1.637632141113281250e+02,6.249701690673828125e+01,-1.078080139160156250e+02,8.362931823730468750e+01,1.582978534698486328e+01,5.887705230712890625e+01,1.745595397949218750e+02,3.512178421020507812e+01,5.413996505737304688e+01
6.719999909400939941e-01,2.000000000000000000e+00,2.490888404846191406e+01,-3.662981748580932617e+00,5.737516784667968750e+01,-1.637724151611328125e+02,6.250604629516601562e+01,-1.077876129150390625e+02,8.359372711181640625e+01,1.580880737304687500e+01,5.884867858886718750e+01,1.745658569335937500e+02,3.513515090942382812e+01,5.413234710693359375e+01
6.759999990463256836e-01,2.000000000000000000e+00,2.484249305725097656e+01,-3.628487348556518555e+00,5.734838104248046875e+01,-1.637816314697265625e+02,6.251507568359375000e+01,-1.077672119140625000e+02,8.355816650390625000e+01,1.578783702850341797e+01,5.882030487060546875e+01,1.745721588134765625e+02,3.514850997924804688e+01,5.412473297119140625e+01
6.800000071525573730e-01,2.000000000000000000e+00,2.477612304687500000e+01,-3.594002962112426758e+00,5.732160568237304688e+01,-1.637908325195312500e+02,6.252409744262695312e+01,-1.077468185424804688e+02,8.352260589599609375e+01,1.576687335968017578e+01,5.879195404052734375e+01,1.745784606933593750e+02,3.516186523437500000e+01,5.411711502075195312e+01
6.840000152587890625e-01,2.000000000000000000e+00,2.470977210998535156e+01,-3.559529542922973633e+00,5.729483413696289062e+01,-1.638000488281250000e+02,6.253312683105468750e+01,-1.077264328002929688e+02,8.348705291748046875e+01,1.574591732025146484e+01,5.876360321044921875e+01,1.745847625732421875e+02,3.517521667480468750e+01,5.410950469970703125e+01
6.880000233650207520e-01,2.000000000000000000e+00,2.464344215393066406e+01,-3.525066375732421875e+00,5.726807403564453125e+01,-1.638092346191406250e+02,6.254214477539062500e+01,-1.077060546875000000e+02,8.345152282714843750e+01,1.572496509552001953e+01,5.873526382446289062e+01,1.745910644531250000e+02,3.518856430053710938e+01,5.410189437866210938e+01
6.919999718666076660e-01,2.000000000000000000e+00,2.457713317871093750e+01,-3.490613937377929688e+00,5.724132156372070312e+01,-1.638184356689453125e+02,6.255116653442382812e+01,-1.076856765747070312e+02,8.341599273681640625e+01,1.570402240753173828e+01,5.870692443847656250e+01,1.745973510742187500e+02,3.520191192626953125e+01,5.409428787231445312e+01
6.959999799728393555e-01,2.000000000000000000e+00,2.451084518432617188e+01,-3.456171751022338867e+00,5.721457672119140625e+01,-1.638276214599609375e+02,6.256018447875976562e+01,-1.076653137207031250e+02,8.338048553466796875e+01,1.568308448791503906e+01,5.867860794067382812e+01,1.746036529541015625e+02,3.521525192260742188e+01,5.408668518066406250e+01
6.999999880790710449e-01,2.000000000000000000e+00,2.444457435607910156e+01,-3.421740293502807617e+00,5.718783950805664062e+01,-1.638368225097656250e+02,6.256919097900390625e+01,-1.076449508666992188e+02,8.334497833251953125e+01,1.566215133666992188e+01,5.865028762817382812e+01,1.746099395751953125e+02,3.522858428955078125e+01,5.407908248901367188e+01
7.039999961853027344e-01,2.000000000000000000e+00,2.437832450866699219e+01,-3.387319326400756836e+00,5.716111373901367188e+01,-1.638459930419921875e+02,6.257820129394531250e+01,-1.076245956420898438e+02,8.330948638916015625e+01,1.564122772216796875e+01,5.862198257446289062e+01,1.746162261962890625e+02,3.524192047119140625e+01,5.407147979736328125e+01
7.080000042915344238e-01,2.000000000000000000e+00,2.431209564208984375e+01,-3.352908849716186523e+00,5.713439178466796875e+01,-1.638551940917968750e+02,6.258721160888671875e+01,-1.076042480468750000e+02,8.327400207519531250e+01,1.562030792236328125e+01,5.859368515014648438e+01,1.746225128173828125e+02,3.525524520874023438e+01,5.406388092041015625e+01
7.120000123977661133e-01,2.000000000000000000e+00,2.424588775634765625e+01,-3.318508625030517578e+00,5.710768127441406250e+01,-1.638643646240234375e+02,6.259621047973632812e+01,-1.075839004516601562e+02,8.323853302001953125e+01,1.559939575195312500e+01,5.856539535522460938e+01,1.746287994384765625e+02,3.526856994628906250e+01,5.405628585815429688e+01
7.160000205039978027e-01,2.000000000000000000e+00,2.417969894409179688e+01,-3.284119129180908203e+00,5.708097839355468750e+01,-1.638735504150390625e+02,6.260521316528320312e+01,-1.075635681152343750e+02,8.320307159423828125e+01,1.557848834991455078e+01,5.853711318969726562e+01,1.746350860595703125e+02,3.528189086914062500e+01,5.404869461059570312e+01
7.200000286102294922e-01,2.000000000000000000e+00,2.411353302001953125e+01,-3.249740123748779297e+00,5.705428314208984375e+01,-1.638827209472656250e+02,6.261421585083007812e+01,-1.075432357788085938e+02,8.316762542724609375e+01,1.555758953094482422e+01,5.850884246826171875e+01,1.746413726806640625e+02,3.529520416259765625e+01,5.404110336303710938e+01
7.239999771118164062e-01,2.000000000000000000e+00,2.404738426208496094e+01,-3.215371370315551758e+00,5.702759170532226562e+01,-1.638918914794921875e+02,6.262321090698242188e+01,-1.075229187011718750e+02,8.313218688964843750e+01,1.553669643402099609e+01,5.848057937622070312e+01,1.746476593017578125e+02,3.530851745605468750e+01,5.403351593017578125e+01
7.279999852180480957e-01,2.000000000000000000e+00,2.398125457763671875e+01,-3.181013345718383789e+00,5.700091552734375000e+01,-1.639010772705078125e+02,6.263220596313476562e+01,-1.075025939941406250e+02,8.309675598144531250e+01,1.551581001281738281e+01,5.845232772827148438e+01,1.746539306640625000e+02,3.532182312011718750e+01,5.402592468261718750e+01
7.319999933242797852e-01,2.000000000000000000e+00,2.391514778137207031e+01,-3.146665573120117188e+00,5.697424316406250000e+01,-1.639102325439453125e+02,6.264119720458984375e+01,-1.074822845458984375e+02,8.306134033203125000e+01,1.549492835998535156e+01,5.842407989501953125e+01,1.746602020263671875e+02,3.533512878417968750e+01,5.401834487915039062e+01
7.360000014305114746e-01,2.000000000000000000e+00,2.384906005859375000e+01,-3.112328290939331055e+00,5.694758224487304688e+01,-1.639194030761718750e+02,6.265018463134765625e+01,-1.074619750976562500e+02,8.302593231201171875e+01,1.547405338287353516e+01,5.839584350585937500e+01,1.746664886474609375e+02,3.534842681884765625e+01,5.401076126098632812e+01
7.400000095367431641e-01,2.000000000000000000e+00,2.378299140930175781e+01,-3.078001499176025391e+00,5.692092514038085938e+01,-1.639285583496093750e+02,6.265916442871093750e+01,-1.074416809082031250e+02,8.299053192138671875e+01,1.545318508148193359e+01,5.836761474609375000e+01,1.746727600097656250e+02,3.536172103881835938e+01,5.400318145751953125e+01
7.440000176429748535e-01,2.000000000000000000e+00,2.371694374084472656e+01,-3.043685197830200195e+00,5.689427947998046875e+01,-1.639377288818359375e+02,6.266815567016601562e+01,-1.074213867187500000e+02,8.295515441894531250e+01,1.543232440948486328e+01,5.833939361572265625e+01,1.746790313720703125e+02,3.537501144409179688e+01,5.399560546875000000e+01
7.480000257492065430e-01,2.000000000000000000e+00,2.365091705322265625e+01,-3.009379148483276367e+00,5.686764144897460938e+01,-1.639468841552734375e+02,6.267712783813476562e+01,-1.074011001586914062e+02,8.291977691650390625e+01,1.541146850585937500e+01,5.831118392944335938e+01,1.746853027343750000e+02,3.538829803466796875e+01,5.398802947998046875e+01
7.519999742507934570e-01,2.000000000000000000e+00,2.358490943908691406e+01,-2.975083589553833008e+00,5.684100723266601562e+01,-1.639560241699218750e+02,6.268611145019531250e+01,-1.073808212280273438e+02,8.288441467285156250e+01,1.539062118530273438e+01,5.828298187255859375e+01,1.746915740966796875e+02,3.540158081054687500e+01,5.398045730590820312e+01
7.559999823570251465e-01,2.000000000000000000e+00,2.351892089843750000e+01,-2.940798282623291016e+00,5.681438827514648438e+01,-1.639651794433593750e+02,6.269508743286132812e+01,-1.073605422973632812e+02,8.284906005859375000e+01,1.536977672576904297e+01,5.825478744506835938e+01,1.746978454589843750e+02,3.541486358642578125e+01,5.397288513183593750e+01
7.599999904632568359e-01,2.000000000000000000e+00,2.345295524597167969e+01,-2.906523704528808594e+00,5.678776931762695312e+01,-1.639743347167968750e+02,6.270405197143554688e+01,-1.073402786254882812e+02,8.281372070312500000e+01,1.534894084930419922e+01,5.822659683227539062e+01,1.747041015625000000e+02,3.542813873291015625e+01,5.396531677246093750e+01
7.639999985694885254e-01,2.000000000000000000e+00,2.338700675964355469e+01,-2.872259140014648438e+00,5.676116943359375000e+01,-1.639834747314453125e+02,6.271302032470703125e+01,-1.073200073242187500e+02,8.277838897705078125e+01,1.532811069488525391e+01,5.819842529296875000e+01,1.747103576660156250e+02,3.544140625000000000e+01,5.395775222778320312e+01
7.680000066757202148e-01,2.000000000000000000e+00,2.332107925415039062e+01,-2.838005065917968750e+00,5.673456573486328125e+01,-1.639926300048828125e+02,6.272198867797851562e+01,-1.072997512817382812e+02,8.274306488037109375e+01,1.530728721618652344e+01,5.817024993896484375e+01,1.747166290283203125e+02,3.545467758178710938e+01,5.395018768310546875e+01
7.720000147819519043e-01,2.000000000000000000e+00,2.325517272949218750e+01,-2.803761482238769531e+00,5.670797729492187500e+01,-1.640017700195312500e+02,6.273094940185546875e+01,-1.072795104980468750e+02,8.270775604248046875e+01,1.528646850585937500e+01,5.814208984375000000e+01,1.747228851318359375e+02,3.546793746948242188e+01,5.394262695312500000e+01
7.760000228881835938e-01,2.000000000000000000e+00,2.318928527832031250e+01,-2.769528150558471680e+00,5.668139266967773438e+01,-1.640109100341796875e+02,6.273991394042968750e+01,-1.072592620849609375e+02,8.267246246337890625e+01,1.526565933227539062e+01,5.811394119262695312e+01,1.747291412353515625e+02,3.548119735717773438e+01,5.393507003784179688e+01
7.799999713897705078e-01,2.000000000000000000e+00,2.312341880798339844e+01,-2.735305309295654297e+00,5.665482330322265625e+01,-1.640200347900390625e+02,6.274887466430664062e+01,-1.072390289306640625e+02,8.263716888427734375e+01,1.524485397338867188e+01,5.808579254150390625e+01,1.747353973388671875e+02,3.549444961547851562e+01,5.392751312255859375e+01
7.839999794960021973e-01,2.000000000000000000e+00,2.305756950378417969e+01,-2.701092958450317383e+00,5.662825393676757812e+01,-1.640291595458984375e+02,6.275782775878906250e+01,-1.072187957763671875e+02,8.260189056396484375e+01,1.522405433654785156e+01,5.805765914916992188e+01,1.747416381835937500e+02,3.550770187377929688e+01,5.391996002197265625e+01
7.879999876022338867e-01,2.000000000000000000e+00,2.299174118041992188e+01,-2.666890621185302734e+00,5.660169601440429688e+01,-1.640382995605468750e+02,6.276678085327148438e+01,-1.071985626220703125e+02,8.256662750244140625e+01,1.520326328277587891e+01,5.802953338623046875e+01,1.747478942871093750e+02,3.552095031738281250e+01,5.391240692138671875e+01
7.919999957084655762e-01,2.000000000000000000e+00,2.292593383789062500e+01,-2.632698774337768555e+00,5.657514572143554688e+01,-1.640474243164062500e+02,6.277573013305664062e+01,-1.071783447265625000e+02,8.253137207031250000e+01,1.518247795104980469e+01,5.800141525268554688e+01,1.747541351318359375e+02,3.553419113159179688e+01,5.390485763549804688e+01
7.960000038146972656e-01,2.000000000000000000e+00,2.286014747619628906e+01,-2.598517179489135742e+00,5.654860687255859375e+01,-1.640565490722656250e+02,6.278467559814453125e+01,-1.071581344604492188e+02,8.249611663818359375e+01,1.516169643402099609e+01,5.797330856323242188e+01,1.747603912353515625e+02,3.554743194580078125e+01,5.389730834960937500e+01
8.000000119209289551e-01,2.000000000000000000e+00,2.279437637329101562e+01,-2.564345836639404297e+00,5.652207183837890625e+01,-1.640656738281250000e+02,6.279362487792968750e+01,-1.071379241943359375e+02,8.246089172363281250e+01,1.514092445373535156e+01,5.794520950317382812e+01,1.747666320800781250e+02,3.556066513061523438e+01,5.388976669311523438e+01
8.040000200271606445e-01,2.000000000000000000e+00,2.272863006591796875e+01,-2.530184984207153320e+00,5.649554443359375000e+01,-1.640747833251953125e+02,6.280256652832031250e+01,-1.071177215576171875e+02,8.242565917968750000e+01,1.512015724182128906e+01,5.791711425781250000e+01,1.747728729248046875e+02,3.557389831542968750e+01,5.388222122192382812e+01
8.080000281333923340e-01,2.000000000000000000e+00,2.266290092468261719e+01,-2.496034383773803711e+00,5.646902847290039062e+01,-1.640839080810546875e+02,6.281150054931640625e+01,-1.070975341796875000e+02,8.239044952392578125e+01,1.509939479827880859e+01,5.788903045654296875e+01,1.747791137695312500e+02,3.558712768554687500e+01,5.387468338012695312e+01
8.119999766349792480e-01,2.000000000000000000e+00,2.259719276428222656e+01,-2.461894035339355469e+00,5.644252014160156250e+01,-1.640930175781250000e+02,6.282043838500976562e+01,-1.070773391723632812e+02,8.235524749755859375e+01,1.507864189147949219e+01,5.786095809936523438e+01,1.747853698730468750e+02,3.560034942626953125e+01,5.386714553833007812e+01
8.159999847412109375e-01,2.000000000000000000e+00,2.253150367736816406e+01,-2.427764177322387695e+00,5.641601562500000000e+01,-1.641021270751953125e+02,6.282937240600585938e+01,-1.070571594238281250e+02,8.232005310058593750e+01,1.505789375305175781e+01,5.783288574218750000e+01,1.747915954589843750e+02,3.561356735229492188e+01,5.385960769653320312e+01
8.199999928474426270e-01,2.000000000000000000e+00,2.246583366394042969e+01,-2.393644332885742188e+00,5.638951873779296875e+01,-1.641112213134765625e+02,6.283830261230468750e+01,-1.070369796752929688e+02,8.228486633300781250e+01,1.503715133666992188e+01,5.780482864379882812e+01,1.747978363037109375e+02,3.562678146362304688e+01,5.385207366943359375e+01
8.240000009536743164e-01,2.000000000000000000e+00,2.240018463134765625e+01,-2.359534740447998047e+00,5.636303710937500000e+01,-1.641203308105468750e+02,6.284723663330078125e+01,-1.070168151855468750e+02,8.224970245361328125e+01,1.501641559600830078e+01,5.777678298950195312e+01,1.748040618896484375e+02,3.563999176025390625e+01,5.384454345703125000e+01
8.280000090599060059e-01,2.000000000000000000e+00,2.233455467224121094e+01,-2.325435638427734375e+00,5.633655548095703125e+01,-1.641294403076171875e+02,6.285615539550781250e+01,-1.069966430664062500e+02,8.221453857421875000e+01,1.499568557739257812e+01,5.774873733520507812e+01,1.748102874755859375e+02,3.565320205688476562e+01,5.383701324462890625e+01
8.320000171661376953e-01,2.000000000000000000e+00,2.226894569396972656e+01,-2.291346549987792969e+00,5.631008911132812500e+01,-1.641385345458984375e+02,6.286508178710937500e+01,-1.069764862060546875e+02,8.217938995361328125e+01,1.497496318817138672e+01,5.772070693969726562e+01,1.748165283203125000e+02,3.566640472412109375e+01,5.382948684692382812e+01
8.360000252723693848e-01,2.000000000000000000e+00,2.220335578918457031e+01,-2.257267951965332031e+00,5.628362655639648438e+01,-1.641476287841796875e+02,6.287400436401367188e+01,-1.069563293457031250e+02,8.214424896240234375e+01,1.495424556732177734e+01,5.769268417358398438e+01,1.748227539062500000e+02,3.567960357666015625e+01,5.382196426391601562e+01
8.399999737739562988e-01,2.000000000000000000e+00,2.213778495788574219e+01,-2.223199605941772461e+00,5.625717163085937500e+01,-1.641567230224609375e+02,6.288291549682617188e+01,-1.069361877441406250e+02,8.210912322998046875e+01,1.493353462219238281e+01,5.766466522216796875e+01,1.748289794921875000e+02,3.569279861450195312e+01,5.381443786621093750e+01
8.439999818801879883e-01,2.000000000000000000e+00,2.207223510742187500e+01,-2.189141511917114258e+00,5.623072433471679688e+01,-1.641658172607421875e+02,6.289183807373046875e+01,-1.069160461425781250e+02,8.207399749755859375e+01,1.491282844543457031e+01,5.763665390014648438e+01,1.748352050781250000e+02,3.570598983764648438e+01,5.380691909790039062e+01
8.479999899864196777e-01,2.000000000000000000e+00,2.200670433044433594e+01,-2.155093431472778320e+00,5.620428466796875000e+01,-1.641748962402343750e+02,6.290074920654296875e+01,-1.068959121704101562e+02,8.203889465332031250e+01,1.489213180541992188e+01,5.760865783691406250e+01,1.748414306640625000e+02,3.571917724609375000e+01,5.379940414428710938e+01
8.519999980926513672e-01,2.000000000000000000e+00,2.194119262695312500e+01,-2.121055603027343750e+00,5.617785644531250000e+01,-1.641839752197265625e+02,6.290965652465820312e+01,-1.068757858276367188e+02,8.200379180908203125e+01,1.487143802642822266e+01,5.758066558837890625e+01,1.748476409912109375e+02,3.573236083984375000e+01,5.379188537597656250e+01
8.560000061988830566e-01,2.000000000000000000e+00,2.187570190429687500e+01,-2.087028026580810547e+00,5.615143203735351562e+01,-1.641930694580078125e+02,6.291856384277343750e+01,-1.068556594848632812e+02,8.196870422363281250e+01,1.485075283050537109e+01,5.755268478393554688e+01,1.748538665771484375e+02,3.574554061889648438e+01,5.378437423706054688e+01
8.600000143051147461e-01,2.000000000000000000e+00,2.181022834777832031e+01,-2.053010702133178711e+00,5.612501907348632812e+01,-1.642021484375000000e+02,6.292747116088867188e+01,-1.068355484008789062e+02,8.193363189697265625e+01,1.483007240295410156e+01,5.752470779418945312e+01,1.748600921630859375e+02,3.575871658325195312e+01,5.377686309814453125e+01
8.640000224113464355e-01,2.000000000000000000e+00,2.174477577209472656e+01,-2.019003629684448242e+00,5.609861373901367188e+01,-1.642112274169921875e+02,6.293637084960937500e+01,-1.068154373168945312e+02,8.189856719970703125e+01,1.480939865112304688e+01,5.749674606323242188e+01,1.748663024902343750e+02,3.577188491821289062e+01,5.376935195922851562e+01
8.679999709129333496e-01,2.000000000000000000e+00,2.167934417724609375e+01,-1.985006928443908691e+00,5.607221221923828125e+01,-1.642203063964843750e+02,6.294527053833007812e+01,-1.067953262329101562e+02,8.186351013183593750e+01,1.478873062133789062e+01,5.746878051757812500e+01,1.748725128173828125e+02,3.578505706787109375e+01,5.376184844970703125e+01
8.719999790191650391e-01,2.000000000000000000e+00,2.161392974853515625e+01,-1.951020121574401855e+00,5.604582214355468750e+01,-1.642293701171875000e+02,6.295416259765625000e+01,-1.067752380371093750e+02,8.182846069335937500e+01,1.476806926727294922e+01,5.744083404541015625e+01,1.748787231445312500e+02,3.579821777343750000e+01,5.375434494018554688e+01
8.759999871253967285e-01,2.000000000000000000e+00,2.154853820800781250e+01,-1.917043566703796387e+00,5.601943969726562500e+01,-1.642384490966796875e+02,6.296305465698242188e+01,-1.067551422119140625e+02,8.179342651367187500e+01,1.474741554260253906e+01,5.741289901733398438e+01,1.748849334716796875e+02,3.581137847900390625e+01,5.374684143066406250e+01
8.799999952316284180e-01,2.000000000000000000e+00,2.148316383361816406e+01,-1.883077144622802734e+00,5.599306488037109375e+01,-1.642474975585937500e+02,6.297194671630859375e+01,-1.067350540161132812e+02,8.175839996337890625e+01,1.472676563262939453e+01,5.738496017456054688e+01,1.748911285400390625e+02,3.582453536987304688e+01,5.373934173583984375e+01
8.840000033378601074e-01,2.000000000000000000e+00,2.141780853271484375e+01,-1.849120855331420898e+00,5.596669769287109375e+01,-1.642565765380859375e+02,6.298083496093750000e+01,-1.067149734497070312e+02,8.172338867187500000e+01,1.470612335205078125e+01,5.735704040527343750e+01,1.748973541259765625e+02,3.583768463134765625e+01,5.373184204101562500e+01
8.880000114440917969e-01,2.000000000000000000e+00,2.135247421264648438e+01,-1.815174818038940430e+00,5.594033813476562500e+01,-1.642656250000000000e+02,6.298971939086914062e+01,-1.066949005126953125e+02,8.168838500976562500e+01,1.468548774719238281e+01,5.732912445068359375e+01,1.749035491943359375e+02,3.585083389282226562e+01,5.372434997558593750e+01
8.920000195503234863e-01,2.000000000000000000e+00,2.128715896606445312e+01,-1.781238913536071777e+00,5.591399002075195312e+01,-1.642746887207031250e+02,6.299860382080078125e+01,-1.066748352050781250e+02,8.165339660644531250e+01,1.466485691070556641e+01,5.730121612548828125e+01,1.749097595214843750e+02,3.586397933959960938e+01,5.371685791015625000e+01
8.960000276565551758e-01,2.000000000000000000e+00,2.122186470031738281e+01,-1.747313261032104492e+00,5.588764572143554688e+01,-1.642837371826171875e+02,6.300748443603515625e+01,-1.066547698974609375e+02,8.161840820312500000e+01,1.464423274993896484e+01,5.727331542968750000e+01,1.749159545898437500e+02,3.587711715698242188e+01,5.370936203002929688e+01
8.999999761581420898e-01,2.000000000000000000e+00,2.115658760070800781e+01,-1.713397622108459473e+00,5.586130905151367188e+01,-1.642928009033203125e+02,6.301636505126953125e+01,-1.066347122192382812e+02,8.158344268798828125e+01,1.462361431121826172e+01,5.724542617797851562e+01,1.749221496582031250e+02,3.589025497436523438e+01,5.370187377929687500e+01
9.039999842643737793e-01,2.000000000000000000e+00,2.109133148193359375e+01,-1.679491996765136719e+00,5.583498001098632812e+01,-1.643018341064453125e+02,6.302523803710937500e+01,-1.066146621704101562e+02,8.154847717285156250e+01,1.460300254821777344e+01,5.721754455566406250e+01,1.749283447265625000e+02,3.590338516235351562e+01,5.369438934326171875e+01
9.079999923706054688e-01,2.000000000000000000e+00,2.102609443664550781e+01,-1.645596623420715332e+00,5.580865859985351562e+01,-1.643108978271484375e+02,6.303410720825195312e+01,-1.065946197509765625e+02,8.151352691650390625e+01,1.458239746093750000e+01,5.718967056274414062e+01,1.749345397949218750e+02,3.591651153564453125e+01,5.368690490722656250e+01
9.120000004768371582e-01,2.000000000000000000e+00,2.096087646484375000e+01,-1.611711382865905762e+00,5.578234863281250000e+01,-1.643199462890625000e+02,6.304298019409179688e+01,-1.065745773315429688e+02,8.147858428955078125e+01,1.456179809570312500e+01,5.716180419921875000e+01,1.749407348632812500e+02,3.592963790893554688e+01,5.367942428588867188e+01
9.160000085830688477e-01,2.000000000000000000e+00,2.089567565917968750e+01,-1.577836275100708008e+00,5.575604248046875000e+01,-1.643289794921875000e+02,6.305184555053710938e+01,-1.065545501708984375e+02,8.144365692138671875e+01,1.454120349884033203e+01,5.713394546508789062e+01,1.749469299316406250e+02,3.594275665283203125e+01,5.367194366455078125e+01
9.200000166893005371e-01,2.000000000000000000e+00,2.083049774169921875e+01,-1.543971061706542969e+00,5.572974777221679688e+01,-1.643380126953125000e+02,6.306071090698242188e+01,-1.065345153808593750e+02,8.140873718261718750e+01,1.452061653137207031e+01,5.710609436035156250e+01,1.749531097412109375e+02,3.595587539672851562e+01,5.366446685791015625e+01
9.240000247955322266e-01,2.000000000000000000e+00,2.076533889770507812e+01,-1.510116100311279297e+00,5.570346069335937500e+01,-1.643470611572265625e+02,6.306957244873046875e+01,-1.065144958496093750e+02,8.137383270263671875e+01,1.450003623962402344e+01,5.707825469970703125e+01,1.749593048095703125e+02,3.596898651123046875e+01,5.365699005126953125e+01
9.279999732971191406e-01,2.000000000000000000e+00,2.070019912719726562e+01,-1.476271271705627441e+00,5.567717742919921875e+01,-1.643560943603515625e+02,6.307843017578125000e+01,-1.064944839477539062e+02,8.133892822265625000e+01,1.447945976257324219e+01,5.705042266845703125e+01,1.749654846191406250e+02,3.598209762573242188e+01,5.364951705932617188e+01
9.319999814033508301e-01,2.000000000000000000e+00,2.063507843017578125e+01,-1.442436456680297852e+00,5.565090560913085938e+01,-1.643651123046875000e+02,6.308728790283203125e+01,-1.064744796752929688e+02,8.130403900146484375e+01,1.445889091491699219e+01,5.702259826660156250e+01,1.749716644287109375e+02,3.599520111083984375e+01,5.364204406738281250e+01
9.359999895095825195e-01,2.000000000000000000e+00,2.056997680664062500e+01,-1.408611655235290527e+00,5.562464141845703125e+01,-1.643741455078125000e+02,6.309614181518554688e+01,-1.064544754028320312e+02,8.126916503906250000e+01,1.443832874298095703e+01,5.699478530883789062e+01,1.749778442382812500e+02,3.600830078125000000e+01,5.363457870483398438e+01
9.399999976158142090e-01,2.000000000000000000e+00,2.050489616394042969e+01,-1.374796986579895020e+00,5.559838485717773438e+01,-1.643831787109375000e+02,6.310499191284179688e+01,-1.064344787597656250e+02,8.123429870605468750e+01,1.441777133941650391e+01,5.696697616577148438e+01,1.749840240478515625e+02,3.602139663696289062e+01,5.362710952758789062e+01
9.440000057220458984e-01,2.000000000000000000e+00,2.043983268737792969e+01,-1.340992450714111328e+00,5.557213592529296875e+01,-1.643921966552734375e+02,6.311384582519531250e+01,-1.064144897460937500e+02,8.119944000244140625e+01,1.439722061157226562e+01,5.693917465209960938e+01,1.749902191162109375e+02,3.603448867797851562e+01,5.361964797973632812e+01
9.480000138282775879e-01,2.000000000000000000e+00,2.037478828430175781e+01,-1.307197809219360352e+00,5.554589080810546875e+01,-1.644012145996093750e+02,6.312268829345703125e+01,-1.063945083618164062e+02,8.116459655761718750e+01,1.437667751312255859e+01,5.691138458251953125e+01,1.749963836669921875e+02,3.604758071899414062e+01,5.361218643188476562e+01
9.520000219345092773e-01,2.000000000000000000e+00,2.030976486206054688e+01,-1.273413181304931641e+00,5.551966094970703125e+01,-1.644102325439453125e+02,6.313153457641601562e+01,-1.063745269775390625e+02,8.112975311279296875e+01,1.435613918304443359e+01,5.688360214233398438e+01,1.750025634765625000e+02,3.606066513061523438e+01,5.360472488403320312e+01
9.559999704360961914e-01,2.000000000000000000e+00,2.024476051330566406e+01,-1.239638805389404297e+00,5.549343490600585938e+01,-1.644192504882812500e+02,6.314037322998046875e+01,-1.063545532226562500e+02,8.109492492675781250e+01,1.433560562133789062e+01,5.685582733154296875e+01,1.750087432861328125e+02,3.607374572753906250e+01,5.359727096557617188e+01
9.599999785423278809e-01,2.000000000000000000e+00,2.017977523803710938e+01,-1.205874323844909668e+00,5.546721649169921875e+01,-1.644282684326171875e+02,6.314921188354492188e+01,-1.063345870971679688e+02,8.106011199951171875e+01,1.431508064270019531e+01,5.682806396484375000e+01,1.750148925781250000e+02,3.608682250976562500e+01,5.358981323242187500e+01
9.639999866485595703e-01,2.000000000000000000e+00,2.011481094360351562e+01,-1.172119855880737305e+00,5.544100570678710938e+01,-1.644372711181640625e+02,6.315805053710937500e+01,-1.063146286010742188e+02,8.102530670166015625e+01,1.429456043243408203e+01,5.680030441284179688e+01,1.750210723876953125e+02,3.609989547729492188e+01,5.358235931396484375e+01
9.679999947547912598e-01,2.000000000000000000e+00,2.004986381530761719e+01,-1.138375401496887207e+00,5.541480255126953125e+01,-1.644462738037109375e+02,6.316688156127929688e+01,-1.062946701049804688e+02,8.099050903320312500e+01,1.427404594421386719e+01,5.677255249023437500e+01,1.750272369384765625e+02,3.611296463012695312e+01,5.357490921020507812e+01
9.720000028610229492e-01,2.000000000000000000e+00,1.998493576049804688e+01,-1.104640960693359375e+00,5.538860702514648438e+01,-1.644552917480468750e+02,6.317571258544921875e+01,-1.062747192382812500e+02,8.095572662353515625e+01,1.425353813171386719e+01,5.674481201171875000e+01,1.750334014892578125e+02,3.612603378295898438e+01,5.356745910644531250e+01
9.760000109672546387e-01,2.000000000000000000e+00,1.992002677917480469e+01,-1.070916414260864258e+00,5.536241912841796875e+01,-1.644642944335937500e+02,6.318453598022460938e+01,-1.062547836303710938e+02,8.092095184326171875e+01,1.423303699493408203e+01,5.671707916259765625e+01,1.750395660400390625e+02,3.613909530639648438e+01,5.356001663208007812e+01
9.800000190734863281e-01,2.000000000000000000e+00,1.985513877868652344e+01,-1.037202000617980957e+00,5.533623886108398438e+01,-1.644732818603515625e+02,6.319336318969726562e+01,-1.062348480224609375e+02,8.088618469238281250e+01,1.421254158020019531e+01,5.668935012817382812e+01,1.750457305908203125e+02,3.615215301513671875e+01,5.355257034301757812e+01
9.840000271797180176e-01,2.000000000000000000e+00,1.979026794433593750e+01,-1.003497481346130371e+00,5.531007003784179688e+01,-1.644822845458984375e+02,6.320218658447265625e+01,-1.062149124145507812e+02,8.085143280029296875e+01,1.419205188751220703e+01,5.666163635253906250e+01,1.750518951416015625e+02,3.616520690917968750e+01,5.354512786865234375e+01
9.879999756813049316e-01,2.000000000000000000e+00,1.972541809082031250e+01,-9.698029756546020508e-01,5.528390884399414062e+01,-1.644912719726562500e+02,6.321100234985351562e+01,-1.061949844360351562e+02,8.081668853759765625e+01,1.417156791687011719e+01,5.663392639160156250e+01,1.750580444335937500e+02,3.617826080322265625e+01,5.353768920898437500e+01
9.919999837875366211e-01,2.000000000000000000e+00,1.966058731079101562e+01,-9.361185431480407715e-01,5.525775146484375000e+01,-1.645002593994140625e+02,6.321982192993164062e+01,-1.061750640869140625e+02,8.078195953369140625e+01,1.415108966827392578e+01,5.660622787475585938e+01,1.750641937255859375e+02,3.619130325317382812e+01,5.353025054931640625e+01
9.959999918937683105e-01,2.000000000000000000e+00,1.959577369689941406e+01,-9.024440050125122070e-01,5.523160171508789062e+01,-1.645092468261718750e+02,6.322863388061523438e+01,-1.061551513671875000e+02,8.074723815917968750e+01,1.413061904907226562e+01,5.657853698730468750e+01,1.750703582763671875e+02,3.620434570312500000e+01,5.352281570434570312e+01
1.000000000000000000e+00,2.000000000000000000e+00,1.953098106384277344e+01,-8.687793016433715820e-01,5.520546340942382812e+01,-1.645182342529296875e+02,6.323744964599609375e+01,-1.061352462768554688e+02,8.071252441406250000e+01,1.411015319824218750e+01,5.655084991455078125e+01,1.750765075683593750e+02,3.621738433837890625e+01,5.351538467407226562e+01
1.003999948501586914e+00,2.000000000000000000e+00,1.946620750427246094e+01,-8.351246714591979980e-01,5.517932510375976562e+01,-1.645272216796875000e+02,6.324625396728515625e+01,-1.061153411865234375e+02,8.067781829833984375e+01,1.408969402313232422e+01,5.652317428588867188e+01,1.750826568603515625e+02,3.623042297363281250e+01,5.350795364379882812e+01
1.008000016212463379e+00,2.000000000000000000e+00,1.940145301818847656e+01,-8.014799356460571289e-01,5.515320587158203125e+01,-1.645361938476562500e+02,6.325506591796875000e+01,-1.060954437255859375e+02,8.064312744140625000e+01,1.406924057006835938e+01,5.649550628662109375e+01,1.750888061523437500e+02,3.624345397949218750e+01,5.350052261352539062e+01
1.011999964714050293e+00,2.000000000000000000e+00,1.933671569824218750e+01,-7.678451538085937500e-01,5.512708663940429688e+01,-1.645451812744140625e+02,6.326387023925781250e+01,-1.060755538940429688e+02,8.060844421386718750e+01,1.404879379272460938e+01,5.646784591674804688e+01,1.750949401855468750e+02,3.625647735595703125e+01,5.349309539794921875e+01
1.016000032424926758e+00,2.000000000000000000e+00,1.927200126647949219e+01,-7.342202663421630859e-01,5.510097503662109375e+01,-1.645541534423828125e+02,6.327266693115234375e+01,-1.060556716918945312e+02,8.057377624511718750e+01,1.402835273742675781e+01,5.644019317626953125e+01,1.751010894775390625e+02,3.626950454711914062e+01,5.348567199707031250e+01
1.019999980926513672e+00,2.000000000000000000e+00,1.920730400085449219e+01,-7.006053328514099121e-01,5.507487106323242188e+01,-1.645631256103515625e+02,6.328147125244140625e+01,-1.060357894897460938e+02,8.053911590576171875e+01,1.400791740417480469e+01,5.641255187988281250e+01,1.751072387695312500e+02,3.628252029418945312e+01,5.347825241088867188e+01
1.024000048637390137e+00,2.000000000000000000e+00,1.914262390136718750e+01,-6.670002937316894531e-01,5.504877853393554688e+01,-1.645720977783203125e+02,6.329026031494140625e+01,-1.060159225463867188e+02,8.050445556640625000e+01,1.398748779296875000e+01,5.638491821289062500e+01,1.751133880615234375e+02,3.629553604125976562e+01,5.347082901000976562e+01
1.026999950408935547e+00,2.000000000000000000e+00,1.907796478271484375e+01,-6.334051489830017090e-01,5.502269363403320312e+01,-1.645810546875000000e+02,6.329905700683593750e+01,-1.059960556030273438e+02,8.046981811523437500e+01,1.396706390380859375e+01,5.635728836059570312e+01,1.751195220947265625e+02,3.630854797363281250e+01,5.346341323852539062e+01
1.031999945640563965e+00,2.000000000000000000e+00,1.901332473754882812e+01,-5.998199582099914551e-01,5.499661254882812500e+01,-1.645900421142578125e+02,6.330784988403320312e+01,-1.059761886596679688e+02,8.043518066406250000e+01,1.394664669036865234e+01,5.632966995239257812e+01,1.751256561279296875e+02,3.632155609130859375e+01,5.345599365234375000e+01
1.036000013351440430e+00,2.000000000000000000e+00,1.894870376586914062e+01,-5.662446022033691406e-01,5.497054290771484375e+01,-1.645989990234375000e+02,6.331663894653320312e+01,-1.059563369750976562e+02,8.040056610107421875e+01,1.392623615264892578e+01,5.630205917358398438e+01,1.751318054199218750e+02,3.633456039428710938e+01,5.344858551025390625e+01
1.039999961853027344e+00,2.000000000000000000e+00,1.888409996032714844e+01,-5.326791405677795410e-01,5.494447708129882812e+01,-1.646079406738281250e+02,6.332542419433593750e+01,-1.059364852905273438e+02,8.036595153808593750e+01,1.390583038330078125e+01,5.627445602416992188e+01,1.751379394531250000e+02,3.634756088256835938e+01,5.344116973876953125e+01
1.044000029563903809e+00,2.000000000000000000e+00,1.881951713562011719e+01,-4.991236031055450439e-01,5.491842269897460938e+01,-1.646168975830078125e+02,6.333420562744140625e+01,-1.059166488647460938e+02,8.033135223388671875e+01,1.388543224334716797e+01,5.624686050415039062e+01,1.751440734863281250e+02,3.636056137084960938e+01,5.343376159667968750e+01
1.047999978065490723e+00,2.000000000000000000e+00,1.875495338439941406e+01,-4.655778706073760986e-01,5.489237213134765625e+01,-1.646258697509765625e+02,6.334299087524414062e+01,-1.058968124389648438e+02,8.029676055908203125e+01,1.386503887176513672e+01,5.621927261352539062e+01,1.751501922607421875e+02,3.637355041503906250e+01,5.342635345458984375e+01
1.052000045776367188e+00,2.000000000000000000e+00,1.869040870666503906e+01,-4.320420324802398682e-01,5.486633300781250000e+01,-1.646348114013671875e+02,6.335176849365234375e+01,-1.058769760131835938e+02,8.026218414306640625e+01,1.384465217590332031e+01,5.619169616699218750e+01,1.751563262939453125e+02,3.638654327392578125e+01,5.341895294189453125e+01
1.054999947547912598e+00,2.000000000000000000e+00,1.862588119506835938e+01,-3.985160291194915771e-01,5.484030151367187500e+01,-1.646437683105468750e+02,6.336054611206054688e+01,-1.058571472167968750e+02,8.022761535644531250e+01,1.382427024841308594e+01,5.616412734985351562e+01,1.751624603271484375e+02,3.639952468872070312e+01,5.341154861450195312e+01
1.059999942779541016e+00,2.000000000000000000e+00,1.856137657165527344e+01,-3.649998903274536133e-01,5.481427764892578125e+01,-1.646527099609375000e+02,6.336931610107421875e+01,-1.058373336791992188e+02,8.019305419921875000e+01,1.380389499664306641e+01,5.613656234741210938e+01,1.751685791015625000e+02,3.641250610351562500e+01,5.340414810180664062e+01
1.064000010490417480e+00,2.000000000000000000e+00,1.849688720703125000e+01,-3.314936161041259766e-01,5.478825759887695312e+01,-1.646616363525390625e+02,6.337808609008789062e+01,-1.058175201416015625e+02,8.015850830078125000e+01,1.378352642059326172e+01,5.610901260375976562e+01,1.751746978759765625e+02,3.642548370361328125e+01,5.339675140380859375e+01
1.067999958992004395e+00,2.000000000000000000e+00,1.843241691589355469e+01,-2.979971468448638916e-01,5.476224899291992188e+01,-1.646705932617187500e+02,6.338685226440429688e+01,-1.057977142333984375e+02,8.012397003173828125e+01,1.376316356658935547e+01,5.608146286010742188e+01,1.751808166503906250e+02,3.643845748901367188e+01,5.338935089111328125e+01
1.072000026702880859e+00,2.000000000000000000e+00,1.836796760559082031e+01,-2.645105123519897461e-01,5.473624420166015625e+01,-1.646795196533203125e+02,6.339561843872070312e+01,-1.057779083251953125e+02,8.008943176269531250e+01,1.374280643463134766e+01,5.605392456054687500e+01,1.751869354248046875e+02,3.645142745971679688e+01,5.338195800781250000e+01
1.075999975204467773e+00,2.000000000000000000e+00,1.830353355407714844e+01,-2.310336828231811523e-01,5.471025085449218750e+01,-1.646884613037109375e+02,6.340438079833984375e+01,-1.057581100463867188e+02,8.005491638183593750e+01,1.372245502471923828e+01,5.602639770507812500e+01,1.751930541992187500e+02,3.646439361572265625e+01,5.337456893920898438e+01
1.080000042915344238e+00,2.000000000000000000e+00,1.823912239074707031e+01,-1.975666880607604980e-01,5.468426513671875000e+01,-1.646973876953125000e+02,6.341314315795898438e+01,-1.057383193969726562e+02,8.002040863037109375e+01,1.370210933685302734e+01,5.599887466430664062e+01,1.751991729736328125e+02,3.647735595703125000e+01,5.336717987060546875e+01
1.083999991416931152e+00,2.000000000000000000e+00,1.817472839355468750e+01,-1.641094982624053955e-01,5.465828323364257812e+01,-1.647063293457031250e+02,6.342190170288085938e+01,-1.057185363769531250e+02,7.998590850830078125e+01,1.368176937103271484e+01,5.597136306762695312e+01,1.752052917480468750e+02,3.649031448364257812e+01,5.335979080200195312e+01
1.088000059127807617e+00,2.000000000000000000e+00,1.811035346984863281e+01,-1.306620538234710693e-01,5.463230895996093750e+01,-1.647152557373046875e+02,6.343065643310546875e+01,-1.056987533569335938e+02,7.995142364501953125e+01,1.366143608093261719e+01,5.594385528564453125e+01,1.752113952636718750e+02,3.650326919555664062e+01,5.335240554809570312e+01
1.090999960899353027e+00,2.000000000000000000e+00,1.804599952697753906e+01,-9.722420573234558105e-02,5.460634994506835938e+01,-1.647241821289062500e+02,6.343940734863281250e+01,-1.056789855957031250e+02,7.991694641113281250e+01,1.364110851287841797e+01,5.591635894775390625e+01,1.752175140380859375e+02,3.651622009277343750e+01,5.334502029418945312e+01
1.095999956130981445e+00,2.000000000000000000e+00,1.798166084289550781e+01,-6.379596143960952759e-02,5.458039093017578125e+01,-1.647330932617187500e+02,6.344815444946289062e+01,-1.056592178344726562e+02,7.988246917724609375e+01,1.362078857421875000e+01,5.588887023925781250e+01,1.752236328125000000e+02,3.652916717529296875e+01,5.333764266967773438e+01
1.100000023841857910e+00,2.000000000000000000e+00,1.791734123229980469e+01,-3.037754073739051819e-02,5.455444335937500000e+01,-1.647420196533203125e+02,6.345690536499023438e+01,-1.056394500732421875e+02,7.984801483154296875e+01,1.360047245025634766e+01,5.586138534545898438e+01,1.752297363281250000e+02,3.654211044311523438e+01,5.333026123046875000e+01
1.103999972343444824e+00,2.000000000000000000e+00,1.785304260253906250e+01,3.030869644135236740e-03,5.452849960327148438e+01,-1.647509460449218750e+02,6.346564865112304688e+01,-1.056196975708007812e+02,7.981356048583984375e+01,1.358016300201416016e+01,5.583391571044921875e+01,1.752358398437500000e+02,3.655504989624023438e+01,5.332288360595703125e+01
1.108000040054321289e+00,2.000000000000000000e+00,1.778876113891601562e+01,3.642928972840309143e-02,5.450256347656250000e+01,-1.647598419189453125e+02,6.347438812255859375e+01,-1.055999450683593750e+02,7.977912139892578125e+01,1.355985832214355469e+01,5.580644607543945312e+01,1.752419281005859375e+02,3.656798553466796875e+01,5.331550979614257812e+01
1.111999988555908203e+00,2.000000000000000000e+00,1.772450065612792969e+01,6.981788575649261475e-02,5.447663879394531250e+01,-1.647687683105468750e+02,6.348313140869140625e+01,-1.055802001953125000e+02,7.974469757080078125e+01,1.353956127166748047e+01,5.577899169921875000e+01,1.752480468750000000e+02,3.658091735839843750e+01,5.330813980102539062e+01
1.116000056266784668e+00,2.000000000000000000e+00,1.766025543212890625e+01,1.031967848539352417e-01,5.445071792602539062e+01,-1.647776794433593750e+02,6.349186706542968750e+01,-1.055604629516601562e+02,7.971028137207031250e+01,1.351926898956298828e+01,5.575154113769531250e+01,1.752541503906250000e+02,3.659384536743164062e+01,5.330076980590820312e+01
1.118999958038330078e+00,2.000000000000000000e+00,1.759602928161621094e+01,1.365659981966018677e-01,5.442480850219726562e+01,-1.647865753173828125e+02,6.350060272216796875e+01,-1.055407257080078125e+02,7.967587280273437500e+01,1.349898338317871094e+01,5.572409820556640625e+01,1.752602386474609375e+02,3.660677337646484375e+01,5.329340362548828125e+01
1.123999953269958496e+00,2.000000000000000000e+00,1.753182411193847656e+01,1.699256151914596558e-01,5.439890670776367188e+01,-1.647954864501953125e+02,6.350933456420898438e+01,-1.055210037231445312e+02,7.964147186279296875e+01,1.347870445251464844e+01,5.569666671752929688e+01,1.752663269042968750e+02,3.661968994140625000e+01,5.328603744506835938e+01
