rpiRobotics/ARM-21-02-F-19-Robot-Motion-Program/data_performance_abb/curve_1/dual_arm/diffevo_pose1/grad_result/sim/dual_iteration_7.csv
timestamp,cmd_num,J1,J2,J3,J4,J5,J6,J1_2,J2_2,J3_2,J4_2,J5_2,J6_2
0.000000000000000000e+00,-1.000000000000000000e+00,3.396818161010742188e+01,-8.955691337585449219e+00,6.097230529785156250e+01,-1.625503234863281250e+02,6.004790878295898438e+01,-1.109998397827148438e+02,8.874813079833984375e+01,1.879257965087890625e+01,6.282232666015625000e+01,1.740668029785156250e+02,3.348851013183593750e+01,5.506633758544921875e+01
0.000000000000000000e+00,-1.000000000000000000e+00,3.396818161010742188e+01,-8.955691337585449219e+00,6.097230529785156250e+01,-1.625503234863281250e+02,6.004790878295898438e+01,-1.109998397827148438e+02,8.874813079833984375e+01,1.879257965087890625e+01,6.282232666015625000e+01,1.740668029785156250e+02,3.348851013183593750e+01,5.506633758544921875e+01
4.000000189989805222e-03,-1.000000000000000000e+00,3.396818161010742188e+01,-8.955691337585449219e+00,6.097230529785156250e+01,-1.625503234863281250e+02,6.004790878295898438e+01,-1.109998397827148438e+02,8.874813079833984375e+01,1.879257965087890625e+01,6.282232666015625000e+01,1.740668029785156250e+02,3.348851013183593750e+01,5.506633758544921875e+01
8.000000379979610443e-03,-1.000000000000000000e+00,3.396818161010742188e+01,-8.955691337585449219e+00,6.097230529785156250e+01,-1.625503234863281250e+02,6.004790878295898438e+01,-1.109998397827148438e+02,8.874813079833984375e+01,1.879257965087890625e+01,6.282232666015625000e+01,1.740668029785156250e+02,3.348851013183593750e+01,5.506633758544921875e+01
1.099999994039535522e-02,-1.000000000000000000e+00,3.396818161010742188e+01,-8.955691337585449219e+00,6.097230529785156250e+01,-1.625503234863281250e+02,6.004790878295898438e+01,-1.109998397827148438e+02,8.874813079833984375e+01,1.879257965087890625e+01,6.282232666015625000e+01,1.740668029785156250e+02,3.348851013183593750e+01,5.506633758544921875e+01
1.600000075995922089e-02,-1.000000000000000000e+00,3.396818161010742188e+01,-8.955691337585449219e+00,6.097230529785156250e+01,-1.625503234863281250e+02,6.004790878295898438e+01,-1.109998397827148438e+02,8.874813079833984375e+01,1.879257965087890625e+01,6.282232666015625000e+01,1.740668029785156250e+02,3.348851013183593750e+01,5.506633758544921875e+01
1.999999955296516418e-02,-1.000000000000000000e+00,3.396818161010742188e+01,-8.955691337585449219e+00,6.097230529785156250e+01,-1.625503234863281250e+02,6.004790878295898438e+01,-1.109998397827148438e+02,8.874813079833984375e+01,1.879257965087890625e+01,6.282232666015625000e+01,1.740668029785156250e+02,3.348851013183593750e+01,5.506633758544921875e+01
2.400000020861625671e-02,-1.000000000000000000e+00,3.396818161010742188e+01,-8.955691337585449219e+00,6.097230529785156250e+01,-1.625503234863281250e+02,6.004790878295898438e+01,-1.109998397827148438e+02,8.874813079833984375e+01,1.879257965087890625e+01,6.282232666015625000e+01,1.740668029785156250e+02,3.348851013183593750e+01,5.506633758544921875e+01
2.800000086426734924e-02,2.000000000000000000e+00,3.396818161010742188e+01,-8.955691337585449219e+00,6.097230529785156250e+01,-1.625503234863281250e+02,6.004790878295898438e+01,-1.109998397827148438e+02,8.874813079833984375e+01,1.879257965087890625e+01,6.282232666015625000e+01,1.740668029785156250e+02,3.348851013183593750e+01,5.506633758544921875e+01
3.200000151991844177e-02,2.000000000000000000e+00,3.396818161010742188e+01,-8.955691337585449219e+00,6.097230529785156250e+01,-1.625503234863281250e+02,6.004790878295898438e+01,-1.109998397827148438e+02,8.874813079833984375e+01,1.879257965087890625e+01,6.282232666015625000e+01,1.740668029785156250e+02,3.348851013183593750e+01,5.506633758544921875e+01
3.799999877810478210e-02,2.000000000000000000e+00,3.396818161010742188e+01,-8.955691337585449219e+00,6.097230529785156250e+01,-1.625503234863281250e+02,6.004790878295898438e+01,-1.109998397827148438e+02,8.874813079833984375e+01,1.879257965087890625e+01,6.282232666015625000e+01,1.740668029785156250e+02,3.348851013183593750e+01,5.506633758544921875e+01
3.999999910593032837e-02,2.000000000000000000e+00,3.396818161010742188e+01,-8.955691337585449219e+00,6.097230529785156250e+01,-1.625503234863281250e+02,6.004790878295898438e+01,-1.109998397827148438e+02,8.874813079833984375e+01,1.879257965087890625e+01,6.282232666015625000e+01,1.740668029785156250e+02,3.348851013183593750e+01,5.506633758544921875e+01
4.399999976158142090e-02,2.000000000000000000e+00,3.396818161010742188e+01,-8.955691337585449219e+00,6.097230529785156250e+01,-1.625503234863281250e+02,6.004790878295898438e+01,-1.109998397827148438e+02,8.874813079833984375e+01,1.879257965087890625e+01,6.282232666015625000e+01,1.740668029785156250e+02,3.348851013183593750e+01,5.506633758544921875e+01
4.800000041723251343e-02,2.000000000000000000e+00,3.396818161010742188e+01,-8.955691337585449219e+00,6.097230529785156250e+01,-1.625503234863281250e+02,6.004790878295898438e+01,-1.109998397827148438e+02,8.874813079833984375e+01,1.879257965087890625e+01,6.282232666015625000e+01,1.740668029785156250e+02,3.348851013183593750e+01,5.506633758544921875e+01
5.200000107288360596e-02,2.000000000000000000e+00,3.396818161010742188e+01,-8.955691337585449219e+00,6.097230529785156250e+01,-1.625503234863281250e+02,6.004790878295898438e+01,-1.109998397827148438e+02,8.874813079833984375e+01,1.879257965087890625e+01,6.282232666015625000e+01,1.740668029785156250e+02,3.348851013183593750e+01,5.506633758544921875e+01
5.600000172853469849e-02,2.000000000000000000e+00,3.396818161010742188e+01,-8.955691337585449219e+00,6.097230529785156250e+01,-1.625503234863281250e+02,6.004790878295898438e+01,-1.109998397827148438e+02,8.874813079833984375e+01,1.879257965087890625e+01,6.282232666015625000e+01,1.740668029785156250e+02,3.348851013183593750e+01,5.506633758544921875e+01
5.999999865889549255e-02,2.000000000000000000e+00,3.396818161010742188e+01,-8.955691337585449219e+00,6.097230529785156250e+01,-1.625503234863281250e+02,6.004790878295898438e+01,-1.109998397827148438e+02,8.874813079833984375e+01,1.879257965087890625e+01,6.282232666015625000e+01,1.740668029785156250e+02,3.348851013183593750e+01,5.506633758544921875e+01
6.400000303983688354e-02,2.000000000000000000e+00,3.396818161010742188e+01,-8.955691337585449219e+00,6.097230529785156250e+01,-1.625503234863281250e+02,6.004790878295898438e+01,-1.109998397827148438e+02,8.874813079833984375e+01,1.879257965087890625e+01,6.282232666015625000e+01,1.740668029785156250e+02,3.348851013183593750e+01,5.506633758544921875e+01
6.800000369548797607e-02,2.000000000000000000e+00,3.396811294555664062e+01,-8.955669403076171875e+00,6.097230148315429688e+01,-1.625503234863281250e+02,6.004790878295898438e+01,-1.109998397827148438e+02,8.874813079833984375e+01,1.879257965087890625e+01,6.282232666015625000e+01,1.740668029785156250e+02,3.348851013183593750e+01,5.506633758544921875e+01
7.199999690055847168e-02,2.000000000000000000e+00,3.396773529052734375e+01,-8.955533981323242188e+00,6.097224044799804688e+01,-1.625503082275390625e+02,6.004790878295898438e+01,-1.109998321533203125e+02,8.874813079833984375e+01,1.879257965087890625e+01,6.282232666015625000e+01,1.740668029785156250e+02,3.348851013183593750e+01,5.506633758544921875e+01
7.599999755620956421e-02,2.000000000000000000e+00,3.396666717529296875e+01,-8.955114364624023438e+00,6.097206115722656250e+01,-1.625502929687500000e+02,6.004792404174804688e+01,-1.109998168945312500e+02,8.874813079833984375e+01,1.879257965087890625e+01,6.282232666015625000e+01,1.740668029785156250e+02,3.348851013183593750e+01,5.506633758544921875e+01
7.999999821186065674e-02,2.000000000000000000e+00,3.396453475952148438e+01,-8.954211235046386719e+00,6.097167205810546875e+01,-1.625502777099609375e+02,6.004795074462890625e+01,-1.109997787475585938e+02,8.874812316894531250e+01,1.879257392883300781e+01,6.282231903076171875e+01,1.740668029785156250e+02,3.348851013183593750e+01,5.506633377075195312e+01
8.399999886751174927e-02,2.000000000000000000e+00,3.396111297607421875e+01,-8.952654838562011719e+00,6.097097015380859375e+01,-1.625502471923828125e+02,6.004802703857421875e+01,-1.109996490478515625e+02,8.874804687500000000e+01,1.879254150390625000e+01,6.282229232788085938e+01,1.740668029785156250e+02,3.348852157592773438e+01,5.506633377075195312e+01
8.799999952316284180e-02,2.000000000000000000e+00,3.395623016357421875e+01,-8.950307846069335938e+00,6.096986770629882812e+01,-1.625502777099609375e+02,6.004818344116210938e+01,-1.109993896484375000e+02,8.874777221679687500e+01,1.879243278503417969e+01,6.282218933105468750e+01,1.740668182373046875e+02,3.348855972290039062e+01,5.506632614135742188e+01
9.200000017881393433e-02,2.000000000000000000e+00,3.394972610473632812e+01,-8.947033882141113281e+00,6.096825027465820312e+01,-1.625503692626953125e+02,6.004845428466796875e+01,-1.109989013671875000e+02,8.874713897705078125e+01,1.879216575622558594e+01,6.282192230224609375e+01,1.740668487548828125e+02,3.348867034912109375e+01,5.506629180908203125e+01
9.600000083446502686e-02,2.000000000000000000e+00,3.394149017333984375e+01,-8.942727088928222656e+00,6.096601104736328125e+01,-1.625505981445312500e+02,6.004892730712890625e+01,-1.109980621337890625e+02,8.874594879150390625e+01,1.879163551330566406e+01,6.282136154174804688e+01,1.740669555664062500e+02,3.348889923095703125e+01,5.506621170043945312e+01
1.000000014901161194e-01,2.000000000000000000e+00,3.393149185180664062e+01,-8.937318801879882812e+00,6.096303939819335938e+01,-1.625510101318359375e+02,6.004965209960937500e+01,-1.109967193603515625e+02,8.874394226074218750e+01,1.879069709777832031e+01,6.282031631469726562e+01,1.740671234130859375e+02,3.348934173583984375e+01,5.506603240966796875e+01
1.040000021457672119e-01,2.000000000000000000e+00,3.391957092285156250e+01,-8.930727005004882812e+00,6.095921325683593750e+01,-1.625516967773437500e+02,6.005070877075195312e+01,-1.109947509765625000e+02,8.874082946777343750e+01,1.878917884826660156e+01,6.281855010986328125e+01,1.740674591064453125e+02,3.349010086059570312e+01,5.506568908691406250e+01
1.080000028014183044e-01,2.000000000000000000e+00,3.390534973144531250e+01,-8.922787666320800781e+00,6.095437240600585938e+01,-1.625527343750000000e+02,6.005219268798828125e+01,-1.109919662475585938e+02,8.873631286621093750e+01,1.878688049316406250e+01,6.281576919555664062e+01,1.740679626464843750e+02,3.349132156372070312e+01,5.506509780883789062e+01
1.120000034570693970e-01,2.000000000000000000e+00,3.388830184936523438e+01,-8.913272857666015625e+00,6.094832611083984375e+01,-1.625541992187500000e+02,6.005417251586914062e+01,-1.109882278442382812e+02,8.873014831542968750e+01,1.878361129760742188e+01,6.281168365478515625e+01,1.740687408447265625e+02,3.349312973022460938e+01,5.506417465209960938e+01
1.159999966621398926e-01,2.000000000000000000e+00,3.386797714233398438e+01,-8.901988983154296875e+00,6.094091415405273438e+01,-1.625561523437500000e+02,6.005673980712890625e+01,-1.109833679199218750e+02,8.872206878662109375e+01,1.877918243408203125e+01,6.280599975585937500e+01,1.740698394775390625e+02,3.349568176269531250e+01,5.506281280517578125e+01
1.199999973177909851e-01,2.000000000000000000e+00,3.384419631958007812e+01,-8.888889312744140625e+00,6.093202972412109375e+01,-1.625586700439453125e+02,6.005996322631835938e+01,-1.109772415161132812e+02,8.871179962158203125e+01,1.877340507507324219e+01,6.279844665527343750e+01,1.740713348388671875e+02,3.349910354614257812e+01,5.506093978881835938e+01
1.239999979734420776e-01,2.000000000000000000e+00,3.381699371337890625e+01,-8.874057769775390625e+00,6.092161178588867188e+01,-1.625618286132812500e+02,6.006391143798828125e+01,-1.109697113037109375e+02,8.869908142089843750e+01,1.876611137390136719e+01,6.278878402709960938e+01,1.740732421875000000e+02,3.350350189208984375e+01,5.505848312377929688e+01
1.280000060796737671e-01,2.000000000000000000e+00,3.378646850585937500e+01,-8.857598304748535156e+00,6.090966796875000000e+01,-1.625656738281250000e+02,6.006864547729492188e+01,-1.109606704711914062e+02,8.868370819091796875e+01,1.875717544555664062e+01,6.277683639526367188e+01,1.740756225585937500e+02,3.350896072387695312e+01,5.505540466308593750e+01
1.309999972581863403e-01,2.000000000000000000e+00,3.375265121459960938e+01,-8.839554786682128906e+00,6.089616394042968750e+01,-1.625702667236328125e+02,6.007419204711914062e+01,-1.109500732421875000e+02,8.866557312011718750e+01,1.874653625488281250e+01,6.276252746582031250e+01,1.740784912109375000e+02,3.351551818847656250e+01,5.505167388916015625e+01
1.360000073909759521e-01,2.000000000000000000e+00,3.371554183959960938e+01,-8.819934844970703125e+00,6.088110351562500000e+01,-1.625755920410156250e+02,6.008055114746093750e+01,-1.109378967285156250e+02,8.864466094970703125e+01,1.873418807983398438e+01,6.274583435058593750e+01,1.740818481445312500e+02,3.352317428588867188e+01,5.504729080200195312e+01
1.389999985694885254e-01,2.000000000000000000e+00,3.367517471313476562e+01,-8.798738479614257812e+00,6.086450576782226562e+01,-1.625816345214843750e+02,6.008770370483398438e+01,-1.109241714477539062e+02,8.862103271484375000e+01,1.872017288208007812e+01,6.272683334350585938e+01,1.740856781005859375e+02,3.353190612792968750e+01,5.504227447509765625e+01
1.439999938011169434e-01,2.000000000000000000e+00,3.363150787353515625e+01,-8.775897026062011719e+00,6.084639358520507812e+01,-1.625883483886718750e+02,6.009561157226562500e+01,-1.109090042114257812e+02,8.859485626220703125e+01,1.870458984375000000e+01,6.270565032958984375e+01,1.740899353027343750e+02,3.354164505004882812e+01,5.503666687011718750e+01
1.480000019073486328e-01,2.000000000000000000e+00,3.358444213867187500e+01,-8.751291275024414062e+00,6.082678985595703125e+01,-1.625956573486328125e+02,6.010420227050781250e+01,-1.108925018310546875e+02,8.856636810302734375e+01,1.868759346008300781e+01,6.268251037597656250e+01,1.740946044921875000e+02,3.355229568481445312e+01,5.503052520751953125e+01
1.519999951124191284e-01,2.000000000000000000e+00,3.353400421142578125e+01,-8.724873542785644531e+00,6.080576705932617188e+01,-1.626035003662109375e+02,6.011341857910156250e+01,-1.108748245239257812e+02,8.853588867187500000e+01,1.866937446594238281e+01,6.265766906738281250e+01,1.740996246337890625e+02,3.356373214721679688e+01,5.502391433715820312e+01
1.560000032186508179e-01,2.000000000000000000e+00,3.348048400878906250e+01,-8.696749687194824219e+00,6.078344726562500000e+01,-1.626117706298828125e+02,6.012316513061523438e+01,-1.108561248779296875e+02,8.850369262695312500e+01,1.865012741088867188e+01,6.263142013549804688e+01,1.741049346923828125e+02,3.357581329345703125e+01,5.501693344116210938e+01
1.599999964237213135e-01,2.000000000000000000e+00,3.342437744140625000e+01,-8.667142868041992188e+00,6.076003265380859375e+01,-1.626204223632812500e+02,6.013335418701171875e+01,-1.108365631103515625e+02,8.847002410888671875e+01,1.863003540039062500e+01,6.260405349731445312e+01,1.741104583740234375e+02,3.358841323852539062e+01,5.500966262817382812e+01
1.640000045299530029e-01,2.000000000000000000e+00,3.336617660522460938e+01,-8.636269569396972656e+00,6.073568344116210938e+01,-1.626293792724609375e+02,6.014392089843750000e+01,-1.108162994384765625e+02,8.843514251708984375e+01,1.860928726196289062e+01,6.257583618164062500e+01,1.741161346435546875e+02,3.360138702392578125e+01,5.500219345092773438e+01
1.679999977350234985e-01,2.000000000000000000e+00,3.330618286132812500e+01,-8.604266166687011719e+00,6.071055984497070312e+01,-1.626385498046875000e+02,6.015477371215820312e+01,-1.107954788208007812e+02,8.839934539794921875e+01,1.858806419372558594e+01,6.254704284667968750e+01,1.741219329833984375e+02,3.361461639404296875e+01,5.499459838867187500e+01
1.720000058412551880e-01,2.000000000000000000e+00,3.324450302124023438e+01,-8.571220397949218750e+00,6.068476867675781250e+01,-1.626478881835937500e+02,6.016584014892578125e+01,-1.107742538452148438e+02,8.836289215087890625e+01,1.856651878356933594e+01,6.251786804199218750e+01,1.741277923583984375e+02,3.362800598144531250e+01,5.498692703247070312e+01
1.759999990463256836e-01,2.000000000000000000e+00,3.318120193481445312e+01,-8.537226676940917969e+00,6.065843200683593750e+01,-1.626573181152343750e+02,6.017706298828125000e+01,-1.107527542114257812e+02,8.832597351074218750e+01,1.854476547241210938e+01,6.248847961425781250e+01,1.741336975097656250e+02,3.364149093627929688e+01,5.497922515869140625e+01
1.800000071525573730e-01,2.000000000000000000e+00,3.311643981933593750e+01,-8.502408981323242188e+00,6.063165664672851562e+01,-1.626668090820312500e+02,6.018837738037109375e+01,-1.107310714721679688e+02,8.828878784179687500e+01,1.852289962768554688e+01,6.245897293090820312e+01,1.741396026611328125e+02,3.365501403808593750e+01,5.497151565551757812e+01
1.840000003576278687e-01,2.000000000000000000e+00,3.305037689208984375e+01,-8.466901779174804688e+00,6.060454177856445312e+01,-1.626763153076171875e+02,6.019975662231445312e+01,-1.107092895507812500e+02,8.825146484375000000e+01,1.850098228454589844e+01,6.242942047119140625e+01,1.741455383300781250e+02,3.366855621337890625e+01,5.496379852294921875e+01
1.879999935626983643e-01,2.000000000000000000e+00,3.298318099975585938e+01,-8.430839538574218750e+00,6.057717895507812500e+01,-1.626858062744140625e+02,6.021115875244140625e+01,-1.106874618530273438e+02,8.821411895751953125e+01,1.847905349731445312e+01,6.239985656738281250e+01,1.741514587402343750e+02,3.368209838867187500e+01,5.495608901977539062e+01
1.920000016689300537e-01,2.000000000000000000e+00,3.291513061523437500e+01,-8.394402503967285156e+00,6.054965591430664062e+01,-1.626952972412109375e+02,6.022257232666015625e+01,-1.106656188964843750e+02,8.817677307128906250e+01,1.845713043212890625e+01,6.237031173706054688e+01,1.741573638916015625e+02,3.369564056396484375e+01,5.494837570190429688e+01
1.959999948740005493e-01,2.000000000000000000e+00,3.284659957885742188e+01,-8.357774734497070312e+00,6.052204895019531250e+01,-1.627047729492187500e+02,6.023398590087890625e+01,-1.106437759399414062e+02,8.813945007324218750e+01,1.843521308898925781e+01,6.234077072143554688e+01,1.741632995605468750e+02,3.370917129516601562e+01,5.494067001342773438e+01
2.000000029802322388e-01,2.000000000000000000e+00,3.277791595458984375e+01,-8.321095466613769531e+00,6.049442672729492188e+01,-1.627142486572265625e+02,6.024539184570312500e+01,-1.106219406127929688e+02,8.810212707519531250e+01,1.841330337524414062e+01,6.231123733520507812e+01,1.741692047119140625e+02,3.372270202636718750e+01,5.493296051025390625e+01
2.039999961853027344e-01,2.000000000000000000e+00,3.270922470092773438e+01,-8.284419059753417969e+00,6.046681213378906250e+01,-1.627237091064453125e+02,6.025679779052734375e+01,-1.106001129150390625e+02,8.806481933593750000e+01,1.839140129089355469e+01,6.228170776367187500e+01,1.741751251220703125e+02,3.373622894287109375e+01,5.492526245117187500e+01
2.080000042915344238e-01,2.000000000000000000e+00,3.264056015014648438e+01,-8.247754096984863281e+00,6.043920516967773438e+01,-1.627331848144531250e+02,6.026820373535156250e+01,-1.105783004760742188e+02,8.802751922607421875e+01,1.836950492858886719e+01,6.225219726562500000e+01,1.741810455322265625e+02,3.374975204467773438e+01,5.491756057739257812e+01
2.119999974966049194e-01,2.000000000000000000e+00,3.257191085815429688e+01,-8.211100578308105469e+00,6.041160202026367188e+01,-1.627426452636718750e+02,6.027960205078125000e+01,-1.105564804077148438e+02,8.799023437500000000e+01,1.834761810302734375e+01,6.222269439697265625e+01,1.741869354248046875e+02,3.376326751708984375e+01,5.490986251831054688e+01
2.160000056028366089e-01,2.000000000000000000e+00,3.250329208374023438e+01,-8.174460411071777344e+00,6.038401794433593750e+01,-1.627521057128906250e+02,6.029099655151367188e+01,-1.105346755981445312e+02,8.795296478271484375e+01,1.832573509216308594e+01,6.219319534301757812e+01,1.741928558349609375e+02,3.377678298950195312e+01,5.490216445922851562e+01
2.199999988079071045e-01,2.000000000000000000e+00,3.243468856811523438e+01,-8.137830734252929688e+00,6.035643768310546875e+01,-1.627615661621093750e+02,6.030238723754882812e+01,-1.105128784179687500e+02,8.791570281982421875e+01,1.830386161804199219e+01,6.216371154785156250e+01,1.741987609863281250e+02,3.379029083251953125e+01,5.489447402954101562e+01
2.240000069141387939e-01,2.000000000000000000e+00,3.236611175537109375e+01,-8.101213455200195312e+00,6.032886123657226562e+01,-1.627710113525390625e+02,6.031378173828125000e+01,-1.104910812377929688e+02,8.787845611572265625e+01,1.828199577331542969e+01,6.213423919677734375e+01,1.742046661376953125e+02,3.380379486083984375e+01,5.488678359985351562e+01
2.280000001192092896e-01,2.000000000000000000e+00,3.229755783081054688e+01,-8.064606666564941406e+00,6.030130386352539062e+01,-1.627804565429687500e+02,6.032516098022460938e+01,-1.104692993164062500e+02,8.784121704101562500e+01,1.826013565063476562e+01,6.210477447509765625e+01,1.742105712890625000e+02,3.381729507446289062e+01,5.487909698486328125e+01
2.319999933242797852e-01,2.000000000000000000e+00,3.222902297973632812e+01,-8.028013229370117188e+00,6.027375030517578125e+01,-1.627899169921875000e+02,6.033654785156250000e+01,-1.104475173950195312e+02,8.780400085449218750e+01,1.823828125000000000e+01,6.207531356811523438e+01,1.742164764404296875e+02,3.383079147338867188e+01,5.487140655517578125e+01
2.360000014305114746e-01,2.000000000000000000e+00,3.216051101684570312e+01,-7.991431713104248047e+00,6.024620437622070312e+01,-1.627993469238281250e+02,6.034791946411132812e+01,-1.104257507324218750e+02,8.776679229736328125e+01,1.821643638610839844e+01,6.204586791992187500e+01,1.742223663330078125e+02,3.384428024291992188e+01,5.486372375488281250e+01
2.399999946355819702e-01,2.000000000000000000e+00,3.209201812744140625e+01,-7.954861164093017578e+00,6.021866226196289062e+01,-1.628087921142578125e+02,6.035929870605468750e+01,-1.104039840698242188e+02,8.772958374023437500e+01,1.819459533691406250e+01,6.201642990112304688e+01,1.742282714843750000e+02,3.385776901245117188e+01,5.485604476928710938e+01
2.440000027418136597e-01,2.000000000000000000e+00,3.202355194091796875e+01,-7.918302536010742188e+00,6.019113922119140625e+01,-1.628182220458984375e+02,6.037066268920898438e+01,-1.103822326660156250e+02,8.769240570068359375e+01,1.817276573181152344e+01,6.198700714111328125e+01,1.742341613769531250e+02,3.387125015258789062e+01,5.484836578369140625e+01
2.479999959468841553e-01,2.000000000000000000e+00,3.195510482788085938e+01,-7.881755828857421875e+00,6.016361999511718750e+01,-1.628276672363281250e+02,6.038202667236328125e+01,-1.103604812622070312e+02,8.765522766113281250e+01,1.815094184875488281e+01,6.195758819580078125e+01,1.742400512695312500e+02,3.388472747802734375e+01,5.484069442749023438e+01
2.520000040531158447e-01,2.000000000000000000e+00,3.188668441772460938e+01,-7.845220088958740234e+00,6.013611602783203125e+01,-1.628370971679687500e+02,6.039339447021484375e+01,-1.103387374877929688e+02,8.761806488037109375e+01,1.812912368774414062e+01,6.192817687988281250e+01,1.742459411621093750e+02,3.389820098876953125e+01,5.483301925659179688e+01
2.560000121593475342e-01,2.000000000000000000e+00,3.181827926635742188e+01,-7.808697700500488281e+00,6.010860824584960938e+01,-1.628465270996093750e+02,6.040475082397460938e+01,-1.103170013427734375e+02,8.758091735839843750e+01,1.810731315612792969e+01,6.189878082275390625e+01,1.742518310546875000e+02,3.391167068481445312e+01,5.482534790039062500e+01
2.599999904632568359e-01,2.000000000000000000e+00,3.174989891052246094e+01,-7.772185802459716797e+00,6.008111953735351562e+01,-1.628559570312500000e+02,6.041610336303710938e+01,-1.102952728271484375e+02,8.754376983642578125e+01,1.808551025390625000e+01,6.186939239501953125e+01,1.742577209472656250e+02,3.392513656616210938e+01,5.481767654418945312e+01
2.639999985694885254e-01,2.000000000000000000e+00,3.168154335021972656e+01,-7.735686302185058594e+00,6.005363845825195312e+01,-1.628653717041015625e+02,6.042745590209960938e+01,-1.102735519409179688e+02,8.750664520263671875e+01,1.806371307373046875e+01,6.184000778198242188e+01,1.742636108398437500e+02,3.393859481811523438e+01,5.481001663208007812e+01
2.680000066757202148e-01,2.000000000000000000e+00,3.161320686340332031e+01,-7.699197769165039062e+00,6.002616119384765625e+01,-1.628748016357421875e+02,6.043880844116210938e+01,-1.102518386840820312e+02,8.746952819824218750e+01,1.804192352294921875e+01,6.181063842773437500e+01,1.742694854736328125e+02,3.395205307006835938e+01,5.480235290527343750e+01
2.720000147819519043e-01,2.000000000000000000e+00,3.154489135742187500e+01,-7.662721633911132812e+00,5.999869918823242188e+01,-1.628842010498046875e+02,6.045015335083007812e+01,-1.102301330566406250e+02,8.743242645263671875e+01,1.802013969421386719e+01,6.178127288818359375e+01,1.742753753662109375e+02,3.396550750732421875e+01,5.479468917846679688e+01
2.759999930858612061e-01,2.000000000000000000e+00,3.147659873962402344e+01,-7.626257419586181641e+00,5.997124099731445312e+01,-1.628936157226562500e+02,6.046149063110351562e+01,-1.102084274291992188e+02,8.739533996582031250e+01,1.799836540222167969e+01,6.175192642211914062e+01,1.742812500000000000e+02,3.397895050048828125e+01,5.478703308105468750e+01
2.800000011920928955e-01,2.000000000000000000e+00,3.140833091735839844e+01,-7.589803695678710938e+00,5.994379043579101562e+01,-1.629030303955078125e+02,6.047282791137695312e+01,-1.101867294311523438e+02,8.735825347900390625e+01,1.797659492492675781e+01,6.172258377075195312e+01,1.742871246337890625e+02,3.399239730834960938e+01,5.477937316894531250e+01
2.840000092983245850e-01,2.000000000000000000e+00,3.134008026123046875e+01,-7.553361892700195312e+00,5.991635131835937500e+01,-1.629124450683593750e+02,6.048416137695312500e+01,-1.101650466918945312e+02,8.732118988037109375e+01,1.795483398437500000e+01,6.169324874877929688e+01,1.742929992675781250e+02,3.400583648681640625e+01,5.477172088623046875e+01
2.879999876022338867e-01,2.000000000000000000e+00,3.127185440063476562e+01,-7.516932487487792969e+00,5.988892364501953125e+01,-1.629218597412109375e+02,6.049549102783203125e+01,-1.101433639526367188e+02,8.728412628173828125e+01,1.793307876586914062e+01,6.166392517089843750e+01,1.742988891601562500e+02,3.401927185058593750e+01,5.476407241821289062e+01
2.919999957084655762e-01,2.000000000000000000e+00,3.120365142822265625e+01,-7.480514526367187500e+00,5.986149978637695312e+01,-1.629312591552734375e+02,6.050681686401367188e+01,-1.101216964721679688e+02,8.724708557128906250e+01,1.791133117675781250e+01,6.163460922241210938e+01,1.743047485351562500e+02,3.403270339965820312e+01,5.475642013549804688e+01
2.960000038146972656e-01,2.000000000000000000e+00,3.113546562194824219e+01,-7.444108009338378906e+00,5.983409118652343750e+01,-1.629406585693359375e+02,6.051813888549804688e+01,-1.101000289916992188e+02,8.721005249023437500e+01,1.788959121704101562e+01,6.160530090332031250e+01,1.743106231689453125e+02,3.404612731933593750e+01,5.474877548217773438e+01
3.000000119209289551e-01,2.000000000000000000e+00,3.106730651855468750e+01,-7.407712459564208984e+00,5.980668640136718750e+01,-1.629500579833984375e+02,6.052945709228515625e+01,-1.100783615112304688e+02,8.717302703857421875e+01,1.786785507202148438e+01,6.157600784301757812e+01,1.743164978027343750e+02,3.405954742431640625e+01,5.474113082885742188e+01
3.039999902248382568e-01,2.000000000000000000e+00,3.099916648864746094e+01,-7.371329784393310547e+00,5.977929306030273438e+01,-1.629594421386718750e+02,6.054077529907226562e+01,-1.100567092895507812e+02,8.713602447509765625e+01,1.784612846374511719e+01,6.154671859741210938e+01,1.743223571777343750e+02,3.407296752929687500e+01,5.473348999023437500e+01
3.079999983310699463e-01,2.000000000000000000e+00,3.093104743957519531e+01,-7.334957122802734375e+00,5.975190353393554688e+01,-1.629688415527343750e+02,6.055208587646484375e+01,-1.100350646972656250e+02,8.709902191162109375e+01,1.782440757751464844e+01,6.151744461059570312e+01,1.743282318115234375e+02,3.408638000488281250e+01,5.472584915161132812e+01
3.120000064373016357e-01,2.000000000000000000e+00,3.086295127868652344e+01,-7.298596858978271484e+00,5.972452545166015625e+01,-1.629782257080078125e+02,6.056339645385742188e+01,-1.100134277343750000e+02,8.706204223632812500e+01,1.780269622802734375e+01,6.148817825317382812e+01,1.743340911865234375e+02,3.409979248046875000e+01,5.471821212768554688e+01
3.160000145435333252e-01,2.000000000000000000e+00,3.079487419128417969e+01,-7.262248039245605469e+00,5.969715881347656250e+01,-1.629876098632812500e+02,6.057470321655273438e+01,-1.099917984008789062e+02,8.702507019042968750e+01,1.778098869323730469e+01,6.145891571044921875e+01,1.743399505615234375e+02,3.411319732666015625e+01,5.471058273315429688e+01
3.199999928474426270e-01,2.000000000000000000e+00,3.072682189941406250e+01,-7.225910663604736328e+00,5.966979598999023438e+01,-1.629969787597656250e+02,6.058600616455078125e+01,-1.099701690673828125e+02,8.698809814453125000e+01,1.775928878784179688e+01,6.142966461181640625e+01,1.743458099365234375e+02,3.412659835815429688e+01,5.470294952392578125e+01
3.240000009536743164e-01,2.000000000000000000e+00,3.065879058837890625e+01,-7.189585208892822266e+00,5.964244079589843750e+01,-1.630063629150390625e+02,6.059730148315429688e+01,-1.099485549926757812e+02,8.695114898681640625e+01,1.773759651184082031e+01,6.140042495727539062e+01,1.743516693115234375e+02,3.413999557495117188e+01,5.469532012939453125e+01
3.280000090599060059e-01,2.000000000000000000e+00,3.059078216552734375e+01,-7.153270721435546875e+00,5.961510086059570312e+01,-1.630157318115234375e+02,6.060859298706054688e+01,-1.099269409179687500e+02,8.691421508789062500e+01,1.771590995788574219e+01,6.137119674682617188e+01,1.743575134277343750e+02,3.415338516235351562e+01,5.468769454956054688e+01
3.319999873638153076e-01,2.000000000000000000e+00,3.052279090881347656e+01,-7.116968154907226562e+00,5.958776473999023438e+01,-1.630251007080078125e+02,6.061988449096679688e+01,-1.099053344726562500e+02,8.687728881835937500e+01,1.769423103332519531e+01,6.134197235107421875e+01,1.743633728027343750e+02,3.416677093505859375e+01,5.468006515502929688e+01
3.359999954700469971e-01,2.000000000000000000e+00,3.045482254028320312e+01,-7.080676555633544922e+00,5.956044006347656250e+01,-1.630344696044921875e+02,6.063117218017578125e+01,-1.098837356567382812e+02,8.684037017822265625e+01,1.767255783081054688e+01,6.131275939941406250e+01,1.743692321777343750e+02,3.418015670776367188e+01,5.467244720458984375e+01
3.400000035762786865e-01,2.000000000000000000e+00,3.038688087463378906e+01,-7.044397354125976562e+00,5.953312301635742188e+01,-1.630438385009765625e+02,6.064245605468750000e+01,-1.098621444702148438e+02,8.680346679687500000e+01,1.765089225769042969e+01,6.128355789184570312e+01,1.743750915527343750e+02,3.419353485107421875e+01,5.466482543945312500e+01
3.440000116825103760e-01,2.000000000000000000e+00,3.031895446777343750e+01,-7.008128643035888672e+00,5.950581741333007812e+01,-1.630532073974609375e+02,6.065373229980468750e+01,-1.098405609130859375e+02,8.676657867431640625e+01,1.762923431396484375e+01,6.125436019897460938e+01,1.743809356689453125e+02,3.420691299438476562e+01,5.465721130371093750e+01
3.479999899864196777e-01,2.000000000000000000e+00,3.025105094909667969e+01,-6.971871852874755859e+00,5.947851562500000000e+01,-1.630625610351562500e+02,6.066500854492187500e+01,-1.098189849853515625e+02,8.672969818115234375e+01,1.760758399963378906e+01,6.122518157958984375e+01,1.743867797851562500e+02,3.422028350830078125e+01,5.464959335327148438e+01
3.519999980926513672e-01,2.000000000000000000e+00,3.018317031860351562e+01,-6.935626506805419922e+00,5.945122528076171875e+01,-1.630719146728515625e+02,6.067628860473632812e+01,-1.097974166870117188e+02,8.669282531738281250e+01,1.758593940734863281e+01,6.119600296020507812e+01,1.743926239013671875e+02,3.423365020751953125e+01,5.464198303222656250e+01
3.560000061988830566e-01,2.000000000000000000e+00,3.011531257629394531e+01,-6.899392127990722656e+00,5.942393875122070312e+01,-1.630812683105468750e+02,6.068754959106445312e+01,-1.097758560180664062e+02,8.665596771240234375e+01,1.756430053710937500e+01,6.116683959960937500e+01,1.743984527587890625e+02,3.424701309204101562e+01,5.463437271118164062e+01
3.600000143051147461e-01,2.000000000000000000e+00,3.004747009277343750e+01,-6.863170146942138672e+00,5.939666366577148438e+01,-1.630906372070312500e+02,6.069881820678710938e+01,-1.097542877197265625e+02,8.661911773681640625e+01,1.754266929626464844e+01,6.113768005371093750e+01,1.744043121337890625e+02,3.426037216186523438e+01,5.462676239013671875e+01
3.639999926090240479e-01,2.000000000000000000e+00,2.997965431213378906e+01,-6.826959133148193359e+00,5.936940002441406250e+01,-1.630999755859375000e+02,6.071008300781250000e+01,-1.097327423095703125e+02,8.658229064941406250e+01,1.752104568481445312e+01,6.110852813720703125e+01,1.744101409912109375e+02,3.427372741699218750e+01,5.461915969848632812e+01
3.680000007152557373e-01,2.000000000000000000e+00,2.991186141967773438e+01,-6.790759563446044922e+00,5.934214401245117188e+01,-1.631093139648437500e+02,6.072134017944335938e+01,-1.097111968994140625e+02,8.654546356201171875e+01,1.749942779541015625e+01,6.107939147949218750e+01,1.744159851074218750e+02,3.428707504272460938e+01,5.461155700683593750e+01
3.720000088214874268e-01,2.000000000000000000e+00,2.984408569335937500e+01,-6.754570960998535156e+00,5.931489181518554688e+01,-1.631186676025390625e+02,6.073259353637695312e+01,-1.096896667480468750e+02,8.650865936279296875e+01,1.747781753540039062e+01,6.105025863647460938e+01,1.744218139648437500e+02,3.430042266845703125e+01,5.460395431518554688e+01
3.759999871253967285e-01,2.000000000000000000e+00,2.977633285522460938e+01,-6.718394279479980469e+00,5.928765487670898438e+01,-1.631280059814453125e+02,6.074384307861328125e+01,-1.096681365966796875e+02,8.647185516357421875e+01,1.745621299743652344e+01,6.102114486694335938e+01,1.744276580810546875e+02,3.431376266479492188e+01,5.459635925292968750e+01
3.799999952316284180e-01,2.000000000000000000e+00,2.970860099792480469e+01,-6.682229042053222656e+00,5.926042175292968750e+01,-1.631373291015625000e+02,6.075509262084960938e+01,-1.096466140747070312e+02,8.643506622314453125e+01,1.743461608886718750e+01,6.099203109741210938e+01,1.744334869384765625e+02,3.432709884643554688e+01,5.458876419067382812e+01
3.840000033378601074e-01,2.000000000000000000e+00,2.964089012145996094e+01,-6.646075248718261719e+00,5.923320388793945312e+01,-1.631466674804687500e+02,6.076633453369140625e+01,-1.096250991821289062e+02,8.639829254150390625e+01,1.741302680969238281e+01,6.096292877197265625e+01,1.744393157958984375e+02,3.434043121337890625e+01,5.458116912841796875e+01
3.880000114440917969e-01,2.000000000000000000e+00,2.957320404052734375e+01,-6.609932422637939453e+00,5.920598602294921875e+01,-1.631559906005859375e+02,6.077758026123046875e+01,-1.096035842895507812e+02,8.636152648925781250e+01,1.739144325256347656e+01,6.093383407592773438e+01,1.744451446533203125e+02,3.435376358032226562e+01,5.457357788085937500e+01
3.919999897480010986e-01,2.000000000000000000e+00,2.950553703308105469e+01,-6.573801040649414062e+00,5.917877960205078125e+01,-1.631653289794921875e+02,6.078881454467773438e+01,-1.095820846557617188e+02,8.632478332519531250e+01,1.736986541748046875e+01,6.090475082397460938e+01,1.744509735107421875e+02,3.436708831787109375e+01,5.456599044799804688e+01
3.959999978542327881e-01,2.000000000000000000e+00,2.943789100646972656e+01,-6.537681102752685547e+00,5.915158462524414062e+01,-1.631746520996093750e+02,6.080004882812500000e+01,-1.095605850219726562e+02,8.628803253173828125e+01,1.734829711914062500e+01,6.087567901611328125e+01,1.744567871093750000e+02,3.438040924072265625e+01,5.455840301513671875e+01
4.000000059604644775e-01,2.000000000000000000e+00,2.937026405334472656e+01,-6.501573085784912109e+00,5.912440109252929688e+01,-1.631839752197265625e+02,6.081127929687500000e+01,-1.095391006469726562e+02,8.625131225585937500e+01,1.732673263549804688e+01,6.084661102294921875e+01,1.744626159667968750e+02,3.439372634887695312e+01,5.455081939697265625e+01
4.040000140666961670e-01,2.000000000000000000e+00,2.930266189575195312e+01,-6.465476512908935547e+00,5.909721374511718750e+01,-1.631932830810546875e+02,6.082250595092773438e+01,-1.095176162719726562e+02,8.621459197998046875e+01,1.730517768859863281e+01,6.081755447387695312e+01,1.744684295654296875e+02,3.440703582763671875e+01,5.454323959350585938e+01
4.079999923706054688e-01,2.000000000000000000e+00,2.923507881164550781e+01,-6.429391384124755859e+00,5.907004547119140625e+01,-1.632026062011718750e+02,6.083372879028320312e+01,-1.094961395263671875e+02,8.617788696289062500e+01,1.728362846374511719e+01,6.078850555419921875e+01,1.744742431640625000e+02,3.442034530639648438e+01,5.453565979003906250e+01
4.120000004768371582e-01,2.000000000000000000e+00,2.916752052307128906e+01,-6.393318176269531250e+00,5.904288864135742188e+01,-1.632119140625000000e+02,6.084494400024414062e+01,-1.094746704101562500e+02,8.614118194580078125e+01,1.726208496093750000e+01,6.075947189331054688e+01,1.744800720214843750e+02,3.443364715576171875e+01,5.452808380126953125e+01
4.160000085830688477e-01,2.000000000000000000e+00,2.909997940063476562e+01,-6.357256889343261719e+00,5.901573181152343750e+01,-1.632212371826171875e+02,6.085615921020507812e+01,-1.094532089233398438e+02,8.610450744628906250e+01,1.724054908752441406e+01,6.073044204711914062e+01,1.744858856201171875e+02,3.444694900512695312e+01,5.452051162719726562e+01
4.199999868869781494e-01,2.000000000000000000e+00,2.903246116638183594e+01,-6.321206569671630859e+00,5.898858642578125000e+01,-1.632305450439453125e+02,6.086737442016601562e+01,-1.094317550659179688e+02,8.606783294677734375e+01,1.721901893615722656e+01,6.070142364501953125e+01,1.744916992187500000e+02,3.446024322509765625e+01,5.451293945312500000e+01
4.239999949932098389e-01,2.000000000000000000e+00,2.896496391296386719e+01,-6.285167217254638672e+00,5.896145248413085938e+01,-1.632398376464843750e+02,6.087858200073242188e+01,-1.094103012084960938e+02,8.603117370605468750e+01,1.719749832153320312e+01,6.067241287231445312e+01,1.744975128173828125e+02,3.447353744506835938e+01,5.450536727905273438e+01
4.280000030994415283e-01,2.000000000000000000e+00,2.889748954772949219e+01,-6.249139308929443359e+00,5.893432235717773438e+01,-1.632491455078125000e+02,6.088979339599609375e+01,-1.093888626098632812e+02,8.599452209472656250e+01,1.717598152160644531e+01,6.064340591430664062e+01,1.745033111572265625e+02,3.448682403564453125e+01,5.449780273437500000e+01
4.320000112056732178e-01,2.000000000000000000e+00,2.883003425598144531e+01,-6.213121414184570312e+00,5.890719985961914062e+01,-1.632584533691406250e+02,6.090099334716796875e+01,-1.093674316406250000e+02,8.595788574218750000e+01,1.715447235107421875e+01,6.061441802978515625e+01,1.745091247558593750e+02,3.450010681152343750e+01,5.449023818969726562e+01
4.359999895095825195e-01,2.000000000000000000e+00,2.876259994506835938e+01,-6.177114486694335938e+00,5.888008880615234375e+01,-1.632677307128906250e+02,6.091218948364257812e+01,-1.093459930419921875e+02,8.592125701904296875e+01,1.713297080993652344e+01,6.058543014526367188e+01,1.745149230957031250e+02,3.451338195800781250e+01,5.448267364501953125e+01
4.399999976158142090e-01,2.000000000000000000e+00,2.869518661499023438e+01,-6.141119003295898438e+00,5.885298919677734375e+01,-1.632770233154296875e+02,6.092338180541992188e+01,-1.093245773315429688e+02,8.588464355468750000e+01,1.711147499084472656e+01,6.055645751953125000e+01,1.745207366943359375e+02,3.452665710449218750e+01,5.447511672973632812e+01
4.440000057220458984e-01,2.000000000000000000e+00,2.862779617309570312e+01,-6.105134010314941406e+00,5.882589340209960938e+01,-1.632863159179687500e+02,6.093457794189453125e+01,-1.093031616210937500e+02,8.584803771972656250e+01,1.708998680114746094e+01,6.052749252319335938e+01,1.745265350341796875e+02,3.453992843627929688e+01,5.446755981445312500e+01
4.480000138282775879e-01,2.000000000000000000e+00,2.856042480468750000e+01,-6.069160938262939453e+00,5.879880523681640625e+01,-1.632956085205078125e+02,6.094576644897460938e+01,-1.092817535400390625e+02,8.581145477294921875e+01,1.706850433349609375e+01,6.049853897094726562e+01,1.745323486328125000e+02,3.455319595336914062e+01,5.446000289916992188e+01
4.519999921321868896e-01,2.000000000000000000e+00,2.849307441711425781e+01,-6.033198833465576172e+00,5.877172851562500000e+01,-1.633049011230468750e+02,6.095694732666015625e+01,-1.092603530883789062e+02,8.577487945556640625e+01,1.704702949523925781e+01,6.046959304809570312e+01,1.745381317138671875e+02,3.456645584106445312e+01,5.445244979858398438e+01
4.560000002384185791e-01,2.000000000000000000e+00,2.842574691772460938e+01,-5.997248172760009766e+00,5.874466323852539062e+01,-1.633141632080078125e+02,6.096812820434570312e+01,-1.092389602661132812e+02,8.573830413818359375e+01,1.702556228637695312e+01,6.044065093994140625e+01,1.745439453125000000e+02,3.457971954345703125e+01,5.444490051269531250e+01
4.600000083446502686e-01,2.000000000000000000e+00,2.835843849182128906e+01,-5.961308956146240234e+00,5.871760177612304688e+01,-1.633234405517578125e+02,6.097930908203125000e+01,-1.092175674438476562e+02,8.570174407958984375e+01,1.700409889221191406e+01,6.041172790527343750e+01,1.745497283935546875e+02,3.459296798706054688e+01,5.443735122680664062e+01
4.639999866485595703e-01,2.000000000000000000e+00,2.829115295410156250e+01,-5.925380229949951172e+00,5.869054412841796875e+01,-1.633327178955078125e+02,6.099048233032226562e+01,-1.091961898803710938e+02,8.566520690917968750e+01,1.698264312744140625e+01,6.038280105590820312e+01,1.745555267333984375e+02,3.460622024536132812e+01,5.442980575561523438e+01
4.679999947547912598e-01,2.000000000000000000e+00,2.822388648986816406e+01,-5.889463424682617188e+00,5.866349792480468750e+01,-1.633419952392578125e+02,6.100164794921875000e+01,-1.091748123168945312e+02,8.562866973876953125e+01,1.696119499206542969e+01,6.035389328002929688e+01,1.745613250732421875e+02,3.461946487426757812e+01,5.442226028442382812e+01
4.720000028610229492e-01,2.000000000000000000e+00,2.815664291381835938e+01,-5.853557586669921875e+00,5.863646316528320312e+01,-1.633512725830078125e+02,6.101281738281250000e+01,-1.091534423828125000e+02,8.559214782714843750e+01,1.693975448608398438e+01,6.032498931884765625e+01,1.745671081542968750e+02,3.463270568847656250e+01,5.441472244262695312e+01
4.760000109672546387e-01,2.000000000000000000e+00,2.808942031860351562e+01,-5.817663192749023438e+00,5.860943603515625000e+01,-1.633605346679687500e+02,6.102397918701171875e+01,-1.091320800781250000e+02,8.555563354492187500e+01,1.691831970214843750e+01,6.029609680175781250e+01,1.745729064941406250e+02,3.464594268798828125e+01,5.440718460083007812e+01
4.799999892711639404e-01,2.000000000000000000e+00,2.802221679687500000e+01,-5.781779766082763672e+00,5.858242416381835938e+01,-1.633697967529296875e+02,6.103513717651367188e+01,-1.091107330322265625e+02,8.551913452148437500e+01,1.689689064025878906e+01,6.026721191406250000e+01,1.745786743164062500e+02,3.465917587280273438e+01,5.439964675903320312e+01
4.839999973773956299e-01,2.000000000000000000e+00,2.795503616333007812e+01,-5.745907783508300781e+00,5.855541229248046875e+01,-1.633790588378906250e+02,6.104629898071289062e+01,-1.090893783569335938e+02,8.548264312744140625e+01,1.687546920776367188e+01,6.023834228515625000e+01,1.745844726562500000e+02,3.467240905761718750e+01,5.439211273193359375e+01
4.880000054836273193e-01,2.000000000000000000e+00,2.788787651062011719e+01,-5.710046768188476562e+00,5.852841186523437500e+01,-1.633883209228515625e+02,6.105744552612304688e+01,-1.090680389404296875e+02,8.544616699218750000e+01,1.685405540466308594e+01,6.020946884155273438e+01,1.745902557373046875e+02,3.468563079833984375e+01,5.438458251953125000e+01
4.920000135898590088e-01,2.000000000000000000e+00,2.782073783874511719e+01,-5.674197196960449219e+00,5.850141906738281250e+01,-1.633975677490234375e+02,6.106859970092773438e+01,-1.090467071533203125e+02,8.540969848632812500e+01,1.683264541625976562e+01,6.018061828613281250e+01,1.745960235595703125e+02,3.469885253906250000e+01,5.437705230712890625e+01
4.959999918937683105e-01,2.000000000000000000e+00,2.775361824035644531e+01,-5.638358592987060547e+00,5.847443008422851562e+01,-1.634068298339843750e+02,6.107974624633789062e+01,-1.090253753662109375e+02,8.537324523925781250e+01,1.681124496459960938e+01,6.015176773071289062e+01,1.746018066406250000e+02,3.471207046508789062e+01,5.436952590942382812e+01
5.000000000000000000e-01,2.000000000000000000e+00,2.768651962280273438e+01,-5.602530956268310547e+00,5.844745254516601562e+01,-1.634160766601562500e+02,6.109088516235351562e+01,-1.090040588378906250e+02,8.533679962158203125e+01,1.678985023498535156e+01,6.012293243408203125e+01,1.746075897216796875e+02,3.472528457641601562e+01,5.436200332641601562e+01
5.040000081062316895e-01,2.000000000000000000e+00,2.761944389343261719e+01,-5.566714763641357422e+00,5.842048645019531250e+01,-1.634253234863281250e+02,6.110202789306640625e+01,-1.089827423095703125e+02,8.530037689208984375e+01,1.676846122741699219e+01,6.009410095214843750e+01,1.746133575439453125e+02,3.473849105834960938e+01,5.435447692871093750e+01
5.080000162124633789e-01,2.000000000000000000e+00,2.755238914489746094e+01,-5.530909538269042969e+00,5.839352798461914062e+01,-1.634345550537109375e+02,6.111315917968750000e+01,-1.089614257812500000e+02,8.526394653320312500e+01,1.674708175659179688e+01,6.006527709960937500e+01,1.746191253662109375e+02,3.475169372558593750e+01,5.434695816040039062e+01
5.120000243186950684e-01,2.000000000000000000e+00,2.748535346984863281e+01,-5.495116233825683594e+00,5.836657714843750000e+01,-1.634438018798828125e+02,6.112429428100585938e+01,-1.089401321411132812e+02,8.522754669189453125e+01,1.672570610046386719e+01,6.003646850585937500e+01,1.746249084472656250e+02,3.476489639282226562e+01,5.433944320678710938e+01
5.159999728202819824e-01,2.000000000000000000e+00,2.741834068298339844e+01,-5.459332942962646484e+00,5.833963012695312500e+01,-1.634530334472656250e+02,6.113541793823242188e+01,-1.089188385009765625e+02,8.519114685058593750e+01,1.670433807373046875e+01,6.000766754150390625e+01,1.746306762695312500e+02,3.477809143066406250e+01,5.433192443847656250e+01
5.199999809265136719e-01,2.000000000000000000e+00,2.735134506225585938e+01,-5.423561096191406250e+00,5.831269836425781250e+01,-1.634622802734375000e+02,6.114654541015625000e+01,-1.088975448608398438e+02,8.515475463867187500e+01,1.668297576904296875e+01,5.997887039184570312e+01,1.746364440917968750e+02,3.479128265380859375e+01,5.432441711425781250e+01
5.239999890327453613e-01,2.000000000000000000e+00,2.728437423706054688e+01,-5.387801170349121094e+00,5.828577423095703125e+01,-1.634715118408203125e+02,6.115766525268554688e+01,-1.088762664794921875e+02,8.511838531494140625e+01,1.666162109375000000e+01,5.995008850097656250e+01,1.746422119140625000e+02,3.480447387695312500e+01,5.431690216064453125e+01
5.279999971389770508e-01,2.000000000000000000e+00,2.721742248535156250e+01,-5.352051734924316406e+00,5.825885772705078125e+01,-1.634807281494140625e+02,6.116878509521484375e+01,-1.088549880981445312e+02,8.508202362060546875e+01,1.664027214050292969e+01,5.992131042480468750e+01,1.746479797363281250e+02,3.481765365600585938e+01,5.430939483642578125e+01
5.320000052452087402e-01,2.000000000000000000e+00,2.715049171447753906e+01,-5.316313266754150391e+00,5.823194503784179688e+01,-1.634899597167968750e+02,6.117990493774414062e+01,-1.088337173461914062e+02,8.504566955566406250e+01,1.661893081665039062e+01,5.989254379272460938e+01,1.746537475585937500e+02,3.483083343505859375e+01,5.430189132690429688e+01
5.360000133514404297e-01,2.000000000000000000e+00,2.708358192443847656e+01,-5.280586242675781250e+00,5.820504379272460938e+01,-1.634991912841796875e+02,6.119100952148437500e+01,-1.088124618530273438e+02,8.500933074951171875e+01,1.659759521484375000e+01,5.986378860473632812e+01,1.746595001220703125e+02,3.484400939941406250e+01,5.429438781738281250e+01
5.400000214576721191e-01,2.000000000000000000e+00,2.701669311523437500e+01,-5.244869709014892578e+00,5.817815017700195312e+01,-1.635084075927734375e+02,6.120212173461914062e+01,-1.087912063598632812e+02,8.497299957275390625e+01,1.657626914978027344e+01,5.983503341674804688e+01,1.746652679443359375e+02,3.485718154907226562e+01,5.428688430786132812e+01
5.440000295639038086e-01,2.000000000000000000e+00,2.694982528686523438e+01,-5.209165096282958984e+00,5.815126800537109375e+01,-1.635176239013671875e+02,6.121322250366210938e+01,-1.087699584960937500e+02,8.493668365478515625e+01,1.655494689941406250e+01,5.980629730224609375e+01,1.746710052490234375e+02,3.487034988403320312e+01,5.427938842773437500e+01
5.479999780654907227e-01,2.000000000000000000e+00,2.688297843933105469e+01,-5.173471927642822266e+00,5.812438964843750000e+01,-1.635268402099609375e+02,6.122432708740234375e+01,-1.087487182617187500e+02,8.490037536621093750e+01,1.653363037109375000e+01,5.977756500244140625e+01,1.746767730712890625e+02,3.488351058959960938e+01,5.427189254760742188e+01
5.519999861717224121e-01,2.000000000000000000e+00,2.681615066528320312e+01,-5.137790203094482422e+00,5.809752655029296875e+01,-1.635360412597656250e+02,6.123542022705078125e+01,-1.087274703979492188e+02,8.486407470703125000e+01,1.651232147216796875e+01,5.974884414672851562e+01,1.746825256347656250e+02,3.489667129516601562e+01,5.426439666748046875e+01
5.559999942779541016e-01,2.000000000000000000e+00,2.674934768676757812e+01,-5.102119922637939453e+00,5.807066345214843750e+01,-1.635452575683593750e+02,6.124651718139648438e+01,-1.087062454223632812e+02,8.482778930664062500e+01,1.649102020263671875e+01,5.972012710571289062e+01,1.746882781982421875e+02,3.490982818603515625e+01,5.425690078735351562e+01
5.600000023841857910e-01,2.000000000000000000e+00,2.668256187438964844e+01,-5.066461086273193359e+00,5.804381561279296875e+01,-1.635544738769531250e+02,6.125760269165039062e+01,-1.086850280761718750e+02,8.479151916503906250e+01,1.646972656250000000e+01,5.969142150878906250e+01,1.746940307617187500e+02,3.492298126220703125e+01,5.424941253662109375e+01
5.640000104904174805e-01,2.000000000000000000e+00,2.661579704284667969e+01,-5.030813217163085938e+00,5.801697158813476562e+01,-1.635636596679687500e+02,6.126869583129882812e+01,-1.086638107299804688e+02,8.475525665283203125e+01,1.644843673706054688e+01,5.966272735595703125e+01,1.746997833251953125e+02,3.493612289428710938e+01,5.424192810058593750e+01
5.680000185966491699e-01,2.000000000000000000e+00,2.654905319213867188e+01,-4.995176315307617188e+00,5.799013900756835938e+01,-1.635728759765625000e+02,6.127977371215820312e+01,-1.086426010131835938e+02,8.471900177001953125e+01,1.642715454101562500e+01,5.963404083251953125e+01,1.747055206298828125e+02,3.494926834106445312e+01,5.423443984985351562e+01
5.720000267028808594e-01,2.000000000000000000e+00,2.648233032226562500e+01,-4.959549903869628906e+00,5.796331405639648438e+01,-1.635820617675781250e+02,6.129085922241210938e+01,-1.086213989257812500e+02,8.468276214599609375e+01,1.640587806701660156e+01,5.960536193847656250e+01,1.747112731933593750e+02,3.496240615844726562e+01,5.422695922851562500e+01
5.759999752044677734e-01,2.000000000000000000e+00,2.641562843322753906e+01,-4.923933982849121094e+00,5.793650054931640625e+01,-1.635912628173828125e+02,6.130193328857421875e+01,-1.086001968383789062e+02,8.464653778076171875e+01,1.638460922241210938e+01,5.957669448852539062e+01,1.747170104980468750e+02,3.497554016113281250e+01,5.421947860717773438e+01
5.799999833106994629e-01,2.000000000000000000e+00,2.634894752502441406e+01,-4.888328552246093750e+00,5.790968322753906250e+01,-1.636004486083984375e+02,6.131301116943359375e+01,-1.085790100097656250e+02,8.461031341552734375e+01,1.636334800720214844e+01,5.954803466796875000e+01,1.747227630615234375e+02,3.498867416381835938e+01,5.421200180053710938e+01
5.839999914169311523e-01,2.000000000000000000e+00,2.628228569030761719e+01,-4.852734088897705078e+00,5.788288879394531250e+01,-1.636096496582031250e+02,6.132407379150390625e+01,-1.085578308105468750e+02,8.457411193847656250e+01,1.634209251403808594e+01,5.951938247680664062e+01,1.747285003662109375e+02,3.500180053710937500e+01,5.420452499389648438e+01
5.879999995231628418e-01,2.000000000000000000e+00,2.621564674377441406e+01,-4.817151546478271484e+00,5.785609436035156250e+01,-1.636188201904296875e+02,6.133514785766601562e+01,-1.085366516113281250e+02,8.453791809082031250e+01,1.632084274291992188e+01,5.949074172973632812e+01,1.747342376708984375e+02,3.501491928100585938e+01,5.419705200195312500e+01
5.920000076293945312e-01,2.000000000000000000e+00,2.614902496337890625e+01,-4.781579494476318359e+00,5.782930755615234375e+01,-1.636280059814453125e+02,6.134620666503906250e+01,-1.085154876708984375e+02,8.450173187255859375e+01,1.629959869384765625e+01,5.946210479736328125e+01,1.747399749755859375e+02,3.502804183959960938e+01,5.418957901000976562e+01
5.960000157356262207e-01,2.000000000000000000e+00,2.608242416381835938e+01,-4.746018886566162109e+00,5.780253219604492188e+01,-1.636371765136718750e+02,6.135726928710937500e+01,-1.084943161010742188e+02,8.446556091308593750e+01,1.627836418151855469e+01,5.943347930908203125e+01,1.747457122802734375e+02,3.504115676879882812e+01,5.418211364746093750e+01
6.000000238418579102e-01,2.000000000000000000e+00,2.601584625244140625e+01,-4.710469245910644531e+00,5.777576446533203125e+01,-1.636463623046875000e+02,6.136832046508789062e+01,-1.084731674194335938e+02,8.442939758300781250e+01,1.625713539123535156e+01,5.940486907958984375e+01,1.747514343261718750e+02,3.505426788330078125e+01,5.417464828491210938e+01
6.039999723434448242e-01,2.000000000000000000e+00,2.594928550720214844e+01,-4.674930095672607422e+00,5.774900436401367188e+01,-1.636555480957031250e+02,6.137937927246093750e+01,-1.084520111083984375e+02,8.439324951171875000e+01,1.623591232299804688e+01,5.937625503540039062e+01,1.747571716308593750e+02,3.506737136840820312e+01,5.416718292236328125e+01
6.079999804496765137e-01,2.000000000000000000e+00,2.588274765014648438e+01,-4.639401912689208984e+00,5.772225570678710938e+01,-1.636647033691406250e+02,6.139042282104492188e+01,-1.084308700561523438e+02,8.435710906982421875e+01,1.621469497680664062e+01,5.934765625000000000e+01,1.747628936767578125e+02,3.508047485351562500e+01,5.415972137451171875e+01
6.119999885559082031e-01,2.000000000000000000e+00,2.581623077392578125e+01,-4.603884220123291016e+00,5.769551086425781250e+01,-1.636738891601562500e+02,6.140147399902343750e+01,-1.084097366333007812e+02,8.432098388671875000e+01,1.619348526000976562e+01,5.931907272338867188e+01,1.747686157226562500e+02,3.509357452392578125e+01,5.415225982666015625e+01
6.159999966621398926e-01,2.000000000000000000e+00,2.574973297119140625e+01,-4.568377494812011719e+00,5.766877746582031250e+01,-1.636830596923828125e+02,6.141251373291015625e+01,-1.083886032104492188e+02,8.428486633300781250e+01,1.617228126525878906e+01,5.929048919677734375e+01,1.747743530273437500e+02,3.510666656494140625e+01,5.414480590820312500e+01
6.200000047683715820e-01,2.000000000000000000e+00,2.568325424194335938e+01,-4.532882213592529297e+00,5.764205169677734375e+01,-1.636921997070312500e+02,6.142355728149414062e+01,-1.083674774169921875e+02,8.424875640869140625e+01,1.615108299255371094e+01,5.926191711425781250e+01,1.747800750732421875e+02,3.511975860595703125e+01,5.413735198974609375e+01
6.240000128746032715e-01,2.000000000000000000e+00,2.561679840087890625e+01,-4.497397422790527344e+00,5.761532974243164062e+01,-1.637013702392578125e+02,6.143458938598632812e+01,-1.083463592529296875e+02,8.421266174316406250e+01,1.612989425659179688e+01,5.923335647583007812e+01,1.747857971191406250e+02,3.513284301757812500e+01,5.412989807128906250e+01
6.280000209808349609e-01,2.000000000000000000e+00,2.555036163330078125e+01,-4.461923122406005859e+00,5.758862304687500000e+01,-1.637105255126953125e+02,6.144562530517578125e+01,-1.083252487182617188e+02,8.417657470703125000e+01,1.610871124267578125e+01,5.920479583740234375e+01,1.747915039062500000e+02,3.514592742919921875e+01,5.412244796752929688e+01
6.320000290870666504e-01,2.000000000000000000e+00,2.548394584655761719e+01,-4.426460266113281250e+00,5.756192016601562500e+01,-1.637196960449218750e+02,6.145665740966796875e+01,-1.083041458129882812e+02,8.414051055908203125e+01,1.608753204345703125e+01,5.917625427246093750e+01,1.747972259521484375e+02,3.515900421142578125e+01,5.411499786376953125e+01
6.359999775886535645e-01,2.000000000000000000e+00,2.541754913330078125e+01,-4.391007900238037109e+00,5.753522491455078125e+01,-1.637288360595703125e+02,6.146768188476562500e+01,-1.082830505371093750e+02,8.410444641113281250e+01,1.606636238098144531e+01,5.914771652221679688e+01,1.748029479980468750e+02,3.517208099365234375e+01,5.410755538940429688e+01
6.399999856948852539e-01,2.000000000000000000e+00,2.535117340087890625e+01,-4.355566024780273438e+00,5.750854110717773438e+01,-1.637379760742187500e+02,6.147870254516601562e+01,-1.082619552612304688e+02,8.406839752197265625e+01,1.604519653320312500e+01,5.911918640136718750e+01,1.748086700439453125e+02,3.518515014648437500e+01,5.410010910034179688e+01
6.439999938011169434e-01,2.000000000000000000e+00,2.528481674194335938e+01,-4.320135116577148438e+00,5.748186111450195312e+01,-1.637471313476562500e+02,6.148971939086914062e+01,-1.082408676147460938e+02,8.403234863281250000e+01,1.602403831481933594e+01,5.909067153930664062e+01,1.748143768310546875e+02,3.519821548461914062e+01,5.409266662597656250e+01
6.480000019073486328e-01,2.000000000000000000e+00,2.521848297119140625e+01,-4.284715175628662109e+00,5.745518875122070312e+01,-1.637562713623046875e+02,6.150074005126953125e+01,-1.082197875976562500e+02,8.399632263183593750e+01,1.600288772583007812e+01,5.906215667724609375e+01,1.748200836181640625e+02,3.521127700805664062e+01,5.408522796630859375e+01
6.520000100135803223e-01,2.000000000000000000e+00,2.515216636657714844e+01,-4.249306201934814453e+00,5.742853164672851562e+01,-1.637654113769531250e+02,6.151174926757812500e+01,-1.081987152099609375e+02,8.396030426025390625e+01,1.598174095153808594e+01,5.903365325927734375e+01,1.748257904052734375e+02,3.522433853149414062e+01,5.407779312133789062e+01
6.560000181198120117e-01,2.000000000000000000e+00,2.508587265014648438e+01,-4.213907241821289062e+00,5.740187454223632812e+01,-1.637745513916015625e+02,6.152275848388671875e+01,-1.081776504516601562e+02,8.392430114746093750e+01,1.596060180664062500e+01,5.900516510009765625e+01,1.748315124511718750e+02,3.523738861083984375e+01,5.407035827636718750e+01
6.600000262260437012e-01,2.000000000000000000e+00,2.501959800720214844e+01,-4.178519725799560547e+00,5.737522888183593750e+01,-1.637836914062500000e+02,6.153376388549804688e+01,-1.081565856933593750e+02,8.388830566406250000e+01,1.593946933746337891e+01,5.897667694091796875e+01,1.748372192382812500e+02,3.525044250488281250e+01,5.406292343139648438e+01
6.639999747276306152e-01,2.000000000000000000e+00,2.495334243774414062e+01,-4.143142223358154297e+00,5.734859085083007812e+01,-1.637928314208984375e+02,6.154476547241210938e+01,-1.081355361938476562e+02,8.385231781005859375e+01,1.591834354400634766e+01,5.894820022583007812e+01,1.748429107666015625e+02,3.526348876953125000e+01,5.405549621582031250e+01
6.679999828338623047e-01,2.000000000000000000e+00,2.488710784912109375e+01,-4.107776165008544922e+00,5.732196044921875000e+01,-1.638019561767578125e+02,6.155577087402343750e+01,-1.081144866943359375e+02,8.381633758544921875e+01,1.589722251892089844e+01,5.891973114013671875e+01,1.748486175537109375e+02,3.527653121948242188e+01,5.404806900024414062e+01
6.719999909400939941e-01,2.000000000000000000e+00,2.482089233398437500e+01,-4.072420597076416016e+00,5.729534149169921875e+01,-1.638110809326171875e+02,6.156675720214843750e+01,-1.080934448242187500e+02,8.378038024902343750e+01,1.587611103057861328e+01,5.889126968383789062e+01,1.748543243408203125e+02,3.528956985473632812e+01,5.404064178466796875e+01
6.759999990463256836e-01,2.000000000000000000e+00,2.475469779968261719e+01,-4.037075042724609375e+00,5.726873016357421875e+01,-1.638202056884765625e+02,6.157775497436523438e+01,-1.080724105834960938e+02,8.374442291259765625e+01,1.585500335693359375e+01,5.886282348632812500e+01,1.748600158691406250e+02,3.530260467529296875e+01,5.403322219848632812e+01
6.800000071525573730e-01,2.000000000000000000e+00,2.468852233886718750e+01,-4.001740932464599609e+00,5.724212265014648438e+01,-1.638293304443359375e+02,6.158874511718750000e+01,-1.080513839721679688e+02,8.370848083496093750e+01,1.583390140533447266e+01,5.883437728881835938e+01,1.748657073974609375e+02,3.531563568115234375e+01,5.402579879760742188e+01
6.840000152587890625e-01,2.000000000000000000e+00,2.462236785888671875e+01,-3.966416835784912109e+00,5.721552658081054688e+01,-1.638384552001953125e+02,6.159972763061523438e+01,-1.080303573608398438e+02,8.367255401611328125e+01,1.581280803680419922e+01,5.880594253540039062e+01,1.748714141845703125e+02,3.532866287231445312e+01,5.401837921142578125e+01
6.880000233650207520e-01,2.000000000000000000e+00,2.455623245239257812e+01,-3.931103944778442383e+00,5.718893432617187500e+01,-1.638475646972656250e+02,6.161071014404296875e+01,-1.080093383789062500e+02,8.363662719726562500e+01,1.579172039031982422e+01,5.877752304077148438e+01,1.748771057128906250e+02,3.534168624877929688e+01,5.401096343994140625e+01
6.919999718666076660e-01,2.000000000000000000e+00,2.449011611938476562e+01,-3.895801305770874023e+00,5.716235733032226562e+01,-1.638566741943359375e+02,6.162169265747070312e+01,-1.079883346557617188e+02,8.360072326660156250e+01,1.577063751220703125e+01,5.874909973144531250e+01,1.748827972412109375e+02,3.535470581054687500e+01,5.400355148315429688e+01
6.959999799728393555e-01,2.000000000000000000e+00,2.442402076721191406e+01,-3.860509157180786133e+00,5.713578033447265625e+01,-1.638657836914062500e+02,6.163267135620117188e+01,-1.079673309326171875e+02,8.356482696533203125e+01,1.574956226348876953e+01,5.872069549560546875e+01,1.748885040283203125e+02,3.536772155761718750e+01,5.399613571166992188e+01
6.999999880790710449e-01,2.000000000000000000e+00,2.435794639587402344e+01,-3.825228214263916016e+00,5.710921859741210938e+01,-1.638748931884765625e+02,6.164363861083984375e+01,-1.079463348388671875e+02,8.352893066406250000e+01,1.572849273681640625e+01,5.869229507446289062e+01,1.748941802978515625e+02,3.538073348999023438e+01,5.398872375488281250e+01
7.039999961853027344e-01,2.000000000000000000e+00,2.429189109802246094e+01,-3.789957523345947266e+00,5.708265686035156250e+01,-1.638840026855468750e+02,6.165460968017578125e+01,-1.079253463745117188e+02,8.349305725097656250e+01,1.570743083953857422e+01,5.866390228271484375e+01,1.748998565673828125e+02,3.539374160766601562e+01,5.398131942749023438e+01
7.080000042915344238e-01,2.000000000000000000e+00,2.422585487365722656e+01,-3.754697561264038086e+00,5.705611038208007812e+01,-1.638931121826171875e+02,6.166557693481445312e+01,-1.079043579101562500e+02,8.345719146728515625e+01,1.568637466430664062e+01,5.863552093505859375e+01,1.749055633544921875e+02,3.540674591064453125e+01,5.397391510009765625e+01
7.120000123977661133e-01,2.000000000000000000e+00,2.415983963012695312e+01,-3.719447851181030273e+00,5.702956771850585938e+01,-1.639022064208984375e+02,6.167654037475585938e+01,-1.078833770751953125e+02,8.342133331298828125e+01,1.566532421112060547e+01,5.860715103149414062e+01,1.749112396240234375e+02,3.541974258422851562e+01,5.396651077270507812e+01
7.160000205039978027e-01,2.000000000000000000e+00,2.409384346008300781e+01,-3.684209108352661133e+00,5.700303649902343750e+01,-1.639113006591796875e+02,6.168749618530273438e+01,-1.078624114990234375e+02,8.338549041748046875e+01,1.564428043365478516e+01,5.857878494262695312e+01,1.749169311523437500e+02,3.543273544311523438e+01,5.395911026000976562e+01
7.200000286102294922e-01,2.000000000000000000e+00,2.402786636352539062e+01,-3.648980855941772461e+00,5.697650909423828125e+01,-1.639204101562500000e+02,6.169845199584960938e+01,-1.078414459228515625e+02,8.334966278076171875e+01,1.562324333190917969e+01,5.855042266845703125e+01,1.749226074218750000e+02,3.544573211669921875e+01,5.395170974731445312e+01
7.239999771118164062e-01,2.000000000000000000e+00,2.396191024780273438e+01,-3.613763093948364258e+00,5.694999313354492188e+01,-1.639294891357421875e+02,6.170940780639648438e+01,-1.078204879760742188e+02,8.331383514404296875e+01,1.560221290588378906e+01,5.852207946777343750e+01,1.749282836914062500e+02,3.545871734619140625e+01,5.394431686401367188e+01
7.279999852180480957e-01,2.000000000000000000e+00,2.389597320556640625e+01,-3.578556060791015625e+00,5.692348098754882812e+01,-1.639385833740234375e+02,6.172035598754882812e+01,-1.077995300292968750e+02,8.327801513671875000e+01,1.558118820190429688e+01,5.849373245239257812e+01,1.749339599609375000e+02,3.547170257568359375e+01,5.393692016601562500e+01
7.319999933242797852e-01,2.000000000000000000e+00,2.383005714416503906e+01,-3.543359518051147461e+00,5.689698028564453125e+01,-1.639476623535156250e+02,6.173130416870117188e+01,-1.077785873413085938e+02,8.324221801757812500e+01,1.556017017364501953e+01,5.846540069580078125e+01,1.749396362304687500e+02,3.548468017578125000e+01,5.392952728271484375e+01
7.360000014305114746e-01,2.000000000000000000e+00,2.376416015625000000e+01,-3.508173465728759766e+00,5.687048339843750000e+01,-1.639567565917968750e+02,6.174224853515625000e+01,-1.077576522827148438e+02,8.320642852783203125e+01,1.553915691375732422e+01,5.843708419799804688e+01,1.749453125000000000e+02,3.549765777587890625e+01,5.392213821411132812e+01
7.400000095367431641e-01,2.000000000000000000e+00,2.369828224182128906e+01,-3.472997903823852539e+00,5.684400177001953125e+01,-1.639658203125000000e+02,6.175318908691406250e+01,-1.077367172241210938e+02,8.317064666748046875e+01,1.551815032958984375e+01,5.840876770019531250e+01,1.749509735107421875e+02,3.551063156127929688e+01,5.391475296020507812e+01
7.440000176429748535e-01,2.000000000000000000e+00,2.363242530822753906e+01,-3.437833070755004883e+00,5.681752395629882812e+01,-1.639749145507812500e+02,6.176412582397460938e+01,-1.077157897949218750e+02,8.313488006591796875e+01,1.549715137481689453e+01,5.838046264648437500e+01,1.749566497802734375e+02,3.552359771728515625e+01,5.390736389160156250e+01
7.480000257492065430e-01,2.000000000000000000e+00,2.356658744812011719e+01,-3.402678728103637695e+00,5.679105377197265625e+01,-1.639839782714843750e+02,6.177505874633789062e+01,-1.076948623657226562e+02,8.309912109375000000e+01,1.547615909576416016e+01,5.835216522216796875e+01,1.749623260498046875e+02,3.553656387329101562e+01,5.389998245239257812e+01
7.519999742507934570e-01,2.000000000000000000e+00,2.350077056884765625e+01,-3.367534875869750977e+00,5.676459121704101562e+01,-1.639930572509765625e+02,6.178598785400390625e+01,-1.076739501953125000e+02,8.306336975097656250e+01,1.545517158508300781e+01,5.832387542724609375e+01,1.749679870605468750e+02,3.554952239990234375e+01,5.389260101318359375e+01
7.559999823570251465e-01,2.000000000000000000e+00,2.343497276306152344e+01,-3.332401514053344727e+00,5.673813629150390625e+01,-1.640021362304687500e+02,6.179691696166992188e+01,-1.076530380249023438e+02,8.302763366699218750e+01,1.543419075012207031e+01,5.829559707641601562e+01,1.749736633300781250e+02,3.556248092651367188e+01,5.388521957397460938e+01
7.599999904632568359e-01,2.000000000000000000e+00,2.336919212341308594e+01,-3.297278881072998047e+00,5.671168899536132812e+01,-1.640111846923828125e+02,6.180783843994140625e+01,-1.076321334838867188e+02,8.299190521240234375e+01,1.541321659088134766e+01,5.826732635498046875e+01,1.749793090820312500e+02,3.557543182373046875e+01,5.387784576416015625e+01
7.639999985694885254e-01,2.000000000000000000e+00,2.330343437194824219e+01,-3.262166500091552734e+00,5.668525314331054688e+01,-1.640202636718750000e+02,6.181875991821289062e+01,-1.076112442016601562e+02,8.295618438720703125e+01,1.539224815368652344e+01,5.823905563354492188e+01,1.749849853515625000e+02,3.558838272094726562e+01,5.387047195434570312e+01
7.680000066757202148e-01,2.000000000000000000e+00,2.323769378662109375e+01,-3.227064609527587891e+00,5.665882110595703125e+01,-1.640293121337890625e+02,6.182967376708984375e+01,-1.075903472900390625e+02,8.292048645019531250e+01,1.537128639221191406e+01,5.821080780029296875e+01,1.749906311035156250e+02,3.560132980346679688e+01,5.386309814453125000e+01
7.720000147819519043e-01,2.000000000000000000e+00,2.317197608947753906e+01,-3.191973209381103516e+00,5.663240051269531250e+01,-1.640383758544921875e+02,6.184058761596679688e+01,-1.075694732666015625e+02,8.288478851318359375e+01,1.535033130645751953e+01,5.818255615234375000e+01,1.749962921142578125e+02,3.561426925659179688e+01,5.385572814941406250e+01
7.760000228881835938e-01,2.000000000000000000e+00,2.310627365112304688e+01,-3.156892299652099609e+00,5.660598754882812500e+01,-1.640474243164062500e+02,6.185149765014648438e+01,-1.075485916137695312e+02,8.284910583496093750e+01,1.532938098907470703e+01,5.815431976318359375e+01,1.750019531250000000e+02,3.562720489501953125e+01,5.384836196899414062e+01
7.799999713897705078e-01,2.000000000000000000e+00,2.304059410095214844e+01,-3.121822118759155273e+00,5.657957839965820312e+01,-1.640564880371093750e+02,6.186240386962890625e+01,-1.075277175903320312e+02,8.281343078613281250e+01,1.530843830108642578e+01,5.812609100341796875e+01,1.750075988769531250e+02,3.564014434814453125e+01,5.384099578857421875e+01
7.839999794960021973e-01,2.000000000000000000e+00,2.297493362426757812e+01,-3.086762189865112305e+00,5.655318069458007812e+01,-1.640655517578125000e+02,6.187331008911132812e+01,-1.075068511962890625e+02,8.277777099609375000e+01,1.528750228881835938e+01,5.809786987304687500e+01,1.750132598876953125e+02,3.565307235717773438e+01,5.383363342285156250e+01
7.879999876022338867e-01,2.000000000000000000e+00,2.290929222106933594e+01,-3.051712512969970703e+00,5.652679061889648438e+01,-1.640745849609375000e+02,6.188421249389648438e+01,-1.074860000610351562e+02,8.274211120605468750e+01,1.526657104492187500e+01,5.806965255737304688e+01,1.750189208984375000e+02,3.566599655151367188e+01,5.382627105712890625e+01
7.919999957084655762e-01,2.000000000000000000e+00,2.284366989135742188e+01,-3.016673564910888672e+00,5.650040435791015625e+01,-1.640836334228515625e+02,6.189510726928710938e+01,-1.074651489257812500e+02,8.270647430419921875e+01,1.524564647674560547e+01,5.804145431518554688e+01,1.750245666503906250e+02,3.567891693115234375e+01,5.381891250610351562e+01
7.960000038146972656e-01,2.000000000000000000e+00,2.277806854248046875e+01,-2.981645107269287109e+00,5.647402954101562500e+01,-1.640926666259765625e+02,6.190600204467773438e+01,-1.074442901611328125e+02,8.267084503173828125e+01,1.522472953796386719e+01,5.801325607299804688e+01,1.750302124023437500e+02,3.569183731079101562e+01,5.381155395507812500e+01
8.000000119209289551e-01,2.000000000000000000e+00,2.271248626708984375e+01,-2.946626901626586914e+00,5.644766616821289062e+01,-1.641017150878906250e+02,6.191689682006835938e+01,-1.074234542846679688e+02,8.263522338867187500e+01,1.520381641387939453e+01,5.798506927490234375e+01,1.750358581542968750e+02,3.570475006103515625e+01,5.380419921875000000e+01
8.040000200271606445e-01,2.000000000000000000e+00,2.264692306518554688e+01,-2.911619186401367188e+00,5.642130279541015625e+01,-1.641107635498046875e+02,6.192778396606445312e+01,-1.074026260375976562e+02,8.259961700439453125e+01,1.518291091918945312e+01,5.795688629150390625e+01,1.750415039062500000e+02,3.571766281127929688e+01,5.379684829711914062e+01
8.080000281333923340e-01,2.000000000000000000e+00,2.258137893676757812e+01,-2.876621961593627930e+00,5.639495468139648438e+01,-1.641197967529296875e+02,6.193866348266601562e+01,-1.073817977905273438e+02,8.256401824951171875e+01,1.516201305389404297e+01,5.792871856689453125e+01,1.750471496582031250e+02,3.573056793212890625e+01,5.378949737548828125e+01
8.119999766349792480e-01,2.000000000000000000e+00,2.251585578918457031e+01,-2.841635227203369141e+00,5.636861038208007812e+01,-1.641288146972656250e+02,6.194954299926757812e+01,-1.073609695434570312e+02,8.252842712402343750e+01,1.514111900329589844e+01,5.790055084228515625e+01,1.750527954101562500e+02,3.574346923828125000e+01,5.378215026855468750e+01
8.159999847412109375e-01,2.000000000000000000e+00,2.245034980773925781e+01,-2.806658506393432617e+00,5.634227371215820312e+01,-1.641378479003906250e+02,6.196042251586914062e+01,-1.073401565551757812e+02,8.249284362792968750e+01,1.512023258209228516e+01,5.787239837646484375e+01,1.750584259033203125e+02,3.575636672973632812e+01,5.377480316162109375e+01
8.199999928474426270e-01,2.000000000000000000e+00,2.238486671447753906e+01,-2.771692514419555664e+00,5.631594467163085938e+01,-1.641468811035156250e+02,6.197129821777343750e+01,-1.073193511962890625e+02,8.245728302001953125e+01,1.509935092926025391e+01,5.784424972534179688e+01,1.750640563964843750e+02,3.576926422119140625e+01,5.376745986938476562e+01
8.240000009536743164e-01,2.000000000000000000e+00,2.231940078735351562e+01,-2.736736774444580078e+00,5.628962326049804688e+01,-1.641559143066406250e+02,6.198217010498046875e+01,-1.072985458374023438e+02,8.242172241210937500e+01,1.507847595214843750e+01,5.781611633300781250e+01,1.750697021484375000e+02,3.578215408325195312e+01,5.376012039184570312e+01
8.280000090599060059e-01,2.000000000000000000e+00,2.225395393371582031e+01,-2.701791524887084961e+00,5.626331329345703125e+01,-1.641649169921875000e+02,6.199303817749023438e+01,-1.072777481079101562e+02,8.238617706298828125e+01,1.505760765075683594e+01,5.778799057006835938e+01,1.750753479003906250e+02,3.579504394531250000e+01,5.375278091430664062e+01
8.320000171661376953e-01,2.000000000000000000e+00,2.218852806091308594e+01,-2.666856527328491211e+00,5.623700714111328125e+01,-1.641739349365234375e+02,6.200390625000000000e+01,-1.072569580078125000e+02,8.235063934326171875e+01,1.503674507141113281e+01,5.775986480712890625e+01,1.750809783935546875e+02,3.580792617797851562e+01,5.374544143676757812e+01
8.360000252723693848e-01,2.000000000000000000e+00,2.212311935424804688e+01,-2.631932020187377930e+00,5.621071243286132812e+01,-1.641829528808593750e+02,6.201476287841796875e+01,-1.072361679077148438e+02,8.231511688232421875e+01,1.501588916778564453e+01,5.773175048828125000e+01,1.750865936279296875e+02,3.582080841064453125e+01,5.373810577392578125e+01
8.399999737739562988e-01,2.000000000000000000e+00,2.205773162841796875e+01,-2.597018003463745117e+00,5.618442153930664062e+01,-1.641919708251953125e+02,6.202562332153320312e+01,-1.072153930664062500e+02,8.227960205078125000e+01,1.499503993988037109e+01,5.770365142822265625e+01,1.750922241210937500e+02,3.583368301391601562e+01,5.373077392578125000e+01
8.439999818801879883e-01,2.000000000000000000e+00,2.199236488342285156e+01,-2.562114238739013672e+00,5.615814208984375000e+01,-1.642009887695312500e+02,6.203647613525390625e+01,-1.071946258544921875e+02,8.224409484863281250e+01,1.497419643402099609e+01,5.767555236816406250e+01,1.750978546142578125e+02,3.584655380249023438e+01,5.372344589233398438e+01
8.479999899864196777e-01,2.000000000000000000e+00,2.192701530456542969e+01,-2.527220726013183594e+00,5.613186645507812500e+01,-1.642099914550781250e+02,6.204733276367187500e+01,-1.071738586425781250e+02,8.220860290527343750e+01,1.495335865020751953e+01,5.764746475219726562e+01,1.751034851074218750e+02,3.585942077636718750e+01,5.371611404418945312e+01
8.519999980926513672e-01,2.000000000000000000e+00,2.186168289184570312e+01,-2.492337465286254883e+00,5.610560226440429688e+01,-1.642189941406250000e+02,6.205817794799804688e+01,-1.071530914306640625e+02,8.217311859130859375e+01,1.493252849578857422e+01,5.761938858032226562e+01,1.751091156005859375e+02,3.587228775024414062e+01,5.370878982543945312e+01
8.560000061988830566e-01,2.000000000000000000e+00,2.179637336730957031e+01,-2.457464694976806641e+00,5.607934570312500000e+01,-1.642279968261718750e+02,6.206902313232421875e+01,-1.071323471069335938e+02,8.213764953613281250e+01,1.491170310974121094e+01,5.759131622314453125e+01,1.751147460937500000e+02,3.588514709472656250e+01,5.370146560668945312e+01
8.600000143051147461e-01,2.000000000000000000e+00,2.173108291625976562e+01,-2.422602176666259766e+00,5.605309677124023438e+01,-1.642369995117187500e+02,6.207986831665039062e+01,-1.071115951538085938e+02,8.210218811035156250e+01,1.489088344573974609e+01,5.756325912475585938e+01,1.751203613281250000e+02,3.589800643920898438e+01,5.369414138793945312e+01
8.640000224113464355e-01,2.000000000000000000e+00,2.166581153869628906e+01,-2.387750148773193359e+00,5.602685165405273438e+01,-1.642460021972656250e+02,6.209070968627929688e+01,-1.070908508300781250e+02,8.206673431396484375e+01,1.487007141113281250e+01,5.753519821166992188e+01,1.751259765625000000e+02,3.591085815429687500e+01,5.368682479858398438e+01
8.679999709129333496e-01,2.000000000000000000e+00,2.160055923461914062e+01,-2.352908134460449219e+00,5.600061798095703125e+01,-1.642549896240234375e+02,6.210154342651367188e+01,-1.070701217651367188e+02,8.203129577636718750e+01,1.484926509857177734e+01,5.750715255737304688e+01,1.751315917968750000e+02,3.592370986938476562e+01,5.367950439453125000e+01
8.719999790191650391e-01,2.000000000000000000e+00,2.153532600402832031e+01,-2.318076848983764648e+00,5.597439193725585938e+01,-1.642639923095703125e+02,6.211237335205078125e+01,-1.070493927001953125e+02,8.199586486816406250e+01,1.482846355438232422e+01,5.747911453247070312e+01,1.751372070312500000e+02,3.593655395507812500e+01,5.367219161987304688e+01
8.759999871253967285e-01,2.000000000000000000e+00,2.147011184692382812e+01,-2.283255338668823242e+00,5.594816970825195312e+01,-1.642729797363281250e+02,6.212320709228515625e+01,-1.070286712646484375e+02,8.196044158935546875e+01,1.480766963958740234e+01,5.745108413696289062e+01,1.751428222656250000e+02,3.594939804077148438e+01,5.366487503051757812e+01
8.799999952316284180e-01,2.000000000000000000e+00,2.140491676330566406e+01,-2.248444557189941406e+00,5.592195892333984375e+01,-1.642819671630859375e+02,6.213403320312500000e+01,-1.070079498291015625e+02,8.192503356933593750e+01,1.478688144683837891e+01,5.742306900024414062e+01,1.751484375000000000e+02,3.596223449707031250e+01,5.365756607055664062e+01
8.840000033378601074e-01,2.000000000000000000e+00,2.133974075317382812e+01,-2.213643789291381836e+00,5.589575958251953125e+01,-1.642909393310546875e+02,6.214485168457031250e+01,-1.069872360229492188e+02,8.188963317871093750e+01,1.476609897613525391e+01,5.739505767822265625e+01,1.751540527343750000e+02,3.597506713867187500e+01,5.365025711059570312e+01
8.880000114440917969e-01,2.000000000000000000e+00,2.127458572387695312e+01,-2.178853511810302734e+00,5.586956024169921875e+01,-1.642999267578125000e+02,6.215567779541015625e+01,-1.069665374755859375e+02,8.185424804687500000e+01,1.474532318115234375e+01,5.736705398559570312e+01,1.751596679687500000e+02,3.598789978027343750e+01,5.364295196533203125e+01
8.920000195503234863e-01,2.000000000000000000e+00,2.120944786071777344e+01,-2.144073486328125000e+00,5.584337615966796875e+01,-1.643088989257812500e+02,6.216649246215820312e+01,-1.069458312988281250e+02,8.181886291503906250e+01,1.472455406188964844e+01,5.733905792236328125e+01,1.751652679443359375e+02,3.600072479248046875e+01,5.363564682006835938e+01
8.960000276565551758e-01,2.000000000000000000e+00,2.114433097839355469e+01,-2.109303474426269531e+00,5.581719589233398438e+01,-1.643178863525390625e+02,6.217730331420898438e+01,-1.069251480102539062e+02,8.178350067138671875e+01,1.470379066467285156e+01,5.731106567382812500e+01,1.751708831787109375e+02,3.601354598999023438e+01,5.362834548950195312e+01
8.999999761581420898e-01,2.000000000000000000e+00,2.107923316955566406e+01,-2.074543952941894531e+00,5.579101943969726562e+01,-1.643268585205078125e+02,6.218811416625976562e+01,-1.069044570922851562e+02,8.174814605712890625e+01,1.468303394317626953e+01,5.728308486938476562e+01,1.751764831542968750e+02,3.602636718750000000e+01,5.362104415893554688e+01
9.039999842643737793e-01,2.000000000000000000e+00,2.101415443420410156e+01,-2.039794683456420898e+00,5.576485443115234375e+01,-1.643358306884765625e+02,6.219892120361328125e+01,-1.068837738037109375e+02,8.171279907226562500e+01,1.466228199005126953e+01,5.725511169433593750e+01,1.751820831298828125e+02,3.603918457031250000e+01,5.361374282836914062e+01
9.079999923706054688e-01,2.000000000000000000e+00,2.094909286499023438e+01,-2.005055427551269531e+00,5.573869705200195312e+01,-1.643447875976562500e+02,6.220972442626953125e+01,-1.068631057739257812e+02,8.167745971679687500e+01,1.464153671264648438e+01,5.722714996337890625e+01,1.751876831054687500e+02,3.605199432373046875e+01,5.360644912719726562e+01
9.120000004768371582e-01,2.000000000000000000e+00,2.088405418395996094e+01,-1.970326423645019531e+00,5.571254730224609375e+01,-1.643537597656250000e+02,6.222053146362304688e+01,-1.068424377441406250e+02,8.164213562011718750e+01,1.462079715728759766e+01,5.719919967651367188e+01,1.751932830810546875e+02,3.606480026245117188e+01,5.359915542602539062e+01
9.160000085830688477e-01,2.000000000000000000e+00,2.081903076171875000e+01,-1.935608029365539551e+00,5.568640518188476562e+01,-1.643627319335937500e+02,6.223132324218750000e+01,-1.068217697143554688e+02,8.160681152343750000e+01,1.460006427764892578e+01,5.717124938964843750e+01,1.751988830566406250e+02,3.607760238647460938e+01,5.359186553955078125e+01
9.200000166893005371e-01,2.000000000000000000e+00,2.075402832031250000e+01,-1.900899529457092285e+00,5.566027450561523438e+01,-1.643716888427734375e+02,6.224212265014648438e+01,-1.068011169433593750e+02,8.157151031494140625e+01,1.457933807373046875e+01,5.714331436157226562e+01,1.752044830322265625e+02,3.609040451049804688e+01,5.358457183837890625e+01
9.240000247955322266e-01,2.000000000000000000e+00,2.068904685974121094e+01,-1.866201281547546387e+00,5.563414382934570312e+01,-1.643806304931640625e+02,6.225291442871093750e+01,-1.067804641723632812e+02,8.153621673583984375e+01,1.455861663818359375e+01,5.711537933349609375e+01,1.752100830078125000e+02,3.610320281982421875e+01,5.357728576660156250e+01
9.279999732971191406e-01,2.000000000000000000e+00,2.062408065795898438e+01,-1.831513166427612305e+00,5.560802841186523438e+01,-1.643896026611328125e+02,6.226369857788085938e+01,-1.067598266601562500e+02,8.150093078613281250e+01,1.453790283203125000e+01,5.708745956420898438e+01,1.752156829833984375e+02,3.611599349975585938e+01,5.356999969482421875e+01
9.319999814033508301e-01,2.000000000000000000e+00,2.055913543701171875e+01,-1.796835422515869141e+00,5.558191680908203125e+01,-1.643985443115234375e+02,6.227448272705078125e+01,-1.067391891479492188e+02,8.146565246582031250e+01,1.451719284057617188e+01,5.705954360961914062e+01,1.752212677001953125e+02,3.612878036499023438e+01,5.356271743774414062e+01
9.359999895095825195e-01,2.000000000000000000e+00,2.049420928955078125e+01,-1.762167692184448242e+00,5.555581283569335938e+01,-1.644074859619140625e+02,6.228526687622070312e+01,-1.067185516357421875e+02,8.143039703369140625e+01,1.449649143218994141e+01,5.703163909912109375e+01,1.752268524169921875e+02,3.614156723022460938e+01,5.355543518066406250e+01
9.399999976158142090e-01,2.000000000000000000e+00,2.042930221557617188e+01,-1.727510213851928711e+00,5.552972030639648438e+01,-1.644164428710937500e+02,6.229604721069335938e+01,-1.066979293823242188e+02,8.139514160156250000e+01,1.447579383850097656e+01,5.700374221801757812e+01,1.752324371337890625e+02,3.615434646606445312e+01,5.354815673828125000e+01
9.440000057220458984e-01,2.000000000000000000e+00,2.036441421508789062e+01,-1.692862987518310547e+00,5.550363159179687500e+01,-1.644253845214843750e+02,6.230682373046875000e+01,-1.066773071289062500e+02,8.135989379882812500e+01,1.445510387420654297e+01,5.697585296630859375e+01,1.752380218505859375e+02,3.616712570190429688e+01,5.354088211059570312e+01
9.480000138282775879e-01,2.000000000000000000e+00,2.029954528808593750e+01,-1.658225893974304199e+00,5.547755050659179688e+01,-1.644343261718750000e+02,6.231759643554687500e+01,-1.066567001342773438e+02,8.132466888427734375e+01,1.443441963195800781e+01,5.694797515869140625e+01,1.752436065673828125e+02,3.617989730834960938e+01,5.353360748291015625e+01
9.520000219345092773e-01,2.000000000000000000e+00,2.023469543457031250e+01,-1.623598933219909668e+00,5.545147705078125000e+01,-1.644432678222656250e+02,6.232836532592773438e+01,-1.066360931396484375e+02,8.128944396972656250e+01,1.441374111175537109e+01,5.692010116577148438e+01,1.752492065429687500e+02,3.619266891479492188e+01,5.352633666992187500e+01
9.559999704360961914e-01,2.000000000000000000e+00,2.016986465454101562e+01,-1.588982105255126953e+00,5.542541122436523438e+01,-1.644521942138671875e+02,6.233913040161132812e+01,-1.066154861450195312e+02,8.125423431396484375e+01,1.439306831359863281e+01,5.689223480224609375e+01,1.752547912597656250e+02,3.620543670654296875e+01,5.351906585693359375e+01
9.599999785423278809e-01,2.000000000000000000e+00,2.010505294799804688e+01,-1.554375529289245605e+00,5.539935302734375000e+01,-1.644611358642578125e+02,6.234989547729492188e+01,-1.065948944091796875e+02,8.121903228759765625e+01,1.437240314483642578e+01,5.686437988281250000e+01,1.752603607177734375e+02,3.621819686889648438e+01,5.351179504394531250e+01
9.639999866485595703e-01,2.000000000000000000e+00,2.004026031494140625e+01,-1.519778966903686523e+00,5.537330245971679688e+01,-1.644700622558593750e+02,6.236065292358398438e+01,-1.065743026733398438e+02,8.118383789062500000e+01,1.435174179077148438e+01,5.683652877807617188e+01,1.752659454345703125e+02,3.623095703125000000e+01,5.350453186035156250e+01
9.679999947547912598e-01,2.000000000000000000e+00,1.997548675537109375e+01,-1.485192656517028809e+00,5.534726333618164062e+01,-1.644790039062500000e+02,6.237141036987304688e+01,-1.065537185668945312e+02,8.114865112304687500e+01,1.433108901977539062e+01,5.680868911743164062e+01,1.752715148925781250e+02,3.624371337890625000e+01,5.349726486206054688e+01
9.720000028610229492e-01,2.000000000000000000e+00,1.991073036193847656e+01,-1.450616359710693359e+00,5.532122802734375000e+01,-1.644879302978515625e+02,6.238216018676757812e+01,-1.065331420898437500e+02,8.111347961425781250e+01,1.431044101715087891e+01,5.678086090087890625e+01,1.752770996093750000e+02,3.625646591186523438e+01,5.349000167846679688e+01
9.760000109672546387e-01,2.000000000000000000e+00,1.984599685668945312e+01,-1.416050314903259277e+00,5.529520034790039062e+01,-1.644968566894531250e+02,6.239291000366210938e+01,-1.065125732421875000e+02,8.107832336425781250e+01,1.428979969024658203e+01,5.675303268432617188e+01,1.752826690673828125e+02,3.626921081542968750e+01,5.348274612426757812e+01
9.800000190734863281e-01,2.000000000000000000e+00,1.978127861022949219e+01,-1.381494402885437012e+00,5.526918029785156250e+01,-1.645057830810546875e+02,6.240366363525390625e+01,-1.064920043945312500e+02,8.104317474365234375e+01,1.426916313171386719e+01,5.672521591186523438e+01,1.752882385253906250e+02,3.628195571899414062e+01,5.347548675537109375e+01
9.840000271797180176e-01,2.000000000000000000e+00,1.971657943725585938e+01,-1.346948385238647461e+00,5.524317169189453125e+01,-1.645146789550781250e+02,6.241440582275390625e+01,-1.064714508056640625e+02,8.100803375244140625e+01,1.424853324890136719e+01,5.669741058349609375e+01,1.752938079833984375e+02,3.629469680786132812e+01,5.346823120117187500e+01
9.879999756813049316e-01,2.000000000000000000e+00,1.965190124511718750e+01,-1.312412619590759277e+00,5.521716690063476562e+01,-1.645236053466796875e+02,6.242514419555664062e+01,-1.064508895874023438e+02,8.097290802001953125e+01,1.422790908813476562e+01,5.666961288452148438e+01,1.752993774414062500e+02,3.630743026733398438e+01,5.346097564697265625e+01
9.919999837875366211e-01,2.000000000000000000e+00,1.958724021911621094e+01,-1.277886867523193359e+00,5.519116973876953125e+01,-1.645325317382812500e+02,6.243587875366210938e+01,-1.064303436279296875e+02,8.093778228759765625e+01,1.420729160308837891e+01,5.664181900024414062e+01,1.753049468994140625e+02,3.632016372680664062e+01,5.345372772216796875e+01
9.959999918937683105e-01,2.000000000000000000e+00,1.952259826660156250e+01,-1.243371248245239258e+00,5.516518020629882812e+01,-1.645414276123046875e+02,6.244661712646484375e+01,-1.064098052978515625e+02,8.090267944335937500e+01,1.418667984008789062e+01,5.661403656005859375e+01,1.753105010986328125e+02,3.633289337158203125e+01,5.344647598266601562e+01
1.000000000000000000e+00,2.000000000000000000e+00,1.945797538757324219e+01,-1.208865642547607422e+00,5.513919830322265625e+01,-1.645503387451171875e+02,6.245734786987304688e+01,-1.063892669677734375e+02,8.086757659912109375e+01,1.416607379913330078e+01,5.658626174926757812e+01,1.753160858154296875e+02,3.634561920166015625e+01,5.343922805786132812e+01
1.003999948501586914e+00,2.000000000000000000e+00,1.939337348937988281e+01,-1.174370288848876953e+00,5.511322784423828125e+01,-1.645592498779296875e+02,6.246807861328125000e+01,-1.063687438964843750e+02,8.083248901367187500e+01,1.414547348022460938e+01,5.655849456787109375e+01,1.753216400146484375e+02,3.635834121704101562e+01,5.343198776245117188e+01
1.008000016212463379e+00,2.000000000000000000e+00,1.932878875732421875e+01,-1.139884829521179199e+00,5.508725738525390625e+01,-1.645681457519531250e+02,6.247880172729492188e+01,-1.063482208251953125e+02,8.079740905761718750e+01,1.412487983703613281e+01,5.653073501586914062e+01,1.753271942138671875e+02,3.637105941772460938e+01,5.342474365234375000e+01
1.011999964714050293e+00,2.000000000000000000e+00,1.926422119140625000e+01,-1.105409502983093262e+00,5.506130218505859375e+01,-1.645770416259765625e+02,6.248952484130859375e+01,-1.063276977539062500e+02,8.076234436035156250e+01,1.410429286956787109e+01,5.650298309326171875e+01,1.753327636718750000e+02,3.638377380371093750e+01,5.341750335693359375e+01
1.016000032424926758e+00,2.000000000000000000e+00,1.919967460632324219e+01,-1.070944070816040039e+00,5.503535079956054688e+01,-1.645859375000000000e+02,6.250024032592773438e+01,-1.063071899414062500e+02,8.072728729248046875e+01,1.408371067047119141e+01,5.647524261474609375e+01,1.753383178710937500e+02,3.639648437500000000e+01,5.341026306152343750e+01
1.019999980926513672e+00,2.000000000000000000e+00,1.913514518737792969e+01,-1.036488890647888184e+00,5.500940322875976562e+01,-1.645948486328125000e+02,6.251095581054687500e+01,-1.062866821289062500e+02,8.069223022460937500e+01,1.406313514709472656e+01,5.644750976562500000e+01,1.753438873291015625e+02,3.640918731689453125e+01,5.340302658081054688e+01
1.024000048637390137e+00,2.000000000000000000e+00,1.907063674926757812e+01,-1.002043604850769043e+00,5.498347091674804688e+01,-1.646037292480468750e+02,6.252167510986328125e+01,-1.062661819458007812e+02,8.065719604492187500e+01,1.404256534576416016e+01,5.641978073120117188e+01,1.753494262695312500e+02,3.642189025878906250e+01,5.339579391479492188e+01
1.026999950408935547e+00,2.000000000000000000e+00,1.900614547729492188e+01,-9.676084518432617188e-01,5.495754241943359375e+01,-1.646126098632812500e+02,6.253238296508789062e+01,-1.062456893920898438e+02,8.062216949462890625e+01,1.402200222015380859e+01,5.639205932617187500e+01,1.753549804687500000e+02,3.643459320068359375e+01,5.338856124877929688e+01
1.031999945640563965e+00,2.000000000000000000e+00,1.894167327880859375e+01,-9.331832528114318848e-01,5.493162155151367188e+01,-1.646215057373046875e+02,6.254308700561523438e+01,-1.062252044677734375e+02,8.058715820312500000e+01,1.400144386291503906e+01,5.636434936523437500e+01,1.753605346679687500e+02,3.644728851318359375e+01,5.338132858276367188e+01
1.036000013351440430e+00,2.000000000000000000e+00,1.887722015380859375e+01,-8.987681865692138672e-01,5.490570831298828125e+01,-1.646303863525390625e+02,6.255379104614257812e+01,-1.062047195434570312e+02,8.055214691162109375e+01,1.398089218139648438e+01,5.633664703369140625e+01,1.753660736083984375e+02,3.645998001098632812e+01,5.337410354614257812e+01
1.039999961853027344e+00,2.000000000000000000e+00,1.881278610229492188e+01,-8.643629550933837891e-01,5.487980270385742188e+01,-1.646392822265625000e+02,6.256449127197265625e+01,-1.061842498779296875e+02,8.051714324951171875e+01,1.396034717559814453e+01,5.630895614624023438e+01,1.753716278076171875e+02,3.647266769409179688e+01,5.336687850952148438e+01
1.044000029563903809e+00,2.000000000000000000e+00,1.874836921691894531e+01,-8.299678564071655273e-01,5.485390472412109375e+01,-1.646481628417968750e+02,6.257518768310546875e+01,-1.061637725830078125e+02,8.048216247558593750e+01,1.393980693817138672e+01,5.628126907348632812e+01,1.753771667480468750e+02,3.648535156250000000e+01,5.335964965820312500e+01
1.047999978065490723e+00,2.000000000000000000e+00,1.868397331237792969e+01,-7.955827116966247559e-01,5.482801055908203125e+01,-1.646570281982421875e+02,6.258588409423828125e+01,-1.061433105468750000e+02,8.044718170166015625e+01,1.391927242279052734e+01,5.625358963012695312e+01,1.753827209472656250e+02,3.649803161621093750e+01,5.335243225097656250e+01
1.052000045776367188e+00,2.000000000000000000e+00,1.861959457397460938e+01,-7.612075209617614746e-01,5.480212783813476562e+01,-1.646659088134765625e+02,6.259657287597656250e+01,-1.061228561401367188e+02,8.041222381591796875e+01,1.389874458312988281e+01,5.622592163085937500e+01,1.753882598876953125e+02,3.651071166992187500e+01,5.334521102905273438e+01
1.054999947547912598e+00,2.000000000000000000e+00,1.855523490905761719e+01,-7.268423438072204590e-01,5.477625656127929688e+01,-1.646747741699218750e+02,6.260726165771484375e+01,-1.061024093627929688e+02,8.037726593017578125e+01,1.387822341918945312e+01,5.619825744628906250e+01,1.753938140869140625e+02,3.652338409423828125e+01,5.333799362182617188e+01
1.059999942779541016e+00,2.000000000000000000e+00,1.849089241027832031e+01,-6.924870610237121582e-01,5.475038909912109375e+01,-1.646836547851562500e+02,6.261794662475585938e+01,-1.060819549560546875e+02,8.034231567382812500e+01,1.385770702362060547e+01,5.617060089111328125e+01,1.753993377685546875e+02,3.653605651855468750e+01,5.333078002929687500e+01
1.064000010490417480e+00,2.000000000000000000e+00,1.842657089233398438e+01,-6.581418514251708984e-01,5.472452926635742188e+01,-1.646925201416015625e+02,6.262862777709960938e+01,-1.060615234375000000e+02,8.030738067626953125e+01,1.383719635009765625e+01,5.614295578002929688e+01,1.754048919677734375e+02,3.654871749877929688e+01,5.332356262207031250e+01
1.067999958992004395e+00,2.000000000000000000e+00,1.836226654052734375e+01,-6.238065958023071289e-01,5.469867324829101562e+01,-1.647013854980468750e+02,6.263930511474609375e+01,-1.060410842895507812e+02,8.027245330810546875e+01,1.381669235229492188e+01,5.611531829833984375e+01,1.754104156494140625e+02,3.656138229370117188e+01,5.331635665893554688e+01
1.072000026702880859e+00,2.000000000000000000e+00,1.829798316955566406e+01,-5.894811749458312988e-01,5.467282867431640625e+01,-1.647102355957031250e+02,6.264997863769531250e+01,-1.060206527709960938e+02,8.023754119873046875e+01,1.379619407653808594e+01,5.608769226074218750e+01,1.754159545898437500e+02,3.657403945922851562e+01,5.330914688110351562e+01
1.075999975204467773e+00,2.000000000000000000e+00,1.823371696472167969e+01,-5.551658272743225098e-01,5.464698791503906250e+01,-1.647191009521484375e+02,6.266065597534179688e+01,-1.060002365112304688e+02,8.020263671875000000e+01,1.377570247650146484e+01,5.606006622314453125e+01,1.754214782714843750e+02,3.658669662475585938e+01,5.330194091796875000e+01
1.080000042915344238e+00,2.000000000000000000e+00,1.816946792602539062e+01,-5.208603143692016602e-01,5.462115859985351562e+01,-1.647279510498046875e+02,6.267132186889648438e+01,-1.059798202514648438e+02,8.016773986816406250e+01,1.375521659851074219e+01,5.603245544433593750e+01,1.754270172119140625e+02,3.659934616088867188e+01,5.329473495483398438e+01
1.083999991416931152e+00,2.000000000000000000e+00,1.810523986816406250e+01,-4.865646064281463623e-01,5.459533691406250000e+01,-1.647368011474609375e+02,6.268198394775390625e+01,-1.059594116210937500e+02,8.013285064697265625e+01,1.373473644256591797e+01,5.600484848022460938e+01,1.754325561523437500e+02,3.661199569702148438e+01,5.328753280639648438e+01
1.088000059127807617e+00,2.000000000000000000e+00,1.804102897644042969e+01,-4.522787928581237793e-01,5.456951904296875000e+01,-1.647456512451171875e+02,6.269265365600585938e+01,-1.059390106201171875e+02,8.009797668457031250e+01,1.371426200866699219e+01,5.597724914550781250e+01,1.754380798339843750e+02,3.662463760375976562e+01,5.328033065795898438e+01
1.090999960899353027e+00,2.000000000000000000e+00,1.797683525085449219e+01,-4.180029928684234619e-01,5.454371261596679688e+01,-1.647545013427734375e+02,6.270330810546875000e+01,-1.059186096191406250e+02,8.006311035156250000e+01,1.369379234313964844e+01,5.594965744018554688e+01,1.754436035156250000e+02,3.663727951049804688e+01,5.327312850952148438e+01
1.095999956130981445e+00,2.000000000000000000e+00,1.791266250610351562e+01,-3.837372362613677979e-01,5.451791000366210938e+01,-1.647633514404296875e+02,6.271397018432617188e+01,-1.058982086181640625e+02,8.002825164794921875e+01,1.367333030700683594e+01,5.592207717895507812e+01,1.754491271972656250e+02,3.664991760253906250e+01,5.326593399047851562e+01
1.100000023841857910e+00,2.000000000000000000e+00,1.784850883483886719e+01,-3.494814336299896240e-01,5.449211883544921875e+01,-1.647722015380859375e+02,6.272462081909179688e+01,-1.058778305053710938e+02,7.999341583251953125e+01,1.365287399291992188e+01,5.589450073242187500e+01,1.754546508789062500e+02,3.666255187988281250e+01,5.325873947143554688e+01
1.103999972343444824e+00,2.000000000000000000e+00,1.778437232971191406e+01,-3.152354955673217773e-01,5.446633148193359375e+01,-1.647810363769531250e+02,6.273527526855468750e+01,-1.058574523925781250e+02,7.995858001708984375e+01,1.363242340087890625e+01,5.586693572998046875e+01,1.754601898193359375e+02,3.667517852783203125e+01,5.325154495239257812e+01
1.108000040054321289e+00,2.000000000000000000e+00,1.772025299072265625e+01,-2.809993624687194824e-01,5.444055175781250000e+01,-1.647898712158203125e+02,6.274592208862304688e+01,-1.058370742797851562e+02,7.992375183105468750e+01,1.361197853088378906e+01,5.583937835693359375e+01,1.754656982421875000e+02,3.668780517578125000e+01,5.324435806274414062e+01
1.111999988555908203e+00,2.000000000000000000e+00,1.765615272521972656e+01,-2.467730641365051270e-01,5.441478347778320312e+01,-1.647987060546875000e+02,6.275656509399414062e+01,-1.058167037963867188e+02,7.988893890380859375e+01,1.359153938293457031e+01,5.581182861328125000e+01,1.754712219238281250e+02,3.670042800903320312e+01,5.323716735839843750e+01
1.116000056266784668e+00,2.000000000000000000e+00,1.759207153320312500e+01,-2.125564962625503540e-01,5.438901901245117188e+01,-1.648075561523437500e+02,6.276720428466796875e+01,-1.057963409423828125e+02,7.985413360595703125e+01,1.357110595703125000e+01,5.578428649902343750e+01,1.754767456054687500e+02,3.671304702758789062e+01,5.322998428344726562e+01
1.118999958038330078e+00,2.000000000000000000e+00,1.752800750732421875e+01,-1.783497035503387451e-01,5.436326217651367188e+01,-1.648163757324218750e+02,6.277784729003906250e+01,-1.057759857177734375e+02,7.981934356689453125e+01,1.355067920684814453e+01,5.575675201416015625e+01,1.754822540283203125e+02,3.672566223144531250e+01,5.322279739379882812e+01
1.123999953269958496e+00,2.000000000000000000e+00,1.746396255493164062e+01,-1.441526710987091064e-01,5.433751296997070312e+01,-1.648251953125000000e+02,6.278848266601562500e+01,-1.057556304931640625e+02,7.978455352783203125e+01,1.353025722503662109e+01,5.572922515869140625e+01,1.754877624511718750e+02,3.673827362060546875e+01,5.321561813354492188e+01
