rpiRobotics/ARM-21-02-F-19-Robot-Motion-Program/data_performance_abb/curve_1/dual_arm/diffevo_pose1/grad_result/sim/dual_iteration_2.csv
timestamp,cmd_num,J1,J2,J3,J4,J5,J6,J1_2,J2_2,J3_2,J4_2,J5_2,J6_2
0.000000000000000000e+00,-1.000000000000000000e+00,3.410606002807617188e+01,-6.607900142669677734e+00,6.122056579589843750e+01,-1.623875122070312500e+02,6.498383331298828125e+01,-1.092914047241210938e+02,8.740297698974609375e+01,1.833859634399414062e+01,6.246535873413085938e+01,1.722763671875000000e+02,3.270780181884765625e+01,5.561666488647460938e+01
2.000000094994902611e-03,-1.000000000000000000e+00,3.410606002807617188e+01,-6.607900142669677734e+00,6.122056579589843750e+01,-1.623875122070312500e+02,6.498383331298828125e+01,-1.092914047241210938e+02,8.740297698974609375e+01,1.833859634399414062e+01,6.246535873413085938e+01,1.722763671875000000e+02,3.270780181884765625e+01,5.561666488647460938e+01
4.000000189989805222e-03,-1.000000000000000000e+00,3.410606002807617188e+01,-6.607900142669677734e+00,6.122056579589843750e+01,-1.623875122070312500e+02,6.498383331298828125e+01,-1.092914047241210938e+02,8.740297698974609375e+01,1.833859634399414062e+01,6.246535873413085938e+01,1.722763671875000000e+02,3.270780181884765625e+01,5.561666488647460938e+01
9.999999776482582092e-03,-1.000000000000000000e+00,3.410606002807617188e+01,-6.607900142669677734e+00,6.122056579589843750e+01,-1.623875122070312500e+02,6.498383331298828125e+01,-1.092914047241210938e+02,8.740297698974609375e+01,1.833859634399414062e+01,6.246535873413085938e+01,1.722763671875000000e+02,3.270780181884765625e+01,5.561666488647460938e+01
1.200000010430812836e-02,-1.000000000000000000e+00,3.410606002807617188e+01,-6.607900142669677734e+00,6.122056579589843750e+01,-1.623875122070312500e+02,6.498383331298828125e+01,-1.092914047241210938e+02,8.740297698974609375e+01,1.833859634399414062e+01,6.246535873413085938e+01,1.722763671875000000e+02,3.270780181884765625e+01,5.561666488647460938e+01
1.600000075995922089e-02,-1.000000000000000000e+00,3.410606002807617188e+01,-6.607900142669677734e+00,6.122056579589843750e+01,-1.623875122070312500e+02,6.498383331298828125e+01,-1.092914047241210938e+02,8.740297698974609375e+01,1.833859634399414062e+01,6.246535873413085938e+01,1.722763671875000000e+02,3.270780181884765625e+01,5.561666488647460938e+01
1.999999955296516418e-02,-1.000000000000000000e+00,3.410606002807617188e+01,-6.607900142669677734e+00,6.122056579589843750e+01,-1.623875122070312500e+02,6.498383331298828125e+01,-1.092914047241210938e+02,8.740297698974609375e+01,1.833859634399414062e+01,6.246535873413085938e+01,1.722763671875000000e+02,3.270780181884765625e+01,5.561666488647460938e+01
2.400000020861625671e-02,-1.000000000000000000e+00,3.410606002807617188e+01,-6.607900142669677734e+00,6.122056579589843750e+01,-1.623875122070312500e+02,6.498383331298828125e+01,-1.092914047241210938e+02,8.740297698974609375e+01,1.833859634399414062e+01,6.246535873413085938e+01,1.722763671875000000e+02,3.270780181884765625e+01,5.561666488647460938e+01
2.899999916553497314e-02,2.000000000000000000e+00,3.410606002807617188e+01,-6.607900142669677734e+00,6.122056579589843750e+01,-1.623875122070312500e+02,6.498383331298828125e+01,-1.092914047241210938e+02,8.740297698974609375e+01,1.833859634399414062e+01,6.246535873413085938e+01,1.722763671875000000e+02,3.270780181884765625e+01,5.561666488647460938e+01
3.500000014901161194e-02,2.000000000000000000e+00,3.410606002807617188e+01,-6.607900142669677734e+00,6.122056579589843750e+01,-1.623875122070312500e+02,6.498383331298828125e+01,-1.092914047241210938e+02,8.740297698974609375e+01,1.833859634399414062e+01,6.246535873413085938e+01,1.722763671875000000e+02,3.270780181884765625e+01,5.561666488647460938e+01
3.799999877810478210e-02,2.000000000000000000e+00,3.410606002807617188e+01,-6.607900142669677734e+00,6.122056579589843750e+01,-1.623875122070312500e+02,6.498383331298828125e+01,-1.092914047241210938e+02,8.740297698974609375e+01,1.833859634399414062e+01,6.246535873413085938e+01,1.722763671875000000e+02,3.270780181884765625e+01,5.561666488647460938e+01
3.999999910593032837e-02,2.000000000000000000e+00,3.410606002807617188e+01,-6.607900142669677734e+00,6.122056579589843750e+01,-1.623875122070312500e+02,6.498383331298828125e+01,-1.092914047241210938e+02,8.740297698974609375e+01,1.833859634399414062e+01,6.246535873413085938e+01,1.722763671875000000e+02,3.270780181884765625e+01,5.561666488647460938e+01
4.399999976158142090e-02,2.000000000000000000e+00,3.410606002807617188e+01,-6.607900142669677734e+00,6.122056579589843750e+01,-1.623875122070312500e+02,6.498383331298828125e+01,-1.092914047241210938e+02,8.740297698974609375e+01,1.833859634399414062e+01,6.246535873413085938e+01,1.722763671875000000e+02,3.270780181884765625e+01,5.561666488647460938e+01
4.800000041723251343e-02,2.000000000000000000e+00,3.410606002807617188e+01,-6.607900142669677734e+00,6.122056579589843750e+01,-1.623875122070312500e+02,6.498383331298828125e+01,-1.092914047241210938e+02,8.740297698974609375e+01,1.833859634399414062e+01,6.246535873413085938e+01,1.722763671875000000e+02,3.270780181884765625e+01,5.561666488647460938e+01
5.200000107288360596e-02,2.000000000000000000e+00,3.410606002807617188e+01,-6.607900142669677734e+00,6.122056579589843750e+01,-1.623875122070312500e+02,6.498383331298828125e+01,-1.092914047241210938e+02,8.740297698974609375e+01,1.833859634399414062e+01,6.246535873413085938e+01,1.722763671875000000e+02,3.270780181884765625e+01,5.561666488647460938e+01
5.600000172853469849e-02,2.000000000000000000e+00,3.410606002807617188e+01,-6.607900142669677734e+00,6.122056579589843750e+01,-1.623875122070312500e+02,6.498383331298828125e+01,-1.092914047241210938e+02,8.740297698974609375e+01,1.833859634399414062e+01,6.246535873413085938e+01,1.722763671875000000e+02,3.270780181884765625e+01,5.561666488647460938e+01
5.999999865889549255e-02,2.000000000000000000e+00,3.410606002807617188e+01,-6.607900142669677734e+00,6.122056579589843750e+01,-1.623875122070312500e+02,6.498383331298828125e+01,-1.092914047241210938e+02,8.740297698974609375e+01,1.833859634399414062e+01,6.246535873413085938e+01,1.722763671875000000e+02,3.270780181884765625e+01,5.561666488647460938e+01
6.400000303983688354e-02,2.000000000000000000e+00,3.410606002807617188e+01,-6.607900142669677734e+00,6.122056579589843750e+01,-1.623875122070312500e+02,6.498383331298828125e+01,-1.092914047241210938e+02,8.740297698974609375e+01,1.833859634399414062e+01,6.246535873413085938e+01,1.722763671875000000e+02,3.270780181884765625e+01,5.561666488647460938e+01
6.800000369548797607e-02,2.000000000000000000e+00,3.410599517822265625e+01,-6.607881546020507812e+00,6.122055816650390625e+01,-1.623875122070312500e+02,6.498383331298828125e+01,-1.092914047241210938e+02,8.740297698974609375e+01,1.833859634399414062e+01,6.246535873413085938e+01,1.722763671875000000e+02,3.270780181884765625e+01,5.561666488647460938e+01
7.199999690055847168e-02,2.000000000000000000e+00,3.410561752319335938e+01,-6.607765674591064453e+00,6.122050094604492188e+01,-1.623874969482421875e+02,6.498383331298828125e+01,-1.092914047241210938e+02,8.740297698974609375e+01,1.833859634399414062e+01,6.246535873413085938e+01,1.722763671875000000e+02,3.270780181884765625e+01,5.561666488647460938e+01
7.599999755620956421e-02,2.000000000000000000e+00,3.410455322265625000e+01,-6.607406616210937500e+00,6.122032546997070312e+01,-1.623874969482421875e+02,6.498384094238281250e+01,-1.092913894653320312e+02,8.740297698974609375e+01,1.833859634399414062e+01,6.246535873413085938e+01,1.722763671875000000e+02,3.270780181884765625e+01,5.561666488647460938e+01
7.999999821186065674e-02,2.000000000000000000e+00,3.410243988037109375e+01,-6.606633186340332031e+00,6.121993637084960938e+01,-1.623874664306640625e+02,6.498384857177734375e+01,-1.092913513183593750e+02,8.740296173095703125e+01,1.833859443664550781e+01,6.246535873413085938e+01,1.722763671875000000e+02,3.270780181884765625e+01,5.561666488647460938e+01
8.399999886751174927e-02,2.000000000000000000e+00,3.409906005859375000e+01,-6.605301380157470703e+00,6.121923828125000000e+01,-1.623874511718750000e+02,6.498387908935546875e+01,-1.092912521362304688e+02,8.740289306640625000e+01,1.833856201171875000e+01,6.246533203125000000e+01,1.722763671875000000e+02,3.270781707763671875e+01,5.561666107177734375e+01
8.799999952316284180e-02,2.000000000000000000e+00,3.409425354003906250e+01,-6.603289604187011719e+00,6.121814727783203125e+01,-1.623874664306640625e+02,6.498392486572265625e+01,-1.092910308837890625e+02,8.740264892578125000e+01,1.833845901489257812e+01,6.246522903442382812e+01,1.722763977050781250e+02,3.270785522460937500e+01,5.561664962768554688e+01
9.200000017881393433e-02,2.000000000000000000e+00,3.408785247802734375e+01,-6.600479125976562500e+00,6.121654891967773438e+01,-1.623875579833984375e+02,6.498400878906250000e+01,-1.092906188964843750e+02,8.740207672119140625e+01,1.833820533752441406e+01,6.246497726440429688e+01,1.722764587402343750e+02,3.270796203613281250e+01,5.561661529541015625e+01
9.600000083446502686e-02,2.000000000000000000e+00,3.407975769042968750e+01,-6.596771717071533203e+00,6.121432876586914062e+01,-1.623877563476562500e+02,6.498413848876953125e+01,-1.092899093627929688e+02,8.740100097656250000e+01,1.833770370483398438e+01,6.246443557739257812e+01,1.722765960693359375e+02,3.270820236206054688e+01,5.561651611328125000e+01
1.000000014901161194e-01,2.000000000000000000e+00,3.406991577148437500e+01,-6.592096328735351562e+00,6.121137237548828125e+01,-1.623881683349609375e+02,6.498434448242187500e+01,-1.092887802124023438e+02,8.739920043945312500e+01,1.833681869506835938e+01,6.246343994140625000e+01,1.722768554687500000e+02,3.270866394042968750e+01,5.561630630493164062e+01
1.040000021457672119e-01,2.000000000000000000e+00,3.405815124511718750e+01,-6.586366653442382812e+00,6.120755767822265625e+01,-1.623888549804687500e+02,6.498464202880859375e+01,-1.092871093750000000e+02,8.739639282226562500e+01,1.833538436889648438e+01,6.246175384521484375e+01,1.722773437500000000e+02,3.270946884155273438e+01,5.561590194702148438e+01
1.080000028014183044e-01,2.000000000000000000e+00,3.404407882690429688e+01,-6.579430580139160156e+00,6.120272445678710938e+01,-1.623898773193359375e+02,6.498504638671875000e+01,-1.092847595214843750e+02,8.739232635498046875e+01,1.833321380615234375e+01,6.245910263061523438e+01,1.722781524658203125e+02,3.271076202392578125e+01,5.561520385742187500e+01
1.120000034570693970e-01,2.000000000000000000e+00,3.402715682983398438e+01,-6.571078300476074219e+00,6.119667816162109375e+01,-1.623913116455078125e+02,6.498558044433593750e+01,-1.092815933227539062e+02,8.738674926757812500e+01,1.833012199401855469e+01,6.245520401000976562e+01,1.722793884277343750e+02,3.271270751953125000e+01,5.561411285400390625e+01
1.159999966621398926e-01,2.000000000000000000e+00,3.400693893432617188e+01,-6.561138629913330078e+00,6.118923950195312500e+01,-1.623932342529296875e+02,6.498627471923828125e+01,-1.092774658203125000e+02,8.737944030761718750e+01,1.832592964172363281e+01,6.244977951049804688e+01,1.722811737060546875e+02,3.271545410156250000e+01,5.561251068115234375e+01
1.199999973177909851e-01,2.000000000000000000e+00,3.398324203491210938e+01,-6.549569129943847656e+00,6.118031311035156250e+01,-1.623957214355468750e+02,6.498714447021484375e+01,-1.092722549438476562e+02,8.737013244628906250e+01,1.832045173645019531e+01,6.244255447387695312e+01,1.722835845947265625e+02,3.271915817260742188e+01,5.561029815673828125e+01
1.239999979734420776e-01,2.000000000000000000e+00,3.395610046386718750e+01,-6.536446571350097656e+00,6.116984176635742188e+01,-1.623988647460937500e+02,6.498820495605468750e+01,-1.092658309936523438e+02,8.735857391357421875e+01,1.831351852416992188e+01,6.243329238891601562e+01,1.722867279052734375e+02,3.272394180297851562e+01,5.560739517211914062e+01
1.280000060796737671e-01,2.000000000000000000e+00,3.392562866210937500e+01,-6.521864414215087891e+00,6.115782165527343750e+01,-1.624027252197265625e+02,6.498947906494140625e+01,-1.092581024169921875e+02,8.734455108642578125e+01,1.830500221252441406e+01,6.242181777954101562e+01,1.722906646728515625e+02,3.272990417480468750e+01,5.560374069213867188e+01
1.309999972581863403e-01,2.000000000000000000e+00,3.389183044433593750e+01,-6.505855083465576172e+00,6.114421463012695312e+01,-1.624073181152343750e+02,6.499096679687500000e+01,-1.092490158081054688e+02,8.732796478271484375e+01,1.829483795166015625e+01,6.240802764892578125e+01,1.722954254150390625e+02,3.273709487915039062e+01,5.559930419921875000e+01
1.360000073909759521e-01,2.000000000000000000e+00,3.385470199584960938e+01,-6.488420486450195312e+00,6.112902069091796875e+01,-1.624126586914062500e+02,6.499267578125000000e+01,-1.092385406494140625e+02,8.730879211425781250e+01,1.828300666809082031e+01,6.239189529418945312e+01,1.723010253906250000e+02,3.274552536010742188e+01,5.559407424926757812e+01
1.389999985694885254e-01,2.000000000000000000e+00,3.381426239013671875e+01,-6.469552040100097656e+00,6.111224365234375000e+01,-1.624187622070312500e+02,6.499458312988281250e+01,-1.092267227172851562e+02,8.728709411621093750e+01,1.826954078674316406e+01,6.237347412109375000e+01,1.723074340820312500e+02,3.275517654418945312e+01,5.558806610107421875e+01
1.439999938011169434e-01,2.000000000000000000e+00,3.377045059204101562e+01,-6.449184894561767578e+00,6.109391784667968750e+01,-1.624255371093750000e+02,6.499671173095703125e+01,-1.092136230468750000e+02,8.726299285888671875e+01,1.825453186035156250e+01,6.235287857055664062e+01,1.723146362304687500e+02,3.276597595214843750e+01,5.558132171630859375e+01
1.480000019073486328e-01,2.000000000000000000e+00,3.372317123413085938e+01,-6.427221298217773438e+00,6.107406234741210938e+01,-1.624329376220703125e+02,6.499901580810546875e+01,-1.091993637084960938e+02,8.723674011230468750e+01,1.823812294006347656e+01,6.233031845092773438e+01,1.723225402832031250e+02,3.277782058715820312e+01,5.557390975952148438e+01
1.519999951124191284e-01,2.000000000000000000e+00,3.367246246337890625e+01,-6.403623580932617188e+00,6.105273437500000000e+01,-1.624408721923828125e+02,6.500149536132812500e+01,-1.091840515136718750e+02,8.720858764648437500e+01,1.822049713134765625e+01,6.230605316162109375e+01,1.723310394287109375e+02,3.279057693481445312e+01,5.556591415405273438e+01
1.560000032186508179e-01,2.000000000000000000e+00,3.361862182617187500e+01,-6.378492832183837891e+00,6.103007507324218750e+01,-1.624492797851562500e+02,6.500411987304687500e+01,-1.091678314208984375e+02,8.717880249023437500e+01,1.820184326171875000e+01,6.228034973144531250e+01,1.723400421142578125e+02,3.280408859252929688e+01,5.555744552612304688e+01
1.599999964237213135e-01,2.000000000000000000e+00,3.356215667724609375e+01,-6.352032184600830078e+00,6.100627517700195312e+01,-1.624580688476562500e+02,6.500687408447265625e+01,-1.091508331298828125e+02,8.714760589599609375e+01,1.818234062194824219e+01,6.225351333618164062e+01,1.723494415283203125e+02,3.281818771362304688e+01,5.554861831665039062e+01
1.640000045299530029e-01,2.000000000000000000e+00,3.350356674194335938e+01,-6.324432849884033203e+00,6.098151397705078125e+01,-1.624671783447265625e+02,6.500972747802734375e+01,-1.091332168579101562e+02,8.711525726318359375e+01,1.816217422485351562e+01,6.222581100463867188e+01,1.723591308593750000e+02,3.283272552490234375e+01,5.553953552246093750e+01
1.679999977350234985e-01,2.000000000000000000e+00,3.344315719604492188e+01,-6.295815944671630859e+00,6.095594787597656250e+01,-1.624765625000000000e+02,6.501266479492187500e+01,-1.091150970458984375e+02,8.708200836181640625e+01,1.814152336120605469e+01,6.219751358032226562e+01,1.723689880371093750e+02,3.284755706787109375e+01,5.553029632568359375e+01
1.720000058412551880e-01,2.000000000000000000e+00,3.338101577758789062e+01,-6.266251564025878906e+00,6.092968750000000000e+01,-1.624860839843750000e+02,6.501567077636718750e+01,-1.090965957641601562e+02,8.704811859130859375e+01,1.812054634094238281e+01,6.216882705688476562e+01,1.723789672851562500e+02,3.286257171630859375e+01,5.552096176147460938e+01
1.759999990463256836e-01,2.000000000000000000e+00,3.331720352172851562e+01,-6.235816955566406250e+00,6.090283584594726562e+01,-1.624957122802734375e+02,6.501870727539062500e+01,-1.090778579711914062e+02,8.701379394531250000e+01,1.809936141967773438e+01,6.213991546630859375e+01,1.723890075683593750e+02,3.287768554687500000e+01,5.551158523559570312e+01
1.800000071525573730e-01,2.000000000000000000e+00,3.325186157226562500e+01,-6.204622268676757812e+00,6.087553024291992188e+01,-1.625053863525390625e+02,6.502178192138671875e+01,-1.090589523315429688e+02,8.697919464111328125e+01,1.807805633544921875e+01,6.211088562011718750e+01,1.723990631103515625e+02,3.289284896850585938e+01,5.550219345092773438e+01
1.840000003576278687e-01,2.000000000000000000e+00,3.318516159057617188e+01,-6.172790050506591797e+00,6.084786224365234375e+01,-1.625150909423828125e+02,6.502487945556640625e+01,-1.090399475097656250e+02,8.694447326660156250e+01,1.805670166015625000e+01,6.208180999755859375e+01,1.724091186523437500e+02,3.290802764892578125e+01,5.549280166625976562e+01
1.879999935626983643e-01,2.000000000000000000e+00,3.311727142333984375e+01,-6.140448093414306641e+00,6.081991958618164062e+01,-1.625247955322265625e+02,6.502798461914062500e+01,-1.090209121704101562e+02,8.690972137451171875e+01,1.803533363342285156e+01,6.205272674560546875e+01,1.724191741943359375e+02,3.292320632934570312e+01,5.548340988159179688e+01
1.920000016689300537e-01,2.000000000000000000e+00,3.304848480224609375e+01,-6.107758522033691406e+00,6.079180526733398438e+01,-1.625344696044921875e+02,6.503108978271484375e+01,-1.090018615722656250e+02,8.687497711181640625e+01,1.801397132873535156e+01,6.202365112304687500e+01,1.724292449951171875e+02,3.293838119506835938e+01,5.547402191162109375e+01
1.959999948740005493e-01,2.000000000000000000e+00,3.297919464111328125e+01,-6.074893951416015625e+00,6.076361846923828125e+01,-1.625441436767578125e+02,6.503420257568359375e+01,-1.089828033447265625e+02,8.684023284912109375e+01,1.799261474609375000e+01,6.199458694458007812e+01,1.724393005371093750e+02,3.295355224609375000e+01,5.546463775634765625e+01
2.000000029802322388e-01,2.000000000000000000e+00,3.290974044799804688e+01,-6.041981220245361328e+00,6.073540115356445312e+01,-1.625538177490234375e+02,6.503730773925781250e+01,-1.089637680053710938e+02,8.680551147460937500e+01,1.797126770019531250e+01,6.196553421020507812e+01,1.724493560791015625e+02,3.296871948242187500e+01,5.545525741577148438e+01
2.039999961853027344e-01,2.000000000000000000e+00,3.284028244018554688e+01,-6.009071350097656250e+00,6.070719146728515625e+01,-1.625634765625000000e+02,6.504041290283203125e+01,-1.089447250366210938e+02,8.677079772949218750e+01,1.794992637634277344e+01,6.193648529052734375e+01,1.724594116210937500e+02,3.298387908935546875e+01,5.544587707519531250e+01
2.080000042915344238e-01,2.000000000000000000e+00,3.277084350585937500e+01,-5.976171970367431641e+00,6.067899703979492188e+01,-1.625731353759765625e+02,6.504351806640625000e+01,-1.089256896972656250e+02,8.673609924316406250e+01,1.792859458923339844e+01,6.190744781494140625e+01,1.724694519042968750e+02,3.299903488159179688e+01,5.543650436401367188e+01
2.119999974966049194e-01,2.000000000000000000e+00,3.270143508911132812e+01,-5.943283557891845703e+00,6.065081024169921875e+01,-1.625827941894531250e+02,6.504662322998046875e+01,-1.089066696166992188e+02,8.670140838623046875e+01,1.790726852416992188e+01,6.187842178344726562e+01,1.724794921875000000e+02,3.301418304443359375e+01,5.542712783813476562e+01
2.160000056028366089e-01,2.000000000000000000e+00,3.263204193115234375e+01,-5.910407066345214844e+00,6.062262725830078125e+01,-1.625924530029296875e+02,6.504972839355468750e+01,-1.088876495361328125e+02,8.666673278808593750e+01,1.788595008850097656e+01,6.184940719604492188e+01,1.724895324707031250e+02,3.302933120727539062e+01,5.541776275634765625e+01
2.199999988079071045e-01,2.000000000000000000e+00,3.256267929077148438e+01,-5.877541542053222656e+00,6.059445953369140625e+01,-1.626021118164062500e+02,6.505283355712890625e+01,-1.088686370849609375e+02,8.663207244873046875e+01,1.786463737487792969e+01,6.182039642333984375e+01,1.724995727539062500e+02,3.304446792602539062e+01,5.540839385986328125e+01
2.240000069141387939e-01,2.000000000000000000e+00,3.249333953857421875e+01,-5.844687461853027344e+00,6.056629943847656250e+01,-1.626117553710937500e+02,6.505593109130859375e+01,-1.088496322631835938e+02,8.659741973876953125e+01,1.784333419799804688e+01,6.179140472412109375e+01,1.725096130371093750e+02,3.305960083007812500e+01,5.539903259277343750e+01
2.280000001192092896e-01,2.000000000000000000e+00,3.242401885986328125e+01,-5.811843872070312500e+00,6.053815460205078125e+01,-1.626213989257812500e+02,6.505903625488281250e+01,-1.088306274414062500e+02,8.656278228759765625e+01,1.782203674316406250e+01,6.176241683959960938e+01,1.725196380615234375e+02,3.307473373413085938e+01,5.538967132568359375e+01
2.319999933242797852e-01,2.000000000000000000e+00,3.235472106933593750e+01,-5.779012680053710938e+00,6.051001358032226562e+01,-1.626310272216796875e+02,6.506213378906250000e+01,-1.088116378784179688e+02,8.652815246582031250e+01,1.780074691772460938e+01,6.173343658447265625e+01,1.725296630859375000e+02,3.308985519409179688e+01,5.538031768798828125e+01
2.360000014305114746e-01,2.000000000000000000e+00,3.228545379638671875e+01,-5.746191501617431641e+00,6.048188018798828125e+01,-1.626406707763671875e+02,6.506523895263671875e+01,-1.087926483154296875e+02,8.649353790283203125e+01,1.777946472167968750e+01,6.170446777343750000e+01,1.725396881103515625e+02,3.310497283935546875e+01,5.537096405029296875e+01
2.399999946355819702e-01,2.000000000000000000e+00,3.221620559692382812e+01,-5.713382244110107422e+00,6.045375823974609375e+01,-1.626502990722656250e+02,6.506832885742187500e+01,-1.087736740112304688e+02,8.645892333984375000e+01,1.775819015502929688e+01,6.167551422119140625e+01,1.725496978759765625e+02,3.312009048461914062e+01,5.536161422729492188e+01
2.440000027418136597e-01,2.000000000000000000e+00,3.214698410034179688e+01,-5.680583953857421875e+00,6.042565155029296875e+01,-1.626599273681640625e+02,6.507142639160156250e+01,-1.087546997070312500e+02,8.642433166503906250e+01,1.773692321777343750e+01,6.164656829833984375e+01,1.725597229003906250e+02,3.313519668579101562e+01,5.535227203369140625e+01
2.479999959468841553e-01,2.000000000000000000e+00,3.207778167724609375e+01,-5.647796630859375000e+00,6.039754486083984375e+01,-1.626695556640625000e+02,6.507452392578125000e+01,-1.087357330322265625e+02,8.638974761962890625e+01,1.771566200256347656e+01,6.161763000488281250e+01,1.725697326660156250e+02,3.315029907226562500e+01,5.534292602539062500e+01
2.520000040531158447e-01,2.000000000000000000e+00,3.200860214233398438e+01,-5.615020751953125000e+00,6.036945343017578125e+01,-1.626791839599609375e+02,6.507762145996093750e+01,-1.087167739868164062e+02,8.635517883300781250e+01,1.769440841674804688e+01,6.158870315551757812e+01,1.725797424316406250e+02,3.316539764404296875e+01,5.533358764648437500e+01
2.560000121593475342e-01,2.000000000000000000e+00,3.193945121765136719e+01,-5.582255840301513672e+00,6.034137344360351562e+01,-1.626888122558593750e+02,6.508071136474609375e+01,-1.086978073120117188e+02,8.632062530517578125e+01,1.767316246032714844e+01,6.155978393554687500e+01,1.725897369384765625e+02,3.318049240112304688e+01,5.532424926757812500e+01
2.599999904632568359e-01,2.000000000000000000e+00,3.187032127380371094e+01,-5.549501895904541016e+00,6.031330490112304688e+01,-1.626984252929687500e+02,6.508380126953125000e+01,-1.086788635253906250e+02,8.628607177734375000e+01,1.765192413330078125e+01,6.153087997436523438e+01,1.725997619628906250e+02,3.319557952880859375e+01,5.531491470336914062e+01
2.639999985694885254e-01,2.000000000000000000e+00,3.180121421813964844e+01,-5.516759395599365234e+00,6.028523635864257812e+01,-1.627080383300781250e+02,6.508689880371093750e+01,-1.086599197387695312e+02,8.625154113769531250e+01,1.763069152832031250e+01,6.150197982788085938e+01,1.726097564697265625e+02,3.321066284179687500e+01,5.530558776855468750e+01
2.680000066757202148e-01,2.000000000000000000e+00,3.173213005065917969e+01,-5.484027862548828125e+00,6.025718688964843750e+01,-1.627176513671875000e+02,6.508998107910156250e+01,-1.086409912109375000e+02,8.621701812744140625e+01,1.760946846008300781e+01,6.147309112548828125e+01,1.726197357177734375e+02,3.322573852539062500e+01,5.529625701904296875e+01
2.720000147819519043e-01,2.000000000000000000e+00,3.166307067871093750e+01,-5.451307296752929688e+00,6.022914123535156250e+01,-1.627272491455078125e+02,6.509307861328125000e+01,-1.086220626831054688e+02,8.618251037597656250e+01,1.758824920654296875e+01,6.144421005249023438e+01,1.726297454833984375e+02,3.324081420898437500e+01,5.528693389892578125e+01
2.759999930858612061e-01,2.000000000000000000e+00,3.159403419494628906e+01,-5.418597698211669922e+00,6.020110321044921875e+01,-1.627368621826171875e+02,6.509616088867187500e+01,-1.086031341552734375e+02,8.614801025390625000e+01,1.756703948974609375e+01,6.141534805297851562e+01,1.726397247314453125e+02,3.325588226318359375e+01,5.527761459350585938e+01
2.800000011920928955e-01,2.000000000000000000e+00,3.152502250671386719e+01,-5.385899066925048828e+00,6.017308044433593750e+01,-1.627464599609375000e+02,6.509925079345703125e+01,-1.085842208862304688e+02,8.611351776123046875e+01,1.754583549499511719e+01,6.138648986816406250e+01,1.726497192382812500e+02,3.327094268798828125e+01,5.526829147338867188e+01
2.840000092983245850e-01,2.000000000000000000e+00,3.145602989196777344e+01,-5.353211402893066406e+00,6.014506149291992188e+01,-1.627560577392578125e+02,6.510234069824218750e+01,-1.085653152465820312e+02,8.607904815673828125e+01,1.752463912963867188e+01,6.135763931274414062e+01,1.726596984863281250e+02,3.328600311279296875e+01,5.525897979736328125e+01
2.879999876022338867e-01,2.000000000000000000e+00,3.138706588745117188e+01,-5.320535182952880859e+00,6.011705780029296875e+01,-1.627656555175781250e+02,6.510541534423828125e+01,-1.085464096069335938e+02,8.604457855224609375e+01,1.750345039367675781e+01,6.132879638671875000e+01,1.726696777343750000e+02,3.330105209350585938e+01,5.524966812133789062e+01
2.919999957084655762e-01,2.000000000000000000e+00,3.131812095642089844e+01,-5.287869930267333984e+00,6.008905410766601562e+01,-1.627752532958984375e+02,6.510850524902343750e+01,-1.085275115966796875e+02,8.601012420654296875e+01,1.748227119445800781e+01,6.129996490478515625e+01,1.726796569824218750e+02,3.331609725952148438e+01,5.524035644531250000e+01
2.960000038146972656e-01,2.000000000000000000e+00,3.124920272827148438e+01,-5.255215167999267578e+00,6.006106948852539062e+01,-1.627848358154296875e+02,6.511158752441406250e+01,-1.085086212158203125e+02,8.597568511962890625e+01,1.746109580993652344e+01,6.127114868164062500e+01,1.726896209716796875e+02,3.333114242553710938e+01,5.523105621337890625e+01
3.000000119209289551e-01,2.000000000000000000e+00,3.118030548095703125e+01,-5.222571372985839844e+00,6.003308868408203125e+01,-1.627944183349609375e+02,6.511466979980468750e+01,-1.084897384643554688e+02,8.594125366210937500e+01,1.743992805480957031e+01,6.124234008789062500e+01,1.726995849609375000e+02,3.334617996215820312e+01,5.522175216674804688e+01
3.039999902248382568e-01,2.000000000000000000e+00,3.111142921447753906e+01,-5.189938545227050781e+00,6.000511932373046875e+01,-1.628040008544921875e+02,6.511775207519531250e+01,-1.084708557128906250e+02,8.590682983398437500e+01,1.741876602172851562e+01,6.121353530883789062e+01,1.727095642089843750e+02,3.336121368408203125e+01,5.521245193481445312e+01
3.079999983310699463e-01,2.000000000000000000e+00,3.104257774353027344e+01,-5.157316684722900391e+00,5.997716140747070312e+01,-1.628135833740234375e+02,6.512083435058593750e+01,-1.084519882202148438e+02,8.587242126464843750e+01,1.739761352539062500e+01,6.118474578857421875e+01,1.727195129394531250e+02,3.337623977661132812e+01,5.520315551757812500e+01
3.120000064373016357e-01,2.000000000000000000e+00,3.097375106811523438e+01,-5.124706268310546875e+00,5.994921493530273438e+01,-1.628231658935546875e+02,6.512390899658203125e+01,-1.084331207275390625e+02,8.583802795410156250e+01,1.737646675109863281e+01,6.115596389770507812e+01,1.727294769287109375e+02,3.339126205444335938e+01,5.519386291503906250e+01
3.160000145435333252e-01,2.000000000000000000e+00,3.090494728088378906e+01,-5.092107772827148438e+00,5.992127227783203125e+01,-1.628327331542968750e+02,6.512699127197265625e+01,-1.084142608642578125e+02,8.580364227294921875e+01,1.735532760620117188e+01,6.112718963623046875e+01,1.727394409179687500e+02,3.340627670288085938e+01,5.518457031250000000e+01
3.199999928474426270e-01,2.000000000000000000e+00,3.083616256713867188e+01,-5.059519767761230469e+00,5.989333343505859375e+01,-1.628423004150390625e+02,6.513005828857421875e+01,-1.083954086303710938e+02,8.576927185058593750e+01,1.733419609069824219e+01,6.109842681884765625e+01,1.727493896484375000e+02,3.342129135131835938e+01,5.517528533935546875e+01
3.240000009536743164e-01,2.000000000000000000e+00,3.076740646362304688e+01,-5.026942729949951172e+00,5.986541366577148438e+01,-1.628518676757812500e+02,6.513314056396484375e+01,-1.083765640258789062e+02,8.573490905761718750e+01,1.731307220458984375e+01,6.106967926025390625e+01,1.727593383789062500e+02,3.343629837036132812e+01,5.516600036621093750e+01
3.280000090599060059e-01,2.000000000000000000e+00,3.069866752624511719e+01,-4.994376182556152344e+00,5.983750534057617188e+01,-1.628614196777343750e+02,6.513621520996093750e+01,-1.083577194213867188e+02,8.570055389404296875e+01,1.729195213317871094e+01,6.104093170166015625e+01,1.727692871093750000e+02,3.345129776000976562e+01,5.515672302246093750e+01
3.319999873638153076e-01,2.000000000000000000e+00,3.062995719909667969e+01,-4.961819648742675781e+00,5.980959701538085938e+01,-1.628709869384765625e+02,6.513928985595703125e+01,-1.083388900756835938e+02,8.566622161865234375e+01,1.727084159851074219e+01,6.101220321655273438e+01,1.727792205810546875e+02,3.346629714965820312e+01,5.514744186401367188e+01
3.359999954700469971e-01,2.000000000000000000e+00,3.056126594543457031e+01,-4.929274082183837891e+00,5.978170394897460938e+01,-1.628805541992187500e+02,6.514236450195312500e+01,-1.083200607299804688e+02,8.563188934326171875e+01,1.724973678588867188e+01,6.098347473144531250e+01,1.727891540527343750e+02,3.348128890991210938e+01,5.513817214965820312e+01
3.400000035762786865e-01,2.000000000000000000e+00,3.049259757995605469e+01,-4.896739482879638672e+00,5.975382232666015625e+01,-1.628900909423828125e+02,6.514543914794921875e+01,-1.083012466430664062e+02,8.559757995605468750e+01,1.722863960266113281e+01,6.095476150512695312e+01,1.727991027832031250e+02,3.349627685546875000e+01,5.512889862060546875e+01
3.440000116825103760e-01,2.000000000000000000e+00,3.042395401000976562e+01,-4.864216327667236328e+00,5.972594070434570312e+01,-1.628996429443359375e+02,6.514850616455078125e+01,-1.082824249267578125e+02,8.556327056884765625e+01,1.720755004882812500e+01,6.092605209350585938e+01,1.728090362548828125e+02,3.351125717163085938e+01,5.511962890625000000e+01
3.479999899864196777e-01,2.000000000000000000e+00,3.035533142089843750e+01,-4.831703662872314453e+00,5.969807434082031250e+01,-1.629091949462890625e+02,6.515157318115234375e+01,-1.082636184692382812e+02,8.552898406982421875e+01,1.718646621704101562e+01,6.089735794067382812e+01,1.728189697265625000e+02,3.352623748779296875e+01,5.511036682128906250e+01
3.519999980926513672e-01,2.000000000000000000e+00,3.028673171997070312e+01,-4.799202919006347656e+00,5.967021942138671875e+01,-1.629187469482421875e+02,6.515464019775390625e+01,-1.082448120117187500e+02,8.549469757080078125e+01,1.716539001464843750e+01,6.086867141723632812e+01,1.728288879394531250e+02,3.354121017456054688e+01,5.510110473632812500e+01
3.560000061988830566e-01,2.000000000000000000e+00,3.021815681457519531e+01,-4.766713619232177734e+00,5.964237213134765625e+01,-1.629282836914062500e+02,6.515770721435546875e+01,-1.082260131835937500e+02,8.546042633056640625e+01,1.714432334899902344e+01,6.084000015258789062e+01,1.728388061523437500e+02,3.355617523193359375e+01,5.509184265136718750e+01
3.600000143051147461e-01,2.000000000000000000e+00,3.014960670471191406e+01,-4.734234333038330078e+00,5.961453247070312500e+01,-1.629378051757812500e+02,6.516077423095703125e+01,-1.082072219848632812e+02,8.542617034912109375e+01,1.712326049804687500e+01,6.081133270263671875e+01,1.728487243652343750e+02,3.357113647460937500e+01,5.508258819580078125e+01
3.639999926090240479e-01,2.000000000000000000e+00,3.008107566833496094e+01,-4.701765060424804688e+00,5.958670043945312500e+01,-1.629473419189453125e+02,6.516384124755859375e+01,-1.081884460449218750e+02,8.539192199707031250e+01,1.710220718383789062e+01,6.078267288208007812e+01,1.728586425781250000e+02,3.358609771728515625e+01,5.507333374023437500e+01
3.680000007152557373e-01,2.000000000000000000e+00,3.001256942749023438e+01,-4.669306755065917969e+00,5.955887985229492188e+01,-1.629568786621093750e+02,6.516690063476562500e+01,-1.081696624755859375e+02,8.535768890380859375e+01,1.708115768432617188e+01,6.075402832031250000e+01,1.728685455322265625e+02,3.360104751586914062e+01,5.506408309936523438e+01
3.720000088214874268e-01,2.000000000000000000e+00,2.994408226013183594e+01,-4.636858940124511719e+00,5.953107070922851562e+01,-1.629664001464843750e+02,6.516996765136718750e+01,-1.081508941650390625e+02,8.532346343994140625e+01,1.706011772155761719e+01,6.072538757324218750e+01,1.728784637451171875e+02,3.361599731445312500e+01,5.505484008789062500e+01
3.759999871253967285e-01,2.000000000000000000e+00,2.987561988830566406e+01,-4.604421615600585938e+00,5.950326919555664062e+01,-1.629759368896484375e+02,6.517302703857421875e+01,-1.081321258544921875e+02,8.528924560546875000e+01,1.703908348083496094e+01,6.069675827026367188e+01,1.728883666992187500e+02,3.363093566894531250e+01,5.504559326171875000e+01
3.799999952316284180e-01,2.000000000000000000e+00,2.980718231201171875e+01,-4.571995258331298828e+00,5.947547912597656250e+01,-1.629854583740234375e+02,6.517609405517578125e+01,-1.081133728027343750e+02,8.525504302978515625e+01,1.701805496215820312e+01,6.066813659667968750e+01,1.728982696533203125e+02,3.364587402343750000e+01,5.503635406494140625e+01
3.840000033378601074e-01,2.000000000000000000e+00,2.973876380920410156e+01,-4.539579391479492188e+00,5.944769287109375000e+01,-1.629949645996093750e+02,6.517916107177734375e+01,-1.080946197509765625e+02,8.522084808349609375e+01,1.699703598022460938e+01,6.063952636718750000e+01,1.729081878662109375e+02,3.366080856323242188e+01,5.502711486816406250e+01
3.880000114440917969e-01,2.000000000000000000e+00,2.967037010192871094e+01,-4.507174491882324219e+00,5.941992187500000000e+01,-1.630044860839843750e+02,6.518222045898437500e+01,-1.080758743286132812e+02,8.518667602539062500e+01,1.697602272033691406e+01,6.061092758178710938e+01,1.729180755615234375e+02,3.367573547363281250e+01,5.501787948608398438e+01
3.919999897480010986e-01,2.000000000000000000e+00,2.960199928283691406e+01,-4.474780082702636719e+00,5.939215469360351562e+01,-1.630139923095703125e+02,6.518527221679687500e+01,-1.080571289062500000e+02,8.515251159667968750e+01,1.695501518249511719e+01,6.058233642578125000e+01,1.729279632568359375e+02,3.369065475463867188e+01,5.500865173339843750e+01
3.959999978542327881e-01,2.000000000000000000e+00,2.953364944458007812e+01,-4.442396640777587891e+00,5.936439895629882812e+01,-1.630234985351562500e+02,6.518833160400390625e+01,-1.080383987426757812e+02,8.511835479736328125e+01,1.693401718139648438e+01,6.055376052856445312e+01,1.729378509521484375e+02,3.370557785034179688e+01,5.499942398071289062e+01
4.000000059604644775e-01,2.000000000000000000e+00,2.946532440185546875e+01,-4.410023689270019531e+00,5.933665466308593750e+01,-1.630330047607421875e+02,6.519139099121093750e+01,-1.080196685791015625e+02,8.508420562744140625e+01,1.691302490234375000e+01,6.052518081665039062e+01,1.729477386474609375e+02,3.372048568725585938e+01,5.499019622802734375e+01
4.040000140666961670e-01,2.000000000000000000e+00,2.939701843261718750e+01,-4.377661705017089844e+00,5.930891036987304688e+01,-1.630425262451171875e+02,6.519444274902343750e+01,-1.080009460449218750e+02,8.505007171630859375e+01,1.689204025268554688e+01,6.049662399291992188e+01,1.729576110839843750e+02,3.373539733886718750e+01,5.498097610473632812e+01
4.079999923706054688e-01,2.000000000000000000e+00,2.932873725891113281e+01,-4.345310211181640625e+00,5.928118515014648438e+01,-1.630520172119140625e+02,6.519749450683593750e+01,-1.079822311401367188e+02,8.501594543457031250e+01,1.687106132507324219e+01,6.046806716918945312e+01,1.729675140380859375e+02,3.375029754638671875e+01,5.497175216674804688e+01
4.120000004768371582e-01,2.000000000000000000e+00,2.926047897338867188e+01,-4.312969684600830078e+00,5.925346374511718750e+01,-1.630615234375000000e+02,6.520054626464843750e+01,-1.079635238647460938e+02,8.498183441162109375e+01,1.685009002685546875e+01,6.043952560424804688e+01,1.729773864746093750e+02,3.376519775390625000e+01,5.496253967285156250e+01
4.160000085830688477e-01,2.000000000000000000e+00,2.919224166870117188e+01,-4.280639171600341797e+00,5.922575378417968750e+01,-1.630709991455078125e+02,6.520360565185546875e+01,-1.079448242187500000e+02,8.494773864746093750e+01,1.682912445068359375e+01,6.041098785400390625e+01,1.729872436523437500e+02,3.378009033203125000e+01,5.495332717895507812e+01
4.199999868869781494e-01,2.000000000000000000e+00,2.912402915954589844e+01,-4.248320102691650391e+00,5.919805526733398438e+01,-1.630804901123046875e+02,6.520665740966796875e+01,-1.079261245727539062e+02,8.491365051269531250e+01,1.680816650390625000e+01,6.038246536254882812e+01,1.729971160888671875e+02,3.379497909545898438e+01,5.494411468505859375e+01
4.239999949932098389e-01,2.000000000000000000e+00,2.905583763122558594e+01,-4.216011047363281250e+00,5.917036056518554688e+01,-1.630899810791015625e+02,6.520970916748046875e+01,-1.079074325561523438e+02,8.487957000732421875e+01,1.678721618652343750e+01,6.035395050048828125e+01,1.730069885253906250e+02,3.380986022949218750e+01,5.493490982055664062e+01
4.280000030994415283e-01,2.000000000000000000e+00,2.898766899108886719e+01,-4.183712959289550781e+00,5.914267730712890625e+01,-1.630994720458984375e+02,6.521275329589843750e+01,-1.078887481689453125e+02,8.484550476074218750e+01,1.676627349853515625e+01,6.032544708251953125e+01,1.730168457031250000e+02,3.382474136352539062e+01,5.492570495605468750e+01
4.320000112056732178e-01,2.000000000000000000e+00,2.891952323913574219e+01,-4.151425838470458984e+00,5.911500930786132812e+01,-1.631089477539062500e+02,6.521580505371093750e+01,-1.078700637817382812e+02,8.481144714355468750e+01,1.674533653259277344e+01,6.029694366455078125e+01,1.730267181396484375e+02,3.383961105346679688e+01,5.491650390625000000e+01
4.359999895095825195e-01,2.000000000000000000e+00,2.885139846801757812e+01,-4.119148731231689453e+00,5.908733749389648438e+01,-1.631184234619140625e+02,6.521884918212890625e+01,-1.078514022827148438e+02,8.477740478515625000e+01,1.672440719604492188e+01,6.026846313476562500e+01,1.730365753173828125e+02,3.385448074340820312e+01,5.490730667114257812e+01
4.399999976158142090e-01,2.000000000000000000e+00,2.878329849243164062e+01,-4.086882591247558594e+00,5.905968475341796875e+01,-1.631278991699218750e+02,6.522189331054687500e+01,-1.078327331542968750e+02,8.474337005615234375e+01,1.670348167419433594e+01,6.023998260498046875e+01,1.730464172363281250e+02,3.386934280395507812e+01,5.489810943603515625e+01
4.440000057220458984e-01,2.000000000000000000e+00,2.871521949768066406e+01,-4.054626941680908203e+00,5.903204345703125000e+01,-1.631373748779296875e+02,6.522493743896484375e+01,-1.078140716552734375e+02,8.470934295654296875e+01,1.668256568908691406e+01,6.021151351928710938e+01,1.730562744140625000e+02,3.388420486450195312e+01,5.488891983032226562e+01
4.480000138282775879e-01,2.000000000000000000e+00,2.864716148376464844e+01,-4.022381782531738281e+00,5.900439834594726562e+01,-1.631468505859375000e+02,6.522798919677734375e+01,-1.077954177856445312e+02,8.467533874511718750e+01,1.666165733337402344e+01,6.018305969238281250e+01,1.730661163330078125e+02,3.389905929565429688e+01,5.487973022460937500e+01
4.519999921321868896e-01,2.000000000000000000e+00,2.857912635803222656e+01,-3.990147352218627930e+00,5.897677230834960938e+01,-1.631563110351562500e+02,6.523103332519531250e+01,-1.077767639160156250e+02,8.464133453369140625e+01,1.664075469970703125e+01,6.015460205078125000e+01,1.730759735107421875e+02,3.391390609741210938e+01,5.487054443359375000e+01
4.560000002384185791e-01,2.000000000000000000e+00,2.851111602783203125e+01,-3.957923412322998047e+00,5.894915771484375000e+01,-1.631657562255859375e+02,6.523406982421875000e+01,-1.077581253051757812e+02,8.460735321044921875e+01,1.661985778808593750e+01,6.012616348266601562e+01,1.730858001708984375e+02,3.392874908447265625e+01,5.486136245727539062e+01
4.600000083446502686e-01,2.000000000000000000e+00,2.844312667846679688e+01,-3.925710678100585938e+00,5.892154312133789062e+01,-1.631752319335937500e+02,6.523711395263671875e+01,-1.077394943237304688e+02,8.457337188720703125e+01,1.659897041320800781e+01,6.009773635864257812e+01,1.730956420898437500e+02,3.394359207153320312e+01,5.485218048095703125e+01
4.639999866485595703e-01,2.000000000000000000e+00,2.837515830993652344e+01,-3.893507957458496094e+00,5.889394378662109375e+01,-1.631846771240234375e+02,6.524015808105468750e+01,-1.077208633422851562e+02,8.453941345214843750e+01,1.657808876037597656e+01,6.006931686401367188e+01,1.731054840087890625e+02,3.395842361450195312e+01,5.484300613403320312e+01
4.679999947547912598e-01,2.000000000000000000e+00,2.830721473693847656e+01,-3.861315488815307617e+00,5.886635589599609375e+01,-1.631941375732421875e+02,6.524319458007812500e+01,-1.077022323608398438e+02,8.450544738769531250e+01,1.655721282958984375e+01,6.004090118408203125e+01,1.731153106689453125e+02,3.397325515747070312e+01,5.483383178710937500e+01
4.720000028610229492e-01,2.000000000000000000e+00,2.823929023742675781e+01,-3.829134225845336914e+00,5.883876800537109375e+01,-1.632035827636718750e+02,6.524623107910156250e+01,-1.076836242675781250e+02,8.447151184082031250e+01,1.653634643554687500e+01,6.001249313354492188e+01,1.731251373291015625e+02,3.398807907104492188e+01,5.482465744018554688e+01
4.760000109672546387e-01,2.000000000000000000e+00,2.817139053344726562e+01,-3.796963214874267578e+00,5.881119537353515625e+01,-1.632130279541015625e+02,6.524926757812500000e+01,-1.076650085449218750e+02,8.443757629394531250e+01,1.651548385620117188e+01,5.998410034179687500e+01,1.731349639892578125e+02,3.400289916992187500e+01,5.481549072265625000e+01
4.799999892711639404e-01,2.000000000000000000e+00,2.810351181030273438e+01,-3.764802932739257812e+00,5.878362655639648438e+01,-1.632224731445312500e+02,6.525231170654296875e+01,-1.076464080810546875e+02,8.440365600585937500e+01,1.649462890625000000e+01,5.995571517944335938e+01,1.731447906494140625e+02,3.401771163940429688e+01,5.480632781982421875e+01
4.839999973773956299e-01,2.000000000000000000e+00,2.803565597534179688e+01,-3.732652664184570312e+00,5.875607299804687500e+01,-1.632319183349609375e+02,6.525534057617187500e+01,-1.076278076171875000e+02,8.436974334716796875e+01,1.647378158569335938e+01,5.992734146118164062e+01,1.731546020507812500e+02,3.403252410888671875e+01,5.479716873168945312e+01
4.880000054836273193e-01,2.000000000000000000e+00,2.796782112121582031e+01,-3.700513362884521484e+00,5.872852706909179688e+01,-1.632413635253906250e+02,6.525837707519531250e+01,-1.076092147827148438e+02,8.433584594726562500e+01,1.645293998718261719e+01,5.989897537231445312e+01,1.731644287109375000e+02,3.404732894897460938e+01,5.478800964355468750e+01
4.920000135898590088e-01,2.000000000000000000e+00,2.790001106262207031e+01,-3.668384552001953125e+00,5.870098876953125000e+01,-1.632507781982421875e+02,6.526140594482421875e+01,-1.075906219482421875e+02,8.430195617675781250e+01,1.643210601806640625e+01,5.987061691284179688e+01,1.731742248535156250e+02,3.406212997436523438e+01,5.477885055541992188e+01
4.959999918937683105e-01,2.000000000000000000e+00,2.783222198486328125e+01,-3.636265993118286133e+00,5.867346191406250000e+01,-1.632602233886718750e+02,6.526444244384765625e+01,-1.075720443725585938e+02,8.426808166503906250e+01,1.641127967834472656e+01,5.984227371215820312e+01,1.731840362548828125e+02,3.407692337036132812e+01,5.476969909667968750e+01
5.000000000000000000e-01,2.000000000000000000e+00,2.776445388793945312e+01,-3.604158163070678711e+00,5.864594650268554688e+01,-1.632696533203125000e+02,6.526747131347656250e+01,-1.075534744262695312e+02,8.423421478271484375e+01,1.639045906066894531e+01,5.981393432617187500e+01,1.731938476562500000e+02,3.409171295166015625e+01,5.476054763793945312e+01
5.040000081062316895e-01,2.000000000000000000e+00,2.769670867919921875e+01,-3.572060585021972656e+00,5.861843109130859375e+01,-1.632790679931640625e+02,6.527050781250000000e+01,-1.075349044799804688e+02,8.420036315917968750e+01,1.636964416503906250e+01,5.978560256958007812e+01,1.732036437988281250e+02,3.410650253295898438e+01,5.475139999389648438e+01
5.080000162124633789e-01,2.000000000000000000e+00,2.762898635864257812e+01,-3.539973735809326172e+00,5.859092712402343750e+01,-1.632884826660156250e+02,6.527353668212890625e+01,-1.075163345336914062e+02,8.416651916503906250e+01,1.634883880615234375e+01,5.975728607177734375e+01,1.732134552001953125e+02,3.412128448486328125e+01,5.474225997924804688e+01
5.120000243186950684e-01,2.000000000000000000e+00,2.756128501892089844e+01,-3.507897377014160156e+00,5.856343460083007812e+01,-1.632979125976562500e+02,6.527656555175781250e+01,-1.074977798461914062e+02,8.413268280029296875e+01,1.632803916931152344e+01,5.972897338867187500e+01,1.732232360839843750e+02,3.413605880737304688e+01,5.473311614990234375e+01
5.159999728202819824e-01,2.000000000000000000e+00,2.749360656738281250e+01,-3.475831508636474609e+00,5.853594970703125000e+01,-1.633073272705078125e+02,6.527958679199218750e+01,-1.074792327880859375e+02,8.409886169433593750e+01,1.630724525451660156e+01,5.970067596435546875e+01,1.732330322265625000e+02,3.415082931518554688e+01,5.472397994995117188e+01
5.199999809265136719e-01,2.000000000000000000e+00,2.742595100402832031e+01,-3.443775892257690430e+00,5.850848007202148438e+01,-1.633167419433593750e+02,6.528261566162109375e+01,-1.074606857299804688e+02,8.406505584716796875e+01,1.628645896911621094e+01,5.967238616943359375e+01,1.732428131103515625e+02,3.416559600830078125e+01,5.471484375000000000e+01
5.239999890327453613e-01,2.000000000000000000e+00,2.735831451416015625e+01,-3.411730766296386719e+00,5.848101043701171875e+01,-1.633261566162109375e+02,6.528563690185546875e+01,-1.074421463012695312e+02,8.403125000000000000e+01,1.626567840576171875e+01,5.964410018920898438e+01,1.732526092529296875e+02,3.418035888671875000e+01,5.470571136474609375e+01
5.279999971389770508e-01,2.000000000000000000e+00,2.729070281982421875e+01,-3.379696130752563477e+00,5.845355224609375000e+01,-1.633355560302734375e+02,6.528866577148437500e+01,-1.074236145019531250e+02,8.399745941162109375e+01,1.624490737915039062e+01,5.961582565307617188e+01,1.732623901367187500e+02,3.419511795043945312e+01,5.469658279418945312e+01
5.320000052452087402e-01,2.000000000000000000e+00,2.722311210632324219e+01,-3.347671985626220703e+00,5.842610931396484375e+01,-1.633449554443359375e+02,6.529169464111328125e+01,-1.074050979614257812e+02,8.396368408203125000e+01,1.622414016723632812e+01,5.958756256103515625e+01,1.732721710205078125e+02,3.420986557006835938e+01,5.468745803833007812e+01
5.360000133514404297e-01,2.000000000000000000e+00,2.715554237365722656e+01,-3.315658092498779297e+00,5.839867019653320312e+01,-1.633543548583984375e+02,6.529470825195312500e+01,-1.073865737915039062e+02,8.392991638183593750e+01,1.620338058471679688e+01,5.955930328369140625e+01,1.732819519042968750e+02,3.422461700439453125e+01,5.467833709716796875e+01
5.400000214576721191e-01,2.000000000000000000e+00,2.708799552917480469e+01,-3.283654689788818359e+00,5.837124252319335938e+01,-1.633637542724609375e+02,6.529773712158203125e+01,-1.073680572509765625e+02,8.389616394042968750e+01,1.618262672424316406e+01,5.953106307983398438e+01,1.732917175292968750e+02,3.423935699462890625e+01,5.466921234130859375e+01
5.440000295639038086e-01,2.000000000000000000e+00,2.702047348022460938e+01,-3.251661539077758789e+00,5.834381866455078125e+01,-1.633731536865234375e+02,6.530075836181640625e+01,-1.073495483398437500e+02,8.386241912841796875e+01,1.616188240051269531e+01,5.950282669067382812e+01,1.733014831542968750e+02,3.425409698486328125e+01,5.466009521484375000e+01
5.479999780654907227e-01,2.000000000000000000e+00,2.695297050476074219e+01,-3.219679117202758789e+00,5.831640243530273438e+01,-1.633825378417968750e+02,6.530377197265625000e+01,-1.073310470581054688e+02,8.382868194580078125e+01,1.614114189147949219e+01,5.947459793090820312e+01,1.733112640380859375e+02,3.426882934570312500e+01,5.465098571777343750e+01
5.519999861717224121e-01,2.000000000000000000e+00,2.688548851013183594e+01,-3.187706947326660156e+00,5.828899765014648438e+01,-1.633919219970703125e+02,6.530679321289062500e+01,-1.073125534057617188e+02,8.379496002197265625e+01,1.612040901184082031e+01,5.944638061523437500e+01,1.733210296630859375e+02,3.428355789184570312e+01,5.464187240600585938e+01
5.559999942779541016e-01,2.000000000000000000e+00,2.681802940368652344e+01,-3.155745029449462891e+00,5.826160812377929688e+01,-1.634013214111328125e+02,6.530981445312500000e+01,-1.072940597534179688e+02,8.376124572753906250e+01,1.609968566894531250e+01,5.941817092895507812e+01,1.733307952880859375e+02,3.429827880859375000e+01,5.463276290893554688e+01
5.600000023841857910e-01,2.000000000000000000e+00,2.675059318542480469e+01,-3.123793601989746094e+00,5.823422241210937500e+01,-1.634106903076171875e+02,6.531282043457031250e+01,-1.072755737304687500e+02,8.372754669189453125e+01,1.607896614074707031e+01,5.938997268676757812e+01,1.733405456542968750e+02,3.431299972534179688e+01,5.462366104125976562e+01
5.640000104904174805e-01,2.000000000000000000e+00,2.668317794799804688e+01,-3.091852664947509766e+00,5.820684432983398438e+01,-1.634200744628906250e+02,6.531584167480468750e+01,-1.072570953369140625e+02,8.369386291503906250e+01,1.605825233459472656e+01,5.936177444458007812e+01,1.733502960205078125e+02,3.432771301269531250e+01,5.461455535888671875e+01
5.680000185966491699e-01,2.000000000000000000e+00,2.661578369140625000e+01,-3.059921979904174805e+00,5.817947769165039062e+01,-1.634294433593750000e+02,6.531885528564453125e+01,-1.072386322021484375e+02,8.366017913818359375e+01,1.603754806518554688e+01,5.933359527587890625e+01,1.733600463867187500e+02,3.434241867065429688e+01,5.460545730590820312e+01
5.720000267028808594e-01,2.000000000000000000e+00,2.654841232299804688e+01,-3.028001546859741211e+00,5.815211486816406250e+01,-1.634388275146484375e+02,6.532187652587890625e+01,-1.072201614379882812e+02,8.362651062011718750e+01,1.601684761047363281e+01,5.930542755126953125e+01,1.733697967529296875e+02,3.435712432861328125e+01,5.459635925292968750e+01
5.759999752044677734e-01,2.000000000000000000e+00,2.648106384277343750e+01,-2.996091604232788086e+00,5.812476730346679688e+01,-1.634481964111328125e+02,6.532488250732421875e+01,-1.072016983032226562e+02,8.359285736083984375e+01,1.599615669250488281e+01,5.927725982666015625e+01,1.733795471191406250e+02,3.437182617187500000e+01,5.458726501464843750e+01
5.799999833106994629e-01,2.000000000000000000e+00,2.641373443603515625e+01,-2.964191675186157227e+00,5.809742736816406250e+01,-1.634575653076171875e+02,6.532789611816406250e+01,-1.071832427978515625e+02,8.355921173095703125e+01,1.597547149658203125e+01,5.924910354614257812e+01,1.733892822265625000e+02,3.438652038574218750e+01,5.457817840576171875e+01
5.839999914169311523e-01,2.000000000000000000e+00,2.634642791748046875e+01,-2.932302474975585938e+00,5.807009124755859375e+01,-1.634669189453125000e+02,6.533090209960937500e+01,-1.071647949218750000e+02,8.352557373046875000e+01,1.595479297637939453e+01,5.922095870971679688e+01,1.733990325927734375e+02,3.440121078491210938e+01,5.456909179687500000e+01
5.879999995231628418e-01,2.000000000000000000e+00,2.627914428710937500e+01,-2.900423526763916016e+00,5.804277038574218750e+01,-1.634762878417968750e+02,6.533391571044921875e+01,-1.071463546752929688e+02,8.349194335937500000e+01,1.593411922454833984e+01,5.919282531738281250e+01,1.734087677001953125e+02,3.441589736938476562e+01,5.456000518798828125e+01
5.920000076293945312e-01,2.000000000000000000e+00,2.621188354492187500e+01,-2.868554830551147461e+00,5.801545715332031250e+01,-1.634856414794921875e+02,6.533692932128906250e+01,-1.071279220581054688e+02,8.345833587646484375e+01,1.591345500946044922e+01,5.916469573974609375e+01,1.734184875488281250e+02,3.443057632446289062e+01,5.455092239379882812e+01
5.960000157356262207e-01,2.000000000000000000e+00,2.614464187622070312e+01,-2.836696624755859375e+00,5.798814773559570312e+01,-1.634950103759765625e+02,6.533993530273437500e+01,-1.071094894409179688e+02,8.342472839355468750e+01,1.589279651641845703e+01,5.913657760620117188e+01,1.734282226562500000e+02,3.444525146484375000e+01,5.454184341430664062e+01
6.000000238418579102e-01,2.000000000000000000e+00,2.607742118835449219e+01,-2.804848909378051758e+00,5.796084976196289062e+01,-1.635043487548828125e+02,6.534294128417968750e+01,-1.070910644531250000e+02,8.339113616943359375e+01,1.587214374542236328e+01,5.910847091674804688e+01,1.734379425048828125e+02,3.445992279052734375e+01,5.453276824951171875e+01
6.039999723434448242e-01,2.000000000000000000e+00,2.601022529602050781e+01,-2.773010969161987305e+00,5.793356323242187500e+01,-1.635137023925781250e+02,6.534594726562500000e+01,-1.070726470947265625e+02,8.335755920410156250e+01,1.585149765014648438e+01,5.908037185668945312e+01,1.734476623535156250e+02,3.447459030151367188e+01,5.452369689941406250e+01
6.079999804496765137e-01,2.000000000000000000e+00,2.594304847717285156e+01,-2.741183042526245117e+00,5.790628433227539062e+01,-1.635230560302734375e+02,6.534894561767578125e+01,-1.070542373657226562e+02,8.332398223876953125e+01,1.583086109161376953e+01,5.905228042602539062e+01,1.734573974609375000e+02,3.448925399780273438e+01,5.451462554931640625e+01
6.119999885559082031e-01,2.000000000000000000e+00,2.587589454650878906e+01,-2.709365367889404297e+00,5.787900924682617188e+01,-1.635323944091796875e+02,6.535195159912109375e+01,-1.070358276367187500e+02,8.329042816162109375e+01,1.581022834777832031e+01,5.902420043945312500e+01,1.734671020507812500e+02,3.450390625000000000e+01,5.450555801391601562e+01
6.159999966621398926e-01,2.000000000000000000e+00,2.580876159667968750e+01,-2.677557945251464844e+00,5.785174942016601562e+01,-1.635417175292968750e+02,6.535495758056640625e+01,-1.070174255371093750e+02,8.325688171386718750e+01,1.578960323333740234e+01,5.899612808227539062e+01,1.734768218994140625e+02,3.451856231689453125e+01,5.449649429321289062e+01
6.200000047683715820e-01,2.000000000000000000e+00,2.574165153503417969e+01,-2.645760774612426758e+00,5.782449722290039062e+01,-1.635510711669921875e+02,6.535795593261718750e+01,-1.069990310668945312e+02,8.322334289550781250e+01,1.576898384094238281e+01,5.896806335449218750e+01,1.734865264892578125e+02,3.453320693969726562e+01,5.448743057250976562e+01
6.240000128746032715e-01,2.000000000000000000e+00,2.567456054687500000e+01,-2.613974094390869141e+00,5.779725265502929688e+01,-1.635603942871093750e+02,6.536096191406250000e+01,-1.069806442260742188e+02,8.318981170654296875e+01,1.574837112426757812e+01,5.894000625610351562e+01,1.734962310791015625e+02,3.454785156250000000e+01,5.447837448120117188e+01
6.280000209808349609e-01,2.000000000000000000e+00,2.560749244689941406e+01,-2.582197189331054688e+00,5.777001953125000000e+01,-1.635697326660156250e+02,6.536396026611328125e+01,-1.069622573852539062e+02,8.315629577636718750e+01,1.572776603698730469e+01,5.891196060180664062e+01,1.735059509277343750e+02,3.456248855590820312e+01,5.446931838989257812e+01
6.320000290870666504e-01,2.000000000000000000e+00,2.554044532775878906e+01,-2.550430774688720703e+00,5.774279022216796875e+01,-1.635790557861328125e+02,6.536695861816406250e+01,-1.069438858032226562e+02,8.312278747558593750e+01,1.570716762542724609e+01,5.888392257690429688e+01,1.735156402587890625e+02,3.457712173461914062e+01,5.446026992797851562e+01
6.359999775886535645e-01,2.000000000000000000e+00,2.547341918945312500e+01,-2.518674373626708984e+00,5.771556854248046875e+01,-1.635883941650390625e+02,6.536995697021484375e+01,-1.069255142211914062e+02,8.308930206298828125e+01,1.568657493591308594e+01,5.885589599609375000e+01,1.735253448486328125e+02,3.459175109863281250e+01,5.445121765136718750e+01
6.399999856948852539e-01,2.000000000000000000e+00,2.540641593933105469e+01,-2.486927986145019531e+00,5.768836593627929688e+01,-1.635977020263671875e+02,6.537295532226562500e+01,-1.069071502685546875e+02,8.305580902099609375e+01,1.566598796844482422e+01,5.882788085937500000e+01,1.735350341796875000e+02,3.460637283325195312e+01,5.444217300415039062e+01
6.439999938011169434e-01,2.000000000000000000e+00,2.533943367004394531e+01,-2.455191850662231445e+00,5.766115951538085938e+01,-1.636070251464843750e+02,6.537595367431640625e+01,-1.068887863159179688e+02,8.302233886718750000e+01,1.564540863037109375e+01,5.879986953735351562e+01,1.735447235107421875e+02,3.462099456787109375e+01,5.443312835693359375e+01
6.480000019073486328e-01,2.000000000000000000e+00,2.527247238159179688e+01,-2.423465728759765625e+00,5.763396835327148438e+01,-1.636163330078125000e+02,6.537894439697265625e+01,-1.068704376220703125e+02,8.298887634277343750e+01,1.562483692169189453e+01,5.877186584472656250e+01,1.735544128417968750e+02,3.463560867309570312e+01,5.442408370971679688e+01
6.520000100135803223e-01,2.000000000000000000e+00,2.520553016662597656e+01,-2.391749858856201172e+00,5.760678482055664062e+01,-1.636256561279296875e+02,6.538194274902343750e+01,-1.068520889282226562e+02,8.295542144775390625e+01,1.560427093505859375e+01,5.874387741088867188e+01,1.735641021728515625e+02,3.465021896362304688e+01,5.441505050659179688e+01
6.560000181198120117e-01,2.000000000000000000e+00,2.513861274719238281e+01,-2.360043764114379883e+00,5.757960891723632812e+01,-1.636349487304687500e+02,6.538493347167968750e+01,-1.068337402343750000e+02,8.292198181152343750e+01,1.558371067047119141e+01,5.871589279174804688e+01,1.735737762451171875e+02,3.466482543945312500e+01,5.440601348876953125e+01
6.600000262260437012e-01,2.000000000000000000e+00,2.507171630859375000e+01,-2.328347921371459961e+00,5.755244445800781250e+01,-1.636442718505859375e+02,6.538793182373046875e+01,-1.068154067993164062e+02,8.288854980468750000e+01,1.556315803527832031e+01,5.868791580200195312e+01,1.735834655761718750e+02,3.467942428588867188e+01,5.439698028564453125e+01
6.639999747276306152e-01,2.000000000000000000e+00,2.500483703613281250e+01,-2.296662330627441406e+00,5.752528762817382812e+01,-1.636535797119140625e+02,6.539092254638671875e+01,-1.067970809936523438e+02,8.285512542724609375e+01,1.554261112213134766e+01,5.865995407104492188e+01,1.735931396484375000e+02,3.469402313232421875e+01,5.438795089721679688e+01
6.679999828338623047e-01,2.000000000000000000e+00,2.493798446655273438e+01,-2.264986276626586914e+00,5.749813842773437500e+01,-1.636628723144531250e+02,6.539391326904296875e+01,-1.067787551879882812e+02,8.282172393798828125e+01,1.552207088470458984e+01,5.863199615478515625e+01,1.736028137207031250e+02,3.470861434936523438e+01,5.437892532348632812e+01
6.719999909400939941e-01,2.000000000000000000e+00,2.487114906311035156e+01,-2.233320474624633789e+00,5.747099685668945312e+01,-1.636721649169921875e+02,6.539690399169921875e+01,-1.067604370117187500e+02,8.278832244873046875e+01,1.550153636932373047e+01,5.860404968261718750e+01,1.736124877929687500e+02,3.472320175170898438e+01,5.436989974975585938e+01
6.759999990463256836e-01,2.000000000000000000e+00,2.480433654785156250e+01,-2.201664686203002930e+00,5.744386672973632812e+01,-1.636814727783203125e+02,6.539988708496093750e+01,-1.067421188354492188e+02,8.275492858886718750e+01,1.548100948333740234e+01,5.857610702514648438e+01,1.736221466064453125e+02,3.473778152465820312e+01,5.436087799072265625e+01
6.800000071525573730e-01,2.000000000000000000e+00,2.473754310607910156e+01,-2.170018672943115234e+00,5.741674423217773438e+01,-1.636907653808593750e+02,6.540287780761718750e+01,-1.067238082885742188e+02,8.272154998779296875e+01,1.546048831939697266e+01,5.854817581176757812e+01,1.736318054199218750e+02,3.475236129760742188e+01,5.435186004638671875e+01
6.840000152587890625e-01,2.000000000000000000e+00,2.467077255249023438e+01,-2.138382911682128906e+00,5.738962554931640625e+01,-1.637000427246093750e+02,6.540586853027343750e+01,-1.067055130004882812e+02,8.268818664550781250e+01,1.543997383117675781e+01,5.852025604248046875e+01,1.736414794921875000e+02,3.476693344116210938e+01,5.434284591674804688e+01
6.880000233650207520e-01,2.000000000000000000e+00,2.460402297973632812e+01,-2.106756925582885742e+00,5.736251831054687500e+01,-1.637093353271484375e+02,6.540885162353515625e+01,-1.066872177124023438e+02,8.265482330322265625e+01,1.541946601867675781e+01,5.849234771728515625e+01,1.736511383056640625e+02,3.478150177001953125e+01,5.433383560180664062e+01
6.919999718666076660e-01,2.000000000000000000e+00,2.453729438781738281e+01,-2.075140953063964844e+00,5.733542251586914062e+01,-1.637186126708984375e+02,6.541183471679687500e+01,-1.066689224243164062e+02,8.262148284912109375e+01,1.539896583557128906e+01,5.846443939208984375e+01,1.736607971191406250e+02,3.479606628417968750e+01,5.432482147216796875e+01
6.959999799728393555e-01,2.000000000000000000e+00,2.447058677673339844e+01,-2.043534994125366211e+00,5.730832672119140625e+01,-1.637279052734375000e+02,6.541481781005859375e+01,-1.066506423950195312e+02,8.258814239501953125e+01,1.537846946716308594e+01,5.843654632568359375e+01,1.736704406738281250e+02,3.481062698364257812e+01,5.431581497192382812e+01
6.999999880790710449e-01,2.000000000000000000e+00,2.440390014648437500e+01,-2.011939048767089844e+00,5.728125000000000000e+01,-1.637371826171875000e+02,6.541780090332031250e+01,-1.066323623657226562e+02,8.255481719970703125e+01,1.535798072814941406e+01,5.840865707397460938e+01,1.736800994873046875e+02,3.482518005371093750e+01,5.430681610107421875e+01
7.039999961853027344e-01,2.000000000000000000e+00,2.433723449707031250e+01,-1.980352759361267090e+00,5.725417709350585938e+01,-1.637464447021484375e+02,6.542078399658203125e+01,-1.066140899658203125e+02,8.252149963378906250e+01,1.533749866485595703e+01,5.838078308105468750e+01,1.736897430419921875e+02,3.483972930908203125e+01,5.429781341552734375e+01
7.080000042915344238e-01,2.000000000000000000e+00,2.427058982849121094e+01,-1.948776364326477051e+00,5.722711181640625000e+01,-1.637557220458984375e+02,6.542376708984375000e+01,-1.065958175659179688e+02,8.248819732666015625e+01,1.531702423095703125e+01,5.835290908813476562e+01,1.736993865966796875e+02,3.485427856445312500e+01,5.428881454467773438e+01
7.120000123977661133e-01,2.000000000000000000e+00,2.420396423339843750e+01,-1.917209982872009277e+00,5.720005798339843750e+01,-1.637649841308593750e+02,6.542674255371093750e+01,-1.065775604248046875e+02,8.245489501953125000e+01,1.529655361175537109e+01,5.832505035400390625e+01,1.737090148925781250e+02,3.486882019042968750e+01,5.427981948852539062e+01
7.160000205039978027e-01,2.000000000000000000e+00,2.413736152648925781e+01,-1.885653734207153320e+00,5.717301177978515625e+01,-1.637742614746093750e+02,6.542973327636718750e+01,-1.065593032836914062e+02,8.242161560058593750e+01,1.527609252929687500e+01,5.829720306396484375e+01,1.737186584472656250e+02,3.488335418701171875e+01,5.427082443237304688e+01
7.200000286102294922e-01,2.000000000000000000e+00,2.407077789306640625e+01,-1.854107141494750977e+00,5.714596939086914062e+01,-1.637835235595703125e+02,6.543270874023437500e+01,-1.065410537719726562e+02,8.238834381103515625e+01,1.525563430786132812e+01,5.826935577392578125e+01,1.737283020019531250e+02,3.489788818359375000e+01,5.426183319091796875e+01
7.239999771118164062e-01,2.000000000000000000e+00,2.400421905517578125e+01,-1.822570443153381348e+00,5.711893844604492188e+01,-1.637927856445312500e+02,6.543568420410156250e+01,-1.065228118896484375e+02,8.235507965087890625e+01,1.523518466949462891e+01,5.824152374267578125e+01,1.737379302978515625e+02,3.491241455078125000e+01,5.425284957885742188e+01
7.279999852180480957e-01,2.000000000000000000e+00,2.393767738342285156e+01,-1.791043639183044434e+00,5.709191894531250000e+01,-1.638020324707031250e+02,6.543865966796875000e+01,-1.065045776367187500e+02,8.232182312011718750e+01,1.521474170684814453e+01,5.821369552612304688e+01,1.737475585937500000e+02,3.492693710327148438e+01,5.424386215209960938e+01
7.319999933242797852e-01,2.000000000000000000e+00,2.387115859985351562e+01,-1.759526729583740234e+00,5.706490707397460938e+01,-1.638112945556640625e+02,6.544163513183593750e+01,-1.064863357543945312e+02,8.228858184814453125e+01,1.519430446624755859e+01,5.818588256835937500e+01,1.737571716308593750e+02,3.494145584106445312e+01,5.423488235473632812e+01
7.360000014305114746e-01,2.000000000000000000e+00,2.380465888977050781e+01,-1.728019714355468750e+00,5.703790283203125000e+01,-1.638205413818359375e+02,6.544461059570312500e+01,-1.064681167602539062e+02,8.225535583496093750e+01,1.517387294769287109e+01,5.815806961059570312e+01,1.737667999267578125e+02,3.495597076416015625e+01,5.422590255737304688e+01
7.400000095367431641e-01,2.000000000000000000e+00,2.373818016052246094e+01,-1.696522474288940430e+00,5.701090621948242188e+01,-1.638297882080078125e+02,6.544758605957031250e+01,-1.064498901367187500e+02,8.222212982177734375e+01,1.515344905853271484e+01,5.813027191162109375e+01,1.737764282226562500e+02,3.497048187255859375e+01,5.421693038940429688e+01
7.440000176429748535e-01,2.000000000000000000e+00,2.367172241210937500e+01,-1.665035128593444824e+00,5.698391723632812500e+01,-1.638390350341796875e+02,6.545055389404296875e+01,-1.064316787719726562e+02,8.218891906738281250e+01,1.513303089141845703e+01,5.810248565673828125e+01,1.737860412597656250e+02,3.498498535156250000e+01,5.420795440673828125e+01
7.480000257492065430e-01,2.000000000000000000e+00,2.360528564453125000e+01,-1.633557677268981934e+00,5.695693969726562500e+01,-1.638482818603515625e+02,6.545352935791015625e+01,-1.064134674072265625e+02,8.215571594238281250e+01,1.511261844635009766e+01,5.807470321655273438e+01,1.737956542968750000e+02,3.499948501586914062e+01,5.419898605346679688e+01
7.519999742507934570e-01,2.000000000000000000e+00,2.353887176513671875e+01,-1.602089881896972656e+00,5.692996597290039062e+01,-1.638575286865234375e+02,6.545649719238281250e+01,-1.063952636718750000e+02,8.212252807617187500e+01,1.509221363067626953e+01,5.804692840576171875e+01,1.738052520751953125e+02,3.501398086547851562e+01,5.419001770019531250e+01
7.559999823570251465e-01,2.000000000000000000e+00,2.347247505187988281e+01,-1.570632100105285645e+00,5.690300369262695312e+01,-1.638667602539062500e+02,6.545946502685546875e+01,-1.063770599365234375e+02,8.208934783935546875e+01,1.507181453704833984e+01,5.801916503906250000e+01,1.738148651123046875e+02,3.502847290039062500e+01,5.418105316162109375e+01
7.599999904632568359e-01,2.000000000000000000e+00,2.340610122680664062e+01,-1.539184093475341797e+00,5.687605285644531250e+01,-1.638759918212890625e+02,6.546244049072265625e+01,-1.063588714599609375e+02,8.205618286132812500e+01,1.505142211914062500e+01,5.799140930175781250e+01,1.738244628906250000e+02,3.504295730590820312e+01,5.417209243774414062e+01
7.639999985694885254e-01,2.000000000000000000e+00,2.333974647521972656e+01,-1.507745862007141113e+00,5.684910583496093750e+01,-1.638852233886718750e+02,6.546540069580078125e+01,-1.063406829833984375e+02,8.202301788330078125e+01,1.503103733062744141e+01,5.796366500854492188e+01,1.738340606689453125e+02,3.505744171142578125e+01,5.416313171386718750e+01
7.680000066757202148e-01,2.000000000000000000e+00,2.327341461181640625e+01,-1.476317405700683594e+00,5.682216644287109375e+01,-1.638944549560546875e+02,6.546837615966796875e+01,-1.063225021362304688e+02,8.198986816406250000e+01,1.501065540313720703e+01,5.793592453002929688e+01,1.738436737060546875e+02,3.507191848754882812e+01,5.415417480468750000e+01
7.720000147819519043e-01,2.000000000000000000e+00,2.320710182189941406e+01,-1.444898843765258789e+00,5.679523849487304688e+01,-1.639036865234375000e+02,6.547133636474609375e+01,-1.063043289184570312e+02,8.195673370361328125e+01,1.499028301239013672e+01,5.790819549560546875e+01,1.738532562255859375e+02,3.508639144897460938e+01,5.414522171020507812e+01
7.760000228881835938e-01,2.000000000000000000e+00,2.314081001281738281e+01,-1.413490056991577148e+00,5.676831817626953125e+01,-1.639129028320312500e+02,6.547430419921875000e+01,-1.062861633300781250e+02,8.192359924316406250e+01,1.496991539001464844e+01,5.788047027587890625e+01,1.738628540039062500e+02,3.510086059570312500e+01,5.413627243041992188e+01
7.799999713897705078e-01,2.000000000000000000e+00,2.307453918457031250e+01,-1.382090926170349121e+00,5.674140548706054688e+01,-1.639221191406250000e+02,6.547726440429687500e+01,-1.062679901123046875e+02,8.189048004150390625e+01,1.494955444335937500e+01,5.785276031494140625e+01,1.738724365234375000e+02,3.511532592773437500e+01,5.412732315063476562e+01
7.839999794960021973e-01,2.000000000000000000e+00,2.300828742980957031e+01,-1.350701570510864258e+00,5.671450042724609375e+01,-1.639313507080078125e+02,6.548023223876953125e+01,-1.062498321533203125e+02,8.185737609863281250e+01,1.492920017242431641e+01,5.782505798339843750e+01,1.738820343017578125e+02,3.512978363037109375e+01,5.411837768554687500e+01
7.879999876022338867e-01,2.000000000000000000e+00,2.294205856323242188e+01,-1.319322109222412109e+00,5.668760681152343750e+01,-1.639405517578125000e+02,6.548320007324218750e+01,-1.062316818237304688e+02,8.182427215576171875e+01,1.490885162353515625e+01,5.779736328125000000e+01,1.738916168212890625e+02,3.514424133300781250e+01,5.410943603515625000e+01
7.919999957084655762e-01,2.000000000000000000e+00,2.287584877014160156e+01,-1.287952303886413574e+00,5.666072082519531250e+01,-1.639497528076171875e+02,6.548616027832031250e+01,-1.062135314941406250e+02,8.179119110107421875e+01,1.488850975036621094e+01,5.776967239379882812e+01,1.739011993408203125e+02,3.515868759155273438e+01,5.410049819946289062e+01
7.960000038146972656e-01,2.000000000000000000e+00,2.280966186523437500e+01,-1.256592273712158203e+00,5.663383865356445312e+01,-1.639589691162109375e+02,6.548912048339843750e+01,-1.061953964233398438e+02,8.175811004638671875e+01,1.486817455291748047e+01,5.774199676513671875e+01,1.739107666015625000e+02,3.517313385009765625e+01,5.409156036376953125e+01
8.000000119209289551e-01,2.000000000000000000e+00,2.274349403381347656e+01,-1.225242018699645996e+00,5.660696792602539062e+01,-1.639681701660156250e+02,6.549208068847656250e+01,-1.061772537231445312e+02,8.172504425048828125e+01,1.484784603118896484e+01,5.771432876586914062e+01,1.739203491210937500e+02,3.518757629394531250e+01,5.408262634277343750e+01
8.040000200271606445e-01,2.000000000000000000e+00,2.267734527587890625e+01,-1.193901538848876953e+00,5.658010864257812500e+01,-1.639773864746093750e+02,6.549504089355468750e+01,-1.061591262817382812e+02,8.169198608398437500e+01,1.482752323150634766e+01,5.768666458129882812e+01,1.739299011230468750e+02,3.520201492309570312e+01,5.407369613647460938e+01
8.080000281333923340e-01,2.000000000000000000e+00,2.261121940612792969e+01,-1.162570714950561523e+00,5.655325317382812500e+01,-1.639865722656250000e+02,6.549800109863281250e+01,-1.061409988403320312e+02,8.165894317626953125e+01,1.480720615386962891e+01,5.765901565551757812e+01,1.739394836425781250e+02,3.521644973754882812e+01,5.406476593017578125e+01
8.119999766349792480e-01,2.000000000000000000e+00,2.254511260986328125e+01,-1.131249547004699707e+00,5.652640914916992188e+01,-1.639957733154296875e+02,6.550095367431640625e+01,-1.061228790283203125e+02,8.162590789794921875e+01,1.478689670562744141e+01,5.763136672973632812e+01,1.739490509033203125e+02,3.523087692260742188e+01,5.405584335327148438e+01
8.159999847412109375e-01,2.000000000000000000e+00,2.247902488708496094e+01,-1.099938154220581055e+00,5.649957275390625000e+01,-1.640049743652343750e+02,6.550391387939453125e+01,-1.061047668457031250e+02,8.159288024902343750e+01,1.476659297943115234e+01,5.760373306274414062e+01,1.739586029052734375e+02,3.524530029296875000e+01,5.404691696166992188e+01
8.199999928474426270e-01,2.000000000000000000e+00,2.241296005249023438e+01,-1.068636417388916016e+00,5.647274398803710938e+01,-1.640141601562500000e+02,6.550686645507812500e+01,-1.060866546630859375e+02,8.155986022949218750e+01,1.474629497528076172e+01,5.757611083984375000e+01,1.739681701660156250e+02,3.525971984863281250e+01,5.403799819946289062e+01
8.240000009536743164e-01,2.000000000000000000e+00,2.234691619873046875e+01,-1.037344455718994141e+00,5.644592285156250000e+01,-1.640233459472656250e+02,6.550981903076171875e+01,-1.060685577392578125e+02,8.152686309814453125e+01,1.472600269317626953e+01,5.754848861694335938e+01,1.739777221679687500e+02,3.527413177490234375e+01,5.402908325195312500e+01
8.280000090599060059e-01,2.000000000000000000e+00,2.228088951110839844e+01,-1.006062150001525879e+00,5.641911315917968750e+01,-1.640325469970703125e+02,6.551277160644531250e+01,-1.060504531860351562e+02,8.149386596679687500e+01,1.470571804046630859e+01,5.752088165283203125e+01,1.739872741699218750e+02,3.528854370117187500e+01,5.402016830444335938e+01
8.320000171661376953e-01,2.000000000000000000e+00,2.221488571166992188e+01,-9.747894406318664551e-01,5.639230728149414062e+01,-1.640417175292968750e+02,6.551573181152343750e+01,-1.060323638916015625e+02,8.146088409423828125e+01,1.468544006347656250e+01,5.749328231811523438e+01,1.739968261718750000e+02,3.530294799804687500e+01,5.401125335693359375e+01
8.360000252723693848e-01,2.000000000000000000e+00,2.214890289306640625e+01,-9.435265064239501953e-01,5.636551284790039062e+01,-1.640509033203125000e+02,6.551867675781250000e+01,-1.060142745971679688e+02,8.142790222167968750e+01,1.466516590118408203e+01,5.746568679809570312e+01,1.740063781738281250e+02,3.531735229492187500e+01,5.400234603881835938e+01
8.399999737739562988e-01,2.000000000000000000e+00,2.208293914794921875e+01,-9.122731685638427734e-01,5.633872222900390625e+01,-1.640600738525390625e+02,6.552162933349609375e+01,-1.059962005615234375e+02,8.139494323730468750e+01,1.464490032196044922e+01,5.743810272216796875e+01,1.740159149169921875e+02,3.533174896240234375e+01,5.399343872070312500e+01
8.439999818801879883e-01,2.000000000000000000e+00,2.201699638366699219e+01,-8.810295462608337402e-01,5.631194686889648438e+01,-1.640692443847656250e+02,6.552458190917968750e+01,-1.059781265258789062e+02,8.136198425292968750e+01,1.462464046478271484e+01,5.741052627563476562e+01,1.740254669189453125e+02,3.534614181518554688e+01,5.398453521728515625e+01
8.479999899864196777e-01,2.000000000000000000e+00,2.195107460021972656e+01,-8.497955799102783203e-01,5.628517532348632812e+01,-1.640784301757812500e+02,6.552752685546875000e+01,-1.059600601196289062e+02,8.132904052734375000e+01,1.460438728332519531e+01,5.738296127319335938e+01,1.740350036621093750e+02,3.536052703857421875e+01,5.397563552856445312e+01
8.519999980926513672e-01,2.000000000000000000e+00,2.188517189025878906e+01,-8.185712099075317383e-01,5.625841140747070312e+01,-1.640875854492187500e+02,6.553047180175781250e+01,-1.059419937133789062e+02,8.129611206054687500e+01,1.458413982391357422e+01,5.735540008544921875e+01,1.740445404052734375e+02,3.537491226196289062e+01,5.396673965454101562e+01
8.560000061988830566e-01,2.000000000000000000e+00,2.181928825378417969e+01,-7.873564362525939941e-01,5.623165893554687500e+01,-1.640967559814453125e+02,6.553342437744140625e+01,-1.059239349365234375e+02,8.126318359375000000e+01,1.456389808654785156e+01,5.732785415649414062e+01,1.740540618896484375e+02,3.538929367065429688e+01,5.395784378051757812e+01
8.600000143051147461e-01,2.000000000000000000e+00,2.175342750549316406e+01,-7.561513185501098633e-01,5.620491409301757812e+01,-1.641059265136718750e+02,6.553636932373046875e+01,-1.059058837890625000e+02,8.123026275634765625e+01,1.454366397857666016e+01,5.730031585693359375e+01,1.740635833740234375e+02,3.540366744995117188e+01,5.394895172119140625e+01
8.640000224113464355e-01,2.000000000000000000e+00,2.168758583068847656e+01,-7.249558568000793457e-01,5.617817306518554688e+01,-1.641150817871093750e+02,6.553931427001953125e+01,-1.058878402709960938e+02,8.119736480712890625e+01,1.452343463897705078e+01,5.727278137207031250e+01,1.740731201171875000e+02,3.541803741455078125e+01,5.394005966186523438e+01
8.679999709129333496e-01,2.000000000000000000e+00,2.162176513671875000e+01,-6.937699913978576660e-01,5.615144729614257812e+01,-1.641242370605468750e+02,6.554225921630859375e+01,-1.058697891235351562e+02,8.116447448730468750e+01,1.450321197509765625e+01,5.724525451660156250e+01,1.740826416015625000e+02,3.543240356445312500e+01,5.393117523193359375e+01
8.719999790191650391e-01,2.000000000000000000e+00,2.155596542358398438e+01,-6.625936627388000488e-01,5.612472534179687500e+01,-1.641333923339843750e+02,6.554520416259765625e+01,-1.058517608642578125e+02,8.113159179687500000e+01,1.448299407958984375e+01,5.721773910522460938e+01,1.740921630859375000e+02,3.544676589965820312e+01,5.392228698730468750e+01
8.759999871253967285e-01,2.000000000000000000e+00,2.149018478393554688e+01,-6.314269900321960449e-01,5.609801101684570312e+01,-1.641425476074218750e+02,6.554814147949218750e+01,-1.058337249755859375e+02,8.109871673583984375e+01,1.446278572082519531e+01,5.719023513793945312e+01,1.741016845703125000e+02,3.546112442016601562e+01,5.391340637207031250e+01
8.799999952316284180e-01,2.000000000000000000e+00,2.142442321777343750e+01,-6.002699136734008789e-01,5.607130432128906250e+01,-1.641516876220703125e+02,6.555108642578125000e+01,-1.058157043457031250e+02,8.106584930419921875e+01,1.444258213043212891e+01,5.716273117065429688e+01,1.741111907958984375e+02,3.547547531127929688e+01,5.390452957153320312e+01
8.840000033378601074e-01,2.000000000000000000e+00,2.135868263244628906e+01,-5.691224336624145508e-01,5.604460906982421875e+01,-1.641608428955078125e+02,6.555402374267578125e+01,-1.057976837158203125e+02,8.103299713134765625e+01,1.442238330841064453e+01,5.713524246215820312e+01,1.741207122802734375e+02,3.548982238769531250e+01,5.389564895629882812e+01
8.880000114440917969e-01,2.000000000000000000e+00,2.129296302795410156e+01,-5.379844307899475098e-01,5.601792144775390625e+01,-1.641699829101562500e+02,6.555696868896484375e+01,-1.057796707153320312e+02,8.100016021728515625e+01,1.440219211578369141e+01,5.710776138305664062e+01,1.741302185058593750e+02,3.550416564941406250e+01,5.388677978515625000e+01
8.920000195503234863e-01,2.000000000000000000e+00,2.122726249694824219e+01,-5.068560838699340820e-01,5.599124145507812500e+01,-1.641791229248046875e+02,6.555990600585937500e+01,-1.057616653442382812e+02,8.096732330322265625e+01,1.438200664520263672e+01,5.708028793334960938e+01,1.741397247314453125e+02,3.551850891113281250e+01,5.387791061401367188e+01
8.960000276565551758e-01,2.000000000000000000e+00,2.116158485412597656e+01,-4.757372438907623291e-01,5.596456909179687500e+01,-1.641882629394531250e+02,6.556284332275390625e+01,-1.057436599731445312e+02,8.093450164794921875e+01,1.436182689666748047e+01,5.705282211303710938e+01,1.741492309570312500e+02,3.553284072875976562e+01,5.386904144287109375e+01
8.999999761581420898e-01,2.000000000000000000e+00,2.109592628479003906e+01,-4.446280002593994141e-01,5.593790435791015625e+01,-1.641973876953125000e+02,6.556578063964843750e+01,-1.057256698608398438e+02,8.090168762207031250e+01,1.434165382385253906e+01,5.702536773681640625e+01,1.741587371826171875e+02,3.554717254638671875e+01,5.386017608642578125e+01
9.039999842643737793e-01,2.000000000000000000e+00,2.103028678894042969e+01,-4.135282933712005615e-01,5.591125106811523438e+01,-1.642065124511718750e+02,6.556871795654296875e+01,-1.057076721191406250e+02,8.086888885498046875e+01,1.432148742675781250e+01,5.699791717529296875e+01,1.741682281494140625e+02,3.556150054931640625e+01,5.385131072998046875e+01
9.079999923706054688e-01,2.000000000000000000e+00,2.096466636657714844e+01,-3.824380934238433838e-01,5.588460159301757812e+01,-1.642156524658203125e+02,6.557165527343750000e+01,-1.056896896362304688e+02,8.083609771728515625e+01,1.430132770538330078e+01,5.697047424316406250e+01,1.741777191162109375e+02,3.557582092285156250e+01,5.384245300292968750e+01
9.120000004768371582e-01,2.000000000000000000e+00,2.089906692504882812e+01,-3.513574600219726562e-01,5.585796356201171875e+01,-1.642247772216796875e+02,6.557458496093750000e+01,-1.056717071533203125e+02,8.080331420898437500e+01,1.428117370605468750e+01,5.694304656982421875e+01,1.741872100830078125e+02,3.559013748168945312e+01,5.383359527587890625e+01
9.160000085830688477e-01,2.000000000000000000e+00,2.083348846435546875e+01,-3.202863037586212158e-01,5.583133316040039062e+01,-1.642339019775390625e+02,6.557752227783203125e+01,-1.056537322998046875e+02,8.077053833007812500e+01,1.426102542877197266e+01,5.691562271118164062e+01,1.741967163085937500e+02,3.560445022583007812e+01,5.382474136352539062e+01
9.200000166893005371e-01,2.000000000000000000e+00,2.076792907714843750e+01,-2.892246842384338379e-01,5.580471038818359375e+01,-1.642430267333984375e+02,6.558045196533203125e+01,-1.056357650756835938e+02,8.073777770996093750e+01,1.424088287353515625e+01,5.688821029663085938e+01,1.742061920166015625e+02,3.561875915527343750e+01,5.381589126586914062e+01
9.240000247955322266e-01,2.000000000000000000e+00,2.070239067077636719e+01,-2.581725716590881348e-01,5.577809524536132812e+01,-1.642521514892578125e+02,6.558338928222656250e+01,-1.056177978515625000e+02,8.070502471923828125e+01,1.422074794769287109e+01,5.686080169677734375e+01,1.742156677246093750e+02,3.563306427001953125e+01,5.380703735351562500e+01
9.279999732971191406e-01,2.000000000000000000e+00,2.063687133789062500e+01,-2.271299362182617188e-01,5.575148773193359375e+01,-1.642612609863281250e+02,6.558631896972656250e+01,-1.055998382568359375e+02,8.067227935791015625e+01,1.420061779022216797e+01,5.683340454101562500e+01,1.742251434326171875e+02,3.564736557006835938e+01,5.379819488525390625e+01
9.319999814033508301e-01,2.000000000000000000e+00,2.057137489318847656e+01,-1.960968077182769775e-01,5.572488784790039062e+01,-1.642703704833984375e+02,6.558924865722656250e+01,-1.055818862915039062e+02,8.063954925537109375e+01,1.418049430847167969e+01,5.680601501464843750e+01,1.742346343994140625e+02,3.566166305541992188e+01,5.378935241699218750e+01
9.359999895095825195e-01,2.000000000000000000e+00,2.050589561462402344e+01,-1.650731712579727173e-01,5.569829940795898438e+01,-1.642794799804687500e+02,6.559217071533203125e+01,-1.055639419555664062e+02,8.060682678222656250e+01,1.416037654876708984e+01,5.677863311767578125e+01,1.742441101074218750e+02,3.567594909667968750e+01,5.378050994873046875e+01
9.399999976158142090e-01,2.000000000000000000e+00,2.044043540954589844e+01,-1.340590119361877441e-01,5.567171478271484375e+01,-1.642885894775390625e+02,6.559510040283203125e+01,-1.055459976196289062e+02,8.057411956787109375e+01,1.414026546478271484e+01,5.675125885009765625e+01,1.742535705566406250e+02,3.569023895263671875e+01,5.377167129516601562e+01
9.440000057220458984e-01,2.000000000000000000e+00,2.037499809265136719e+01,-1.030542999505996704e-01,5.564514160156250000e+01,-1.642976837158203125e+02,6.559803009033203125e+01,-1.055280609130859375e+02,8.054141235351562500e+01,1.412016010284423828e+01,5.672389602661132812e+01,1.742630462646484375e+02,3.570452117919921875e+01,5.376283645629882812e+01
9.480000138282775879e-01,2.000000000000000000e+00,2.030957984924316406e+01,-7.205907255411148071e-02,5.561857604980468750e+01,-1.643067932128906250e+02,6.560095214843750000e+01,-1.055101318359375000e+02,8.050872039794921875e+01,1.410006141662597656e+01,5.669654083251953125e+01,1.742725067138671875e+02,3.571879959106445312e+01,5.375400161743164062e+01
9.520000219345092773e-01,2.000000000000000000e+00,2.024418067932128906e+01,-4.107328504323959351e-02,5.559201812744140625e+01,-1.643158874511718750e+02,6.560388946533203125e+01,-1.054922027587890625e+02,8.047603607177734375e+01,1.407996940612792969e+01,5.666919326782226562e+01,1.742819824218750000e+02,3.573307418823242188e+01,5.374517440795898438e+01
9.559999704360961914e-01,2.000000000000000000e+00,2.017880249023437500e+01,-1.009695045650005341e-02,5.556546783447265625e+01,-1.643249816894531250e+02,6.560681152343750000e+01,-1.054742813110351562e+02,8.044336700439453125e+01,1.405988216400146484e+01,5.664184951782226562e+01,1.742914276123046875e+02,3.574734115600585938e+01,5.373634719848632812e+01
9.599999785423278809e-01,2.000000000000000000e+00,2.011344146728515625e+01,2.086994424462318420e-02,5.553892517089843750e+01,-1.643340759277343750e+02,6.560973358154296875e+01,-1.054563751220703125e+02,8.041070556640625000e+01,1.403980159759521484e+01,5.661452102661132812e+01,1.743009033203125000e+02,3.576160812377929688e+01,5.372752380371093750e+01
9.639999866485595703e-01,2.000000000000000000e+00,2.004810523986816406e+01,5.182740464806556702e-02,5.551239395141601562e+01,-1.643431701660156250e+02,6.561265563964843750e+01,-1.054384613037109375e+02,8.037805175781250000e+01,1.401972770690917969e+01,5.658720016479492188e+01,1.743103485107421875e+02,3.577586746215820312e+01,5.371870040893554688e+01
9.679999947547912598e-01,2.000000000000000000e+00,1.998278427124023438e+01,8.277544379234313965e-02,5.548587036132812500e+01,-1.643522644042968750e+02,6.561557769775390625e+01,-1.054205551147460938e+02,8.034540557861328125e+01,1.399965858459472656e+01,5.655988693237304688e+01,1.743198089599609375e+02,3.579012298583984375e+01,5.370988082885742188e+01
9.720000028610229492e-01,2.000000000000000000e+00,1.991748619079589844e+01,1.137140616774559021e-01,5.545935058593750000e+01,-1.643613433837890625e+02,6.561849212646484375e+01,-1.054026641845703125e+02,8.031277465820312500e+01,1.397959709167480469e+01,5.653257751464843750e+01,1.743292388916015625e+02,3.580437850952148438e+01,5.370106506347656250e+01
9.760000109672546387e-01,2.000000000000000000e+00,1.985220718383789062e+01,1.446432769298553467e-01,5.543283843994140625e+01,-1.643704376220703125e+02,6.562142181396484375e+01,-1.053847656250000000e+02,8.028015136718750000e+01,1.395954036712646484e+01,5.650527954101562500e+01,1.743386993408203125e+02,3.581862640380859375e+01,5.369224929809570312e+01
9.800000190734863281e-01,2.000000000000000000e+00,1.978694725036621094e+01,1.755630820989608765e-01,5.540633773803710938e+01,-1.643795013427734375e+02,6.562433624267578125e+01,-1.053668746948242188e+02,8.024753570556640625e+01,1.393949031829833984e+01,5.647799301147460938e+01,1.743481292724609375e+02,3.583286666870117188e+01,5.368344116210937500e+01
9.840000271797180176e-01,2.000000000000000000e+00,1.972170639038085938e+01,2.064734846353530884e-01,5.537984848022460938e+01,-1.643885803222656250e+02,6.562725067138671875e+01,-1.053489990234375000e+02,8.021493530273437500e+01,1.391944694519042969e+01,5.645070648193359375e+01,1.743575744628906250e+02,3.584710693359375000e+01,5.367462921142578125e+01
9.879999756813049316e-01,2.000000000000000000e+00,1.965648651123046875e+01,2.373744994401931763e-01,5.535335922241210938e+01,-1.643976593017578125e+02,6.563017272949218750e+01,-1.053311233520507812e+02,8.018234252929687500e+01,1.389940834045410156e+01,5.642343521118164062e+01,1.743670196533203125e+02,3.586134338378906250e+01,5.366582489013671875e+01
9.919999837875366211e-01,2.000000000000000000e+00,1.959128761291503906e+01,2.682661414146423340e-01,5.532688140869140625e+01,-1.644067230224609375e+02,6.563309478759765625e+01,-1.053132553100585938e+02,8.014975738525390625e+01,1.387937736511230469e+01,5.639617156982421875e+01,1.743764343261718750e+02,3.587557220458984375e+01,5.365702056884765625e+01
9.959999918937683105e-01,2.000000000000000000e+00,1.952610778808593750e+01,2.991484105587005615e-01,5.530041503906250000e+01,-1.644158020019531250e+02,6.563600921630859375e+01,-1.052953872680664062e+02,8.011718750000000000e+01,1.385935115814208984e+01,5.636891555786132812e+01,1.743858795166015625e+02,3.588979721069335938e+01,5.364822006225585938e+01
1.000000000000000000e+00,2.000000000000000000e+00,1.946094512939453125e+01,3.300212919712066650e-01,5.527395248413085938e+01,-1.644248504638671875e+02,6.563891601562500000e+01,-1.052775268554687500e+02,8.008462524414062500e+01,1.383933162689208984e+01,5.634166717529296875e+01,1.743953094482421875e+02,3.590401840209960938e+01,5.363942337036132812e+01
1.003999948501586914e+00,2.000000000000000000e+00,1.939580535888671875e+01,3.608848452568054199e-01,5.524749755859375000e+01,-1.644339294433593750e+02,6.564183807373046875e+01,-1.052596740722656250e+02,8.005207061767578125e+01,1.381931781768798828e+01,5.631443023681640625e+01,1.744047241210937500e+02,3.591823577880859375e+01,5.363063049316406250e+01
1.008000016212463379e+00,2.000000000000000000e+00,1.933068466186523438e+01,3.917390108108520508e-01,5.522105407714843750e+01,-1.644429779052734375e+02,6.564474487304687500e+01,-1.052418212890625000e+02,8.001952362060546875e+01,1.379931068420410156e+01,5.628719711303710938e+01,1.744141540527343750e+02,3.593244934082031250e+01,5.362183380126953125e+01
1.011999964714050293e+00,2.000000000000000000e+00,1.926558303833007812e+01,4.225838482379913330e-01,5.519461441040039062e+01,-1.644520416259765625e+02,6.564765930175781250e+01,-1.052239761352539062e+02,7.998699188232421875e+01,1.377930927276611328e+01,5.625997161865234375e+01,1.744235687255859375e+02,3.594665908813476562e+01,5.361304473876953125e+01
1.016000032424926758e+00,2.000000000000000000e+00,1.920050239562988281e+01,4.534193277359008789e-01,5.516819000244140625e+01,-1.644610900878906250e+02,6.565057373046875000e+01,-1.052061386108398438e+02,7.995446777343750000e+01,1.375931358337402344e+01,5.623275756835937500e+01,1.744329986572265625e+02,3.596086502075195312e+01,5.360425567626953125e+01
1.019999980926513672e+00,2.000000000000000000e+00,1.913543891906738281e+01,4.842455387115478516e-01,5.514176559448242188e+01,-1.644701385498046875e+02,6.565348052978515625e+01,-1.051883010864257812e+02,7.992195892333984375e+01,1.373932456970214844e+01,5.620555114746093750e+01,1.744423980712890625e+02,3.597506332397460938e+01,5.359547424316406250e+01
1.024000048637390137e+00,2.000000000000000000e+00,1.907039642333984375e+01,5.150623917579650879e-01,5.511535644531250000e+01,-1.644791870117187500e+02,6.565638732910156250e+01,-1.051704788208007812e+02,7.988945007324218750e+01,1.371934223175048828e+01,5.617835235595703125e+01,1.744518127441406250e+02,3.598926162719726562e+01,5.358668899536132812e+01
1.026999950408935547e+00,2.000000000000000000e+00,1.900537490844726562e+01,5.458698868751525879e-01,5.508895111083984375e+01,-1.644882354736328125e+02,6.565930175781250000e+01,-1.051526565551757812e+02,7.985695648193359375e+01,1.369936466217041016e+01,5.615116119384765625e+01,1.744612121582031250e+02,3.600345230102539062e+01,5.357791519165039062e+01
1.031999945640563965e+00,2.000000000000000000e+00,1.894037246704101562e+01,5.766681432723999023e-01,5.506254959106445312e+01,-1.644972839355468750e+02,6.566220855712890625e+01,-1.051348342895507812e+02,7.982447052001953125e+01,1.367939281463623047e+01,5.612397766113281250e+01,1.744706268310546875e+02,3.601763916015625000e+01,5.356913757324218750e+01
1.036000013351440430e+00,2.000000000000000000e+00,1.887539100646972656e+01,6.074570417404174805e-01,5.503616333007812500e+01,-1.645063171386718750e+02,6.566511535644531250e+01,-1.051170272827148438e+02,7.979199981689453125e+01,1.365942859649658203e+01,5.609680557250976562e+01,1.744800262451171875e+02,3.603182220458984375e+01,5.356035995483398438e+01
1.039999961853027344e+00,2.000000000000000000e+00,1.881042671203613281e+01,6.382366418838500977e-01,5.500978088378906250e+01,-1.645153503417968750e+02,6.566802215576171875e+01,-1.050992202758789062e+02,7.975953674316406250e+01,1.363946914672851562e+01,5.606963729858398438e+01,1.744894256591796875e+02,3.604600143432617188e+01,5.355158996582031250e+01
1.044000029563903809e+00,2.000000000000000000e+00,1.874548149108886719e+01,6.690069437026977539e-01,5.498340988159179688e+01,-1.645243988037109375e+02,6.567092132568359375e+01,-1.050814132690429688e+02,7.972708129882812500e+01,1.361951637268066406e+01,5.604248046875000000e+01,1.744988250732421875e+02,3.606017684936523438e+01,5.354281997680664062e+01
1.047999978065490723e+00,2.000000000000000000e+00,1.868055725097656250e+01,6.997680664062500000e-01,5.495704269409179688e+01,-1.645334320068359375e+02,6.567382812500000000e+01,-1.050636215209960938e+02,7.969463348388671875e+01,1.359956836700439453e+01,5.601533126831054688e+01,1.745082244873046875e+02,3.607434463500976562e+01,5.353405761718750000e+01
1.052000045776367188e+00,2.000000000000000000e+00,1.861565208435058594e+01,7.305197715759277344e-01,5.493068313598632812e+01,-1.645424499511718750e+02,6.567672729492187500e+01,-1.050458297729492188e+02,7.966220092773437500e+01,1.357962799072265625e+01,5.598819351196289062e+01,1.745176239013671875e+02,3.608850860595703125e+01,5.352529525756835938e+01
1.054999947547912598e+00,2.000000000000000000e+00,1.855076599121093750e+01,7.612622976303100586e-01,5.490433502197265625e+01,-1.645514831542968750e+02,6.567963409423828125e+01,-1.050280532836914062e+02,7.962976837158203125e+01,1.355969333648681641e+01,5.596105957031250000e+01,1.745270080566406250e+02,3.610267257690429688e+01,5.351652908325195312e+01
1.059999942779541016e+00,2.000000000000000000e+00,1.848590278625488281e+01,7.919955253601074219e-01,5.487799453735351562e+01,-1.645605163574218750e+02,6.568253326416015625e+01,-1.050102767944335938e+02,7.959735107421875000e+01,1.353976345062255859e+01,5.593393325805664062e+01,1.745363922119140625e+02,3.611683273315429688e+01,5.350777435302734375e+01
1.064000010490417480e+00,2.000000000000000000e+00,1.842105484008789062e+01,8.227195739746093750e-01,5.485166168212890625e+01,-1.645695343017578125e+02,6.568544006347656250e+01,-1.049924926757812500e+02,7.956494903564453125e+01,1.351984024047851562e+01,5.590681838989257812e+01,1.745457763671875000e+02,3.613098526000976562e+01,5.349901962280273438e+01
1.067999958992004395e+00,2.000000000000000000e+00,1.835622978210449219e+01,8.534342646598815918e-01,5.482533645629882812e+01,-1.645785522460937500e+02,6.568833923339843750e+01,-1.049747314453125000e+02,7.953255462646484375e+01,1.349992370605468750e+01,5.587970733642578125e+01,1.745551452636718750e+02,3.614513397216796875e+01,5.349026489257812500e+01
1.072000026702880859e+00,2.000000000000000000e+00,1.829142189025878906e+01,8.841398358345031738e-01,5.479901885986328125e+01,-1.645875549316406250e+02,6.569123840332031250e+01,-1.049569625854492188e+02,7.950016784667968750e+01,1.348001194000244141e+01,5.585260772705078125e+01,1.745645294189453125e+02,3.615927886962890625e+01,5.348151397705078125e+01
1.075999975204467773e+00,2.000000000000000000e+00,1.822663307189941406e+01,9.148361086845397949e-01,5.477270889282226562e+01,-1.645965728759765625e+02,6.569412994384765625e+01,-1.049392089843750000e+02,7.946778869628906250e+01,1.346010684967041016e+01,5.582551574707031250e+01,1.745738983154296875e+02,3.617341995239257812e+01,5.347276687622070312e+01
1.080000042915344238e+00,2.000000000000000000e+00,1.816186523437500000e+01,9.455231428146362305e-01,5.474640655517578125e+01,-1.646055908203125000e+02,6.569702911376953125e+01,-1.049214553833007812e+02,7.943542480468750000e+01,1.344020843505859375e+01,5.579843139648437500e+01,1.745832672119140625e+02,3.618755340576171875e+01,5.346402359008789062e+01
1.083999991416931152e+00,2.000000000000000000e+00,1.809711837768554688e+01,9.762009382247924805e-01,5.472011184692382812e+01,-1.646145935058593750e+02,6.569992828369140625e+01,-1.049037094116210938e+02,7.940306091308593750e+01,1.342031574249267578e+01,5.577135848999023438e+01,1.745926361083984375e+02,3.620168685913085938e+01,5.345528030395507812e+01
1.088000059127807617e+00,2.000000000000000000e+00,1.803238868713378906e+01,1.006869554519653320e+00,5.469382476806640625e+01,-1.646235961914062500e+02,6.570281982421875000e+01,-1.048859634399414062e+02,7.937071228027343750e+01,1.340042877197265625e+01,5.574428939819335938e+01,1.746020202636718750e+02,3.621581649780273438e+01,5.344654083251953125e+01
1.090999960899353027e+00,2.000000000000000000e+00,1.796767616271972656e+01,1.037528991699218750e+00,5.466754913330078125e+01,-1.646325988769531250e+02,6.570571899414062500e+01,-1.048682250976562500e+02,7.933837890625000000e+01,1.338054656982421875e+01,5.571722793579101562e+01,1.746113739013671875e+02,3.622993469238281250e+01,5.343780136108398438e+01
1.095999956130981445e+00,2.000000000000000000e+00,1.790298652648925781e+01,1.068179249763488770e+00,5.464127731323242188e+01,-1.646416015625000000e+02,6.570861053466796875e+01,-1.048504943847656250e+02,7.930605316162109375e+01,1.336067104339599609e+01,5.569017791748046875e+01,1.746207275390625000e+02,3.624405670166015625e+01,5.342906951904296875e+01
1.100000023841857910e+00,2.000000000000000000e+00,1.783831596374511719e+01,1.098820209503173828e+00,5.461501693725585938e+01,-1.646506042480468750e+02,6.571150970458984375e+01,-1.048327713012695312e+02,7.927372741699218750e+01,1.334080219268798828e+01,5.566313171386718750e+01,1.746300811767578125e+02,3.625817108154296875e+01,5.342033767700195312e+01
1.103999972343444824e+00,2.000000000000000000e+00,1.777366447448730469e+01,1.129452109336853027e+00,5.458876037597656250e+01,-1.646595916748046875e+02,6.571440124511718750e+01,-1.048150558471679688e+02,7.924142456054687500e+01,1.332093906402587891e+01,5.563609695434570312e+01,1.746394348144531250e+02,3.627228164672851562e+01,5.341160964965820312e+01
1.108000040054321289e+00,2.000000000000000000e+00,1.770903205871582031e+01,1.160074830055236816e+00,5.456251144409179688e+01,-1.646685943603515625e+02,6.571728515625000000e+01,-1.047973327636718750e+02,7.920912170410156250e+01,1.330108165740966797e+01,5.560907363891601562e+01,1.746488037109375000e+02,3.628638839721679688e+01,5.340288162231445312e+01
1.111999988555908203e+00,2.000000000000000000e+00,1.764441871643066406e+01,1.190688252449035645e+00,5.453627395629882812e+01,-1.646775817871093750e+02,6.572017669677734375e+01,-1.047796249389648438e+02,7.917683410644531250e+01,1.328122997283935547e+01,5.558205032348632812e+01,1.746581420898437500e+02,3.630049133300781250e+01,5.339415740966796875e+01
1.116000056266784668e+00,2.000000000000000000e+00,1.757982444763183594e+01,1.221292495727539062e+00,5.451004409790039062e+01,-1.646865539550781250e+02,6.572307586669921875e+01,-1.047619171142578125e+02,7.914455413818359375e+01,1.326138496398925781e+01,5.555504226684570312e+01,1.746674804687500000e+02,3.631459045410156250e+01,5.338543701171875000e+01
1.118999958038330078e+00,2.000000000000000000e+00,1.751525115966796875e+01,1.251887679100036621e+00,5.448382186889648438e+01,-1.646955413818359375e+02,6.572595214843750000e+01,-1.047442169189453125e+02,7.911228179931640625e+01,1.324154567718505859e+01,5.552803802490234375e+01,1.746768341064453125e+02,3.632868194580078125e+01,5.337671661376953125e+01
1.123999953269958496e+00,2.000000000000000000e+00,1.745069503784179688e+01,1.282473683357238770e+00,5.445760345458984375e+01,-1.647045288085937500e+02,6.572884368896484375e+01,-1.047265243530273438e+02,7.908001708984375000e+01,1.322171211242675781e+01,5.550104141235351562e+01,1.746861724853515625e+02,3.634277343750000000e+01,5.336800003051757812e+01
