rpiRobotics/ARM-21-02-F-19-Robot-Motion-Program/data_performance_abb/curve_1/dual_arm/diffevo_pose1/grad_result/sim/dual_iteration_4.csv
timestamp,cmd_num,J1,J2,J3,J4,J5,J6,J1_2,J2_2,J3_2,J4_2,J5_2,J6_2
0.000000000000000000e+00,-1.000000000000000000e+00,3.408229446411132812e+01,-7.371700286865234375e+00,6.116169357299804688e+01,-1.624341888427734375e+02,6.342840957641601562e+01,-1.098416290283203125e+02,8.791307830810546875e+01,1.848662567138671875e+01,6.259048080444335938e+01,1.729579162597656250e+02,3.296836471557617188e+01,5.540504837036132812e+01
2.000000094994902611e-03,-1.000000000000000000e+00,3.408229446411132812e+01,-7.371700286865234375e+00,6.116169357299804688e+01,-1.624341888427734375e+02,6.342840957641601562e+01,-1.098416290283203125e+02,8.791307830810546875e+01,1.848662567138671875e+01,6.259048080444335938e+01,1.729579162597656250e+02,3.296836471557617188e+01,5.540504837036132812e+01
4.000000189989805222e-03,-1.000000000000000000e+00,3.408229446411132812e+01,-7.371700286865234375e+00,6.116169357299804688e+01,-1.624341888427734375e+02,6.342840957641601562e+01,-1.098416290283203125e+02,8.791307830810546875e+01,1.848662567138671875e+01,6.259048080444335938e+01,1.729579162597656250e+02,3.296836471557617188e+01,5.540504837036132812e+01
9.999999776482582092e-03,-1.000000000000000000e+00,3.408229446411132812e+01,-7.371700286865234375e+00,6.116169357299804688e+01,-1.624341888427734375e+02,6.342840957641601562e+01,-1.098416290283203125e+02,8.791307830810546875e+01,1.848662567138671875e+01,6.259048080444335938e+01,1.729579162597656250e+02,3.296836471557617188e+01,5.540504837036132812e+01
1.200000010430812836e-02,-1.000000000000000000e+00,3.408229446411132812e+01,-7.371700286865234375e+00,6.116169357299804688e+01,-1.624341888427734375e+02,6.342840957641601562e+01,-1.098416290283203125e+02,8.791307830810546875e+01,1.848662567138671875e+01,6.259048080444335938e+01,1.729579162597656250e+02,3.296836471557617188e+01,5.540504837036132812e+01
1.600000075995922089e-02,-1.000000000000000000e+00,3.408229446411132812e+01,-7.371700286865234375e+00,6.116169357299804688e+01,-1.624341888427734375e+02,6.342840957641601562e+01,-1.098416290283203125e+02,8.791307830810546875e+01,1.848662567138671875e+01,6.259048080444335938e+01,1.729579162597656250e+02,3.296836471557617188e+01,5.540504837036132812e+01
1.999999955296516418e-02,-1.000000000000000000e+00,3.408229446411132812e+01,-7.371700286865234375e+00,6.116169357299804688e+01,-1.624341888427734375e+02,6.342840957641601562e+01,-1.098416290283203125e+02,8.791307830810546875e+01,1.848662567138671875e+01,6.259048080444335938e+01,1.729579162597656250e+02,3.296836471557617188e+01,5.540504837036132812e+01
2.400000020861625671e-02,-1.000000000000000000e+00,3.408229446411132812e+01,-7.371700286865234375e+00,6.116169357299804688e+01,-1.624341888427734375e+02,6.342840957641601562e+01,-1.098416290283203125e+02,8.791307830810546875e+01,1.848662567138671875e+01,6.259048080444335938e+01,1.729579162597656250e+02,3.296836471557617188e+01,5.540504837036132812e+01
2.800000086426734924e-02,-1.000000000000000000e+00,3.408229446411132812e+01,-7.371700286865234375e+00,6.116169357299804688e+01,-1.624341888427734375e+02,6.342840957641601562e+01,-1.098416290283203125e+02,8.791307830810546875e+01,1.848662567138671875e+01,6.259048080444335938e+01,1.729579162597656250e+02,3.296836471557617188e+01,5.540504837036132812e+01
3.200000151991844177e-02,2.000000000000000000e+00,3.408229446411132812e+01,-7.371700286865234375e+00,6.116169357299804688e+01,-1.624341888427734375e+02,6.342840957641601562e+01,-1.098416290283203125e+02,8.791307830810546875e+01,1.848662567138671875e+01,6.259048080444335938e+01,1.729579162597656250e+02,3.296836471557617188e+01,5.540504837036132812e+01
3.700000047683715820e-02,2.000000000000000000e+00,3.408229446411132812e+01,-7.371700286865234375e+00,6.116169357299804688e+01,-1.624341888427734375e+02,6.342840957641601562e+01,-1.098416290283203125e+02,8.791307830810546875e+01,1.848662567138671875e+01,6.259048080444335938e+01,1.729579162597656250e+02,3.296836471557617188e+01,5.540504837036132812e+01
4.300000146031379700e-02,2.000000000000000000e+00,3.408229446411132812e+01,-7.371700286865234375e+00,6.116169357299804688e+01,-1.624341888427734375e+02,6.342840957641601562e+01,-1.098416290283203125e+02,8.791307830810546875e+01,1.848662567138671875e+01,6.259048080444335938e+01,1.729579162597656250e+02,3.296836471557617188e+01,5.540504837036132812e+01
4.399999976158142090e-02,2.000000000000000000e+00,3.408229446411132812e+01,-7.371700286865234375e+00,6.116169357299804688e+01,-1.624341888427734375e+02,6.342840957641601562e+01,-1.098416290283203125e+02,8.791307830810546875e+01,1.848662567138671875e+01,6.259048080444335938e+01,1.729579162597656250e+02,3.296836471557617188e+01,5.540504837036132812e+01
5.000000074505805969e-02,2.000000000000000000e+00,3.408229446411132812e+01,-7.371700286865234375e+00,6.116169357299804688e+01,-1.624341888427734375e+02,6.342840957641601562e+01,-1.098416290283203125e+02,8.791307830810546875e+01,1.848662567138671875e+01,6.259048080444335938e+01,1.729579162597656250e+02,3.296836471557617188e+01,5.540504837036132812e+01
5.200000107288360596e-02,2.000000000000000000e+00,3.408229446411132812e+01,-7.371700286865234375e+00,6.116169357299804688e+01,-1.624341888427734375e+02,6.342840957641601562e+01,-1.098416290283203125e+02,8.791307830810546875e+01,1.848662567138671875e+01,6.259048080444335938e+01,1.729579162597656250e+02,3.296836471557617188e+01,5.540504837036132812e+01
5.600000172853469849e-02,2.000000000000000000e+00,3.408229446411132812e+01,-7.371700286865234375e+00,6.116169357299804688e+01,-1.624341888427734375e+02,6.342840957641601562e+01,-1.098416290283203125e+02,8.791307830810546875e+01,1.848662567138671875e+01,6.259048080444335938e+01,1.729579162597656250e+02,3.296836471557617188e+01,5.540504837036132812e+01
5.999999865889549255e-02,2.000000000000000000e+00,3.408229446411132812e+01,-7.371700286865234375e+00,6.116169357299804688e+01,-1.624341888427734375e+02,6.342840957641601562e+01,-1.098416290283203125e+02,8.791307830810546875e+01,1.848662567138671875e+01,6.259048080444335938e+01,1.729579162597656250e+02,3.296836471557617188e+01,5.540504837036132812e+01
6.400000303983688354e-02,2.000000000000000000e+00,3.408229446411132812e+01,-7.371700286865234375e+00,6.116169357299804688e+01,-1.624341888427734375e+02,6.342840957641601562e+01,-1.098416290283203125e+02,8.791307830810546875e+01,1.848662567138671875e+01,6.259048080444335938e+01,1.729579162597656250e+02,3.296836471557617188e+01,5.540504837036132812e+01
6.800000369548797607e-02,2.000000000000000000e+00,3.408229446411132812e+01,-7.371700286865234375e+00,6.116169357299804688e+01,-1.624341888427734375e+02,6.342840957641601562e+01,-1.098416290283203125e+02,8.791307830810546875e+01,1.848662567138671875e+01,6.259048080444335938e+01,1.729579162597656250e+02,3.296836471557617188e+01,5.540504837036132812e+01
7.199999690055847168e-02,2.000000000000000000e+00,3.408229446411132812e+01,-7.371700286865234375e+00,6.116169357299804688e+01,-1.624341888427734375e+02,6.342840957641601562e+01,-1.098416290283203125e+02,8.791307830810546875e+01,1.848662567138671875e+01,6.259048080444335938e+01,1.729579162597656250e+02,3.296836471557617188e+01,5.540504837036132812e+01
7.599999755620956421e-02,2.000000000000000000e+00,3.408222961425781250e+01,-7.371680736541748047e+00,6.116168212890625000e+01,-1.624341888427734375e+02,6.342840957641601562e+01,-1.098416290283203125e+02,8.791307830810546875e+01,1.848662567138671875e+01,6.259048080444335938e+01,1.729579162597656250e+02,3.296836471557617188e+01,5.540504837036132812e+01
7.999999821186065674e-02,2.000000000000000000e+00,3.408185577392578125e+01,-7.371558666229248047e+00,6.116162490844726562e+01,-1.624341735839843750e+02,6.342840957641601562e+01,-1.098416290283203125e+02,8.791307830810546875e+01,1.848662567138671875e+01,6.259048080444335938e+01,1.729579162597656250e+02,3.296836471557617188e+01,5.540504837036132812e+01
8.399999886751174927e-02,2.000000000000000000e+00,3.408078765869140625e+01,-7.371179580688476562e+00,6.116144943237304688e+01,-1.624341735839843750e+02,6.342841720581054688e+01,-1.098416137695312500e+02,8.791307830810546875e+01,1.848662567138671875e+01,6.259048080444335938e+01,1.729579162597656250e+02,3.296836471557617188e+01,5.540504837036132812e+01
8.799999952316284180e-02,2.000000000000000000e+00,3.407866668701171875e+01,-7.370365142822265625e+00,6.116106033325195312e+01,-1.624341583251953125e+02,6.342843627929687500e+01,-1.098415756225585938e+02,8.791306304931640625e+01,1.848662185668945312e+01,6.259047317504882812e+01,1.729579162597656250e+02,3.296836471557617188e+01,5.540504837036132812e+01
9.200000017881393433e-02,2.000000000000000000e+00,3.407527542114257812e+01,-7.368961334228515625e+00,6.116036224365234375e+01,-1.624341278076171875e+02,6.342847824096679688e+01,-1.098414611816406250e+02,8.791299438476562500e+01,1.848659133911132812e+01,6.259044647216796875e+01,1.729579315185546875e+02,3.296837615966796875e+01,5.540504837036132812e+01
9.600000083446502686e-02,2.000000000000000000e+00,3.407044219970703125e+01,-7.366842269897460938e+00,6.115926361083984375e+01,-1.624341430664062500e+02,6.342855072021484375e+01,-1.098412399291992188e+02,8.791273498535156250e+01,1.848648643493652344e+01,6.259034347534179688e+01,1.729579467773437500e+02,3.296841430664062500e+01,5.540503692626953125e+01
1.000000014901161194e-01,2.000000000000000000e+00,3.406400299072265625e+01,-7.363883972167968750e+00,6.115765762329101562e+01,-1.624342346191406250e+02,6.342869567871093750e+01,-1.098407974243164062e+02,8.791214752197265625e+01,1.848622894287109375e+01,6.259008407592773438e+01,1.729579925537109375e+02,3.296852493286132812e+01,5.540500259399414062e+01
1.040000021457672119e-01,2.000000000000000000e+00,3.405586624145507812e+01,-7.359983921051025391e+00,6.115542602539062500e+01,-1.624344482421875000e+02,6.342893600463867188e+01,-1.098400421142578125e+02,8.791103363037109375e+01,1.848571586608886719e+01,6.258953857421875000e+01,1.729581146240234375e+02,3.296876144409179688e+01,5.540491104125976562e+01
1.080000028014183044e-01,2.000000000000000000e+00,3.404597091674804688e+01,-7.355072975158691406e+00,6.115246200561523438e+01,-1.624348602294921875e+02,6.342930221557617188e+01,-1.098388519287109375e+02,8.790914916992187500e+01,1.848481559753417969e+01,6.258852767944335938e+01,1.729583435058593750e+02,3.296921539306640625e+01,5.540471267700195312e+01
1.120000034570693970e-01,2.000000000000000000e+00,3.403415298461914062e+01,-7.349065303802490234e+00,6.114863586425781250e+01,-1.624355621337890625e+02,6.342982864379882812e+01,-1.098370819091796875e+02,8.790622711181640625e+01,1.848335456848144531e+01,6.258681488037109375e+01,1.729587707519531250e+02,3.297000122070312500e+01,5.540433502197265625e+01
1.159999966621398926e-01,2.000000000000000000e+00,3.402002716064453125e+01,-7.341803550720214844e+00,6.114379119873046875e+01,-1.624365844726562500e+02,6.343057250976562500e+01,-1.098345947265625000e+02,8.790199279785156250e+01,1.848114395141601562e+01,6.258412170410156250e+01,1.729594421386718750e+02,3.297127151489257812e+01,5.540368652343750000e+01
1.199999973177909851e-01,2.000000000000000000e+00,3.400305938720703125e+01,-7.333074092864990234e+00,6.113774108886718750e+01,-1.624380340576171875e+02,6.343155670166015625e+01,-1.098312454223632812e+02,8.789619445800781250e+01,1.847799682617187500e+01,6.258016204833984375e+01,1.729604949951171875e+02,3.297316360473632812e+01,5.540266799926757812e+01
1.239999979734420776e-01,2.000000000000000000e+00,3.398279571533203125e+01,-7.322696208953857422e+00,6.113030242919921875e+01,-1.624399719238281250e+02,6.343283462524414062e+01,-1.098268814086914062e+02,8.788859558105468750e+01,1.847372817993164062e+01,6.257464981079101562e+01,1.729620056152343750e+02,3.297584152221679688e+01,5.540117263793945312e+01
1.280000060796737671e-01,2.000000000000000000e+00,3.395906066894531250e+01,-7.310628414154052734e+00,6.112136840820312500e+01,-1.624424896240234375e+02,6.343444061279296875e+01,-1.098213729858398438e+02,8.787892150878906250e+01,1.846815490722656250e+01,6.256731414794921875e+01,1.729640350341796875e+02,3.297944259643554688e+01,5.539910888671875000e+01
1.309999972581863403e-01,2.000000000000000000e+00,3.393188858032226562e+01,-7.296946525573730469e+00,6.111090469360351562e+01,-1.624456481933593750e+02,6.343640136718750000e+01,-1.098145980834960938e+02,8.786691284179687500e+01,1.846110916137695312e+01,6.255791473388671875e+01,1.729666748046875000e+02,3.298408889770507812e+01,5.539640426635742188e+01
1.360000073909759521e-01,2.000000000000000000e+00,3.390138244628906250e+01,-7.281750202178955078e+00,6.109888458251953125e+01,-1.624495086669921875e+02,6.343875503540039062e+01,-1.098064498901367188e+02,8.785236358642578125e+01,1.845246124267578125e+01,6.254627609252929688e+01,1.729699859619140625e+02,3.298987197875976562e+01,5.539300155639648438e+01
1.389999985694885254e-01,2.000000000000000000e+00,3.386756134033203125e+01,-7.265073299407958984e+00,6.108529281616210938e+01,-1.624541320800781250e+02,6.344150924682617188e+01,-1.097968673706054688e+02,8.783516693115234375e+01,1.844214820861816406e+01,6.253230285644531250e+01,1.729739685058593750e+02,3.299683380126953125e+01,5.538887405395507812e+01
1.439999938011169434e-01,2.000000000000000000e+00,3.383042144775390625e+01,-7.246922016143798828e+00,6.107011413574218750e+01,-1.624594726562500000e+02,6.344467926025390625e+01,-1.097858428955078125e+02,8.781531524658203125e+01,1.843015098571777344e+01,6.251597213745117188e+01,1.729786376953125000e+02,3.300498962402343750e+01,5.538401031494140625e+01
1.480000019073486328e-01,2.000000000000000000e+00,3.378998184204101562e+01,-7.227288722991943359e+00,6.105337524414062500e+01,-1.624655914306640625e+02,6.344823837280273438e+01,-1.097734146118164062e+02,8.779284667968750000e+01,1.841651153564453125e+01,6.249734497070312500e+01,1.729839935302734375e+02,3.301431274414062500e+01,5.537843322753906250e+01
1.519999951124191284e-01,2.000000000000000000e+00,3.374618911743164062e+01,-7.206109046936035156e+00,6.103508377075195312e+01,-1.624723663330078125e+02,6.345217895507812500e+01,-1.097596435546875000e+02,8.776792144775390625e+01,1.840131950378417969e+01,6.247653961181640625e+01,1.729899902343750000e+02,3.302473831176757812e+01,5.537218093872070312e+01
1.560000032186508179e-01,2.000000000000000000e+00,3.369895553588867188e+01,-7.183276653289794922e+00,6.101527404785156250e+01,-1.624797668457031250e+02,6.345646667480468750e+01,-1.097446517944335938e+02,8.774076080322265625e+01,1.838472557067871094e+01,6.245376205444335938e+01,1.729965667724609375e+02,3.303615951538085938e+01,5.536531066894531250e+01
1.599999964237213135e-01,2.000000000000000000e+00,3.364830398559570312e+01,-7.158750534057617188e+00,6.099401473999023438e+01,-1.624877014160156250e+02,6.346107101440429688e+01,-1.097285690307617188e+02,8.771166229248046875e+01,1.836690902709960938e+01,6.242928314208984375e+01,1.730036468505859375e+02,3.304844665527343750e+01,5.535791397094726562e+01
1.640000045299530029e-01,2.000000000000000000e+00,3.359453201293945312e+01,-7.132634639739990234e+00,6.097143173217773438e+01,-1.624960937500000000e+02,6.346594238281250000e+01,-1.097115402221679688e+02,8.768089294433593750e+01,1.834806442260742188e+01,6.240336990356445312e+01,1.730111389160156250e+02,3.306145095825195312e+01,5.535008239746093750e+01
1.679999977350234985e-01,2.000000000000000000e+00,3.353814697265625000e+01,-7.105138301849365234e+00,6.094771194458007812e+01,-1.625048675537109375e+02,6.347105026245117188e+01,-1.096937103271484375e+02,8.764868927001953125e+01,1.832837295532226562e+01,6.237632751464843750e+01,1.730189361572265625e+02,3.307501602172851562e+01,5.534192276000976562e+01
1.720000058412551880e-01,2.000000000000000000e+00,3.347965621948242188e+01,-7.076459407806396484e+00,6.092304611206054688e+01,-1.625139770507812500e+02,6.347634506225585938e+01,-1.096752243041992188e+02,8.761529541015625000e+01,1.830801773071289062e+01,6.234842681884765625e+01,1.730269775390625000e+02,3.308900070190429688e+01,5.533353042602539062e+01
1.759999990463256836e-01,2.000000000000000000e+00,3.341934204101562500e+01,-7.046725749969482422e+00,6.089757919311523438e+01,-1.625233001708984375e+02,6.348178863525390625e+01,-1.096562194824218750e+02,8.758099365234375000e+01,1.828718376159667969e+01,6.231993103027343750e+01,1.730351867675781250e+02,3.310326766967773438e+01,5.532498931884765625e+01
1.800000071525573730e-01,2.000000000000000000e+00,3.335731124877929688e+01,-7.016013145446777344e+00,6.087142562866210938e+01,-1.625328063964843750e+02,6.348733901977539062e+01,-1.096368331909179688e+02,8.754603576660156250e+01,1.826602363586425781e+01,6.229105377197265625e+01,1.730434722900390625e+02,3.311770629882812500e+01,5.531637191772460938e+01
1.840000003576278687e-01,2.000000000000000000e+00,3.329362487792968750e+01,-6.984402656555175781e+00,6.084470367431640625e+01,-1.625424194335937500e+02,6.349297332763671875e+01,-1.096171798706054688e+02,8.751063537597656250e+01,1.824465560913085938e+01,6.226194763183593750e+01,1.730518035888671875e+02,3.313224411010742188e+01,5.530770874023437500e+01
1.879999935626983643e-01,2.000000000000000000e+00,3.322843170166015625e+01,-6.952010631561279297e+00,6.081752014160156250e+01,-1.625520629882812500e+02,6.349866485595703125e+01,-1.095973663330078125e+02,8.747496795654296875e+01,1.822316741943359375e+01,6.223273086547851562e+01,1.730601654052734375e+02,3.314682769775390625e+01,5.529903411865234375e+01
1.920000016689300537e-01,2.000000000000000000e+00,3.316189575195312500e+01,-6.918962478637695312e+00,6.078998947143554688e+01,-1.625617370605468750e+02,6.350438308715820312e+01,-1.095774536132812500e+02,8.743917083740234375e+01,1.820162963867187500e+01,6.220346069335937500e+01,1.730685272216796875e+02,3.316142654418945312e+01,5.529036331176757812e+01
1.959999948740005493e-01,2.000000000000000000e+00,3.309418869018554688e+01,-6.885389328002929688e+00,6.076219177246093750e+01,-1.625714111328125000e+02,6.351011276245117188e+01,-1.095575027465820312e+02,8.740332794189453125e+01,1.818008232116699219e+01,6.217418670654296875e+01,1.730768890380859375e+02,3.317602539062500000e+01,5.528168869018554688e+01
2.000000029802322388e-01,2.000000000000000000e+00,3.302559661865234375e+01,-6.851458549499511719e+00,6.073421859741210938e+01,-1.625810699462890625e+02,6.351585006713867188e+01,-1.095375442504882812e+02,8.736750793457031250e+01,1.815853881835937500e+01,6.214492034912109375e+01,1.730852508544921875e+02,3.319062423706054688e+01,5.527301788330078125e+01
2.039999961853027344e-01,2.000000000000000000e+00,3.295650863647460938e+01,-6.817348480224609375e+00,6.070616912841796875e+01,-1.625907135009765625e+02,6.352159500122070312e+01,-1.095175781250000000e+02,8.733168792724609375e+01,1.813700103759765625e+01,6.211566162109375000e+01,1.730936126708984375e+02,3.320521545410156250e+01,5.526434707641601562e+01
2.080000042915344238e-01,2.000000000000000000e+00,3.288726043701171875e+01,-6.783188819885253906e+00,6.067810440063476562e+01,-1.626003570556640625e+02,6.352733230590820312e+01,-1.094976196289062500e+02,8.729589080810546875e+01,1.811547279357910156e+01,6.208641433715820312e+01,1.731019592285156250e+02,3.321980285644531250e+01,5.525568389892578125e+01
2.119999974966049194e-01,2.000000000000000000e+00,3.281801223754882812e+01,-6.749032497406005859e+00,6.065003967285156250e+01,-1.626100006103515625e+02,6.353306961059570312e+01,-1.094776611328125000e+02,8.726010131835937500e+01,1.809395027160644531e+01,6.205717849731445312e+01,1.731103210449218750e+02,3.323438262939453125e+01,5.524702072143554688e+01
2.160000056028366089e-01,2.000000000000000000e+00,3.274878311157226562e+01,-6.714886665344238281e+00,6.062198638916015625e+01,-1.626196289062500000e+02,6.353880691528320312e+01,-1.094577178955078125e+02,8.722431945800781250e+01,1.807243537902832031e+01,6.202795410156250000e+01,1.731186676025390625e+02,3.324896240234375000e+01,5.523836135864257812e+01
2.199999988079071045e-01,2.000000000000000000e+00,3.267957687377929688e+01,-6.680752754211425781e+00,6.059394836425781250e+01,-1.626292724609375000e+02,6.354453659057617188e+01,-1.094377822875976562e+02,8.718855285644531250e+01,1.805092620849609375e+01,6.199873352050781250e+01,1.731270141601562500e+02,3.326353454589843750e+01,5.522970581054687500e+01
2.240000069141387939e-01,2.000000000000000000e+00,3.261039733886718750e+01,-6.646629810333251953e+00,6.056591033935546875e+01,-1.626389007568359375e+02,6.355026626586914062e+01,-1.094178466796875000e+02,8.715280151367187500e+01,1.802942657470703125e+01,6.196952819824218750e+01,1.731353607177734375e+02,3.327809906005859375e+01,5.522105026245117188e+01
2.280000001192092896e-01,2.000000000000000000e+00,3.254123687744140625e+01,-6.612518787384033203e+00,6.053788757324218750e+01,-1.626485137939453125e+02,6.355599594116210938e+01,-1.093979187011718750e+02,8.711705780029296875e+01,1.800793457031250000e+01,6.194033050537109375e+01,1.731437072753906250e+02,3.329266357421875000e+01,5.521240234375000000e+01
2.319999933242797852e-01,2.000000000000000000e+00,3.247209930419921875e+01,-6.578419685363769531e+00,6.050987625122070312e+01,-1.626581420898437500e+02,6.356172561645507812e+01,-1.093779983520507812e+02,8.708132934570312500e+01,1.798644828796386719e+01,6.191114425659179688e+01,1.731520385742187500e+02,3.330722045898437500e+01,5.520375442504882812e+01
2.360000014305114746e-01,2.000000000000000000e+00,3.240298843383789062e+01,-6.544331550598144531e+00,6.048186492919921875e+01,-1.626677551269531250e+02,6.356745147705078125e+01,-1.093580932617187500e+02,8.704560852050781250e+01,1.796496772766113281e+01,6.188196563720703125e+01,1.731603851318359375e+02,3.332176971435546875e+01,5.519510650634765625e+01
2.399999946355819702e-01,2.000000000000000000e+00,3.233390045166015625e+01,-6.510254859924316406e+00,6.045387649536132812e+01,-1.626773681640625000e+02,6.357317352294921875e+01,-1.093381805419921875e+02,8.700989532470703125e+01,1.794349861145019531e+01,6.185279464721679688e+01,1.731687316894531250e+02,3.333631896972656250e+01,5.518646621704101562e+01
2.440000027418136597e-01,2.000000000000000000e+00,3.226483535766601562e+01,-6.476190090179443359e+00,6.042588424682617188e+01,-1.626869812011718750e+02,6.357889938354492188e+01,-1.093182830810546875e+02,8.697420501708984375e+01,1.792203330993652344e+01,6.182363510131835938e+01,1.731770477294921875e+02,3.335086441040039062e+01,5.517782592773437500e+01
2.479999959468841553e-01,2.000000000000000000e+00,3.219578933715820312e+01,-6.442136764526367188e+00,6.039790725708007812e+01,-1.626965789794921875e+02,6.358461380004882812e+01,-1.092983932495117188e+02,8.693852233886718750e+01,1.790057754516601562e+01,6.179449081420898438e+01,1.731853790283203125e+02,3.336540222167968750e+01,5.516918945312500000e+01
2.520000040531158447e-01,2.000000000000000000e+00,3.212677001953125000e+01,-6.408095359802246094e+00,6.036993789672851562e+01,-1.627062072753906250e+02,6.359033966064453125e+01,-1.092785034179687500e+02,8.690285491943359375e+01,1.787912750244140625e+01,6.176534652709960938e+01,1.731937103271484375e+02,3.337993240356445312e+01,5.516055679321289062e+01
2.560000121593475342e-01,2.000000000000000000e+00,3.205777359008789062e+01,-6.374066352844238281e+00,6.034198379516601562e+01,-1.627157897949218750e+02,6.359605026245117188e+01,-1.092586288452148438e+02,8.686719512939453125e+01,1.785768508911132812e+01,6.173622131347656250e+01,1.732020263671875000e+02,3.339446258544921875e+01,5.515192794799804688e+01
2.599999904632568359e-01,2.000000000000000000e+00,3.198880195617675781e+01,-6.340047836303710938e+00,6.031403350830078125e+01,-1.627253875732421875e+02,6.360176467895507812e+01,-1.092387619018554688e+02,8.683155059814453125e+01,1.783624839782714844e+01,6.170709991455078125e+01,1.732103424072265625e+02,3.340898513793945312e+01,5.514329910278320312e+01
2.639999985694885254e-01,2.000000000000000000e+00,3.191985130310058594e+01,-6.306041717529296875e+00,6.028609848022460938e+01,-1.627350006103515625e+02,6.360747528076171875e+01,-1.092188949584960938e+02,8.679591369628906250e+01,1.781482124328613281e+01,6.167799377441406250e+01,1.732186737060546875e+02,3.342350387573242188e+01,5.513467788696289062e+01
2.680000066757202148e-01,2.000000000000000000e+00,3.185092353820800781e+01,-6.272046089172363281e+00,6.025817108154296875e+01,-1.627445831298828125e+02,6.361318588256835938e+01,-1.091990356445312500e+02,8.676029205322265625e+01,1.779340171813964844e+01,6.164889144897460938e+01,1.732269744873046875e+02,3.343801879882812500e+01,5.512605285644531250e+01
2.720000147819519043e-01,2.000000000000000000e+00,3.178201866149902344e+01,-6.238061904907226562e+00,6.023024749755859375e+01,-1.627541809082031250e+02,6.361889648437500000e+01,-1.091791839599609375e+02,8.672468566894531250e+01,1.777198600769042969e+01,6.161980056762695312e+01,1.732352905273437500e+02,3.345252609252929688e+01,5.511743545532226562e+01
2.759999930858612061e-01,2.000000000000000000e+00,3.171313858032226562e+01,-6.204088211059570312e+00,6.020233154296875000e+01,-1.627637481689453125e+02,6.362460708618164062e+01,-1.091593399047851562e+02,8.668907928466796875e+01,1.775057983398437500e+01,6.159072494506835938e+01,1.732435913085937500e+02,3.346702957153320312e+01,5.510882186889648438e+01
2.800000011920928955e-01,2.000000000000000000e+00,3.164428138732910156e+01,-6.170125484466552734e+00,6.017443084716796875e+01,-1.627733459472656250e+02,6.363031005859375000e+01,-1.091394958496093750e+02,8.665349578857421875e+01,1.772917938232421875e+01,6.156164932250976562e+01,1.732519073486328125e+02,3.348152542114257812e+01,5.510020828247070312e+01
2.840000092983245850e-01,2.000000000000000000e+00,3.157544326782226562e+01,-6.136173248291015625e+00,6.014653778076171875e+01,-1.627829132080078125e+02,6.363601303100585938e+01,-1.091196670532226562e+02,8.661791992187500000e+01,1.770778846740722656e+01,6.153259277343750000e+01,1.732602081298828125e+02,3.349602508544921875e+01,5.509159469604492188e+01
2.879999876022338867e-01,2.000000000000000000e+00,3.150663185119628906e+01,-6.102232933044433594e+00,6.011865615844726562e+01,-1.627924957275390625e+02,6.364171600341796875e+01,-1.090998458862304688e+02,8.658235931396484375e+01,1.768640327453613281e+01,6.150354003906250000e+01,1.732685089111328125e+02,3.351050949096679688e+01,5.508298873901367188e+01
2.919999957084655762e-01,2.000000000000000000e+00,3.143784141540527344e+01,-6.068303585052490234e+00,6.009078216552734375e+01,-1.628020629882812500e+02,6.364741134643554688e+01,-1.090800247192382812e+02,8.654680633544921875e+01,1.766502380371093750e+01,6.147449493408203125e+01,1.732768096923828125e+02,3.352499771118164062e+01,5.507438659667968750e+01
2.960000038146972656e-01,2.000000000000000000e+00,3.136907196044921875e+01,-6.034385681152343750e+00,6.006291580200195312e+01,-1.628116455078125000e+02,6.365311050415039062e+01,-1.090602035522460938e+02,8.651126861572265625e+01,1.764365386962890625e+01,6.144546890258789062e+01,1.732850952148437500e+02,3.353947830200195312e+01,5.506578445434570312e+01
3.000000119209289551e-01,2.000000000000000000e+00,3.130032920837402344e+01,-6.000478744506835938e+00,6.003506088256835938e+01,-1.628212127685546875e+02,6.365880584716796875e+01,-1.090404052734375000e+02,8.647573852539062500e+01,1.762228965759277344e+01,6.141644668579101562e+01,1.732933959960937500e+02,3.355395126342773438e+01,5.505718612670898438e+01
3.039999902248382568e-01,2.000000000000000000e+00,3.123160743713378906e+01,-5.966583251953125000e+00,6.000721359252929688e+01,-1.628307647705078125e+02,6.366449356079101562e+01,-1.090206069946289062e+02,8.644022369384765625e+01,1.760093307495117188e+01,6.138743209838867188e+01,1.733016815185546875e+02,3.356842041015625000e+01,5.504859161376953125e+01
3.079999983310699463e-01,2.000000000000000000e+00,3.116290855407714844e+01,-5.932698726654052734e+00,5.997937393188476562e+01,-1.628403320312500000e+02,6.367019271850585938e+01,-1.090008087158203125e+02,8.640472412109375000e+01,1.757958221435546875e+01,6.135843276977539062e+01,1.733099670410156250e+02,3.358288574218750000e+01,5.503999710083007812e+01
3.120000064373016357e-01,2.000000000000000000e+00,3.109423255920410156e+01,-5.898825645446777344e+00,5.995154953002929688e+01,-1.628498840332031250e+02,6.367588043212890625e+01,-1.089810256958007812e+02,8.636922454833984375e+01,1.755823898315429688e+01,6.132943725585937500e+01,1.733182525634765625e+02,3.359734725952148438e+01,5.503141021728515625e+01
3.160000145435333252e-01,2.000000000000000000e+00,3.102557754516601562e+01,-5.864963531494140625e+00,5.992372894287109375e+01,-1.628594360351562500e+02,6.368156433105468750e+01,-1.089612426757812500e+02,8.633374023437500000e+01,1.753690338134765625e+01,6.130044937133789062e+01,1.733265228271484375e+02,3.361180114746093750e+01,5.502281951904296875e+01
3.199999928474426270e-01,2.000000000000000000e+00,3.095694732666015625e+01,-5.831112861633300781e+00,5.989591598510742188e+01,-1.628689880371093750e+02,6.368725204467773438e+01,-1.089414672851562500e+02,8.629827117919921875e+01,1.751557540893554688e+01,6.127147674560546875e+01,1.733348083496093750e+02,3.362625503540039062e+01,5.501423263549804688e+01
3.240000009536743164e-01,2.000000000000000000e+00,3.088833808898925781e+01,-5.797273159027099609e+00,5.986811828613281250e+01,-1.628785400390625000e+02,6.369293594360351562e+01,-1.089217071533203125e+02,8.626281738281250000e+01,1.749425315856933594e+01,6.124250793457031250e+01,1.733430786132812500e+02,3.364070129394531250e+01,5.500565719604492188e+01
3.280000090599060059e-01,2.000000000000000000e+00,3.081975364685058594e+01,-5.763444423675537109e+00,5.984032440185546875e+01,-1.628880920410156250e+02,6.369861984252929688e+01,-1.089019470214843750e+02,8.622737884521484375e+01,1.747293853759765625e+01,6.121355438232421875e+01,1.733513641357421875e+02,3.365513992309570312e+01,5.499707794189453125e+01
3.319999873638153076e-01,2.000000000000000000e+00,3.075119209289550781e+01,-5.729626655578613281e+00,5.981254196166992188e+01,-1.628976287841796875e+02,6.370429992675781250e+01,-1.088821945190429688e+02,8.619194030761718750e+01,1.745162963867187500e+01,6.118460845947265625e+01,1.733596343994140625e+02,3.366957855224609375e+01,5.498849868774414062e+01
3.359999954700469971e-01,2.000000000000000000e+00,3.068265151977539062e+01,-5.695820808410644531e+00,5.978477096557617188e+01,-1.629071655273437500e+02,6.370997619628906250e+01,-1.088624420166015625e+02,8.615651702880859375e+01,1.743033027648925781e+01,6.115567016601562500e+01,1.733678894042968750e+02,3.368400955200195312e+01,5.497992706298828125e+01
3.400000035762786865e-01,2.000000000000000000e+00,3.061413383483886719e+01,-5.662025451660156250e+00,5.975700378417968750e+01,-1.629166870117187500e+02,6.371565246582031250e+01,-1.088426971435546875e+02,8.612110137939453125e+01,1.740903472900390625e+01,6.112674331665039062e+01,1.733761749267578125e+02,3.369843673706054688e+01,5.497135543823242188e+01
3.440000116825103760e-01,2.000000000000000000e+00,3.054563713073730469e+01,-5.628241539001464844e+00,5.972924804687500000e+01,-1.629262237548828125e+02,6.372132873535156250e+01,-1.088229675292968750e+02,8.608570098876953125e+01,1.738774871826171875e+01,6.109783172607421875e+01,1.733844299316406250e+02,3.371285629272460938e+01,5.496278762817382812e+01
3.479999899864196777e-01,2.000000000000000000e+00,3.047716522216796875e+01,-5.594468593597412109e+00,5.970150375366210938e+01,-1.629357604980468750e+02,6.372700500488281250e+01,-1.088032379150390625e+02,8.605031585693359375e+01,1.736647033691406250e+01,6.106892013549804688e+01,1.733926849365234375e+02,3.372727584838867188e+01,5.495422363281250000e+01
3.519999980926513672e-01,2.000000000000000000e+00,3.040871620178222656e+01,-5.560706615447998047e+00,5.967376708984375000e+01,-1.629452819824218750e+02,6.373267364501953125e+01,-1.087835235595703125e+02,8.601494598388671875e+01,1.734519767761230469e+01,6.104001998901367188e+01,1.734009399414062500e+02,3.374168777465820312e+01,5.494566345214843750e+01
3.560000061988830566e-01,2.000000000000000000e+00,3.034028816223144531e+01,-5.526956081390380859e+00,5.964603424072265625e+01,-1.629548034667968750e+02,6.373834228515625000e+01,-1.087638015747070312e+02,8.597957611083984375e+01,1.732393074035644531e+01,6.101113510131835938e+01,1.734091949462890625e+02,3.375609588623046875e+01,5.493709945678710938e+01
3.600000143051147461e-01,2.000000000000000000e+00,3.027188301086425781e+01,-5.493216514587402344e+00,5.961831665039062500e+01,-1.629643249511718750e+02,6.374401092529296875e+01,-1.087441024780273438e+02,8.594422149658203125e+01,1.730267333984375000e+01,6.098225021362304688e+01,1.734174499511718750e+02,3.377050018310546875e+01,5.492854690551757812e+01
3.639999926090240479e-01,2.000000000000000000e+00,3.020350074768066406e+01,-5.459487438201904297e+00,5.959060668945312500e+01,-1.629738464355468750e+02,6.374967193603515625e+01,-1.087243957519531250e+02,8.590888214111328125e+01,1.728141975402832031e+01,6.095338821411132812e+01,1.734257049560546875e+02,3.378490066528320312e+01,5.491999053955078125e+01
3.680000007152557373e-01,2.000000000000000000e+00,3.013513946533203125e+01,-5.425769805908203125e+00,5.956291198730468750e+01,-1.629833526611328125e+02,6.375533676147460938e+01,-1.087047042846679688e+02,8.587355041503906250e+01,1.726017761230468750e+01,6.092452239990234375e+01,1.734339447021484375e+02,3.379929351806640625e+01,5.491144180297851562e+01
3.720000088214874268e-01,2.000000000000000000e+00,3.006680107116699219e+01,-5.392063617706298828e+00,5.953521347045898438e+01,-1.629928588867187500e+02,6.376099777221679688e+01,-1.086850128173828125e+02,8.583824157714843750e+01,1.723893928527832031e+01,6.089567184448242188e+01,1.734421997070312500e+02,3.381368637084960938e+01,5.490289688110351562e+01
3.759999871253967285e-01,2.000000000000000000e+00,2.999848556518554688e+01,-5.358368396759033203e+00,5.950753021240234375e+01,-1.630023651123046875e+02,6.376665878295898438e+01,-1.086653289794921875e+02,8.580292510986328125e+01,1.721770668029785156e+01,6.086683654785156250e+01,1.734504241943359375e+02,3.382806777954101562e+01,5.489435195922851562e+01
3.799999952316284180e-01,2.000000000000000000e+00,2.993019294738769531e+01,-5.324684143066406250e+00,5.947986221313476562e+01,-1.630118713378906250e+02,6.377231597900390625e+01,-1.086456451416015625e+02,8.576763916015625000e+01,1.719648361206054688e+01,6.083799743652343750e+01,1.734586639404296875e+02,3.384244537353515625e+01,5.488580703735351562e+01
3.840000033378601074e-01,2.000000000000000000e+00,2.986192131042480469e+01,-5.291010379791259766e+00,5.945219421386718750e+01,-1.630213928222656250e+02,6.377797317504882812e+01,-1.086259841918945312e+02,8.573235321044921875e+01,1.717526817321777344e+01,6.080917358398437500e+01,1.734669036865234375e+02,3.385682296752929688e+01,5.487726974487304688e+01
3.880000114440917969e-01,2.000000000000000000e+00,2.979367065429687500e+01,-5.257348060607910156e+00,5.942453765869140625e+01,-1.630308837890625000e+02,6.378362655639648438e+01,-1.086063232421875000e+02,8.569708251953125000e+01,1.715405654907226562e+01,6.078036499023437500e+01,1.734751281738281250e+02,3.387119674682617188e+01,5.486872863769531250e+01
3.919999897480010986e-01,2.000000000000000000e+00,2.972544860839843750e+01,-5.223696708679199219e+00,5.939689636230468750e+01,-1.630403747558593750e+02,6.378928375244140625e+01,-1.085866622924804688e+02,8.566181945800781250e+01,1.713285446166992188e+01,6.075156402587890625e+01,1.734833679199218750e+02,3.388555908203125000e+01,5.486019515991210938e+01
3.959999978542327881e-01,2.000000000000000000e+00,2.965724182128906250e+01,-5.190056324005126953e+00,5.936925506591796875e+01,-1.630498657226562500e+02,6.379492950439453125e+01,-1.085670089721679688e+02,8.562657165527343750e+01,1.711165809631347656e+01,6.072276687622070312e+01,1.734915924072265625e+02,3.389992141723632812e+01,5.485166549682617188e+01
4.000000059604644775e-01,2.000000000000000000e+00,2.958905982971191406e+01,-5.156426906585693359e+00,5.934162521362304688e+01,-1.630593414306640625e+02,6.380057907104492188e+01,-1.085473709106445312e+02,8.559133148193359375e+01,1.709046936035156250e+01,6.069398498535156250e+01,1.734998168945312500e+02,3.391427612304687500e+01,5.484313964843750000e+01
4.040000140666961670e-01,2.000000000000000000e+00,2.952090072631835938e+01,-5.122808933258056641e+00,5.931401062011718750e+01,-1.630688476562500000e+02,6.380622863769531250e+01,-1.085277328491210938e+02,8.555611419677734375e+01,1.706928634643554688e+01,6.066520690917968750e+01,1.735080413818359375e+02,3.392863082885742188e+01,5.483461380004882812e+01
4.079999923706054688e-01,2.000000000000000000e+00,2.945276260375976562e+01,-5.089201450347900391e+00,5.928639602661132812e+01,-1.630783233642578125e+02,6.381187057495117188e+01,-1.085081024169921875e+02,8.552089691162109375e+01,1.704810905456542969e+01,6.063644027709960938e+01,1.735162658691406250e+02,3.394297790527343750e+01,5.482608795166015625e+01
4.120000004768371582e-01,2.000000000000000000e+00,2.938464927673339844e+01,-5.055605411529541016e+00,5.925879669189453125e+01,-1.630877990722656250e+02,6.381751251220703125e+01,-1.084884719848632812e+02,8.548569488525390625e+01,1.702694129943847656e+01,6.060768508911132812e+01,1.735244750976562500e+02,3.395731735229492188e+01,5.481756973266601562e+01
4.160000085830688477e-01,2.000000000000000000e+00,2.931655883789062500e+01,-5.022020339965820312e+00,5.923120880126953125e+01,-1.630972747802734375e+02,6.382315444946289062e+01,-1.084688568115234375e+02,8.545050048828125000e+01,1.700578117370605469e+01,6.057893753051757812e+01,1.735326843261718750e+02,3.397165679931640625e+01,5.480905151367187500e+01
4.199999868869781494e-01,2.000000000000000000e+00,2.924848937988281250e+01,-4.988447666168212891e+00,5.920362091064453125e+01,-1.631067504882812500e+02,6.382879638671875000e+01,-1.084492492675781250e+02,8.541532135009765625e+01,1.698462677001953125e+01,6.055020141601562500e+01,1.735409088134765625e+02,3.398598861694335938e+01,5.480053710937500000e+01
4.239999949932098389e-01,2.000000000000000000e+00,2.918043899536132812e+01,-4.954885482788085938e+00,5.917604827880859375e+01,-1.631162109375000000e+02,6.383443069458007812e+01,-1.084296340942382812e+02,8.538014984130859375e+01,1.696347808837890625e+01,6.052146530151367188e+01,1.735491027832031250e+02,3.400031661987304688e+01,5.479202651977539062e+01
4.280000030994415283e-01,2.000000000000000000e+00,2.911241531372070312e+01,-4.921335220336914062e+00,5.914849090576171875e+01,-1.631256866455078125e+02,6.384006500244140625e+01,-1.084100418090820312e+02,8.534499359130859375e+01,1.694233703613281250e+01,6.049275207519531250e+01,1.735573120117187500e+02,3.401464462280273438e+01,5.478351593017578125e+01
4.320000112056732178e-01,2.000000000000000000e+00,2.904441070556640625e+01,-4.887795925140380859e+00,5.912092971801757812e+01,-1.631351470947265625e+02,6.384569931030273438e+01,-1.083904418945312500e+02,8.530985260009765625e+01,1.692120361328125000e+01,6.046403884887695312e+01,1.735655212402343750e+02,3.402895736694335938e+01,5.477500915527343750e+01
4.359999895095825195e-01,2.000000000000000000e+00,2.897642898559570312e+01,-4.854266643524169922e+00,5.909338378906250000e+01,-1.631446075439453125e+02,6.385133361816406250e+01,-1.083708648681640625e+02,8.527471160888671875e+01,1.690007591247558594e+01,6.043533706665039062e+01,1.735737152099609375e+02,3.404327392578125000e+01,5.476651000976562500e+01
4.399999976158142090e-01,2.000000000000000000e+00,2.890847206115722656e+01,-4.820748329162597656e+00,5.906584548950195312e+01,-1.631540679931640625e+02,6.385696411132812500e+01,-1.083512802124023438e+02,8.523959350585937500e+01,1.687895584106445312e+01,6.040665054321289062e+01,1.735819091796875000e+02,3.405758285522460938e+01,5.475800704956054688e+01
4.440000057220458984e-01,2.000000000000000000e+00,2.884053611755371094e+01,-4.787240982055664062e+00,5.903831863403320312e+01,-1.631635284423828125e+02,6.386259078979492188e+01,-1.083317031860351562e+02,8.520448303222656250e+01,1.685784339904785156e+01,6.037796401977539062e+01,1.735901031494140625e+02,3.407189178466796875e+01,5.474950790405273438e+01
4.480000138282775879e-01,2.000000000000000000e+00,2.877261924743652344e+01,-4.753743648529052734e+00,5.901079940795898438e+01,-1.631729736328125000e+02,6.386821746826171875e+01,-1.083121414184570312e+02,8.516938781738281250e+01,1.683673667907714844e+01,6.034929656982421875e+01,1.735982971191406250e+02,3.408618927001953125e+01,5.474101638793945312e+01
4.519999921321868896e-01,2.000000000000000000e+00,2.870472717285156250e+01,-4.720256805419921875e+00,5.898328781127929688e+01,-1.631824188232421875e+02,6.387384796142578125e+01,-1.082925796508789062e+02,8.513430023193359375e+01,1.681563568115234375e+01,6.032063293457031250e+01,1.736064910888671875e+02,3.410048294067382812e+01,5.473252105712890625e+01
4.560000002384185791e-01,2.000000000000000000e+00,2.863685417175292969e+01,-4.686780929565429688e+00,5.895578384399414062e+01,-1.631918640136718750e+02,6.387946701049804688e+01,-1.082730255126953125e+02,8.509922027587890625e+01,1.679454421997070312e+01,6.029198074340820312e+01,1.736146850585937500e+02,3.411477661132812500e+01,5.472403335571289062e+01
4.600000083446502686e-01,2.000000000000000000e+00,2.856900596618652344e+01,-4.653316020965576172e+00,5.892829132080078125e+01,-1.632013092041015625e+02,6.388508987426757812e+01,-1.082534790039062500e+02,8.506415557861328125e+01,1.677345657348632812e+01,6.026333236694335938e+01,1.736228637695312500e+02,3.412906265258789062e+01,5.471554565429687500e+01
4.639999866485595703e-01,2.000000000000000000e+00,2.850117874145507812e+01,-4.619862079620361328e+00,5.890080642700195312e+01,-1.632107391357421875e+02,6.389070510864257812e+01,-1.082339401245117188e+02,8.502909851074218750e+01,1.675237846374511719e+01,6.023470306396484375e+01,1.736310424804687500e+02,3.414334487915039062e+01,5.470706176757812500e+01
4.679999947547912598e-01,2.000000000000000000e+00,2.843337440490722656e+01,-4.586419105529785156e+00,5.887333679199218750e+01,-1.632201843261718750e+02,6.389632415771484375e+01,-1.082144012451171875e+02,8.499405670166015625e+01,1.673130607604980469e+01,6.020606994628906250e+01,1.736392211914062500e+02,3.415762329101562500e+01,5.469858169555664062e+01
4.720000028610229492e-01,2.000000000000000000e+00,2.836558914184570312e+01,-4.552986621856689453e+00,5.884586334228515625e+01,-1.632296142578125000e+02,6.390193939208984375e+01,-1.081948699951171875e+02,8.495903015136718750e+01,1.671024131774902344e+01,6.017745590209960938e+01,1.736473999023437500e+02,3.417189407348632812e+01,5.469010543823242188e+01
4.760000109672546387e-01,2.000000000000000000e+00,2.829782867431640625e+01,-4.519565105438232422e+00,5.881840515136718750e+01,-1.632390441894531250e+02,6.390755462646484375e+01,-1.081753463745117188e+02,8.492400360107421875e+01,1.668918228149414062e+01,6.014884567260742188e+01,1.736555633544921875e+02,3.418616104125976562e+01,5.468162918090820312e+01
4.799999892711639404e-01,2.000000000000000000e+00,2.823009109497070312e+01,-4.486154556274414062e+00,5.879095458984375000e+01,-1.632484741210937500e+02,6.391316986083984375e+01,-1.081558380126953125e+02,8.488899993896484375e+01,1.666813087463378906e+01,6.012024688720703125e+01,1.736637420654296875e+02,3.420042419433593750e+01,5.467315673828125000e+01
4.839999973773956299e-01,2.000000000000000000e+00,2.816237258911132812e+01,-4.452754497528076172e+00,5.876351928710937500e+01,-1.632579040527343750e+02,6.391877746582031250e+01,-1.081363220214843750e+02,8.485400390625000000e+01,1.664708518981933594e+01,6.009166336059570312e+01,1.736719055175781250e+02,3.421468734741210938e+01,5.466468429565429688e+01
4.880000054836273193e-01,2.000000000000000000e+00,2.809467697143554688e+01,-4.419365406036376953e+00,5.873608779907226562e+01,-1.632673187255859375e+02,6.392438507080078125e+01,-1.081168212890625000e+02,8.481901550292968750e+01,1.662604713439941406e+01,6.006307983398437500e+01,1.736800689697265625e+02,3.422893905639648438e+01,5.465621566772460938e+01
4.920000135898590088e-01,2.000000000000000000e+00,2.802700614929199219e+01,-4.385987281799316406e+00,5.870866775512695312e+01,-1.632767333984375000e+02,6.392999267578125000e+01,-1.080973205566406250e+02,8.478404235839843750e+01,1.660501670837402344e+01,6.003450775146484375e+01,1.736882476806640625e+02,3.424318695068359375e+01,5.464775466918945312e+01
4.959999918937683105e-01,2.000000000000000000e+00,2.795935249328613281e+01,-4.352620124816894531e+00,5.868125152587890625e+01,-1.632861480712890625e+02,6.393560028076171875e+01,-1.080778274536132812e+02,8.474907684326171875e+01,1.658399200439453125e+01,6.000595092773437500e+01,1.736963958740234375e+02,3.425743103027343750e+01,5.463928985595703125e+01
5.000000000000000000e-01,2.000000000000000000e+00,2.789172363281250000e+01,-4.319262981414794922e+00,5.865384674072265625e+01,-1.632955627441406250e+02,6.394120025634765625e+01,-1.080583496093750000e+02,8.471412658691406250e+01,1.656297302246093750e+01,5.997740173339843750e+01,1.737045593261718750e+02,3.427167510986328125e+01,5.463083267211914062e+01
5.040000081062316895e-01,2.000000000000000000e+00,2.782411575317382812e+01,-4.285917282104492188e+00,5.862644958496093750e+01,-1.633049774169921875e+02,6.394680023193359375e+01,-1.080388717651367188e+02,8.467918395996093750e+01,1.654196357727050781e+01,5.994885635375976562e+01,1.737127075195312500e+02,3.428590774536132812e+01,5.462237548828125000e+01
5.080000162124633789e-01,2.000000000000000000e+00,2.775653076171875000e+01,-4.252582073211669922e+00,5.859906768798828125e+01,-1.633143768310546875e+02,6.395240020751953125e+01,-1.080193939208984375e+02,8.464425659179687500e+01,1.652095985412597656e+01,5.992032241821289062e+01,1.737208709716796875e+02,3.430013656616210938e+01,5.461391830444335938e+01
5.120000243186950684e-01,2.000000000000000000e+00,2.768896484375000000e+01,-4.219257831573486328e+00,5.857168579101562500e+01,-1.633237762451171875e+02,6.395799636840820312e+01,-1.079999313354492188e+02,8.460933685302734375e+01,1.649996185302734375e+01,5.989179992675781250e+01,1.737290191650390625e+02,3.431436538696289062e+01,5.460546875000000000e+01
5.159999728202819824e-01,2.000000000000000000e+00,2.762142372131347656e+01,-4.185944080352783203e+00,5.854431915283203125e+01,-1.633331909179687500e+02,6.396359634399414062e+01,-1.079804687500000000e+02,8.457443237304687500e+01,1.647896957397460938e+01,5.986328125000000000e+01,1.737371673583984375e+02,3.432859039306640625e+01,5.459702301025390625e+01
5.199999809265136719e-01,2.000000000000000000e+00,2.755390357971191406e+01,-4.152641296386718750e+00,5.851695632934570312e+01,-1.633425750732421875e+02,6.396918869018554688e+01,-1.079610137939453125e+02,8.453953552246093750e+01,1.645798683166503906e+01,5.983477401733398438e+01,1.737453002929687500e+02,3.434280776977539062e+01,5.458857727050781250e+01
5.239999890327453613e-01,2.000000000000000000e+00,2.748640441894531250e+01,-4.119349479675292969e+00,5.848960876464843750e+01,-1.633519744873046875e+02,6.397477722167968750e+01,-1.079415664672851562e+02,8.450465393066406250e+01,1.643700981140136719e+01,5.980627822875976562e+01,1.737534484863281250e+02,3.435701751708984375e+01,5.458013153076171875e+01
5.279999971389770508e-01,2.000000000000000000e+00,2.741892814636230469e+01,-4.086068153381347656e+00,5.846226882934570312e+01,-1.633613586425781250e+02,6.398036956787109375e+01,-1.079221267700195312e+02,8.446977996826171875e+01,1.641603851318359375e+01,5.977779769897460938e+01,1.737615814208984375e+02,3.437122726440429688e+01,5.457169342041015625e+01
5.320000052452087402e-01,2.000000000000000000e+00,2.735147285461425781e+01,-4.052797317504882812e+00,5.843493270874023438e+01,-1.633707427978515625e+02,6.398595809936523438e+01,-1.079026947021484375e+02,8.443491363525390625e+01,1.639507675170898438e+01,5.974931335449218750e+01,1.737697296142578125e+02,3.438542938232421875e+01,5.456325531005859375e+01
5.360000133514404297e-01,2.000000000000000000e+00,2.728403854370117188e+01,-4.019537448883056641e+00,5.840760421752929688e+01,-1.633801422119140625e+02,6.399154281616210938e+01,-1.078832626342773438e+02,8.440007019042968750e+01,1.637411880493164062e+01,5.972084426879882812e+01,1.737778625488281250e+02,3.439963150024414062e+01,5.455481719970703125e+01
5.400000214576721191e-01,2.000000000000000000e+00,2.721662712097167969e+01,-3.986288309097290039e+00,5.838029098510742188e+01,-1.633895111083984375e+02,6.399713134765625000e+01,-1.078638458251953125e+02,8.436522674560546875e+01,1.635316848754882812e+01,5.969238281250000000e+01,1.737859954833984375e+02,3.441382217407226562e+01,5.454638671875000000e+01
5.440000295639038086e-01,2.000000000000000000e+00,2.714923667907714844e+01,-3.953049659729003906e+00,5.835298538208007812e+01,-1.633988952636718750e+02,6.400270843505859375e+01,-1.078444290161132812e+02,8.433039855957031250e+01,1.633222579956054688e+01,5.966393661499023438e+01,1.737941284179687500e+02,3.442801284790039062e+01,5.453795623779296875e+01
5.479999780654907227e-01,2.000000000000000000e+00,2.708186721801757812e+01,-3.919821739196777344e+00,5.832568359375000000e+01,-1.634082641601562500e+02,6.400829315185546875e+01,-1.078250122070312500e+02,8.429557800292968750e+01,1.631128883361816406e+01,5.963549423217773438e+01,1.738022460937500000e+02,3.444219970703125000e+01,5.452953338623046875e+01
5.519999861717224121e-01,2.000000000000000000e+00,2.701452255249023438e+01,-3.886604785919189453e+00,5.829839706420898438e+01,-1.634176330566406250e+02,6.401387023925781250e+01,-1.078056106567382812e+02,8.426077270507812500e+01,1.629035949707031250e+01,5.960706329345703125e+01,1.738103637695312500e+02,3.445637893676757812e+01,5.452110671997070312e+01
5.559999942779541016e-01,2.000000000000000000e+00,2.694719696044921875e+01,-3.853398084640502930e+00,5.827111053466796875e+01,-1.634270019531250000e+02,6.401945495605468750e+01,-1.077862091064453125e+02,8.422598266601562500e+01,1.626943588256835938e+01,5.957863616943359375e+01,1.738184967041015625e+02,3.447055435180664062e+01,5.451268768310546875e+01
5.600000023841857910e-01,2.000000000000000000e+00,2.687989234924316406e+01,-3.820202589035034180e+00,5.824384307861328125e+01,-1.634363708496093750e+02,6.402502441406250000e+01,-1.077668228149414062e+02,8.419120025634765625e+01,1.624851989746093750e+01,5.955022048950195312e+01,1.738266143798828125e+02,3.448472595214843750e+01,5.450426864624023438e+01
5.640000104904174805e-01,2.000000000000000000e+00,2.681261062622070312e+01,-3.787017107009887695e+00,5.821657943725585938e+01,-1.634457244873046875e+02,6.403060150146484375e+01,-1.077474365234375000e+02,8.415642547607421875e+01,1.622761154174804688e+01,5.952181243896484375e+01,1.738347167968750000e+02,3.449889373779296875e+01,5.449585342407226562e+01
5.680000185966491699e-01,2.000000000000000000e+00,2.674534988403320312e+01,-3.753842592239379883e+00,5.818932723999023438e+01,-1.634550933837890625e+02,6.403617095947265625e+01,-1.077280578613281250e+02,8.412166595458984375e+01,1.620670700073242188e+01,5.949341964721679688e+01,1.738428344726562500e+02,3.451305389404296875e+01,5.448743820190429688e+01
5.720000267028808594e-01,2.000000000000000000e+00,2.667811203002929688e+01,-3.720678567886352539e+00,5.816207885742187500e+01,-1.634644470214843750e+02,6.404174804687500000e+01,-1.077086868286132812e+02,8.408691406250000000e+01,1.618581008911132812e+01,5.946503448486328125e+01,1.738509521484375000e+02,3.452721405029296875e+01,5.447903060913085938e+01
5.759999752044677734e-01,2.000000000000000000e+00,2.661089324951171875e+01,-3.687525272369384766e+00,5.813484191894531250e+01,-1.634738006591796875e+02,6.404730987548828125e+01,-1.076893234252929688e+02,8.405216979980468750e+01,1.616492271423339844e+01,5.943665695190429688e+01,1.738590545654296875e+02,3.454136657714843750e+01,5.447062301635742188e+01
5.799999833106994629e-01,2.000000000000000000e+00,2.654369926452636719e+01,-3.654382705688476562e+00,5.810760879516601562e+01,-1.634831542968750000e+02,6.405287933349609375e+01,-1.076699600219726562e+02,8.401744842529296875e+01,1.614403915405273438e+01,5.940829086303710938e+01,1.738671722412109375e+02,3.455551528930664062e+01,5.446221923828125000e+01
5.839999914169311523e-01,2.000000000000000000e+00,2.647652435302734375e+01,-3.621250629425048828e+00,5.808039093017578125e+01,-1.634925079345703125e+02,6.405844879150390625e+01,-1.076506118774414062e+02,8.398272705078125000e+01,1.612316131591796875e+01,5.937992858886718750e+01,1.738752746582031250e+02,3.456966018676757812e+01,5.445381546020507812e+01
5.879999995231628418e-01,2.000000000000000000e+00,2.640937042236328125e+01,-3.588129281997680664e+00,5.805318069458007812e+01,-1.635018463134765625e+02,6.406400299072265625e+01,-1.076312637329101562e+02,8.394802856445312500e+01,1.610229301452636719e+01,5.935157775878906250e+01,1.738833618164062500e+02,3.458379745483398438e+01,5.444541549682617188e+01
5.920000076293945312e-01,2.000000000000000000e+00,2.634223937988281250e+01,-3.555018424987792969e+00,5.802597427368164062e+01,-1.635111999511718750e+02,6.406957244873046875e+01,-1.076119232177734375e+02,8.391333007812500000e+01,1.608143043518066406e+01,5.932323455810546875e+01,1.738914642333984375e+02,3.459793472290039062e+01,5.443701934814453125e+01
5.960000157356262207e-01,2.000000000000000000e+00,2.627512931823730469e+01,-3.521918535232543945e+00,5.799878311157226562e+01,-1.635205383300781250e+02,6.407513427734375000e+01,-1.075925827026367188e+02,8.387865447998046875e+01,1.606057357788085938e+01,5.929490280151367188e+01,1.738995513916015625e+02,3.461206436157226562e+01,5.442862319946289062e+01
6.000000238418579102e-01,2.000000000000000000e+00,2.620804214477539062e+01,-3.488829135894775391e+00,5.797159957885742188e+01,-1.635298614501953125e+02,6.408068847656250000e+01,-1.075732574462890625e+02,8.384397125244140625e+01,1.603972434997558594e+01,5.926658248901367188e+01,1.739076538085937500e+02,3.462619400024414062e+01,5.442023468017578125e+01
6.039999723434448242e-01,2.000000000000000000e+00,2.614097404479980469e+01,-3.455750465393066406e+00,5.794442367553710938e+01,-1.635391998291015625e+02,6.408624267578125000e+01,-1.075539321899414062e+02,8.380931854248046875e+01,1.601888275146484375e+01,5.923826599121093750e+01,1.739157409667968750e+02,3.464031600952148438e+01,5.441184234619140625e+01
6.079999804496765137e-01,2.000000000000000000e+00,2.607393074035644531e+01,-3.422682046890258789e+00,5.791725921630859375e+01,-1.635485382080078125e+02,6.409179687500000000e+01,-1.075346145629882812e+02,8.377465820312500000e+01,1.599804496765136719e+01,5.920996093750000000e+01,1.739238281250000000e+02,3.465443038940429688e+01,5.440345764160156250e+01
6.119999885559082031e-01,2.000000000000000000e+00,2.600690460205078125e+01,-3.389623880386352539e+00,5.789009475708007812e+01,-1.635578613281250000e+02,6.409735107421875000e+01,-1.075153045654296875e+02,8.374002838134765625e+01,1.597721672058105469e+01,5.918166351318359375e+01,1.739319152832031250e+02,3.466854476928710938e+01,5.439507293701171875e+01
6.159999966621398926e-01,2.000000000000000000e+00,2.593990325927734375e+01,-3.356576442718505859e+00,5.786294555664062500e+01,-1.635671844482421875e+02,6.410290527343750000e+01,-1.074960021972656250e+02,8.370539855957031250e+01,1.595639228820800781e+01,5.915338134765625000e+01,1.739399871826171875e+02,3.468265151977539062e+01,5.438669204711914062e+01
6.200000047683715820e-01,2.000000000000000000e+00,2.587292098999023438e+01,-3.323539257049560547e+00,5.783580398559570312e+01,-1.635765075683593750e+02,6.410845184326171875e+01,-1.074766998291015625e+02,8.367078399658203125e+01,1.593557643890380859e+01,5.912509536743164062e+01,1.739480743408203125e+02,3.469675827026367188e+01,5.437831497192382812e+01
6.240000128746032715e-01,2.000000000000000000e+00,2.580595970153808594e+01,-3.290512323379516602e+00,5.780867385864257812e+01,-1.635858154296875000e+02,6.411399841308593750e+01,-1.074574127197265625e+02,8.363616943359375000e+01,1.591476821899414062e+01,5.909683227539062500e+01,1.739561462402343750e+02,3.471085357666015625e+01,5.436993789672851562e+01
6.280000209808349609e-01,2.000000000000000000e+00,2.573901939392089844e+01,-3.257496356964111328e+00,5.778155136108398438e+01,-1.635951385498046875e+02,6.411954498291015625e+01,-1.074381256103515625e+02,8.360157775878906250e+01,1.589396476745605469e+01,5.906856918334960938e+01,1.739642181396484375e+02,3.472494888305664062e+01,5.436156463623046875e+01
6.320000290870666504e-01,2.000000000000000000e+00,2.567210388183593750e+01,-3.224490642547607422e+00,5.775443267822265625e+01,-1.636044464111328125e+02,6.412509155273437500e+01,-1.074188537597656250e+02,8.356699371337890625e+01,1.587316894531250000e+01,5.904032135009765625e+01,1.739722900390625000e+02,3.473904037475585938e+01,5.435319519042968750e+01
6.359999775886535645e-01,2.000000000000000000e+00,2.560520553588867188e+01,-3.191495656967163086e+00,5.772732543945312500e+01,-1.636137695312500000e+02,6.413063049316406250e+01,-1.073995742797851562e+02,8.353242492675781250e+01,1.585237789154052734e+01,5.901207733154296875e+01,1.739803771972656250e+02,3.475312805175781250e+01,5.434482955932617188e+01
6.399999856948852539e-01,2.000000000000000000e+00,2.553833007812500000e+01,-3.158510684967041016e+00,5.770022201538085938e+01,-1.636230773925781250e+02,6.413617706298828125e+01,-1.073803100585937500e+02,8.349786376953125000e+01,1.583159446716308594e+01,5.898384094238281250e+01,1.739884338378906250e+02,3.476720809936523438e+01,5.433646392822265625e+01
6.439999938011169434e-01,2.000000000000000000e+00,2.547147560119628906e+01,-3.125536441802978516e+00,5.767313385009765625e+01,-1.636323699951171875e+02,6.414171600341796875e+01,-1.073610458374023438e+02,8.346331024169921875e+01,1.581081771850585938e+01,5.895561981201171875e+01,1.739965057373046875e+02,3.478128433227539062e+01,5.432810211181640625e+01
6.480000019073486328e-01,2.000000000000000000e+00,2.540464210510253906e+01,-3.092572450637817383e+00,5.764605331420898438e+01,-1.636416778564453125e+02,6.414724731445312500e+01,-1.073417892456054688e+02,8.342876434326171875e+01,1.579004859924316406e+01,5.892740249633789062e+01,1.740045623779296875e+02,3.479535675048828125e+01,5.431974029541015625e+01
6.520000100135803223e-01,2.000000000000000000e+00,2.533782958984375000e+01,-3.059618949890136719e+00,5.761897659301757812e+01,-1.636509704589843750e+02,6.415278625488281250e+01,-1.073225402832031250e+02,8.339424133300781250e+01,1.576928520202636719e+01,5.889919281005859375e+01,1.740126190185546875e+02,3.480942535400390625e+01,5.431138229370117188e+01
6.560000181198120117e-01,2.000000000000000000e+00,2.527103805541992188e+01,-3.026675701141357422e+00,5.759191513061523438e+01,-1.636602630615234375e+02,6.415831756591796875e+01,-1.073032989501953125e+02,8.335971832275390625e+01,1.574852657318115234e+01,5.887099838256835938e+01,1.740206756591796875e+02,3.482348632812500000e+01,5.430303192138671875e+01
6.600000262260437012e-01,2.000000000000000000e+00,2.520426750183105469e+01,-2.993742704391479492e+00,5.756486129760742188e+01,-1.636695556640625000e+02,6.416384887695312500e+01,-1.072840576171875000e+02,8.332521820068359375e+01,1.572777557373046875e+01,5.884281158447265625e+01,1.740287322998046875e+02,3.483754730224609375e+01,5.429468154907226562e+01
6.639999747276306152e-01,2.000000000000000000e+00,2.513751792907714844e+01,-2.960820198059082031e+00,5.753781509399414062e+01,-1.636788482666015625e+02,6.416937255859375000e+01,-1.072648315429687500e+02,8.329071807861328125e+01,1.570703315734863281e+01,5.881462860107421875e+01,1.740367889404296875e+02,3.485160446166992188e+01,5.428633117675781250e+01
6.679999828338623047e-01,2.000000000000000000e+00,2.507078933715820312e+01,-2.927907943725585938e+00,5.751077270507812500e+01,-1.636881408691406250e+02,6.417491149902343750e+01,-1.072456054687500000e+02,8.325623321533203125e+01,1.568629455566406250e+01,5.878645706176757812e+01,1.740448303222656250e+02,3.486565399169921875e+01,5.427798461914062500e+01
6.719999909400939941e-01,2.000000000000000000e+00,2.500408172607421875e+01,-2.895005941390991211e+00,5.748374176025390625e+01,-1.636974182128906250e+02,6.418043518066406250e+01,-1.072263793945312500e+02,8.322175598144531250e+01,1.566556358337402344e+01,5.875829315185546875e+01,1.740528869628906250e+02,3.487969970703125000e+01,5.426963806152343750e+01
6.759999990463256836e-01,2.000000000000000000e+00,2.493739509582519531e+01,-2.862114429473876953e+00,5.745671844482421875e+01,-1.637066955566406250e+02,6.418595886230468750e+01,-1.072071685791015625e+02,8.318729400634765625e+01,1.564483833312988281e+01,5.873014068603515625e+01,1.740609283447265625e+02,3.489373779296875000e+01,5.426129913330078125e+01
6.800000071525573730e-01,2.000000000000000000e+00,2.487072944641113281e+01,-2.829232931137084961e+00,5.742970657348632812e+01,-1.637159729003906250e+02,6.419147491455078125e+01,-1.071879653930664062e+02,8.315283203125000000e+01,1.562412071228027344e+01,5.870199203491210938e+01,1.740689697265625000e+02,3.490777969360351562e+01,5.425295639038085938e+01
6.840000152587890625e-01,2.000000000000000000e+00,2.480408477783203125e+01,-2.796361923217773438e+00,5.740269851684570312e+01,-1.637252502441406250e+02,6.419700622558593750e+01,-1.071687622070312500e+02,8.311839294433593750e+01,1.560340881347656250e+01,5.867385864257812500e+01,1.740770111083984375e+02,3.492181015014648438e+01,5.424462127685546875e+01
6.880000233650207520e-01,2.000000000000000000e+00,2.473745918273925781e+01,-2.763500928878784180e+00,5.737570190429687500e+01,-1.637345275878906250e+02,6.420252227783203125e+01,-1.071495666503906250e+02,8.308396148681640625e+01,1.558270263671875000e+01,5.864573287963867188e+01,1.740850372314453125e+02,3.493584060668945312e+01,5.423628997802734375e+01
6.919999718666076660e-01,2.000000000000000000e+00,2.467085647583007812e+01,-2.730650424957275391e+00,5.734871292114257812e+01,-1.637437896728515625e+02,6.420803833007812500e+01,-1.071303787231445312e+02,8.304954528808593750e+01,1.556200408935546875e+01,5.861761474609375000e+01,1.740930633544921875e+02,3.494986343383789062e+01,5.422795867919921875e+01
6.959999799728393555e-01,2.000000000000000000e+00,2.460427284240722656e+01,-2.697809934616088867e+00,5.732173538208007812e+01,-1.637530670166015625e+02,6.421355438232421875e+01,-1.071111907958984375e+02,8.301512908935546875e+01,1.554131221771240234e+01,5.858950042724609375e+01,1.741011047363281250e+02,3.496388626098632812e+01,5.421963119506835938e+01
6.999999880790710449e-01,2.000000000000000000e+00,2.453771018981933594e+01,-2.664979696273803711e+00,5.729476165771484375e+01,-1.637623291015625000e+02,6.421907043457031250e+01,-1.070920181274414062e+02,8.298072814941406250e+01,1.552062702178955078e+01,5.856140136718750000e+01,1.741091308593750000e+02,3.497790145874023438e+01,5.421130371093750000e+01
7.039999961853027344e-01,2.000000000000000000e+00,2.447117042541503906e+01,-2.632159948348999023e+00,5.726779937744140625e+01,-1.637715911865234375e+02,6.422458648681640625e+01,-1.070728454589843750e+02,8.294633483886718750e+01,1.549994659423828125e+01,5.853330612182617188e+01,1.741171722412109375e+02,3.499190902709960938e+01,5.420298004150390625e+01
7.080000042915344238e-01,2.000000000000000000e+00,2.440464973449707031e+01,-2.599349975585937500e+00,5.724084472656250000e+01,-1.637808380126953125e+02,6.423009490966796875e+01,-1.070536804199218750e+02,8.291196441650390625e+01,1.547927284240722656e+01,5.850522232055664062e+01,1.741251831054687500e+02,3.500592041015625000e+01,5.419466400146484375e+01
7.120000123977661133e-01,2.000000000000000000e+00,2.433815002441406250e+01,-2.566550493240356445e+00,5.721389770507812500e+01,-1.637901000976562500e+02,6.423560333251953125e+01,-1.070345230102539062e+02,8.287759399414062500e+01,1.545860671997070312e+01,5.847714996337890625e+01,1.741332092285156250e+02,3.501992034912109375e+01,5.418634414672851562e+01
7.160000205039978027e-01,2.000000000000000000e+00,2.427166938781738281e+01,-2.533761262893676758e+00,5.718695831298828125e+01,-1.637993469238281250e+02,6.424111175537109375e+01,-1.070153656005859375e+02,8.284323883056640625e+01,1.543794536590576172e+01,5.844908523559570312e+01,1.741412200927734375e+02,3.503392028808593750e+01,5.417802810668945312e+01
7.200000286102294922e-01,2.000000000000000000e+00,2.420521163940429688e+01,-2.500981807708740234e+00,5.716003036499023438e+01,-1.638085937500000000e+02,6.424662017822265625e+01,-1.069962158203125000e+02,8.280888366699218750e+01,1.541729259490966797e+01,5.842102813720703125e+01,1.741492462158203125e+02,3.504790878295898438e+01,5.416971588134765625e+01
7.239999771118164062e-01,2.000000000000000000e+00,2.413877296447753906e+01,-2.468212842941284180e+00,5.713310623168945312e+01,-1.638178405761718750e+02,6.425212097167968750e+01,-1.069770812988281250e+02,8.277455139160156250e+01,1.539664459228515625e+01,5.839297485351562500e+01,1.741572570800781250e+02,3.506190109252929688e+01,5.416140365600585938e+01
7.279999852180480957e-01,2.000000000000000000e+00,2.407235717773437500e+01,-2.435454130172729492e+00,5.710619354248046875e+01,-1.638270721435546875e+02,6.425762176513671875e+01,-1.069579391479492188e+02,8.274021911621093750e+01,1.537600421905517578e+01,5.836493682861328125e+01,1.741652679443359375e+02,3.507588577270507812e+01,5.415309906005859375e+01
7.319999933242797852e-01,2.000000000000000000e+00,2.400595855712890625e+01,-2.402705430984497070e+00,5.707929229736328125e+01,-1.638363189697265625e+02,6.426313018798828125e+01,-1.069388122558593750e+02,8.270590972900390625e+01,1.535536861419677734e+01,5.833690643310546875e+01,1.741732788085937500e+02,3.508986663818359375e+01,5.414479064941406250e+01
7.360000014305114746e-01,2.000000000000000000e+00,2.393958282470703125e+01,-2.369966745376586914e+00,5.705239486694335938e+01,-1.638455505371093750e+02,6.426862335205078125e+01,-1.069196853637695312e+02,8.267160797119140625e+01,1.533474159240722656e+01,5.830887985229492188e+01,1.741812896728515625e+02,3.510384368896484375e+01,5.413648986816406250e+01
7.400000095367431641e-01,2.000000000000000000e+00,2.387322807312011719e+01,-2.337238550186157227e+00,5.702550125122070312e+01,-1.638547973632812500e+02,6.427412414550781250e+01,-1.069005661010742188e+02,8.263731384277343750e+01,1.531411933898925781e+01,5.828087234497070312e+01,1.741892852783203125e+02,3.511781311035156250e+01,5.412818908691406250e+01
7.440000176429748535e-01,2.000000000000000000e+00,2.380689239501953125e+01,-2.304520130157470703e+00,5.699862670898437500e+01,-1.638640289306640625e+02,6.427961730957031250e+01,-1.068814620971679688e+02,8.260303497314453125e+01,1.529350376129150391e+01,5.825286102294921875e+01,1.741972961425781250e+02,3.513178253173828125e+01,5.411989212036132812e+01
7.480000257492065430e-01,2.000000000000000000e+00,2.374057579040527344e+01,-2.271812200546264648e+00,5.697175216674804688e+01,-1.638732452392578125e+02,6.428511047363281250e+01,-1.068623580932617188e+02,8.256875610351562500e+01,1.527289390563964844e+01,5.822486495971679688e+01,1.742052917480468750e+02,3.514574813842773438e+01,5.411159896850585938e+01
7.519999742507934570e-01,2.000000000000000000e+00,2.367428207397460938e+01,-2.239114046096801758e+00,5.694488906860351562e+01,-1.638824768066406250e+02,6.429060363769531250e+01,-1.068432464599609375e+02,8.253450012207031250e+01,1.525229263305664062e+01,5.819688034057617188e+01,1.742132873535156250e+02,3.515970230102539062e+01,5.410330581665039062e+01
7.559999823570251465e-01,2.000000000000000000e+00,2.360800933837890625e+01,-2.206426143646240234e+00,5.691803359985351562e+01,-1.638917083740234375e+02,6.429609680175781250e+01,-1.068241577148437500e+02,8.250024414062500000e+01,1.523169612884521484e+01,5.816889572143554688e+01,1.742212829589843750e+02,3.517366027832031250e+01,5.409501647949218750e+01
7.599999904632568359e-01,2.000000000000000000e+00,2.354175758361816406e+01,-2.173748254776000977e+00,5.689118576049804688e+01,-1.639009246826171875e+02,6.430158233642578125e+01,-1.068050689697265625e+02,8.246600341796875000e+01,1.521110630035400391e+01,5.814092636108398438e+01,1.742292785644531250e+02,3.518761062622070312e+01,5.408672714233398438e+01
7.639999985694885254e-01,2.000000000000000000e+00,2.347552490234375000e+01,-2.141080856323242188e+00,5.686435317993164062e+01,-1.639101409912109375e+02,6.430707550048828125e+01,-1.067859878540039062e+02,8.243177032470703125e+01,1.519052219390869141e+01,5.811296463012695312e+01,1.742372741699218750e+02,3.520155715942382812e+01,5.407844161987304688e+01
7.680000066757202148e-01,2.000000000000000000e+00,2.340931320190429688e+01,-2.108422994613647461e+00,5.683752059936523438e+01,-1.639193572998046875e+02,6.431255340576171875e+01,-1.067669067382812500e+02,8.239755249023437500e+01,1.516994380950927734e+01,5.808501434326171875e+01,1.742452392578125000e+02,3.521549987792968750e+01,5.407016372680664062e+01
7.720000147819519043e-01,2.000000000000000000e+00,2.334311866760253906e+01,-2.075775623321533203e+00,5.681069564819335938e+01,-1.639285583496093750e+02,6.431803894042968750e+01,-1.067478408813476562e+02,8.236334991455078125e+01,1.514937305450439453e+01,5.805706787109375000e+01,1.742532348632812500e+02,3.522943496704101562e+01,5.406188201904296875e+01
7.760000228881835938e-01,2.000000000000000000e+00,2.327694892883300781e+01,-2.043138265609741211e+00,5.678388595581054688e+01,-1.639377746582031250e+02,6.432351684570312500e+01,-1.067287750244140625e+02,8.232914733886718750e+01,1.512880897521972656e+01,5.802912902832031250e+01,1.742612152099609375e+02,3.524337005615234375e+01,5.405360412597656250e+01
7.799999713897705078e-01,2.000000000000000000e+00,2.321079826354980469e+01,-2.010510921478271484e+00,5.675708007812500000e+01,-1.639469757080078125e+02,6.432900238037109375e+01,-1.067097167968750000e+02,8.229496002197265625e+01,1.510825061798095703e+01,5.800120162963867188e+01,1.742691955566406250e+02,3.525729751586914062e+01,5.404533004760742188e+01
7.839999794960021973e-01,2.000000000000000000e+00,2.314466857910156250e+01,-1.977893471717834473e+00,5.673028182983398438e+01,-1.639561767578125000e+02,6.433448028564453125e+01,-1.066906661987304688e+02,8.226078796386718750e+01,1.508769893646240234e+01,5.797328567504882812e+01,1.742771759033203125e+02,3.527122497558593750e+01,5.403705978393554688e+01
7.879999876022338867e-01,2.000000000000000000e+00,2.307855796813964844e+01,-1.945286154747009277e+00,5.670349502563476562e+01,-1.639653930664062500e+02,6.433995819091796875e+01,-1.066716156005859375e+02,8.222661590576171875e+01,1.506715297698974609e+01,5.794537353515625000e+01,1.742851409912109375e+02,3.528514480590820312e+01,5.402878952026367188e+01
7.919999957084655762e-01,2.000000000000000000e+00,2.301246833801269531e+01,-1.912688851356506348e+00,5.667671203613281250e+01,-1.639745788574218750e+02,6.434542846679687500e+01,-1.066525802612304688e+02,8.219245910644531250e+01,1.504661464691162109e+01,5.791746902465820312e+01,1.742931213378906250e+02,3.529906082153320312e+01,5.402052307128906250e+01
7.960000038146972656e-01,2.000000000000000000e+00,2.294639778137207031e+01,-1.880101799964904785e+00,5.664994049072265625e+01,-1.639837799072265625e+02,6.435090637207031250e+01,-1.066335449218750000e+02,8.215831756591796875e+01,1.502608203887939453e+01,5.788957595825195312e+01,1.743010864257812500e+02,3.531296920776367188e+01,5.401226043701171875e+01
8.000000119209289551e-01,2.000000000000000000e+00,2.288034820556640625e+01,-1.847524523735046387e+00,5.662317657470703125e+01,-1.639929656982421875e+02,6.435637664794921875e+01,-1.066145172119140625e+02,8.212418365478515625e+01,1.500555515289306641e+01,5.786169433593750000e+01,1.743090515136718750e+02,3.532687759399414062e+01,5.400399780273437500e+01
8.040000200271606445e-01,2.000000000000000000e+00,2.281432151794433594e+01,-1.814957380294799805e+00,5.659642028808593750e+01,-1.640021667480468750e+02,6.436184692382812500e+01,-1.065954818725585938e+02,8.209005737304687500e+01,1.498503398895263672e+01,5.783382034301757812e+01,1.743170166015625000e+02,3.534078216552734375e+01,5.399573898315429688e+01
8.080000281333923340e-01,2.000000000000000000e+00,2.274831199645996094e+01,-1.782400369644165039e+00,5.656967163085937500e+01,-1.640113372802734375e+02,6.436731719970703125e+01,-1.065764694213867188e+02,8.205593872070312500e+01,1.496452140808105469e+01,5.780594635009765625e+01,1.743249816894531250e+02,3.535467910766601562e+01,5.398748397827148438e+01
8.119999766349792480e-01,2.000000000000000000e+00,2.268232345581054688e+01,-1.749853134155273438e+00,5.654293441772460938e+01,-1.640205230712890625e+02,6.437278747558593750e+01,-1.065574569702148438e+02,8.202183532714843750e+01,1.494401359558105469e+01,5.777809524536132812e+01,1.743329467773437500e+02,3.536857604980468750e+01,5.397922897338867188e+01
8.159999847412109375e-01,2.000000000000000000e+00,2.261635589599609375e+01,-1.717316031455993652e+00,5.651620101928710938e+01,-1.640296936035156250e+02,6.437825012207031250e+01,-1.065384521484375000e+02,8.198773956298828125e+01,1.492351055145263672e+01,5.775024032592773438e+01,1.743408966064453125e+02,3.538246536254882812e+01,5.397097778320312500e+01
8.199999928474426270e-01,2.000000000000000000e+00,2.255040740966796875e+01,-1.684788942337036133e+00,5.648947906494140625e+01,-1.640388793945312500e+02,6.438371276855468750e+01,-1.065194549560546875e+02,8.195365905761718750e+01,1.490301704406738281e+01,5.772240066528320312e+01,1.743488616943359375e+02,3.539635086059570312e+01,5.396272659301757812e+01
8.240000009536743164e-01,2.000000000000000000e+00,2.248448181152343750e+01,-1.652271747589111328e+00,5.646276855468750000e+01,-1.640480651855468750e+02,6.438917541503906250e+01,-1.065004577636718750e+02,8.191958618164062500e+01,1.488252830505371094e+01,5.769456863403320312e+01,1.743568115234375000e+02,3.541023254394531250e+01,5.395448303222656250e+01
8.280000090599060059e-01,2.000000000000000000e+00,2.241857337951660156e+01,-1.619764566421508789e+00,5.643606185913085938e+01,-1.640572204589843750e+02,6.439463806152343750e+01,-1.064814682006835938e+02,8.188552856445312500e+01,1.486204624176025391e+01,5.766674041748046875e+01,1.743647613525390625e+02,3.542411041259765625e+01,5.394623947143554688e+01
8.320000171661376953e-01,2.000000000000000000e+00,2.235268783569335938e+01,-1.587267398834228516e+00,5.640936279296875000e+01,-1.640663909912109375e+02,6.440009307861328125e+01,-1.064624862670898438e+02,8.185147857666015625e+01,1.484156894683837891e+01,5.763892364501953125e+01,1.743727111816406250e+02,3.543798446655273438e+01,5.393799591064453125e+01
8.360000252723693848e-01,2.000000000000000000e+00,2.228682136535644531e+01,-1.554780125617980957e+00,5.638267135620117188e+01,-1.640755615234375000e+02,6.440554809570312500e+01,-1.064435043334960938e+02,8.181743621826171875e+01,1.482109928131103516e+01,5.761111450195312500e+01,1.743806457519531250e+02,3.545185089111328125e+01,5.392975616455078125e+01
8.399999737739562988e-01,2.000000000000000000e+00,2.222097396850585938e+01,-1.522302746772766113e+00,5.635599136352539062e+01,-1.640847167968750000e+02,6.441100311279296875e+01,-1.064245376586914062e+02,8.178340148925781250e+01,1.480063629150390625e+01,5.758331680297851562e+01,1.743885955810546875e+02,3.546571731567382812e+01,5.392152404785156250e+01
8.439999818801879883e-01,2.000000000000000000e+00,2.215514564514160156e+01,-1.489835500717163086e+00,5.632931518554687500e+01,-1.640938873291015625e+02,6.441645812988281250e+01,-1.064055709838867188e+02,8.174938201904296875e+01,1.478017807006835938e+01,5.755552673339843750e+01,1.743965301513671875e+02,3.547957992553710938e+01,5.391328811645507812e+01
8.479999899864196777e-01,2.000000000000000000e+00,2.208934020996093750e+01,-1.457378029823303223e+00,5.630265045166015625e+01,-1.641030426025390625e+02,6.442191314697265625e+01,-1.063866119384765625e+02,8.171537017822265625e+01,1.475972843170166016e+01,5.752774810791015625e+01,1.744044647216796875e+02,3.549343490600585938e+01,5.390505599975585938e+01
8.519999980926513672e-01,2.000000000000000000e+00,2.202355384826660156e+01,-1.424930572509765625e+00,5.627599334716796875e+01,-1.641121978759765625e+02,6.442736053466796875e+01,-1.063676605224609375e+02,8.168137359619140625e+01,1.473928165435791016e+01,5.749996948242187500e+01,1.744123992919921875e+02,3.550728607177734375e+01,5.389682769775390625e+01
8.560000061988830566e-01,2.000000000000000000e+00,2.195778846740722656e+01,-1.392493009567260742e+00,5.624934387207031250e+01,-1.641213531494140625e+02,6.443280792236328125e+01,-1.063487091064453125e+02,8.164738464355468750e+01,1.471884441375732422e+01,5.747220230102539062e+01,1.744203491210937500e+02,3.552113342285156250e+01,5.388860321044921875e+01
8.600000143051147461e-01,2.000000000000000000e+00,2.189204216003417969e+01,-1.360065221786499023e+00,5.622270202636718750e+01,-1.641304931640625000e+02,6.443826293945312500e+01,-1.063297729492187500e+02,8.161340332031250000e+01,1.469841194152832031e+01,5.744445419311523438e+01,1.744282684326171875e+02,3.553497695922851562e+01,5.388037872314453125e+01
8.640000224113464355e-01,2.000000000000000000e+00,2.182631683349609375e+01,-1.327647447586059570e+00,5.619606781005859375e+01,-1.641396484375000000e+02,6.444370269775390625e+01,-1.063108291625976562e+02,8.157943725585937500e+01,1.467798614501953125e+01,5.741670227050781250e+01,1.744362030029296875e+02,3.554881668090820312e+01,5.387215805053710938e+01
8.679999709129333496e-01,2.000000000000000000e+00,2.176061058044433594e+01,-1.295239686965942383e+00,5.616944503784179688e+01,-1.641487884521484375e+02,6.444915008544921875e+01,-1.062919006347656250e+02,8.154547882080078125e+01,1.465756607055664062e+01,5.738896560668945312e+01,1.744441223144531250e+02,3.556265258789062500e+01,5.386393737792968750e+01
8.719999790191650391e-01,2.000000000000000000e+00,2.169492530822753906e+01,-1.262841701507568359e+00,5.614282608032226562e+01,-1.641579284667968750e+02,6.445458984375000000e+01,-1.062729797363281250e+02,8.151153564453125000e+01,1.463715171813964844e+01,5.736122894287109375e+01,1.744520568847656250e+02,3.557648468017578125e+01,5.385572052001953125e+01
8.759999871253967285e-01,2.000000000000000000e+00,2.162925910949707031e+01,-1.230453729629516602e+00,5.611621856689453125e+01,-1.641670684814453125e+02,6.446002960205078125e+01,-1.062540588378906250e+02,8.147760009765625000e+01,1.461674499511718750e+01,5.733351135253906250e+01,1.744599761962890625e+02,3.559030914306640625e+01,5.384750747680664062e+01
8.799999952316284180e-01,2.000000000000000000e+00,2.156361198425292969e+01,-1.198075413703918457e+00,5.608961868286132812e+01,-1.641762084960937500e+02,6.446546173095703125e+01,-1.062351455688476562e+02,8.144367218017578125e+01,1.459634304046630859e+01,5.730579376220703125e+01,1.744678802490234375e+02,3.560413360595703125e+01,5.383929824829101562e+01
8.840000033378601074e-01,2.000000000000000000e+00,2.149798774719238281e+01,-1.165707111358642578e+00,5.606302642822265625e+01,-1.641853485107421875e+02,6.447090148925781250e+01,-1.062162399291992188e+02,8.140975952148437500e+01,1.457594871520996094e+01,5.727808761596679688e+01,1.744757995605468750e+02,3.561795043945312500e+01,5.383108901977539062e+01
8.880000114440917969e-01,2.000000000000000000e+00,2.143238258361816406e+01,-1.133348584175109863e+00,5.603644180297851562e+01,-1.641944732666015625e+02,6.447634124755859375e+01,-1.061973342895507812e+02,8.137585449218750000e+01,1.455556011199951172e+01,5.725038909912109375e+01,1.744837188720703125e+02,3.563176727294921875e+01,5.382287979125976562e+01
8.920000195503234863e-01,2.000000000000000000e+00,2.136679649353027344e+01,-1.100999951362609863e+00,5.600986862182617188e+01,-1.642035980224609375e+02,6.448177337646484375e+01,-1.061784439086914062e+02,8.134194946289062500e+01,1.453517723083496094e+01,5.722270202636718750e+01,1.744916229248046875e+02,3.564557647705078125e+01,5.381467819213867188e+01
8.960000276565551758e-01,2.000000000000000000e+00,2.130123138427734375e+01,-1.068661212921142578e+00,5.598329925537109375e+01,-1.642127227783203125e+02,6.448720550537109375e+01,-1.061595458984375000e+02,8.130806732177734375e+01,1.451480102539062500e+01,5.719502258300781250e+01,1.744995269775390625e+02,3.565937805175781250e+01,5.380648040771484375e+01
8.999999761581420898e-01,2.000000000000000000e+00,2.123568534851074219e+01,-1.036332249641418457e+00,5.595673751831054688e+01,-1.642218475341796875e+02,6.449263763427734375e+01,-1.061406631469726562e+02,8.127419281005859375e+01,1.449442958831787109e+01,5.716734695434570312e+01,1.745074462890625000e+02,3.567318344116210938e+01,5.379827880859375000e+01
9.039999842643737793e-01,2.000000000000000000e+00,2.117016029357910156e+01,-1.004013180732727051e+00,5.593018722534179688e+01,-1.642309570312500000e+02,6.449806213378906250e+01,-1.061217803955078125e+02,8.124032592773437500e+01,1.447406578063964844e+01,5.713968276977539062e+01,1.745153503417968750e+02,3.568698120117187500e+01,5.379008483886718750e+01
9.079999923706054688e-01,2.000000000000000000e+00,2.110465240478515625e+01,-9.717039465904235840e-01,5.590364074707031250e+01,-1.642400817871093750e+02,6.450348663330078125e+01,-1.061029129028320312e+02,8.120647430419921875e+01,1.445370864868164062e+01,5.711202621459960938e+01,1.745232543945312500e+02,3.570077514648437500e+01,5.378189086914062500e+01
9.120000004768371582e-01,2.000000000000000000e+00,2.103916740417480469e+01,-9.394043684005737305e-01,5.587710571289062500e+01,-1.642491912841796875e+02,6.450891876220703125e+01,-1.060840454101562500e+02,8.117262268066406250e+01,1.443335819244384766e+01,5.708438110351562500e+01,1.745311431884765625e+02,3.571456146240234375e+01,5.377369689941406250e+01
9.160000085830688477e-01,2.000000000000000000e+00,2.097370147705078125e+01,-9.071147441864013672e-01,5.585057830810546875e+01,-1.642583007812500000e+02,6.451434326171875000e+01,-1.060651855468750000e+02,8.113879394531250000e+01,1.441301250457763672e+01,5.705674362182617188e+01,1.745390472412109375e+02,3.572834777832031250e+01,5.376551055908203125e+01
9.200000166893005371e-01,2.000000000000000000e+00,2.090825462341308594e+01,-8.748348355293273926e-01,5.582405853271484375e+01,-1.642674102783203125e+02,6.451976776123046875e+01,-1.060463256835937500e+02,8.110497283935546875e+01,1.439267253875732422e+01,5.702911376953125000e+01,1.745469360351562500e+02,3.574212646484375000e+01,5.375732040405273438e+01
9.240000247955322266e-01,2.000000000000000000e+00,2.084282875061035156e+01,-8.425648212432861328e-01,5.579754638671875000e+01,-1.642765197753906250e+02,6.452517700195312500e+01,-1.060274810791015625e+02,8.107115936279296875e+01,1.437233829498291016e+01,5.700149154663085938e+01,1.745548248291015625e+02,3.575590515136718750e+01,5.374913787841796875e+01
9.279999732971191406e-01,2.000000000000000000e+00,2.077742195129394531e+01,-8.103045225143432617e-01,5.577104187011718750e+01,-1.642856140136718750e+02,6.453060150146484375e+01,-1.060086364746093750e+02,8.103735351562500000e+01,1.435201168060302734e+01,5.697387695312500000e+01,1.745627288818359375e+02,3.576967239379882812e+01,5.374095916748046875e+01
9.319999814033508301e-01,2.000000000000000000e+00,2.071203422546386719e+01,-7.780539989471435547e-01,5.574454879760742188e+01,-1.642947235107421875e+02,6.453601837158203125e+01,-1.059897994995117188e+02,8.100356292724609375e+01,1.433169174194335938e+01,5.694627380371093750e+01,1.745706024169921875e+02,3.578344345092773438e+01,5.373278045654296875e+01
9.359999895095825195e-01,2.000000000000000000e+00,2.064666748046875000e+01,-7.458133101463317871e-01,5.571805953979492188e+01,-1.643038024902343750e+02,6.454143524169921875e+01,-1.059709625244140625e+02,8.096977996826171875e+01,1.431137752532958984e+01,5.691867446899414062e+01,1.745784912109375000e+02,3.579720687866210938e+01,5.372460556030273438e+01
9.399999976158142090e-01,2.000000000000000000e+00,2.058131980895996094e+01,-7.135823965072631836e-01,5.569158172607421875e+01,-1.643129119873046875e+02,6.454684448242187500e+01,-1.059521331787109375e+02,8.093600463867187500e+01,1.429106903076171875e+01,5.689108657836914062e+01,1.745863647460937500e+02,3.581096649169921875e+01,5.371643066406250000e+01
9.440000057220458984e-01,2.000000000000000000e+00,2.051599311828613281e+01,-6.813611388206481934e-01,5.566511154174804688e+01,-1.643220062255859375e+02,6.455226135253906250e+01,-1.059333114624023438e+02,8.090224456787109375e+01,1.427076625823974609e+01,5.686350631713867188e+01,1.745942535400390625e+02,3.582472229003906250e+01,5.370825576782226562e+01
9.480000138282775879e-01,2.000000000000000000e+00,2.045068550109863281e+01,-6.491496562957763672e-01,5.563864517211914062e+01,-1.643310852050781250e+02,6.455767059326171875e+01,-1.059144973754882812e+02,8.086849212646484375e+01,1.425047016143798828e+01,5.683593368530273438e+01,1.746021423339843750e+02,3.583847427368164062e+01,5.370008850097656250e+01
9.520000219345092773e-01,2.000000000000000000e+00,2.038539886474609375e+01,-6.169479489326477051e-01,5.561219024658203125e+01,-1.643401794433593750e+02,6.456307983398437500e+01,-1.058956832885742188e+02,8.083474731445312500e+01,1.423017978668212891e+01,5.680837249755859375e+01,1.746100006103515625e+02,3.585221862792968750e+01,5.369192123413085938e+01
9.559999704360961914e-01,2.000000000000000000e+00,2.032012939453125000e+01,-5.847559571266174316e-01,5.558574295043945312e+01,-1.643492584228515625e+02,6.456848144531250000e+01,-1.058768844604492188e+02,8.080102539062500000e+01,1.420989608764648438e+01,5.678081893920898438e+01,1.746178894042968750e+02,3.586596298217773438e+01,5.368376159667968750e+01
9.599999785423278809e-01,2.000000000000000000e+00,2.025488090515136719e+01,-5.525737404823303223e-01,5.555930328369140625e+01,-1.643583374023437500e+02,6.457389068603515625e+01,-1.058580856323242188e+02,8.076729583740234375e+01,1.418961906433105469e+01,5.675327301025390625e+01,1.746257476806640625e+02,3.587969970703125000e+01,5.367559814453125000e+01
9.639999866485595703e-01,2.000000000000000000e+00,2.018965148925781250e+01,-5.204011797904968262e-01,5.553287124633789062e+01,-1.643674163818359375e+02,6.457929229736328125e+01,-1.058392868041992188e+02,8.073358917236328125e+01,1.416934680938720703e+01,5.672573089599609375e+01,1.746336212158203125e+02,3.589343643188476562e+01,5.366743850708007812e+01
9.679999947547912598e-01,2.000000000000000000e+00,2.012444305419921875e+01,-4.882383644580841064e-01,5.550644683837890625e+01,-1.643764953613281250e+02,6.458470153808593750e+01,-1.058205032348632812e+02,8.069989013671875000e+01,1.414908218383789062e+01,5.669820404052734375e+01,1.746414794921875000e+02,3.590716934204101562e+01,5.365928268432617188e+01
9.720000028610229492e-01,2.000000000000000000e+00,2.005925559997558594e+01,-4.560852944850921631e-01,5.548003387451171875e+01,-1.643855590820312500e+02,6.459010314941406250e+01,-1.058017196655273438e+02,8.066619110107421875e+01,1.412882232666015625e+01,5.667068099975585938e+01,1.746493530273437500e+02,3.592089462280273438e+01,5.365113067626953125e+01
9.760000109672546387e-01,2.000000000000000000e+00,1.999408531188964844e+01,-4.239418804645538330e-01,5.545362472534179688e+01,-1.643946380615234375e+02,6.459549713134765625e+01,-1.057829437255859375e+02,8.063251495361328125e+01,1.410856914520263672e+01,5.664316940307617188e+01,1.746571960449218750e+02,3.593461608886718750e+01,5.364297866821289062e+01
9.800000190734863281e-01,2.000000000000000000e+00,1.992893409729003906e+01,-3.918081521987915039e-01,5.542722320556640625e+01,-1.644036865234375000e+02,6.460089111328125000e+01,-1.057641754150390625e+02,8.059883880615234375e+01,1.408832168579101562e+01,5.661566543579101562e+01,1.746650695800781250e+02,3.594833374023437500e+01,5.363483047485351562e+01
9.840000271797180176e-01,2.000000000000000000e+00,1.986380386352539062e+01,-3.596840798854827881e-01,5.540083312988281250e+01,-1.644127655029296875e+02,6.460628509521484375e+01,-1.057454071044921875e+02,8.056518554687500000e+01,1.406808090209960938e+01,5.658816528320312500e+01,1.746729278564453125e+02,3.596204757690429688e+01,5.362668228149414062e+01
9.879999756813049316e-01,2.000000000000000000e+00,1.979869270324707031e+01,-3.275697529315948486e-01,5.537445068359375000e+01,-1.644218139648437500e+02,6.461168670654296875e+01,-1.057266540527343750e+02,8.053153228759765625e+01,1.404784584045410156e+01,5.656067657470703125e+01,1.746807861328125000e+02,3.597575759887695312e+01,5.361853790283203125e+01
9.919999837875366211e-01,2.000000000000000000e+00,1.973360252380371094e+01,-2.954650521278381348e-01,5.534807205200195312e+01,-1.644308776855468750e+02,6.461708068847656250e+01,-1.057078933715820312e+02,8.049789428710937500e+01,1.402761745452880859e+01,5.653319549560546875e+01,1.746886291503906250e+02,3.598946762084960938e+01,5.361039352416992188e+01
9.959999918937683105e-01,2.000000000000000000e+00,1.966853141784667969e+01,-2.633700072765350342e-01,5.532170486450195312e+01,-1.644399414062500000e+02,6.462246704101562500e+01,-1.056891479492187500e+02,8.046426391601562500e+01,1.400739383697509766e+01,5.650572586059570312e+01,1.746964721679687500e+02,3.600316619873046875e+01,5.360225677490234375e+01
1.000000000000000000e+00,2.000000000000000000e+00,1.960347747802734375e+01,-2.312846481800079346e-01,5.529534912109375000e+01,-1.644489898681640625e+02,6.462786102294921875e+01,-1.056704025268554688e+02,8.043064117431640625e+01,1.398717784881591797e+01,5.647826004028320312e+01,1.747043304443359375e+02,3.601686477661132812e+01,5.359412002563476562e+01
1.003999948501586914e+00,2.000000000000000000e+00,1.953844642639160156e+01,-1.992089152336120605e-01,5.526899337768554688e+01,-1.644580383300781250e+02,6.463324737548828125e+01,-1.056516723632812500e+02,8.039704132080078125e+01,1.396696662902832031e+01,5.645080566406250000e+01,1.747121734619140625e+02,3.603055572509765625e+01,5.358598327636718750e+01
1.008000016212463379e+00,2.000000000000000000e+00,1.947343254089355469e+01,-1.671428084373474121e-01,5.524264907836914062e+01,-1.644670867919921875e+02,6.463862609863281250e+01,-1.056329421997070312e+02,8.036343383789062500e+01,1.394676208496093750e+01,5.642335891723632812e+01,1.747200164794921875e+02,3.604424667358398438e+01,5.357785034179687500e+01
1.011999964714050293e+00,2.000000000000000000e+00,1.940843963623046875e+01,-1.350863575935363770e-01,5.521631622314453125e+01,-1.644761352539062500e+02,6.464402008056640625e+01,-1.056142120361328125e+02,8.032984161376953125e+01,1.392656421661376953e+01,5.639591979980468750e+01,1.747278594970703125e+02,3.605792999267578125e+01,5.356972503662109375e+01
1.016000032424926758e+00,2.000000000000000000e+00,1.934346580505371094e+01,-1.030395328998565674e-01,5.518998336791992188e+01,-1.644851837158203125e+02,6.464939880371093750e+01,-1.055954895019531250e+02,8.029626464843750000e+01,1.390637111663818359e+01,5.636848831176757812e+01,1.747356872558593750e+02,3.607161331176757812e+01,5.356159591674804688e+01
1.019999980926513672e+00,2.000000000000000000e+00,1.927851104736328125e+01,-7.100232690572738647e-02,5.516366577148437500e+01,-1.644942169189453125e+02,6.465478515625000000e+01,-1.055767822265625000e+02,8.026269531250000000e+01,1.388618564605712891e+01,5.634106826782226562e+01,1.747435150146484375e+02,3.608528900146484375e+01,5.355347061157226562e+01
1.024000048637390137e+00,2.000000000000000000e+00,1.921357727050781250e+01,-3.897472470998764038e-02,5.513735198974609375e+01,-1.645032501220703125e+02,6.466015625000000000e+01,-1.055580673217773438e+02,8.022914123535156250e+01,1.386600494384765625e+01,5.631365203857421875e+01,1.747513580322265625e+02,3.609896087646484375e+01,5.354534912109375000e+01
1.026999950408935547e+00,2.000000000000000000e+00,1.914866256713867188e+01,-6.956730969250202179e-03,5.511104965209960938e+01,-1.645122833251953125e+02,6.466554260253906250e+01,-1.055393676757812500e+02,8.019558715820312500e+01,1.384583091735839844e+01,5.628624725341796875e+01,1.747591857910156250e+02,3.611263275146484375e+01,5.353722763061523438e+01
1.031999945640563965e+00,2.000000000000000000e+00,1.908376502990722656e+01,2.505166642367839813e-02,5.508475112915039062e+01,-1.645213165283203125e+02,6.467091369628906250e+01,-1.055206756591796875e+02,8.016204833984375000e+01,1.382566261291503906e+01,5.625884628295898438e+01,1.747670135498046875e+02,3.612629318237304688e+01,5.352910995483398438e+01
1.036000013351440430e+00,2.000000000000000000e+00,1.901888847351074219e+01,5.705047771334648132e-02,5.505846405029296875e+01,-1.645303344726562500e+02,6.467629241943359375e+01,-1.055019760131835938e+02,8.012852478027343750e+01,1.380550003051757812e+01,5.623146057128906250e+01,1.747748413085937500e+02,3.613995361328125000e+01,5.352099609375000000e+01
1.039999961853027344e+00,2.000000000000000000e+00,1.895403289794921875e+01,8.903969824314117432e-02,5.503218460083007812e+01,-1.645393676757812500e+02,6.468166351318359375e+01,-1.054832916259765625e+02,8.009500122070312500e+01,1.378534412384033203e+01,5.620407867431640625e+01,1.747826538085937500e+02,3.615361404418945312e+01,5.351288604736328125e+01
1.044000029563903809e+00,2.000000000000000000e+00,1.888919639587402344e+01,1.210193485021591187e-01,5.500590896606445312e+01,-1.645484008789062500e+02,6.468703460693359375e+01,-1.054646072387695312e+02,8.006149291992187500e+01,1.376519489288330078e+01,5.617670440673828125e+01,1.747904815673828125e+02,3.616726684570312500e+01,5.350477600097656250e+01
1.047999978065490723e+00,2.000000000000000000e+00,1.882437705993652344e+01,1.529894173145294189e-01,5.497964096069335938e+01,-1.645574188232421875e+02,6.469240570068359375e+01,-1.054459381103515625e+02,8.002799224853515625e+01,1.374504947662353516e+01,5.614934158325195312e+01,1.747982940673828125e+02,3.618091201782226562e+01,5.349666976928710938e+01
1.052000045776367188e+00,2.000000000000000000e+00,1.875957679748535156e+01,1.849499493837356567e-01,5.495338821411132812e+01,-1.645664367675781250e+02,6.469776916503906250e+01,-1.054272689819335938e+02,7.999449920654296875e+01,1.372491168975830078e+01,5.612198257446289062e+01,1.748061218261718750e+02,3.619455718994140625e+01,5.348855972290039062e+01
1.054999947547912598e+00,2.000000000000000000e+00,1.869479751586914062e+01,2.169009000062942505e-01,5.492713928222656250e+01,-1.645754394531250000e+02,6.470314025878906250e+01,-1.054085998535156250e+02,7.996102905273437500e+01,1.370477962493896484e+01,5.609463500976562500e+01,1.748139343261718750e+02,3.620819473266601562e+01,5.348046112060546875e+01
1.059999942779541016e+00,2.000000000000000000e+00,1.863003730773925781e+01,2.488423436880111694e-01,5.490089797973632812e+01,-1.645844573974609375e+02,6.470851135253906250e+01,-1.053899536132812500e+02,7.992755889892578125e+01,1.368465423583984375e+01,5.606729125976562500e+01,1.748217468261718750e+02,3.622183227539062500e+01,5.347235870361328125e+01
1.064000010490417480e+00,2.000000000000000000e+00,1.856529808044433594e+01,2.807742059230804443e-01,5.487466430664062500e+01,-1.645934600830078125e+02,6.471387481689453125e+01,-1.053712997436523438e+02,7.989409637451171875e+01,1.366453361511230469e+01,5.603996276855468750e+01,1.748295593261718750e+02,3.623546600341796875e+01,5.346426391601562500e+01
1.067999958992004395e+00,2.000000000000000000e+00,1.850057601928710938e+01,3.126965463161468506e-01,5.484843444824218750e+01,-1.646024780273437500e+02,6.471923065185546875e+01,-1.053526535034179688e+02,7.986064910888671875e+01,1.364442062377929688e+01,5.601263809204101562e+01,1.748373718261718750e+02,3.624909591674804688e+01,5.345616531372070312e+01
1.072000026702880859e+00,2.000000000000000000e+00,1.843587493896484375e+01,3.446093499660491943e-01,5.482221603393554688e+01,-1.646114807128906250e+02,6.472459411621093750e+01,-1.053340072631835938e+02,7.982720947265625000e+01,1.362431240081787109e+01,5.598532104492187500e+01,1.748451690673828125e+02,3.626271820068359375e+01,5.344807052612304688e+01
1.075999975204467773e+00,2.000000000000000000e+00,1.837119102478027344e+01,3.765126764774322510e-01,5.479600524902343750e+01,-1.646204833984375000e+02,6.472994995117187500e+01,-1.053153686523437500e+02,7.979378509521484375e+01,1.360421085357666016e+01,5.595801162719726562e+01,1.748529663085937500e+02,3.627633666992187500e+01,5.343997955322265625e+01
1.080000042915344238e+00,2.000000000000000000e+00,1.830652809143066406e+01,4.084064364433288574e-01,5.476980590820312500e+01,-1.646294860839843750e+02,6.473531341552734375e+01,-1.052967376708984375e+02,7.976036071777343750e+01,1.358411407470703125e+01,5.593071365356445312e+01,1.748607635498046875e+02,3.628995132446289062e+01,5.343189620971679688e+01
1.083999991416931152e+00,2.000000000000000000e+00,1.824188423156738281e+01,4.402907192707061768e-01,5.474361038208007812e+01,-1.646384735107421875e+02,6.474066925048828125e+01,-1.052781143188476562e+02,7.972695159912109375e+01,1.356402397155761719e+01,5.590342330932617188e+01,1.748685607910156250e+02,3.630356597900390625e+01,5.342380905151367188e+01
1.088000059127807617e+00,2.000000000000000000e+00,1.817725753784179688e+01,4.721654951572418213e-01,5.471742630004882812e+01,-1.646474609375000000e+02,6.474601745605468750e+01,-1.052594909667968750e+02,7.969355773925781250e+01,1.354393959045410156e+01,5.587614059448242188e+01,1.748763732910156250e+02,3.631717300415039062e+01,5.341572570800781250e+01
1.090999960899353027e+00,2.000000000000000000e+00,1.811265182495117188e+01,5.040308237075805664e-01,5.469124603271484375e+01,-1.646564636230468750e+02,6.475136566162109375e+01,-1.052408828735351562e+02,7.966016387939453125e+01,1.352386283874511719e+01,5.584886169433593750e+01,1.748841552734375000e+02,3.633077239990234375e+01,5.340764236450195312e+01
1.095999956130981445e+00,2.000000000000000000e+00,1.804806709289550781e+01,5.358866453170776367e-01,5.466506958007812500e+01,-1.646654510498046875e+02,6.475672149658203125e+01,-1.052222747802734375e+02,7.962678527832031250e+01,1.350379085540771484e+01,5.582159805297851562e+01,1.748919372558593750e+02,3.634437561035156250e+01,5.339956283569335938e+01
1.100000023841857910e+00,2.000000000000000000e+00,1.798349952697753906e+01,5.677329897880554199e-01,5.463890838623046875e+01,-1.646744232177734375e+02,6.476206970214843750e+01,-1.052036666870117188e+02,7.959341430664062500e+01,1.348372459411621094e+01,5.579433822631835938e+01,1.748997344970703125e+02,3.635797119140625000e+01,5.339148712158203125e+01
1.103999972343444824e+00,2.000000000000000000e+00,1.791895103454589844e+01,5.995697975158691406e-01,5.461275100708007812e+01,-1.646834106445312500e+02,6.476741790771484375e+01,-1.051850738525390625e+02,7.956005096435546875e+01,1.346366405487060547e+01,5.576708602905273438e+01,1.749075317382812500e+02,3.637155914306640625e+01,5.338341522216796875e+01
1.108000040054321289e+00,2.000000000000000000e+00,1.785442161560058594e+01,6.313971877098083496e-01,5.458660507202148438e+01,-1.646923980712890625e+02,6.477275848388671875e+01,-1.051664810180664062e+02,7.952671051025390625e+01,1.344360923767089844e+01,5.573984146118164062e+01,1.749152984619140625e+02,3.638514709472656250e+01,5.337534332275390625e+01
1.111999988555908203e+00,2.000000000000000000e+00,1.778991317749023438e+01,6.632151007652282715e-01,5.456046676635742188e+01,-1.647013854980468750e+02,6.477810668945312500e+01,-1.051478958129882812e+02,7.949336242675781250e+01,1.342356204986572266e+01,5.571260833740234375e+01,1.749230804443359375e+02,3.639873504638671875e+01,5.336727523803710938e+01
1.116000056266784668e+00,2.000000000000000000e+00,1.772542190551757812e+01,6.950235366821289062e-01,5.453433609008789062e+01,-1.647103576660156250e+02,6.478344726562500000e+01,-1.051293182373046875e+02,7.946003723144531250e+01,1.340351963043212891e+01,5.568538284301757812e+01,1.749308776855468750e+02,3.641231155395507812e+01,5.335920715332031250e+01
1.118999958038330078e+00,2.000000000000000000e+00,1.766094970703125000e+01,7.268223762512207031e-01,5.450820922851562500e+01,-1.647193145751953125e+02,6.478878784179687500e+01,-1.051107406616210938e+02,7.942671203613281250e+01,1.338348388671875000e+01,5.565816116333007812e+01,1.749386444091796875e+02,3.642588806152343750e+01,5.335114288330078125e+01
1.123999953269958496e+00,2.000000000000000000e+00,1.759649658203125000e+01,7.586119174957275391e-01,5.448208999633789062e+01,-1.647282867431640625e+02,6.479413604736328125e+01,-1.050921707153320312e+02,7.939340972900390625e+01,1.336345291137695312e+01,5.563095092773437500e+01,1.749464111328125000e+02,3.643946075439453125e+01,5.334308242797851562e+01
