rpiRobotics/ARM-21-02-F-19-Robot-Motion-Program/data_performance_abb/curve_1/dual_arm/diffevo_pose1/grad_result/sim/dual_iteration_3.csv
timestamp,cmd_num,J1,J2,J3,J4,J5,J6,J1_2,J2_2,J3_2,J4_2,J5_2,J6_2
0.000000000000000000e+00,-1.000000000000000000e+00,3.409956741333007812e+01,-6.903970241546630859e+00,6.120151519775390625e+01,-1.624068908691406250e+02,6.438114166259765625e+01,-1.095061874389648438e+02,8.761788177490234375e+01,1.837325096130371094e+01,6.251646804809570312e+01,1.725588226318359375e+02,3.278830718994140625e+01,5.553309631347656250e+01
2.000000094994902611e-03,-1.000000000000000000e+00,3.409956741333007812e+01,-6.903970241546630859e+00,6.120151519775390625e+01,-1.624068908691406250e+02,6.438114166259765625e+01,-1.095061874389648438e+02,8.761788177490234375e+01,1.837325096130371094e+01,6.251646804809570312e+01,1.725588226318359375e+02,3.278830718994140625e+01,5.553309631347656250e+01
4.000000189989805222e-03,-1.000000000000000000e+00,3.409956741333007812e+01,-6.903970241546630859e+00,6.120151519775390625e+01,-1.624068908691406250e+02,6.438114166259765625e+01,-1.095061874389648438e+02,8.761788177490234375e+01,1.837325096130371094e+01,6.251646804809570312e+01,1.725588226318359375e+02,3.278830718994140625e+01,5.553309631347656250e+01
9.999999776482582092e-03,-1.000000000000000000e+00,3.409956741333007812e+01,-6.903970241546630859e+00,6.120151519775390625e+01,-1.624068908691406250e+02,6.438114166259765625e+01,-1.095061874389648438e+02,8.761788177490234375e+01,1.837325096130371094e+01,6.251646804809570312e+01,1.725588226318359375e+02,3.278830718994140625e+01,5.553309631347656250e+01
1.200000010430812836e-02,-1.000000000000000000e+00,3.409956741333007812e+01,-6.903970241546630859e+00,6.120151519775390625e+01,-1.624068908691406250e+02,6.438114166259765625e+01,-1.095061874389648438e+02,8.761788177490234375e+01,1.837325096130371094e+01,6.251646804809570312e+01,1.725588226318359375e+02,3.278830718994140625e+01,5.553309631347656250e+01
1.600000075995922089e-02,-1.000000000000000000e+00,3.409956741333007812e+01,-6.903970241546630859e+00,6.120151519775390625e+01,-1.624068908691406250e+02,6.438114166259765625e+01,-1.095061874389648438e+02,8.761788177490234375e+01,1.837325096130371094e+01,6.251646804809570312e+01,1.725588226318359375e+02,3.278830718994140625e+01,5.553309631347656250e+01
1.999999955296516418e-02,-1.000000000000000000e+00,3.409956741333007812e+01,-6.903970241546630859e+00,6.120151519775390625e+01,-1.624068908691406250e+02,6.438114166259765625e+01,-1.095061874389648438e+02,8.761788177490234375e+01,1.837325096130371094e+01,6.251646804809570312e+01,1.725588226318359375e+02,3.278830718994140625e+01,5.553309631347656250e+01
2.400000020861625671e-02,-1.000000000000000000e+00,3.409956741333007812e+01,-6.903970241546630859e+00,6.120151519775390625e+01,-1.624068908691406250e+02,6.438114166259765625e+01,-1.095061874389648438e+02,8.761788177490234375e+01,1.837325096130371094e+01,6.251646804809570312e+01,1.725588226318359375e+02,3.278830718994140625e+01,5.553309631347656250e+01
2.899999916553497314e-02,2.000000000000000000e+00,3.409956741333007812e+01,-6.903970241546630859e+00,6.120151519775390625e+01,-1.624068908691406250e+02,6.438114166259765625e+01,-1.095061874389648438e+02,8.761788177490234375e+01,1.837325096130371094e+01,6.251646804809570312e+01,1.725588226318359375e+02,3.278830718994140625e+01,5.553309631347656250e+01
3.400000184774398804e-02,2.000000000000000000e+00,3.409956741333007812e+01,-6.903970241546630859e+00,6.120151519775390625e+01,-1.624068908691406250e+02,6.438114166259765625e+01,-1.095061874389648438e+02,8.761788177490234375e+01,1.837325096130371094e+01,6.251646804809570312e+01,1.725588226318359375e+02,3.278830718994140625e+01,5.553309631347656250e+01
3.799999877810478210e-02,2.000000000000000000e+00,3.409956741333007812e+01,-6.903970241546630859e+00,6.120151519775390625e+01,-1.624068908691406250e+02,6.438114166259765625e+01,-1.095061874389648438e+02,8.761788177490234375e+01,1.837325096130371094e+01,6.251646804809570312e+01,1.725588226318359375e+02,3.278830718994140625e+01,5.553309631347656250e+01
3.999999910593032837e-02,2.000000000000000000e+00,3.409956741333007812e+01,-6.903970241546630859e+00,6.120151519775390625e+01,-1.624068908691406250e+02,6.438114166259765625e+01,-1.095061874389648438e+02,8.761788177490234375e+01,1.837325096130371094e+01,6.251646804809570312e+01,1.725588226318359375e+02,3.278830718994140625e+01,5.553309631347656250e+01
4.399999976158142090e-02,2.000000000000000000e+00,3.409956741333007812e+01,-6.903970241546630859e+00,6.120151519775390625e+01,-1.624068908691406250e+02,6.438114166259765625e+01,-1.095061874389648438e+02,8.761788177490234375e+01,1.837325096130371094e+01,6.251646804809570312e+01,1.725588226318359375e+02,3.278830718994140625e+01,5.553309631347656250e+01
4.800000041723251343e-02,2.000000000000000000e+00,3.409956741333007812e+01,-6.903970241546630859e+00,6.120151519775390625e+01,-1.624068908691406250e+02,6.438114166259765625e+01,-1.095061874389648438e+02,8.761788177490234375e+01,1.837325096130371094e+01,6.251646804809570312e+01,1.725588226318359375e+02,3.278830718994140625e+01,5.553309631347656250e+01
5.200000107288360596e-02,2.000000000000000000e+00,3.409956741333007812e+01,-6.903970241546630859e+00,6.120151519775390625e+01,-1.624068908691406250e+02,6.438114166259765625e+01,-1.095061874389648438e+02,8.761788177490234375e+01,1.837325096130371094e+01,6.251646804809570312e+01,1.725588226318359375e+02,3.278830718994140625e+01,5.553309631347656250e+01
5.600000172853469849e-02,2.000000000000000000e+00,3.409956741333007812e+01,-6.903970241546630859e+00,6.120151519775390625e+01,-1.624068908691406250e+02,6.438114166259765625e+01,-1.095061874389648438e+02,8.761788177490234375e+01,1.837325096130371094e+01,6.251646804809570312e+01,1.725588226318359375e+02,3.278830718994140625e+01,5.553309631347656250e+01
5.999999865889549255e-02,2.000000000000000000e+00,3.409956741333007812e+01,-6.903970241546630859e+00,6.120151519775390625e+01,-1.624068908691406250e+02,6.438114166259765625e+01,-1.095061874389648438e+02,8.761788177490234375e+01,1.837325096130371094e+01,6.251646804809570312e+01,1.725588226318359375e+02,3.278830718994140625e+01,5.553309631347656250e+01
6.400000303983688354e-02,2.000000000000000000e+00,3.409956741333007812e+01,-6.903970241546630859e+00,6.120151519775390625e+01,-1.624068908691406250e+02,6.438114166259765625e+01,-1.095061874389648438e+02,8.761788177490234375e+01,1.837325096130371094e+01,6.251646804809570312e+01,1.725588226318359375e+02,3.278830718994140625e+01,5.553309631347656250e+01
6.800000369548797607e-02,2.000000000000000000e+00,3.409949874877929688e+01,-6.903951168060302734e+00,6.120149993896484375e+01,-1.624068908691406250e+02,6.438114166259765625e+01,-1.095061874389648438e+02,8.761788177490234375e+01,1.837325096130371094e+01,6.251646804809570312e+01,1.725588226318359375e+02,3.278830718994140625e+01,5.553309631347656250e+01
7.199999690055847168e-02,2.000000000000000000e+00,3.409912490844726562e+01,-6.903832912445068359e+00,6.120144653320312500e+01,-1.624068908691406250e+02,6.438114166259765625e+01,-1.095061798095703125e+02,8.761788177490234375e+01,1.837325096130371094e+01,6.251646804809570312e+01,1.725588226318359375e+02,3.278830718994140625e+01,5.553309631347656250e+01
7.599999755620956421e-02,2.000000000000000000e+00,3.409805679321289062e+01,-6.903465747833251953e+00,6.120126724243164062e+01,-1.624068756103515625e+02,6.438114929199218750e+01,-1.095061721801757812e+02,8.761788177490234375e+01,1.837325096130371094e+01,6.251646804809570312e+01,1.725588226318359375e+02,3.278830718994140625e+01,5.553309631347656250e+01
7.999999821186065674e-02,2.000000000000000000e+00,3.409594345092773438e+01,-6.902676105499267578e+00,6.120087814331054688e+01,-1.624068450927734375e+02,6.438116455078125000e+01,-1.095061264038085938e+02,8.761786651611328125e+01,1.837324714660644531e+01,6.251646804809570312e+01,1.725588226318359375e+02,3.278831100463867188e+01,5.553309631347656250e+01
8.399999886751174927e-02,2.000000000000000000e+00,3.409255981445312500e+01,-6.901315212249755859e+00,6.120018386840820312e+01,-1.624068298339843750e+02,6.438119506835937500e+01,-1.095060272216796875e+02,8.761779022216796875e+01,1.837321662902832031e+01,6.251644134521484375e+01,1.725588378906250000e+02,3.278831863403320312e+01,5.553309631347656250e+01
8.799999952316284180e-02,2.000000000000000000e+00,3.408773803710937500e+01,-6.899261474609375000e+00,6.119908905029296875e+01,-1.624068450927734375e+02,6.438125610351562500e+01,-1.095057983398437500e+02,8.761754608154296875e+01,1.837311172485351562e+01,6.251633834838867188e+01,1.725588531494140625e+02,3.278836059570312500e+01,5.553308486938476562e+01
9.200000017881393433e-02,2.000000000000000000e+00,3.408132553100585938e+01,-6.896392345428466797e+00,6.119748306274414062e+01,-1.624069366455078125e+02,6.438136291503906250e+01,-1.095053787231445312e+02,8.761696624755859375e+01,1.837285804748535156e+01,6.251607894897460938e+01,1.725589141845703125e+02,3.278846740722656250e+01,5.553305053710937500e+01
9.600000083446502686e-02,2.000000000000000000e+00,3.407321166992187500e+01,-6.892608165740966797e+00,6.119525909423828125e+01,-1.624071655273437500e+02,6.438153839111328125e+01,-1.095046463012695312e+02,8.761586761474609375e+01,1.837235260009765625e+01,6.251554107666015625e+01,1.725590362548828125e+02,3.278870773315429688e+01,5.553295898437500000e+01
1.000000014901161194e-01,2.000000000000000000e+00,3.406335067749023438e+01,-6.887839317321777344e+00,6.119229888916015625e+01,-1.624075775146484375e+02,6.438179779052734375e+01,-1.095034942626953125e+02,8.761401367187500000e+01,1.837146377563476562e+01,6.251453781127929688e+01,1.725592803955078125e+02,3.278916549682617188e+01,5.553275680541992188e+01
1.040000021457672119e-01,2.000000000000000000e+00,3.405156326293945312e+01,-6.881998538970947266e+00,6.118848419189453125e+01,-1.624082489013671875e+02,6.438218688964843750e+01,-1.095017852783203125e+02,8.761115264892578125e+01,1.837002182006835938e+01,6.251283645629882812e+01,1.725597229003906250e+02,3.278995895385742188e+01,5.553237152099609375e+01
1.080000028014183044e-01,2.000000000000000000e+00,3.403746795654296875e+01,-6.874932289123535156e+00,6.118363952636718750e+01,-1.624092864990234375e+02,6.438271331787109375e+01,-1.094993820190429688e+02,8.760699462890625000e+01,1.836783981323242188e+01,6.251016616821289062e+01,1.725604553222656250e+02,3.279124069213867188e+01,5.553171157836914062e+01
1.120000034570693970e-01,2.000000000000000000e+00,3.402052307128906250e+01,-6.866428375244140625e+00,6.117758178710937500e+01,-1.624107360839843750e+02,6.438342285156250000e+01,-1.094961471557617188e+02,8.760129547119140625e+01,1.836473464965820312e+01,6.250623703002929688e+01,1.725615692138671875e+02,3.279316329956054688e+01,5.553067398071289062e+01
1.159999966621398926e-01,2.000000000000000000e+00,3.400028610229492188e+01,-6.856312751770019531e+00,6.117014312744140625e+01,-1.624126739501953125e+02,6.438434600830078125e+01,-1.094919204711914062e+02,8.759383392333984375e+01,1.836052322387695312e+01,6.250076675415039062e+01,1.725631713867187500e+02,3.279587936401367188e+01,5.552915191650390625e+01
1.199999973177909851e-01,2.000000000000000000e+00,3.397656631469726562e+01,-6.844541072845458984e+00,6.116120147705078125e+01,-1.624151916503906250e+02,6.438549804687500000e+01,-1.094865951538085938e+02,8.758432006835937500e+01,1.835502433776855469e+01,6.249348449707031250e+01,1.725653533935546875e+02,3.279953002929687500e+01,5.552705001831054688e+01
1.239999979734420776e-01,2.000000000000000000e+00,3.394940948486328125e+01,-6.831192493438720703e+00,6.115072631835937500e+01,-1.624183654785156250e+02,6.438690948486328125e+01,-1.094800262451171875e+02,8.757250976562500000e+01,1.834806442260742188e+01,6.248416137695312500e+01,1.725681915283203125e+02,3.280425643920898438e+01,5.552429962158203125e+01
1.280000060796737671e-01,2.000000000000000000e+00,3.391892242431640625e+01,-6.816360950469970703e+00,6.113869094848632812e+01,-1.624222412109375000e+02,6.438859558105468750e+01,-1.094721298217773438e+02,8.755818939208984375e+01,1.833951950073242188e+01,6.247260665893554688e+01,1.725717315673828125e+02,3.281013488769531250e+01,5.552083206176757812e+01
1.309999972581863403e-01,2.000000000000000000e+00,3.388510513305664062e+01,-6.800082206726074219e+00,6.112507629394531250e+01,-1.624268646240234375e+02,6.439057159423828125e+01,-1.094628372192382812e+02,8.754125976562500000e+01,1.832932090759277344e+01,6.245872116088867188e+01,1.725760192871093750e+02,3.281722259521484375e+01,5.551662445068359375e+01
1.360000073909759521e-01,2.000000000000000000e+00,3.384796905517578125e+01,-6.782357215881347656e+00,6.110987472534179688e+01,-1.624322509765625000e+02,6.439282989501953125e+01,-1.094521408081054688e+02,8.752169036865234375e+01,1.831745529174804688e+01,6.244249343872070312e+01,1.725810394287109375e+02,3.282553100585937500e+01,5.551166152954101562e+01
1.389999985694885254e-01,2.000000000000000000e+00,3.380751800537109375e+01,-6.763178348541259766e+00,6.109309768676757812e+01,-1.624383697509765625e+02,6.439538574218750000e+01,-1.094400711059570312e+02,8.749954986572265625e+01,1.830395698547363281e+01,6.242395401000976562e+01,1.725868072509765625e+02,3.283503341674804688e+01,5.550597000122070312e+01
1.439999938011169434e-01,2.000000000000000000e+00,3.376370239257812500e+01,-6.742480754852294922e+00,6.107477188110351562e+01,-1.624451904296875000e+02,6.439820861816406250e+01,-1.094267044067382812e+02,8.747496032714843750e+01,1.828891563415527344e+01,6.240325164794921875e+01,1.725932617187500000e+02,3.284566497802734375e+01,5.549958038330078125e+01
1.480000019073486328e-01,2.000000000000000000e+00,3.371643066406250000e+01,-6.720163345336914062e+00,6.105491256713867188e+01,-1.624526367187500000e+02,6.440127563476562500e+01,-1.094121398925781250e+02,8.744817352294921875e+01,1.827247619628906250e+01,6.238057708740234375e+01,1.726003265380859375e+02,3.285732650756835938e+01,5.549256134033203125e+01
1.519999951124191284e-01,2.000000000000000000e+00,3.366573333740234375e+01,-6.696187496185302734e+00,6.103358840942382812e+01,-1.624606170654296875e+02,6.440457153320312500e+01,-1.093965148925781250e+02,8.741945648193359375e+01,1.825482177734375000e+01,6.235617828369140625e+01,1.726079711914062500e+02,3.286987304687500000e+01,5.548499298095703125e+01
1.560000032186508179e-01,2.000000000000000000e+00,3.361190414428710938e+01,-6.670655727386474609e+00,6.101093292236328125e+01,-1.624690551757812500e+02,6.440806579589843750e+01,-1.093799591064453125e+02,8.738908386230468750e+01,1.823613929748535156e+01,6.233036041259765625e+01,1.726160430908203125e+02,3.288315963745117188e+01,5.547697830200195312e+01
1.599999964237213135e-01,2.000000000000000000e+00,3.355545806884765625e+01,-6.643772125244140625e+00,6.098714065551757812e+01,-1.624778900146484375e+02,6.441172027587890625e+01,-1.093626251220703125e+02,8.735727691650390625e+01,1.821660995483398438e+01,6.230339431762695312e+01,1.726244506835937500e+02,3.289702606201171875e+01,5.546862411499023438e+01
1.640000045299530029e-01,2.000000000000000000e+00,3.349689483642578125e+01,-6.615732669830322266e+00,6.096239471435546875e+01,-1.624870452880859375e+02,6.441551208496093750e+01,-1.093446426391601562e+02,8.732429504394531250e+01,1.819642066955566406e+01,6.227557373046875000e+01,1.726331329345703125e+02,3.291131973266601562e+01,5.546003341674804688e+01
1.679999977350234985e-01,2.000000000000000000e+00,3.343650436401367188e+01,-6.586660861968994141e+00,6.093683624267578125e+01,-1.624964599609375000e+02,6.441941833496093750e+01,-1.093261642456054688e+02,8.729041290283203125e+01,1.817575073242187500e+01,6.224715423583984375e+01,1.726419677734375000e+02,3.292589950561523438e+01,5.545129013061523438e+01
1.720000058412551880e-01,2.000000000000000000e+00,3.337438964843750000e+01,-6.556628227233886719e+00,6.091059112548828125e+01,-1.625060272216796875e+02,6.442340087890625000e+01,-1.093073043823242188e+02,8.725587463378906250e+01,1.815475273132324219e+01,6.221835327148437500e+01,1.726509094238281250e+02,3.294066238403320312e+01,5.544245910644531250e+01
1.759999990463256836e-01,2.000000000000000000e+00,3.331061172485351562e+01,-6.525712490081787109e+00,6.088376617431640625e+01,-1.625156860351562500e+02,6.442744445800781250e+01,-1.092881851196289062e+02,8.722089385986328125e+01,1.813354873657226562e+01,6.218931579589843750e+01,1.726598968505859375e+02,3.295552444458007812e+01,5.543358993530273438e+01
1.800000071525573730e-01,2.000000000000000000e+00,3.324530792236328125e+01,-6.494028568267822266e+00,6.085647964477539062e+01,-1.625254211425781250e+02,6.443153381347656250e+01,-1.092689056396484375e+02,8.718564605712890625e+01,1.811222457885742188e+01,6.216016769409179688e+01,1.726689147949218750e+02,3.297042846679687500e+01,5.542470932006835938e+01
1.840000003576278687e-01,2.000000000000000000e+00,3.317865371704101562e+01,-6.461698532104492188e+00,6.082883071899414062e+01,-1.625351715087890625e+02,6.443563842773437500e+01,-1.092495346069335938e+02,8.715026092529296875e+01,1.809084892272949219e+01,6.213096618652343750e+01,1.726779479980468750e+02,3.298535537719726562e+01,5.541582489013671875e+01
1.879999935626983643e-01,2.000000000000000000e+00,3.311082077026367188e+01,-6.428853034973144531e+00,6.080091857910156250e+01,-1.625449066162109375e+02,6.443975830078125000e+01,-1.092301177978515625e+02,8.711485290527343750e+01,1.806946372985839844e+01,6.210176086425781250e+01,1.726869659423828125e+02,3.300028228759765625e+01,5.540694046020507812e+01
1.920000016689300537e-01,2.000000000000000000e+00,3.304209136962890625e+01,-6.395656108856201172e+00,6.077283096313476562e+01,-1.625546417236328125e+02,6.444387054443359375e+01,-1.092106857299804688e+02,8.707945251464843750e+01,1.804808425903320312e+01,6.207256317138671875e+01,1.726959838867187500e+02,3.301520156860351562e+01,5.539805984497070312e+01
1.959999948740005493e-01,2.000000000000000000e+00,3.297286224365234375e+01,-6.362283229827880859e+00,6.074466323852539062e+01,-1.625643463134765625e+02,6.444799804687500000e+01,-1.091912612915039062e+02,8.704405212402343750e+01,1.802671051025390625e+01,6.204337692260742188e+01,1.727050018310546875e+02,3.303012084960937500e+01,5.538918304443359375e+01
2.000000029802322388e-01,2.000000000000000000e+00,3.290346908569335938e+01,-6.328861713409423828e+00,6.071648406982421875e+01,-1.625740661621093750e+02,6.445212554931640625e+01,-1.091718368530273438e+02,8.700867462158203125e+01,1.800534439086914062e+01,6.201419830322265625e+01,1.727140045166015625e+02,3.304502868652343750e+01,5.538031005859375000e+01
2.039999961853027344e-01,2.000000000000000000e+00,3.283407211303710938e+01,-6.295444011688232422e+00,6.068830108642578125e+01,-1.625837554931640625e+02,6.445624542236328125e+01,-1.091524276733398438e+02,8.697329711914062500e+01,1.798398399353027344e+01,6.198503112792968750e+01,1.727230224609375000e+02,3.305993652343750000e+01,5.537143707275390625e+01
2.080000042915344238e-01,2.000000000000000000e+00,3.276470184326171875e+01,-6.262036800384521484e+00,6.066013336181640625e+01,-1.625934753417968750e+02,6.446036529541015625e+01,-1.091330184936523438e+02,8.693795013427734375e+01,1.796263122558593750e+01,6.195587539672851562e+01,1.727320251464843750e+02,3.307483673095703125e+01,5.536256790161132812e+01
2.119999974966049194e-01,2.000000000000000000e+00,3.269535064697265625e+01,-6.228640079498291016e+00,6.063197326660156250e+01,-1.626031799316406250e+02,6.446447753906250000e+01,-1.091136093139648438e+02,8.690260314941406250e+01,1.794128608703613281e+01,6.192672348022460938e+01,1.727410278320312500e+02,3.308973312377929688e+01,5.535370254516601562e+01
2.160000056028366089e-01,2.000000000000000000e+00,3.262602615356445312e+01,-6.195253849029541016e+00,6.060381698608398438e+01,-1.626128692626953125e+02,6.446859741210937500e+01,-1.090942230224609375e+02,8.686727142333984375e+01,1.791994857788085938e+01,6.189758682250976562e+01,1.727500305175781250e+02,3.310462570190429688e+01,5.534483718872070312e+01
2.199999988079071045e-01,2.000000000000000000e+00,3.255672073364257812e+01,-6.161879062652587891e+00,6.057567977905273438e+01,-1.626225585937500000e+02,6.447271728515625000e+01,-1.090748291015625000e+02,8.683193969726562500e+01,1.789861869812011719e+01,6.186846160888671875e+01,1.727590332031250000e+02,3.311951065063476562e+01,5.533597946166992188e+01
2.240000069141387939e-01,2.000000000000000000e+00,3.248744201660156250e+01,-6.128514766693115234e+00,6.054754638671875000e+01,-1.626322631835937500e+02,6.447682952880859375e+01,-1.090554504394531250e+02,8.679663848876953125e+01,1.787729644775390625e+01,6.183934402465820312e+01,1.727680206298828125e+02,3.313439178466796875e+01,5.532712554931640625e+01
2.280000001192092896e-01,2.000000000000000000e+00,3.241818618774414062e+01,-6.095162868499755859e+00,6.051942443847656250e+01,-1.626419372558593750e+02,6.448094177246093750e+01,-1.090360794067382812e+02,8.676133728027343750e+01,1.785598182678222656e+01,6.181023406982421875e+01,1.727770080566406250e+02,3.314926910400390625e+01,5.531827163696289062e+01
2.319999933242797852e-01,2.000000000000000000e+00,3.234894943237304688e+01,-6.061821460723876953e+00,6.049131011962890625e+01,-1.626516265869140625e+02,6.448505401611328125e+01,-1.090167083740234375e+02,8.672605133056640625e+01,1.783467292785644531e+01,6.178113937377929688e+01,1.727859954833984375e+02,3.316413879394531250e+01,5.530942153930664062e+01
2.360000014305114746e-01,2.000000000000000000e+00,3.227974319458007812e+01,-6.028491973876953125e+00,6.046320343017578125e+01,-1.626613006591796875e+02,6.448916625976562500e+01,-1.089973449707031250e+02,8.669078063964843750e+01,1.781337165832519531e+01,6.175204849243164062e+01,1.727949981689453125e+02,3.317900466918945312e+01,5.530057144165039062e+01
2.399999946355819702e-01,2.000000000000000000e+00,3.221055603027343750e+01,-5.995173454284667969e+00,6.043511199951171875e+01,-1.626709899902343750e+02,6.449327850341796875e+01,-1.089779891967773438e+02,8.665551757812500000e+01,1.779207801818847656e+01,6.172297286987304688e+01,1.728039855957031250e+02,3.319386672973632812e+01,5.529173278808593750e+01
2.440000027418136597e-01,2.000000000000000000e+00,3.214139556884765625e+01,-5.961865901947021484e+00,6.040702819824218750e+01,-1.626806488037109375e+02,6.449738311767578125e+01,-1.089586410522460938e+02,8.662026977539062500e+01,1.777079010009765625e+01,6.169390106201171875e+01,1.728129577636718750e+02,3.320872116088867188e+01,5.528289031982421875e+01
2.479999959468841553e-01,2.000000000000000000e+00,3.207225418090820312e+01,-5.928570270538330078e+00,6.037895584106445312e+01,-1.626903228759765625e+02,6.450148773193359375e+01,-1.089393005371093750e+02,8.658502960205078125e+01,1.774950981140136719e+01,6.166484069824218750e+01,1.728219299316406250e+02,3.322357177734375000e+01,5.527405166625976562e+01
2.520000040531158447e-01,2.000000000000000000e+00,3.200313949584960938e+01,-5.895285129547119141e+00,6.035089111328125000e+01,-1.626999969482421875e+02,6.450559234619140625e+01,-1.089199600219726562e+02,8.654981231689453125e+01,1.772823905944824219e+01,6.163579177856445312e+01,1.728309020996093750e+02,3.323841476440429688e+01,5.526521682739257812e+01
2.560000121593475342e-01,2.000000000000000000e+00,3.193404769897460938e+01,-5.862011909484863281e+00,6.032283020019531250e+01,-1.627096557617187500e+02,6.450969696044921875e+01,-1.089006347656250000e+02,8.651459503173828125e+01,1.770697402954101562e+01,6.160675811767578125e+01,1.728398742675781250e+02,3.325325775146484375e+01,5.525638580322265625e+01
2.599999904632568359e-01,2.000000000000000000e+00,3.186497688293457031e+01,-5.828749656677246094e+00,6.029478836059570312e+01,-1.627193145751953125e+02,6.451379394531250000e+01,-1.088813095092773438e+02,8.647939300537109375e+01,1.768571662902832031e+01,6.157772827148437500e+01,1.728488464355468750e+02,3.326809310913085938e+01,5.524755477905273438e+01
2.639999985694885254e-01,2.000000000000000000e+00,3.179593086242675781e+01,-5.795499324798583984e+00,6.026675033569335938e+01,-1.627289733886718750e+02,6.451789855957031250e+01,-1.088619918823242188e+02,8.644419860839843750e+01,1.766446685791015625e+01,6.154870605468750000e+01,1.728578033447265625e+02,3.328292083740234375e+01,5.523872756958007812e+01
2.680000066757202148e-01,2.000000000000000000e+00,3.172690773010253906e+01,-5.762259483337402344e+00,6.023872375488281250e+01,-1.627386322021484375e+02,6.452199554443359375e+01,-1.088426818847656250e+02,8.640902709960937500e+01,1.764322280883789062e+01,6.151969909667968750e+01,1.728667602539062500e+02,3.329774475097656250e+01,5.522990417480468750e+01
2.720000147819519043e-01,2.000000000000000000e+00,3.165790939331054688e+01,-5.729030609130859375e+00,6.021070861816406250e+01,-1.627482757568359375e+02,6.452609252929687500e+01,-1.088233871459960938e+02,8.637386322021484375e+01,1.762198638916015625e+01,6.149069976806640625e+01,1.728757171630859375e+02,3.331256866455078125e+01,5.522108459472656250e+01
2.759999930858612061e-01,2.000000000000000000e+00,3.158893203735351562e+01,-5.695813655853271484e+00,6.018269729614257812e+01,-1.627579345703125000e+02,6.453019714355468750e+01,-1.088040847778320312e+02,8.633870697021484375e+01,1.760075759887695312e+01,6.146171188354492188e+01,1.728846893310546875e+02,3.332738113403320312e+01,5.521226501464843750e+01
2.800000011920928955e-01,2.000000000000000000e+00,3.151998138427734375e+01,-5.662607192993164062e+00,6.015469360351562500e+01,-1.627675781250000000e+02,6.453428649902343750e+01,-1.087847900390625000e+02,8.630356597900390625e+01,1.757953453063964844e+01,6.143273162841796875e+01,1.728936309814453125e+02,3.334219360351562500e+01,5.520344924926757812e+01
2.840000092983245850e-01,2.000000000000000000e+00,3.145105171203613281e+01,-5.629412174224853516e+00,6.012670898437500000e+01,-1.627772064208984375e+02,6.453838348388671875e+01,-1.087655105590820312e+02,8.626843261718750000e+01,1.755831909179687500e+01,6.140375518798828125e+01,1.729025726318359375e+02,3.335699844360351562e+01,5.519464111328125000e+01
2.879999876022338867e-01,2.000000000000000000e+00,3.138214492797851562e+01,-5.596228122711181641e+00,6.009872436523437500e+01,-1.627868499755859375e+02,6.454247283935546875e+01,-1.087462387084960938e+02,8.623331451416015625e+01,1.753711128234863281e+01,6.137479782104492188e+01,1.729115295410156250e+02,3.337179946899414062e+01,5.518583297729492188e+01
2.919999957084655762e-01,2.000000000000000000e+00,3.131326293945312500e+01,-5.563055038452148438e+00,6.007075500488281250e+01,-1.627964782714843750e+02,6.454656219482421875e+01,-1.087269592285156250e+02,8.619820404052734375e+01,1.751591110229492188e+01,6.134584426879882812e+01,1.729204711914062500e+02,3.338659667968750000e+01,5.517702865600585938e+01
2.960000038146972656e-01,2.000000000000000000e+00,3.124440002441406250e+01,-5.529893398284912109e+00,6.004279327392578125e+01,-1.628061065673828125e+02,6.455065155029296875e+01,-1.087077026367187500e+02,8.616310882568359375e+01,1.749471664428710938e+01,6.131690216064453125e+01,1.729294128417968750e+02,3.340138626098632812e+01,5.516822433471679688e+01
3.000000119209289551e-01,2.000000000000000000e+00,3.117556190490722656e+01,-5.496742725372314453e+00,6.001483917236328125e+01,-1.628157501220703125e+02,6.455474090576171875e+01,-1.086884384155273438e+02,8.612802886962890625e+01,1.747352981567382812e+01,6.128797149658203125e+01,1.729383544921875000e+02,3.341617202758789062e+01,5.515942382812500000e+01
3.039999902248382568e-01,2.000000000000000000e+00,3.110674858093261719e+01,-5.463603019714355469e+00,5.998689651489257812e+01,-1.628253784179687500e+02,6.455882263183593750e+01,-1.086691818237304688e+02,8.609295654296875000e+01,1.745235061645507812e+01,6.125904464721679688e+01,1.729472961425781250e+02,3.343095397949218750e+01,5.515062713623046875e+01
3.079999983310699463e-01,2.000000000000000000e+00,3.103795814514160156e+01,-5.430474281311035156e+00,5.995896148681640625e+01,-1.628349914550781250e+02,6.456291198730468750e+01,-1.086499481201171875e+02,8.605789947509765625e+01,1.743117713928222656e+01,6.123013305664062500e+01,1.729562072753906250e+02,3.344572830200195312e+01,5.514183044433593750e+01
3.120000064373016357e-01,2.000000000000000000e+00,3.096918869018554688e+01,-5.397356510162353516e+00,5.993103790283203125e+01,-1.628446044921875000e+02,6.456699371337890625e+01,-1.086307067871093750e+02,8.602284240722656250e+01,1.741001319885253906e+01,6.120123291015625000e+01,1.729651489257812500e+02,3.346049880981445312e+01,5.513304138183593750e+01
3.160000145435333252e-01,2.000000000000000000e+00,3.090044212341308594e+01,-5.364250183105468750e+00,5.990312194824218750e+01,-1.628542175292968750e+02,6.457107543945312500e+01,-1.086114730834960938e+02,8.598780822753906250e+01,1.738885498046875000e+01,6.117233657836914062e+01,1.729740600585937500e+02,3.347526550292968750e+01,5.512425613403320312e+01
3.199999928474426270e-01,2.000000000000000000e+00,3.083172035217285156e+01,-5.331154346466064453e+00,5.987521362304687500e+01,-1.628638458251953125e+02,6.457516479492187500e+01,-1.085922393798828125e+02,8.595278167724609375e+01,1.736770248413085938e+01,6.114345932006835938e+01,1.729829864501953125e+02,3.349002456665039062e+01,5.511547088623046875e+01
3.240000009536743164e-01,2.000000000000000000e+00,3.076301956176757812e+01,-5.298069953918457031e+00,5.984732055664062500e+01,-1.628734436035156250e+02,6.457923889160156250e+01,-1.085730285644531250e+02,8.591777038574218750e+01,1.734655761718750000e+01,6.111457824707031250e+01,1.729918975830078125e+02,3.350478363037109375e+01,5.510668563842773438e+01
3.280000090599060059e-01,2.000000000000000000e+00,3.069434165954589844e+01,-5.264996051788330078e+00,5.981943130493164062e+01,-1.628830413818359375e+02,6.458332061767578125e+01,-1.085538177490234375e+02,8.588277435302734375e+01,1.732542037963867188e+01,6.108571624755859375e+01,1.730008239746093750e+02,3.351953506469726562e+01,5.509790802001953125e+01
3.319999873638153076e-01,2.000000000000000000e+00,3.062568664550781250e+01,-5.231933593750000000e+00,5.979155349731445312e+01,-1.628926544189453125e+02,6.458739471435546875e+01,-1.085346069335937500e+02,8.584777832031250000e+01,1.730429077148437500e+01,6.105685806274414062e+01,1.730097503662109375e+02,3.353428268432617188e+01,5.508913040161132812e+01
3.359999954700469971e-01,2.000000000000000000e+00,3.055705833435058594e+01,-5.198881626129150391e+00,5.976368331909179688e+01,-1.629022521972656250e+02,6.459147644042968750e+01,-1.085154037475585938e+02,8.581279754638671875e+01,1.728316688537597656e+01,6.102801513671875000e+01,1.730186462402343750e+02,3.354902267456054688e+01,5.508035659790039062e+01
3.400000035762786865e-01,2.000000000000000000e+00,3.048844909667968750e+01,-5.165841102600097656e+00,5.973582458496093750e+01,-1.629118499755859375e+02,6.459554290771484375e+01,-1.084962081909179688e+02,8.577783203125000000e+01,1.726205062866210938e+01,6.099917602539062500e+01,1.730275573730468750e+02,3.356376266479492188e+01,5.507158660888671875e+01
3.440000116825103760e-01,2.000000000000000000e+00,3.041986274719238281e+01,-5.132811069488525391e+00,5.970797729492187500e+01,-1.629214477539062500e+02,6.459962463378906250e+01,-1.084770278930664062e+02,8.574287414550781250e+01,1.724094200134277344e+01,6.097035217285156250e+01,1.730364685058593750e+02,3.357849121093750000e+01,5.506282043457031250e+01
3.479999899864196777e-01,2.000000000000000000e+00,3.035129737854003906e+01,-5.099792957305908203e+00,5.968013763427734375e+01,-1.629310302734375000e+02,6.460369110107421875e+01,-1.084578475952148438e+02,8.570793151855468750e+01,1.721983909606933594e+01,6.094153594970703125e+01,1.730453643798828125e+02,3.359321975708007812e+01,5.505405807495117188e+01
3.519999980926513672e-01,2.000000000000000000e+00,3.028275680541992188e+01,-5.066784858703613281e+00,5.965230560302734375e+01,-1.629406280517578125e+02,6.460776519775390625e+01,-1.084386672973632812e+02,8.567300415039062500e+01,1.719874382019042969e+01,6.091272735595703125e+01,1.730542602539062500e+02,3.360794448852539062e+01,5.504529571533203125e+01
3.560000061988830566e-01,2.000000000000000000e+00,3.021424102783203125e+01,-5.033788204193115234e+00,5.962447738647460938e+01,-1.629501953125000000e+02,6.461183166503906250e+01,-1.084195022583007812e+02,8.563808441162109375e+01,1.717765617370605469e+01,6.088393020629882812e+01,1.730631561279296875e+02,3.362265777587890625e+01,5.503653335571289062e+01
3.600000143051147461e-01,2.000000000000000000e+00,3.014574432373046875e+01,-5.000802993774414062e+00,5.959666442871093750e+01,-1.629597930908203125e+02,6.461589813232421875e+01,-1.084003372192382812e+02,8.560317230224609375e+01,1.715657424926757812e+01,6.085514068603515625e+01,1.730720520019531250e+02,3.363737106323242188e+01,5.502777862548828125e+01
3.639999926090240479e-01,2.000000000000000000e+00,3.007727050781250000e+01,-4.967828750610351562e+00,5.956885910034179688e+01,-1.629693603515625000e+02,6.461997222900390625e+01,-1.083811798095703125e+02,8.556827545166015625e+01,1.713549995422363281e+01,6.082636642456054688e+01,1.730809478759765625e+02,3.365208053588867188e+01,5.501902389526367188e+01
3.680000007152557373e-01,2.000000000000000000e+00,3.000882148742675781e+01,-4.934866905212402344e+00,5.954106903076171875e+01,-1.629789428710937500e+02,6.462403106689453125e+01,-1.083620300292968750e+02,8.553338623046875000e+01,1.711443328857421875e+01,6.079759597778320312e+01,1.730898437500000000e+02,3.366678237915039062e+01,5.501027679443359375e+01
3.720000088214874268e-01,2.000000000000000000e+00,2.994039726257324219e+01,-4.901915550231933594e+00,5.951328277587890625e+01,-1.629885101318359375e+02,6.462809753417968750e+01,-1.083428878784179688e+02,8.549851226806640625e+01,1.709337234497070312e+01,6.076883697509765625e+01,1.730987091064453125e+02,3.368148040771484375e+01,5.500152969360351562e+01
3.759999871253967285e-01,2.000000000000000000e+00,2.987199401855468750e+01,-4.868975639343261719e+00,5.948550415039062500e+01,-1.629980773925781250e+02,6.463216400146484375e+01,-1.083237457275390625e+02,8.546365356445312500e+01,1.707231712341308594e+01,6.074008941650390625e+01,1.731075897216796875e+02,3.369617080688476562e+01,5.499278259277343750e+01
3.799999952316284180e-01,2.000000000000000000e+00,2.980361366271972656e+01,-4.836045742034912109e+00,5.945774078369140625e+01,-1.630076446533203125e+02,6.463621520996093750e+01,-1.083046264648437500e+02,8.542879486083984375e+01,1.705127143859863281e+01,6.071134567260742188e+01,1.731164703369140625e+02,3.371086120605468750e+01,5.498404312133789062e+01
3.840000033378601074e-01,2.000000000000000000e+00,2.973525238037109375e+01,-4.803126811981201172e+00,5.942998123168945312e+01,-1.630172119140625000e+02,6.464028167724609375e+01,-1.082854995727539062e+02,8.539395904541015625e+01,1.703023147583007812e+01,6.068261337280273438e+01,1.731253509521484375e+02,3.372554016113281250e+01,5.497530364990234375e+01
3.880000114440917969e-01,2.000000000000000000e+00,2.966691589355468750e+01,-4.770218372344970703e+00,5.940222930908203125e+01,-1.630267639160156250e+02,6.464434051513671875e+01,-1.082663803100585938e+02,8.535913085937500000e+01,1.700919914245605469e+01,6.065388870239257812e+01,1.731342163085937500e+02,3.374021911621093750e+01,5.496656799316406250e+01
3.919999897480010986e-01,2.000000000000000000e+00,2.959860038757324219e+01,-4.737319946289062500e+00,5.937449264526367188e+01,-1.630363159179687500e+02,6.464839935302734375e+01,-1.082472610473632812e+02,8.532431793212890625e+01,1.698817253112792969e+01,6.062518310546875000e+01,1.731430816650390625e+02,3.375489425659179688e+01,5.495783615112304688e+01
3.959999978542327881e-01,2.000000000000000000e+00,2.953030967712402344e+01,-4.704432487487792969e+00,5.934676361083984375e+01,-1.630458679199218750e+02,6.465245056152343750e+01,-1.082281570434570312e+02,8.528951263427734375e+01,1.696715545654296875e+01,6.059647750854492188e+01,1.731519470214843750e+02,3.376956176757812500e+01,5.494910430908203125e+01
4.000000059604644775e-01,2.000000000000000000e+00,2.946204185485839844e+01,-4.671555519104003906e+00,5.931903839111328125e+01,-1.630554199218750000e+02,6.465650177001953125e+01,-1.082090606689453125e+02,8.525471496582031250e+01,1.694614410400390625e+01,6.056778335571289062e+01,1.731608123779296875e+02,3.378422546386718750e+01,5.494038009643554688e+01
4.040000140666961670e-01,2.000000000000000000e+00,2.939379501342773438e+01,-4.638689994812011719e+00,5.929132843017578125e+01,-1.630649566650390625e+02,6.466056060791015625e+01,-1.081899719238281250e+02,8.521993255615234375e+01,1.692513847351074219e+01,6.053910064697265625e+01,1.731696777343750000e+02,3.379888534545898438e+01,5.493165206909179688e+01
4.079999923706054688e-01,2.000000000000000000e+00,2.932557106018066406e+01,-4.605834960937500000e+00,5.926362609863281250e+01,-1.630745086669921875e+02,6.466461181640625000e+01,-1.081708831787109375e+02,8.518515777587890625e+01,1.690414047241210938e+01,6.051042938232421875e+01,1.731785278320312500e+02,3.381353759765625000e+01,5.492293548583984375e+01
4.120000004768371582e-01,2.000000000000000000e+00,2.925736808776855469e+01,-4.572990417480468750e+00,5.923593139648437500e+01,-1.630840454101562500e+02,6.466866302490234375e+01,-1.081518020629882812e+02,8.515039825439453125e+01,1.688314819335937500e+01,6.048176193237304688e+01,1.731873931884765625e+02,3.382818984985351562e+01,5.491421508789062500e+01
4.160000085830688477e-01,2.000000000000000000e+00,2.918918991088867188e+01,-4.540157318115234375e+00,5.920824813842773438e+01,-1.630935821533203125e+02,6.467271423339843750e+01,-1.081327285766601562e+02,8.511565399169921875e+01,1.686216545104980469e+01,6.045310211181640625e+01,1.731962432861328125e+02,3.384283447265625000e+01,5.490550231933593750e+01
4.199999868869781494e-01,2.000000000000000000e+00,2.912103080749511719e+01,-4.507334709167480469e+00,5.918057250976562500e+01,-1.631031188964843750e+02,6.467675781250000000e+01,-1.081136550903320312e+02,8.508091735839843750e+01,1.684118652343750000e+01,6.042445755004882812e+01,1.732050933837890625e+02,3.385747528076171875e+01,5.489678573608398438e+01
4.239999949932098389e-01,2.000000000000000000e+00,2.905289649963378906e+01,-4.474522590637207031e+00,5.915290069580078125e+01,-1.631126556396484375e+02,6.468080902099609375e+01,-1.080946044921875000e+02,8.504618835449218750e+01,1.682021713256835938e+01,6.039582443237304688e+01,1.732139434814453125e+02,3.387210845947265625e+01,5.488807678222656250e+01
4.280000030994415283e-01,2.000000000000000000e+00,2.898478507995605469e+01,-4.441721916198730469e+00,5.912524795532226562e+01,-1.631221771240234375e+02,6.468485260009765625e+01,-1.080755462646484375e+02,8.501147460937500000e+01,1.679925346374511719e+01,6.036719512939453125e+01,1.732227783203125000e+02,3.388673782348632812e+01,5.487936782836914062e+01
4.320000112056732178e-01,2.000000000000000000e+00,2.891669654846191406e+01,-4.408931732177734375e+00,5.909759902954101562e+01,-1.631316986083984375e+02,6.468889617919921875e+01,-1.080564956665039062e+02,8.497676849365234375e+01,1.677829742431640625e+01,6.033857345581054688e+01,1.732316131591796875e+02,3.390136337280273438e+01,5.487066650390625000e+01
4.359999895095825195e-01,2.000000000000000000e+00,2.884862899780273438e+01,-4.376152038574218750e+00,5.906995773315429688e+01,-1.631412200927734375e+02,6.469293975830078125e+01,-1.080374526977539062e+02,8.494207763671875000e+01,1.675734710693359375e+01,6.030997085571289062e+01,1.732404632568359375e+02,3.391598510742187500e+01,5.486196517944335938e+01
4.399999976158142090e-01,2.000000000000000000e+00,2.878058433532714844e+01,-4.343383312225341797e+00,5.904232788085937500e+01,-1.631507415771484375e+02,6.469698333740234375e+01,-1.080184173583984375e+02,8.490740203857421875e+01,1.673640441894531250e+01,6.028137207031250000e+01,1.732492980957031250e+02,3.393059921264648438e+01,5.485326766967773438e+01
4.440000057220458984e-01,2.000000000000000000e+00,2.871256256103515625e+01,-4.310625076293945312e+00,5.901470565795898438e+01,-1.631602478027343750e+02,6.470101928710937500e+01,-1.079993896484375000e+02,8.487273406982421875e+01,1.671546936035156250e+01,6.025278091430664062e+01,1.732581329345703125e+02,3.394520950317382812e+01,5.484457015991210938e+01
4.480000138282775879e-01,2.000000000000000000e+00,2.864455986022949219e+01,-4.277878284454345703e+00,5.898709106445312500e+01,-1.631697692871093750e+02,6.470505523681640625e+01,-1.079803619384765625e+02,8.483807373046875000e+01,1.669454002380371094e+01,6.022420501708984375e+01,1.732669525146484375e+02,3.395981597900390625e+01,5.483587646484375000e+01
4.519999921321868896e-01,2.000000000000000000e+00,2.857658386230468750e+01,-4.245141506195068359e+00,5.895949172973632812e+01,-1.631792755126953125e+02,6.470909118652343750e+01,-1.079613418579101562e+02,8.480342864990234375e+01,1.667361640930175781e+01,6.019563293457031250e+01,1.732757873535156250e+02,3.397441482543945312e+01,5.482718658447265625e+01
4.560000002384185791e-01,2.000000000000000000e+00,2.850862503051757812e+01,-4.212415695190429688e+00,5.893189239501953125e+01,-1.631887664794921875e+02,6.471312713623046875e+01,-1.079423370361328125e+02,8.476879882812500000e+01,1.665270233154296875e+01,6.016706848144531250e+01,1.732846069335937500e+02,3.398901367187500000e+01,5.481850051879882812e+01
4.600000083446502686e-01,2.000000000000000000e+00,2.844069290161132812e+01,-4.179700374603271484e+00,5.890431213378906250e+01,-1.631982727050781250e+02,6.471716308593750000e+01,-1.079233322143554688e+02,8.473417663574218750e+01,1.663179206848144531e+01,6.013851928710937500e+01,1.732934112548828125e+02,3.400360488891601562e+01,5.480981826782226562e+01
4.639999866485595703e-01,2.000000000000000000e+00,2.837277984619140625e+01,-4.146996021270751953e+00,5.887672805786132812e+01,-1.632077636718750000e+02,6.472119140625000000e+01,-1.079043273925781250e+02,8.469955444335937500e+01,1.661089134216308594e+01,6.010997390747070312e+01,1.733022460937500000e+02,3.401819229125976562e+01,5.480113601684570312e+01
4.679999947547912598e-01,2.000000000000000000e+00,2.830489158630371094e+01,-4.114302158355712891e+00,5.884916305541992188e+01,-1.632172698974609375e+02,6.472522735595703125e+01,-1.078853378295898438e+02,8.466495513916015625e+01,1.658999633789062500e+01,6.008143997192382812e+01,1.733110504150390625e+02,3.403277206420898438e+01,5.479245758056640625e+01
4.720000028610229492e-01,2.000000000000000000e+00,2.823702430725097656e+01,-4.081619262695312500e+00,5.882160186767578125e+01,-1.632267608642578125e+02,6.472926330566406250e+01,-1.078663482666015625e+02,8.463037109375000000e+01,1.656910896301269531e+01,6.005291748046875000e+01,1.733198699951171875e+02,3.404735183715820312e+01,5.478377914428710938e+01
4.760000109672546387e-01,2.000000000000000000e+00,2.816917991638183594e+01,-4.048946857452392578e+00,5.879405593872070312e+01,-1.632362518310546875e+02,6.473329162597656250e+01,-1.078473663330078125e+02,8.459579467773437500e+01,1.654822731018066406e+01,6.002439880371093750e+01,1.733286743164062500e+02,3.406192398071289062e+01,5.477510833740234375e+01
4.799999892711639404e-01,2.000000000000000000e+00,2.810135650634765625e+01,-4.016285419464111328e+00,5.876651763916015625e+01,-1.632457427978515625e+02,6.473731994628906250e+01,-1.078283920288085938e+02,8.456122589111328125e+01,1.652735137939453125e+01,5.999589920043945312e+01,1.733374786376953125e+02,3.407649230957031250e+01,5.476643753051757812e+01
4.839999973773956299e-01,2.000000000000000000e+00,2.803355789184570312e+01,-3.983633995056152344e+00,5.873898696899414062e+01,-1.632552185058593750e+02,6.474134063720703125e+01,-1.078094253540039062e+02,8.452667236328125000e+01,1.650648498535156250e+01,5.996739578247070312e+01,1.733462829589843750e+02,3.409105682373046875e+01,5.475777053833007812e+01
4.880000054836273193e-01,2.000000000000000000e+00,2.796577835083007812e+01,-3.950993776321411133e+00,5.871146011352539062e+01,-1.632647094726562500e+02,6.474536895751953125e+01,-1.077904663085937500e+02,8.449212646484375000e+01,1.648562431335449219e+01,5.993891143798828125e+01,1.733550872802734375e+02,3.410561370849609375e+01,5.474910736083984375e+01
4.920000135898590088e-01,2.000000000000000000e+00,2.789802169799804688e+01,-3.918363809585571289e+00,5.868394851684570312e+01,-1.632741851806640625e+02,6.474939727783203125e+01,-1.077715148925781250e+02,8.445758819580078125e+01,1.646477127075195312e+01,5.991043090820312500e+01,1.733638763427734375e+02,3.412017059326171875e+01,5.474044418334960938e+01
4.959999918937683105e-01,2.000000000000000000e+00,2.783028793334960938e+01,-3.885745048522949219e+00,5.865644454956054688e+01,-1.632836456298828125e+02,6.475341796875000000e+01,-1.077525634765625000e+02,8.442307281494140625e+01,1.644392395019531250e+01,5.988196182250976562e+01,1.733726806640625000e+02,3.413471603393554688e+01,5.473178482055664062e+01
5.000000000000000000e-01,2.000000000000000000e+00,2.776257514953613281e+01,-3.853136539459228516e+00,5.862895202636718750e+01,-1.632931213378906250e+02,6.475743103027343750e+01,-1.077336196899414062e+02,8.438855743408203125e+01,1.642308235168457031e+01,5.985350799560546875e+01,1.733814544677734375e+02,3.414926147460937500e+01,5.472313308715820312e+01
5.040000081062316895e-01,2.000000000000000000e+00,2.769488525390625000e+01,-3.820538520812988281e+00,5.860145950317382812e+01,-1.633025817871093750e+02,6.476145935058593750e+01,-1.077146835327148438e+02,8.435405731201171875e+01,1.640224838256835938e+01,5.982505416870117188e+01,1.733902587890625000e+02,3.416379928588867188e+01,5.471447753906250000e+01
5.080000162124633789e-01,2.000000000000000000e+00,2.762721824645996094e+01,-3.787951231002807617e+00,5.857398223876953125e+01,-1.633120574951171875e+02,6.476547241210937500e+01,-1.076957550048828125e+02,8.431957244873046875e+01,1.638142204284667969e+01,5.979661178588867188e+01,1.733990325927734375e+02,3.417833709716796875e+01,5.470582580566406250e+01
5.120000243186950684e-01,2.000000000000000000e+00,2.755957031250000000e+01,-3.755374670028686523e+00,5.854651641845703125e+01,-1.633215179443359375e+02,6.476949310302734375e+01,-1.076768264770507812e+02,8.428509521484375000e+01,1.636060142517089844e+01,5.976818466186523438e+01,1.734078216552734375e+02,3.419286727905273438e+01,5.469718170166015625e+01
5.159999728202819824e-01,2.000000000000000000e+00,2.749194717407226562e+01,-3.722808837890625000e+00,5.851906204223632812e+01,-1.633309783935546875e+02,6.477350616455078125e+01,-1.076579055786132812e+02,8.425063323974609375e+01,1.633978843688964844e+01,5.973976516723632812e+01,1.734166107177734375e+02,3.420738983154296875e+01,5.468853378295898438e+01
5.199999809265136719e-01,2.000000000000000000e+00,2.742434310913085938e+01,-3.690253019332885742e+00,5.849160385131835938e+01,-1.633404388427734375e+02,6.477751922607421875e+01,-1.076389923095703125e+02,8.421617889404296875e+01,1.631898117065429688e+01,5.971135330200195312e+01,1.734253692626953125e+02,3.422191238403320312e+01,5.467989349365234375e+01
5.239999890327453613e-01,2.000000000000000000e+00,2.735676383972167969e+01,-3.657708168029785156e+00,5.846416473388671875e+01,-1.633498840332031250e+02,6.478153991699218750e+01,-1.076200866699218750e+02,8.418173217773437500e+01,1.629818153381347656e+01,5.968294525146484375e+01,1.734341430664062500e+02,3.423642730712890625e+01,5.467125320434570312e+01
5.279999971389770508e-01,2.000000000000000000e+00,2.728920745849609375e+01,-3.625173807144165039e+00,5.843672943115234375e+01,-1.633593292236328125e+02,6.478554534912109375e+01,-1.076011886596679688e+02,8.414730072021484375e+01,1.627738952636718750e+01,5.965455245971679688e+01,1.734429168701171875e+02,3.425093841552734375e+01,5.466262054443359375e+01
5.320000052452087402e-01,2.000000000000000000e+00,2.722167015075683594e+01,-3.592650175094604492e+00,5.840930557250976562e+01,-1.633687896728515625e+02,6.478956604003906250e+01,-1.075822906494140625e+02,8.411288452148437500e+01,1.625660324096679688e+01,5.962616729736328125e+01,1.734516906738281250e+02,3.426544570922851562e+01,5.465398406982421875e+01
5.360000133514404297e-01,2.000000000000000000e+00,2.715415573120117188e+01,-3.560136795043945312e+00,5.838188934326171875e+01,-1.633782196044921875e+02,6.479357147216796875e+01,-1.075634078979492188e+02,8.407847595214843750e+01,1.623582267761230469e+01,5.959779357910156250e+01,1.734604492187500000e+02,3.427994537353515625e+01,5.464535140991210938e+01
5.400000214576721191e-01,2.000000000000000000e+00,2.708666229248046875e+01,-3.527634143829345703e+00,5.835448837280273438e+01,-1.633876647949218750e+02,6.479757690429687500e+01,-1.075445251464843750e+02,8.404407501220703125e+01,1.621504974365234375e+01,5.956941986083984375e+01,1.734692077636718750e+02,3.429444122314453125e+01,5.463672637939453125e+01
5.440000295639038086e-01,2.000000000000000000e+00,2.701919174194335938e+01,-3.495141983032226562e+00,5.832709121704101562e+01,-1.633970947265625000e+02,6.480158233642578125e+01,-1.075256500244140625e+02,8.400968933105468750e+01,1.619428443908691406e+01,5.954106903076171875e+01,1.734779815673828125e+02,3.430893707275390625e+01,5.462810134887695312e+01
5.479999780654907227e-01,2.000000000000000000e+00,2.695174407958984375e+01,-3.462660551071166992e+00,5.829970169067382812e+01,-1.634065399169921875e+02,6.480559539794921875e+01,-1.075067749023437500e+02,8.397531127929687500e+01,1.617352485656738281e+01,5.951271438598632812e+01,1.734867401123046875e+02,3.432342147827148438e+01,5.461948013305664062e+01
5.519999861717224121e-01,2.000000000000000000e+00,2.688431549072265625e+01,-3.430189371109008789e+00,5.827231979370117188e+01,-1.634159698486328125e+02,6.480959320068359375e+01,-1.074879150390625000e+02,8.394094848632812500e+01,1.615277290344238281e+01,5.948437881469726562e+01,1.734954986572265625e+02,3.433790588378906250e+01,5.461085891723632812e+01
5.559999942779541016e-01,2.000000000000000000e+00,2.681691169738769531e+01,-3.397728919982910156e+00,5.824494934082031250e+01,-1.634253845214843750e+02,6.481359863281250000e+01,-1.074690628051757812e+02,8.390659332275390625e+01,1.613202667236328125e+01,5.945604705810546875e+01,1.735042419433593750e+02,3.435238647460937500e+01,5.460224533081054688e+01
5.600000023841857910e-01,2.000000000000000000e+00,2.674952697753906250e+01,-3.365278959274291992e+00,5.821759033203125000e+01,-1.634348144531250000e+02,6.481760406494140625e+01,-1.074502105712890625e+02,8.387225341796875000e+01,1.611128807067871094e+01,5.942772674560546875e+01,1.735130004882812500e+02,3.436685943603515625e+01,5.459362792968750000e+01
5.640000104904174805e-01,2.000000000000000000e+00,2.668216705322265625e+01,-3.332839012145996094e+00,5.819023513793945312e+01,-1.634442443847656250e+02,6.482160186767578125e+01,-1.074313659667968750e+02,8.383791351318359375e+01,1.609055519104003906e+01,5.939941787719726562e+01,1.735217437744140625e+02,3.438132476806640625e+01,5.458501815795898438e+01
5.680000185966491699e-01,2.000000000000000000e+00,2.661482620239257812e+01,-3.300410032272338867e+00,5.816289138793945312e+01,-1.634536590576171875e+02,6.482559967041015625e+01,-1.074125213623046875e+02,8.380360412597656250e+01,1.606982803344726562e+01,5.937111282348632812e+01,1.735304718017578125e+02,3.439579010009765625e+01,5.457640838623046875e+01
5.720000267028808594e-01,2.000000000000000000e+00,2.654751014709472656e+01,-3.267991542816162109e+00,5.813555145263671875e+01,-1.634630737304687500e+02,6.482959747314453125e+01,-1.073936920166015625e+02,8.376928710937500000e+01,1.604910850524902344e+01,5.934282302856445312e+01,1.735392150878906250e+02,3.441025161743164062e+01,5.456780242919921875e+01
5.759999752044677734e-01,2.000000000000000000e+00,2.648021316528320312e+01,-3.235583305358886719e+00,5.810823059082031250e+01,-1.634724884033203125e+02,6.483359527587890625e+01,-1.073748626708984375e+02,8.373499298095703125e+01,1.602839851379394531e+01,5.931453323364257812e+01,1.735479583740234375e+02,3.442470550537109375e+01,5.455920028686523438e+01
5.799999833106994629e-01,2.000000000000000000e+00,2.641293716430664062e+01,-3.203185558319091797e+00,5.808090972900390625e+01,-1.634819030761718750e+02,6.483759307861328125e+01,-1.073560409545898438e+02,8.370070648193359375e+01,1.600769233703613281e+01,5.928626251220703125e+01,1.735566864013671875e+02,3.443915557861328125e+01,5.455060195922851562e+01
5.839999914169311523e-01,2.000000000000000000e+00,2.634568595886230469e+01,-3.170798301696777344e+00,5.805360412597656250e+01,-1.634913024902343750e+02,6.484158325195312500e+01,-1.073372268676757812e+02,8.366642761230468750e+01,1.598699378967285156e+01,5.925799179077148438e+01,1.735654296875000000e+02,3.445359802246093750e+01,5.454200363159179688e+01
5.879999995231628418e-01,2.000000000000000000e+00,2.627845382690429688e+01,-3.138421535491943359e+00,5.802630233764648438e+01,-1.635007171630859375e+02,6.484558105468750000e+01,-1.073184204101562500e+02,8.363216400146484375e+01,1.596630001068115234e+01,5.922973632812500000e+01,1.735741577148437500e+02,3.446804046630859375e+01,5.453340911865234375e+01
5.920000076293945312e-01,2.000000000000000000e+00,2.621124458312988281e+01,-3.106055498123168945e+00,5.799900817871093750e+01,-1.635101165771484375e+02,6.484956359863281250e+01,-1.072996139526367188e+02,8.359790802001953125e+01,1.594561481475830078e+01,5.920149230957031250e+01,1.735828857421875000e+02,3.448247528076171875e+01,5.452481842041015625e+01
5.960000157356262207e-01,2.000000000000000000e+00,2.614405632019042969e+01,-3.073699712753295898e+00,5.797172927856445312e+01,-1.635195159912109375e+02,6.485356140136718750e+01,-1.072808227539062500e+02,8.356366729736328125e+01,1.592493629455566406e+01,5.917324829101562500e+01,1.735915985107421875e+02,3.449691009521484375e+01,5.451622772216796875e+01
6.000000238418579102e-01,2.000000000000000000e+00,2.607689094543457031e+01,-3.041354656219482422e+00,5.794445800781250000e+01,-1.635289001464843750e+02,6.485755157470703125e+01,-1.072620315551757812e+02,8.352943420410156250e+01,1.590426254272460938e+01,5.914501953125000000e+01,1.736003265380859375e+02,3.451133346557617188e+01,5.450764083862304688e+01
6.039999723434448242e-01,2.000000000000000000e+00,2.600974655151367188e+01,-3.009019374847412109e+00,5.791719055175781250e+01,-1.635382995605468750e+02,6.486153411865234375e+01,-1.072432479858398438e+02,8.349520874023437500e+01,1.588359832763671875e+01,5.911679840087890625e+01,1.736090393066406250e+02,3.452575683593750000e+01,5.449906158447265625e+01
6.079999804496765137e-01,2.000000000000000000e+00,2.594262313842773438e+01,-2.976694345474243164e+00,5.788993072509765625e+01,-1.635476837158203125e+02,6.486552429199218750e+01,-1.072244644165039062e+02,8.346100616455078125e+01,1.586293888092041016e+01,5.908858871459960938e+01,1.736177520751953125e+02,3.454017639160156250e+01,5.449047851562500000e+01
6.119999885559082031e-01,2.000000000000000000e+00,2.587552070617675781e+01,-2.944379806518554688e+00,5.786268615722656250e+01,-1.635570678710937500e+02,6.486950683593750000e+01,-1.072056961059570312e+02,8.342680358886718750e+01,1.584228610992431641e+01,5.906038665771484375e+01,1.736264495849609375e+02,3.455458831787109375e+01,5.448190307617187500e+01
6.159999966621398926e-01,2.000000000000000000e+00,2.580844116210937500e+01,-2.912075519561767578e+00,5.783544540405273438e+01,-1.635664520263671875e+02,6.487348937988281250e+01,-1.071869277954101562e+02,8.339261627197265625e+01,1.582164001464843750e+01,5.903219223022460938e+01,1.736351776123046875e+02,3.456899642944335938e+01,5.447332763671875000e+01
6.200000047683715820e-01,2.000000000000000000e+00,2.574138069152832031e+01,-2.879781484603881836e+00,5.780821609497070312e+01,-1.635758361816406250e+02,6.487747192382812500e+01,-1.071681671142578125e+02,8.335843658447265625e+01,1.580100059509277344e+01,5.900400924682617188e+01,1.736438751220703125e+02,3.458340072631835938e+01,5.446475601196289062e+01
6.240000128746032715e-01,2.000000000000000000e+00,2.567434501647949219e+01,-2.847497940063476562e+00,5.778099822998046875e+01,-1.635852050781250000e+02,6.488145446777343750e+01,-1.071494140625000000e+02,8.332427215576171875e+01,1.578036880493164062e+01,5.897583770751953125e+01,1.736525726318359375e+02,3.459780120849609375e+01,5.445618438720703125e+01
6.280000209808349609e-01,2.000000000000000000e+00,2.560732841491699219e+01,-2.815224885940551758e+00,5.775378417968750000e+01,-1.635945739746093750e+02,6.488542938232421875e+01,-1.071306610107421875e+02,8.329011535644531250e+01,1.575974273681640625e+01,5.894766998291015625e+01,1.736612701416015625e+02,3.461219406127929688e+01,5.444762039184570312e+01
6.320000290870666504e-01,2.000000000000000000e+00,2.554033279418945312e+01,-2.782962083816528320e+00,5.772658157348632812e+01,-1.636039428710937500e+02,6.488941192626953125e+01,-1.071119232177734375e+02,8.325597381591796875e+01,1.573912239074707031e+01,5.891950607299804688e+01,1.736699829101562500e+02,3.462658309936523438e+01,5.443905258178710938e+01
6.359999775886535645e-01,2.000000000000000000e+00,2.547336006164550781e+01,-2.750709533691406250e+00,5.769938278198242188e+01,-1.636133117675781250e+02,6.489338684082031250e+01,-1.070931854248046875e+02,8.322183990478515625e+01,1.571851062774658203e+01,5.889136123657226562e+01,1.736786804199218750e+02,3.464096832275390625e+01,5.443049240112304688e+01
6.399999856948852539e-01,2.000000000000000000e+00,2.540640830993652344e+01,-2.718467235565185547e+00,5.767219924926757812e+01,-1.636226959228515625e+02,6.489736175537109375e+01,-1.070744552612304688e+02,8.318771362304687500e+01,1.569790458679199219e+01,5.886322021484375000e+01,1.736873626708984375e+02,3.465534973144531250e+01,5.442193222045898438e+01
6.439999938011169434e-01,2.000000000000000000e+00,2.533947753906250000e+01,-2.686235189437866211e+00,5.764501953125000000e+01,-1.636320495605468750e+02,6.490133666992187500e+01,-1.070557327270507812e+02,8.315360260009765625e+01,1.567730426788330078e+01,5.883509445190429688e+01,1.736960601806640625e+02,3.466972732543945312e+01,5.441337966918945312e+01
6.480000019073486328e-01,2.000000000000000000e+00,2.527256774902343750e+01,-2.654013156890869141e+00,5.761785125732421875e+01,-1.636414031982421875e+02,6.490531158447265625e+01,-1.070370101928710938e+02,8.311950683593750000e+01,1.565671157836914062e+01,5.880696487426757812e+01,1.737047424316406250e+02,3.468409729003906250e+01,5.440482330322265625e+01
6.520000100135803223e-01,2.000000000000000000e+00,2.520567893981933594e+01,-2.621801376342773438e+00,5.759068679809570312e+01,-1.636507568359375000e+02,6.490928649902343750e+01,-1.070183029174804688e+02,8.308541107177734375e+01,1.563612556457519531e+01,5.877886199951171875e+01,1.737134399414062500e+02,3.469846343994140625e+01,5.439627075195312500e+01
6.560000181198120117e-01,2.000000000000000000e+00,2.513881111145019531e+01,-2.589599847793579102e+00,5.756353759765625000e+01,-1.636601104736328125e+02,6.491326141357421875e+01,-1.069995956420898438e+02,8.305133819580078125e+01,1.561554431915283203e+01,5.875075531005859375e+01,1.737221069335937500e+02,3.471282958984375000e+01,5.438772583007812500e+01
6.600000262260437012e-01,2.000000000000000000e+00,2.507196617126464844e+01,-2.557408571243286133e+00,5.753639221191406250e+01,-1.636694641113281250e+02,6.491722869873046875e+01,-1.069808959960937500e+02,8.301726531982421875e+01,1.559496974945068359e+01,5.872265625000000000e+01,1.737307891845703125e+02,3.472718429565429688e+01,5.437918090820312500e+01
6.639999747276306152e-01,2.000000000000000000e+00,2.500514221191406250e+01,-2.525227546691894531e+00,5.750925827026367188e+01,-1.636788024902343750e+02,6.492120361328125000e+01,-1.069621963500976562e+02,8.298320770263671875e+01,1.557440280914306641e+01,5.869456863403320312e+01,1.737394714355468750e+02,3.474153900146484375e+01,5.437063980102539062e+01
6.679999828338623047e-01,2.000000000000000000e+00,2.493833732604980469e+01,-2.493056535720825195e+00,5.748212814331054688e+01,-1.636881561279296875e+02,6.492516326904296875e+01,-1.069435119628906250e+02,8.294915771484375000e+01,1.555384159088134766e+01,5.866649627685546875e+01,1.737481384277343750e+02,3.475588989257812500e+01,5.436209869384765625e+01
6.719999909400939941e-01,2.000000000000000000e+00,2.487155532836914062e+01,-2.460895299911499023e+00,5.745501327514648438e+01,-1.636974945068359375e+02,6.492913055419921875e+01,-1.069248199462890625e+02,8.291512298583984375e+01,1.553328800201416016e+01,5.863842391967773438e+01,1.737568054199218750e+02,3.477023315429687500e+01,5.435356521606445312e+01
6.759999990463256836e-01,2.000000000000000000e+00,2.480479431152343750e+01,-2.428744554519653320e+00,5.742790222167968750e+01,-1.637068328857421875e+02,6.493309783935546875e+01,-1.069061508178710938e+02,8.288109588623046875e+01,1.551273918151855469e+01,5.861036682128906250e+01,1.737654724121093750e+02,3.478457260131835938e+01,5.434502792358398438e+01
6.800000071525573730e-01,2.000000000000000000e+00,2.473805236816406250e+01,-2.396603822708129883e+00,5.740080261230468750e+01,-1.637161712646484375e+02,6.493705749511718750e+01,-1.068874740600585938e+02,8.284708404541015625e+01,1.549219799041748047e+01,5.858231353759765625e+01,1.737741394042968750e+02,3.479890823364257812e+01,5.433649444580078125e+01
6.840000152587890625e-01,2.000000000000000000e+00,2.467133331298828125e+01,-2.364473342895507812e+00,5.737371444702148438e+01,-1.637254943847656250e+02,6.494102478027343750e+01,-1.068688125610351562e+02,8.281307983398437500e+01,1.547166252136230469e+01,5.855427551269531250e+01,1.737828063964843750e+02,3.481324005126953125e+01,5.432796859741210938e+01
6.880000233650207520e-01,2.000000000000000000e+00,2.460463523864746094e+01,-2.332352876663208008e+00,5.734662246704101562e+01,-1.637348327636718750e+02,6.494498443603515625e+01,-1.068501510620117188e+02,8.277908325195312500e+01,1.545113468170166016e+01,5.852623748779296875e+01,1.737914581298828125e+02,3.482756423950195312e+01,5.431943893432617188e+01
6.919999718666076660e-01,2.000000000000000000e+00,2.453795623779296875e+01,-2.300242424011230469e+00,5.731954956054687500e+01,-1.637441558837890625e+02,6.494894409179687500e+01,-1.068314971923828125e+02,8.274510192871093750e+01,1.543061351776123047e+01,5.849821472167968750e+01,1.738001251220703125e+02,3.484188842773437500e+01,5.431091690063476562e+01
6.959999799728393555e-01,2.000000000000000000e+00,2.447130012512207031e+01,-2.268142223358154297e+00,5.729248046875000000e+01,-1.637534790039062500e+02,6.495290374755859375e+01,-1.068128509521484375e+02,8.271112823486328125e+01,1.541009712219238281e+01,5.847019577026367188e+01,1.738087615966796875e+02,3.485620498657226562e+01,5.430239486694335938e+01
6.999999880790710449e-01,2.000000000000000000e+00,2.440466499328613281e+01,-2.236051797866821289e+00,5.726542282104492188e+01,-1.637628021240234375e+02,6.495686340332031250e+01,-1.067942123413085938e+02,8.267716979980468750e+01,1.538958740234375000e+01,5.844219207763671875e+01,1.738174285888671875e+02,3.487051773071289062e+01,5.429387664794921875e+01
7.039999961853027344e-01,2.000000000000000000e+00,2.433804702758789062e+01,-2.203971624374389648e+00,5.723837661743164062e+01,-1.637721252441406250e+02,6.496081542968750000e+01,-1.067755661010742188e+02,8.264321136474609375e+01,1.536908531188964844e+01,5.841419601440429688e+01,1.738260803222656250e+02,3.488482666015625000e+01,5.428536224365234375e+01
7.080000042915344238e-01,2.000000000000000000e+00,2.427145576477050781e+01,-2.171901464462280273e+00,5.721133041381835938e+01,-1.637814331054687500e+02,6.496477508544921875e+01,-1.067569351196289062e+02,8.260927581787109375e+01,1.534858989715576172e+01,5.838620758056640625e+01,1.738347167968750000e+02,3.489913177490234375e+01,5.427685165405273438e+01
7.120000123977661133e-01,2.000000000000000000e+00,2.420488166809082031e+01,-2.139841318130493164e+00,5.718429946899414062e+01,-1.637907409667968750e+02,6.496872711181640625e+01,-1.067383117675781250e+02,8.257534790039062500e+01,1.532809925079345703e+01,5.835822296142578125e+01,1.738433685302734375e+02,3.491342926025390625e+01,5.426834106445312500e+01
7.160000205039978027e-01,2.000000000000000000e+00,2.413832855224609375e+01,-2.107791185379028320e+00,5.715727233886718750e+01,-1.638000488281250000e+02,6.497267913818359375e+01,-1.067196960449218750e+02,8.254141998291015625e+01,1.530761528015136719e+01,5.833025360107421875e+01,1.738520050048828125e+02,3.492772674560546875e+01,5.425983047485351562e+01
7.200000286102294922e-01,2.000000000000000000e+00,2.407179641723632812e+01,-2.075751066207885742e+00,5.713025665283203125e+01,-1.638093566894531250e+02,6.497663116455078125e+01,-1.067010803222656250e+02,8.250751495361328125e+01,1.528713798522949219e+01,5.830229187011718750e+01,1.738606414794921875e+02,3.494201660156250000e+01,5.425132751464843750e+01
7.239999771118164062e-01,2.000000000000000000e+00,2.400528526306152344e+01,-2.043720960617065430e+00,5.710325241088867188e+01,-1.638186645507812500e+02,6.498057556152343750e+01,-1.066824722290039062e+02,8.247361755371093750e+01,1.526666641235351562e+01,5.827433395385742188e+01,1.738692779541015625e+02,3.495629882812500000e+01,5.424282073974609375e+01
7.279999852180480957e-01,2.000000000000000000e+00,2.393879508972167969e+01,-2.011700868606567383e+00,5.707625198364257812e+01,-1.638279571533203125e+02,6.498452758789062500e+01,-1.066638793945312500e+02,8.243972778320312500e+01,1.524620342254638672e+01,5.824639129638671875e+01,1.738779144287109375e+02,3.497058105468750000e+01,5.423432159423828125e+01
7.319999933242797852e-01,2.000000000000000000e+00,2.387232589721679688e+01,-1.979690909385681152e+00,5.704926300048828125e+01,-1.638372497558593750e+02,6.498847961425781250e+01,-1.066452789306640625e+02,8.240586090087890625e+01,1.522574520111083984e+01,5.821844863891601562e+01,1.738865356445312500e+02,3.498485946655273438e+01,5.422582626342773438e+01
7.360000014305114746e-01,2.000000000000000000e+00,2.380587577819824219e+01,-1.947690844535827637e+00,5.702227783203125000e+01,-1.638465576171875000e+02,6.499241638183593750e+01,-1.066266860961914062e+02,8.237198638916015625e+01,1.520529365539550781e+01,5.819052886962890625e+01,1.738951721191406250e+02,3.499913406372070312e+01,5.421733093261718750e+01
7.400000095367431641e-01,2.000000000000000000e+00,2.373944854736328125e+01,-1.915700793266296387e+00,5.699530410766601562e+01,-1.638558502197265625e+02,6.499636840820312500e+01,-1.066081085205078125e+02,8.233812713623046875e+01,1.518484783172607422e+01,5.816260528564453125e+01,1.739037933349609375e+02,3.501340103149414062e+01,5.420884323120117188e+01
7.440000176429748535e-01,2.000000000000000000e+00,2.367304229736328125e+01,-1.883720517158508301e+00,5.696833801269531250e+01,-1.638651275634765625e+02,6.500030517578125000e+01,-1.065895309448242188e+02,8.230428314208984375e+01,1.516440963745117188e+01,5.813469696044921875e+01,1.739124145507812500e+02,3.502766418457031250e+01,5.420035171508789062e+01
7.480000257492065430e-01,2.000000000000000000e+00,2.360665512084960938e+01,-1.851750373840332031e+00,5.694138336181640625e+01,-1.638744201660156250e+02,6.500425720214843750e+01,-1.065709533691406250e+02,8.227045440673828125e+01,1.514397716522216797e+01,5.810678863525390625e+01,1.739210357666015625e+02,3.504192352294921875e+01,5.419186401367187500e+01
7.519999742507934570e-01,2.000000000000000000e+00,2.354028892517089844e+01,-1.819790124893188477e+00,5.691443252563476562e+01,-1.638836975097656250e+02,6.500819396972656250e+01,-1.065523834228515625e+02,8.223662567138671875e+01,1.512355041503906250e+01,5.807890319824218750e+01,1.739296417236328125e+02,3.505618286132812500e+01,5.418338394165039062e+01
7.559999823570251465e-01,2.000000000000000000e+00,2.347394371032714844e+01,-1.787840008735656738e+00,5.688749313354492188e+01,-1.638929748535156250e+02,6.501213836669921875e+01,-1.065338287353515625e+02,8.220281982421875000e+01,1.510313129425048828e+01,5.805101394653320312e+01,1.739382629394531250e+02,3.507043075561523438e+01,5.417490005493164062e+01
7.599999904632568359e-01,2.000000000000000000e+00,2.340761947631835938e+01,-1.755899667739868164e+00,5.686056137084960938e+01,-1.639022674560546875e+02,6.501607513427734375e+01,-1.065152740478515625e+02,8.216901397705078125e+01,1.508271789550781250e+01,5.802313995361328125e+01,1.739468688964843750e+02,3.508467864990234375e+01,5.416642379760742188e+01
7.639999985694885254e-01,2.000000000000000000e+00,2.334131431579589844e+01,-1.723969340324401855e+00,5.683363723754882812e+01,-1.639115295410156250e+02,6.502001190185546875e+01,-1.064967193603515625e+02,8.213521575927734375e+01,1.506231117248535156e+01,5.799527359008789062e+01,1.739554748535156250e+02,3.509891891479492188e+01,5.415794754028320312e+01
7.680000066757202148e-01,2.000000000000000000e+00,2.327503013610839844e+01,-1.692048907279968262e+00,5.680672073364257812e+01,-1.639207916259765625e+02,6.502394866943359375e+01,-1.064781799316406250e+02,8.210143280029296875e+01,1.504191017150878906e+01,5.796741485595703125e+01,1.739640808105468750e+02,3.511315536499023438e+01,5.414947509765625000e+01
7.720000147819519043e-01,2.000000000000000000e+00,2.320876884460449219e+01,-1.660138368606567383e+00,5.677981567382812500e+01,-1.639300689697265625e+02,6.502788543701171875e+01,-1.064596405029296875e+02,8.206766510009765625e+01,1.502151584625244141e+01,5.793956756591796875e+01,1.739726867675781250e+02,3.512739181518554688e+01,5.414100265502929688e+01
7.760000228881835938e-01,2.000000000000000000e+00,2.314252662658691406e+01,-1.628237843513488770e+00,5.675291824340820312e+01,-1.639393310546875000e+02,6.503181457519531250e+01,-1.064411087036132812e+02,8.203390502929687500e+01,1.500112724304199219e+01,5.791172027587890625e+01,1.739812927246093750e+02,3.514161682128906250e+01,5.413253402709960938e+01
7.799999713897705078e-01,2.000000000000000000e+00,2.307630538940429688e+01,-1.596347093582153320e+00,5.672602462768554688e+01,-1.639485931396484375e+02,6.503575134277343750e+01,-1.064225845336914062e+02,8.200015258789062500e+01,1.498074626922607422e+01,5.788388824462890625e+01,1.739898986816406250e+02,3.515584182739257812e+01,5.412406921386718750e+01
7.839999794960021973e-01,2.000000000000000000e+00,2.301010322570800781e+01,-1.564466238021850586e+00,5.669914245605468750e+01,-1.639578552246093750e+02,6.503968811035156250e+01,-1.064040603637695312e+02,8.196641540527343750e+01,1.496037006378173828e+01,5.785606765747070312e+01,1.739984893798828125e+02,3.517006301879882812e+01,5.411560821533203125e+01
7.879999876022338867e-01,2.000000000000000000e+00,2.294392395019531250e+01,-1.532595396041870117e+00,5.667226791381835938e+01,-1.639671020507812500e+02,6.504360961914062500e+01,-1.063855438232421875e+02,8.193268585205078125e+01,1.494000053405761719e+01,5.782824707031250000e+01,1.740070800781250000e+02,3.518427658081054688e+01,5.410714721679687500e+01
7.919999957084655762e-01,2.000000000000000000e+00,2.287776374816894531e+01,-1.500734448432922363e+00,5.664540481567382812e+01,-1.639763641357421875e+02,6.504753875732421875e+01,-1.063670349121093750e+02,8.189896392822265625e+01,1.491963863372802734e+01,5.780044174194335938e+01,1.740156707763671875e+02,3.519848632812500000e+01,5.409868621826171875e+01
7.960000038146972656e-01,2.000000000000000000e+00,2.281162452697753906e+01,-1.468883156776428223e+00,5.661854553222656250e+01,-1.639856109619140625e+02,6.505146789550781250e+01,-1.063485336303710938e+02,8.186525726318359375e+01,1.489928245544433594e+01,5.777264404296875000e+01,1.740242462158203125e+02,3.521269226074218750e+01,5.409023284912109375e+01
8.000000119209289551e-01,2.000000000000000000e+00,2.274550437927246094e+01,-1.437041878700256348e+00,5.659170150756835938e+01,-1.639948730468750000e+02,6.505539703369140625e+01,-1.063300399780273438e+02,8.183155822753906250e+01,1.487893199920654297e+01,5.774485778808593750e+01,1.740328369140625000e+02,3.522689437866210938e+01,5.408177947998046875e+01
8.040000200271606445e-01,2.000000000000000000e+00,2.267940521240234375e+01,-1.405210494995117188e+00,5.656485748291015625e+01,-1.640041198730468750e+02,6.505931854248046875e+01,-1.063115463256835938e+02,8.179786682128906250e+01,1.485858821868896484e+01,5.771707153320312500e+01,1.740414123535156250e+02,3.524109268188476562e+01,5.407332992553710938e+01
8.080000281333923340e-01,2.000000000000000000e+00,2.261332893371582031e+01,-1.373389005661010742e+00,5.653802871704101562e+01,-1.640133514404296875e+02,6.506324768066406250e+01,-1.062930603027343750e+02,8.176419830322265625e+01,1.483825111389160156e+01,5.768930053710937500e+01,1.740500030517578125e+02,3.525528717041015625e+01,5.406488418579101562e+01
8.119999766349792480e-01,2.000000000000000000e+00,2.254727172851562500e+01,-1.341577291488647461e+00,5.651120376586914062e+01,-1.640225982666015625e+02,6.506716918945312500e+01,-1.062745819091796875e+02,8.173052215576171875e+01,1.481791973114013672e+01,5.766153717041015625e+01,1.740585784912109375e+02,3.526947402954101562e+01,5.405643844604492188e+01
8.159999847412109375e-01,2.000000000000000000e+00,2.248123359680175781e+01,-1.309775352478027344e+00,5.648438644409179688e+01,-1.640318298339843750e+02,6.507109069824218750e+01,-1.062561035156250000e+02,8.169686889648437500e+01,1.479759502410888672e+01,5.763378524780273438e+01,1.740671539306640625e+02,3.528365707397460938e+01,5.404799652099609375e+01
8.199999928474426270e-01,2.000000000000000000e+00,2.241521835327148438e+01,-1.277983307838439941e+00,5.645758438110351562e+01,-1.640410614013671875e+02,6.507501220703125000e+01,-1.062376403808593750e+02,8.166322326660156250e+01,1.477727699279785156e+01,5.760603332519531250e+01,1.740757141113281250e+02,3.529784011840820312e+01,5.403955841064453125e+01
8.240000009536743164e-01,2.000000000000000000e+00,2.234922027587890625e+01,-1.246201038360595703e+00,5.643078231811523438e+01,-1.640502929687500000e+02,6.507893371582031250e+01,-1.062191696166992188e+02,8.162958526611328125e+01,1.475696372985839844e+01,5.757829666137695312e+01,1.740842895507812500e+02,3.531201171875000000e+01,5.403112411499023438e+01
8.280000090599060059e-01,2.000000000000000000e+00,2.228324508666992188e+01,-1.214428544044494629e+00,5.640399169921875000e+01,-1.640595245361328125e+02,6.508285522460937500e+01,-1.062007141113281250e+02,8.159596252441406250e+01,1.473665714263916016e+01,5.755056762695312500e+01,1.740928497314453125e+02,3.532618713378906250e+01,5.402268981933593750e+01
8.320000171661376953e-01,2.000000000000000000e+00,2.221728897094726562e+01,-1.182665944099426270e+00,5.637720870971679688e+01,-1.640687561035156250e+02,6.508676910400390625e+01,-1.061822662353515625e+02,8.156233978271484375e+01,1.471635818481445312e+01,5.752285003662109375e+01,1.741014099121093750e+02,3.534035110473632812e+01,5.401425552368164062e+01
8.360000252723693848e-01,2.000000000000000000e+00,2.215135383605957031e+01,-1.150913119316101074e+00,5.635043334960937500e+01,-1.640779724121093750e+02,6.509068298339843750e+01,-1.061638183593750000e+02,8.152873992919921875e+01,1.469606399536132812e+01,5.749513244628906250e+01,1.741099853515625000e+02,3.535451507568359375e+01,5.400582885742187500e+01
8.399999737739562988e-01,2.000000000000000000e+00,2.208543968200683594e+01,-1.119170188903808594e+00,5.632366943359375000e+01,-1.640871887207031250e+02,6.509459686279296875e+01,-1.061453781127929688e+02,8.149514770507812500e+01,1.467577648162841797e+01,5.746743011474609375e+01,1.741185302734375000e+02,3.536867523193359375e+01,5.399740219116210938e+01
8.439999818801879883e-01,2.000000000000000000e+00,2.201954460144042969e+01,-1.087436914443969727e+00,5.629691314697265625e+01,-1.640964050292968750e+02,6.509851074218750000e+01,-1.061269378662109375e+02,8.146156311035156250e+01,1.465549564361572266e+01,5.743973159790039062e+01,1.741270904541015625e+02,3.538282775878906250e+01,5.398897933959960938e+01
8.479999899864196777e-01,2.000000000000000000e+00,2.195366859436035156e+01,-1.055713415145874023e+00,5.627016067504882812e+01,-1.641056213378906250e+02,6.510241699218750000e+01,-1.061085128784179688e+02,8.142798614501953125e+01,1.463522052764892578e+01,5.741205215454101562e+01,1.741356506347656250e+02,3.539697647094726562e+01,5.398055648803710938e+01
8.519999980926513672e-01,2.000000000000000000e+00,2.188781547546386719e+01,-1.023999691009521484e+00,5.624342346191406250e+01,-1.641148376464843750e+02,6.510633087158203125e+01,-1.060900955200195312e+02,8.139443206787109375e+01,1.461495208740234375e+01,5.738437271118164062e+01,1.741441955566406250e+02,3.541112136840820312e+01,5.397213745117187500e+01
8.560000061988830566e-01,2.000000000000000000e+00,2.182198143005371094e+01,-9.922957420349121094e-01,5.621669006347656250e+01,-1.641240386962890625e+02,6.511024475097656250e+01,-1.060716705322265625e+02,8.136087036132812500e+01,1.459469032287597656e+01,5.735669708251953125e+01,1.741527404785156250e+02,3.542526245117187500e+01,5.396372222900390625e+01
8.600000143051147461e-01,2.000000000000000000e+00,2.175616836547851562e+01,-9.606015682220458984e-01,5.618996429443359375e+01,-1.641332397460937500e+02,6.511415100097656250e+01,-1.060532531738281250e+02,8.132733154296875000e+01,1.457443332672119141e+01,5.732904434204101562e+01,1.741612854003906250e+02,3.543939971923828125e+01,5.395531082153320312e+01
8.640000224113464355e-01,2.000000000000000000e+00,2.169037628173828125e+01,-9.289170503616333008e-01,5.616324996948242188e+01,-1.641424560546875000e+02,6.511806488037109375e+01,-1.060348510742187500e+02,8.129380035400390625e+01,1.455418395996093750e+01,5.730138778686523438e+01,1.741698303222656250e+02,3.545353317260742188e+01,5.394689941406250000e+01
8.679999709129333496e-01,2.000000000000000000e+00,2.162460136413574219e+01,-8.972423672676086426e-01,5.613653945922851562e+01,-1.641516418457031250e+02,6.512197113037109375e+01,-1.060164489746093750e+02,8.126027679443359375e+01,1.453394126892089844e+01,5.727374267578125000e+01,1.741783599853515625e+02,3.546765899658203125e+01,5.393849182128906250e+01
8.719999790191650391e-01,2.000000000000000000e+00,2.155884933471679688e+01,-8.655773401260375977e-01,5.610984039306640625e+01,-1.641608428955078125e+02,6.512587738037109375e+01,-1.059980545043945312e+02,8.122676086425781250e+01,1.451370334625244141e+01,5.724610900878906250e+01,1.741869049072265625e+02,3.548178100585937500e+01,5.393008422851562500e+01
8.759999871253967285e-01,2.000000000000000000e+00,2.149311637878417969e+01,-8.339220881462097168e-01,5.608314895629882812e+01,-1.641700439453125000e+02,6.512977600097656250e+01,-1.059796676635742188e+02,8.119326019287109375e+01,1.449347209930419922e+01,5.721847915649414062e+01,1.741954345703125000e+02,3.549589920043945312e+01,5.392168426513671875e+01
8.799999952316284180e-01,2.000000000000000000e+00,2.142740249633789062e+01,-8.022765517234802246e-01,5.605646514892578125e+01,-1.641792297363281250e+02,6.513367462158203125e+01,-1.059612808227539062e+02,8.115977478027343750e+01,1.447324752807617188e+01,5.719086074829101562e+01,1.742039642333984375e+02,3.551001358032226562e+01,5.391328430175781250e+01
8.840000033378601074e-01,2.000000000000000000e+00,2.136171150207519531e+01,-7.706407308578491211e-01,5.602979278564453125e+01,-1.641884155273437500e+02,6.513758087158203125e+01,-1.059429092407226562e+02,8.112628936767578125e+01,1.445302867889404297e+01,5.716324996948242188e+01,1.742124938964843750e+02,3.552412414550781250e+01,5.390488433837890625e+01
8.880000114440917969e-01,2.000000000000000000e+00,2.129603958129882812e+01,-7.390145659446716309e-01,5.600312423706054688e+01,-1.641976013183593750e+02,6.514147949218750000e+01,-1.059245376586914062e+02,8.109281921386718750e+01,1.443281650543212891e+01,5.713565063476562500e+01,1.742210235595703125e+02,3.553823471069335938e+01,5.389649200439453125e+01
8.920000195503234863e-01,2.000000000000000000e+00,2.123038673400878906e+01,-7.073981165885925293e-01,5.597646331787109375e+01,-1.642067871093750000e+02,6.514538574218750000e+01,-1.059061660766601562e+02,8.105936431884765625e+01,1.441260910034179688e+01,5.710805511474609375e+01,1.742295532226562500e+02,3.555233383178710938e+01,5.388809967041015625e+01
8.960000276565551758e-01,2.000000000000000000e+00,2.116475486755371094e+01,-6.757913827896118164e-01,5.594981384277343750e+01,-1.642159729003906250e+02,6.514927673339843750e+01,-1.058878021240234375e+02,8.102590942382812500e+01,1.439240932464599609e+01,5.708047103881835938e+01,1.742380523681640625e+02,3.556643295288085938e+01,5.387970733642578125e+01
8.999999761581420898e-01,2.000000000000000000e+00,2.109914207458496094e+01,-6.441942453384399414e-01,5.592317199707031250e+01,-1.642251434326171875e+02,6.515317535400390625e+01,-1.058694534301757812e+02,8.099246978759765625e+01,1.437221527099609375e+01,5.705289459228515625e+01,1.742465820312500000e+02,3.558052444458007812e+01,5.387132263183593750e+01
9.039999842643737793e-01,2.000000000000000000e+00,2.103355026245117188e+01,-6.126068234443664551e-01,5.589653778076171875e+01,-1.642343139648437500e+02,6.515706634521484375e+01,-1.058510971069335938e+02,8.095903778076171875e+01,1.435202693939208984e+01,5.702532958984375000e+01,1.742550964355468750e+02,3.559461212158203125e+01,5.386293792724609375e+01
9.079999923706054688e-01,2.000000000000000000e+00,2.096797943115234375e+01,-5.810291171073913574e-01,5.586991119384765625e+01,-1.642434844970703125e+02,6.516096496582031250e+01,-1.058327484130859375e+02,8.092562103271484375e+01,1.433184623718261719e+01,5.699776840209960938e+01,1.742636108398437500e+02,3.560869598388671875e+01,5.385455322265625000e+01
9.120000004768371582e-01,2.000000000000000000e+00,2.090242767333984375e+01,-5.494610071182250977e-01,5.584329223632812500e+01,-1.642526702880859375e+02,6.516485595703125000e+01,-1.058144149780273438e+02,8.089221191406250000e+01,1.431167030334472656e+01,5.697021484375000000e+01,1.742721252441406250e+02,3.562277603149414062e+01,5.384617233276367188e+01
9.160000085830688477e-01,2.000000000000000000e+00,2.083689498901367188e+01,-5.179024934768676758e-01,5.581668090820312500e+01,-1.642618255615234375e+02,6.516874694824218750e+01,-1.057960815429687500e+02,8.085881042480468750e+01,1.429150104522705078e+01,5.694267272949218750e+01,1.742806243896484375e+02,3.563685226440429688e+01,5.383779525756835938e+01
9.200000166893005371e-01,2.000000000000000000e+00,2.077138328552246094e+01,-4.863537251949310303e-01,5.579007720947265625e+01,-1.642709808349609375e+02,6.517263793945312500e+01,-1.057777557373046875e+02,8.082542419433593750e+01,1.427133846282958984e+01,5.691514205932617188e+01,1.742891387939453125e+02,3.565092468261718750e+01,5.382942199707031250e+01
9.240000247955322266e-01,2.000000000000000000e+00,2.070589256286621094e+01,-4.548145234584808350e-01,5.576348495483398438e+01,-1.642801513671875000e+02,6.517652893066406250e+01,-1.057594299316406250e+02,8.079204559326171875e+01,1.425118064880371094e+01,5.688761520385742188e+01,1.742976379394531250e+02,3.566498947143554688e+01,5.382105255126953125e+01
9.279999732971191406e-01,2.000000000000000000e+00,2.064042091369628906e+01,-4.232849478721618652e-01,5.573690032958984375e+01,-1.642893066406250000e+02,6.518041229248046875e+01,-1.057411193847656250e+02,8.075867462158203125e+01,1.423102951049804688e+01,5.686009597778320312e+01,1.743061370849609375e+02,3.567905426025390625e+01,5.381267929077148438e+01
9.319999814033508301e-01,2.000000000000000000e+00,2.057497024536132812e+01,-3.917649984359741211e-01,5.571032333374023438e+01,-1.642984619140625000e+02,6.518430328369140625e+01,-1.057228088378906250e+02,8.072531890869140625e+01,1.421088504791259766e+01,5.683258819580078125e+01,1.743146362304687500e+02,3.569311523437500000e+01,5.380431365966796875e+01
9.359999895095825195e-01,2.000000000000000000e+00,2.050953674316406250e+01,-3.602546751499176025e-01,5.568375396728515625e+01,-1.643076171875000000e+02,6.518818664550781250e+01,-1.057044982910156250e+02,8.069197082519531250e+01,1.419074726104736328e+01,5.680508422851562500e+01,1.743231353759765625e+02,3.570716857910156250e+01,5.379595184326171875e+01
9.399999976158142090e-01,2.000000000000000000e+00,2.044412612915039062e+01,-3.287539482116699219e-01,5.565719223022460938e+01,-1.643167572021484375e+02,6.519207000732421875e+01,-1.056862030029296875e+02,8.065863037109375000e+01,1.417061424255371094e+01,5.677759552001953125e+01,1.743316192626953125e+02,3.572121810913085938e+01,5.378758621215820312e+01
9.440000057220458984e-01,2.000000000000000000e+00,2.037873458862304688e+01,-2.972628176212310791e-01,5.563063812255859375e+01,-1.643259124755859375e+02,6.519596099853515625e+01,-1.056679077148437500e+02,8.062530517578125000e+01,1.415048789978027344e+01,5.675011062622070312e+01,1.743401184082031250e+02,3.573526382446289062e+01,5.377922821044921875e+01
9.480000138282775879e-01,2.000000000000000000e+00,2.031336212158203125e+01,-2.657812535762786865e-01,5.560409164428710938e+01,-1.643350524902343750e+02,6.519983673095703125e+01,-1.056496200561523438e+02,8.059198760986328125e+01,1.413036823272705078e+01,5.672263336181640625e+01,1.743486022949218750e+02,3.574930572509765625e+01,5.377087020874023438e+01
9.520000219345092773e-01,2.000000000000000000e+00,2.024801063537597656e+01,-2.343093007802963257e-01,5.557755661010742188e+01,-1.643441925048828125e+02,6.520372009277343750e+01,-1.056313323974609375e+02,8.055867767333984375e+01,1.411025428771972656e+01,5.669516754150390625e+01,1.743570861816406250e+02,3.576334381103515625e+01,5.376251602172851562e+01
9.559999704360961914e-01,2.000000000000000000e+00,2.018267822265625000e+01,-2.028468996286392212e-01,5.555102539062500000e+01,-1.643533325195312500e+02,6.520760345458984375e+01,-1.056130599975585938e+02,8.052538299560546875e+01,1.409014606475830078e+01,5.666770935058593750e+01,1.743655700683593750e+02,3.577737426757812500e+01,5.375416564941406250e+01
9.599999785423278809e-01,2.000000000000000000e+00,2.011736679077148438e+01,-1.713940799236297607e-01,5.552450561523437500e+01,-1.643624725341796875e+02,6.521147918701171875e+01,-1.055947875976562500e+02,8.049209594726562500e+01,1.407004356384277344e+01,5.664025878906250000e+01,1.743740539550781250e+02,3.579140472412109375e+01,5.374581527709960938e+01
9.639999866485595703e-01,2.000000000000000000e+00,2.005207252502441406e+01,-1.399508118629455566e-01,5.549799346923828125e+01,-1.643716125488281250e+02,6.521535491943359375e+01,-1.055765151977539062e+02,8.045881652832031250e+01,1.404994869232177734e+01,5.661281585693359375e+01,1.743825378417968750e+02,3.580543136596679688e+01,5.373746871948242188e+01
9.679999947547912598e-01,2.000000000000000000e+00,1.998680114746093750e+01,-1.085170879960060120e-01,5.547148895263671875e+01,-1.643807373046875000e+02,6.521923828125000000e+01,-1.055582580566406250e+02,8.042555236816406250e+01,1.402985858917236328e+01,5.658538055419921875e+01,1.743910064697265625e+02,3.581945037841796875e+01,5.372912597656250000e+01
9.720000028610229492e-01,2.000000000000000000e+00,1.992154884338378906e+01,-7.709291577339172363e-02,5.544498825073242188e+01,-1.643898620605468750e+02,6.522310638427734375e+01,-1.055400009155273438e+02,8.039229583740234375e+01,1.400977516174316406e+01,5.655795669555664062e+01,1.743994750976562500e+02,3.583346557617187500e+01,5.372078323364257812e+01
9.760000109672546387e-01,2.000000000000000000e+00,1.985631561279296875e+01,-4.567827284336090088e-02,5.541850280761718750e+01,-1.643989868164062500e+02,6.522698211669921875e+01,-1.055217514038085938e+02,8.035904693603515625e+01,1.398969745635986328e+01,5.653054046630859375e+01,1.744079437255859375e+02,3.584747695922851562e+01,5.371244430541992188e+01
9.800000190734863281e-01,2.000000000000000000e+00,1.979110145568847656e+01,-1.427316665649414062e-02,5.539202117919921875e+01,-1.644081115722656250e+02,6.523085784912109375e+01,-1.055035095214843750e+02,8.032581329345703125e+01,1.396962642669677734e+01,5.650312805175781250e+01,1.744164123535156250e+02,3.586148071289062500e+01,5.370410919189453125e+01
9.840000271797180176e-01,2.000000000000000000e+00,1.972590827941894531e+01,1.712241955101490021e-02,5.536554718017578125e+01,-1.644172210693359375e+02,6.523472595214843750e+01,-1.054852752685546875e+02,8.029257965087890625e+01,1.394956111907958984e+01,5.647573089599609375e+01,1.744248809814453125e+02,3.587548828125000000e+01,5.369577407836914062e+01
9.879999756813049316e-01,2.000000000000000000e+00,1.966073417663574219e+01,4.850849136710166931e-02,5.533908462524414062e+01,-1.644263458251953125e+02,6.523860168457031250e+01,-1.054670333862304688e+02,8.025936889648437500e+01,1.392950153350830078e+01,5.644833755493164062e+01,1.744333343505859375e+02,3.588948440551757812e+01,5.368744277954101562e+01
9.919999837875366211e-01,2.000000000000000000e+00,1.959558105468750000e+01,7.988505065441131592e-02,5.531262969970703125e+01,-1.644354553222656250e+02,6.524246978759765625e+01,-1.054488143920898438e+02,8.022615814208984375e+01,1.390944862365722656e+01,5.642095184326171875e+01,1.744417877197265625e+02,3.590348052978515625e+01,5.367911529541015625e+01
9.959999918937683105e-01,2.000000000000000000e+00,1.953044700622558594e+01,1.112521141767501831e-01,5.528617858886718750e+01,-1.644445648193359375e+02,6.524633789062500000e+01,-1.054305877685546875e+02,8.019296264648437500e+01,1.388940143585205078e+01,5.639357757568359375e+01,1.744502410888671875e+02,3.591747283935546875e+01,5.367078781127929688e+01
1.000000000000000000e+00,2.000000000000000000e+00,1.946533012390136719e+01,1.426096856594085693e-01,5.525973892211914062e+01,-1.644536590576171875e+02,6.525020599365234375e+01,-1.054123764038085938e+02,8.015977478027343750e+01,1.386936092376708984e+01,5.636621093750000000e+01,1.744586944580078125e+02,3.593145751953125000e+01,5.366246414184570312e+01
1.003999948501586914e+00,2.000000000000000000e+00,1.940023803710937500e+01,1.739577651023864746e-01,5.523330688476562500e+01,-1.644627685546875000e+02,6.525407409667968750e+01,-1.053941574096679688e+02,8.012660217285156250e+01,1.384932613372802734e+01,5.633885192871093750e+01,1.744671630859375000e+02,3.594543838500976562e+01,5.365414047241210938e+01
1.008000016212463379e+00,2.000000000000000000e+00,1.933516120910644531e+01,2.052963674068450928e-01,5.520687866210937500e+01,-1.644718780517578125e+02,6.525793457031250000e+01,-1.053759536743164062e+02,8.009343719482421875e+01,1.382929706573486328e+01,5.631150054931640625e+01,1.744756011962890625e+02,3.595941543579101562e+01,5.364582443237304688e+01
1.011999964714050293e+00,2.000000000000000000e+00,1.927010536193847656e+01,2.366255074739456177e-01,5.518046188354492188e+01,-1.644809722900390625e+02,6.526179504394531250e+01,-1.053577499389648438e+02,8.006027984619140625e+01,1.380927371978759766e+01,5.628415679931640625e+01,1.744840545654296875e+02,3.597339248657226562e+01,5.363750839233398438e+01
1.016000032424926758e+00,2.000000000000000000e+00,1.920507049560546875e+01,2.679451704025268555e-01,5.515405654907226562e+01,-1.644900665283203125e+02,6.526566314697265625e+01,-1.053395538330078125e+02,8.002713775634765625e+01,1.378925704956054688e+01,5.625682449340820312e+01,1.744924926757812500e+02,3.598735809326171875e+01,5.362919616699218750e+01
1.019999980926513672e+00,2.000000000000000000e+00,1.914005279541015625e+01,2.992554008960723877e-01,5.512765502929687500e+01,-1.644991607666015625e+02,6.526952362060546875e+01,-1.053213653564453125e+02,7.999399566650390625e+01,1.376924705505371094e+01,5.622949981689453125e+01,1.745009460449218750e+02,3.600132369995117188e+01,5.362088394165039062e+01
1.024000048637390137e+00,2.000000000000000000e+00,1.907505798339843750e+01,3.305561542510986328e-01,5.510126113891601562e+01,-1.645082550048828125e+02,6.527337646484375000e+01,-1.053031845092773438e+02,7.996086883544921875e+01,1.374924278259277344e+01,5.620218276977539062e+01,1.745093688964843750e+02,3.601528549194335938e+01,5.361257171630859375e+01
1.026999950408935547e+00,2.000000000000000000e+00,1.901008033752441406e+01,3.618474602699279785e-01,5.507487487792968750e+01,-1.645173492431640625e+02,6.527723693847656250e+01,-1.052850112915039062e+02,7.992775726318359375e+01,1.372924423217773438e+01,5.617486953735351562e+01,1.745178070068359375e+02,3.602923965454101562e+01,5.360426712036132812e+01
1.031999945640563965e+00,2.000000000000000000e+00,1.894512367248535156e+01,3.931293785572052002e-01,5.504850006103515625e+01,-1.645264282226562500e+02,6.528109741210937500e+01,-1.052668380737304688e+02,7.989465332031250000e+01,1.370925140380859375e+01,5.614757156372070312e+01,1.745262451171875000e+02,3.604319381713867188e+01,5.359596633911132812e+01
1.036000013351440430e+00,2.000000000000000000e+00,1.888018417358398438e+01,4.244018197059631348e-01,5.502212905883789062e+01,-1.645355224609375000e+02,6.528495788574218750e+01,-1.052486648559570312e+02,7.986154937744140625e+01,1.368926525115966797e+01,5.612027740478515625e+01,1.745346679687500000e+02,3.605714416503906250e+01,5.358766174316406250e+01
1.039999961853027344e+00,2.000000000000000000e+00,1.881526756286621094e+01,4.556648731231689453e-01,5.499577331542968750e+01,-1.645446014404296875e+02,6.528881072998046875e+01,-1.052305068969726562e+02,7.982846832275390625e+01,1.366928386688232422e+01,5.609299087524414062e+01,1.745430908203125000e+02,3.607108688354492188e+01,5.357936477661132812e+01
1.044000029563903809e+00,2.000000000000000000e+00,1.875036811828613281e+01,4.869184792041778564e-01,5.496941757202148438e+01,-1.645536651611328125e+02,6.529267120361328125e+01,-1.052123489379882812e+02,7.979538726806640625e+01,1.364930915832519531e+01,5.606571578979492188e+01,1.745515289306640625e+02,3.608502578735351562e+01,5.357106781005859375e+01
1.047999978065490723e+00,2.000000000000000000e+00,1.868548965454101562e+01,5.181627273559570312e-01,5.494307327270507812e+01,-1.645627441406250000e+02,6.529652404785156250e+01,-1.051942062377929688e+02,7.976232147216796875e+01,1.362934112548828125e+01,5.603844451904296875e+01,1.745599517822265625e+02,3.609896087646484375e+01,5.356277465820312500e+01
1.052000045776367188e+00,2.000000000000000000e+00,1.862062835693359375e+01,5.493975281715393066e-01,5.491673660278320312e+01,-1.645718078613281250e+02,6.530036926269531250e+01,-1.051760559082031250e+02,7.972926330566406250e+01,1.360937786102294922e+01,5.601118469238281250e+01,1.745683746337890625e+02,3.611289596557617188e+01,5.355448150634765625e+01
1.054999947547912598e+00,2.000000000000000000e+00,1.855578994750976562e+01,5.806229710578918457e-01,5.489040756225585938e+01,-1.645808868408203125e+02,6.530422210693359375e+01,-1.051579132080078125e+02,7.969622039794921875e+01,1.358942222595214844e+01,5.598393249511718750e+01,1.745767974853515625e+02,3.612681961059570312e+01,5.354619598388671875e+01
1.059999942779541016e+00,2.000000000000000000e+00,1.849096870422363281e+01,6.118389368057250977e-01,5.486408615112304688e+01,-1.645899505615234375e+02,6.530806732177734375e+01,-1.051397781372070312e+02,7.966318511962890625e+01,1.356947231292724609e+01,5.595669174194335938e+01,1.745852050781250000e+02,3.614074325561523438e+01,5.353791046142578125e+01
1.064000010490417480e+00,2.000000000000000000e+00,1.842616653442382812e+01,6.430456638336181641e-01,5.483777236938476562e+01,-1.645990295410156250e+02,6.531192016601562500e+01,-1.051216506958007812e+02,7.963015747070312500e+01,1.354952716827392578e+01,5.592945480346679688e+01,1.745936279296875000e+02,3.615466308593750000e+01,5.352962493896484375e+01
1.067999958992004395e+00,2.000000000000000000e+00,1.836138534545898438e+01,6.742429137229919434e-01,5.481146621704101562e+01,-1.646080780029296875e+02,6.531576538085937500e+01,-1.051035308837890625e+02,7.959713745117187500e+01,1.352958869934082031e+01,5.590222549438476562e+01,1.746020202636718750e+02,3.616857910156250000e+01,5.352134323120117188e+01
1.072000026702880859e+00,2.000000000000000000e+00,1.829662322998046875e+01,7.054308652877807617e-01,5.478516769409179688e+01,-1.646171417236328125e+02,6.531961059570312500e+01,-1.050854110717773438e+02,7.956413269042968750e+01,1.350965595245361328e+01,5.587500762939453125e+01,1.746104431152343750e+02,3.618248748779296875e+01,5.351306533813476562e+01
1.075999975204467773e+00,2.000000000000000000e+00,1.823188018798828125e+01,7.366094589233398438e-01,5.475887680053710938e+01,-1.646261901855468750e+02,6.532345581054687500e+01,-1.050672988891601562e+02,7.953113555908203125e+01,1.348972988128662109e+01,5.584779739379882812e+01,1.746188354492187500e+02,3.619639205932617188e+01,5.350479125976562500e+01
1.080000042915344238e+00,2.000000000000000000e+00,1.816715812683105469e+01,7.677786350250244141e-01,5.473259353637695312e+01,-1.646352539062500000e+02,6.532730102539062500e+01,-1.050491943359375000e+02,7.949815368652343750e+01,1.346980953216552734e+01,5.582059097290039062e+01,1.746272430419921875e+02,3.621029663085937500e+01,5.349651336669921875e+01
1.083999991416931152e+00,2.000000000000000000e+00,1.810245323181152344e+01,7.989385724067687988e-01,5.470632171630859375e+01,-1.646442871093750000e+02,6.533114624023437500e+01,-1.050310897827148438e+02,7.946517181396484375e+01,1.344989395141601562e+01,5.579339981079101562e+01,1.746356506347656250e+02,3.622419738769531250e+01,5.348824310302734375e+01
1.088000059127807617e+00,2.000000000000000000e+00,1.803776741027832031e+01,8.300890922546386719e-01,5.468005752563476562e+01,-1.646533355712890625e+02,6.533499145507812500e+01,-1.050129928588867188e+02,7.943220520019531250e+01,1.342998600006103516e+01,5.576620864868164062e+01,1.746440429687500000e+02,3.623808670043945312e+01,5.347997665405273438e+01
1.090999960899353027e+00,2.000000000000000000e+00,1.797310256958007812e+01,8.612303137779235840e-01,5.465379714965820312e+01,-1.646623992919921875e+02,6.533882904052734375e+01,-1.049949035644531250e+02,7.939924621582031250e+01,1.341008281707763672e+01,5.573903274536132812e+01,1.746524505615234375e+02,3.625197601318359375e+01,5.347170639038085938e+01
1.095999956130981445e+00,2.000000000000000000e+00,1.790845680236816406e+01,8.923621773719787598e-01,5.462754440307617188e+01,-1.646714324951171875e+02,6.534266662597656250e+01,-1.049768218994140625e+02,7.936630249023437500e+01,1.339018630981445312e+01,5.571186447143554688e+01,1.746608276367187500e+02,3.626586151123046875e+01,5.346344375610351562e+01
1.100000023841857910e+00,2.000000000000000000e+00,1.784383201599121094e+01,9.234846830368041992e-01,5.460130310058593750e+01,-1.646804656982421875e+02,6.534650421142578125e+01,-1.049587402343750000e+02,7.933335876464843750e+01,1.337029647827148438e+01,5.568470001220703125e+01,1.746692199707031250e+02,3.627974700927734375e+01,5.345518112182617188e+01
1.103999972343444824e+00,2.000000000000000000e+00,1.777922248840332031e+01,9.545980095863342285e-01,5.457506942749023438e+01,-1.646895141601562500e+02,6.535034179687500000e+01,-1.049406585693359375e+02,7.930043792724609375e+01,1.335041046142578125e+01,5.565754699707031250e+01,1.746776123046875000e+02,3.629362106323242188e+01,5.344692230224609375e+01
1.108000040054321289e+00,2.000000000000000000e+00,1.771463584899902344e+01,9.857019782066345215e-01,5.454884338378906250e+01,-1.646985321044921875e+02,6.535417175292968750e+01,-1.049225921630859375e+02,7.926751708984375000e+01,1.333053207397460938e+01,5.563039779663085938e+01,1.746859893798828125e+02,3.630749511718750000e+01,5.343866729736328125e+01
1.111999988555908203e+00,2.000000000000000000e+00,1.765006828308105469e+01,1.016796469688415527e+00,5.452262496948242188e+01,-1.647075653076171875e+02,6.535800933837890625e+01,-1.049045257568359375e+02,7.923460388183593750e+01,1.331065940856933594e+01,5.560326385498046875e+01,1.746943817138671875e+02,3.632136535644531250e+01,5.343041229248046875e+01
1.116000056266784668e+00,2.000000000000000000e+00,1.758551788330078125e+01,1.047881603240966797e+00,5.449641418457031250e+01,-1.647165985107421875e+02,6.536184692382812500e+01,-1.048864669799804688e+02,7.920170593261718750e+01,1.329079151153564453e+01,5.557613372802734375e+01,1.747027587890625000e+02,3.633523178100585938e+01,5.342216110229492188e+01
1.118999958038330078e+00,2.000000000000000000e+00,1.752098846435546875e+01,1.078957676887512207e+00,5.447021102905273438e+01,-1.647256317138671875e+02,6.536567687988281250e+01,-1.048684158325195312e+02,7.916881561279296875e+01,1.327093124389648438e+01,5.554901123046875000e+01,1.747111511230468750e+02,3.634909057617187500e+01,5.341390991210937500e+01
1.123999953269958496e+00,2.000000000000000000e+00,1.745647621154785156e+01,1.110024571418762207e+00,5.444401550292968750e+01,-1.647346496582031250e+02,6.536950683593750000e+01,-1.048503723144531250e+02,7.913594818115234375e+01,1.325107574462890625e+01,5.552189636230468750e+01,1.747195129394531250e+02,3.636294555664062500e+01,5.340566635131835938e+01
