rpiRobotics/ARM-21-02-F-19-Robot-Motion-Program/data_performance_abb/curve_1/dual_arm/diffevo_pose1/grad_result/sim/dual_iteration_8.csv
timestamp,cmd_num,J1,J2,J3,J4,J5,J6,J1_2,J2_2,J3_2,J4_2,J5_2,J6_2
0.000000000000000000e+00,-1.000000000000000000e+00,3.396939849853515625e+01,-8.955299377441406250e+00,6.097442626953125000e+01,-1.625493927001953125e+02,6.005053329467773438e+01,-1.109997863769531250e+02,8.876182556152343750e+01,1.877993202209472656e+01,6.282496261596679688e+01,1.740817871093750000e+02,3.347834396362304688e+01,5.506460952758789062e+01
2.000000094994902611e-03,-1.000000000000000000e+00,3.396939849853515625e+01,-8.955299377441406250e+00,6.097442626953125000e+01,-1.625493927001953125e+02,6.005053329467773438e+01,-1.109997863769531250e+02,8.876182556152343750e+01,1.877993202209472656e+01,6.282496261596679688e+01,1.740817871093750000e+02,3.347834396362304688e+01,5.506460952758789062e+01
4.000000189989805222e-03,-1.000000000000000000e+00,3.396939849853515625e+01,-8.955299377441406250e+00,6.097442626953125000e+01,-1.625493927001953125e+02,6.005053329467773438e+01,-1.109997863769531250e+02,8.876182556152343750e+01,1.877993202209472656e+01,6.282496261596679688e+01,1.740817871093750000e+02,3.347834396362304688e+01,5.506460952758789062e+01
9.999999776482582092e-03,-1.000000000000000000e+00,3.396939849853515625e+01,-8.955299377441406250e+00,6.097442626953125000e+01,-1.625493927001953125e+02,6.005053329467773438e+01,-1.109997863769531250e+02,8.876182556152343750e+01,1.877993202209472656e+01,6.282496261596679688e+01,1.740817871093750000e+02,3.347834396362304688e+01,5.506460952758789062e+01
1.200000010430812836e-02,-1.000000000000000000e+00,3.396939849853515625e+01,-8.955299377441406250e+00,6.097442626953125000e+01,-1.625493927001953125e+02,6.005053329467773438e+01,-1.109997863769531250e+02,8.876182556152343750e+01,1.877993202209472656e+01,6.282496261596679688e+01,1.740817871093750000e+02,3.347834396362304688e+01,5.506460952758789062e+01
1.600000075995922089e-02,-1.000000000000000000e+00,3.396939849853515625e+01,-8.955299377441406250e+00,6.097442626953125000e+01,-1.625493927001953125e+02,6.005053329467773438e+01,-1.109997863769531250e+02,8.876182556152343750e+01,1.877993202209472656e+01,6.282496261596679688e+01,1.740817871093750000e+02,3.347834396362304688e+01,5.506460952758789062e+01
1.999999955296516418e-02,-1.000000000000000000e+00,3.396939849853515625e+01,-8.955299377441406250e+00,6.097442626953125000e+01,-1.625493927001953125e+02,6.005053329467773438e+01,-1.109997863769531250e+02,8.876182556152343750e+01,1.877993202209472656e+01,6.282496261596679688e+01,1.740817871093750000e+02,3.347834396362304688e+01,5.506460952758789062e+01
2.400000020861625671e-02,-1.000000000000000000e+00,3.396939849853515625e+01,-8.955299377441406250e+00,6.097442626953125000e+01,-1.625493927001953125e+02,6.005053329467773438e+01,-1.109997863769531250e+02,8.876182556152343750e+01,1.877993202209472656e+01,6.282496261596679688e+01,1.740817871093750000e+02,3.347834396362304688e+01,5.506460952758789062e+01
2.899999916553497314e-02,2.000000000000000000e+00,3.396939849853515625e+01,-8.955299377441406250e+00,6.097442626953125000e+01,-1.625493927001953125e+02,6.005053329467773438e+01,-1.109997863769531250e+02,8.876182556152343750e+01,1.877993202209472656e+01,6.282496261596679688e+01,1.740817871093750000e+02,3.347834396362304688e+01,5.506460952758789062e+01
3.500000014901161194e-02,2.000000000000000000e+00,3.396939849853515625e+01,-8.955299377441406250e+00,6.097442626953125000e+01,-1.625493927001953125e+02,6.005053329467773438e+01,-1.109997863769531250e+02,8.876182556152343750e+01,1.877993202209472656e+01,6.282496261596679688e+01,1.740817871093750000e+02,3.347834396362304688e+01,5.506460952758789062e+01
3.799999877810478210e-02,2.000000000000000000e+00,3.396939849853515625e+01,-8.955299377441406250e+00,6.097442626953125000e+01,-1.625493927001953125e+02,6.005053329467773438e+01,-1.109997863769531250e+02,8.876182556152343750e+01,1.877993202209472656e+01,6.282496261596679688e+01,1.740817871093750000e+02,3.347834396362304688e+01,5.506460952758789062e+01
3.999999910593032837e-02,2.000000000000000000e+00,3.396939849853515625e+01,-8.955299377441406250e+00,6.097442626953125000e+01,-1.625493927001953125e+02,6.005053329467773438e+01,-1.109997863769531250e+02,8.876182556152343750e+01,1.877993202209472656e+01,6.282496261596679688e+01,1.740817871093750000e+02,3.347834396362304688e+01,5.506460952758789062e+01
4.399999976158142090e-02,2.000000000000000000e+00,3.396939849853515625e+01,-8.955299377441406250e+00,6.097442626953125000e+01,-1.625493927001953125e+02,6.005053329467773438e+01,-1.109997863769531250e+02,8.876182556152343750e+01,1.877993202209472656e+01,6.282496261596679688e+01,1.740817871093750000e+02,3.347834396362304688e+01,5.506460952758789062e+01
4.800000041723251343e-02,2.000000000000000000e+00,3.396939849853515625e+01,-8.955299377441406250e+00,6.097442626953125000e+01,-1.625493927001953125e+02,6.005053329467773438e+01,-1.109997863769531250e+02,8.876182556152343750e+01,1.877993202209472656e+01,6.282496261596679688e+01,1.740817871093750000e+02,3.347834396362304688e+01,5.506460952758789062e+01
5.200000107288360596e-02,2.000000000000000000e+00,3.396939849853515625e+01,-8.955299377441406250e+00,6.097442626953125000e+01,-1.625493927001953125e+02,6.005053329467773438e+01,-1.109997863769531250e+02,8.876182556152343750e+01,1.877993202209472656e+01,6.282496261596679688e+01,1.740817871093750000e+02,3.347834396362304688e+01,5.506460952758789062e+01
5.600000172853469849e-02,2.000000000000000000e+00,3.396939849853515625e+01,-8.955299377441406250e+00,6.097442626953125000e+01,-1.625493927001953125e+02,6.005053329467773438e+01,-1.109997863769531250e+02,8.876182556152343750e+01,1.877993202209472656e+01,6.282496261596679688e+01,1.740817871093750000e+02,3.347834396362304688e+01,5.506460952758789062e+01
5.999999865889549255e-02,2.000000000000000000e+00,3.396939849853515625e+01,-8.955299377441406250e+00,6.097442626953125000e+01,-1.625493927001953125e+02,6.005053329467773438e+01,-1.109997863769531250e+02,8.876182556152343750e+01,1.877993202209472656e+01,6.282496261596679688e+01,1.740817871093750000e+02,3.347834396362304688e+01,5.506460952758789062e+01
6.400000303983688354e-02,2.000000000000000000e+00,3.396939849853515625e+01,-8.955299377441406250e+00,6.097442626953125000e+01,-1.625493927001953125e+02,6.005053329467773438e+01,-1.109997863769531250e+02,8.876182556152343750e+01,1.877993202209472656e+01,6.282496261596679688e+01,1.740817871093750000e+02,3.347834396362304688e+01,5.506460952758789062e+01
6.800000369548797607e-02,2.000000000000000000e+00,3.396933364868164062e+01,-8.955277442932128906e+00,6.097441101074218750e+01,-1.625493927001953125e+02,6.005053329467773438e+01,-1.109997863769531250e+02,8.876182556152343750e+01,1.877993202209472656e+01,6.282496261596679688e+01,1.740817871093750000e+02,3.347834396362304688e+01,5.506460952758789062e+01
7.199999690055847168e-02,2.000000000000000000e+00,3.396895980834960938e+01,-8.955141067504882812e+00,6.097435760498046875e+01,-1.625493927001953125e+02,6.005053329467773438e+01,-1.109997863769531250e+02,8.876182556152343750e+01,1.877993202209472656e+01,6.282496261596679688e+01,1.740817871093750000e+02,3.347834396362304688e+01,5.506460952758789062e+01
7.599999755620956421e-02,2.000000000000000000e+00,3.396788787841796875e+01,-8.954722404479980469e+00,6.097417831420898438e+01,-1.625493774414062500e+02,6.005054473876953125e+01,-1.109997787475585938e+02,8.876182556152343750e+01,1.877993202209472656e+01,6.282496261596679688e+01,1.740817871093750000e+02,3.347834396362304688e+01,5.506460952758789062e+01
7.999999821186065674e-02,2.000000000000000000e+00,3.396575164794921875e+01,-8.953818321228027344e+00,6.097378921508789062e+01,-1.625493469238281250e+02,6.005057144165039062e+01,-1.109997253417968750e+02,8.876181030273437500e+01,1.877992630004882812e+01,6.282495498657226562e+01,1.740817871093750000e+02,3.347834396362304688e+01,5.506460952758789062e+01
8.399999886751174927e-02,2.000000000000000000e+00,3.396232986450195312e+01,-8.952262878417968750e+00,6.097308731079101562e+01,-1.625493316650390625e+02,6.005064773559570312e+01,-1.109996109008789062e+02,8.876173400878906250e+01,1.877989578247070312e+01,6.282492828369140625e+01,1.740818023681640625e+02,3.347835540771484375e+01,5.506460571289062500e+01
8.799999952316284180e-02,2.000000000000000000e+00,3.395745086669921875e+01,-8.949915885925292969e+00,6.097198486328125000e+01,-1.625493469238281250e+02,6.005080032348632812e+01,-1.109993515014648438e+02,8.876146697998046875e+01,1.877978515625000000e+01,6.282482528686523438e+01,1.740818176269531250e+02,3.347839355468750000e+01,5.506459808349609375e+01
9.200000017881393433e-02,2.000000000000000000e+00,3.395094299316406250e+01,-8.946641921997070312e+00,6.097036743164062500e+01,-1.625494537353515625e+02,6.005107879638671875e+01,-1.109988632202148438e+02,8.876082611083984375e+01,1.877951812744140625e+01,6.282455825805664062e+01,1.740818481445312500e+02,3.347850418090820312e+01,5.506456756591796875e+01
9.600000083446502686e-02,2.000000000000000000e+00,3.394271087646484375e+01,-8.942335128784179688e+00,6.096812820434570312e+01,-1.625496673583984375e+02,6.005154418945312500e+01,-1.109980163574218750e+02,8.875963592529296875e+01,1.877898788452148438e+01,6.282399368286132812e+01,1.740819549560546875e+02,3.347873306274414062e+01,5.506448745727539062e+01
1.000000014901161194e-01,2.000000000000000000e+00,3.393271255493164062e+01,-8.936926841735839844e+00,6.096515655517578125e+01,-1.625500946044921875e+02,6.005226516723632812e+01,-1.109966812133789062e+02,8.875762939453125000e+01,1.877805328369140625e+01,6.282295227050781250e+01,1.740821228027343750e+02,3.347917175292968750e+01,5.506430435180664062e+01
1.040000021457672119e-01,2.000000000000000000e+00,3.392078781127929688e+01,-8.930335044860839844e+00,6.096133041381835938e+01,-1.625507812500000000e+02,6.005333328247070312e+01,-1.109946975708007812e+02,8.875451660156250000e+01,1.877653503417968750e+01,6.282118606567382812e+01,1.740824432373046875e+02,3.347993850708007812e+01,5.506396484375000000e+01
1.080000028014183044e-01,2.000000000000000000e+00,3.390657043457031250e+01,-8.922397613525390625e+00,6.095648956298828125e+01,-1.625518188476562500e+02,6.005481338500976562e+01,-1.109919204711914062e+02,8.875000000000000000e+01,1.877423858642578125e+01,6.281840515136718750e+01,1.740829467773437500e+02,3.348115539550781250e+01,5.506337356567382812e+01
1.120000034570693970e-01,2.000000000000000000e+00,3.388951873779296875e+01,-8.912882804870605469e+00,6.095044326782226562e+01,-1.625532836914062500e+02,6.005679702758789062e+01,-1.109881744384765625e+02,8.874382781982421875e+01,1.877097129821777344e+01,6.281431961059570312e+01,1.740837249755859375e+02,3.348297119140625000e+01,5.506244659423828125e+01
1.159999966621398926e-01,2.000000000000000000e+00,3.386919784545898438e+01,-8.901599884033203125e+00,6.094303131103515625e+01,-1.625552215576171875e+02,6.005935668945312500e+01,-1.109833221435546875e+02,8.873574829101562500e+01,1.876654815673828125e+01,6.280863952636718750e+01,1.740848236083984375e+02,3.348552703857421875e+01,5.506108856201171875e+01
1.199999973177909851e-01,2.000000000000000000e+00,3.384541320800781250e+01,-8.888500213623046875e+00,6.093413925170898438e+01,-1.625577545166015625e+02,6.006258010864257812e+01,-1.109771957397460938e+02,8.872547912597656250e+01,1.876077651977539062e+01,6.280108261108398438e+01,1.740862884521484375e+02,3.348894882202148438e+01,5.505921554565429688e+01
1.239999979734420776e-01,2.000000000000000000e+00,3.381821441650390625e+01,-8.873668670654296875e+00,6.092372894287109375e+01,-1.625609130859375000e+02,6.006653594970703125e+01,-1.109696578979492188e+02,8.871275329589843750e+01,1.875348854064941406e+01,6.279141235351562500e+01,1.740882110595703125e+02,3.349335098266601562e+01,5.505676269531250000e+01
1.280000060796737671e-01,2.000000000000000000e+00,3.378768920898437500e+01,-8.857209205627441406e+00,6.091177749633789062e+01,-1.625647583007812500e+02,6.007126235961914062e+01,-1.109606323242187500e+02,8.869737243652343750e+01,1.874456214904785156e+01,6.277946472167968750e+01,1.740905761718750000e+02,3.349881744384765625e+01,5.505368041992187500e+01
1.309999972581863403e-01,2.000000000000000000e+00,3.375386810302734375e+01,-8.839165687561035156e+00,6.089827346801757812e+01,-1.625693359375000000e+02,6.007680130004882812e+01,-1.109500274658203125e+02,8.867922210693359375e+01,1.873393440246582031e+01,6.276514816284179688e+01,1.740934295654296875e+02,3.350538253784179688e+01,5.504995727539062500e+01
1.360000073909759521e-01,2.000000000000000000e+00,3.371675872802734375e+01,-8.819546699523925781e+00,6.088321304321289062e+01,-1.625746612548828125e+02,6.008316040039062500e+01,-1.109378433227539062e+02,8.865829467773437500e+01,1.872159957885742188e+01,6.274845504760742188e+01,1.740967712402343750e+02,3.351305007934570312e+01,5.504557418823242188e+01
1.389999985694885254e-01,2.000000000000000000e+00,3.367639160156250000e+01,-8.798351287841796875e+00,6.086661148071289062e+01,-1.625807189941406250e+02,6.009031295776367188e+01,-1.109241256713867188e+02,8.863465881347656250e+01,1.870759773254394531e+01,6.272945404052734375e+01,1.741005859375000000e+02,3.352179336547851562e+01,5.504056167602539062e+01
1.439999938011169434e-01,2.000000000000000000e+00,3.363272094726562500e+01,-8.775509834289550781e+00,6.084849548339843750e+01,-1.625874176025390625e+02,6.009821319580078125e+01,-1.109089508056640625e+02,8.860845947265625000e+01,1.869202995300292969e+01,6.270826721191406250e+01,1.741048278808593750e+02,3.353154373168945312e+01,5.503495788574218750e+01
1.480000019073486328e-01,2.000000000000000000e+00,3.358565139770507812e+01,-8.750905990600585938e+00,6.082889175415039062e+01,-1.625947418212890625e+02,6.010680770874023438e+01,-1.108924560546875000e+02,8.857995605468750000e+01,1.867505073547363281e+01,6.268512725830078125e+01,1.741094818115234375e+02,3.354220581054687500e+01,5.502881240844726562e+01
1.519999951124191284e-01,2.000000000000000000e+00,3.353521728515625000e+01,-8.724488258361816406e+00,6.080786514282226562e+01,-1.626025695800781250e+02,6.011601257324218750e+01,-1.108747787475585938e+02,8.854945373535156250e+01,1.865684890747070312e+01,6.266028594970703125e+01,1.741144714355468750e+02,3.355365753173828125e+01,5.502220916748046875e+01
1.560000032186508179e-01,2.000000000000000000e+00,3.348169708251953125e+01,-8.696365356445312500e+00,6.078554153442382812e+01,-1.626108551025390625e+02,6.012575149536132812e+01,-1.108560714721679688e+02,8.851723480224609375e+01,1.863762092590332031e+01,6.263402938842773438e+01,1.741197662353515625e+02,3.356575775146484375e+01,5.501522445678710938e+01
1.599999964237213135e-01,2.000000000000000000e+00,3.342558670043945312e+01,-8.666758537292480469e+00,6.076212310791015625e+01,-1.626194915771484375e+02,6.013594436645507812e+01,-1.108365173339843750e+02,8.848354339599609375e+01,1.861754798889160156e+01,6.260665512084960938e+01,1.741252593994140625e+02,3.357836914062500000e+01,5.500795745849609375e+01
1.640000045299530029e-01,2.000000000000000000e+00,3.336738586425781250e+01,-8.635884284973144531e+00,6.073777389526367188e+01,-1.626284637451171875e+02,6.014650344848632812e+01,-1.108162460327148438e+02,8.844864654541015625e+01,1.859682273864746094e+01,6.257844161987304688e+01,1.741309204101562500e+02,3.359135818481445312e+01,5.500049209594726562e+01
1.679999977350234985e-01,2.000000000000000000e+00,3.330739212036132812e+01,-8.603882789611816406e+00,6.071264266967773438e+01,-1.626376342773437500e+02,6.015735626220703125e+01,-1.107954330444335938e+02,8.841283416748046875e+01,1.857561874389648438e+01,6.254964447021484375e+01,1.741366882324218750e+02,3.360460662841796875e+01,5.499290084838867188e+01
1.720000058412551880e-01,2.000000000000000000e+00,3.324570465087890625e+01,-8.570837974548339844e+00,6.068685150146484375e+01,-1.626469726562500000e+02,6.016842269897460938e+01,-1.107742080688476562e+02,8.837634277343750000e+01,1.855409240722656250e+01,6.252046585083007812e+01,1.741425170898437500e+02,3.361801528930664062e+01,5.498523330688476562e+01
1.759999990463256836e-01,2.000000000000000000e+00,3.318240356445312500e+01,-8.536845207214355469e+00,6.066051483154296875e+01,-1.626564025878906250e+02,6.017963790893554688e+01,-1.107527084350585938e+02,8.833941650390625000e+01,1.853236389160156250e+01,6.249106979370117188e+01,1.741483917236328125e+02,3.363151550292968750e+01,5.497753524780273438e+01
1.800000071525573730e-01,2.000000000000000000e+00,3.311763763427734375e+01,-8.502029418945312500e+00,6.063373565673828125e+01,-1.626659088134765625e+02,6.019094848632812500e+01,-1.107310180664062500e+02,8.830220031738281250e+01,1.851051902770996094e+01,6.246155548095703125e+01,1.741542816162109375e+02,3.364505767822265625e+01,5.496982574462890625e+01
1.840000003576278687e-01,2.000000000000000000e+00,3.305157470703125000e+01,-8.466521263122558594e+00,6.060661697387695312e+01,-1.626753997802734375e+02,6.020232009887695312e+01,-1.107092361450195312e+02,8.826486206054687500e+01,1.848862266540527344e+01,6.243199920654296875e+01,1.741601867675781250e+02,3.365861511230468750e+01,5.496211624145507812e+01
1.879999935626983643e-01,2.000000000000000000e+00,3.298437881469726562e+01,-8.430460929870605469e+00,6.057925033569335938e+01,-1.626849060058593750e+02,6.021371078491210938e+01,-1.106874160766601562e+02,8.822748565673828125e+01,1.846671485900878906e+01,6.240243911743164062e+01,1.741660766601562500e+02,3.367217254638671875e+01,5.495440673828125000e+01
1.920000016689300537e-01,2.000000000000000000e+00,3.291632461547851562e+01,-8.394022941589355469e+00,6.055171585083007812e+01,-1.626943969726562500e+02,6.022512435913085938e+01,-1.106655731201171875e+02,8.819011688232421875e+01,1.844481086730957031e+01,6.237287902832031250e+01,1.741719665527343750e+02,3.368572998046875000e+01,5.494669723510742188e+01
1.959999948740005493e-01,2.000000000000000000e+00,3.284778976440429688e+01,-8.357397079467773438e+00,6.052410888671875000e+01,-1.627038574218750000e+02,6.023653030395507812e+01,-1.106437377929687500e+02,8.815276336669921875e+01,1.842291831970214844e+01,6.234333038330078125e+01,1.741778717041015625e+02,3.369928359985351562e+01,5.493899154663085938e+01
2.000000029802322388e-01,2.000000000000000000e+00,3.277910614013671875e+01,-8.320718765258789062e+00,6.049649047851562500e+01,-1.627133483886718750e+02,6.024794006347656250e+01,-1.106219024658203125e+02,8.811542510986328125e+01,1.840102767944335938e+01,6.231379699707031250e+01,1.741837615966796875e+02,3.371282958984375000e+01,5.493128967285156250e+01
2.039999961853027344e-01,2.000000000000000000e+00,3.271041488647460938e+01,-8.284043312072753906e+00,6.046886825561523438e+01,-1.627228088378906250e+02,6.025933837890625000e+01,-1.106000747680664062e+02,8.807809448242187500e+01,1.837914848327636719e+01,6.228427124023437500e+01,1.741896514892578125e+02,3.372637557983398438e+01,5.492359161376953125e+01
2.080000042915344238e-01,2.000000000000000000e+00,3.264174652099609375e+01,-8.247378349304199219e+00,6.044125366210937500e+01,-1.627322845458984375e+02,6.027073669433593750e+01,-1.105782470703125000e+02,8.804077911376953125e+01,1.835727500915527344e+01,6.225474929809570312e+01,1.741955413818359375e+02,3.373991394042968750e+01,5.491589355468750000e+01
2.119999974966049194e-01,2.000000000000000000e+00,3.257310104370117188e+01,-8.210726737976074219e+00,6.041365051269531250e+01,-1.627417449951171875e+02,6.028213119506835938e+01,-1.105564422607421875e+02,8.800347137451171875e+01,1.833540534973144531e+01,6.222524261474609375e+01,1.742014160156250000e+02,3.375344467163085938e+01,5.490819549560546875e+01
2.160000056028366089e-01,2.000000000000000000e+00,3.250447463989257812e+01,-8.174086570739746094e+00,6.038605880737304688e+01,-1.627512054443359375e+02,6.029352188110351562e+01,-1.105346298217773438e+02,8.796617126464843750e+01,1.831354713439941406e+01,6.219574356079101562e+01,1.742072906494140625e+02,3.376697540283203125e+01,5.490050506591796875e+01
2.199999988079071045e-01,2.000000000000000000e+00,3.243587112426757812e+01,-8.137457847595214844e+00,6.035847854614257812e+01,-1.627606658935546875e+02,6.030491638183593750e+01,-1.105128402709960938e+02,8.792889404296875000e+01,1.829169464111328125e+01,6.216625213623046875e+01,1.742131805419921875e+02,3.378050231933593750e+01,5.489281463623046875e+01
2.240000069141387939e-01,2.000000000000000000e+00,3.236729431152343750e+01,-8.100840568542480469e+00,6.033090591430664062e+01,-1.627701110839843750e+02,6.031629562377929688e+01,-1.104910430908203125e+02,8.789161682128906250e+01,1.826984786987304688e+01,6.213677215576171875e+01,1.742190551757812500e+02,3.379402542114257812e+01,5.488512802124023438e+01
2.280000001192092896e-01,2.000000000000000000e+00,3.229873657226562500e+01,-8.064235687255859375e+00,6.030333709716796875e+01,-1.627795715332031250e+02,6.032767486572265625e+01,-1.104692535400390625e+02,8.785436248779296875e+01,1.824800872802734375e+01,6.210730743408203125e+01,1.742249450683593750e+02,3.380754089355468750e+01,5.487744140625000000e+01
2.319999933242797852e-01,2.000000000000000000e+00,3.223019790649414062e+01,-8.027642250061035156e+00,6.027577972412109375e+01,-1.627890167236328125e+02,6.033905410766601562e+01,-1.104474792480468750e+02,8.781711578369140625e+01,1.822617721557617188e+01,6.207784271240234375e+01,1.742308197021484375e+02,3.382105636596679688e+01,5.486975860595703125e+01
2.360000014305114746e-01,2.000000000000000000e+00,3.216168594360351562e+01,-7.991061210632324219e+00,6.024823379516601562e+01,-1.627984619140625000e+02,6.035042572021484375e+01,-1.104257125854492188e+02,8.777988433837890625e+01,1.820435333251953125e+01,6.204839706420898438e+01,1.742366943359375000e+02,3.383456039428710938e+01,5.486207962036132812e+01
2.399999946355819702e-01,2.000000000000000000e+00,3.209319305419921875e+01,-7.954491138458251953e+00,6.022069168090820312e+01,-1.628079071044921875e+02,6.036179733276367188e+01,-1.104039459228515625e+02,8.774266052246093750e+01,1.818253517150878906e+01,6.201895141601562500e+01,1.742425689697265625e+02,3.384806442260742188e+01,5.485440063476562500e+01
2.440000027418136597e-01,2.000000000000000000e+00,3.202472686767578125e+01,-7.917933464050292969e+00,6.019316101074218750e+01,-1.628173370361328125e+02,6.037316131591796875e+01,-1.103821868896484375e+02,8.770545196533203125e+01,1.816072463989257812e+01,6.198952102661132812e+01,1.742484283447265625e+02,3.386156463623046875e+01,5.484672546386718750e+01
2.479999959468841553e-01,2.000000000000000000e+00,3.195627593994140625e+01,-7.881387710571289062e+00,6.016564178466796875e+01,-1.628267822265625000e+02,6.038452148437500000e+01,-1.103604354858398438e+02,8.766825103759765625e+01,1.813892173767089844e+01,6.196009445190429688e+01,1.742543029785156250e+02,3.387506103515625000e+01,5.483905410766601562e+01
2.520000040531158447e-01,2.000000000000000000e+00,3.188785171508789062e+01,-7.844853878021240234e+00,6.013812255859375000e+01,-1.628362121582031250e+02,6.039588165283203125e+01,-1.103386917114257812e+02,8.763106536865234375e+01,1.811712455749511719e+01,6.193068695068359375e+01,1.742601623535156250e+02,3.388854980468750000e+01,5.483138275146484375e+01
2.560000121593475342e-01,2.000000000000000000e+00,3.181944656372070312e+01,-7.808331489562988281e+00,6.011062240600585938e+01,-1.628456420898437500e+02,6.040723037719726562e+01,-1.103169631958007812e+02,8.759389495849609375e+01,1.809533691406250000e+01,6.190127944946289062e+01,1.742660369873046875e+02,3.390203857421875000e+01,5.482371520996093750e+01
2.599999904632568359e-01,2.000000000000000000e+00,3.175106430053710938e+01,-7.771820545196533203e+00,6.008312606811523438e+01,-1.628550720214843750e+02,6.041858291625976562e+01,-1.102952346801757812e+02,8.755673217773437500e+01,1.807355308532714844e+01,6.187188339233398438e+01,1.742718963623046875e+02,3.391551971435546875e+01,5.481604766845703125e+01
2.639999985694885254e-01,2.000000000000000000e+00,3.168270683288574219e+01,-7.735321521759033203e+00,6.005564117431640625e+01,-1.628645019531250000e+02,6.042993545532226562e+01,-1.102735061645507812e+02,8.751957702636718750e+01,1.805177879333496094e+01,6.184249877929687500e+01,1.742777557373046875e+02,3.392899703979492188e+01,5.480838394165039062e+01
2.680000066757202148e-01,2.000000000000000000e+00,3.161436843872070312e+01,-7.698834896087646484e+00,6.002816390991210938e+01,-1.628739166259765625e+02,6.044127273559570312e+01,-1.102517929077148438e+02,8.748244476318359375e+01,1.803001022338867188e+01,6.181312942504882812e+01,1.742836151123046875e+02,3.394247055053710938e+01,5.480072402954101562e+01
2.720000147819519043e-01,2.000000000000000000e+00,3.154605293273925781e+01,-7.662359237670898438e+00,6.000069046020507812e+01,-1.628833312988281250e+02,6.045261764526367188e+01,-1.102300872802734375e+02,8.744531250000000000e+01,1.800824928283691406e+01,6.178376007080078125e+01,1.742894592285156250e+02,3.395594024658203125e+01,5.479306793212890625e+01
2.759999930858612061e-01,2.000000000000000000e+00,3.147775650024414062e+01,-7.625895023345947266e+00,5.997323608398437500e+01,-1.628927459716796875e+02,6.046395111083984375e+01,-1.102083892822265625e+02,8.740820312500000000e+01,1.798649406433105469e+01,6.175440597534179688e+01,1.742953186035156250e+02,3.396940231323242188e+01,5.478541183471679688e+01
2.800000011920928955e-01,2.000000000000000000e+00,3.140948677062988281e+01,-7.589442253112792969e+00,5.994578552246093750e+01,-1.629021606445312500e+02,6.047528839111328125e+01,-1.101866912841796875e+02,8.737110137939453125e+01,1.796474647521972656e+01,6.172505569458007812e+01,1.743011779785156250e+02,3.398286437988281250e+01,5.477775955200195312e+01
2.840000092983245850e-01,2.000000000000000000e+00,3.134123611450195312e+01,-7.553001880645751953e+00,5.991833877563476562e+01,-1.629115753173828125e+02,6.048661422729492188e+01,-1.101650009155273438e+02,8.733400726318359375e+01,1.794300651550292969e+01,6.169572067260742188e+01,1.743070373535156250e+02,3.399632263183593750e+01,5.477011108398437500e+01
2.879999876022338867e-01,2.000000000000000000e+00,3.127300834655761719e+01,-7.516572952270507812e+00,5.989090347290039062e+01,-1.629209747314453125e+02,6.049794387817382812e+01,-1.101433258056640625e+02,8.729692840576171875e+01,1.792127227783203125e+01,6.166638946533203125e+01,1.743128814697265625e+02,3.400977325439453125e+01,5.476245880126953125e+01
2.919999957084655762e-01,2.000000000000000000e+00,3.120480155944824219e+01,-7.480155944824218750e+00,5.986347961425781250e+01,-1.629303741455078125e+02,6.050926208496093750e+01,-1.101216506958007812e+02,8.725986480712890625e+01,1.789954566955566406e+01,6.163707733154296875e+01,1.743187255859375000e+02,3.402322006225585938e+01,5.475481796264648438e+01
2.960000038146972656e-01,2.000000000000000000e+00,3.113661575317382812e+01,-7.443750381469726562e+00,5.983606338500976562e+01,-1.629397735595703125e+02,6.052058029174804688e+01,-1.100999832153320312e+02,8.722280883789062500e+01,1.787782478332519531e+01,6.160776138305664062e+01,1.743245697021484375e+02,3.403666305541992188e+01,5.474717330932617188e+01
3.000000119209289551e-01,2.000000000000000000e+00,3.106845092773437500e+01,-7.407355785369873047e+00,5.980866241455078125e+01,-1.629491729736328125e+02,6.053189468383789062e+01,-1.100783309936523438e+02,8.718576049804687500e+01,1.785611343383789062e+01,6.157846450805664062e+01,1.743304138183593750e+02,3.405010223388671875e+01,5.473953247070312500e+01
3.039999902248382568e-01,2.000000000000000000e+00,3.100030899047851562e+01,-7.370973110198974609e+00,5.978125762939453125e+01,-1.629585723876953125e+02,6.054320907592773438e+01,-1.100566787719726562e+02,8.714872741699218750e+01,1.783440780639648438e+01,6.154917144775390625e+01,1.743362426757812500e+02,3.406353759765625000e+01,5.473189163208007812e+01
3.079999983310699463e-01,2.000000000000000000e+00,3.093219184875488281e+01,-7.334602355957031250e+00,5.975386810302734375e+01,-1.629679565429687500e+02,6.055451202392578125e+01,-1.100350265502929688e+02,8.711170959472656250e+01,1.781270790100097656e+01,6.151988983154296875e+01,1.743421020507812500e+02,3.407696914672851562e+01,5.472425460815429688e+01
3.120000064373016357e-01,2.000000000000000000e+00,3.086409187316894531e+01,-7.298242568969726562e+00,5.972648620605468750e+01,-1.629773559570312500e+02,6.056581497192382812e+01,-1.100133895874023438e+02,8.707469940185546875e+01,1.779101562500000000e+01,6.149061584472656250e+01,1.743479309082031250e+02,3.409039306640625000e+01,5.471662139892578125e+01
3.160000145435333252e-01,2.000000000000000000e+00,3.079601478576660156e+01,-7.261893749237060547e+00,5.969911956787109375e+01,-1.629867401123046875e+02,6.057711791992187500e+01,-1.099917526245117188e+02,8.703770446777343750e+01,1.776933097839355469e+01,6.146135711669921875e+01,1.743537750244140625e+02,3.410381698608398438e+01,5.470899200439453125e+01
3.199999928474426270e-01,2.000000000000000000e+00,3.072795867919921875e+01,-7.225558280944824219e+00,5.967174911499023438e+01,-1.629961242675781250e+02,6.058841705322265625e+01,-1.099701309204101562e+02,8.700071716308593750e+01,1.774765205383300781e+01,6.143210220336914062e+01,1.743596038818359375e+02,3.411723327636718750e+01,5.470136260986328125e+01
3.240000009536743164e-01,2.000000000000000000e+00,3.065992736816406250e+01,-7.189232826232910156e+00,5.964439392089843750e+01,-1.630054931640625000e+02,6.059970474243164062e+01,-1.099485168457031250e+02,8.696374511718750000e+01,1.772598075866699219e+01,6.140285491943359375e+01,1.743654479980468750e+02,3.413064575195312500e+01,5.469373703002929688e+01
3.280000090599060059e-01,2.000000000000000000e+00,3.059191513061523438e+01,-7.152919769287109375e+00,5.961704635620117188e+01,-1.630148773193359375e+02,6.061099624633789062e+01,-1.099269027709960938e+02,8.692678833007812500e+01,1.770431709289550781e+01,6.137362289428710938e+01,1.743712615966796875e+02,3.414405822753906250e+01,5.468611145019531250e+01
3.319999873638153076e-01,2.000000000000000000e+00,3.052392387390136719e+01,-7.116617679595947266e+00,5.958971405029296875e+01,-1.630242614746093750e+02,6.062228012084960938e+01,-1.099052963256835938e+02,8.688983917236328125e+01,1.768265724182128906e+01,6.134439468383789062e+01,1.743770904541015625e+02,3.415746307373046875e+01,5.467849349975585938e+01
3.359999954700469971e-01,2.000000000000000000e+00,3.045595741271972656e+01,-7.080327033996582031e+00,5.956238555908203125e+01,-1.630336303710937500e+02,6.063356399536132812e+01,-1.098837051391601562e+02,8.685289764404296875e+01,1.766100692749023438e+01,6.131517410278320312e+01,1.743829345703125000e+02,3.417086410522460938e+01,5.467087173461914062e+01
3.400000035762786865e-01,2.000000000000000000e+00,3.038800621032714844e+01,-7.044047832489013672e+00,5.953506469726562500e+01,-1.630429840087890625e+02,6.064484786987304688e+01,-1.098621139526367188e+02,8.681596374511718750e+01,1.763936424255371094e+01,6.128596878051757812e+01,1.743887481689453125e+02,3.418426132202148438e+01,5.466325378417968750e+01
3.440000116825103760e-01,2.000000000000000000e+00,3.032008171081542969e+01,-7.007780551910400391e+00,5.950775146484375000e+01,-1.630523529052734375e+02,6.065611648559570312e+01,-1.098405227661132812e+02,8.677906036376953125e+01,1.761772537231445312e+01,6.125677108764648438e+01,1.743945617675781250e+02,3.419765090942382812e+01,5.465564346313476562e+01
3.479999899864196777e-01,2.000000000000000000e+00,3.025217819213867188e+01,-6.971524238586425781e+00,5.948044204711914062e+01,-1.630617065429687500e+02,6.066739273071289062e+01,-1.098189468383789062e+02,8.674215698242187500e+01,1.759609603881835938e+01,6.122758483886718750e+01,1.744004058837890625e+02,3.421103668212890625e+01,5.464802932739257812e+01
3.519999980926513672e-01,2.000000000000000000e+00,3.018429374694824219e+01,-6.935279846191406250e+00,5.945315170288085938e+01,-1.630710754394531250e+02,6.067866516113281250e+01,-1.097973785400390625e+02,8.670526123046875000e+01,1.757447052001953125e+01,6.119839859008789062e+01,1.744062194824218750e+02,3.422442245483398438e+01,5.464042282104492188e+01
3.560000061988830566e-01,2.000000000000000000e+00,3.011643218994140625e+01,-6.899046421051025391e+00,5.942586517333984375e+01,-1.630804290771484375e+02,6.068992614746093750e+01,-1.097758102416992188e+02,8.666838073730468750e+01,1.755285453796386719e+01,6.116922760009765625e+01,1.744120330810546875e+02,3.423780059814453125e+01,5.463281250000000000e+01
3.600000143051147461e-01,2.000000000000000000e+00,3.004859542846679688e+01,-6.862825393676757812e+00,5.939859008789062500e+01,-1.630897827148437500e+02,6.070118331909179688e+01,-1.097542572021484375e+02,8.663150787353515625e+01,1.753124427795410156e+01,6.114007186889648438e+01,1.744178466796875000e+02,3.425117874145507812e+01,5.462520599365234375e+01
3.639999926090240479e-01,2.000000000000000000e+00,2.998077392578125000e+01,-6.826614856719970703e+00,5.937131881713867188e+01,-1.630991210937500000e+02,6.071244430541992188e+01,-1.097327041625976562e+02,8.659465789794921875e+01,1.750964164733886719e+01,6.111091995239257812e+01,1.744236602783203125e+02,3.426454925537109375e+01,5.461760330200195312e+01
3.680000007152557373e-01,2.000000000000000000e+00,2.991297721862792969e+01,-6.790416240692138672e+00,5.934405899047851562e+01,-1.631084899902343750e+02,6.072369384765625000e+01,-1.097111663818359375e+02,8.655781555175781250e+01,1.748804473876953125e+01,6.108177566528320312e+01,1.744294738769531250e+02,3.427791595458984375e+01,5.461000823974609375e+01
3.720000088214874268e-01,2.000000000000000000e+00,2.984520149230957031e+01,-6.754228591918945312e+00,5.931680679321289062e+01,-1.631178283691406250e+02,6.073495101928710938e+01,-1.096896286010742188e+02,8.652098083496093750e+01,1.746645545959472656e+01,6.105264282226562500e+01,1.744352874755859375e+02,3.429127883911132812e+01,5.460240936279296875e+01
3.759999871253967285e-01,2.000000000000000000e+00,2.977744674682617188e+01,-6.718052387237548828e+00,5.928955841064453125e+01,-1.631271514892578125e+02,6.074619293212890625e+01,-1.096680984497070312e+02,8.648415374755859375e+01,1.744487380981445312e+01,6.102351379394531250e+01,1.744411010742187500e+02,3.430463409423828125e+01,5.459481430053710938e+01
3.799999952316284180e-01,2.000000000000000000e+00,2.970971488952636719e+01,-6.681888103485107422e+00,5.926232910156250000e+01,-1.631365051269531250e+02,6.075743484497070312e+01,-1.096465682983398438e+02,8.644734954833984375e+01,1.742329788208007812e+01,6.099440383911132812e+01,1.744468994140625000e+02,3.431799316406250000e+01,5.458721923828125000e+01
3.840000033378601074e-01,2.000000000000000000e+00,2.964200401306152344e+01,-6.645734786987304688e+00,5.923510360717773438e+01,-1.631458282470703125e+02,6.076868057250976562e+01,-1.096250534057617188e+02,8.641054534912109375e+01,1.740172767639160156e+01,6.096529388427734375e+01,1.744526977539062500e+02,3.433134078979492188e+01,5.457962799072265625e+01
3.880000114440917969e-01,2.000000000000000000e+00,2.957431221008300781e+01,-6.609593391418457031e+00,5.920788574218750000e+01,-1.631551818847656250e+02,6.077991485595703125e+01,-1.096035461425781250e+02,8.637376403808593750e+01,1.738016700744628906e+01,6.093619537353515625e+01,1.744585113525390625e+02,3.434468841552734375e+01,5.457204055786132812e+01
3.919999897480010986e-01,2.000000000000000000e+00,2.950664329528808594e+01,-6.573462963104248047e+00,5.918067932128906250e+01,-1.631644897460937500e+02,6.079114913940429688e+01,-1.095820465087890625e+02,8.633699035644531250e+01,1.735861015319824219e+01,6.090710449218750000e+01,1.744643096923828125e+02,3.435802841186523438e+01,5.456445693969726562e+01
3.959999978542327881e-01,2.000000000000000000e+00,2.943899726867675781e+01,-6.537343502044677734e+00,5.915347671508789062e+01,-1.631738281250000000e+02,6.080237960815429688e+01,-1.095605545043945312e+02,8.630021667480468750e+01,1.733706092834472656e+01,6.087802886962890625e+01,1.744701080322265625e+02,3.437136840820312500e+01,5.455687332153320312e+01
4.000000059604644775e-01,2.000000000000000000e+00,2.937136840820312500e+01,-6.501236438751220703e+00,5.912628555297851562e+01,-1.631831512451171875e+02,6.081360244750976562e+01,-1.095390625000000000e+02,8.626347351074218750e+01,1.731551933288574219e+01,6.084896087646484375e+01,1.744759063720703125e+02,3.438470077514648438e+01,5.454929351806640625e+01
4.040000140666961670e-01,2.000000000000000000e+00,2.930376243591308594e+01,-6.465140342712402344e+00,5.909910202026367188e+01,-1.631924743652343750e+02,6.082482147216796875e+01,-1.095175781250000000e+02,8.622673034667968750e+01,1.729398536682128906e+01,6.081989669799804688e+01,1.744817047119140625e+02,3.439802932739257812e+01,5.454171371459960938e+01
4.079999923706054688e-01,2.000000000000000000e+00,2.923618125915527344e+01,-6.429056644439697266e+00,5.907192993164062500e+01,-1.632017822265625000e+02,6.083604431152343750e+01,-1.094961013793945312e+02,8.619000244140625000e+01,1.727245521545410156e+01,6.079084777832031250e+01,1.744875030517578125e+02,3.441135406494140625e+01,5.453414154052734375e+01
4.120000004768371582e-01,2.000000000000000000e+00,2.916861724853515625e+01,-6.392983913421630859e+00,5.904475784301757812e+01,-1.632111053466796875e+02,6.084725952148437500e+01,-1.094746322631835938e+02,8.615328216552734375e+01,1.725093460083007812e+01,6.076180648803710938e+01,1.744932861328125000e+02,3.442467117309570312e+01,5.452656555175781250e+01
4.160000085830688477e-01,2.000000000000000000e+00,2.910107612609863281e+01,-6.356923103332519531e+00,5.901760101318359375e+01,-1.632204132080078125e+02,6.085846710205078125e+01,-1.094531784057617188e+02,8.611657714843750000e+01,1.722941970825195312e+01,6.073277282714843750e+01,1.744990844726562500e+02,3.443799209594726562e+01,5.451899337768554688e+01
4.199999868869781494e-01,2.000000000000000000e+00,2.903355598449707031e+01,-6.320874214172363281e+00,5.899045944213867188e+01,-1.632297210693359375e+02,6.086967849731445312e+01,-1.094317245483398438e+02,8.607988739013671875e+01,1.720791053771972656e+01,6.070375061035156250e+01,1.745048675537109375e+02,3.445130538940429688e+01,5.451142501831054688e+01
4.239999949932098389e-01,2.000000000000000000e+00,2.896605682373046875e+01,-6.284835815429687500e+00,5.896331787109375000e+01,-1.632390289306640625e+02,6.088087844848632812e+01,-1.094102706909179688e+02,8.604319763183593750e+01,1.718640899658203125e+01,6.067473602294921875e+01,1.745106506347656250e+02,3.446461105346679688e+01,5.450385665893554688e+01
4.280000030994415283e-01,2.000000000000000000e+00,2.889858245849609375e+01,-6.248808383941650391e+00,5.893618774414062500e+01,-1.632483215332031250e+02,6.089207839965820312e+01,-1.093888244628906250e+02,8.600653076171875000e+01,1.716491508483886719e+01,6.064572906494140625e+01,1.745164489746093750e+02,3.447791290283203125e+01,5.449629211425781250e+01
4.320000112056732178e-01,2.000000000000000000e+00,2.883112335205078125e+01,-6.212791442871093750e+00,5.890906524658203125e+01,-1.632576293945312500e+02,6.090328216552734375e+01,-1.093673934936523438e+02,8.596987152099609375e+01,1.714342689514160156e+01,6.061673355102539062e+01,1.745222167968750000e+02,3.449121475219726562e+01,5.448873138427734375e+01
4.359999895095825195e-01,2.000000000000000000e+00,2.876368904113769531e+01,-6.176784992218017578e+00,5.888194656372070312e+01,-1.632669372558593750e+02,6.091447448730468750e+01,-1.093459701538085938e+02,8.593321990966796875e+01,1.712194633483886719e+01,6.058774566650390625e+01,1.745279998779296875e+02,3.450451278686523438e+01,5.448117446899414062e+01
4.399999976158142090e-01,2.000000000000000000e+00,2.869627571105957031e+01,-6.140790462493896484e+00,5.885483932495117188e+01,-1.632762145996093750e+02,6.092566299438476562e+01,-1.093245391845703125e+02,8.589658355712890625e+01,1.710047149658203125e+01,6.055876541137695312e+01,1.745337829589843750e+02,3.451780319213867188e+01,5.447361755371093750e+01
4.440000057220458984e-01,2.000000000000000000e+00,2.862887954711914062e+01,-6.104806423187255859e+00,5.882774353027343750e+01,-1.632855072021484375e+02,6.093685150146484375e+01,-1.093031311035156250e+02,8.585996246337890625e+01,1.707900428771972656e+01,6.052979278564453125e+01,1.745395507812500000e+02,3.453108596801757812e+01,5.446606445312500000e+01
4.480000138282775879e-01,2.000000000000000000e+00,2.856150817871093750e+01,-6.068834304809570312e+00,5.880065536499023438e+01,-1.632947998046875000e+02,6.094803237915039062e+01,-1.092817230224609375e+02,8.582334136962890625e+01,1.705754470825195312e+01,6.050083160400390625e+01,1.745453338623046875e+02,3.454437255859375000e+01,5.445850753784179688e+01
4.519999921321868896e-01,2.000000000000000000e+00,2.849415588378906250e+01,-6.032873153686523438e+00,5.877357482910156250e+01,-1.633040924072265625e+02,6.095921325683593750e+01,-1.092603149414062500e+02,8.578674316406250000e+01,1.703608894348144531e+01,6.047188568115234375e+01,1.745511169433593750e+02,3.455765151977539062e+01,5.445095825195312500e+01
4.560000002384185791e-01,2.000000000000000000e+00,2.842682838439941406e+01,-5.996923446655273438e+00,5.874649810791015625e+01,-1.633133697509765625e+02,6.097038650512695312e+01,-1.092389221191406250e+02,8.575015258789062500e+01,1.701464080810546875e+01,6.044293975830078125e+01,1.745568847656250000e+02,3.457092285156250000e+01,5.444341278076171875e+01
4.600000083446502686e-01,2.000000000000000000e+00,2.835951805114746094e+01,-5.960984706878662109e+00,5.871943664550781250e+01,-1.633226470947265625e+02,6.098156356811523438e+01,-1.092175369262695312e+02,8.571357727050781250e+01,1.699320030212402344e+01,6.041400909423828125e+01,1.745626525878906250e+02,3.458419418334960938e+01,5.443586730957031250e+01
4.639999866485595703e-01,2.000000000000000000e+00,2.829223060607910156e+01,-5.925057411193847656e+00,5.869237518310546875e+01,-1.633319244384765625e+02,6.099272918701171875e+01,-1.091961517333984375e+02,8.567700958251953125e+01,1.697176742553710938e+01,6.038508987426757812e+01,1.745684204101562500e+02,3.459746170043945312e+01,5.442832183837890625e+01
4.679999947547912598e-01,2.000000000000000000e+00,2.822496223449707031e+01,-5.889141082763671875e+00,5.866532897949218750e+01,-1.633411865234375000e+02,6.100389862060546875e+01,-1.091747817993164062e+02,8.564044952392578125e+01,1.695033836364746094e+01,6.035617065429687500e+01,1.745741882324218750e+02,3.461072540283203125e+01,5.442078399658203125e+01
4.720000028610229492e-01,2.000000000000000000e+00,2.815771675109863281e+01,-5.853236198425292969e+00,5.863829421997070312e+01,-1.633504638671875000e+02,6.101506423950195312e+01,-1.091534118652343750e+02,8.560390472412109375e+01,1.692891883850097656e+01,6.032726287841796875e+01,1.745799560546875000e+02,3.462398529052734375e+01,5.441324615478515625e+01
4.760000109672546387e-01,2.000000000000000000e+00,2.809049224853515625e+01,-5.817342758178710938e+00,5.861125946044921875e+01,-1.633597412109375000e+02,6.102621841430664062e+01,-1.091320571899414062e+02,8.556736755371093750e+01,1.690750503540039062e+01,6.029836654663085938e+01,1.745857086181640625e+02,3.463723754882812500e+01,5.440571212768554688e+01
4.799999892711639404e-01,2.000000000000000000e+00,2.802328872680664062e+01,-5.781460285186767578e+00,5.858423995971679688e+01,-1.633690032958984375e+02,6.103738021850585938e+01,-1.091106948852539062e+02,8.553084564208984375e+01,1.688609695434570312e+01,6.026948165893554688e+01,1.745914764404296875e+02,3.465048599243164062e+01,5.439817810058593750e+01
4.839999973773956299e-01,2.000000000000000000e+00,2.795610427856445312e+01,-5.745588779449462891e+00,5.855722808837890625e+01,-1.633782653808593750e+02,6.104852676391601562e+01,-1.090893478393554688e+02,8.549433898925781250e+01,1.686469650268554688e+01,6.024060440063476562e+01,1.745972442626953125e+02,3.466373443603515625e+01,5.439064407348632812e+01
4.880000054836273193e-01,2.000000000000000000e+00,2.788894271850585938e+01,-5.709728717803955078e+00,5.853022003173828125e+01,-1.633875274658203125e+02,6.105967712402343750e+01,-1.090680084228515625e+02,8.545783996582031250e+01,1.684330368041992188e+01,6.021173095703125000e+01,1.746029968261718750e+02,3.467697143554687500e+01,5.438311767578125000e+01
4.920000135898590088e-01,2.000000000000000000e+00,2.782180213928222656e+01,-5.673880100250244141e+00,5.850322723388671875e+01,-1.633967742919921875e+02,6.107081985473632812e+01,-1.090466766357421875e+02,8.542134857177734375e+01,1.682191658020019531e+01,6.018286514282226562e+01,1.746087646484375000e+02,3.469021224975585938e+01,5.437559127807617188e+01
4.959999918937683105e-01,2.000000000000000000e+00,2.775468254089355469e+01,-5.638041973114013672e+00,5.847623443603515625e+01,-1.634060363769531250e+02,6.108195877075195312e+01,-1.090253448486328125e+02,8.538487243652343750e+01,1.680053520202636719e+01,6.015401458740234375e+01,1.746145172119140625e+02,3.470344543457031250e+01,5.436806869506835938e+01
5.000000000000000000e-01,2.000000000000000000e+00,2.768758201599121094e+01,-5.602215766906738281e+00,5.844925689697265625e+01,-1.634152832031250000e+02,6.109309768676757812e+01,-1.090040206909179688e+02,8.534840393066406250e+01,1.677916145324707031e+01,6.012517166137695312e+01,1.746202697753906250e+02,3.471667480468750000e+01,5.436054611206054688e+01
5.040000081062316895e-01,2.000000000000000000e+00,2.762050437927246094e+01,-5.566400051116943359e+00,5.842229080200195312e+01,-1.634245300292968750e+02,6.110423278808593750e+01,-1.089827117919921875e+02,8.531195068359375000e+01,1.675779342651367188e+01,6.009634399414062500e+01,1.746260070800781250e+02,3.472990036010742188e+01,5.435302734375000000e+01
5.080000162124633789e-01,2.000000000000000000e+00,2.755344772338867188e+01,-5.530595779418945312e+00,5.839532470703125000e+01,-1.634337768554687500e+02,6.111536407470703125e+01,-1.089614028930664062e+02,8.527551269531250000e+01,1.673643302917480469e+01,6.006752014160156250e+01,1.746317596435546875e+02,3.474312210083007812e+01,5.434551239013671875e+01
5.120000243186950684e-01,2.000000000000000000e+00,2.748641204833984375e+01,-5.494802951812744141e+00,5.836837387084960938e+01,-1.634430084228515625e+02,6.112649154663085938e+01,-1.089401016235351562e+02,8.523908233642578125e+01,1.671508026123046875e+01,6.003870391845703125e+01,1.746374969482421875e+02,3.475633621215820312e+01,5.433799362182617188e+01
5.159999728202819824e-01,2.000000000000000000e+00,2.741939544677734375e+01,-5.459021091461181641e+00,5.834141921997070312e+01,-1.634522552490234375e+02,6.113761901855468750e+01,-1.089188079833984375e+02,8.520265960693359375e+01,1.669373130798339844e+01,6.000989151000976562e+01,1.746432495117187500e+02,3.476955032348632812e+01,5.433048248291015625e+01
5.199999809265136719e-01,2.000000000000000000e+00,2.735240173339843750e+01,-5.423250198364257812e+00,5.831448745727539062e+01,-1.634615020751953125e+02,6.114873886108398438e+01,-1.088975219726562500e+02,8.516625213623046875e+01,1.667239189147949219e+01,5.998109817504882812e+01,1.746489868164062500e+02,3.478276062011718750e+01,5.432297515869140625e+01
5.239999890327453613e-01,2.000000000000000000e+00,2.728542709350585938e+01,-5.387490749359130859e+00,5.828755950927734375e+01,-1.634707183837890625e+02,6.115985870361328125e+01,-1.088762359619140625e+02,8.512985229492187500e+01,1.665105628967285156e+01,5.995230865478515625e+01,1.746547393798828125e+02,3.479596328735351562e+01,5.431546401977539062e+01
5.279999971389770508e-01,2.000000000000000000e+00,2.721847534179687500e+01,-5.351741790771484375e+00,5.826063156127929688e+01,-1.634799499511718750e+02,6.117097091674804688e+01,-1.088549575805664062e+02,8.509346771240234375e+01,1.662973022460937500e+01,5.992352294921875000e+01,1.746604766845703125e+02,3.480916595458984375e+01,5.430796051025390625e+01
5.320000052452087402e-01,2.000000000000000000e+00,2.715154266357421875e+01,-5.316004753112792969e+00,5.823372268676757812e+01,-1.634891815185546875e+02,6.118208312988281250e+01,-1.088336868286132812e+02,8.505709075927734375e+01,1.660840988159179688e+01,5.989475631713867188e+01,1.746662139892578125e+02,3.482236099243164062e+01,5.430045700073242188e+01
5.360000133514404297e-01,2.000000000000000000e+00,2.708463096618652344e+01,-5.280278205871582031e+00,5.820681762695312500e+01,-1.634984130859375000e+02,6.119318771362304688e+01,-1.088124313354492188e+02,8.502072906494140625e+01,1.658709526062011719e+01,5.986599349975585938e+01,1.746719512939453125e+02,3.483555221557617188e+01,5.429295730590820312e+01
5.400000214576721191e-01,2.000000000000000000e+00,2.701774024963378906e+01,-5.244563102722167969e+00,5.817992019653320312e+01,-1.635076293945312500e+02,6.120428848266601562e+01,-1.087911758422851562e+02,8.498437500000000000e+01,1.656578826904296875e+01,5.983723831176757812e+01,1.746776885986328125e+02,3.484873962402343750e+01,5.428546142578125000e+01
5.440000295639038086e-01,2.000000000000000000e+00,2.695087051391601562e+01,-5.208858966827392578e+00,5.815303802490234375e+01,-1.635168457031250000e+02,6.121538543701171875e+01,-1.087699203491210938e+02,8.494803619384765625e+01,1.654448699951171875e+01,5.980849838256835938e+01,1.746834106445312500e+02,3.486192321777343750e+01,5.427796173095703125e+01
5.479999780654907227e-01,2.000000000000000000e+00,2.688402175903320312e+01,-5.173166751861572266e+00,5.812615203857421875e+01,-1.635260620117187500e+02,6.122648620605468750e+01,-1.087486801147460938e+02,8.491170501708984375e+01,1.652319335937500000e+01,5.977975463867187500e+01,1.746891479492187500e+02,3.487510299682617188e+01,5.427046585083007812e+01
5.519999861717224121e-01,2.000000000000000000e+00,2.681719398498535156e+01,-5.137485504150390625e+00,5.809928512573242188e+01,-1.635352783203125000e+02,6.123757934570312500e+01,-1.087274475097656250e+02,8.487538909912109375e+01,1.650190544128417969e+01,5.975103378295898438e+01,1.746948699951171875e+02,3.488827896118164062e+01,5.426297760009765625e+01
5.559999942779541016e-01,2.000000000000000000e+00,2.675038719177246094e+01,-5.101816654205322266e+00,5.807242584228515625e+01,-1.635444793701171875e+02,6.124866867065429688e+01,-1.087062149047851562e+02,8.483908843994140625e+01,1.648062324523925781e+01,5.972231292724609375e+01,1.747006072998046875e+02,3.490145111083984375e+01,5.425548934936523438e+01
5.600000023841857910e-01,2.000000000000000000e+00,2.668359947204589844e+01,-5.066158294677734375e+00,5.804557037353515625e+01,-1.635536956787109375e+02,6.125975418090820312e+01,-1.086849975585937500e+02,8.480278778076171875e+01,1.645934867858886719e+01,5.969360733032226562e+01,1.747063446044921875e+02,3.491461944580078125e+01,5.424800109863281250e+01
5.640000104904174805e-01,2.000000000000000000e+00,2.661683464050292969e+01,-5.030511856079101562e+00,5.801873016357421875e+01,-1.635628967285156250e+02,6.127083969116210938e+01,-1.086637802124023438e+02,8.476650238037109375e+01,1.643808174133300781e+01,5.966490554809570312e+01,1.747120666503906250e+02,3.492778396606445312e+01,5.424051666259765625e+01
5.680000185966491699e-01,2.000000000000000000e+00,2.655008888244628906e+01,-4.994875431060791016e+00,5.799188613891601562e+01,-1.635720977783203125e+02,6.128192138671875000e+01,-1.086425781250000000e+02,8.473022460937500000e+01,1.641682052612304688e+01,5.963621139526367188e+01,1.747177886962890625e+02,3.494094467163085938e+01,5.423303604125976562e+01
5.720000267028808594e-01,2.000000000000000000e+00,2.648336601257324219e+01,-4.959249496459960938e+00,5.796505737304687500e+01,-1.635812988281250000e+02,6.129299163818359375e+01,-1.086213760375976562e+02,8.469396209716796875e+01,1.639556503295898438e+01,5.960753250122070312e+01,1.747235107421875000e+02,3.495409774780273438e+01,5.422555541992187500e+01
5.759999752044677734e-01,2.000000000000000000e+00,2.641666221618652344e+01,-4.923634529113769531e+00,5.793824005126953125e+01,-1.635904846191406250e+02,6.130406188964843750e+01,-1.086001739501953125e+02,8.465771484375000000e+01,1.637431907653808594e+01,5.957886123657226562e+01,1.747292175292968750e+02,3.496725082397460938e+01,5.421807861328125000e+01
5.799999833106994629e-01,2.000000000000000000e+00,2.634997940063476562e+01,-4.888030052185058594e+00,5.791142654418945312e+01,-1.635996856689453125e+02,6.131513595581054688e+01,-1.085789871215820312e+02,8.462147521972656250e+01,1.635307693481445312e+01,5.955019378662109375e+01,1.747349395751953125e+02,3.498039627075195312e+01,5.421060562133789062e+01
5.839999914169311523e-01,2.000000000000000000e+00,2.628331565856933594e+01,-4.852437019348144531e+00,5.788462448120117188e+01,-1.636088714599609375e+02,6.132619857788085938e+01,-1.085578079223632812e+02,8.458525085449218750e+01,1.633184051513671875e+01,5.952154159545898438e+01,1.747406463623046875e+02,3.499353790283203125e+01,5.420313262939453125e+01
5.879999995231628418e-01,2.000000000000000000e+00,2.621667480468750000e+01,-4.816854953765869141e+00,5.785782241821289062e+01,-1.636180725097656250e+02,6.133726501464843750e+01,-1.085366287231445312e+02,8.454902648925781250e+01,1.631061363220214844e+01,5.949289321899414062e+01,1.747463684082031250e+02,3.500667953491210938e+01,5.419565963745117188e+01
5.920000076293945312e-01,2.000000000000000000e+00,2.615005111694335938e+01,-4.781283855438232422e+00,5.783103561401367188e+01,-1.636272583007812500e+02,6.134832382202148438e+01,-1.085154571533203125e+02,8.451282501220703125e+01,1.628939056396484375e+01,5.946425628662109375e+01,1.747520751953125000e+02,3.501981353759765625e+01,5.418819427490234375e+01
5.960000157356262207e-01,2.000000000000000000e+00,2.608345031738281250e+01,-4.745724201202392578e+00,5.780426025390625000e+01,-1.636364288330078125e+02,6.135937500000000000e+01,-1.084943008422851562e+02,8.447663116455078125e+01,1.626817512512207031e+01,5.943562316894531250e+01,1.747577819824218750e+02,3.503294754028320312e+01,5.418072509765625000e+01
6.000000238418579102e-01,2.000000000000000000e+00,2.601686859130859375e+01,-4.710175514221191406e+00,5.777748489379882812e+01,-1.636456146240234375e+02,6.137043380737304688e+01,-1.084731369018554688e+02,8.444044494628906250e+01,1.624696540832519531e+01,5.940700531005859375e+01,1.747634887695312500e+02,3.504607391357421875e+01,5.417326354980468750e+01
6.039999723434448242e-01,2.000000000000000000e+00,2.595030784606933594e+01,-4.674636840820312500e+00,5.775072479248046875e+01,-1.636547851562500000e+02,6.138147735595703125e+01,-1.084519958496093750e+02,8.440427398681640625e+01,1.622576522827148438e+01,5.937839508056640625e+01,1.747691955566406250e+02,3.505919265747070312e+01,5.416580200195312500e+01
6.079999804496765137e-01,2.000000000000000000e+00,2.588376808166503906e+01,-4.639109611511230469e+00,5.772397232055664062e+01,-1.636639556884765625e+02,6.139252090454101562e+01,-1.084308471679687500e+02,8.436811065673828125e+01,1.620456886291503906e+01,5.934979629516601562e+01,1.747749176025390625e+02,3.507231521606445312e+01,5.415834426879882812e+01
6.119999885559082031e-01,2.000000000000000000e+00,2.581724739074707031e+01,-4.603593349456787109e+00,5.769722366333007812e+01,-1.636731414794921875e+02,6.140356445312500000e+01,-1.084097061157226562e+02,8.433196258544921875e+01,1.618338012695312500e+01,5.932119750976562500e+01,1.747806091308593750e+02,3.508543014526367188e+01,5.415088653564453125e+01
6.159999966621398926e-01,2.000000000000000000e+00,2.575074958801269531e+01,-4.568087577819824219e+00,5.767048263549804688e+01,-1.636822967529296875e+02,6.141460418701171875e+01,-1.083885803222656250e+02,8.429582214355468750e+01,1.616219711303710938e+01,5.929261398315429688e+01,1.747863006591796875e+02,3.509854125976562500e+01,5.414343261718750000e+01
6.200000047683715820e-01,2.000000000000000000e+00,2.568427085876464844e+01,-4.532592773437500000e+00,5.764375686645507812e+01,-1.636914672851562500e+02,6.142564010620117188e+01,-1.083674545288085938e+02,8.425969696044921875e+01,1.614102172851562500e+01,5.926403427124023438e+01,1.747920227050781250e+02,3.511164474487304688e+01,5.413598251342773438e+01
6.240000128746032715e-01,2.000000000000000000e+00,2.561781311035156250e+01,-4.497108936309814453e+00,5.761703109741210938e+01,-1.637006225585937500e+02,6.143667221069335938e+01,-1.083463363647460938e+02,8.422357940673828125e+01,1.611985015869140625e+01,5.923547363281250000e+01,1.747977142333984375e+02,3.512475204467773438e+01,5.412853240966796875e+01
6.280000209808349609e-01,2.000000000000000000e+00,2.555137443542480469e+01,-4.461636066436767578e+00,5.759031677246093750e+01,-1.637097930908203125e+02,6.144769668579101562e+01,-1.083252258300781250e+02,8.418746948242187500e+01,1.609868812561035156e+01,5.920691680908203125e+01,1.748034057617187500e+02,3.513784790039062500e+01,5.412108612060546875e+01
6.320000290870666504e-01,2.000000000000000000e+00,2.548495674133300781e+01,-4.426173686981201172e+00,5.756361389160156250e+01,-1.637189331054687500e+02,6.145872497558593750e+01,-1.083041152954101562e+02,8.415138244628906250e+01,1.607753181457519531e+01,5.917836380004882812e+01,1.748090972900390625e+02,3.515094375610351562e+01,5.411363983154296875e+01
6.359999775886535645e-01,2.000000000000000000e+00,2.541856002807617188e+01,-4.390721797943115234e+00,5.753691864013671875e+01,-1.637280883789062500e+02,6.146974182128906250e+01,-1.082830200195312500e+02,8.411529541015625000e+01,1.605638122558593750e+01,5.914982223510742188e+01,1.748147888183593750e+02,3.516403579711914062e+01,5.410619354248046875e+01
6.399999856948852539e-01,2.000000000000000000e+00,2.535218238830566406e+01,-4.355281352996826172e+00,5.751022720336914062e+01,-1.637372436523437500e+02,6.148075866699218750e+01,-1.082619247436523438e+02,8.407922363281250000e+01,1.603523635864257812e+01,5.912129211425781250e+01,1.748204803466796875e+02,3.517712020874023438e+01,5.409875488281250000e+01
6.439999938011169434e-01,2.000000000000000000e+00,2.528582572937011719e+01,-4.319851398468017578e+00,5.748354721069335938e+01,-1.637463989257812500e+02,6.149177551269531250e+01,-1.082408447265625000e+02,8.404315948486328125e+01,1.601409912109375000e+01,5.909276199340820312e+01,1.748261718750000000e+02,3.519020462036132812e+01,5.409131622314453125e+01
6.480000019073486328e-01,2.000000000000000000e+00,2.521948623657226562e+01,-4.284431934356689453e+00,5.745687103271484375e+01,-1.637555389404296875e+02,6.150278854370117188e+01,-1.082197647094726562e+02,8.400710296630859375e+01,1.599296855926513672e+01,5.906425094604492188e+01,1.748318481445312500e+02,3.520328521728515625e+01,5.408388137817382812e+01
6.520000100135803223e-01,2.000000000000000000e+00,2.515317153930664062e+01,-4.249023914337158203e+00,5.743020629882812500e+01,-1.637646942138671875e+02,6.151379776000976562e+01,-1.081986923217773438e+02,8.397106933593750000e+01,1.597184467315673828e+01,5.903574371337890625e+01,1.748375396728515625e+02,3.521635818481445312e+01,5.407644653320312500e+01
6.560000181198120117e-01,2.000000000000000000e+00,2.508687400817871094e+01,-4.213625907897949219e+00,5.740355300903320312e+01,-1.637738342285156250e+02,6.152479934692382812e+01,-1.081776199340820312e+02,8.393504333496093750e+01,1.595072555541992188e+01,5.900724792480468750e+01,1.748432312011718750e+02,3.522943115234375000e+01,5.406901550292968750e+01
6.600000262260437012e-01,2.000000000000000000e+00,2.502059936523437500e+01,-4.178239345550537109e+00,5.737690353393554688e+01,-1.637829589843750000e+02,6.153580474853515625e+01,-1.081565628051757812e+02,8.389901733398437500e+01,1.592961311340332031e+01,5.897875213623046875e+01,1.748489074707031250e+02,3.524249649047851562e+01,5.406158828735351562e+01
6.639999747276306152e-01,2.000000000000000000e+00,2.495433998107910156e+01,-4.142862796783447266e+00,5.735026550292968750e+01,-1.637920837402343750e+02,6.154680252075195312e+01,-1.081355133056640625e+02,8.386300659179687500e+01,1.590850830078125000e+01,5.895027923583984375e+01,1.748545989990234375e+02,3.525555801391601562e+01,5.405415725708007812e+01
6.679999828338623047e-01,2.000000000000000000e+00,2.488810539245605469e+01,-4.107497215270996094e+00,5.732362747192382812e+01,-1.638012237548828125e+02,6.155779647827148438e+01,-1.081144638061523438e+02,8.382701873779296875e+01,1.588740825653076172e+01,5.892180252075195312e+01,1.748602600097656250e+02,3.526861953735351562e+01,5.404673385620117188e+01
6.719999909400939941e-01,2.000000000000000000e+00,2.482188796997070312e+01,-4.072142601013183594e+00,5.729700088500976562e+01,-1.638103485107421875e+02,6.156878662109375000e+01,-1.080934219360351562e+02,8.379102325439453125e+01,1.586631584167480469e+01,5.889334106445312500e+01,1.748659515380859375e+02,3.528167343139648438e+01,5.403931045532226562e+01
6.759999990463256836e-01,2.000000000000000000e+00,2.475569152832031250e+01,-4.036798477172851562e+00,5.727038955688476562e+01,-1.638194732666015625e+02,6.157977676391601562e+01,-1.080723876953125000e+02,8.375505065917968750e+01,1.584523010253906250e+01,5.886488723754882812e+01,1.748716125488281250e+02,3.529472732543945312e+01,5.403188705444335938e+01
6.800000071525573730e-01,2.000000000000000000e+00,2.468951606750488281e+01,-4.001464843750000000e+00,5.724377822875976562e+01,-1.638285980224609375e+02,6.159075927734375000e+01,-1.080513610839843750e+02,8.371909332275390625e+01,1.582415008544921875e+01,5.883643722534179688e+01,1.748773040771484375e+02,3.530777359008789062e+01,5.402447128295898438e+01
6.840000152587890625e-01,2.000000000000000000e+00,2.462335777282714844e+01,-3.966141939163208008e+00,5.721717834472656250e+01,-1.638377227783203125e+02,6.160174179077148438e+01,-1.080303344726562500e+02,8.368313598632812500e+01,1.580307579040527344e+01,5.880799865722656250e+01,1.748829650878906250e+02,3.532081604003906250e+01,5.401705551147460938e+01
6.880000233650207520e-01,2.000000000000000000e+00,2.455722236633300781e+01,-3.930829524993896484e+00,5.719058609008789062e+01,-1.638468475341796875e+02,6.161272048950195312e+01,-1.080093231201171875e+02,8.364719390869140625e+01,1.578200817108154297e+01,5.877957153320312500e+01,1.748886413574218750e+02,3.533385467529296875e+01,5.400964355468750000e+01
6.919999718666076660e-01,2.000000000000000000e+00,2.449110603332519531e+01,-3.895528078079223633e+00,5.716400146484375000e+01,-1.638559570312500000e+02,6.162369537353515625e+01,-1.079883193969726562e+02,8.361125946044921875e+01,1.576094722747802734e+01,5.875114822387695312e+01,1.748943023681640625e+02,3.534689331054687500e+01,5.400223159790039062e+01
6.959999799728393555e-01,2.000000000000000000e+00,2.442500877380371094e+01,-3.860236883163452148e+00,5.713742446899414062e+01,-1.638650817871093750e+02,6.163467025756835938e+01,-1.079673156738281250e+02,8.357534027099609375e+01,1.573989295959472656e+01,5.872273635864257812e+01,1.748999786376953125e+02,3.535992431640625000e+01,5.399481964111328125e+01
6.999999880790710449e-01,2.000000000000000000e+00,2.435893249511718750e+01,-3.824956893920898438e+00,5.711085510253906250e+01,-1.638741760253906250e+02,6.164563369750976562e+01,-1.079463119506835938e+02,8.353942871093750000e+01,1.571884346008300781e+01,5.869433593750000000e+01,1.749056243896484375e+02,3.537294769287109375e+01,5.398741531372070312e+01
7.039999961853027344e-01,2.000000000000000000e+00,2.429287528991699219e+01,-3.789686918258666992e+00,5.708429336547851562e+01,-1.638832855224609375e+02,6.165660476684570312e+01,-1.079253234863281250e+02,8.350353240966796875e+01,1.569780158996582031e+01,5.866593551635742188e+01,1.749113006591796875e+02,3.538597488403320312e+01,5.398001098632812500e+01
7.080000042915344238e-01,2.000000000000000000e+00,2.422683906555175781e+01,-3.754427909851074219e+00,5.705774307250976562e+01,-1.638923797607421875e+02,6.166756439208984375e+01,-1.079043426513671875e+02,8.346764373779296875e+01,1.567676639556884766e+01,5.863755035400390625e+01,1.749169464111328125e+02,3.539899444580078125e+01,5.397260665893554688e+01
7.120000123977661133e-01,2.000000000000000000e+00,2.416082191467285156e+01,-3.719179391860961914e+00,5.703120040893554688e+01,-1.639015045166015625e+02,6.167852020263671875e+01,-1.078833618164062500e+02,8.343176269531250000e+01,1.565573596954345703e+01,5.860917282104492188e+01,1.749226226806640625e+02,3.541201019287109375e+01,5.396520614624023438e+01
7.160000205039978027e-01,2.000000000000000000e+00,2.409482192993164062e+01,-3.683941125869750977e+00,5.700466156005859375e+01,-1.639105987548828125e+02,6.168947601318359375e+01,-1.078623886108398438e+02,8.339589691162109375e+01,1.563471317291259766e+01,5.858080673217773438e+01,1.749282836914062500e+02,3.542502212524414062e+01,5.395780944824218750e+01
7.200000286102294922e-01,2.000000000000000000e+00,2.402884483337402344e+01,-3.648714065551757812e+00,5.697813034057617188e+01,-1.639196929931640625e+02,6.170042419433593750e+01,-1.078414306640625000e+02,8.336003875732421875e+01,1.561369609832763672e+01,5.855244445800781250e+01,1.749339294433593750e+02,3.543803024291992188e+01,5.395041275024414062e+01
7.239999771118164062e-01,2.000000000000000000e+00,2.396288681030273438e+01,-3.613497018814086914e+00,5.695161056518554688e+01,-1.639287719726562500e+02,6.171137619018554688e+01,-1.078204650878906250e+02,8.332419586181640625e+01,1.559268665313720703e+01,5.852409362792968750e+01,1.749395904541015625e+02,3.545103454589843750e+01,5.394301605224609375e+01
7.279999852180480957e-01,2.000000000000000000e+00,2.389694976806640625e+01,-3.578290939331054688e+00,5.692509841918945312e+01,-1.639378814697265625e+02,6.172232437133789062e+01,-1.077995147705078125e+02,8.328836822509765625e+01,1.557168197631835938e+01,5.849575042724609375e+01,1.749452362060546875e+02,3.546403121948242188e+01,5.393562698364257812e+01
7.319999933242797852e-01,2.000000000000000000e+00,2.383102989196777344e+01,-3.543095350265502930e+00,5.689859390258789062e+01,-1.639469604492187500e+02,6.173326492309570312e+01,-1.077785720825195312e+02,8.325254058837890625e+01,1.555068492889404297e+01,5.846741104125976562e+01,1.749508819580078125e+02,3.547703170776367188e+01,5.392823791503906250e+01
7.360000014305114746e-01,2.000000000000000000e+00,2.376513290405273438e+01,-3.507910251617431641e+00,5.687209701538085938e+01,-1.639560394287109375e+02,6.174420547485351562e+01,-1.077576293945312500e+02,8.321672821044921875e+01,1.552969360351562500e+01,5.843908691406250000e+01,1.749565429687500000e+02,3.549002075195312500e+01,5.392084884643554688e+01
7.400000095367431641e-01,2.000000000000000000e+00,2.369925498962402344e+01,-3.472735643386840820e+00,5.684560775756835938e+01,-1.639651336669921875e+02,6.175514221191406250e+01,-1.077366943359375000e+02,8.318092346191406250e+01,1.550870800018310547e+01,5.841076660156250000e+01,1.749621887207031250e+02,3.550301361083984375e+01,5.391346740722656250e+01
7.440000176429748535e-01,2.000000000000000000e+00,2.363339614868164062e+01,-3.437571763992309570e+00,5.681912994384765625e+01,-1.639742126464843750e+02,6.176607131958007812e+01,-1.077157669067382812e+02,8.314513397216796875e+01,1.548772907257080078e+01,5.838245773315429688e+01,1.749678344726562500e+02,3.551599884033203125e+01,5.390608215332031250e+01
7.480000257492065430e-01,2.000000000000000000e+00,2.356755638122558594e+01,-3.402418136596679688e+00,5.679265594482421875e+01,-1.639832763671875000e+02,6.177700042724609375e+01,-1.076948471069335938e+02,8.310935211181640625e+01,1.546675682067871094e+01,5.835415267944335938e+01,1.749734802246093750e+02,3.552897644042968750e+01,5.389870452880859375e+01
7.519999742507934570e-01,2.000000000000000000e+00,2.350173759460449219e+01,-3.367275238037109375e+00,5.676618957519531250e+01,-1.639923553466796875e+02,6.178792572021484375e+01,-1.076739273071289062e+02,8.307358551025390625e+01,1.544579029083251953e+01,5.832586288452148438e+01,1.749791259765625000e+02,3.554195404052734375e+01,5.389132690429687500e+01
7.559999823570251465e-01,2.000000000000000000e+00,2.343593597412109375e+01,-3.332142829895019531e+00,5.673973083496093750e+01,-1.640014190673828125e+02,6.179884719848632812e+01,-1.076530227661132812e+02,8.303782653808593750e+01,1.542482948303222656e+01,5.829757690429687500e+01,1.749847564697265625e+02,3.555492782592773438e+01,5.388394927978515625e+01
7.599999904632568359e-01,2.000000000000000000e+00,2.337015724182128906e+01,-3.297020912170410156e+00,5.671327972412109375e+01,-1.640104980468750000e+02,6.180976867675781250e+01,-1.076321258544921875e+02,8.300207519531250000e+01,1.540387630462646484e+01,5.826930236816406250e+01,1.749904022216796875e+02,3.556789779663085938e+01,5.387657546997070312e+01
7.639999985694885254e-01,2.000000000000000000e+00,2.330439567565917969e+01,-3.261909484863281250e+00,5.668684005737304688e+01,-1.640195617675781250e+02,6.182068634033203125e+01,-1.076112213134765625e+02,8.296633911132812500e+01,1.538292789459228516e+01,5.824103164672851562e+01,1.749960479736328125e+02,3.558086395263671875e+01,5.386920547485351562e+01
7.680000066757202148e-01,2.000000000000000000e+00,2.323865509033203125e+01,-3.226808547973632812e+00,5.666040802001953125e+01,-1.640286254882812500e+02,6.183160018920898438e+01,-1.075903396606445312e+02,8.293061065673828125e+01,1.536198711395263672e+01,5.821277236938476562e+01,1.750016784667968750e+02,3.559382247924804688e+01,5.386183547973632812e+01
7.720000147819519043e-01,2.000000000000000000e+00,2.317293548583984375e+01,-3.191718101501464844e+00,5.663398361206054688e+01,-1.640376892089843750e+02,6.184250640869140625e+01,-1.075694503784179688e+02,8.289488983154296875e+01,1.534105205535888672e+01,5.818452453613281250e+01,1.750073089599609375e+02,3.560678100585937500e+01,5.385446929931640625e+01
7.760000228881835938e-01,2.000000000000000000e+00,2.310723304748535156e+01,-3.156638145446777344e+00,5.660756301879882812e+01,-1.640467529296875000e+02,6.185340881347656250e+01,-1.075485763549804688e+02,8.285919189453125000e+01,1.532012271881103516e+01,5.815628051757812500e+01,1.750129394531250000e+02,3.561973571777343750e+01,5.384710311889648438e+01
7.799999713897705078e-01,2.000000000000000000e+00,2.304155158996582031e+01,-3.121568679809570312e+00,5.658115386962890625e+01,-1.640558013916015625e+02,6.186431503295898438e+01,-1.075277023315429688e+02,8.282348632812500000e+01,1.529920005798339844e+01,5.812804412841796875e+01,1.750185699462890625e+02,3.563268280029296875e+01,5.383973693847656250e+01
7.839999794960021973e-01,2.000000000000000000e+00,2.297588920593261719e+01,-3.086509704589843750e+00,5.655475234985351562e+01,-1.640648498535156250e+02,6.187521743774414062e+01,-1.075068359375000000e+02,8.278781127929687500e+01,1.527828502655029297e+01,5.809982299804687500e+01,1.750242004394531250e+02,3.564562988281250000e+01,5.383237838745117188e+01
7.879999876022338867e-01,2.000000000000000000e+00,2.291024589538574219e+01,-3.051461219787597656e+00,5.652835845947265625e+01,-1.640738983154296875e+02,6.188611221313476562e+01,-1.074859771728515625e+02,8.275213623046875000e+01,1.525737380981445312e+01,5.807160949707031250e+01,1.750298309326171875e+02,3.565857315063476562e+01,5.382501983642578125e+01
7.919999957084655762e-01,2.000000000000000000e+00,2.284462356567382812e+01,-3.016422986984252930e+00,5.650197219848632812e+01,-1.640829467773437500e+02,6.189700698852539062e+01,-1.074651336669921875e+02,8.271646881103515625e+01,1.523647022247314453e+01,5.804339981079101562e+01,1.750354614257812500e+02,3.567150878906250000e+01,5.381766510009765625e+01
7.960000038146972656e-01,2.000000000000000000e+00,2.277901840209960938e+01,-2.981395483016967773e+00,5.647559356689453125e+01,-1.640919952392578125e+02,6.190789413452148438e+01,-1.074442825317382812e+02,8.268082427978515625e+01,1.521557331085205078e+01,5.801519775390625000e+01,1.750410919189453125e+02,3.568444824218750000e+01,5.381031036376953125e+01
8.000000119209289551e-01,2.000000000000000000e+00,2.271343612670898438e+01,-2.946378231048583984e+00,5.644922256469726562e+01,-1.641010284423828125e+02,6.191878128051757812e+01,-1.074234390258789062e+02,8.264517211914062500e+01,1.519468116760253906e+01,5.798700332641601562e+01,1.750466918945312500e+02,3.569737625122070312e+01,5.380295944213867188e+01
8.040000200271606445e-01,2.000000000000000000e+00,2.264787101745605469e+01,-2.911371469497680664e+00,5.642286300659179688e+01,-1.641100769042968750e+02,6.192966079711914062e+01,-1.074026107788085938e+02,8.260955047607421875e+01,1.517379665374755859e+01,5.795882034301757812e+01,1.750523223876953125e+02,3.571030426025390625e+01,5.379560852050781250e+01
8.080000281333923340e-01,2.000000000000000000e+00,2.258232688903808594e+01,-2.876375198364257812e+00,5.639650726318359375e+01,-1.641191101074218750e+02,6.194054031372070312e+01,-1.073817825317382812e+02,8.257392120361328125e+01,1.515291786193847656e+01,5.793064498901367188e+01,1.750579376220703125e+02,3.572322463989257812e+01,5.378826141357421875e+01
8.119999766349792480e-01,2.000000000000000000e+00,2.251679992675781250e+01,-2.841389179229736328e+00,5.637015914916992188e+01,-1.641281433105468750e+02,6.195141983032226562e+01,-1.073609619140625000e+02,8.253831481933593750e+01,1.513204479217529297e+01,5.790247726440429688e+01,1.750635528564453125e+02,3.573614501953125000e+01,5.378091812133789062e+01
8.159999847412109375e-01,2.000000000000000000e+00,2.245129394531250000e+01,-2.806413650512695312e+00,5.634381866455078125e+01,-1.641371765136718750e+02,6.196229553222656250e+01,-1.073401489257812500e+02,8.250271606445312500e+01,1.511117935180664062e+01,5.787432479858398438e+01,1.750691833496093750e+02,3.574906158447265625e+01,5.377357482910156250e+01
8.199999928474426270e-01,2.000000000000000000e+00,2.238580894470214844e+01,-2.771448612213134766e+00,5.631748962402343750e+01,-1.641462097167968750e+02,6.197316360473632812e+01,-1.073193359375000000e+02,8.246712493896484375e+01,1.509031772613525391e+01,5.784617233276367188e+01,1.750747985839843750e+02,3.576197433471679688e+01,5.376623153686523438e+01
8.240000009536743164e-01,2.000000000000000000e+00,2.232034111022949219e+01,-2.736493825912475586e+00,5.629116439819335938e+01,-1.641552276611328125e+02,6.198402786254882812e+01,-1.072985305786132812e+02,8.243154907226562500e+01,1.506946372985839844e+01,5.781803131103515625e+01,1.750803985595703125e+02,3.577487945556640625e+01,5.375889205932617188e+01
8.280000090599060059e-01,2.000000000000000000e+00,2.225489425659179688e+01,-2.701549530029296875e+00,5.626485061645507812e+01,-1.641642608642578125e+02,6.199489593505859375e+01,-1.072777404785156250e+02,8.239598083496093750e+01,1.504861640930175781e+01,5.778989791870117188e+01,1.750860137939453125e+02,3.578778457641601562e+01,5.375155639648437500e+01
8.320000171661376953e-01,2.000000000000000000e+00,2.218946647644042969e+01,-2.666615486145019531e+00,5.623854064941406250e+01,-1.641732635498046875e+02,6.200575637817382812e+01,-1.072569503784179688e+02,8.236042022705078125e+01,1.502777385711669922e+01,5.776176834106445312e+01,1.750916290283203125e+02,3.580068206787109375e+01,5.374422073364257812e+01
8.360000252723693848e-01,2.000000000000000000e+00,2.212405776977539062e+01,-2.631691694259643555e+00,5.621224212646484375e+01,-1.641822814941406250e+02,6.201661682128906250e+01,-1.072361602783203125e+02,8.232487487792968750e+01,1.500693798065185547e+01,5.773365783691406250e+01,1.750972290039062500e+02,3.581357955932617188e+01,5.373688888549804688e+01
8.399999737739562988e-01,2.000000000000000000e+00,2.205866813659667969e+01,-2.596778631210327148e+00,5.618595123291015625e+01,-1.641912994384765625e+02,6.202746963500976562e+01,-1.072153854370117188e+02,8.228933715820312500e+01,1.498610973358154297e+01,5.770555114746093750e+01,1.751028442382812500e+02,3.582646942138671875e+01,5.372956085205078125e+01
8.439999818801879883e-01,2.000000000000000000e+00,2.199329757690429688e+01,-2.561875820159912109e+00,5.615966796875000000e+01,-1.642003173828125000e+02,6.203832244873046875e+01,-1.071946105957031250e+02,8.225380706787109375e+01,1.496528625488281250e+01,5.767745208740234375e+01,1.751084442138671875e+02,3.583935928344726562e+01,5.372223281860351562e+01
8.479999899864196777e-01,2.000000000000000000e+00,2.192794609069824219e+01,-2.526983261108398438e+00,5.613339233398437500e+01,-1.642093200683593750e+02,6.204916763305664062e+01,-1.071738433837890625e+02,8.221829223632812500e+01,1.494446945190429688e+01,5.764935684204101562e+01,1.751140441894531250e+02,3.585224533081054688e+01,5.371490478515625000e+01
8.519999980926513672e-01,2.000000000000000000e+00,2.186261558532714844e+01,-2.492100954055786133e+00,5.610712051391601562e+01,-1.642183380126953125e+02,6.206000900268554688e+01,-1.071530914306640625e+02,8.218279266357421875e+01,1.492365741729736328e+01,5.762127304077148438e+01,1.751196441650390625e+02,3.586512756347656250e+01,5.370758438110351562e+01
8.560000061988830566e-01,2.000000000000000000e+00,2.179730415344238281e+01,-2.457229137420654297e+00,5.608086013793945312e+01,-1.642273406982421875e+02,6.207085418701171875e+01,-1.071323318481445312e+02,8.214730072021484375e+01,1.490285491943359375e+01,5.759320068359375000e+01,1.751252441406250000e+02,3.587800216674804688e+01,5.370026397705078125e+01
8.600000143051147461e-01,2.000000000000000000e+00,2.173201179504394531e+01,-2.422367572784423828e+00,5.605460739135742188e+01,-1.642363433837890625e+02,6.208169555664062500e+01,-1.071115875244140625e+02,8.211180877685546875e+01,1.488205528259277344e+01,5.756513595581054688e+01,1.751308441162109375e+02,3.589087677001953125e+01,5.369294357299804688e+01
8.640000224113464355e-01,2.000000000000000000e+00,2.166673851013183594e+01,-2.387516260147094727e+00,5.602835845947265625e+01,-1.642453460693359375e+02,6.209252548217773438e+01,-1.070908432006835938e+02,8.207633972167968750e+01,1.486126232147216797e+01,5.753707885742187500e+01,1.751364288330078125e+02,3.590374374389648438e+01,5.368562698364257812e+01
8.679999709129333496e-01,2.000000000000000000e+00,2.160148429870605469e+01,-2.352675437927246094e+00,5.600212478637695312e+01,-1.642543334960937500e+02,6.210335922241210938e+01,-1.070701065063476562e+02,8.204087829589843750e+01,1.484047603607177734e+01,5.750902557373046875e+01,1.751420288085937500e+02,3.591660690307617188e+01,5.367831420898437500e+01
8.719999790191650391e-01,2.000000000000000000e+00,2.153625106811523438e+01,-2.317844867706298828e+00,5.597589492797851562e+01,-1.642633361816406250e+02,6.211418533325195312e+01,-1.070493774414062500e+02,8.200542449951171875e+01,1.481969738006591797e+01,5.748097991943359375e+01,1.751476287841796875e+02,3.592947006225585938e+01,5.367099761962890625e+01
8.759999871253967285e-01,2.000000000000000000e+00,2.147103500366210938e+01,-2.283024549484252930e+00,5.594967269897460938e+01,-1.642723236083984375e+02,6.212501144409179688e+01,-1.070286560058593750e+02,8.196998596191406250e+01,1.479892349243164062e+01,5.745294952392578125e+01,1.751532287597656250e+02,3.594232559204101562e+01,5.366368865966796875e+01
8.799999952316284180e-01,2.000000000000000000e+00,2.140583801269531250e+01,-2.248214721679687500e+00,5.592345809936523438e+01,-1.642813110351562500e+02,6.213583755493164062e+01,-1.070079421997070312e+02,8.193455505371093750e+01,1.477815628051757812e+01,5.742492675781250000e+01,1.751588134765625000e+02,3.595518112182617188e+01,5.365638351440429688e+01
8.840000033378601074e-01,2.000000000000000000e+00,2.134066390991210938e+01,-2.213414907455444336e+00,5.589725112915039062e+01,-1.642902984619140625e+02,6.214665603637695312e+01,-1.069872283935546875e+02,8.189913177490234375e+01,1.475739383697509766e+01,5.739690780639648438e+01,1.751643981933593750e+02,3.596803283691406250e+01,5.364907455444335938e+01
8.880000114440917969e-01,2.000000000000000000e+00,2.127550506591796875e+01,-2.178625583648681641e+00,5.587105178833007812e+01,-1.642992706298828125e+02,6.215746688842773438e+01,-1.069665298461914062e+02,8.186372375488281250e+01,1.473663902282714844e+01,5.736889648437500000e+01,1.751699829101562500e+02,3.598088073730468750e+01,5.364177322387695312e+01
8.920000195503234863e-01,2.000000000000000000e+00,2.121036720275878906e+01,-2.143846035003662109e+00,5.584486007690429688e+01,-1.643082580566406250e+02,6.216828155517578125e+01,-1.069458236694335938e+02,8.182832336425781250e+01,1.471588897705078125e+01,5.734090042114257812e+01,1.751755676269531250e+02,3.599372100830078125e+01,5.363447189331054688e+01
8.960000276565551758e-01,2.000000000000000000e+00,2.114524841308593750e+01,-2.109077215194702148e+00,5.581867599487304688e+01,-1.643172302246093750e+02,6.217909240722656250e+01,-1.069251403808593750e+02,8.179293060302734375e+01,1.469514560699462891e+01,5.731291198730468750e+01,1.751811370849609375e+02,3.600656127929687500e+01,5.362717056274414062e+01
8.999999761581420898e-01,2.000000000000000000e+00,2.108014869689941406e+01,-2.074318647384643555e+00,5.579249954223632812e+01,-1.643262176513671875e+02,6.218989944458007812e+01,-1.069044494628906250e+02,8.175755310058593750e+01,1.467440891265869141e+01,5.728492355346679688e+01,1.751867370605468750e+02,3.601939392089843750e+01,5.361987304687500000e+01
9.039999842643737793e-01,2.000000000000000000e+00,2.101506805419921875e+01,-2.039570331573486328e+00,5.576633453369140625e+01,-1.643351898193359375e+02,6.220070266723632812e+01,-1.068837661743164062e+02,8.172218322753906250e+01,1.465367794036865234e+01,5.725695037841796875e+01,1.751923065185546875e+02,3.603222656250000000e+01,5.361257553100585938e+01
9.079999923706054688e-01,2.000000000000000000e+00,2.095000648498535156e+01,-2.004832267761230469e+00,5.574017333984375000e+01,-1.643441467285156250e+02,6.221150207519531250e+01,-1.068630981445312500e+02,8.168682861328125000e+01,1.463295269012451172e+01,5.722898101806640625e+01,1.751978912353515625e+02,3.604505157470703125e+01,5.360528182983398438e+01
9.120000004768371582e-01,2.000000000000000000e+00,2.088496589660644531e+01,-1.970104098320007324e+00,5.571401977539062500e+01,-1.643531188964843750e+02,6.222229385375976562e+01,-1.068424301147460938e+02,8.165147399902343750e+01,1.461223411560058594e+01,5.720102310180664062e+01,1.752034606933593750e+02,3.605787658691406250e+01,5.359799194335937500e+01
9.160000085830688477e-01,2.000000000000000000e+00,2.081994247436523438e+01,-1.935386419296264648e+00,5.568787384033203125e+01,-1.643620910644531250e+02,6.223309326171875000e+01,-1.068217697143554688e+02,8.161614227294921875e+01,1.459152126312255859e+01,5.717307281494140625e+01,1.752090454101562500e+02,3.607069778442382812e+01,5.359070205688476562e+01
9.200000166893005371e-01,2.000000000000000000e+00,2.075493621826171875e+01,-1.900678992271423340e+00,5.566173934936523438e+01,-1.643710479736328125e+02,6.224387741088867188e+01,-1.068011093139648438e+02,8.158081817626953125e+01,1.457081508636474609e+01,5.714513015747070312e+01,1.752146148681640625e+02,3.608351516723632812e+01,5.358341598510742188e+01
9.240000247955322266e-01,2.000000000000000000e+00,2.068995285034179688e+01,-1.865981698036193848e+00,5.563560867309570312e+01,-1.643800048828125000e+02,6.225466918945312500e+01,-1.067804565429687500e+02,8.154550170898437500e+01,1.455011463165283203e+01,5.711719512939453125e+01,1.752201843261718750e+02,3.609632873535156250e+01,5.357612991333007812e+01
9.279999732971191406e-01,2.000000000000000000e+00,2.062498664855957031e+01,-1.831294536590576172e+00,5.560948944091796875e+01,-1.643889465332031250e+02,6.226545333862304688e+01,-1.067598190307617188e+02,8.151019287109375000e+01,1.452941894531250000e+01,5.708926773071289062e+01,1.752257385253906250e+02,3.610913467407226562e+01,5.356885147094726562e+01
9.319999814033508301e-01,2.000000000000000000e+00,2.056004142761230469e+01,-1.796617627143859863e+00,5.558337402343750000e+01,-1.643979187011718750e+02,6.227622985839843750e+01,-1.067391815185546875e+02,8.147489929199218750e+01,1.450873088836669922e+01,5.706135177612304688e+01,1.752313232421875000e+02,3.612194061279296875e+01,5.356156921386718750e+01
9.359999895095825195e-01,2.000000000000000000e+00,2.049511337280273438e+01,-1.761951088905334473e+00,5.555727005004882812e+01,-1.644068603515625000e+02,6.228701019287109375e+01,-1.067185516357421875e+02,8.143961334228515625e+01,1.448804855346679688e+01,5.703344345092773438e+01,1.752368774414062500e+02,3.613473892211914062e+01,5.355429077148437500e+01
9.399999976158142090e-01,2.000000000000000000e+00,2.043020439147949219e+01,-1.727294564247131348e+00,5.553116607666015625e+01,-1.644158172607421875e+02,6.229777908325195312e+01,-1.066979217529296875e+02,8.140434265136718750e+01,1.446737384796142578e+01,5.700554275512695312e+01,1.752424468994140625e+02,3.614753723144531250e+01,5.354701232910156250e+01
9.440000057220458984e-01,2.000000000000000000e+00,2.036531639099121094e+01,-1.692648172378540039e+00,5.550507354736328125e+01,-1.644247589111328125e+02,6.230855178833007812e+01,-1.066773071289062500e+02,8.136907958984375000e+01,1.444670200347900391e+01,5.697764587402343750e+01,1.752480163574218750e+02,3.616033172607421875e+01,5.353973770141601562e+01
9.480000138282775879e-01,2.000000000000000000e+00,2.030044364929199219e+01,-1.658012151718139648e+00,5.547899246215820312e+01,-1.644337005615234375e+02,6.231932449340820312e+01,-1.066566925048828125e+02,8.133381652832031250e+01,1.442603969573974609e+01,5.694976425170898438e+01,1.752535705566406250e+02,3.617312240600585938e+01,5.353247070312500000e+01
9.520000219345092773e-01,2.000000000000000000e+00,2.023559379577636719e+01,-1.623386025428771973e+00,5.545291519165039062e+01,-1.644426422119140625e+02,6.233008575439453125e+01,-1.066360855102539062e+02,8.129857635498046875e+01,1.440538120269775391e+01,5.692188644409179688e+01,1.752591247558593750e+02,3.618590927124023438e+01,5.352519989013671875e+01
9.559999704360961914e-01,2.000000000000000000e+00,2.017076110839843750e+01,-1.588770270347595215e+00,5.542684936523437500e+01,-1.644515686035156250e+02,6.234085083007812500e+01,-1.066154861450195312e+02,8.126333618164062500e+01,1.438472843170166016e+01,5.689402008056640625e+01,1.752646942138671875e+02,3.619869232177734375e+01,5.351792907714843750e+01
9.599999785423278809e-01,2.000000000000000000e+00,2.010594749450683594e+01,-1.554164528846740723e+00,5.540078735351562500e+01,-1.644605255126953125e+02,6.235160827636718750e+01,-1.065948944091796875e+02,8.122811126708984375e+01,1.436408233642578125e+01,5.686615753173828125e+01,1.752702484130859375e+02,3.621146774291992188e+01,5.351066589355468750e+01
9.639999866485595703e-01,2.000000000000000000e+00,2.004115295410156250e+01,-1.519568920135498047e+00,5.537473297119140625e+01,-1.644694519042968750e+02,6.236236572265625000e+01,-1.065742950439453125e+02,8.119290161132812500e+01,1.434344387054443359e+01,5.683830261230468750e+01,1.752758026123046875e+02,3.622424316406250000e+01,5.350340270996093750e+01
9.679999947547912598e-01,2.000000000000000000e+00,1.997637939453125000e+01,-1.484983682632446289e+00,5.534869003295898438e+01,-1.644783782958984375e+02,6.237311935424804688e+01,-1.065537185668945312e+02,8.115769958496093750e+01,1.432280921936035156e+01,5.681046295166015625e+01,1.752813568115234375e+02,3.623701477050781250e+01,5.349614334106445312e+01
9.720000028610229492e-01,2.000000000000000000e+00,1.991162300109863281e+01,-1.450408339500427246e+00,5.532265090942382812e+01,-1.644873046875000000e+02,6.238386917114257812e+01,-1.065331420898437500e+02,8.112251281738281250e+01,1.430218219757080078e+01,5.678262329101562500e+01,1.752868957519531250e+02,3.624978256225585938e+01,5.348888015747070312e+01
9.760000109672546387e-01,2.000000000000000000e+00,1.984688568115234375e+01,-1.415843129158020020e+00,5.529662322998046875e+01,-1.644962310791015625e+02,6.239461135864257812e+01,-1.065125656127929688e+02,8.108733367919921875e+01,1.428155994415283203e+01,5.675479888916015625e+01,1.752924652099609375e+02,3.626254653930664062e+01,5.348162841796875000e+01
9.800000190734863281e-01,2.000000000000000000e+00,1.978216552734375000e+01,-1.381288170814514160e+00,5.527060317993164062e+01,-1.645051422119140625e+02,6.240535736083984375e+01,-1.064920043945312500e+02,8.105215454101562500e+01,1.426094532012939453e+01,5.672697830200195312e+01,1.752980041503906250e+02,3.627530670166015625e+01,5.347437286376953125e+01
9.840000271797180176e-01,2.000000000000000000e+00,1.971746635437011719e+01,-1.346743226051330566e+00,5.524458694458007812e+01,-1.645140686035156250e+02,6.241609191894531250e+01,-1.064714431762695312e+02,8.101699066162109375e+01,1.424033546447753906e+01,5.669916534423828125e+01,1.753035583496093750e+02,3.628806304931640625e+01,5.346712112426757812e+01
9.879999756813049316e-01,2.000000000000000000e+00,1.965278625488281250e+01,-1.312208414077758789e+00,5.521857833862304688e+01,-1.645229949951171875e+02,6.242683029174804688e+01,-1.064508895874023438e+02,8.098184204101562500e+01,1.421973133087158203e+01,5.667136383056640625e+01,1.753090972900390625e+02,3.630081176757812500e+01,5.345986557006835938e+01
9.919999837875366211e-01,2.000000000000000000e+00,1.958812522888183594e+01,-1.277683615684509277e+00,5.519258117675781250e+01,-1.645319061279296875e+02,6.243756866455078125e+01,-1.064303436279296875e+02,8.094670104980468750e+01,1.419913482666015625e+01,5.664356994628906250e+01,1.753146514892578125e+02,3.631356048583984375e+01,5.345262145996093750e+01
9.959999918937683105e-01,2.000000000000000000e+00,1.952348327636718750e+01,-1.243168950080871582e+00,5.516658782958984375e+01,-1.645408172607421875e+02,6.244829559326171875e+01,-1.064098052978515625e+02,8.091156768798828125e+01,1.417854213714599609e+01,5.661577987670898438e+01,1.753201751708984375e+02,3.632630538940429688e+01,5.344537353515625000e+01
1.000000000000000000e+00,2.000000000000000000e+00,1.945885848999023438e+01,-1.208664417266845703e+00,5.514060211181640625e+01,-1.645497283935546875e+02,6.245902252197265625e+01,-1.063892669677734375e+02,8.087644958496093750e+01,1.415795707702636719e+01,5.658800125122070312e+01,1.753257293701171875e+02,3.633905029296875000e+01,5.343812942504882812e+01
1.003999948501586914e+00,2.000000000000000000e+00,1.939425468444824219e+01,-1.174169778823852539e+00,5.511462402343750000e+01,-1.645586242675781250e+02,6.246974563598632812e+01,-1.063687438964843750e+02,8.084133911132812500e+01,1.413737773895263672e+01,5.656023025512695312e+01,1.753312530517578125e+02,3.635178756713867188e+01,5.343088531494140625e+01
1.008000016212463379e+00,2.000000000000000000e+00,1.932966804504394531e+01,-1.139685392379760742e+00,5.508865737915039062e+01,-1.645675354003906250e+02,6.248046875000000000e+01,-1.063482208251953125e+02,8.080624389648437500e+01,1.411680412292480469e+01,5.653247070312500000e+01,1.753368072509765625e+02,3.636452102661132812e+01,5.342364501953125000e+01
1.011999964714050293e+00,2.000000000000000000e+00,1.926510047912597656e+01,-1.105211019515991211e+00,5.506269454956054688e+01,-1.645764465332031250e+02,6.249118423461914062e+01,-1.063276977539062500e+02,8.077115631103515625e+01,1.409623718261718750e+01,5.650471496582031250e+01,1.753423309326171875e+02,3.637725067138671875e+01,5.341640853881835938e+01
1.016000032424926758e+00,2.000000000000000000e+00,1.920055198669433594e+01,-1.070746660232543945e+00,5.503673934936523438e+01,-1.645853424072265625e+02,6.250189971923828125e+01,-1.063071899414062500e+02,8.073607635498046875e+01,1.407567501068115234e+01,5.647696685791015625e+01,1.753478698730468750e+02,3.638997650146484375e+01,5.340917205810546875e+01
1.019999980926513672e+00,2.000000000000000000e+00,1.913602256774902344e+01,-1.036292433738708496e+00,5.501079559326171875e+01,-1.645942230224609375e+02,6.251261138916015625e+01,-1.062866821289062500e+02,8.070100402832031250e+01,1.405511951446533203e+01,5.644922637939453125e+01,1.753534088134765625e+02,3.640269851684570312e+01,5.340193939208984375e+01
1.024000048637390137e+00,2.000000000000000000e+00,1.907151031494140625e+01,-1.001848101615905762e+00,5.498485565185546875e+01,-1.646031188964843750e+02,6.252331924438476562e+01,-1.062661895751953125e+02,8.066593933105468750e+01,1.403457069396972656e+01,5.642149734497070312e+01,1.753589324951171875e+02,3.641542053222656250e+01,5.339471054077148438e+01
1.026999950408935547e+00,2.000000000000000000e+00,1.900701904296875000e+01,-9.674139022827148438e-01,5.495892333984375000e+01,-1.646120147705078125e+02,6.253402328491210938e+01,-1.062456893920898438e+02,8.063089752197265625e+01,1.401402568817138672e+01,5.639377593994140625e+01,1.753644714355468750e+02,3.642813491821289062e+01,5.338748168945312500e+01
1.031999945640563965e+00,2.000000000000000000e+00,1.894254684448242188e+01,-9.329896569252014160e-01,5.493299865722656250e+01,-1.646209106445312500e+02,6.254472732543945312e+01,-1.062252044677734375e+02,8.059585571289062500e+01,1.399348831176757812e+01,5.636606216430664062e+01,1.753699798583984375e+02,3.644084548950195312e+01,5.338025283813476562e+01
1.036000013351440430e+00,2.000000000000000000e+00,1.887809181213378906e+01,-8.985755443572998047e-01,5.490708541870117188e+01,-1.646297912597656250e+02,6.255542755126953125e+01,-1.062047195434570312e+02,8.056082916259765625e+01,1.397295665740966797e+01,5.633835601806640625e+01,1.753755187988281250e+02,3.645355224609375000e+01,5.337302780151367188e+01
1.039999961853027344e+00,2.000000000000000000e+00,1.881365585327148438e+01,-8.641713261604309082e-01,5.488117599487304688e+01,-1.646386718750000000e+02,6.256612396240234375e+01,-1.061842498779296875e+02,8.052581024169921875e+01,1.395243167877197266e+01,5.631065368652343750e+01,1.753810424804687500e+02,3.646625900268554688e+01,5.336580657958984375e+01
1.044000029563903809e+00,2.000000000000000000e+00,1.874923896789550781e+01,-8.297771215438842773e-01,5.485527420043945312e+01,-1.646475524902343750e+02,6.257681274414062500e+01,-1.061637802124023438e+02,8.049079895019531250e+01,1.393191146850585938e+01,5.628296661376953125e+01,1.753865661621093750e+02,3.647895812988281250e+01,5.335858154296875000e+01
1.047999978065490723e+00,2.000000000000000000e+00,1.868483924865722656e+01,-7.953929901123046875e-01,5.482938003540039062e+01,-1.646564331054687500e+02,6.258750534057617188e+01,-1.061433181762695312e+02,8.045580291748046875e+01,1.391139793395996094e+01,5.625528335571289062e+01,1.753920898437500000e+02,3.649165725708007812e+01,5.335136795043945312e+01
1.052000045776367188e+00,2.000000000000000000e+00,1.862046051025390625e+01,-7.610187530517578125e-01,5.480349349975585938e+01,-1.646653137207031250e+02,6.259819412231445312e+01,-1.061228637695312500e+02,8.042082214355468750e+01,1.389089012145996094e+01,5.622761154174804688e+01,1.753976135253906250e+02,3.650434875488281250e+01,5.334414672851562500e+01
1.054999947547912598e+00,2.000000000000000000e+00,1.855609893798828125e+01,-7.266545295715332031e-01,5.477761459350585938e+01,-1.646741790771484375e+02,6.260887527465820312e+01,-1.061024093627929688e+02,8.038584136962890625e+01,1.387038898468017578e+01,5.619994354248046875e+01,1.754031219482421875e+02,3.651703643798828125e+01,5.333693313598632812e+01
1.059999942779541016e+00,2.000000000000000000e+00,1.849175643920898438e+01,-6.923003196716308594e-01,5.475174331665039062e+01,-1.646830444335937500e+02,6.261955642700195312e+01,-1.060819625854492188e+02,8.035087585449218750e+01,1.384989356994628906e+01,5.617228698730468750e+01,1.754086303710937500e+02,3.652972412109375000e+01,5.332972335815429688e+01
1.064000010490417480e+00,2.000000000000000000e+00,1.842743301391601562e+01,-6.579560041427612305e-01,5.472587966918945312e+01,-1.646919250488281250e+02,6.263023376464843750e+01,-1.060615234375000000e+02,8.031591796875000000e+01,1.382940387725830078e+01,5.614463806152343750e+01,1.754141540527343750e+02,3.654240417480468750e+01,5.332250976562500000e+01
1.067999958992004395e+00,2.000000000000000000e+00,1.836312866210937500e+01,-6.236217021942138672e-01,5.470002365112304688e+01,-1.647007904052734375e+02,6.264090728759765625e+01,-1.060410919189453125e+02,8.028097534179687500e+01,1.380891895294189453e+01,5.611699676513671875e+01,1.754196624755859375e+02,3.655508422851562500e+01,5.331530380249023438e+01
1.072000026702880859e+00,2.000000000000000000e+00,1.829884147644042969e+01,-5.892973542213439941e-01,5.467417526245117188e+01,-1.647096405029296875e+02,6.265157699584960938e+01,-1.060206604003906250e+02,8.024602508544921875e+01,1.378844070434570312e+01,5.608935928344726562e+01,1.754251708984375000e+02,3.656775665283203125e+01,5.330809783935546875e+01
1.075999975204467773e+00,2.000000000000000000e+00,1.823457527160644531e+01,-5.549829602241516113e-01,5.464833450317382812e+01,-1.647185058593750000e+02,6.266224670410156250e+01,-1.060002441406250000e+02,8.021110534667968750e+01,1.376796913146972656e+01,5.606173324584960938e+01,1.754306945800781250e+02,3.658042907714843750e+01,5.330089187622070312e+01
1.080000042915344238e+00,2.000000000000000000e+00,1.817032432556152344e+01,-5.206784605979919434e-01,5.462250137329101562e+01,-1.647273559570312500e+02,6.267290878295898438e+01,-1.059798278808593750e+02,8.017619323730468750e+01,1.374750232696533203e+01,5.603411483764648438e+01,1.754362030029296875e+02,3.659309768676757812e+01,5.329368972778320312e+01
1.083999991416931152e+00,2.000000000000000000e+00,1.810609626770019531e+01,-4.863837063312530518e-01,5.459667205810546875e+01,-1.647362213134765625e+02,6.268357086181640625e+01,-1.059594192504882812e+02,8.014128112792968750e+01,1.372704315185546875e+01,5.600650787353515625e+01,1.754416961669921875e+02,3.660576248168945312e+01,5.328649139404296875e+01
1.088000059127807617e+00,2.000000000000000000e+00,1.804188346862792969e+01,-4.520988762378692627e-01,5.457085418701171875e+01,-1.647450866699218750e+02,6.269423294067382812e+01,-1.059390106201171875e+02,8.010638427734375000e+01,1.370658779144287109e+01,5.597890090942382812e+01,1.754472045898437500e+02,3.661841964721679688e+01,5.327928924560546875e+01
1.090999960899353027e+00,2.000000000000000000e+00,1.797768974304199219e+01,-4.178240597248077393e-01,5.454504394531250000e+01,-1.647539367675781250e+02,6.270488739013671875e+01,-1.059186096191406250e+02,8.007149505615234375e+01,1.368614006042480469e+01,5.595130920410156250e+01,1.754527130126953125e+02,3.663107681274414062e+01,5.327209472656250000e+01
1.095999956130981445e+00,2.000000000000000000e+00,1.791351509094238281e+01,-3.835592865943908691e-01,5.451924133300781250e+01,-1.647627716064453125e+02,6.271554183959960938e+01,-1.058982162475585938e+02,8.003662109375000000e+01,1.366569709777832031e+01,5.592372512817382812e+01,1.754582061767578125e+02,3.664373016357421875e+01,5.326490402221679688e+01
1.100000023841857910e+00,2.000000000000000000e+00,1.784935951232910156e+01,-3.493044674396514893e-01,5.449344635009765625e+01,-1.647716217041015625e+02,6.272618865966796875e+01,-1.058778381347656250e+02,8.000175476074218750e+01,1.364526176452636719e+01,5.589614486694335938e+01,1.754637145996093750e+02,3.665637969970703125e+01,5.325770950317382812e+01
1.103999972343444824e+00,2.000000000000000000e+00,1.778522109985351562e+01,-3.150595128536224365e-01,5.446765518188476562e+01,-1.647804565429687500e+02,6.273683929443359375e+01,-1.058574523925781250e+02,7.996689605712890625e+01,1.362483119964599609e+01,5.586857604980468750e+01,1.754692077636718750e+02,3.666902542114257812e+01,5.325051879882812500e+01
1.108000040054321289e+00,2.000000000000000000e+00,1.772110176086425781e+01,-2.808243930339813232e-01,5.444187545776367188e+01,-1.647892913818359375e+02,6.274747848510742188e+01,-1.058370819091796875e+02,7.993205261230468750e+01,1.360440635681152344e+01,5.584101486206054688e+01,1.754747009277343750e+02,3.668166351318359375e+01,5.324333190917968750e+01
1.111999988555908203e+00,2.000000000000000000e+00,1.765700149536132812e+01,-2.465990483760833740e-01,5.441609954833984375e+01,-1.647981414794921875e+02,6.275812149047851562e+01,-1.058167114257812500e+02,7.989721679687500000e+01,1.358398723602294922e+01,5.581345748901367188e+01,1.754801940917968750e+02,3.669430541992187500e+01,5.323614883422851562e+01
1.116000056266784668e+00,2.000000000000000000e+00,1.759291648864746094e+01,-2.123834639787673950e-01,5.439033508300781250e+01,-1.648069763183593750e+02,6.276875686645507812e+01,-1.057963485717773438e+02,7.986238861083984375e+01,1.356357383728027344e+01,5.578591156005859375e+01,1.754857025146484375e+02,3.670693969726562500e+01,5.322896194458007812e+01
1.118999958038330078e+00,2.000000000000000000e+00,1.752885246276855469e+01,-1.781776547431945801e-01,5.436457443237304688e+01,-1.648157958984375000e+02,6.277939224243164062e+01,-1.057759933471679688e+02,7.982757568359375000e+01,1.354316711425781250e+01,5.575837707519531250e+01,1.754911956787109375e+02,3.671957015991210938e+01,5.322177886962890625e+01
1.123999953269958496e+00,2.000000000000000000e+00,1.746480560302734375e+01,-1.439816206693649292e-01,5.433882141113281250e+01,-1.648246307373046875e+02,6.279002380371093750e+01,-1.057556381225585938e+02,7.979277038574218750e+01,1.352276515960693359e+01,5.573084259033203125e+01,1.754966888427734375e+02,3.673219680786132812e+01,5.321460342407226562e+01
