rpiRobotics/ARM-21-02-F-19-Robot-Motion-Program/data_performance_abb/curve_1/dual_arm/diffevo_pose1/grad_result/sim/dual_iteration_5.csv
timestamp,cmd_num,J1,J2,J3,J4,J5,J6,J1_2,J2_2,J3_2,J4_2,J5_2,J6_2
0.000000000000000000e+00,-1.000000000000000000e+00,3.405386734008789062e+01,-7.924807548522949219e+00,6.110536575317382812e+01,-1.624679260253906250e+02,6.228022766113281250e+01,-1.102413406372070312e+02,8.823620605468750000e+01,1.861874580383300781e+01,6.267495727539062500e+01,1.733922424316406250e+02,3.317754364013671875e+01,5.526778793334960938e+01
2.000000094994902611e-03,-1.000000000000000000e+00,3.405386734008789062e+01,-7.924807548522949219e+00,6.110536575317382812e+01,-1.624679260253906250e+02,6.228022766113281250e+01,-1.102413406372070312e+02,8.823620605468750000e+01,1.861874580383300781e+01,6.267495727539062500e+01,1.733922424316406250e+02,3.317754364013671875e+01,5.526778793334960938e+01
4.000000189989805222e-03,-1.000000000000000000e+00,3.405386734008789062e+01,-7.924807548522949219e+00,6.110536575317382812e+01,-1.624679260253906250e+02,6.228022766113281250e+01,-1.102413406372070312e+02,8.823620605468750000e+01,1.861874580383300781e+01,6.267495727539062500e+01,1.733922424316406250e+02,3.317754364013671875e+01,5.526778793334960938e+01
9.999999776482582092e-03,-1.000000000000000000e+00,3.405386734008789062e+01,-7.924807548522949219e+00,6.110536575317382812e+01,-1.624679260253906250e+02,6.228022766113281250e+01,-1.102413406372070312e+02,8.823620605468750000e+01,1.861874580383300781e+01,6.267495727539062500e+01,1.733922424316406250e+02,3.317754364013671875e+01,5.526778793334960938e+01
1.200000010430812836e-02,-1.000000000000000000e+00,3.405386734008789062e+01,-7.924807548522949219e+00,6.110536575317382812e+01,-1.624679260253906250e+02,6.228022766113281250e+01,-1.102413406372070312e+02,8.823620605468750000e+01,1.861874580383300781e+01,6.267495727539062500e+01,1.733922424316406250e+02,3.317754364013671875e+01,5.526778793334960938e+01
1.600000075995922089e-02,-1.000000000000000000e+00,3.405386734008789062e+01,-7.924807548522949219e+00,6.110536575317382812e+01,-1.624679260253906250e+02,6.228022766113281250e+01,-1.102413406372070312e+02,8.823620605468750000e+01,1.861874580383300781e+01,6.267495727539062500e+01,1.733922424316406250e+02,3.317754364013671875e+01,5.526778793334960938e+01
1.999999955296516418e-02,-1.000000000000000000e+00,3.405386734008789062e+01,-7.924807548522949219e+00,6.110536575317382812e+01,-1.624679260253906250e+02,6.228022766113281250e+01,-1.102413406372070312e+02,8.823620605468750000e+01,1.861874580383300781e+01,6.267495727539062500e+01,1.733922424316406250e+02,3.317754364013671875e+01,5.526778793334960938e+01
2.400000020861625671e-02,-1.000000000000000000e+00,3.405386734008789062e+01,-7.924807548522949219e+00,6.110536575317382812e+01,-1.624679260253906250e+02,6.228022766113281250e+01,-1.102413406372070312e+02,8.823620605468750000e+01,1.861874580383300781e+01,6.267495727539062500e+01,1.733922424316406250e+02,3.317754364013671875e+01,5.526778793334960938e+01
2.899999916553497314e-02,2.000000000000000000e+00,3.405386734008789062e+01,-7.924807548522949219e+00,6.110536575317382812e+01,-1.624679260253906250e+02,6.228022766113281250e+01,-1.102413406372070312e+02,8.823620605468750000e+01,1.861874580383300781e+01,6.267495727539062500e+01,1.733922424316406250e+02,3.317754364013671875e+01,5.526778793334960938e+01
3.500000014901161194e-02,2.000000000000000000e+00,3.405386734008789062e+01,-7.924807548522949219e+00,6.110536575317382812e+01,-1.624679260253906250e+02,6.228022766113281250e+01,-1.102413406372070312e+02,8.823620605468750000e+01,1.861874580383300781e+01,6.267495727539062500e+01,1.733922424316406250e+02,3.317754364013671875e+01,5.526778793334960938e+01
3.900000080466270447e-02,2.000000000000000000e+00,3.405386734008789062e+01,-7.924807548522949219e+00,6.110536575317382812e+01,-1.624679260253906250e+02,6.228022766113281250e+01,-1.102413406372070312e+02,8.823620605468750000e+01,1.861874580383300781e+01,6.267495727539062500e+01,1.733922424316406250e+02,3.317754364013671875e+01,5.526778793334960938e+01
4.100000113248825073e-02,2.000000000000000000e+00,3.405386734008789062e+01,-7.924807548522949219e+00,6.110536575317382812e+01,-1.624679260253906250e+02,6.228022766113281250e+01,-1.102413406372070312e+02,8.823620605468750000e+01,1.861874580383300781e+01,6.267495727539062500e+01,1.733922424316406250e+02,3.317754364013671875e+01,5.526778793334960938e+01
4.600000008940696716e-02,2.000000000000000000e+00,3.405386734008789062e+01,-7.924807548522949219e+00,6.110536575317382812e+01,-1.624679260253906250e+02,6.228022766113281250e+01,-1.102413406372070312e+02,8.823620605468750000e+01,1.861874580383300781e+01,6.267495727539062500e+01,1.733922424316406250e+02,3.317754364013671875e+01,5.526778793334960938e+01
4.800000041723251343e-02,2.000000000000000000e+00,3.405386734008789062e+01,-7.924807548522949219e+00,6.110536575317382812e+01,-1.624679260253906250e+02,6.228022766113281250e+01,-1.102413406372070312e+02,8.823620605468750000e+01,1.861874580383300781e+01,6.267495727539062500e+01,1.733922424316406250e+02,3.317754364013671875e+01,5.526778793334960938e+01
5.200000107288360596e-02,2.000000000000000000e+00,3.405386734008789062e+01,-7.924807548522949219e+00,6.110536575317382812e+01,-1.624679260253906250e+02,6.228022766113281250e+01,-1.102413406372070312e+02,8.823620605468750000e+01,1.861874580383300781e+01,6.267495727539062500e+01,1.733922424316406250e+02,3.317754364013671875e+01,5.526778793334960938e+01
5.600000172853469849e-02,2.000000000000000000e+00,3.405386734008789062e+01,-7.924807548522949219e+00,6.110536575317382812e+01,-1.624679260253906250e+02,6.228022766113281250e+01,-1.102413406372070312e+02,8.823620605468750000e+01,1.861874580383300781e+01,6.267495727539062500e+01,1.733922424316406250e+02,3.317754364013671875e+01,5.526778793334960938e+01
5.999999865889549255e-02,2.000000000000000000e+00,3.405386734008789062e+01,-7.924807548522949219e+00,6.110536575317382812e+01,-1.624679260253906250e+02,6.228022766113281250e+01,-1.102413406372070312e+02,8.823620605468750000e+01,1.861874580383300781e+01,6.267495727539062500e+01,1.733922424316406250e+02,3.317754364013671875e+01,5.526778793334960938e+01
6.400000303983688354e-02,2.000000000000000000e+00,3.405386734008789062e+01,-7.924807548522949219e+00,6.110536575317382812e+01,-1.624679260253906250e+02,6.228022766113281250e+01,-1.102413406372070312e+02,8.823620605468750000e+01,1.861874580383300781e+01,6.267495727539062500e+01,1.733922424316406250e+02,3.317754364013671875e+01,5.526778793334960938e+01
6.800000369548797607e-02,2.000000000000000000e+00,3.405386734008789062e+01,-7.924807548522949219e+00,6.110536575317382812e+01,-1.624679260253906250e+02,6.228022766113281250e+01,-1.102413406372070312e+02,8.823620605468750000e+01,1.861874580383300781e+01,6.267495727539062500e+01,1.733922424316406250e+02,3.317754364013671875e+01,5.526778793334960938e+01
7.199999690055847168e-02,2.000000000000000000e+00,3.405379867553710938e+01,-7.924787044525146484e+00,6.110535812377929688e+01,-1.624679260253906250e+02,6.228022766113281250e+01,-1.102413406372070312e+02,8.823620605468750000e+01,1.861874580383300781e+01,6.267495727539062500e+01,1.733922424316406250e+02,3.317754364013671875e+01,5.526778793334960938e+01
7.599999755620956421e-02,2.000000000000000000e+00,3.405342864990234375e+01,-7.924660682678222656e+00,6.110530471801757812e+01,-1.624679260253906250e+02,6.228022766113281250e+01,-1.102413406372070312e+02,8.823620605468750000e+01,1.861874580383300781e+01,6.267495727539062500e+01,1.733922424316406250e+02,3.317754364013671875e+01,5.526778793334960938e+01
7.999999821186065674e-02,2.000000000000000000e+00,3.405236053466796875e+01,-7.924266815185546875e+00,6.110512542724609375e+01,-1.624679107666015625e+02,6.228023910522460938e+01,-1.102413253784179688e+02,8.823620605468750000e+01,1.861874580383300781e+01,6.267495727539062500e+01,1.733922424316406250e+02,3.317754364013671875e+01,5.526778793334960938e+01
8.399999886751174927e-02,2.000000000000000000e+00,3.405023574829101562e+01,-7.923421859741210938e+00,6.110473251342773438e+01,-1.624678802490234375e+02,6.228026199340820312e+01,-1.102412796020507812e+02,8.823619842529296875e+01,1.861874198913574219e+01,6.267495727539062500e+01,1.733922424316406250e+02,3.317754364013671875e+01,5.526778793334960938e+01
8.799999952316284180e-02,2.000000000000000000e+00,3.404682922363281250e+01,-7.921966075897216797e+00,6.110403442382812500e+01,-1.624678649902343750e+02,6.228030776977539062e+01,-1.102411727905273438e+02,8.823612213134765625e+01,1.861870956420898438e+01,6.267493057250976562e+01,1.733922576904296875e+02,3.317755508422851562e+01,5.526778793334960938e+01
9.200000017881393433e-02,2.000000000000000000e+00,3.404198074340820312e+01,-7.919768333435058594e+00,6.110293579101562500e+01,-1.624678802490234375e+02,6.228041839599609375e+01,-1.102409362792968750e+02,8.823586273193359375e+01,1.861860275268554688e+01,6.267482757568359375e+01,1.733922729492187500e+02,3.317759704589843750e+01,5.526777648925781250e+01
9.600000083446502686e-02,2.000000000000000000e+00,3.403551864624023438e+01,-7.916700839996337891e+00,6.110132217407226562e+01,-1.624679718017578125e+02,6.228060150146484375e+01,-1.102404785156250000e+02,8.823525238037109375e+01,1.861834335327148438e+01,6.267456054687500000e+01,1.733923187255859375e+02,3.317770385742187500e+01,5.526774215698242188e+01
1.000000014901161194e-01,2.000000000000000000e+00,3.402734756469726562e+01,-7.912659645080566406e+00,6.109909057617187500e+01,-1.624682006835937500e+02,6.228091812133789062e+01,-1.102396926879882812e+02,8.823410797119140625e+01,1.861782264709472656e+01,6.267401504516601562e+01,1.733924255371093750e+02,3.317793655395507812e+01,5.526765823364257812e+01
1.040000021457672119e-01,2.000000000000000000e+00,3.401741409301757812e+01,-7.907577514648437500e+00,6.109611892700195312e+01,-1.624686126708984375e+02,6.228140258789062500e+01,-1.102384490966796875e+02,8.823217010498046875e+01,1.861690902709960938e+01,6.267298889160156250e+01,1.733926391601562500e+02,3.317838668823242188e+01,5.526747131347656250e+01
1.080000028014183044e-01,2.000000000000000000e+00,3.400555801391601562e+01,-7.901366233825683594e+00,6.109229278564453125e+01,-1.624692993164062500e+02,6.228211212158203125e+01,-1.102366104125976562e+02,8.822917938232421875e+01,1.861542510986328125e+01,6.267125701904296875e+01,1.733930206298828125e+02,3.317916488647460938e+01,5.526710510253906250e+01
1.120000034570693970e-01,2.000000000000000000e+00,3.399139785766601562e+01,-7.893868923187255859e+00,6.108744430541992188e+01,-1.624703369140625000e+02,6.228310394287109375e+01,-1.102340240478515625e+02,8.822484588623046875e+01,1.861318016052246094e+01,6.266852951049804688e+01,1.733936309814453125e+02,3.318040847778320312e+01,5.526648712158203125e+01
1.159999966621398926e-01,2.000000000000000000e+00,3.397439575195312500e+01,-7.884865283966064453e+00,6.108139038085937500e+01,-1.624717864990234375e+02,6.228442001342773438e+01,-1.102305374145507812e+02,8.821889495849609375e+01,1.860998535156250000e+01,6.266452789306640625e+01,1.733945617675781250e+02,3.318227005004882812e+01,5.526550674438476562e+01
1.199999973177909851e-01,2.000000000000000000e+00,3.395411300659179688e+01,-7.874170780181884766e+00,6.107395553588867188e+01,-1.624737396240234375e+02,6.228613662719726562e+01,-1.102260055541992188e+02,8.821110534667968750e+01,1.860565376281738281e+01,6.265895462036132812e+01,1.733959045410156250e+02,3.318488693237304688e+01,5.526407623291015625e+01
1.239999979734420776e-01,2.000000000000000000e+00,3.393035507202148438e+01,-7.861740589141845703e+00,6.106503295898437500e+01,-1.624762573242187500e+02,6.228828811645507812e+01,-1.102202835083007812e+02,8.820120239257812500e+01,1.860000038146972656e+01,6.265153503417968750e+01,1.733977050781250000e+02,3.318841171264648438e+01,5.526209640502929688e+01
1.280000060796737671e-01,2.000000000000000000e+00,3.390316390991210938e+01,-7.847656250000000000e+00,6.105458450317382812e+01,-1.624794311523437500e+02,6.229092407226562500e+01,-1.102132492065429688e+02,8.818891906738281250e+01,1.859285354614257812e+01,6.264204406738281250e+01,1.734000549316406250e+02,3.319295501708984375e+01,5.525950622558593750e+01
1.309999972581863403e-01,2.000000000000000000e+00,3.387264251708984375e+01,-7.832017421722412109e+00,6.104257583618164062e+01,-1.624832916259765625e+02,6.229407882690429688e+01,-1.102047958374023438e+02,8.817404174804687500e+01,1.858409309387207031e+01,6.263029479980468750e+01,1.734029541015625000e+02,3.319860076904296875e+01,5.525624847412109375e+01
1.360000073909759521e-01,2.000000000000000000e+00,3.383881378173828125e+01,-7.814861774444580078e+00,6.102900314331054688e+01,-1.624878997802734375e+02,6.229777908325195312e+01,-1.101948547363281250e+02,8.815647125244140625e+01,1.857364654541015625e+01,6.261619567871093750e+01,1.734064788818359375e+02,3.320539093017578125e+01,5.525230026245117188e+01
1.389999985694885254e-01,2.000000000000000000e+00,3.380167388916015625e+01,-7.796195507049560547e+00,6.101386260986328125e+01,-1.624932556152343750e+02,6.230202102661132812e+01,-1.101834411621093750e+02,8.813618469238281250e+01,1.856150627136230469e+01,6.259973526000976562e+01,1.734106140136718750e+02,3.321333694458007812e+01,5.524765396118164062e+01
1.439999938011169434e-01,2.000000000000000000e+00,3.376124572753906250e+01,-7.776012420654296875e+00,6.099715423583984375e+01,-1.624993591308593750e+02,6.230680465698242188e+01,-1.101705551147460938e+02,8.811325836181640625e+01,1.854770851135253906e+01,6.258096694946289062e+01,1.734153289794921875e+02,3.322241592407226562e+01,5.524232864379882812e+01
1.480000019073486328e-01,2.000000000000000000e+00,3.371748352050781250e+01,-7.754247188568115234e+00,6.097891998291015625e+01,-1.625061340332031250e+02,6.231208801269531250e+01,-1.101563034057617188e+02,8.808781433105468750e+01,1.853235244750976562e+01,6.256002426147460938e+01,1.734206085205078125e+02,3.323255538940429688e+01,5.523636245727539062e+01
1.519999951124191284e-01,2.000000000000000000e+00,3.367029190063476562e+01,-7.730790615081787109e+00,6.095916748046875000e+01,-1.625135192871093750e+02,6.231784057617187500e+01,-1.101407928466796875e+02,8.806011962890625000e+01,1.851558494567871094e+01,6.253710937500000000e+01,1.734263916015625000e+02,3.324365615844726562e+01,5.522981643676757812e+01
1.560000032186508179e-01,2.000000000000000000e+00,3.361970138549804688e+01,-7.705598354339599609e+00,6.093797302246093750e+01,-1.625214385986328125e+02,6.232401657104492188e+01,-1.101241531372070312e+02,8.803045654296875000e+01,1.849759292602539062e+01,6.251248931884765625e+01,1.734326019287109375e+02,3.325559234619140625e+01,5.522276687622070312e+01
1.599999964237213135e-01,2.000000000000000000e+00,3.356599807739257812e+01,-7.678775310516357422e+00,6.091545867919921875e+01,-1.625298156738281250e+02,6.233054351806640625e+01,-1.101065368652343750e+02,8.799909973144531250e+01,1.847857093811035156e+01,6.248645019531250000e+01,1.734391784667968750e+02,3.326822280883789062e+01,5.521530914306640625e+01
1.640000045299530029e-01,2.000000000000000000e+00,3.350969314575195312e+01,-7.650536060333251953e+00,6.089183425903320312e+01,-1.625385742187500000e+02,6.233738327026367188e+01,-1.100881042480468750e+02,8.796629333496093750e+01,1.845870208740234375e+01,6.245927429199218750e+01,1.734460296630859375e+02,3.328139114379882812e+01,5.520753860473632812e+01
1.679999977350234985e-01,2.000000000000000000e+00,3.345127868652343750e+01,-7.621084213256835938e+00,6.086725997924804688e+01,-1.625476379394531250e+02,6.234447097778320312e+01,-1.100690002441406250e+02,8.793228149414062500e+01,1.843817138671875000e+01,6.243124771118164062e+01,1.734530944824218750e+02,3.329496383666992188e+01,5.519955444335937500e+01
1.720000058412551880e-01,2.000000000000000000e+00,3.339105606079101562e+01,-7.590552330017089844e+00,6.084189224243164062e+01,-1.625569305419921875e+02,6.235176086425781250e+01,-1.100493621826171875e+02,8.789735412597656250e+01,1.841715812683105469e+01,6.240263748168945312e+01,1.734602966308593750e+02,3.330880355834960938e+01,5.519142913818359375e+01
1.759999990463256836e-01,2.000000000000000000e+00,3.332912826538085938e+01,-7.559017181396484375e+00,6.081584930419921875e+01,-1.625664062500000000e+02,6.235919189453125000e+01,-1.100293350219726562e+02,8.786177062988281250e+01,1.839582061767578125e+01,6.237363815307617188e+01,1.734675598144531250e+02,3.332281494140625000e+01,5.518322753906250000e+01
1.800000071525573730e-01,2.000000000000000000e+00,3.326555633544921875e+01,-7.526565551757812500e+00,6.078923797607421875e+01,-1.625759735107421875e+02,6.236672973632812500e+01,-1.100090332031250000e+02,8.782573699951171875e+01,1.837427711486816406e+01,6.234441757202148438e+01,1.734748840332031250e+02,3.333692169189453125e+01,5.517498779296875000e+01
1.840000003576278687e-01,2.000000000000000000e+00,3.320048904418945312e+01,-7.493317127227783203e+00,6.076217651367187500e+01,-1.625855865478515625e+02,6.237434005737304688e+01,-1.099885635375976562e+02,8.778942871093750000e+01,1.835261344909667969e+01,6.231508255004882812e+01,1.734822235107421875e+02,3.335107421875000000e+01,5.516673660278320312e+01
1.879999935626983643e-01,2.000000000000000000e+00,3.313409423828125000e+01,-7.459399223327636719e+00,6.073476791381835938e+01,-1.625952301025390625e+02,6.238198471069335938e+01,-1.099680099487304688e+02,8.775299072265625000e+01,1.833090209960937500e+01,6.228569793701171875e+01,1.734895629882812500e+02,3.336524200439453125e+01,5.515848541259765625e+01
1.920000016689300537e-01,2.000000000000000000e+00,3.306654357910156250e+01,-7.424946784973144531e+00,6.070709609985351562e+01,-1.626048736572265625e+02,6.238965225219726562e+01,-1.099473953247070312e+02,8.771652984619140625e+01,1.830917739868164062e+01,6.225630569458007812e+01,1.734969177246093750e+02,3.337940979003906250e+01,5.515023040771484375e+01
1.959999948740005493e-01,2.000000000000000000e+00,3.299811553955078125e+01,-7.390130043029785156e+00,6.067926406860351562e+01,-1.626144866943359375e+02,6.239732360839843750e+01,-1.099267730712890625e+02,8.768006134033203125e+01,1.828745841979980469e+01,6.222693252563476562e+01,1.735042572021484375e+02,3.339357376098632812e+01,5.514198303222656250e+01
2.000000029802322388e-01,2.000000000000000000e+00,3.292919921875000000e+01,-7.355129241943359375e+00,6.065134811401367188e+01,-1.626240997314453125e+02,6.240500259399414062e+01,-1.099061508178710938e+02,8.764360809326171875e+01,1.826574707031250000e+01,6.219755554199218750e+01,1.735115966796875000e+02,3.340773773193359375e+01,5.513373565673828125e+01
2.039999961853027344e-01,2.000000000000000000e+00,3.286012268066406250e+01,-7.320078372955322266e+00,6.062341308593750000e+01,-1.626336975097656250e+02,6.241267776489257812e+01,-1.098855361938476562e+02,8.760717010498046875e+01,1.824404144287109375e+01,6.216819000244140625e+01,1.735189361572265625e+02,3.342189025878906250e+01,5.512549209594726562e+01
2.080000042915344238e-01,2.000000000000000000e+00,3.279104614257812500e+01,-7.285031318664550781e+00,6.059548568725585938e+01,-1.626433105468750000e+02,6.242034912109375000e+01,-1.098649291992187500e+02,8.757074737548828125e+01,1.822234344482421875e+01,6.213884353637695312e+01,1.735262756347656250e+02,3.343603897094726562e+01,5.511724853515625000e+01
2.119999974966049194e-01,2.000000000000000000e+00,3.272198867797851562e+01,-7.249994754791259766e+00,6.056756210327148438e+01,-1.626529083251953125e+02,6.242801284790039062e+01,-1.098443298339843750e+02,8.753433227539062500e+01,1.820065307617187500e+01,6.210950088500976562e+01,1.735335998535156250e+02,3.345018768310546875e+01,5.510901260375976562e+01
2.160000056028366089e-01,2.000000000000000000e+00,3.265295410156250000e+01,-7.214969635009765625e+00,6.053965377807617188e+01,-1.626625061035156250e+02,6.243568038940429688e+01,-1.098237380981445312e+02,8.749792480468750000e+01,1.817897033691406250e+01,6.208016204833984375e+01,1.735409393310546875e+02,3.346432876586914062e+01,5.510078048706054688e+01
2.199999988079071045e-01,2.000000000000000000e+00,3.258394241333007812e+01,-7.179956436157226562e+00,6.051175308227539062e+01,-1.626720886230468750e+02,6.244334411621093750e+01,-1.098031539916992188e+02,8.746153259277343750e+01,1.815729331970214844e+01,6.205084228515625000e+01,1.735482635498046875e+02,3.347846603393554688e+01,5.509254455566406250e+01
2.240000069141387939e-01,2.000000000000000000e+00,3.251495742797851562e+01,-7.144954681396484375e+00,6.048386764526367188e+01,-1.626816864013671875e+02,6.245100402832031250e+01,-1.097825775146484375e+02,8.742515563964843750e+01,1.813562393188476562e+01,6.202152633666992188e+01,1.735555877685546875e+02,3.349259948730468750e+01,5.508431625366210938e+01
2.280000001192092896e-01,2.000000000000000000e+00,3.244599151611328125e+01,-7.109964847564697266e+00,6.045598602294921875e+01,-1.626912689208984375e+02,6.245866394042968750e+01,-1.097620010375976562e+02,8.738879394531250000e+01,1.811396408081054688e+01,6.199222564697265625e+01,1.735629272460937500e+02,3.350672531127929688e+01,5.507608795166015625e+01
2.319999933242797852e-01,2.000000000000000000e+00,3.237705230712890625e+01,-7.074986934661865234e+00,6.042811203002929688e+01,-1.627008514404296875e+02,6.246632385253906250e+01,-1.097414398193359375e+02,8.735243988037109375e+01,1.809230995178222656e+01,6.196292877197265625e+01,1.735702514648437500e+02,3.352084732055664062e+01,5.506786346435546875e+01
2.360000014305114746e-01,2.000000000000000000e+00,3.230813217163085938e+01,-7.040020942687988281e+00,6.040025329589843750e+01,-1.627104339599609375e+02,6.247397232055664062e+01,-1.097208709716796875e+02,8.731609344482421875e+01,1.807066154479980469e+01,6.193364334106445312e+01,1.735775604248046875e+02,3.353496551513671875e+01,5.505964279174804688e+01
2.399999946355819702e-01,2.000000000000000000e+00,3.223923492431640625e+01,-7.005065917968750000e+00,6.037239837646484375e+01,-1.627200164794921875e+02,6.248162078857421875e+01,-1.097003173828125000e+02,8.727976226806640625e+01,1.804902267456054688e+01,6.190436935424804688e+01,1.735848693847656250e+02,3.354907989501953125e+01,5.505142593383789062e+01
2.440000027418136597e-01,2.000000000000000000e+00,3.217036056518554688e+01,-6.970122337341308594e+00,6.034455108642578125e+01,-1.627295837402343750e+02,6.248927307128906250e+01,-1.096797714233398438e+02,8.724344635009765625e+01,1.802738952636718750e+01,6.187510681152343750e+01,1.735921783447265625e+02,3.356318664550781250e+01,5.504320907592773438e+01
2.479999959468841553e-01,2.000000000000000000e+00,3.210150909423828125e+01,-6.935191154479980469e+00,6.031671905517578125e+01,-1.627391510009765625e+02,6.249691390991210938e+01,-1.096592330932617188e+02,8.720714569091796875e+01,1.800576400756835938e+01,6.184585571289062500e+01,1.735995025634765625e+02,3.357729339599609375e+01,5.503499603271484375e+01
2.520000040531158447e-01,2.000000000000000000e+00,3.203268432617187500e+01,-6.900270938873291016e+00,6.028889083862304688e+01,-1.627487182617187500e+02,6.250455856323242188e+01,-1.096387023925781250e+02,8.717085266113281250e+01,1.798414611816406250e+01,6.181660842895507812e+01,1.736068115234375000e+02,3.359138870239257812e+01,5.502678298950195312e+01
2.560000121593475342e-01,2.000000000000000000e+00,3.196387481689453125e+01,-6.865362167358398438e+00,6.026107406616210938e+01,-1.627582855224609375e+02,6.251219940185546875e+01,-1.096181793212890625e+02,8.713456726074218750e+01,1.796253395080566406e+01,6.178736877441406250e+01,1.736141204833984375e+02,3.360548400878906250e+01,5.501857376098632812e+01
2.599999904632568359e-01,2.000000000000000000e+00,3.189509582519531250e+01,-6.830464839935302734e+00,6.023326873779296875e+01,-1.627678527832031250e+02,6.251983642578125000e+01,-1.095976638793945312e+02,8.709829711914062500e+01,1.794092941284179688e+01,6.175814056396484375e+01,1.736214141845703125e+02,3.361957550048828125e+01,5.501037216186523438e+01
2.639999985694885254e-01,2.000000000000000000e+00,3.182633209228515625e+01,-6.795579433441162109e+00,6.020546722412109375e+01,-1.627774047851562500e+02,6.252747344970703125e+01,-1.095771484375000000e+02,8.706204223632812500e+01,1.791933441162109375e+01,6.172892761230468750e+01,1.736287231445312500e+02,3.363365936279296875e+01,5.500216674804687500e+01
2.680000066757202148e-01,2.000000000000000000e+00,3.175759696960449219e+01,-6.760705471038818359e+00,6.017767715454101562e+01,-1.627869567871093750e+02,6.253511047363281250e+01,-1.095566482543945312e+02,8.702579498291015625e+01,1.789774513244628906e+01,6.169972229003906250e+01,1.736360168457031250e+02,3.364773941040039062e+01,5.499396896362304688e+01
2.720000147819519043e-01,2.000000000000000000e+00,3.168888092041015625e+01,-6.725842952728271484e+00,6.014989852905273438e+01,-1.627965087890625000e+02,6.254273986816406250e+01,-1.095361480712890625e+02,8.698956298828125000e+01,1.787616157531738281e+01,6.167052459716796875e+01,1.736433258056640625e+02,3.366181564331054688e+01,5.498577117919921875e+01
2.759999930858612061e-01,2.000000000000000000e+00,3.162018966674804688e+01,-6.690992355346679688e+00,6.012212753295898438e+01,-1.628060607910156250e+02,6.255036926269531250e+01,-1.095156478881835938e+02,8.695334625244140625e+01,1.785458564758300781e+01,6.164133834838867188e+01,1.736506195068359375e+02,3.367588424682617188e+01,5.497757720947265625e+01
2.800000011920928955e-01,2.000000000000000000e+00,3.155152320861816406e+01,-6.656152725219726562e+00,6.009436798095703125e+01,-1.628156127929687500e+02,6.255799102783203125e+01,-1.094951705932617188e+02,8.691713714599609375e+01,1.783301734924316406e+01,6.161215972900390625e+01,1.736578979492187500e+02,3.368995285034179688e+01,5.496938705444335938e+01
2.840000092983245850e-01,2.000000000000000000e+00,3.148287582397460938e+01,-6.621324062347412109e+00,6.006661224365234375e+01,-1.628251342773437500e+02,6.256561279296875000e+01,-1.094746932983398438e+02,8.688093566894531250e+01,1.781145668029785156e+01,6.158298873901367188e+01,1.736651916503906250e+02,3.370401763916015625e+01,5.496119689941406250e+01
2.879999876022338867e-01,2.000000000000000000e+00,3.141424942016601562e+01,-6.586507797241210938e+00,6.003886795043945312e+01,-1.628346710205078125e+02,6.257323455810546875e+01,-1.094542236328125000e+02,8.684474945068359375e+01,1.778990173339843750e+01,6.155382919311523438e+01,1.736724853515625000e+02,3.371807098388671875e+01,5.495301055908203125e+01
2.919999957084655762e-01,2.000000000000000000e+00,3.134565162658691406e+01,-6.551702499389648438e+00,6.001113510131835938e+01,-1.628442077636718750e+02,6.258085250854492188e+01,-1.094337539672851562e+02,8.680857849121093750e+01,1.776835441589355469e+01,6.152468490600585938e+01,1.736797790527343750e+02,3.373212432861328125e+01,5.494482421875000000e+01
2.960000038146972656e-01,2.000000000000000000e+00,3.127707290649414062e+01,-6.516908645629882812e+00,5.998341369628906250e+01,-1.628537445068359375e+02,6.258846664428710938e+01,-1.094132919311523438e+02,8.677240753173828125e+01,1.774681472778320312e+01,6.149554061889648438e+01,1.736870574951171875e+02,3.374617385864257812e+01,5.493664550781250000e+01
3.000000119209289551e-01,2.000000000000000000e+00,3.120851516723632812e+01,-6.482126235961914062e+00,5.995569610595703125e+01,-1.628632812500000000e+02,6.259608078002929688e+01,-1.093928451538085938e+02,8.673625946044921875e+01,1.772528266906738281e+01,6.146641159057617188e+01,1.736943359375000000e+02,3.376021957397460938e+01,5.492846679687500000e+01
3.039999902248382568e-01,2.000000000000000000e+00,3.113998031616210938e+01,-6.447354793548583984e+00,5.992798614501953125e+01,-1.628728027343750000e+02,6.260369110107421875e+01,-1.093723983764648438e+02,8.670011901855468750e+01,1.770375442504882812e+01,6.143729400634765625e+01,1.737016143798828125e+02,3.377425765991210938e+01,5.492029190063476562e+01
3.079999983310699463e-01,2.000000000000000000e+00,3.107147026062011719e+01,-6.412595272064208984e+00,5.990028762817382812e+01,-1.628823242187500000e+02,6.261130142211914062e+01,-1.093519668579101562e+02,8.666399383544921875e+01,1.768223571777343750e+01,6.140818405151367188e+01,1.737088928222656250e+02,3.378829193115234375e+01,5.491212081909179688e+01
3.120000064373016357e-01,2.000000000000000000e+00,3.100298118591308594e+01,-6.377846717834472656e+00,5.987260055541992188e+01,-1.628918457031250000e+02,6.261890792846679688e+01,-1.093315277099609375e+02,8.662788391113281250e+01,1.766072463989257812e+01,6.137907791137695312e+01,1.737161712646484375e+02,3.380231857299804688e+01,5.490394592285156250e+01
3.160000145435333252e-01,2.000000000000000000e+00,3.093451118469238281e+01,-6.343110084533691406e+00,5.984491729736328125e+01,-1.629013671875000000e+02,6.262651062011718750e+01,-1.093111038208007812e+02,8.659178161621093750e+01,1.763921928405761719e+01,6.134999084472656250e+01,1.737234344482421875e+02,3.381634521484375000e+01,5.489578247070312500e+01
3.199999928474426270e-01,2.000000000000000000e+00,3.086606979370117188e+01,-6.308385372161865234e+00,5.981724548339843750e+01,-1.629108734130859375e+02,6.263411331176757812e+01,-1.092906951904296875e+02,8.655568695068359375e+01,1.761772155761718750e+01,6.132090759277343750e+01,1.737306976318359375e+02,3.383036804199218750e+01,5.488761520385742188e+01
3.240000009536743164e-01,2.000000000000000000e+00,3.079764366149902344e+01,-6.273671627044677734e+00,5.978958511352539062e+01,-1.629203796386718750e+02,6.264170837402343750e+01,-1.092702789306640625e+02,8.651960754394531250e+01,1.759623146057128906e+01,6.129183197021484375e+01,1.737379608154296875e+02,3.384438323974609375e+01,5.487945556640625000e+01
3.280000090599060059e-01,2.000000000000000000e+00,3.072924613952636719e+01,-6.238970279693603516e+00,5.976192855834960938e+01,-1.629298858642578125e+02,6.264930343627929688e+01,-1.092498779296875000e+02,8.648353576660156250e+01,1.757474708557128906e+01,6.126276779174804688e+01,1.737452392578125000e+02,3.385839462280273438e+01,5.487129592895507812e+01
3.319999873638153076e-01,2.000000000000000000e+00,3.066086959838867188e+01,-6.204279899597167969e+00,5.973428726196289062e+01,-1.629393920898437500e+02,6.265689849853515625e+01,-1.092294692993164062e+02,8.644747924804687500e+01,1.755326843261718750e+01,6.123371124267578125e+01,1.737525024414062500e+02,3.387240219116210938e+01,5.486313629150390625e+01
3.359999954700469971e-01,2.000000000000000000e+00,3.059251403808593750e+01,-6.169600009918212891e+00,5.970665359497070312e+01,-1.629488983154296875e+02,6.266448593139648438e+01,-1.092090835571289062e+02,8.641143798828125000e+01,1.753179740905761719e+01,6.120466995239257812e+01,1.737597503662109375e+02,3.388640213012695312e+01,5.485498046875000000e+01
3.400000035762786865e-01,2.000000000000000000e+00,3.052418136596679688e+01,-6.134931564331054688e+00,5.967902374267578125e+01,-1.629584045410156250e+02,6.267207336425781250e+01,-1.091886978149414062e+02,8.637540435791015625e+01,1.751033592224121094e+01,6.117563629150390625e+01,1.737670135498046875e+02,3.390040206909179688e+01,5.484682846069335938e+01
3.440000116825103760e-01,2.000000000000000000e+00,3.045586776733398438e+01,-6.100273609161376953e+00,5.965140914916992188e+01,-1.629678955078125000e+02,6.267966461181640625e+01,-1.091683197021484375e+02,8.633938598632812500e+01,1.748887825012207031e+01,6.114660644531250000e+01,1.737742614746093750e+02,3.391439819335937500e+01,5.483868026733398438e+01
3.479999899864196777e-01,2.000000000000000000e+00,3.038758087158203125e+01,-6.065626621246337891e+00,5.962380218505859375e+01,-1.629773864746093750e+02,6.268724441528320312e+01,-1.091479492187500000e+02,8.630337524414062500e+01,1.746743011474609375e+01,6.111759185791015625e+01,1.737815093994140625e+02,3.392838287353515625e+01,5.483053588867187500e+01
3.519999980926513672e-01,2.000000000000000000e+00,3.031931304931640625e+01,-6.030990600585937500e+00,5.959620285034179688e+01,-1.629868774414062500e+02,6.269482803344726562e+01,-1.091275863647460938e+02,8.626737213134765625e+01,1.744598960876464844e+01,6.108858489990234375e+01,1.737887725830078125e+02,3.394236755371093750e+01,5.482239151000976562e+01
3.560000061988830566e-01,2.000000000000000000e+00,3.025106811523437500e+01,-5.996365547180175781e+00,5.956861495971679688e+01,-1.629963531494140625e+02,6.270240020751953125e+01,-1.091072235107421875e+02,8.623139190673828125e+01,1.742455291748046875e+01,6.105958175659179688e+01,1.737960205078125000e+02,3.395634841918945312e+01,5.481425094604492188e+01
3.600000143051147461e-01,2.000000000000000000e+00,3.018284606933593750e+01,-5.961751937866210938e+00,5.954103469848632812e+01,-1.630058441162109375e+02,6.270998382568359375e+01,-1.090868682861328125e+02,8.619541931152343750e+01,1.740312385559082031e+01,6.103059768676757812e+01,1.738032684326171875e+02,3.397032165527343750e+01,5.480611038208007812e+01
3.639999926090240479e-01,2.000000000000000000e+00,3.011464500427246094e+01,-5.927149772644042969e+00,5.951346206665039062e+01,-1.630153198242187500e+02,6.271754837036132812e+01,-1.090665283203125000e+02,8.615944671630859375e+01,1.738170242309570312e+01,6.100161361694335938e+01,1.738105010986328125e+02,3.398429489135742188e+01,5.479797744750976562e+01
3.680000007152557373e-01,2.000000000000000000e+00,3.004646682739257812e+01,-5.892558574676513672e+00,5.948589324951171875e+01,-1.630247955322265625e+02,6.272512435913085938e+01,-1.090461883544921875e+02,8.612350463867187500e+01,1.736028861999511719e+01,6.097264862060546875e+01,1.738177490234375000e+02,3.399826049804687500e+01,5.478984069824218750e+01
3.720000088214874268e-01,2.000000000000000000e+00,2.997831153869628906e+01,-5.857978820800781250e+00,5.945833969116210938e+01,-1.630342712402343750e+02,6.273269271850585938e+01,-1.090258560180664062e+02,8.608756256103515625e+01,1.733888053894042969e+01,6.094368743896484375e+01,1.738249816894531250e+02,3.401222229003906250e+01,5.478171539306640625e+01
3.759999871253967285e-01,2.000000000000000000e+00,2.991017723083496094e+01,-5.823410034179687500e+00,5.943079376220703125e+01,-1.630437469482421875e+02,6.274026107788085938e+01,-1.090055313110351562e+02,8.605163574218750000e+01,1.731748199462890625e+01,6.091473388671875000e+01,1.738322296142578125e+02,3.402618026733398438e+01,5.477358627319335938e+01
3.799999952316284180e-01,2.000000000000000000e+00,2.984206390380859375e+01,-5.788852691650390625e+00,5.940325546264648438e+01,-1.630532073974609375e+02,6.274782180786132812e+01,-1.089852218627929688e+02,8.601571655273437500e+01,1.729608917236328125e+01,6.088579559326171875e+01,1.738394470214843750e+02,3.404013061523437500e+01,5.476545715332031250e+01
3.840000033378601074e-01,2.000000000000000000e+00,2.977397346496582031e+01,-5.754305839538574219e+00,5.937572860717773438e+01,-1.630626831054687500e+02,6.275538253784179688e+01,-1.089649047851562500e+02,8.597981262207031250e+01,1.727470207214355469e+01,6.085686492919921875e+01,1.738466949462890625e+02,3.405408096313476562e+01,5.475733566284179688e+01
3.880000114440917969e-01,2.000000000000000000e+00,2.970590782165527344e+01,-5.719770908355712891e+00,5.934820938110351562e+01,-1.630721282958984375e+02,6.276294326782226562e+01,-1.089445953369140625e+02,8.594392395019531250e+01,1.725332069396972656e+01,6.082794570922851562e+01,1.738539123535156250e+02,3.406802368164062500e+01,5.474921417236328125e+01
3.919999897480010986e-01,2.000000000000000000e+00,2.963786125183105469e+01,-5.685247421264648438e+00,5.932069778442382812e+01,-1.630816040039062500e+02,6.277049636840820312e+01,-1.089243011474609375e+02,8.590803527832031250e+01,1.723194885253906250e+01,6.079903030395507812e+01,1.738611450195312500e+02,3.408196258544921875e+01,5.474109649658203125e+01
3.959999978542327881e-01,2.000000000000000000e+00,2.956983566284179688e+01,-5.650734424591064453e+00,5.929320144653320312e+01,-1.630910491943359375e+02,6.277805328369140625e+01,-1.089040069580078125e+02,8.587216949462890625e+01,1.721058273315429688e+01,6.077012634277343750e+01,1.738683624267578125e+02,3.409589385986328125e+01,5.473298263549804688e+01
4.000000059604644775e-01,2.000000000000000000e+00,2.950183486938476562e+01,-5.616232395172119141e+00,5.926570892333984375e+01,-1.631005096435546875e+02,6.278560638427734375e+01,-1.088837203979492188e+02,8.583631134033203125e+01,1.718922233581542969e+01,6.074123001098632812e+01,1.738755798339843750e+02,3.410982513427734375e+01,5.472487258911132812e+01
4.040000140666961670e-01,2.000000000000000000e+00,2.943385314941406250e+01,-5.581742286682128906e+00,5.923822402954101562e+01,-1.631099395751953125e+02,6.279315185546875000e+01,-1.088634414672851562e+02,8.580046081542968750e+01,1.716787147521972656e+01,6.071234512329101562e+01,1.738828125000000000e+02,3.412375259399414062e+01,5.471676254272460938e+01
4.079999923706054688e-01,2.000000000000000000e+00,2.936589622497558594e+01,-5.547262668609619141e+00,5.921074676513671875e+01,-1.631194000244140625e+02,6.280070114135742188e+01,-1.088431701660156250e+02,8.576463317871093750e+01,1.714652633666992188e+01,6.068347167968750000e+01,1.738900146484375000e+02,3.413767242431640625e+01,5.470865631103515625e+01
4.120000004768371582e-01,2.000000000000000000e+00,2.929796028137207031e+01,-5.512794494628906250e+00,5.918328094482421875e+01,-1.631288452148437500e+02,6.280824279785156250e+01,-1.088228988647460938e+02,8.572880554199218750e+01,1.712518882751464844e+01,6.065460205078125000e+01,1.738972320556640625e+02,3.415158843994140625e+01,5.470055007934570312e+01
4.160000085830688477e-01,2.000000000000000000e+00,2.923004341125488281e+01,-5.478337287902832031e+00,5.915582656860351562e+01,-1.631382751464843750e+02,6.281578826904296875e+01,-1.088026428222656250e+02,8.569299316406250000e+01,1.710385704040527344e+01,6.062574386596679688e+01,1.739044494628906250e+02,3.416550064086914062e+01,5.469245147705078125e+01
4.199999868869781494e-01,2.000000000000000000e+00,2.916215133666992188e+01,-5.443891525268554688e+00,5.912837982177734375e+01,-1.631477203369140625e+02,6.282332229614257812e+01,-1.087823867797851562e+02,8.565718841552734375e+01,1.708253288269042969e+01,6.059690093994140625e+01,1.739116516113281250e+02,3.417940902709960938e+01,5.468434906005859375e+01
4.239999949932098389e-01,2.000000000000000000e+00,2.909428405761718750e+01,-5.409456729888916016e+00,5.910093688964843750e+01,-1.631571502685546875e+02,6.283086395263671875e+01,-1.087621459960937500e+02,8.562140655517578125e+01,1.706121444702148438e+01,6.056806182861328125e+01,1.739188690185546875e+02,3.419330978393554688e+01,5.467625045776367188e+01
4.280000030994415283e-01,2.000000000000000000e+00,2.902643203735351562e+01,-5.375032424926757812e+00,5.907350921630859375e+01,-1.631665802001953125e+02,6.283839797973632812e+01,-1.087418975830078125e+02,8.558562469482421875e+01,1.703990364074707031e+01,6.053923034667968750e+01,1.739260711669921875e+02,3.420721054077148438e+01,5.466815948486328125e+01
4.320000112056732178e-01,2.000000000000000000e+00,2.895860481262207031e+01,-5.340619564056396484e+00,5.904609298706054688e+01,-1.631760101318359375e+02,6.284593200683593750e+01,-1.087216720581054688e+02,8.554986572265625000e+01,1.701860046386718750e+01,6.051041030883789062e+01,1.739332885742187500e+02,3.422110748291015625e+01,5.466006851196289062e+01
4.359999895095825195e-01,2.000000000000000000e+00,2.889080238342285156e+01,-5.306218147277832031e+00,5.901867675781250000e+01,-1.631854400634765625e+02,6.285345840454101562e+01,-1.087014465332031250e+02,8.551410675048828125e+01,1.699730300903320312e+01,6.048159790039062500e+01,1.739404754638671875e+02,3.423499679565429688e+01,5.465198135375976562e+01
4.399999976158142090e-01,2.000000000000000000e+00,2.882301902770996094e+01,-5.271827220916748047e+00,5.899127197265625000e+01,-1.631948547363281250e+02,6.286098480224609375e+01,-1.086812210083007812e+02,8.547836303710937500e+01,1.697601127624511719e+01,6.045279693603515625e+01,1.739476776123046875e+02,3.424888229370117188e+01,5.464389419555664062e+01
4.440000057220458984e-01,2.000000000000000000e+00,2.875525665283203125e+01,-5.237448215484619141e+00,5.896387481689453125e+01,-1.632042694091796875e+02,6.286851119995117188e+01,-1.086610107421875000e+02,8.544263458251953125e+01,1.695472908020019531e+01,6.042400741577148438e+01,1.739548797607421875e+02,3.426276016235351562e+01,5.463581085205078125e+01
4.480000138282775879e-01,2.000000000000000000e+00,2.868751907348632812e+01,-5.203079223632812500e+00,5.893648910522460938e+01,-1.632136840820312500e+02,6.287602996826171875e+01,-1.086408004760742188e+02,8.540691375732421875e+01,1.693345260620117188e+01,6.039522552490234375e+01,1.739620666503906250e+02,3.427663421630859375e+01,5.462773132324218750e+01
4.519999921321868896e-01,2.000000000000000000e+00,2.861980056762695312e+01,-5.168722152709960938e+00,5.890911102294921875e+01,-1.632231140136718750e+02,6.288355255126953125e+01,-1.086205978393554688e+02,8.537120819091796875e+01,1.691218376159667969e+01,6.036644744873046875e+01,1.739692687988281250e+02,3.429050827026367188e+01,5.461965179443359375e+01
4.560000002384185791e-01,2.000000000000000000e+00,2.855210494995117188e+01,-5.134375572204589844e+00,5.888174438476562500e+01,-1.632325134277343750e+02,6.289107131958007812e+01,-1.086004028320312500e+02,8.533551025390625000e+01,1.689092063903808594e+01,6.033768844604492188e+01,1.739764556884765625e+02,3.430437469482421875e+01,5.461157608032226562e+01
4.600000083446502686e-01,2.000000000000000000e+00,2.848443031311035156e+01,-5.100041389465332031e+00,5.885438156127929688e+01,-1.632419128417968750e+02,6.289858627319335938e+01,-1.085802154541015625e+02,8.529981994628906250e+01,1.686966323852539062e+01,6.030893325805664062e+01,1.739836273193359375e+02,3.431823730468750000e+01,5.460350418090820312e+01
4.639999866485595703e-01,2.000000000000000000e+00,2.841677856445312500e+01,-5.065717697143554688e+00,5.882703399658203125e+01,-1.632513122558593750e+02,6.290609741210937500e+01,-1.085600357055664062e+02,8.526414489746093750e+01,1.684841537475585938e+01,6.028018188476562500e+01,1.739908142089843750e+02,3.433209609985351562e+01,5.459543228149414062e+01
4.679999947547912598e-01,2.000000000000000000e+00,2.834914779663085938e+01,-5.031406402587890625e+00,5.879969406127929688e+01,-1.632607116699218750e+02,6.291360473632812500e+01,-1.085398559570312500e+02,8.522848510742187500e+01,1.682717132568359375e+01,6.025144958496093750e+01,1.739980010986328125e+02,3.434595108032226562e+01,5.458736419677734375e+01
4.720000028610229492e-01,2.000000000000000000e+00,2.828153991699218750e+01,-4.997106075286865234e+00,5.877235794067382812e+01,-1.632701110839843750e+02,6.292111587524414062e+01,-1.085196914672851562e+02,8.519283294677734375e+01,1.680593681335449219e+01,6.022272109985351562e+01,1.740051727294921875e+02,3.435979843139648438e+01,5.457929611206054688e+01
4.760000109672546387e-01,2.000000000000000000e+00,2.821395301818847656e+01,-4.962816238403320312e+00,5.874503707885742188e+01,-1.632795104980468750e+02,6.292862319946289062e+01,-1.084995269775390625e+02,8.515719604492187500e+01,1.678470802307128906e+01,6.019400024414062500e+01,1.740123596191406250e+02,3.437364578247070312e+01,5.457123947143554688e+01
4.799999892711639404e-01,2.000000000000000000e+00,2.814638710021972656e+01,-4.928537845611572266e+00,5.871772384643554688e+01,-1.632889099121093750e+02,6.293612289428710938e+01,-1.084793777465820312e+02,8.512156677246093750e+01,1.676348495483398438e+01,6.016529464721679688e+01,1.740195312500000000e+02,3.438748550415039062e+01,5.456317520141601562e+01
4.839999973773956299e-01,2.000000000000000000e+00,2.807884407043457031e+01,-4.894269943237304688e+00,5.869041442871093750e+01,-1.632982940673828125e+02,6.294362258911132812e+01,-1.084592285156250000e+02,8.508595275878906250e+01,1.674227142333984375e+01,6.013659286499023438e+01,1.740267028808593750e+02,3.440132522583007812e+01,5.455511856079101562e+01
4.880000054836273193e-01,2.000000000000000000e+00,2.801132202148437500e+01,-4.860012531280517578e+00,5.866311645507812500e+01,-1.633076782226562500e+02,6.295112228393554688e+01,-1.084390792846679688e+02,8.505034637451171875e+01,1.672106361389160156e+01,6.010789871215820312e+01,1.740338745117187500e+02,3.441515350341796875e+01,5.454706192016601562e+01
4.920000135898590088e-01,2.000000000000000000e+00,2.794382095336914062e+01,-4.825766086578369141e+00,5.863582229614257812e+01,-1.633170623779296875e+02,6.295861434936523438e+01,-1.084189376831054688e+02,8.501474761962890625e+01,1.669985961914062500e+01,6.007921981811523438e+01,1.740410461425781250e+02,3.442898178100585938e+01,5.453900909423828125e+01
4.959999918937683105e-01,2.000000000000000000e+00,2.787634086608886719e+01,-4.791529655456542969e+00,5.860854339599609375e+01,-1.633264312744140625e+02,6.296611404418945312e+01,-1.083988113403320312e+02,8.497917175292968750e+01,1.667866706848144531e+01,6.005054473876953125e+01,1.740482177734375000e+02,3.444280242919921875e+01,5.453096008300781250e+01
5.000000000000000000e-01,2.000000000000000000e+00,2.780888366699218750e+01,-4.757305145263671875e+00,5.858126831054687500e+01,-1.633358154296875000e+02,6.297360229492187500e+01,-1.083786926269531250e+02,8.494360351562500000e+01,1.665747833251953125e+01,6.002188110351562500e+01,1.740553741455078125e+02,3.445661926269531250e+01,5.452291488647460938e+01
5.040000081062316895e-01,2.000000000000000000e+00,2.774144744873046875e+01,-4.723090648651123047e+00,5.855400848388671875e+01,-1.633451843261718750e+02,6.298109436035156250e+01,-1.083585739135742188e+02,8.490804290771484375e+01,1.663629722595214844e+01,5.999322509765625000e+01,1.740625305175781250e+02,3.447043991088867188e+01,5.451486968994140625e+01
5.080000162124633789e-01,2.000000000000000000e+00,2.767403411865234375e+01,-4.688887596130371094e+00,5.852675628662109375e+01,-1.633545684814453125e+02,6.298857879638671875e+01,-1.083384628295898438e+02,8.487248992919921875e+01,1.661512184143066406e+01,5.996458053588867188e+01,1.740697021484375000e+02,3.448424530029296875e+01,5.450682449340820312e+01
5.120000243186950684e-01,2.000000000000000000e+00,2.760663986206054688e+01,-4.654695510864257812e+00,5.849950408935546875e+01,-1.633639373779296875e+02,6.299605941772460938e+01,-1.083183593750000000e+02,8.483695220947265625e+01,1.659395408630371094e+01,5.993594741821289062e+01,1.740768585205078125e+02,3.449805450439453125e+01,5.449878692626953125e+01
5.159999728202819824e-01,2.000000000000000000e+00,2.753926849365234375e+01,-4.620514392852783203e+00,5.847227478027343750e+01,-1.633732910156250000e+02,6.300354385375976562e+01,-1.082982559204101562e+02,8.480142974853515625e+01,1.657279396057128906e+01,5.990732192993164062e+01,1.740840148925781250e+02,3.451185226440429688e+01,5.449074935913085938e+01
5.199999809265136719e-01,2.000000000000000000e+00,2.747192001342773438e+01,-4.586343765258789062e+00,5.844504165649414062e+01,-1.633826599121093750e+02,6.301102447509765625e+01,-1.082781677246093750e+02,8.476591491699218750e+01,1.655163955688476562e+01,5.987870407104492188e+01,1.740911712646484375e+02,3.452565002441406250e+01,5.448271560668945312e+01
5.239999890327453613e-01,2.000000000000000000e+00,2.740459060668945312e+01,-4.552184104919433594e+00,5.841782379150390625e+01,-1.633920135498046875e+02,6.301849365234375000e+01,-1.082580795288085938e+02,8.473040771484375000e+01,1.653049278259277344e+01,5.985009384155273438e+01,1.740983123779296875e+02,3.453944015502929688e+01,5.447468566894531250e+01
5.279999971389770508e-01,2.000000000000000000e+00,2.733728218078613281e+01,-4.518035888671875000e+00,5.839061355590820312e+01,-1.634013824462890625e+02,6.302597427368164062e+01,-1.082379989624023438e+02,8.469492340087890625e+01,1.650935173034667969e+01,5.982149505615234375e+01,1.741054534912109375e+02,3.455322647094726562e+01,5.446665573120117188e+01
5.320000052452087402e-01,2.000000000000000000e+00,2.726999664306640625e+01,-4.483898162841796875e+00,5.836340713500976562e+01,-1.634107208251953125e+02,6.303344726562500000e+01,-1.082179336547851562e+02,8.465943908691406250e+01,1.648821640014648438e+01,5.979290390014648438e+01,1.741126098632812500e+02,3.456700897216796875e+01,5.445862960815429688e+01
5.360000133514404297e-01,2.000000000000000000e+00,2.720273208618164062e+01,-4.449770927429199219e+00,5.833621597290039062e+01,-1.634200744628906250e+02,6.304091262817382812e+01,-1.081978683471679688e+02,8.462397003173828125e+01,1.646708869934082031e+01,5.976432800292968750e+01,1.741197509765625000e+02,3.458079147338867188e+01,5.445060348510742188e+01
5.400000214576721191e-01,2.000000000000000000e+00,2.713549041748046875e+01,-4.415655136108398438e+00,5.830903244018554688e+01,-1.634294281005859375e+02,6.304838562011718750e+01,-1.081778106689453125e+02,8.458851623535156250e+01,1.644597053527832031e+01,5.973574829101562500e+01,1.741268920898437500e+02,3.459456634521484375e+01,5.444258499145507812e+01
5.440000295639038086e-01,2.000000000000000000e+00,2.706826972961425781e+01,-4.381550312042236328e+00,5.828185272216796875e+01,-1.634387664794921875e+02,6.305584335327148438e+01,-1.081577529907226562e+02,8.455306243896484375e+01,1.642485618591308594e+01,5.970719146728515625e+01,1.741340332031250000e+02,3.460833740234375000e+01,5.443456268310546875e+01
5.479999780654907227e-01,2.000000000000000000e+00,2.700107002258300781e+01,-4.347455501556396484e+00,5.825468444824218750e+01,-1.634481048583984375e+02,6.306330871582031250e+01,-1.081377105712890625e+02,8.451763153076171875e+01,1.640374755859375000e+01,5.967863464355468750e+01,1.741411590576171875e+02,3.462210464477539062e+01,5.442654800415039062e+01
5.519999861717224121e-01,2.000000000000000000e+00,2.693388938903808594e+01,-4.313372135162353516e+00,5.822752761840820312e+01,-1.634574432373046875e+02,6.307076644897460938e+01,-1.081176681518554688e+02,8.448220825195312500e+01,1.638264846801757812e+01,5.965009307861328125e+01,1.741483154296875000e+02,3.463586425781250000e+01,5.441853332519531250e+01
5.559999942779541016e-01,2.000000000000000000e+00,2.686673355102539062e+01,-4.279299736022949219e+00,5.820037841796875000e+01,-1.634667663574218750e+02,6.307822418212890625e+01,-1.080976333618164062e+02,8.444679260253906250e+01,1.636155509948730469e+01,5.962155532836914062e+01,1.741554412841796875e+02,3.464962005615234375e+01,5.441052246093750000e+01
5.600000023841857910e-01,2.000000000000000000e+00,2.679959869384765625e+01,-4.245237827301025391e+00,5.817323303222656250e+01,-1.634761199951171875e+02,6.308568191528320312e+01,-1.080776062011718750e+02,8.441139221191406250e+01,1.634046745300292969e+01,5.959302520751953125e+01,1.741625671386718750e+02,3.466337203979492188e+01,5.440251159667968750e+01
5.640000104904174805e-01,2.000000000000000000e+00,2.673248291015625000e+01,-4.211186885833740234e+00,5.814609909057617188e+01,-1.634854431152343750e+02,6.309313583374023438e+01,-1.080575790405273438e+02,8.437599945068359375e+01,1.631938743591308594e+01,5.956451034545898438e+01,1.741696929931640625e+02,3.467712020874023438e+01,5.439450836181640625e+01
5.680000185966491699e-01,2.000000000000000000e+00,2.666539001464843750e+01,-4.177146911621093750e+00,5.811897659301757812e+01,-1.634947662353515625e+02,6.310058593750000000e+01,-1.080375671386718750e+02,8.434062194824218750e+01,1.629831314086914062e+01,5.953599929809570312e+01,1.741768188476562500e+02,3.469086456298828125e+01,5.438650131225585938e+01
5.720000267028808594e-01,2.000000000000000000e+00,2.659831809997558594e+01,-4.143117904663085938e+00,5.809185791015625000e+01,-1.635040893554687500e+02,6.310803222656250000e+01,-1.080175628662109375e+02,8.430525970458984375e+01,1.627724838256835938e+01,5.950750350952148438e+01,1.741839294433593750e+02,3.470460510253906250e+01,5.437850189208984375e+01
5.759999752044677734e-01,2.000000000000000000e+00,2.653126716613769531e+01,-4.109098911285400391e+00,5.806475067138671875e+01,-1.635134124755859375e+02,6.311547851562500000e+01,-1.079975585937500000e+02,8.426989746093750000e+01,1.625618743896484375e+01,5.947901535034179688e+01,1.741910705566406250e+02,3.471834182739257812e+01,5.437050247192382812e+01
5.799999833106994629e-01,2.000000000000000000e+00,2.646423721313476562e+01,-4.075090885162353516e+00,5.803765487670898438e+01,-1.635227203369140625e+02,6.312292098999023438e+01,-1.079775619506835938e+02,8.423455047607421875e+01,1.623513221740722656e+01,5.945053482055664062e+01,1.741981811523437500e+02,3.473206710815429688e+01,5.436250686645507812e+01
5.839999914169311523e-01,2.000000000000000000e+00,2.639723014831542969e+01,-4.041094303131103516e+00,5.801055908203125000e+01,-1.635320434570312500e+02,6.313035964965820312e+01,-1.079575729370117188e+02,8.419921875000000000e+01,1.621408462524414062e+01,5.942205810546875000e+01,1.742053070068359375e+02,3.474579620361328125e+01,5.435451126098632812e+01
5.879999995231628418e-01,2.000000000000000000e+00,2.633024215698242188e+01,-4.007108211517333984e+00,5.798347854614257812e+01,-1.635413360595703125e+02,6.313780593872070312e+01,-1.079375915527343750e+02,8.416389465332031250e+01,1.619304656982421875e+01,5.939359664916992188e+01,1.742124176025390625e+02,3.475951766967773438e+01,5.434652328491210938e+01
5.920000076293945312e-01,2.000000000000000000e+00,2.626327705383300781e+01,-3.973132610321044922e+00,5.795640945434570312e+01,-1.635506591796875000e+02,6.314523696899414062e+01,-1.079176101684570312e+02,8.412857818603515625e+01,1.617201232910156250e+01,5.936514282226562500e+01,1.742195281982421875e+02,3.477323532104492188e+01,5.433853530883789062e+01
5.960000157356262207e-01,2.000000000000000000e+00,2.619633102416992188e+01,-3.939168214797973633e+00,5.792934036254882812e+01,-1.635599670410156250e+02,6.315267562866210938e+01,-1.078976440429687500e+02,8.409328460693359375e+01,1.615098571777343750e+01,5.933669662475585938e+01,1.742266387939453125e+02,3.478694915771484375e+01,5.433054733276367188e+01
6.000000238418579102e-01,2.000000000000000000e+00,2.612940788269042969e+01,-3.905214548110961914e+00,5.790228652954101562e+01,-1.635692596435546875e+02,6.316010665893554688e+01,-1.078776855468750000e+02,8.405799102783203125e+01,1.612996482849121094e+01,5.930826187133789062e+01,1.742337493896484375e+02,3.480065917968750000e+01,5.432256317138671875e+01
6.039999723434448242e-01,2.000000000000000000e+00,2.606250572204589844e+01,-3.871271371841430664e+00,5.787524032592773438e+01,-1.635785675048828125e+02,6.316753768920898438e+01,-1.078577270507812500e+02,8.402271270751953125e+01,1.610895156860351562e+01,5.927983474731445312e+01,1.742408447265625000e+02,3.481436157226562500e+01,5.431458282470703125e+01
6.079999804496765137e-01,2.000000000000000000e+00,2.599562454223632812e+01,-3.837338685989379883e+00,5.784819793701171875e+01,-1.635878601074218750e+02,6.317496109008789062e+01,-1.078377761840820312e+02,8.398744964599609375e+01,1.608794593811035156e+01,5.925141525268554688e+01,1.742479553222656250e+02,3.482806396484375000e+01,5.430660629272460938e+01
6.119999885559082031e-01,2.000000000000000000e+00,2.592876434326171875e+01,-3.803416490554809570e+00,5.782117080688476562e+01,-1.635971527099609375e+02,6.318238449096679688e+01,-1.078178253173828125e+02,8.395219421386718750e+01,1.606694412231445312e+01,5.922300720214843750e+01,1.742550506591796875e+02,3.484175872802734375e+01,5.429862976074218750e+01
6.159999966621398926e-01,2.000000000000000000e+00,2.586192512512207031e+01,-3.769505023956298828e+00,5.779414367675781250e+01,-1.636064453125000000e+02,6.318981170654296875e+01,-1.077978820800781250e+02,8.391694641113281250e+01,1.604595184326171875e+01,5.919460678100585938e+01,1.742621459960937500e+02,3.485545349121093750e+01,5.429065704345703125e+01
6.200000047683715820e-01,2.000000000000000000e+00,2.579510688781738281e+01,-3.735604286193847656e+00,5.776713180541992188e+01,-1.636157379150390625e+02,6.319722747802734375e+01,-1.077779541015625000e+02,8.388171386718750000e+01,1.602496528625488281e+01,5.916621398925781250e+01,1.742692413330078125e+02,3.486914062500000000e+01,5.428268432617187500e+01
6.240000128746032715e-01,2.000000000000000000e+00,2.572830963134765625e+01,-3.701714038848876953e+00,5.774012374877929688e+01,-1.636250152587890625e+02,6.320464706420898438e+01,-1.077580261230468750e+02,8.384648895263671875e+01,1.600398445129394531e+01,5.913783264160156250e+01,1.742763366699218750e+02,3.488282012939453125e+01,5.427471542358398438e+01
6.280000209808349609e-01,2.000000000000000000e+00,2.566153335571289062e+01,-3.667834997177124023e+00,5.771313095092773438e+01,-1.636342926025390625e+02,6.321206283569335938e+01,-1.077381057739257812e+02,8.381127929687500000e+01,1.598301029205322266e+01,5.910945510864257812e+01,1.742834320068359375e+02,3.489650344848632812e+01,5.426675033569335938e+01
6.320000290870666504e-01,2.000000000000000000e+00,2.559477615356445312e+01,-3.633966445922851562e+00,5.768614578247070312e+01,-1.636435699462890625e+02,6.321947479248046875e+01,-1.077181930541992188e+02,8.377607727050781250e+01,1.596204280853271484e+01,5.908109664916992188e+01,1.742905120849609375e+02,3.491017532348632812e+01,5.425878906250000000e+01
6.359999775886535645e-01,2.000000000000000000e+00,2.552804183959960938e+01,-3.600108146667480469e+00,5.765916824340820312e+01,-1.636528472900390625e+02,6.322688293457031250e+01,-1.076982879638671875e+02,8.374088287353515625e+01,1.594108104705810547e+01,5.905273818969726562e+01,1.742976074218750000e+02,3.492384719848632812e+01,5.425082778930664062e+01
6.399999856948852539e-01,2.000000000000000000e+00,2.546132850646972656e+01,-3.566260337829589844e+00,5.763219451904296875e+01,-1.636621246337890625e+02,6.323429489135742188e+01,-1.076783828735351562e+02,8.370571136474609375e+01,1.592012786865234375e+01,5.902439117431640625e+01,1.743046875000000000e+02,3.493751144409179688e+01,5.424286651611328125e+01
6.439999938011169434e-01,2.000000000000000000e+00,2.539463615417480469e+01,-3.532423496246337891e+00,5.760522842407226562e+01,-1.636713867187500000e+02,6.324169921875000000e+01,-1.076584854125976562e+02,8.367053985595703125e+01,1.589917945861816406e+01,5.899605178833007812e+01,1.743117675781250000e+02,3.495117568969726562e+01,5.423491287231445312e+01
6.480000019073486328e-01,2.000000000000000000e+00,2.532796478271484375e+01,-3.498596906661987305e+00,5.757827758789062500e+01,-1.636806640625000000e+02,6.324910354614257812e+01,-1.076385955810546875e+02,8.363538360595703125e+01,1.587823867797851562e+01,5.896772003173828125e+01,1.743188629150390625e+02,3.496483230590820312e+01,5.422695922851562500e+01
6.520000100135803223e-01,2.000000000000000000e+00,2.526131248474121094e+01,-3.464781045913696289e+00,5.755133056640625000e+01,-1.636899261474609375e+02,6.325650787353515625e+01,-1.076187133789062500e+02,8.360024261474609375e+01,1.585730361938476562e+01,5.893940353393554688e+01,1.743259429931640625e+02,3.497848510742187500e+01,5.421900939941406250e+01
6.560000181198120117e-01,2.000000000000000000e+00,2.519468116760253906e+01,-3.430975437164306641e+00,5.752439498901367188e+01,-1.636991882324218750e+02,6.326390457153320312e+01,-1.075988388061523438e+02,8.356510162353515625e+01,1.583637619018554688e+01,5.891109085083007812e+01,1.743330078125000000e+02,3.499213027954101562e+01,5.421105957031250000e+01
6.600000262260437012e-01,2.000000000000000000e+00,2.512807083129882812e+01,-3.397180557250976562e+00,5.749746322631835938e+01,-1.637084503173828125e+02,6.327130126953125000e+01,-1.075789718627929688e+02,8.352998352050781250e+01,1.581545352935791016e+01,5.888278961181640625e+01,1.743400878906250000e+02,3.500577926635742188e+01,5.420310974121093750e+01
6.639999747276306152e-01,2.000000000000000000e+00,2.506148147583007812e+01,-3.363396167755126953e+00,5.747053909301757812e+01,-1.637176971435546875e+02,6.327869033813476562e+01,-1.075591049194335938e+02,8.349487304687500000e+01,1.579453754425048828e+01,5.885449218750000000e+01,1.743471527099609375e+02,3.501941680908203125e+01,5.419516754150390625e+01
6.679999828338623047e-01,2.000000000000000000e+00,2.499491310119628906e+01,-3.329622030258178711e+00,5.744362640380859375e+01,-1.637269592285156250e+02,6.328608703613281250e+01,-1.075392456054687500e+02,8.345976257324218750e+01,1.577362918853759766e+01,5.882620620727539062e+01,1.743542327880859375e+02,3.503305435180664062e+01,5.418722915649414062e+01
6.719999909400939941e-01,2.000000000000000000e+00,2.492836570739746094e+01,-3.295858621597290039e+00,5.741672134399414062e+01,-1.637362060546875000e+02,6.329347991943359375e+01,-1.075193939208984375e+02,8.342467498779296875e+01,1.575272655487060547e+01,5.879793167114257812e+01,1.743612823486328125e+02,3.504668807983398438e+01,5.417928695678710938e+01
6.759999990463256836e-01,2.000000000000000000e+00,2.486183929443359375e+01,-3.262105464935302734e+00,5.738982391357421875e+01,-1.637454528808593750e+02,6.330086135864257812e+01,-1.074995498657226562e+02,8.338959503173828125e+01,1.573183155059814453e+01,5.876966094970703125e+01,1.743683471679687500e+02,3.506031417846679688e+01,5.417135620117187500e+01
6.800000071525573730e-01,2.000000000000000000e+00,2.479533195495605469e+01,-3.228362798690795898e+00,5.736294174194335938e+01,-1.637546844482421875e+02,6.330825424194335938e+01,-1.074797058105468750e+02,8.335452270507812500e+01,1.571094131469726562e+01,5.874140167236328125e+01,1.743754119873046875e+02,3.507394027709960938e+01,5.416341781616210938e+01
6.840000152587890625e-01,2.000000000000000000e+00,2.472884559631347656e+01,-3.194630622863769531e+00,5.733605957031250000e+01,-1.637639312744140625e+02,6.331563568115234375e+01,-1.074598693847656250e+02,8.331946563720703125e+01,1.569005966186523438e+01,5.871315383911132812e+01,1.743824768066406250e+02,3.508755874633789062e+01,5.415548706054687500e+01
6.880000233650207520e-01,2.000000000000000000e+00,2.466237831115722656e+01,-3.160908699035644531e+00,5.730918884277343750e+01,-1.637731781005859375e+02,6.332301330566406250e+01,-1.074400482177734375e+02,8.328441619873046875e+01,1.566918373107910156e+01,5.868490982055664062e+01,1.743895416259765625e+02,3.510117340087890625e+01,5.414755630493164062e+01
6.919999718666076660e-01,2.000000000000000000e+00,2.459593582153320312e+01,-3.127197265625000000e+00,5.728232574462890625e+01,-1.637824096679687500e+02,6.333038711547851562e+01,-1.074202270507812500e+02,8.324938201904296875e+01,1.564831161499023438e+01,5.865667343139648438e+01,1.743966064453125000e+02,3.511478424072265625e+01,5.413963317871093750e+01
6.959999799728393555e-01,2.000000000000000000e+00,2.452951049804687500e+01,-3.093496322631835938e+00,5.725547027587890625e+01,-1.637916412353515625e+02,6.333776473999023438e+01,-1.074004058837890625e+02,8.321435546875000000e+01,1.562744903564453125e+01,5.862845230102539062e+01,1.744036560058593750e+02,3.512839126586914062e+01,5.413171005249023438e+01
6.999999880790710449e-01,2.000000000000000000e+00,2.446310424804687500e+01,-3.059805393218994141e+00,5.722862625122070312e+01,-1.638008728027343750e+02,6.334514236450195312e+01,-1.073805999755859375e+02,8.317933654785156250e+01,1.560659122467041016e+01,5.860023880004882812e+01,1.744107055664062500e+02,3.514199829101562500e+01,5.412378692626953125e+01
7.039999961853027344e-01,2.000000000000000000e+00,2.439672279357910156e+01,-3.026125192642211914e+00,5.720178604125976562e+01,-1.638100891113281250e+02,6.335251235961914062e+01,-1.073607940673828125e+02,8.314433288574218750e+01,1.558574008941650391e+01,5.857202911376953125e+01,1.744177551269531250e+02,3.515559005737304688e+01,5.411586761474609375e+01
7.080000042915344238e-01,2.000000000000000000e+00,2.433035850524902344e+01,-2.992455244064331055e+00,5.717495727539062500e+01,-1.638193359375000000e+02,6.335988235473632812e+01,-1.073410034179687500e+02,8.310933685302734375e+01,1.556489658355712891e+01,5.854383468627929688e+01,1.744247894287109375e+02,3.516918563842773438e+01,5.410794830322265625e+01
7.120000123977661133e-01,2.000000000000000000e+00,2.426401519775390625e+01,-2.958795785903930664e+00,5.714813613891601562e+01,-1.638285522460937500e+02,6.336725234985351562e+01,-1.073212051391601562e+02,8.307435607910156250e+01,1.554405784606933594e+01,5.851564407348632812e+01,1.744318389892578125e+02,3.518278121948242188e+01,5.410003662109375000e+01
7.160000205039978027e-01,2.000000000000000000e+00,2.419769287109375000e+01,-2.925146341323852539e+00,5.712132263183593750e+01,-1.638377685546875000e+02,6.337461471557617188e+01,-1.073014297485351562e+02,8.303937530517578125e+01,1.552322769165039062e+01,5.848746490478515625e+01,1.744388885498046875e+02,3.519636535644531250e+01,5.409212493896484375e+01
7.200000286102294922e-01,2.000000000000000000e+00,2.413138961791992188e+01,-2.891507625579833984e+00,5.709451675415039062e+01,-1.638469848632812500e+02,6.338197708129882812e+01,-1.072816467285156250e+02,8.300442504882812500e+01,1.550240230560302734e+01,5.845928955078125000e+01,1.744459228515625000e+02,3.520994567871093750e+01,5.408421325683593750e+01
7.239999771118164062e-01,2.000000000000000000e+00,2.406510734558105469e+01,-2.857878923416137695e+00,5.706771850585937500e+01,-1.638562011718750000e+02,6.338933944702148438e+01,-1.072618713378906250e+02,8.296947479248046875e+01,1.548158359527587891e+01,5.843112182617187500e+01,1.744529571533203125e+02,3.522352600097656250e+01,5.407630920410156250e+01
7.279999852180480957e-01,2.000000000000000000e+00,2.399884605407714844e+01,-2.824260950088500977e+00,5.704093170166015625e+01,-1.638654022216796875e+02,6.339669799804687500e+01,-1.072421035766601562e+02,8.293452453613281250e+01,1.546077060699462891e+01,5.840296936035156250e+01,1.744600067138671875e+02,3.523709487915039062e+01,5.406840133666992188e+01
7.319999933242797852e-01,2.000000000000000000e+00,2.393260574340820312e+01,-2.790653228759765625e+00,5.701415252685546875e+01,-1.638746185302734375e+02,6.340405273437500000e+01,-1.072223434448242188e+02,8.289959716796875000e+01,1.543996429443359375e+01,5.837482070922851562e+01,1.744670410156250000e+02,3.525066375732421875e+01,5.406050109863281250e+01
7.360000014305114746e-01,2.000000000000000000e+00,2.386638450622558594e+01,-2.757055521011352539e+00,5.698738098144531250e+01,-1.638838195800781250e+02,6.341140747070312500e+01,-1.072025909423828125e+02,8.286467742919921875e+01,1.541916561126708984e+01,5.834668731689453125e+01,1.744740753173828125e+02,3.526423263549804688e+01,5.405260086059570312e+01
7.400000095367431641e-01,2.000000000000000000e+00,2.380018615722656250e+01,-2.723468065261840820e+00,5.696061706542968750e+01,-1.638930206298828125e+02,6.341875839233398438e+01,-1.071828384399414062e+02,8.282977294921875000e+01,1.539837169647216797e+01,5.831855392456054688e+01,1.744811096191406250e+02,3.527779006958007812e+01,5.404470443725585938e+01
7.440000176429748535e-01,2.000000000000000000e+00,2.373400497436523438e+01,-2.689891099929809570e+00,5.693385696411132812e+01,-1.639022216796875000e+02,6.342610549926757812e+01,-1.071631011962890625e+02,8.279486846923828125e+01,1.537758541107177734e+01,5.829043197631835938e+01,1.744881439208984375e+02,3.529134750366210938e+01,5.403681182861328125e+01
7.480000257492065430e-01,2.000000000000000000e+00,2.366784477233886719e+01,-2.656324625015258789e+00,5.690711212158203125e+01,-1.639114074707031250e+02,6.343345642089843750e+01,-1.071433639526367188e+02,8.275998687744140625e+01,1.535680484771728516e+01,5.826232528686523438e+01,1.744951629638671875e+02,3.530490493774414062e+01,5.402891921997070312e+01
7.519999742507934570e-01,2.000000000000000000e+00,2.360170555114746094e+01,-2.622768402099609375e+00,5.688037490844726562e+01,-1.639206085205078125e+02,6.344079971313476562e+01,-1.071236267089843750e+02,8.272510528564453125e+01,1.533603096008300781e+01,5.823422241210937500e+01,1.745021820068359375e+02,3.531845092773437500e+01,5.402103042602539062e+01
7.559999823570251465e-01,2.000000000000000000e+00,2.353558540344238281e+01,-2.589222192764282227e+00,5.685364151000976562e+01,-1.639297943115234375e+02,6.344814300537109375e+01,-1.071039123535156250e+02,8.269024658203125000e+01,1.531526374816894531e+01,5.820612716674804688e+01,1.745092010498046875e+02,3.533199691772460938e+01,5.401314163208007812e+01
7.599999904632568359e-01,2.000000000000000000e+00,2.346948623657226562e+01,-2.555686235427856445e+00,5.682691955566406250e+01,-1.639389801025390625e+02,6.345548248291015625e+01,-1.070841903686523438e+02,8.265539550781250000e+01,1.529450130462646484e+01,5.817804336547851562e+01,1.745162200927734375e+02,3.534553527832031250e+01,5.400525283813476562e+01
7.639999985694885254e-01,2.000000000000000000e+00,2.340340805053710938e+01,-2.522160768508911133e+00,5.680020523071289062e+01,-1.639481811523437500e+02,6.346281814575195312e+01,-1.070644836425781250e+02,8.262054443359375000e+01,1.527374649047851562e+01,5.814996337890625000e+01,1.745232543945312500e+02,3.535906982421875000e+01,5.399737167358398438e+01
7.680000066757202148e-01,2.000000000000000000e+00,2.333734893798828125e+01,-2.488645315170288086e+00,5.677349853515625000e+01,-1.639573516845703125e+02,6.347015380859375000e+01,-1.070447769165039062e+02,8.258570861816406250e+01,1.525299739837646484e+01,5.812189102172851562e+01,1.745302581787109375e+02,3.537260437011718750e+01,5.398949050903320312e+01
7.720000147819519043e-01,2.000000000000000000e+00,2.327131080627441406e+01,-2.455140352249145508e+00,5.674679946899414062e+01,-1.639665374755859375e+02,6.347748947143554688e+01,-1.070250701904296875e+02,8.255088806152343750e+01,1.523225593566894531e+01,5.809383392333984375e+01,1.745372772216796875e+02,3.538613128662109375e+01,5.398161315917968750e+01
7.760000228881835938e-01,2.000000000000000000e+00,2.320529365539550781e+01,-2.421645402908325195e+00,5.672010803222656250e+01,-1.639757080078125000e+02,6.348482131958007812e+01,-1.070053787231445312e+02,8.251607513427734375e+01,1.521151924133300781e+01,5.806578063964843750e+01,1.745442810058593750e+02,3.539965438842773438e+01,5.397373580932617188e+01
7.799999713897705078e-01,2.000000000000000000e+00,2.313929557800292969e+01,-2.388160943984985352e+00,5.669342803955078125e+01,-1.639848785400390625e+02,6.349214935302734375e+01,-1.069856872558593750e+02,8.248127746582031250e+01,1.519079017639160156e+01,5.803773498535156250e+01,1.745512847900390625e+02,3.541317367553710938e+01,5.396586608886718750e+01
7.839999794960021973e-01,2.000000000000000000e+00,2.307331657409667969e+01,-2.354686498641967773e+00,5.666675567626953125e+01,-1.639940490722656250e+02,6.349947738647460938e+01,-1.069660110473632812e+02,8.244647979736328125e+01,1.517006683349609375e+01,5.800970458984375000e+01,1.745583038330078125e+02,3.542668914794921875e+01,5.395799255371093750e+01
7.879999876022338867e-01,2.000000000000000000e+00,2.300735855102539062e+01,-2.321222543716430664e+00,5.664008712768554688e+01,-1.640032196044921875e+02,6.350679779052734375e+01,-1.069463348388671875e+02,8.241170501708984375e+01,1.514934921264648438e+01,5.798167419433593750e+01,1.745653076171875000e+02,3.544020080566406250e+01,5.395012283325195312e+01
7.919999957084655762e-01,2.000000000000000000e+00,2.294142150878906250e+01,-2.287768363952636719e+00,5.661343002319335938e+01,-1.640123901367187500e+02,6.351412200927734375e+01,-1.069266586303710938e+02,8.237693023681640625e+01,1.512863826751708984e+01,5.795365905761718750e+01,1.745722961425781250e+02,3.545370864868164062e+01,5.394226074218750000e+01
7.960000038146972656e-01,2.000000000000000000e+00,2.287550163269042969e+01,-2.254324674606323242e+00,5.658678054809570312e+01,-1.640215454101562500e+02,6.352144241333007812e+01,-1.069069976806640625e+02,8.234217071533203125e+01,1.510793495178222656e+01,5.792565155029296875e+01,1.745793151855468750e+02,3.546721267700195312e+01,5.393439483642578125e+01
8.000000119209289551e-01,2.000000000000000000e+00,2.280960655212402344e+01,-2.220891237258911133e+00,5.656013870239257812e+01,-1.640307159423828125e+02,6.352875900268554688e+01,-1.068873367309570312e+02,8.230742645263671875e+01,1.508723545074462891e+01,5.789764785766601562e+01,1.745863037109375000e+02,3.548070907592773438e+01,5.392653656005859375e+01
8.040000200271606445e-01,2.000000000000000000e+00,2.274372673034667969e+01,-2.187467813491821289e+00,5.653350830078125000e+01,-1.640398559570312500e+02,6.353607177734375000e+01,-1.068676910400390625e+02,8.227268981933593750e+01,1.506654548645019531e+01,5.786965942382812500e+01,1.745932922363281250e+02,3.549420547485351562e+01,5.391867446899414062e+01
8.080000281333923340e-01,2.000000000000000000e+00,2.267787170410156250e+01,-2.154054641723632812e+00,5.650687789916992188e+01,-1.640490112304687500e+02,6.354338836669921875e+01,-1.068480377197265625e+02,8.223796081542968750e+01,1.504586029052734375e+01,5.784167480468750000e+01,1.746002960205078125e+02,3.550769424438476562e+01,5.391082000732421875e+01
8.119999766349792480e-01,2.000000000000000000e+00,2.261203384399414062e+01,-2.120651721954345703e+00,5.648026275634765625e+01,-1.640581665039062500e+02,6.355069732666015625e+01,-1.068283996582031250e+02,8.220324707031250000e+01,1.502517986297607422e+01,5.781370162963867188e+01,1.746072845458984375e+02,3.552118301391601562e+01,5.390296554565429688e+01
8.159999847412109375e-01,2.000000000000000000e+00,2.254621505737304688e+01,-2.087258815765380859e+00,5.645365524291992188e+01,-1.640673217773437500e+02,6.355801010131835938e+01,-1.068087615966796875e+02,8.216853332519531250e+01,1.500450706481933594e+01,5.778573608398437500e+01,1.746142730712890625e+02,3.553466415405273438e+01,5.389511489868164062e+01
8.199999928474426270e-01,2.000000000000000000e+00,2.248041915893554688e+01,-2.053876161575317383e+00,5.642705535888671875e+01,-1.640764617919921875e+02,6.356531524658203125e+01,-1.067891311645507812e+02,8.213384246826171875e+01,1.498383998870849609e+01,5.775777435302734375e+01,1.746212615966796875e+02,3.554814529418945312e+01,5.388726806640625000e+01
8.240000009536743164e-01,2.000000000000000000e+00,2.241464233398437500e+01,-2.020503520965576172e+00,5.640046310424804688e+01,-1.640856170654296875e+02,6.357262039184570312e+01,-1.067695159912109375e+02,8.209915161132812500e+01,1.496318054199218750e+01,5.772982406616210938e+01,1.746282501220703125e+02,3.556161499023437500e+01,5.387941741943359375e+01
8.280000090599060059e-01,2.000000000000000000e+00,2.234888458251953125e+01,-1.987141132354736328e+00,5.637387466430664062e+01,-1.640947570800781250e+02,6.357992172241210938e+01,-1.067499008178710938e+02,8.206448364257812500e+01,1.494252586364746094e+01,5.770188903808593750e+01,1.746352386474609375e+02,3.557508850097656250e+01,5.387157440185546875e+01
8.320000171661376953e-01,2.000000000000000000e+00,2.228314781188964844e+01,-1.953788876533508301e+00,5.634729766845703125e+01,-1.641038818359375000e+02,6.358722305297851562e+01,-1.067302856445312500e+02,8.202982330322265625e+01,1.492187881469726562e+01,5.767395401000976562e+01,1.746422119140625000e+02,3.558855438232421875e+01,5.386373138427734375e+01
8.360000252723693848e-01,2.000000000000000000e+00,2.221742820739746094e+01,-1.920446634292602539e+00,5.632072830200195312e+01,-1.641130218505859375e+02,6.359452056884765625e+01,-1.067106857299804688e+02,8.199516296386718750e+01,1.490123748779296875e+01,5.764603042602539062e+01,1.746492004394531250e+02,3.560201644897460938e+01,5.385589218139648438e+01
8.399999737739562988e-01,2.000000000000000000e+00,2.215173339843750000e+01,-1.887114644050598145e+00,5.629417037963867188e+01,-1.641221466064453125e+02,6.360181427001953125e+01,-1.066910858154296875e+02,8.196052551269531250e+01,1.488060188293457031e+01,5.761811828613281250e+01,1.746561737060546875e+02,3.561547470092773438e+01,5.384805297851562500e+01
8.439999818801879883e-01,2.000000000000000000e+00,2.208605575561523438e+01,-1.853792786598205566e+00,5.626761627197265625e+01,-1.641312713623046875e+02,6.360910797119140625e+01,-1.066714935302734375e+02,8.192588806152343750e+01,1.485997295379638672e+01,5.759020996093750000e+01,1.746631469726562500e+02,3.562892913818359375e+01,5.384022140502929688e+01
8.479999899864196777e-01,2.000000000000000000e+00,2.202039718627929688e+01,-1.820480823516845703e+00,5.624107360839843750e+01,-1.641403961181640625e+02,6.361639785766601562e+01,-1.066519088745117188e+02,8.189126586914062500e+01,1.483935070037841797e+01,5.756230926513671875e+01,1.746701202392578125e+02,3.564237594604492188e+01,5.383238983154296875e+01
8.519999980926513672e-01,2.000000000000000000e+00,2.195475959777832031e+01,-1.787179112434387207e+00,5.621453857421875000e+01,-1.641495208740234375e+02,6.362369155883789062e+01,-1.066323242187500000e+02,8.185665893554687500e+01,1.481873416900634766e+01,5.753442001342773438e+01,1.746770935058593750e+02,3.565582656860351562e+01,5.382455825805664062e+01
8.560000061988830566e-01,2.000000000000000000e+00,2.188914108276367188e+01,-1.753887534141540527e+00,5.618800735473632812e+01,-1.641586608886718750e+02,6.363097381591796875e+01,-1.066127548217773438e+02,8.182205200195312500e+01,1.479812431335449219e+01,5.750653839111328125e+01,1.746840515136718750e+02,3.566926574707031250e+01,5.381673049926757812e+01
8.600000143051147461e-01,2.000000000000000000e+00,2.182354354858398438e+01,-1.720605850219726562e+00,5.616148757934570312e+01,-1.641677703857421875e+02,6.363825988769531250e+01,-1.065931854248046875e+02,8.178746795654296875e+01,1.477752113342285156e+01,5.747866439819335938e+01,1.746910247802734375e+02,3.568270111083984375e+01,5.380890274047851562e+01
8.640000224113464355e-01,2.000000000000000000e+00,2.175796508789062500e+01,-1.687334418296813965e+00,5.613497543334960938e+01,-1.641768951416015625e+02,6.364554214477539062e+01,-1.065736236572265625e+02,8.175288391113281250e+01,1.475692272186279297e+01,5.745079803466796875e+01,1.746979980468750000e+02,3.569613647460937500e+01,5.380108261108398438e+01
8.679999709129333496e-01,2.000000000000000000e+00,2.169240760803222656e+01,-1.654072999954223633e+00,5.610847091674804688e+01,-1.641860046386718750e+02,6.365282058715820312e+01,-1.065540618896484375e+02,8.171831512451171875e+01,1.473633098602294922e+01,5.742294311523437500e+01,1.747049560546875000e+02,3.570956420898437500e+01,5.379326248168945312e+01
8.719999790191650391e-01,2.000000000000000000e+00,2.162686920166015625e+01,-1.620821595191955566e+00,5.608197784423828125e+01,-1.641950988769531250e+02,6.366010284423828125e+01,-1.065345153808593750e+02,8.168375396728515625e+01,1.471574497222900391e+01,5.739509963989257812e+01,1.747119140625000000e+02,3.572298812866210938e+01,5.378544235229492188e+01
8.759999871253967285e-01,2.000000000000000000e+00,2.156134986877441406e+01,-1.587580323219299316e+00,5.605548477172851562e+01,-1.642042083740234375e+02,6.366737747192382812e+01,-1.065149612426757812e+02,8.164920806884765625e+01,1.469516563415527344e+01,5.736725997924804688e+01,1.747188720703125000e+02,3.573641204833984375e+01,5.377762985229492188e+01
8.799999952316284180e-01,2.000000000000000000e+00,2.149585151672363281e+01,-1.554348945617675781e+00,5.602901077270507812e+01,-1.642133178710937500e+02,6.367465209960937500e+01,-1.064954299926757812e+02,8.161466979980468750e+01,1.467459297180175781e+01,5.733942413330078125e+01,1.747258300781250000e+02,3.574982833862304688e+01,5.376981353759765625e+01
8.840000033378601074e-01,2.000000000000000000e+00,2.143037223815917969e+01,-1.521127700805664062e+00,5.600253677368164062e+01,-1.642224273681640625e+02,6.368191909790039062e+01,-1.064758987426757812e+02,8.158013916015625000e+01,1.465402793884277344e+01,5.731160736083984375e+01,1.747327880859375000e+02,3.576324462890625000e+01,5.376200103759765625e+01
8.880000114440917969e-01,2.000000000000000000e+00,2.136491394042968750e+01,-1.487916469573974609e+00,5.597607040405273438e+01,-1.642315216064453125e+02,6.368919372558593750e+01,-1.064563674926757812e+02,8.154562377929687500e+01,1.463346672058105469e+01,5.728379058837890625e+01,1.747397308349609375e+02,3.577664947509765625e+01,5.375419235229492188e+01
8.920000195503234863e-01,2.000000000000000000e+00,2.129947471618652344e+01,-1.454715371131896973e+00,5.594961547851562500e+01,-1.642406158447265625e+02,6.369646072387695312e+01,-1.064368438720703125e+02,8.151111602783203125e+01,1.461291313171386719e+01,5.725598526000976562e+01,1.747466888427734375e+02,3.579005813598632812e+01,5.374638748168945312e+01
8.960000276565551758e-01,2.000000000000000000e+00,2.123405456542968750e+01,-1.421524167060852051e+00,5.592316436767578125e+01,-1.642496948242187500e+02,6.370372009277343750e+01,-1.064173278808593750e+02,8.147661590576171875e+01,1.459236431121826172e+01,5.722818374633789062e+01,1.747536315917968750e+02,3.580345916748046875e+01,5.373858261108398438e+01
8.999999761581420898e-01,2.000000000000000000e+00,2.116865348815917969e+01,-1.388342857360839844e+00,5.589672470092773438e+01,-1.642588043212890625e+02,6.371097946166992188e+01,-1.063978195190429688e+02,8.144213104248046875e+01,1.457182312011718750e+01,5.720039749145507812e+01,1.747605895996093750e+02,3.581685638427734375e+01,5.373078155517578125e+01
9.039999842643737793e-01,2.000000000000000000e+00,2.110327339172363281e+01,-1.355171799659729004e+00,5.587029266357421875e+01,-1.642678833007812500e+02,6.371824264526367188e+01,-1.063783187866210938e+02,8.140766143798828125e+01,1.455128765106201172e+01,5.717261505126953125e+01,1.747675170898437500e+02,3.583024597167968750e+01,5.372298049926757812e+01
9.079999923706054688e-01,2.000000000000000000e+00,2.103791427612304688e+01,-1.322010517120361328e+00,5.584386825561523438e+01,-1.642769622802734375e+02,6.372550201416015625e+01,-1.063588180541992188e+02,8.137319183349609375e+01,1.453075790405273438e+01,5.714484405517578125e+01,1.747744598388671875e+02,3.584363937377929688e+01,5.371518325805664062e+01
9.120000004768371582e-01,2.000000000000000000e+00,2.097257232666015625e+01,-1.288859367370605469e+00,5.581745529174804688e+01,-1.642860565185546875e+02,6.373275375366210938e+01,-1.063393249511718750e+02,8.133873748779296875e+01,1.451023483276367188e+01,5.711707687377929688e+01,1.747814025878906250e+02,3.585702133178710938e+01,5.370738983154296875e+01
9.160000085830688477e-01,2.000000000000000000e+00,2.090724945068359375e+01,-1.255718111991882324e+00,5.579104614257812500e+01,-1.642951354980468750e+02,6.374000930786132812e+01,-1.063198394775390625e+02,8.130429077148437500e+01,1.448971748352050781e+01,5.708932495117187500e+01,1.747883453369140625e+02,3.587040328979492188e+01,5.369959640502929688e+01
9.200000166893005371e-01,2.000000000000000000e+00,2.084194946289062500e+01,-1.222586750984191895e+00,5.576464462280273438e+01,-1.643041992187500000e+02,6.374726104736328125e+01,-1.063003616333007812e+02,8.126985931396484375e+01,1.446920585632324219e+01,5.706157684326171875e+01,1.747952728271484375e+02,3.588377761840820312e+01,5.369180679321289062e+01
9.240000247955322266e-01,2.000000000000000000e+00,2.077666664123535156e+01,-1.189465522766113281e+00,5.573825073242187500e+01,-1.643132781982421875e+02,6.375451660156250000e+01,-1.062808837890625000e+02,8.123543548583984375e+01,1.444870185852050781e+01,5.703384017944335938e+01,1.748022003173828125e+02,3.589715194702148438e+01,5.368402099609375000e+01
9.279999732971191406e-01,2.000000000000000000e+00,2.071140480041503906e+01,-1.156354188919067383e+00,5.571186447143554688e+01,-1.643223571777343750e+02,6.376176452636718750e+01,-1.062614135742187500e+02,8.120101928710937500e+01,1.442820262908935547e+01,5.700610733032226562e+01,1.748091278076171875e+02,3.591052246093750000e+01,5.367623519897460938e+01
9.319999814033508301e-01,2.000000000000000000e+00,2.064616203308105469e+01,-1.123252749443054199e+00,5.568548965454101562e+01,-1.643314208984375000e+02,6.376900482177734375e+01,-1.062419509887695312e+02,8.116661834716796875e+01,1.440771007537841797e+01,5.697838592529296875e+01,1.748160705566406250e+02,3.592388534545898438e+01,5.366844940185546875e+01
9.359999895095825195e-01,2.000000000000000000e+00,2.058093833923339844e+01,-1.090161323547363281e+00,5.565911865234375000e+01,-1.643404846191406250e+02,6.377624893188476562e+01,-1.062224960327148438e+02,8.113222503662109375e+01,1.438722515106201172e+01,5.695067214965820312e+01,1.748229980468750000e+02,3.593724441528320312e+01,5.366067123413085938e+01
9.399999976158142090e-01,2.000000000000000000e+00,2.051573371887207031e+01,-1.057079792022705078e+00,5.563275909423828125e+01,-1.643495635986328125e+02,6.378348922729492188e+01,-1.062030410766601562e+02,8.109783935546875000e+01,1.436674499511718750e+01,5.692296600341796875e+01,1.748299255371093750e+02,3.595060729980468750e+01,5.365289306640625000e+01
9.440000057220458984e-01,2.000000000000000000e+00,2.045055007934570312e+01,-1.024008154869079590e+00,5.560640716552734375e+01,-1.643586120605468750e+02,6.379072952270507812e+01,-1.061835937500000000e+02,8.106346893310546875e+01,1.434627151489257812e+01,5.689526748657226562e+01,1.748368377685546875e+02,3.596395874023437500e+01,5.364511489868164062e+01
9.480000138282775879e-01,2.000000000000000000e+00,2.038538551330566406e+01,-9.909464716911315918e-01,5.558005905151367188e+01,-1.643676757812500000e+02,6.379796218872070312e+01,-1.061641616821289062e+02,8.102910614013671875e+01,1.432580280303955078e+01,5.686758041381835938e+01,1.748437652587890625e+02,3.597730636596679688e+01,5.363734436035156250e+01
9.520000219345092773e-01,2.000000000000000000e+00,2.032024002075195312e+01,-9.578946828842163086e-01,5.555372238159179688e+01,-1.643767242431640625e+02,6.380519485473632812e+01,-1.061447296142578125e+02,8.099475097656250000e+01,1.430534172058105469e+01,5.683990097045898438e+01,1.748506774902343750e+02,3.599065017700195312e+01,5.362957000732421875e+01
9.559999704360961914e-01,2.000000000000000000e+00,2.025511550903320312e+01,-9.248527884483337402e-01,5.552739715576171875e+01,-1.643857727050781250e+02,6.381243133544921875e+01,-1.061253051757812500e+02,8.096041107177734375e+01,1.428488540649414062e+01,5.681222534179687500e+01,1.748576049804687500e+02,3.600399017333984375e+01,5.362179946899414062e+01
9.599999785423278809e-01,2.000000000000000000e+00,2.019000816345214844e+01,-8.918207883834838867e-01,5.550107192993164062e+01,-1.643948211669921875e+02,6.381966400146484375e+01,-1.061058731079101562e+02,8.092608642578125000e+01,1.426443576812744141e+01,5.678456115722656250e+01,1.748645172119140625e+02,3.601733016967773438e+01,5.361403656005859375e+01
9.639999866485595703e-01,2.000000000000000000e+00,2.012492179870605469e+01,-8.587986826896667480e-01,5.547475814819335938e+01,-1.644038696289062500e+02,6.382688903808593750e+01,-1.060864562988281250e+02,8.089176177978515625e+01,1.424399280548095703e+01,5.675690460205078125e+01,1.748714294433593750e+02,3.603066253662109375e+01,5.360626983642578125e+01
9.679999947547912598e-01,2.000000000000000000e+00,2.005985641479492188e+01,-8.257864713668823242e-01,5.544845199584960938e+01,-1.644129180908203125e+02,6.383411407470703125e+01,-1.060670471191406250e+02,8.085745239257812500e+01,1.422355556488037109e+01,5.672925567626953125e+01,1.748783416748046875e+02,3.604399108886718750e+01,5.359851074218750000e+01
9.720000028610229492e-01,2.000000000000000000e+00,1.999480819702148438e+01,-7.927840948104858398e-01,5.542215728759765625e+01,-1.644219512939453125e+02,6.384133529663085938e+01,-1.060476455688476562e+02,8.082315063476562500e+01,1.420312404632568359e+01,5.670161819458007812e+01,1.748852386474609375e+02,3.605731201171875000e+01,5.359074783325195312e+01
9.760000109672546387e-01,2.000000000000000000e+00,1.992978096008300781e+01,-7.597916126251220703e-01,5.539586639404296875e+01,-1.644309997558593750e+02,6.384856033325195312e+01,-1.060282440185546875e+02,8.078885650634765625e+01,1.418269920349121094e+01,5.667398834228515625e+01,1.748921508789062500e+02,3.607063674926757812e+01,5.358299255371093750e+01
9.800000190734863281e-01,2.000000000000000000e+00,1.986477088928222656e+01,-7.268090248107910156e-01,5.536958312988281250e+01,-1.644400329589843750e+02,6.385577392578125000e+01,-1.060088500976562500e+02,8.075457763671875000e+01,1.416228008270263672e+01,5.664636611938476562e+01,1.748990478515625000e+02,3.608395004272460938e+01,5.357523727416992188e+01
9.840000271797180176e-01,2.000000000000000000e+00,1.979978179931640625e+01,-6.938362121582031250e-01,5.534330749511718750e+01,-1.644490661621093750e+02,6.386299514770507812e+01,-1.059894714355468750e+02,8.072031402587890625e+01,1.414186763763427734e+01,5.661875152587890625e+01,1.749059600830078125e+02,3.609726715087890625e+01,5.356748199462890625e+01
9.879999756813049316e-01,2.000000000000000000e+00,1.973481178283691406e+01,-6.608732938766479492e-01,5.531704330444335938e+01,-1.644580993652343750e+02,6.387020492553710938e+01,-1.059700851440429688e+02,8.068605041503906250e+01,1.412146186828613281e+01,5.659114456176757812e+01,1.749128570556640625e+02,3.611057662963867188e+01,5.355973052978515625e+01
9.919999837875366211e-01,2.000000000000000000e+00,1.966986083984375000e+01,-6.279202103614807129e-01,5.529078674316406250e+01,-1.644671325683593750e+02,6.387741851806640625e+01,-1.059507064819335938e+02,8.065180206298828125e+01,1.410106086730957031e+01,5.656354522705078125e+01,1.749197540283203125e+02,3.612388229370117188e+01,5.355198669433593750e+01
9.959999918937683105e-01,2.000000000000000000e+00,1.960492897033691406e+01,-5.949769616127014160e-01,5.526453781127929688e+01,-1.644761505126953125e+02,6.388463211059570312e+01,-1.059313354492187500e+02,8.061756134033203125e+01,1.408066654205322266e+01,5.653595733642578125e+01,1.749266510009765625e+02,3.613718032836914062e+01,5.354423904418945312e+01
1.000000000000000000e+00,2.000000000000000000e+00,1.954001808166503906e+01,-5.620435476303100586e-01,5.523829269409179688e+01,-1.644851837158203125e+02,6.389183807373046875e+01,-1.059119720458984375e+02,8.058332824707031250e+01,1.406027793884277344e+01,5.650837707519531250e+01,1.749335327148437500e+02,3.615047836303710938e+01,5.353649520874023438e+01
1.003999948501586914e+00,2.000000000000000000e+00,1.947512626647949219e+01,-5.291199088096618652e-01,5.521205520629882812e+01,-1.644941864013671875e+02,6.389904403686523438e+01,-1.058926162719726562e+02,8.054911804199218750e+01,1.403989505767822266e+01,5.648080062866210938e+01,1.749404296875000000e+02,3.616376876831054688e+01,5.352875137329101562e+01
1.008000016212463379e+00,2.000000000000000000e+00,1.941025352478027344e+01,-4.962061047554016113e-01,5.518582916259765625e+01,-1.645032043457031250e+02,6.390625000000000000e+01,-1.058732681274414062e+02,8.051490783691406250e+01,1.401951885223388672e+01,5.645323562622070312e+01,1.749473266601562500e+02,3.617705917358398438e+01,5.352101516723632812e+01
1.011999964714050293e+00,2.000000000000000000e+00,1.934539985656738281e+01,-4.633020758628845215e-01,5.515961074829101562e+01,-1.645122222900390625e+02,6.391345596313476562e+01,-1.058539199829101562e+02,8.048070526123046875e+01,1.399914932250976562e+01,5.642567825317382812e+01,1.749542083740234375e+02,3.619034576416015625e+01,5.351327896118164062e+01
1.016000032424926758e+00,2.000000000000000000e+00,1.928056526184082031e+01,-4.304079115390777588e-01,5.513339614868164062e+01,-1.645212402343750000e+02,6.392065429687500000e+01,-1.058345718383789062e+02,8.044652557373046875e+01,1.397878456115722656e+01,5.639812850952148438e+01,1.749610900878906250e+02,3.620362472534179688e+01,5.350554275512695312e+01
1.019999980926513672e+00,2.000000000000000000e+00,1.921574974060058594e+01,-3.975234329700469971e-01,5.510719680786132812e+01,-1.645302429199218750e+02,6.392784500122070312e+01,-1.058152389526367188e+02,8.041234588623046875e+01,1.395842647552490234e+01,5.637059020996093750e+01,1.749679718017578125e+02,3.621689987182617188e+01,5.349781417846679688e+01
1.024000048637390137e+00,2.000000000000000000e+00,1.915095329284667969e+01,-3.646488189697265625e-01,5.508099746704101562e+01,-1.645392608642578125e+02,6.393504333496093750e+01,-1.057959060668945312e+02,8.037817382812500000e+01,1.393807411193847656e+01,5.634305572509765625e+01,1.749748535156250000e+02,3.623017501831054688e+01,5.349008178710937500e+01
1.026999950408935547e+00,2.000000000000000000e+00,1.908617591857910156e+01,-3.317839503288269043e-01,5.505480957031250000e+01,-1.645482635498046875e+02,6.394223785400390625e+01,-1.057765884399414062e+02,8.034402465820312500e+01,1.391772937774658203e+01,5.631553649902343750e+01,1.749817352294921875e+02,3.624344635009765625e+01,5.348235702514648438e+01
1.031999945640563965e+00,2.000000000000000000e+00,1.902141952514648438e+01,-2.989287972450256348e-01,5.502862930297851562e+01,-1.645572662353515625e+02,6.394942855834960938e+01,-1.057572708129882812e+02,8.030986785888671875e+01,1.389738845825195312e+01,5.628801727294921875e+01,1.749886169433593750e+02,3.625671005249023438e+01,5.347463226318359375e+01
1.036000013351440430e+00,2.000000000000000000e+00,1.895668220520019531e+01,-2.660834789276123047e-01,5.500246047973632812e+01,-1.645662536621093750e+02,6.395661544799804688e+01,-1.057379608154296875e+02,8.027573394775390625e+01,1.387705516815185547e+01,5.626050949096679688e+01,1.749954833984375000e+02,3.626996994018554688e+01,5.346690750122070312e+01
1.039999961853027344e+00,2.000000000000000000e+00,1.889196205139160156e+01,-2.332478612661361694e-01,5.497629165649414062e+01,-1.645752563476562500e+02,6.396380615234375000e+01,-1.057186508178710938e+02,8.024160766601562500e+01,1.385672664642333984e+01,5.623300933837890625e+01,1.750023651123046875e+02,3.628322982788085938e+01,5.345918655395507812e+01
1.044000029563903809e+00,2.000000000000000000e+00,1.882726287841796875e+01,-2.004220187664031982e-01,5.495013427734375000e+01,-1.645842437744140625e+02,6.397099304199218750e+01,-1.056993484497070312e+02,8.020749664306640625e+01,1.383640575408935547e+01,5.620551681518554688e+01,1.750092315673828125e+02,3.629648208618164062e+01,5.345146942138671875e+01
1.047999978065490723e+00,2.000000000000000000e+00,1.876258277893066406e+01,-1.676058918237686157e-01,5.492398834228515625e+01,-1.645932312011718750e+02,6.397817230224609375e+01,-1.056800537109375000e+02,8.017338562011718750e+01,1.381608963012695312e+01,5.617803573608398438e+01,1.750160980224609375e+02,3.630973434448242188e+01,5.344375228881835938e+01
1.052000045776367188e+00,2.000000000000000000e+00,1.869792175292968750e+01,-1.347995102405548096e-01,5.489784240722656250e+01,-1.646022186279296875e+02,6.398535537719726562e+01,-1.056607666015625000e+02,8.013928985595703125e+01,1.379577922821044922e+01,5.615056228637695312e+01,1.750229644775390625e+02,3.632297897338867188e+01,5.343603897094726562e+01
1.054999947547912598e+00,2.000000000000000000e+00,1.863327789306640625e+01,-1.020028367638587952e-01,5.487171173095703125e+01,-1.646112060546875000e+02,6.399252700805664062e+01,-1.056414871215820312e+02,8.010519409179687500e+01,1.377547550201416016e+01,5.612309646606445312e+01,1.750298309326171875e+02,3.633621978759765625e+01,5.342832565307617188e+01
1.059999942779541016e+00,2.000000000000000000e+00,1.856865692138671875e+01,-6.921589374542236328e-02,5.484558486938476562e+01,-1.646201934814453125e+02,6.399970626831054688e+01,-1.056222000122070312e+02,8.007112121582031250e+01,1.375517845153808594e+01,5.609563446044921875e+01,1.750366973876953125e+02,3.634945678710937500e+01,5.342061614990234375e+01
1.064000010490417480e+00,2.000000000000000000e+00,1.850405120849609375e+01,-3.643864765763282776e-02,5.481946563720703125e+01,-1.646291656494140625e+02,6.400688171386718750e+01,-1.056029357910156250e+02,8.003705596923828125e+01,1.373488616943359375e+01,5.606818389892578125e+01,1.750435638427734375e+02,3.636268997192382812e+01,5.341291046142578125e+01
1.067999958992004395e+00,2.000000000000000000e+00,1.843946647644042969e+01,-3.671112935990095139e-03,5.479335403442382812e+01,-1.646381530761718750e+02,6.401405334472656250e+01,-1.055836639404296875e+02,8.000299835205078125e+01,1.371460056304931641e+01,5.604074478149414062e+01,1.750504150390625000e+02,3.637592315673828125e+01,5.340520477294921875e+01
1.072000026702880859e+00,2.000000000000000000e+00,1.837490081787109375e+01,2.908673137426376343e-02,5.476725006103515625e+01,-1.646471252441406250e+02,6.402122497558593750e+01,-1.055644073486328125e+02,7.996895599365234375e+01,1.369432067871093750e+01,5.601330566406250000e+01,1.750572662353515625e+02,3.638914871215820312e+01,5.339750289916992188e+01
1.075999975204467773e+00,2.000000000000000000e+00,1.831035614013671875e+01,6.183488294482231140e-02,5.474115753173828125e+01,-1.646560974121093750e+02,6.402839660644531250e+01,-1.055451507568359375e+02,7.993492126464843750e+01,1.367404747009277344e+01,5.598587799072265625e+01,1.750641326904296875e+02,3.640237045288085938e+01,5.338980484008789062e+01
1.080000042915344238e+00,2.000000000000000000e+00,1.824582862854003906e+01,9.457336366176605225e-02,5.471506881713867188e+01,-1.646650543212890625e+02,6.403556060791015625e+01,-1.055259017944335938e+02,7.990089416503906250e+01,1.365377998352050781e+01,5.595846176147460938e+01,1.750709686279296875e+02,3.641558837890625000e+01,5.338210678100585938e+01
1.083999991416931152e+00,2.000000000000000000e+00,1.818132019042968750e+01,1.273021697998046875e-01,5.468899154663085938e+01,-1.646740264892578125e+02,6.404272460937500000e+01,-1.055066604614257812e+02,7.986687469482421875e+01,1.363351821899414062e+01,5.593105316162109375e+01,1.750778350830078125e+02,3.642880249023437500e+01,5.337441253662109375e+01
1.088000059127807617e+00,2.000000000000000000e+00,1.811682891845703125e+01,1.600213050842285156e-01,5.466291809082031250e+01,-1.646829986572265625e+02,6.404988098144531250e+01,-1.054874191284179688e+02,7.983287048339843750e+01,1.361326217651367188e+01,5.590365219116210938e+01,1.750846710205078125e+02,3.644201278686523438e+01,5.336671829223632812e+01
1.090999960899353027e+00,2.000000000000000000e+00,1.805235862731933594e+01,1.927308589220046997e-01,5.463685226440429688e+01,-1.646919555664062500e+02,6.405703735351562500e+01,-1.054681930541992188e+02,7.979887390136718750e+01,1.359301280975341797e+01,5.587625503540039062e+01,1.750915222167968750e+02,3.645521926879882812e+01,5.335902786254882812e+01
1.095999956130981445e+00,2.000000000000000000e+00,1.798790931701660156e+01,2.254309058189392090e-01,5.461079406738281250e+01,-1.647009124755859375e+02,6.406419372558593750e+01,-1.054489593505859375e+02,7.976489257812500000e+01,1.357276821136474609e+01,5.584886932373046875e+01,1.750983581542968750e+02,3.646842193603515625e+01,5.335133743286132812e+01
1.100000023841857910e+00,2.000000000000000000e+00,1.792347717285156250e+01,2.581214904785156250e-01,5.458474731445312500e+01,-1.647098693847656250e+02,6.407135772705078125e+01,-1.054297332763671875e+02,7.973091125488281250e+01,1.355253028869628906e+01,5.582149124145507812e+01,1.751052093505859375e+02,3.648162078857421875e+01,5.334365081787109375e+01
1.103999972343444824e+00,2.000000000000000000e+00,1.785906410217285156e+01,2.908024191856384277e-01,5.455870437622070312e+01,-1.647188262939453125e+02,6.407850646972656250e+01,-1.054105224609375000e+02,7.969694519042968750e+01,1.353229904174804688e+01,5.579412078857421875e+01,1.751120452880859375e+02,3.649481964111328125e+01,5.333596801757812500e+01
1.108000040054321289e+00,2.000000000000000000e+00,1.779467010498046875e+01,3.234733939170837402e-01,5.453267288208007812e+01,-1.647277679443359375e+02,6.408565521240234375e+01,-1.053913192749023438e+02,7.966298675537109375e+01,1.351207256317138672e+01,5.576676177978515625e+01,1.751188964843750000e+02,3.650800704956054688e+01,5.332828903198242188e+01
1.111999988555908203e+00,2.000000000000000000e+00,1.773029327392578125e+01,3.561345338821411133e-01,5.450664520263671875e+01,-1.647367248535156250e+02,6.409281158447265625e+01,-1.053721084594726562e+02,7.962904357910156250e+01,1.349185276031494141e+01,5.573941040039062500e+01,1.751257171630859375e+02,3.652119445800781250e+01,5.332060623168945312e+01
1.116000056266784668e+00,2.000000000000000000e+00,1.766593551635742188e+01,3.887859582901000977e-01,5.448062896728515625e+01,-1.647456665039062500e+02,6.409995269775390625e+01,-1.053529129028320312e+02,7.959510803222656250e+01,1.347163867950439453e+01,5.571205902099609375e+01,1.751325683593750000e+02,3.653437805175781250e+01,5.331293106079101562e+01
1.118999958038330078e+00,2.000000000000000000e+00,1.760159873962402344e+01,4.214278161525726318e-01,5.445461654663085938e+01,-1.647546081542968750e+02,6.410709381103515625e+01,-1.053337173461914062e+02,7.956118011474609375e+01,1.345143127441406250e+01,5.568472290039062500e+01,1.751394042968750000e+02,3.654755783081054688e+01,5.330525588989257812e+01
1.123999953269958496e+00,2.000000000000000000e+00,1.753727912902832031e+01,4.540601372718811035e-01,5.442861175537109375e+01,-1.647635498046875000e+02,6.411424255371093750e+01,-1.053145294189453125e+02,7.952726745605468750e+01,1.343122863769531250e+01,5.565739440917968750e+01,1.751462249755859375e+02,3.656073379516601562e+01,5.329758071899414062e+01
