rpiRobotics/ARM-21-02-F-19-Robot-Motion-Program/data_performance_abb/curve_1/dual_arm/diffevo_pose1/grad_result/sim/dual_iteration_1.csv
timestamp,cmd_num,J1,J2,J3,J4,J5,J6,J1_2,J2_2,J3_2,J4_2,J5_2,J6_2
0.000000000000000000e+00,-1.000000000000000000e+00,3.410474777221679688e+01,-6.213612079620361328e+00,6.123000335693359375e+01,-1.623750305175781250e+02,6.572703552246093750e+01,-1.090212097167968750e+02,8.711444854736328125e+01,1.824158477783203125e+01,6.236338424682617188e+01,1.718766326904296875e+02,3.251713943481445312e+01,5.575320816040039062e+01
2.000000094994902611e-03,-1.000000000000000000e+00,3.410474777221679688e+01,-6.213612079620361328e+00,6.123000335693359375e+01,-1.623750305175781250e+02,6.572703552246093750e+01,-1.090212097167968750e+02,8.711444854736328125e+01,1.824158477783203125e+01,6.236338424682617188e+01,1.718766326904296875e+02,3.251713943481445312e+01,5.575320816040039062e+01
4.000000189989805222e-03,-1.000000000000000000e+00,3.410474777221679688e+01,-6.213612079620361328e+00,6.123000335693359375e+01,-1.623750305175781250e+02,6.572703552246093750e+01,-1.090212097167968750e+02,8.711444854736328125e+01,1.824158477783203125e+01,6.236338424682617188e+01,1.718766326904296875e+02,3.251713943481445312e+01,5.575320816040039062e+01
9.999999776482582092e-03,-1.000000000000000000e+00,3.410474777221679688e+01,-6.213612079620361328e+00,6.123000335693359375e+01,-1.623750305175781250e+02,6.572703552246093750e+01,-1.090212097167968750e+02,8.711444854736328125e+01,1.824158477783203125e+01,6.236338424682617188e+01,1.718766326904296875e+02,3.251713943481445312e+01,5.575320816040039062e+01
1.200000010430812836e-02,-1.000000000000000000e+00,3.410474777221679688e+01,-6.213612079620361328e+00,6.123000335693359375e+01,-1.623750305175781250e+02,6.572703552246093750e+01,-1.090212097167968750e+02,8.711444854736328125e+01,1.824158477783203125e+01,6.236338424682617188e+01,1.718766326904296875e+02,3.251713943481445312e+01,5.575320816040039062e+01
1.600000075995922089e-02,-1.000000000000000000e+00,3.410474777221679688e+01,-6.213612079620361328e+00,6.123000335693359375e+01,-1.623750305175781250e+02,6.572703552246093750e+01,-1.090212097167968750e+02,8.711444854736328125e+01,1.824158477783203125e+01,6.236338424682617188e+01,1.718766326904296875e+02,3.251713943481445312e+01,5.575320816040039062e+01
1.999999955296516418e-02,-1.000000000000000000e+00,3.410474777221679688e+01,-6.213612079620361328e+00,6.123000335693359375e+01,-1.623750305175781250e+02,6.572703552246093750e+01,-1.090212097167968750e+02,8.711444854736328125e+01,1.824158477783203125e+01,6.236338424682617188e+01,1.718766326904296875e+02,3.251713943481445312e+01,5.575320816040039062e+01
2.400000020861625671e-02,-1.000000000000000000e+00,3.410474777221679688e+01,-6.213612079620361328e+00,6.123000335693359375e+01,-1.623750305175781250e+02,6.572703552246093750e+01,-1.090212097167968750e+02,8.711444854736328125e+01,1.824158477783203125e+01,6.236338424682617188e+01,1.718766326904296875e+02,3.251713943481445312e+01,5.575320816040039062e+01
2.800000086426734924e-02,-1.000000000000000000e+00,3.410474777221679688e+01,-6.213612079620361328e+00,6.123000335693359375e+01,-1.623750305175781250e+02,6.572703552246093750e+01,-1.090212097167968750e+02,8.711444854736328125e+01,1.824158477783203125e+01,6.236338424682617188e+01,1.718766326904296875e+02,3.251713943481445312e+01,5.575320816040039062e+01
3.200000151991844177e-02,2.000000000000000000e+00,3.410474777221679688e+01,-6.213612079620361328e+00,6.123000335693359375e+01,-1.623750305175781250e+02,6.572703552246093750e+01,-1.090212097167968750e+02,8.711444854736328125e+01,1.824158477783203125e+01,6.236338424682617188e+01,1.718766326904296875e+02,3.251713943481445312e+01,5.575320816040039062e+01
3.700000047683715820e-02,2.000000000000000000e+00,3.410474777221679688e+01,-6.213612079620361328e+00,6.123000335693359375e+01,-1.623750305175781250e+02,6.572703552246093750e+01,-1.090212097167968750e+02,8.711444854736328125e+01,1.824158477783203125e+01,6.236338424682617188e+01,1.718766326904296875e+02,3.251713943481445312e+01,5.575320816040039062e+01
4.300000146031379700e-02,2.000000000000000000e+00,3.410474777221679688e+01,-6.213612079620361328e+00,6.123000335693359375e+01,-1.623750305175781250e+02,6.572703552246093750e+01,-1.090212097167968750e+02,8.711444854736328125e+01,1.824158477783203125e+01,6.236338424682617188e+01,1.718766326904296875e+02,3.251713943481445312e+01,5.575320816040039062e+01
4.399999976158142090e-02,2.000000000000000000e+00,3.410474777221679688e+01,-6.213612079620361328e+00,6.123000335693359375e+01,-1.623750305175781250e+02,6.572703552246093750e+01,-1.090212097167968750e+02,8.711444854736328125e+01,1.824158477783203125e+01,6.236338424682617188e+01,1.718766326904296875e+02,3.251713943481445312e+01,5.575320816040039062e+01
5.000000074505805969e-02,2.000000000000000000e+00,3.410474777221679688e+01,-6.213612079620361328e+00,6.123000335693359375e+01,-1.623750305175781250e+02,6.572703552246093750e+01,-1.090212097167968750e+02,8.711444854736328125e+01,1.824158477783203125e+01,6.236338424682617188e+01,1.718766326904296875e+02,3.251713943481445312e+01,5.575320816040039062e+01
5.200000107288360596e-02,2.000000000000000000e+00,3.410474777221679688e+01,-6.213612079620361328e+00,6.123000335693359375e+01,-1.623750305175781250e+02,6.572703552246093750e+01,-1.090212097167968750e+02,8.711444854736328125e+01,1.824158477783203125e+01,6.236338424682617188e+01,1.718766326904296875e+02,3.251713943481445312e+01,5.575320816040039062e+01
5.600000172853469849e-02,2.000000000000000000e+00,3.410474777221679688e+01,-6.213612079620361328e+00,6.123000335693359375e+01,-1.623750305175781250e+02,6.572703552246093750e+01,-1.090212097167968750e+02,8.711444854736328125e+01,1.824158477783203125e+01,6.236338424682617188e+01,1.718766326904296875e+02,3.251713943481445312e+01,5.575320816040039062e+01
5.999999865889549255e-02,2.000000000000000000e+00,3.410474777221679688e+01,-6.213612079620361328e+00,6.123000335693359375e+01,-1.623750305175781250e+02,6.572703552246093750e+01,-1.090212097167968750e+02,8.711444854736328125e+01,1.824158477783203125e+01,6.236338424682617188e+01,1.718766326904296875e+02,3.251713943481445312e+01,5.575320816040039062e+01
6.400000303983688354e-02,2.000000000000000000e+00,3.410474777221679688e+01,-6.213612079620361328e+00,6.123000335693359375e+01,-1.623750305175781250e+02,6.572703552246093750e+01,-1.090212097167968750e+02,8.711444854736328125e+01,1.824158477783203125e+01,6.236338424682617188e+01,1.718766326904296875e+02,3.251713943481445312e+01,5.575320816040039062e+01
6.800000369548797607e-02,2.000000000000000000e+00,3.410474777221679688e+01,-6.213612079620361328e+00,6.123000335693359375e+01,-1.623750305175781250e+02,6.572703552246093750e+01,-1.090212097167968750e+02,8.711444854736328125e+01,1.824158477783203125e+01,6.236338424682617188e+01,1.718766326904296875e+02,3.251713943481445312e+01,5.575320816040039062e+01
7.199999690055847168e-02,2.000000000000000000e+00,3.410474777221679688e+01,-6.213612079620361328e+00,6.123000335693359375e+01,-1.623750305175781250e+02,6.572703552246093750e+01,-1.090212097167968750e+02,8.711444854736328125e+01,1.824158477783203125e+01,6.236338424682617188e+01,1.718766326904296875e+02,3.251713943481445312e+01,5.575320816040039062e+01
7.599999755620956421e-02,2.000000000000000000e+00,3.410467910766601562e+01,-6.213593959808349609e+00,6.122998809814453125e+01,-1.623750305175781250e+02,6.572703552246093750e+01,-1.090212097167968750e+02,8.711444854736328125e+01,1.824158477783203125e+01,6.236338424682617188e+01,1.718766326904296875e+02,3.251713943481445312e+01,5.575320816040039062e+01
7.999999821186065674e-02,2.000000000000000000e+00,3.410430526733398438e+01,-6.213481426239013672e+00,6.122993469238281250e+01,-1.623750305175781250e+02,6.572703552246093750e+01,-1.090212097167968750e+02,8.711444854736328125e+01,1.824158477783203125e+01,6.236338424682617188e+01,1.718766326904296875e+02,3.251713943481445312e+01,5.575320816040039062e+01
8.399999886751174927e-02,2.000000000000000000e+00,3.410324096679687500e+01,-6.213131904602050781e+00,6.122975921630859375e+01,-1.623750152587890625e+02,6.572704315185546875e+01,-1.090212020874023438e+02,8.711444854736328125e+01,1.824158477783203125e+01,6.236338424682617188e+01,1.718766326904296875e+02,3.251713943481445312e+01,5.575320816040039062e+01
8.799999952316284180e-02,2.000000000000000000e+00,3.410113525390625000e+01,-6.212379455566406250e+00,6.122937393188476562e+01,-1.623749847412109375e+02,6.572705078125000000e+01,-1.090211639404296875e+02,8.711444091796875000e+01,1.824158096313476562e+01,6.236337661743164062e+01,1.718766326904296875e+02,3.251713943481445312e+01,5.575320816040039062e+01
9.200000017881393433e-02,2.000000000000000000e+00,3.409775924682617188e+01,-6.211083412170410156e+00,6.122867965698242188e+01,-1.623749694824218750e+02,6.572705841064453125e+01,-1.090210647583007812e+02,8.711436462402343750e+01,1.824155044555664062e+01,6.236334991455078125e+01,1.718766479492187500e+02,3.251715469360351562e+01,5.575320816040039062e+01
9.600000083446502686e-02,2.000000000000000000e+00,3.409296417236328125e+01,-6.209125041961669922e+00,6.122759246826171875e+01,-1.623749847412109375e+02,6.572709655761718750e+01,-1.090208511352539062e+02,8.711412811279296875e+01,1.824144744873046875e+01,6.236325454711914062e+01,1.718766632080078125e+02,3.251719284057617188e+01,5.575320053100585938e+01
1.000000014901161194e-01,2.000000000000000000e+00,3.408658218383789062e+01,-6.206389904022216797e+00,6.122599411010742188e+01,-1.623750762939453125e+02,6.572714996337890625e+01,-1.090204467773437500e+02,8.711357116699218750e+01,1.824119758605957031e+01,6.236300277709960938e+01,1.718767089843750000e+02,3.251730346679687500e+01,5.575315856933593750e+01
1.040000021457672119e-01,2.000000000000000000e+00,3.407851028442382812e+01,-6.202779293060302734e+00,6.122378158569335938e+01,-1.623752899169921875e+02,6.572724151611328125e+01,-1.090197601318359375e+02,8.711251068115234375e+01,1.824069976806640625e+01,6.236246871948242188e+01,1.718768615722656250e+02,3.251754379272460938e+01,5.575305938720703125e+01
1.080000028014183044e-01,2.000000000000000000e+00,3.406869888305664062e+01,-6.198223114013671875e+00,6.122083663940429688e+01,-1.623756866455078125e+02,6.572737121582031250e+01,-1.090186691284179688e+02,8.711074829101562500e+01,1.823982429504394531e+01,6.236148452758789062e+01,1.718771514892578125e+02,3.251801300048828125e+01,5.575284194946289062e+01
1.120000034570693970e-01,2.000000000000000000e+00,3.405696105957031250e+01,-6.192634105682373047e+00,6.121703338623046875e+01,-1.623763732910156250e+02,6.572754669189453125e+01,-1.090170364379882812e+02,8.710800933837890625e+01,1.823840522766113281e+01,6.235981369018554688e+01,1.718776702880859375e+02,3.251882934570312500e+01,5.575241851806640625e+01
1.159999966621398926e-01,2.000000000000000000e+00,3.404291915893554688e+01,-6.185862064361572266e+00,6.121221160888671875e+01,-1.623773803710937500e+02,6.572779083251953125e+01,-1.090147552490234375e+02,8.710402679443359375e+01,1.823625755310058594e+01,6.235718917846679688e+01,1.718785400390625000e+02,3.252014160156250000e+01,5.575170135498046875e+01
1.199999973177909851e-01,2.000000000000000000e+00,3.402602386474609375e+01,-6.177703380584716797e+00,6.120617294311523438e+01,-1.623787994384765625e+02,6.572811889648437500e+01,-1.090116806030273438e+02,8.709856414794921875e+01,1.823319816589355469e+01,6.235332870483398438e+01,1.718798828125000000e+02,3.252211761474609375e+01,5.575056838989257812e+01
1.239999979734420776e-01,2.000000000000000000e+00,3.400583648681640625e+01,-6.167987823486328125e+00,6.119874954223632812e+01,-1.623807220458984375e+02,6.572853851318359375e+01,-1.090076675415039062e+02,8.709140014648437500e+01,1.822904968261718750e+01,6.234796142578125000e+01,1.718817901611328125e+02,3.252491760253906250e+01,5.574890899658203125e+01
1.280000060796737671e-01,2.000000000000000000e+00,3.398215866088867188e+01,-6.156675338745117188e+00,6.118982696533203125e+01,-1.623831939697265625e+02,6.572906494140625000e+01,-1.090026016235351562e+02,8.708228302001953125e+01,1.822362709045410156e+01,6.234080886840820312e+01,1.718844146728515625e+02,3.252869415283203125e+01,5.574662017822265625e+01
1.309999972581863403e-01,2.000000000000000000e+00,3.395504760742187500e+01,-6.143839836120605469e+00,6.117937088012695312e+01,-1.623863220214843750e+02,6.572969818115234375e+01,-1.089963531494140625e+02,8.707095336914062500e+01,1.821676445007324219e+01,6.233163833618164062e+01,1.718878173828125000e+02,3.253357696533203125e+01,5.574361801147460938e+01
1.360000073909759521e-01,2.000000000000000000e+00,3.392459869384765625e+01,-6.129571914672851562e+00,6.116735839843750000e+01,-1.623901672363281250e+02,6.573044586181640625e+01,-1.089888229370117188e+02,8.705720520019531250e+01,1.820833206176757812e+01,6.232026672363281250e+01,1.718920898437500000e+02,3.253966522216796875e+01,5.573983383178710938e+01
1.389999985694885254e-01,2.000000000000000000e+00,3.389082717895507812e+01,-6.113904476165771484e+00,6.115375900268554688e+01,-1.623947448730468750e+02,6.573133087158203125e+01,-1.089799728393554688e+02,8.704093170166015625e+01,1.819825935363769531e+01,6.230659866333007812e+01,1.718972625732421875e+02,3.254700851440429688e+01,5.573523330688476562e+01
1.439999938011169434e-01,2.000000000000000000e+00,3.385372543334960938e+01,-6.096837997436523438e+00,6.113856887817382812e+01,-1.624000854492187500e+02,6.573233795166015625e+01,-1.089697647094726562e+02,8.702212524414062500e+01,1.818653106689453125e+01,6.229060363769531250e+01,1.719033355712890625e+02,3.255562973022460938e+01,5.572980880737304688e+01
1.480000019073486328e-01,2.000000000000000000e+00,3.381329345703125000e+01,-6.078361988067626953e+00,6.112180709838867188e+01,-1.624061584472656250e+02,6.573347473144531250e+01,-1.089582519531250000e+02,8.700081634521484375e+01,1.817317771911621094e+01,6.227232360839843750e+01,1.719103240966796875e+02,3.256550216674804688e+01,5.572357559204101562e+01
1.519999951124191284e-01,2.000000000000000000e+00,3.376948547363281250e+01,-6.058415412902832031e+00,6.110348129272460938e+01,-1.624129333496093750e+02,6.573472595214843750e+01,-1.089454879760742188e+02,8.697715759277343750e+01,1.815829086303710938e+01,6.225188064575195312e+01,1.719181518554687500e+02,3.257656097412109375e+01,5.571657562255859375e+01
1.560000032186508179e-01,2.000000000000000000e+00,3.372220611572265625e+01,-6.036900997161865234e+00,6.108361816406250000e+01,-1.624203338623046875e+02,6.573609161376953125e+01,-1.089315795898437500e+02,8.695137023925781250e+01,1.814200782775878906e+01,6.222947692871093750e+01,1.719267425537109375e+02,3.258869552612304688e+01,5.570887374877929688e+01
1.599999964237213135e-01,2.000000000000000000e+00,3.367148590087890625e+01,-6.013782978057861328e+00,6.106228637695312500e+01,-1.624282531738281250e+02,6.573754882812500000e+01,-1.089166412353515625e+02,8.692371368408203125e+01,1.812451171875000000e+01,6.220537567138671875e+01,1.719360046386718750e+02,3.260176467895507812e+01,5.570056915283203125e+01
1.640000045299530029e-01,2.000000000000000000e+00,3.361763000488281250e+01,-5.989162445068359375e+00,6.103961944580078125e+01,-1.624366607666015625e+02,6.573910522460937500e+01,-1.089008178710937500e+02,8.689444732666015625e+01,1.810598754882812500e+01,6.217983627319335938e+01,1.719458007812500000e+02,3.261560821533203125e+01,5.569176864624023438e+01
1.679999977350234985e-01,2.000000000000000000e+00,3.356114578247070312e+01,-5.963235855102539062e+00,6.101580810546875000e+01,-1.624454498291015625e+02,6.574073791503906250e+01,-1.088842315673828125e+02,8.686378479003906250e+01,1.808662033081054688e+01,6.215315628051757812e+01,1.719560394287109375e+02,3.263006591796875000e+01,5.568259048461914062e+01
1.720000058412551880e-01,2.000000000000000000e+00,3.350253677368164062e+01,-5.936192989349365234e+00,6.099102783203125000e+01,-1.624545593261718750e+02,6.574242401123046875e+01,-1.088670349121093750e+02,8.683197784423828125e+01,1.806658744812011719e+01,6.212562561035156250e+01,1.719665832519531250e+02,3.264496994018554688e+01,5.567314910888671875e+01
1.759999990463256836e-01,2.000000000000000000e+00,3.344210052490234375e+01,-5.908151149749755859e+00,6.096544265747070312e+01,-1.624639129638671875e+02,6.574415588378906250e+01,-1.088493423461914062e+02,8.679927825927734375e+01,1.804607009887695312e+01,6.209748458862304688e+01,1.719773406982421875e+02,3.266017532348632812e+01,5.566353607177734375e+01
1.800000071525573730e-01,2.000000000000000000e+00,3.337993240356445312e+01,-5.879179000854492188e+00,6.093915176391601562e+01,-1.624734497070312500e+02,6.574593353271484375e+01,-1.088312911987304688e+02,8.676595306396484375e+01,1.802522659301757812e+01,6.206896209716796875e+01,1.719882049560546875e+02,3.267557144165039062e+01,5.565383148193359375e+01
1.840000003576278687e-01,2.000000000000000000e+00,3.331607818603515625e+01,-5.849349975585937500e+00,6.091228485107421875e+01,-1.624830780029296875e+02,6.574774169921875000e+01,-1.088129882812500000e+02,8.673219299316406250e+01,1.800417327880859375e+01,6.204021453857421875e+01,1.719991302490234375e+02,3.269106674194335938e+01,5.564407730102539062e+01
1.879999935626983643e-01,2.000000000000000000e+00,3.325068664550781250e+01,-5.818774700164794922e+00,6.088494110107421875e+01,-1.624927673339843750e+02,6.574955749511718750e+01,-1.087945251464843750e+02,8.669816589355468750e+01,1.798300170898437500e+01,6.201134872436523438e+01,1.720100860595703125e+02,3.270661544799804688e+01,5.563430786132812500e+01
1.920000016689300537e-01,2.000000000000000000e+00,3.318392944335937500e+01,-5.787571430206298828e+00,6.085723876953125000e+01,-1.625024719238281250e+02,6.575139617919921875e+01,-1.087759780883789062e+02,8.666401672363281250e+01,1.796177864074707031e+01,6.198243713378906250e+01,1.720210418701171875e+02,3.272217559814453125e+01,5.562454223632812500e+01
1.959999948740005493e-01,2.000000000000000000e+00,3.311597442626953125e+01,-5.755866050720214844e+00,6.082926177978515625e+01,-1.625121765136718750e+02,6.575324249267578125e+01,-1.087573852539062500e+02,8.662982940673828125e+01,1.794054412841796875e+01,6.195351028442382812e+01,1.720320129394531250e+02,3.273773956298828125e+01,5.561477661132812500e+01
2.000000029802322388e-01,2.000000000000000000e+00,3.304711532592773438e+01,-5.723818778991699219e+00,6.080110931396484375e+01,-1.625218658447265625e+02,6.575508880615234375e+01,-1.087387847900390625e+02,8.659564971923828125e+01,1.791931343078613281e+01,6.192459869384765625e+01,1.720429687500000000e+02,3.275330352783203125e+01,5.560501098632812500e+01
2.039999961853027344e-01,2.000000000000000000e+00,3.297774887084960938e+01,-5.691600322723388672e+00,6.077288055419921875e+01,-1.625315399169921875e+02,6.575692749023437500e+01,-1.087201766967773438e+02,8.656148529052734375e+01,1.789809036254882812e+01,6.189569473266601562e+01,1.720539245605468750e+02,3.276885223388671875e+01,5.559524917602539062e+01
2.080000042915344238e-01,2.000000000000000000e+00,3.290821456909179688e+01,-5.659333229064941406e+00,6.074462890625000000e+01,-1.625412139892578125e+02,6.575878143310546875e+01,-1.087015838623046875e+02,8.652733612060546875e+01,1.787687683105468750e+01,6.186680221557617188e+01,1.720648803710937500e+02,3.278440475463867188e+01,5.558549118041992188e+01
2.119999974966049194e-01,2.000000000000000000e+00,3.283868026733398438e+01,-5.627069950103759766e+00,6.071638107299804688e+01,-1.625508728027343750e+02,6.576062774658203125e+01,-1.086829986572265625e+02,8.649319458007812500e+01,1.785566711425781250e+01,6.183791732788085938e+01,1.720758209228515625e+02,3.279994583129882812e+01,5.557573699951171875e+01
2.160000056028366089e-01,2.000000000000000000e+00,3.276916503906250000e+01,-5.594816684722900391e+00,6.068814468383789062e+01,-1.625605316162109375e+02,6.576246643066406250e+01,-1.086644134521484375e+02,8.645906066894531250e+01,1.783446502685546875e+01,6.180904006958007812e+01,1.720867614746093750e+02,3.281548309326171875e+01,5.556598663330078125e+01
2.199999988079071045e-01,2.000000000000000000e+00,3.269967269897460938e+01,-5.562574386596679688e+00,6.065991592407226562e+01,-1.625701904296875000e+02,6.576431274414062500e+01,-1.086458358764648438e+02,8.642494964599609375e+01,1.781327247619628906e+01,6.178017425537109375e+01,1.720977172851562500e+02,3.283101654052734375e+01,5.555624008178710938e+01
2.240000069141387939e-01,2.000000000000000000e+00,3.263021087646484375e+01,-5.530343532562255859e+00,6.063169860839843750e+01,-1.625798492431640625e+02,6.576615905761718750e+01,-1.086272583007812500e+02,8.639083862304687500e+01,1.779208564758300781e+01,6.175132369995117188e+01,1.721086578369140625e+02,3.284654235839843750e+01,5.554649353027343750e+01
2.280000001192092896e-01,2.000000000000000000e+00,3.256076812744140625e+01,-5.498124122619628906e+00,6.060348892211914062e+01,-1.625894927978515625e+02,6.576800537109375000e+01,-1.086086959838867188e+02,8.635674285888671875e+01,1.777090835571289062e+01,6.172248077392578125e+01,1.721195831298828125e+02,3.286206436157226562e+01,5.553675460815429688e+01
2.319999933242797852e-01,2.000000000000000000e+00,3.249135208129882812e+01,-5.465914726257324219e+00,6.057529449462890625e+01,-1.625991363525390625e+02,6.576984405517578125e+01,-1.085901412963867188e+02,8.632265472412109375e+01,1.774973487854003906e+01,6.169364166259765625e+01,1.721305084228515625e+02,3.287758255004882812e+01,5.552701568603515625e+01
2.360000014305114746e-01,2.000000000000000000e+00,3.242195510864257812e+01,-5.433717250823974609e+00,6.054710769653320312e+01,-1.626087951660156250e+02,6.577169036865234375e+01,-1.085715789794921875e+02,8.628858184814453125e+01,1.772857093811035156e+01,6.166482162475585938e+01,1.721414337158203125e+02,3.289309692382812500e+01,5.551728439331054688e+01
2.399999946355819702e-01,2.000000000000000000e+00,3.235258483886718750e+01,-5.401530742645263672e+00,6.051892471313476562e+01,-1.626184387207031250e+02,6.577353668212890625e+01,-1.085530395507812500e+02,8.625452423095703125e+01,1.770741462707519531e+01,6.163600158691406250e+01,1.721523590087890625e+02,3.290859985351562500e+01,5.550755310058593750e+01
2.440000027418136597e-01,2.000000000000000000e+00,3.228323364257812500e+01,-5.369355201721191406e+00,6.049075698852539062e+01,-1.626280822753906250e+02,6.577536773681640625e+01,-1.085345001220703125e+02,8.622047424316406250e+01,1.768626213073730469e+01,6.160719299316406250e+01,1.721632843017578125e+02,3.292409896850585938e+01,5.549782562255859375e+01
2.479999959468841553e-01,2.000000000000000000e+00,3.221391296386718750e+01,-5.337190628051757812e+00,6.046260452270507812e+01,-1.626377105712890625e+02,6.577721405029296875e+01,-1.085159606933593750e+02,8.618643188476562500e+01,1.766511917114257812e+01,6.157840347290039062e+01,1.721741943359375000e+02,3.293959808349609375e+01,5.548809814453125000e+01
2.520000040531158447e-01,2.000000000000000000e+00,3.214461135864257812e+01,-5.305037021636962891e+00,6.043445205688476562e+01,-1.626473388671875000e+02,6.577905273437500000e+01,-1.084974365234375000e+02,8.615241241455078125e+01,1.764398574829101562e+01,6.154961395263671875e+01,1.721850891113281250e+02,3.295508575439453125e+01,5.547837829589843750e+01
2.560000121593475342e-01,2.000000000000000000e+00,3.207533264160156250e+01,-5.272894382476806641e+00,6.040631103515625000e+01,-1.626569671630859375e+02,6.578089141845703125e+01,-1.084789199829101562e+02,8.611840057373046875e+01,1.762285614013671875e+01,6.152083969116210938e+01,1.721960144042968750e+02,3.297057342529296875e+01,5.546866226196289062e+01
2.599999904632568359e-01,2.000000000000000000e+00,3.200608062744140625e+01,-5.240762233734130859e+00,6.037818145751953125e+01,-1.626665954589843750e+02,6.578273773193359375e+01,-1.084604034423828125e+02,8.608439636230468750e+01,1.760173606872558594e+01,6.149207687377929688e+01,1.722069091796875000e+02,3.298604965209960938e+01,5.545894622802734375e+01
2.639999985694885254e-01,2.000000000000000000e+00,3.193685150146484375e+01,-5.208641529083251953e+00,6.035006332397460938e+01,-1.626762084960937500e+02,6.578456878662109375e+01,-1.084418945312500000e+02,8.605040740966796875e+01,1.758062171936035156e+01,6.146332168579101562e+01,1.722178192138671875e+02,3.300152587890625000e+01,5.544923782348632812e+01
2.680000066757202148e-01,2.000000000000000000e+00,3.186764907836914062e+01,-5.176532268524169922e+00,6.032194900512695312e+01,-1.626858367919921875e+02,6.578640747070312500e+01,-1.084233932495117188e+02,8.601642608642578125e+01,1.755951499938964844e+01,6.143457412719726562e+01,1.722286987304687500e+02,3.301699447631835938e+01,5.543952941894531250e+01
2.720000147819519043e-01,2.000000000000000000e+00,3.179846572875976562e+01,-5.144433021545410156e+00,6.029384994506835938e+01,-1.626954498291015625e+02,6.578824615478515625e+01,-1.084048995971679688e+02,8.598246002197265625e+01,1.753841590881347656e+01,6.140583801269531250e+01,1.722395935058593750e+02,3.303245925903320312e+01,5.542982864379882812e+01
2.759999930858612061e-01,2.000000000000000000e+00,3.172930526733398438e+01,-5.112345218658447266e+00,6.026575851440429688e+01,-1.627050628662109375e+02,6.579008483886718750e+01,-1.083864059448242188e+02,8.594850921630859375e+01,1.751732254028320312e+01,6.137711334228515625e+01,1.722504882812500000e+02,3.304791641235351562e+01,5.542012405395507812e+01
2.800000011920928955e-01,2.000000000000000000e+00,3.166017150878906250e+01,-5.080268383026123047e+00,6.023767089843750000e+01,-1.627146759033203125e+02,6.579191589355468750e+01,-1.083679275512695312e+02,8.591455841064453125e+01,1.749623870849609375e+01,6.134839248657226562e+01,1.722613677978515625e+02,3.306336975097656250e+01,5.541043090820312500e+01
2.840000092983245850e-01,2.000000000000000000e+00,3.159105873107910156e+01,-5.048202037811279297e+00,6.020959854125976562e+01,-1.627242736816406250e+02,6.579375457763671875e+01,-1.083494491577148438e+02,8.588063049316406250e+01,1.747516059875488281e+01,6.131969070434570312e+01,1.722722473144531250e+02,3.307881927490234375e+01,5.540073394775390625e+01
2.879999876022338867e-01,2.000000000000000000e+00,3.152197265625000000e+01,-5.016146659851074219e+00,6.018153381347656250e+01,-1.627338714599609375e+02,6.579558563232421875e+01,-1.083309783935546875e+02,8.584670257568359375e+01,1.745409011840820312e+01,6.129098892211914062e+01,1.722831268310546875e+02,3.309426116943359375e+01,5.539104080200195312e+01
2.919999957084655762e-01,2.000000000000000000e+00,3.145290565490722656e+01,-4.984102249145507812e+00,6.015348434448242188e+01,-1.627434844970703125e+02,6.579741668701171875e+01,-1.083125152587890625e+02,8.581279754638671875e+01,1.743302726745605469e+01,6.126230239868164062e+01,1.722939910888671875e+02,3.310969924926757812e+01,5.538135528564453125e+01
2.960000038146972656e-01,2.000000000000000000e+00,3.138386535644531250e+01,-4.952069282531738281e+00,6.012543869018554688e+01,-1.627530822753906250e+02,6.579924774169921875e+01,-1.082940597534179688e+02,8.577890014648437500e+01,1.741197013854980469e+01,6.123362350463867188e+01,1.723048706054687500e+02,3.312512969970703125e+01,5.537166976928710938e+01
3.000000119209289551e-01,2.000000000000000000e+00,3.131484603881835938e+01,-4.920047760009765625e+00,6.009740829467773438e+01,-1.627626647949218750e+02,6.580108642578125000e+01,-1.082756118774414062e+02,8.574501037597656250e+01,1.739092063903808594e+01,6.120495605468750000e+01,1.723157348632812500e+02,3.314055633544921875e+01,5.536198806762695312e+01
3.039999902248382568e-01,2.000000000000000000e+00,3.124585151672363281e+01,-4.888037681579589844e+00,6.006938171386718750e+01,-1.627722625732421875e+02,6.580291748046875000e+01,-1.082571640014648438e+02,8.571112823486328125e+01,1.736987876892089844e+01,6.117629623413085938e+01,1.723265838623046875e+02,3.315597915649414062e+01,5.535231018066406250e+01
3.079999983310699463e-01,2.000000000000000000e+00,3.117688369750976562e+01,-4.856038093566894531e+00,6.004136657714843750e+01,-1.627818450927734375e+02,6.580474853515625000e+01,-1.082387161254882812e+02,8.567726898193359375e+01,1.734884071350097656e+01,6.114764404296875000e+01,1.723374481201171875e+02,3.317139434814453125e+01,5.534263610839843750e+01
3.120000064373016357e-01,2.000000000000000000e+00,3.110793304443359375e+01,-4.824049949645996094e+00,6.001335525512695312e+01,-1.627914276123046875e+02,6.580657958984375000e+01,-1.082202911376953125e+02,8.564341735839843750e+01,1.732781410217285156e+01,6.111900711059570312e+01,1.723483123779296875e+02,3.318680572509765625e+01,5.533296585083007812e+01
3.160000145435333252e-01,2.000000000000000000e+00,3.103900909423828125e+01,-4.792071819305419922e+00,5.998535919189453125e+01,-1.628010101318359375e+02,6.580841064453125000e+01,-1.082018661499023438e+02,8.560957336425781250e+01,1.730679321289062500e+01,6.109038162231445312e+01,1.723591613769531250e+02,3.320221328735351562e+01,5.532329559326171875e+01
3.199999928474426270e-01,2.000000000000000000e+00,3.097010612487792969e+01,-4.760104656219482422e+00,5.995737457275390625e+01,-1.628105773925781250e+02,6.581024169921875000e+01,-1.081834411621093750e+02,8.557574462890625000e+01,1.728577804565429688e+01,6.106175613403320312e+01,1.723699951171875000e+02,3.321761322021484375e+01,5.531363296508789062e+01
3.240000009536743164e-01,2.000000000000000000e+00,3.090123176574707031e+01,-4.728147506713867188e+00,5.992939758300781250e+01,-1.628201599121093750e+02,6.581207275390625000e+01,-1.081650314331054688e+02,8.554192352294921875e+01,1.726477050781250000e+01,6.103314971923828125e+01,1.723808441162109375e+02,3.323300933837890625e+01,5.530397033691406250e+01
3.280000090599060059e-01,2.000000000000000000e+00,3.083237266540527344e+01,-4.696199893951416016e+00,5.990142822265625000e+01,-1.628297271728515625e+02,6.581389617919921875e+01,-1.081466217041015625e+02,8.550811767578125000e+01,1.724377059936523438e+01,6.100454711914062500e+01,1.723916931152343750e+02,3.324840164184570312e+01,5.529431152343750000e+01
3.319999873638153076e-01,2.000000000000000000e+00,3.076354026794433594e+01,-4.664263725280761719e+00,5.987346649169921875e+01,-1.628392944335937500e+02,6.581572723388671875e+01,-1.081282119750976562e+02,8.547431945800781250e+01,1.722277832031250000e+01,6.097595596313476562e+01,1.724025268554687500e+02,3.326378631591796875e+01,5.528465652465820312e+01
3.359999954700469971e-01,2.000000000000000000e+00,3.069473075866699219e+01,-4.632337570190429688e+00,5.984551620483398438e+01,-1.628488616943359375e+02,6.581755065917968750e+01,-1.081098175048828125e+02,8.544053649902343750e+01,1.720179176330566406e+01,6.094736862182617188e+01,1.724133605957031250e+02,3.327916717529296875e+01,5.527500534057617188e+01
3.400000035762786865e-01,2.000000000000000000e+00,3.062594413757324219e+01,-4.600422859191894531e+00,5.981757354736328125e+01,-1.628584136962890625e+02,6.581938171386718750e+01,-1.080914306640625000e+02,8.540676116943359375e+01,1.718081092834472656e+01,6.091880035400390625e+01,1.724241943359375000e+02,3.329454421997070312e+01,5.526535797119140625e+01
3.440000116825103760e-01,2.000000000000000000e+00,3.055718040466308594e+01,-4.568518638610839844e+00,5.978964614868164062e+01,-1.628679809570312500e+02,6.582120513916015625e+01,-1.080730438232421875e+02,8.537300109863281250e+01,1.715984153747558594e+01,6.089023590087890625e+01,1.724350128173828125e+02,3.330991363525390625e+01,5.525571060180664062e+01
3.479999899864196777e-01,2.000000000000000000e+00,3.048844146728515625e+01,-4.536624431610107422e+00,5.976172256469726562e+01,-1.628775329589843750e+02,6.582302856445312500e+01,-1.080546722412109375e+02,8.533924865722656250e+01,1.713887596130371094e+01,6.086168670654296875e+01,1.724458465576171875e+02,3.332527923583984375e+01,5.524606704711914062e+01
3.519999980926513672e-01,2.000000000000000000e+00,3.041972351074218750e+01,-4.504741668701171875e+00,5.973381042480468750e+01,-1.628870849609375000e+02,6.582485198974609375e+01,-1.080363006591796875e+02,8.530551147460937500e+01,1.711791801452636719e+01,6.083314132690429688e+01,1.724566650390625000e+02,3.334064102172851562e+01,5.523643112182617188e+01
3.560000061988830566e-01,2.000000000000000000e+00,3.035102844238281250e+01,-4.472868919372558594e+00,5.970590972900390625e+01,-1.628966217041015625e+02,6.582668304443359375e+01,-1.080179367065429688e+02,8.527177429199218750e+01,1.709696578979492188e+01,6.080460739135742188e+01,1.724674682617187500e+02,3.335599517822265625e+01,5.522679138183593750e+01
3.600000143051147461e-01,2.000000000000000000e+00,3.028235816955566406e+01,-4.441007614135742188e+00,5.967801284790039062e+01,-1.629061737060546875e+02,6.582849884033203125e+01,-1.079995727539062500e+02,8.523806762695312500e+01,1.707602310180664062e+01,6.077608108520507812e+01,1.724782867431640625e+02,3.337134552001953125e+01,5.521716308593750000e+01
3.639999926090240479e-01,2.000000000000000000e+00,3.021370697021484375e+01,-4.409156322479248047e+00,5.965012741088867188e+01,-1.629157257080078125e+02,6.583032226562500000e+01,-1.079812240600585938e+02,8.520435333251953125e+01,1.705508422851562500e+01,6.074756622314453125e+01,1.724890899658203125e+02,3.338668823242187500e+01,5.520753097534179688e+01
3.680000007152557373e-01,2.000000000000000000e+00,3.014508056640625000e+01,-4.377315521240234375e+00,5.962225341796875000e+01,-1.629252624511718750e+02,6.583214569091796875e+01,-1.079628753662109375e+02,8.517066192626953125e+01,1.703415489196777344e+01,6.071906280517578125e+01,1.724998931884765625e+02,3.340203094482421875e+01,5.519790649414062500e+01
3.720000088214874268e-01,2.000000000000000000e+00,3.007647895812988281e+01,-4.345485687255859375e+00,5.959438323974609375e+01,-1.629347991943359375e+02,6.583396911621093750e+01,-1.079445343017578125e+02,8.513697814941406250e+01,1.701323318481445312e+01,6.069056701660156250e+01,1.725106964111328125e+02,3.341736221313476562e+01,5.518828582763671875e+01
3.759999871253967285e-01,2.000000000000000000e+00,3.000789642333984375e+01,-4.313666343688964844e+00,5.956652450561523438e+01,-1.629443206787109375e+02,6.583578491210937500e+01,-1.079262008666992188e+02,8.510330200195312500e+01,1.699231529235839844e+01,6.066207885742187500e+01,1.725214996337890625e+02,3.343268966674804688e+01,5.517866516113281250e+01
3.799999952316284180e-01,2.000000000000000000e+00,2.993934249877929688e+01,-4.281857490539550781e+00,5.953867721557617188e+01,-1.629538421630859375e+02,6.583760833740234375e+01,-1.079078750610351562e+02,8.506964874267578125e+01,1.697140693664550781e+01,6.063360595703125000e+01,1.725322875976562500e+02,3.344801712036132812e+01,5.516904830932617188e+01
3.840000033378601074e-01,2.000000000000000000e+00,2.987080764770507812e+01,-4.250059604644775391e+00,5.951084518432617188e+01,-1.629633789062500000e+02,6.583942413330078125e+01,-1.078895492553710938e+02,8.503600311279296875e+01,1.695050430297851562e+01,6.060513687133789062e+01,1.725430755615234375e+02,3.346333312988281250e+01,5.515943527221679688e+01
3.880000114440917969e-01,2.000000000000000000e+00,2.980229377746582031e+01,-4.218271732330322266e+00,5.948301315307617188e+01,-1.629729003906250000e+02,6.584124755859375000e+01,-1.078712310791015625e+02,8.500235748291015625e+01,1.692960929870605469e+01,6.057667541503906250e+01,1.725538635253906250e+02,3.347864913940429688e+01,5.514982223510742188e+01
3.919999897480010986e-01,2.000000000000000000e+00,2.973380470275878906e+01,-4.186494827270507812e+00,5.945519256591796875e+01,-1.629824218750000000e+02,6.584306335449218750e+01,-1.078529205322265625e+02,8.496872711181640625e+01,1.690872001647949219e+01,6.054822921752929688e+01,1.725646514892578125e+02,3.349395751953125000e+01,5.514021682739257812e+01
3.959999978542327881e-01,2.000000000000000000e+00,2.966533851623535156e+01,-4.154728412628173828e+00,5.942737960815429688e+01,-1.629919281005859375e+02,6.584487915039062500e+01,-1.078346176147460938e+02,8.493511199951171875e+01,1.688784027099609375e+01,6.051978683471679688e+01,1.725754241943359375e+02,3.350926208496093750e+01,5.513061523437500000e+01
4.000000059604644775e-01,2.000000000000000000e+00,2.959689712524414062e+01,-4.122972965240478516e+00,5.939958190917968750e+01,-1.630014495849609375e+02,6.584670257568359375e+01,-1.078163223266601562e+02,8.490150451660156250e+01,1.686696624755859375e+01,6.049135971069335938e+01,1.725862121582031250e+02,3.352455902099609375e+01,5.512100982666015625e+01
4.040000140666961670e-01,2.000000000000000000e+00,2.952847480773925781e+01,-4.091227531433105469e+00,5.937178802490234375e+01,-1.630109558105468750e+02,6.584851837158203125e+01,-1.077980270385742188e+02,8.486791229248046875e+01,1.684609794616699219e+01,6.046294021606445312e+01,1.725969696044921875e+02,3.353985214233398438e+01,5.511141204833984375e+01
4.079999923706054688e-01,2.000000000000000000e+00,2.946007728576660156e+01,-4.059492588043212891e+00,5.934400177001953125e+01,-1.630204772949218750e+02,6.585033416748046875e+01,-1.077797470092773438e+02,8.483432769775390625e+01,1.682523727416992188e+01,6.043452453613281250e+01,1.726077270507812500e+02,3.355514144897460938e+01,5.510182189941406250e+01
4.120000004768371582e-01,2.000000000000000000e+00,2.939170455932617188e+01,-4.027768611907958984e+00,5.931623077392578125e+01,-1.630299682617187500e+02,6.585214996337890625e+01,-1.077614593505859375e+02,8.480075836181640625e+01,1.680438423156738281e+01,6.040612411499023438e+01,1.726184997558593750e+02,3.357042694091796875e+01,5.509222793579101562e+01
4.160000085830688477e-01,2.000000000000000000e+00,2.932335090637207031e+01,-3.996054649353027344e+00,5.928846740722656250e+01,-1.630394744873046875e+02,6.585396575927734375e+01,-1.077431869506835938e+02,8.476719665527343750e+01,1.678353691101074219e+01,6.037773132324218750e+01,1.726292572021484375e+02,3.358570480346679688e+01,5.508264160156250000e+01
4.199999868869781494e-01,2.000000000000000000e+00,2.925502204895019531e+01,-3.964351892471313477e+00,5.926070785522460938e+01,-1.630489654541015625e+02,6.585577392578125000e+01,-1.077249221801757812e+02,8.473365020751953125e+01,1.676269912719726562e+01,6.034935379028320312e+01,1.726400299072265625e+02,3.360097885131835938e+01,5.507305526733398438e+01
4.239999949932098389e-01,2.000000000000000000e+00,2.918671417236328125e+01,-3.932659149169921875e+00,5.923296356201171875e+01,-1.630584564208984375e+02,6.585758972167968750e+01,-1.077066650390625000e+02,8.470011138916015625e+01,1.674186515808105469e+01,6.032098007202148438e+01,1.726507720947265625e+02,3.361624526977539062e+01,5.506347656250000000e+01
4.280000030994415283e-01,2.000000000000000000e+00,2.911842918395996094e+01,-3.900976896286010742e+00,5.920522689819335938e+01,-1.630679473876953125e+02,6.585940551757812500e+01,-1.076884078979492188e+02,8.466658020019531250e+01,1.672103881835937500e+01,6.029261398315429688e+01,1.726615295410156250e+02,3.363151168823242188e+01,5.505389785766601562e+01
4.320000112056732178e-01,2.000000000000000000e+00,2.905016708374023438e+01,-3.869305133819580078e+00,5.917749786376953125e+01,-1.630774383544921875e+02,6.586122131347656250e+01,-1.076701507568359375e+02,8.463306427001953125e+01,1.670022010803222656e+01,6.026426315307617188e+01,1.726722869873046875e+02,3.364677047729492188e+01,5.504431915283203125e+01
4.359999895095825195e-01,2.000000000000000000e+00,2.898192787170410156e+01,-3.837643861770629883e+00,5.914978027343750000e+01,-1.630869293212890625e+02,6.586302947998046875e+01,-1.076519088745117188e+02,8.459956359863281250e+01,1.667940711975097656e+01,6.023591613769531250e+01,1.726830139160156250e+02,3.366202163696289062e+01,5.503474807739257812e+01
4.399999976158142090e-01,2.000000000000000000e+00,2.891371154785156250e+01,-3.805993080139160156e+00,5.912207031250000000e+01,-1.630964050292968750e+02,6.586483764648437500e+01,-1.076336746215820312e+02,8.456607055664062500e+01,1.665860366821289062e+01,6.020757675170898438e+01,1.726937561035156250e+02,3.367726898193359375e+01,5.502518081665039062e+01
4.440000057220458984e-01,2.000000000000000000e+00,2.884551429748535156e+01,-3.774353265762329102e+00,5.909437561035156250e+01,-1.631058959960937500e+02,6.586665344238281250e+01,-1.076154403686523438e+02,8.453258514404296875e+01,1.663780403137207031e+01,6.017925262451171875e+01,1.727044982910156250e+02,3.369251251220703125e+01,5.501561355590820312e+01
4.480000138282775879e-01,2.000000000000000000e+00,2.877734565734863281e+01,-3.742723464965820312e+00,5.906667709350585938e+01,-1.631153564453125000e+02,6.586846160888671875e+01,-1.075972137451171875e+02,8.449911499023437500e+01,1.661701202392578125e+01,6.015093612670898438e+01,1.727152252197265625e+02,3.370774841308593750e+01,5.500605010986328125e+01
4.519999921321868896e-01,2.000000000000000000e+00,2.870919418334960938e+01,-3.711103916168212891e+00,5.903900146484375000e+01,-1.631248321533203125e+02,6.587026977539062500e+01,-1.075789947509765625e+02,8.446566009521484375e+01,1.659622764587402344e+01,6.012263107299804688e+01,1.727259521484375000e+02,3.372298431396484375e+01,5.499649429321289062e+01
4.560000002384185791e-01,2.000000000000000000e+00,2.864106750488281250e+01,-3.679495096206665039e+00,5.901132583618164062e+01,-1.631343078613281250e+02,6.587207794189453125e+01,-1.075607833862304688e+02,8.443220520019531250e+01,1.657545089721679688e+01,6.009433364868164062e+01,1.727366943359375000e+02,3.373821258544921875e+01,5.498693847656250000e+01
4.600000083446502686e-01,2.000000000000000000e+00,2.857296371459960938e+01,-3.647896528244018555e+00,5.898366165161132812e+01,-1.631437683105468750e+02,6.587389373779296875e+01,-1.075425796508789062e+02,8.439877319335937500e+01,1.655467987060546875e+01,6.006604385375976562e+01,1.727473907470703125e+02,3.375343322753906250e+01,5.497738647460937500e+01
4.639999866485595703e-01,2.000000000000000000e+00,2.850488281250000000e+01,-3.616308689117431641e+00,5.895600891113281250e+01,-1.631532287597656250e+02,6.587569427490234375e+01,-1.075243759155273438e+02,8.436533355712890625e+01,1.653391647338867188e+01,6.003776550292968750e+01,1.727581176757812500e+02,3.376865005493164062e+01,5.496783447265625000e+01
4.679999947547912598e-01,2.000000000000000000e+00,2.843682289123535156e+01,-3.584730863571166992e+00,5.892835998535156250e+01,-1.631626892089843750e+02,6.587750244140625000e+01,-1.075061798095703125e+02,8.433192443847656250e+01,1.651315689086914062e+01,6.000949096679687500e+01,1.727688293457031250e+02,3.378386306762695312e+01,5.495828628540039062e+01
4.720000028610229492e-01,2.000000000000000000e+00,2.836878585815429688e+01,-3.553163528442382812e+00,5.890072250366210938e+01,-1.631721343994140625e+02,6.587930297851562500e+01,-1.074879913330078125e+02,8.429851531982421875e+01,1.649240684509277344e+01,5.998123168945312500e+01,1.727795562744140625e+02,3.379907226562500000e+01,5.494874191284179688e+01
4.760000109672546387e-01,2.000000000000000000e+00,2.830077171325683594e+01,-3.521606445312500000e+00,5.887309646606445312e+01,-1.631815948486328125e+02,6.588111877441406250e+01,-1.074698028564453125e+02,8.426512145996093750e+01,1.647166442871093750e+01,5.995298385620117188e+01,1.727902526855468750e+02,3.381427764892578125e+01,5.493920516967773438e+01
4.799999892711639404e-01,2.000000000000000000e+00,2.823278045654296875e+01,-3.490060091018676758e+00,5.884548187255859375e+01,-1.631910552978515625e+02,6.588291931152343750e+01,-1.074516296386718750e+02,8.423173522949218750e+01,1.645092773437500000e+01,5.992473983764648438e+01,1.728009643554687500e+02,3.382947158813476562e+01,5.492966461181640625e+01
4.839999973773956299e-01,2.000000000000000000e+00,2.816481018066406250e+01,-3.458523988723754883e+00,5.881787490844726562e+01,-1.632005004882812500e+02,6.588471984863281250e+01,-1.074334640502929688e+02,8.419836425781250000e+01,1.643019866943359375e+01,5.989650344848632812e+01,1.728116607666015625e+02,3.384466552734375000e+01,5.492013168334960938e+01
4.880000054836273193e-01,2.000000000000000000e+00,2.809686279296875000e+01,-3.426998138427734375e+00,5.879027175903320312e+01,-1.632099456787109375e+02,6.588652801513671875e+01,-1.074152908325195312e+02,8.416500854492187500e+01,1.640947532653808594e+01,5.986828231811523438e+01,1.728223724365234375e+02,3.385985565185546875e+01,5.491059875488281250e+01
4.920000135898590088e-01,2.000000000000000000e+00,2.802893829345703125e+01,-3.395482778549194336e+00,5.876268005371093750e+01,-1.632193756103515625e+02,6.588832855224609375e+01,-1.073971328735351562e+02,8.413165283203125000e+01,1.638875770568847656e+01,5.984006500244140625e+01,1.728330535888671875e+02,3.387503814697265625e+01,5.490107345581054688e+01
4.959999918937683105e-01,2.000000000000000000e+00,2.796103477478027344e+01,-3.363977909088134766e+00,5.873509979248046875e+01,-1.632288208007812500e+02,6.589012908935546875e+01,-1.073789825439453125e+02,8.409832000732421875e+01,1.636804771423339844e+01,5.981186294555664062e+01,1.728437500000000000e+02,3.389021301269531250e+01,5.489154815673828125e+01
5.000000000000000000e-01,2.000000000000000000e+00,2.789315414428710938e+01,-3.332483291625976562e+00,5.870752716064453125e+01,-1.632382507324218750e+02,6.589193725585937500e+01,-1.073608322143554688e+02,8.406498718261718750e+01,1.634734535217285156e+01,5.978366470336914062e+01,1.728544311523437500e+02,3.390538787841796875e+01,5.488202667236328125e+01
5.040000081062316895e-01,2.000000000000000000e+00,2.782529640197753906e+01,-3.300998926162719727e+00,5.867995834350585938e+01,-1.632476806640625000e+02,6.589373779296875000e+01,-1.073426971435546875e+02,8.403166961669921875e+01,1.632665061950683594e+01,5.975548171997070312e+01,1.728651123046875000e+02,3.392055892944335938e+01,5.487250900268554688e+01
5.080000162124633789e-01,2.000000000000000000e+00,2.775745964050292969e+01,-3.269525051116943359e+00,5.865240478515625000e+01,-1.632571258544921875e+02,6.589553833007812500e+01,-1.073245544433593750e+02,8.399836730957031250e+01,1.630595970153808594e+01,5.972729873657226562e+01,1.728757934570312500e+02,3.393571853637695312e+01,5.486299133300781250e+01
5.120000243186950684e-01,2.000000000000000000e+00,2.768964767456054688e+01,-3.238061189651489258e+00,5.862485885620117188e+01,-1.632665557861328125e+02,6.589733886718750000e+01,-1.073064270019531250e+02,8.396506500244140625e+01,1.628527832031250000e+01,5.969913101196289062e+01,1.728864746093750000e+02,3.395087814331054688e+01,5.485348129272460938e+01
5.159999728202819824e-01,2.000000000000000000e+00,2.762185478210449219e+01,-3.206607818603515625e+00,5.859732818603515625e+01,-1.632759552001953125e+02,6.589913940429687500e+01,-1.072883071899414062e+02,8.393178558349609375e+01,1.626460266113281250e+01,5.967097091674804688e+01,1.728971405029296875e+02,3.396603012084960938e+01,5.484397125244140625e+01
5.199999809265136719e-01,2.000000000000000000e+00,2.755408668518066406e+01,-3.175164699554443359e+00,5.856979370117187500e+01,-1.632853851318359375e+02,6.590093994140625000e+01,-1.072701873779296875e+02,8.389850616455078125e+01,1.624393272399902344e+01,5.964282608032226562e+01,1.729078063964843750e+02,3.398117828369140625e+01,5.483446502685546875e+01
5.239999890327453613e-01,2.000000000000000000e+00,2.748633956909179688e+01,-3.143731832504272461e+00,5.854227447509765625e+01,-1.632947998046875000e+02,6.590274047851562500e+01,-1.072520675659179688e+02,8.386524200439453125e+01,1.622327232360839844e+01,5.961468505859375000e+01,1.729184875488281250e+02,3.399632263183593750e+01,5.482496261596679688e+01
5.279999971389770508e-01,2.000000000000000000e+00,2.741861534118652344e+01,-3.112309455871582031e+00,5.851477050781250000e+01,-1.633042144775390625e+02,6.590453338623046875e+01,-1.072339630126953125e+02,8.383199310302734375e+01,1.620261764526367188e+01,5.958655166625976562e+01,1.729291381835937500e+02,3.401145935058593750e+01,5.481546020507812500e+01
5.320000052452087402e-01,2.000000000000000000e+00,2.735091018676757812e+01,-3.080897092819213867e+00,5.848726654052734375e+01,-1.633136291503906250e+02,6.590633392333984375e+01,-1.072158660888671875e+02,8.379875183105468750e+01,1.618196868896484375e+01,5.955842971801757812e+01,1.729398040771484375e+02,3.402659225463867188e+01,5.480596542358398438e+01
5.360000133514404297e-01,2.000000000000000000e+00,2.728322982788085938e+01,-3.049495220184326172e+00,5.845977401733398438e+01,-1.633230285644531250e+02,6.590812683105468750e+01,-1.071977691650390625e+02,8.376551818847656250e+01,1.616132736206054688e+01,5.953031921386718750e+01,1.729504547119140625e+02,3.404172134399414062e+01,5.479647445678710938e+01
5.400000214576721191e-01,2.000000000000000000e+00,2.721557235717773438e+01,-3.018103599548339844e+00,5.843229675292968750e+01,-1.633324279785156250e+02,6.590992736816406250e+01,-1.071796875000000000e+02,8.373229980468750000e+01,1.614069175720214844e+01,5.950221252441406250e+01,1.729611053466796875e+02,3.405684280395507812e+01,5.478698348999023438e+01
5.440000295639038086e-01,2.000000000000000000e+00,2.714793586730957031e+01,-2.986721992492675781e+00,5.840481948852539062e+01,-1.633418273925781250e+02,6.591172027587890625e+01,-1.071616058349609375e+02,8.369908905029296875e+01,1.612006378173828125e+01,5.947411727905273438e+01,1.729717559814453125e+02,3.407196044921875000e+01,5.477749633789062500e+01
5.479999780654907227e-01,2.000000000000000000e+00,2.708032035827636719e+01,-2.955350875854492188e+00,5.837735366821289062e+01,-1.633512268066406250e+02,6.591352081298828125e+01,-1.071435241699218750e+02,8.366589355468750000e+01,1.609944343566894531e+01,5.944603347778320312e+01,1.729823913574218750e+02,3.408707427978515625e+01,5.476800918579101562e+01
5.519999861717224121e-01,2.000000000000000000e+00,2.701272964477539062e+01,-2.923990011215209961e+00,5.834989547729492188e+01,-1.633606262207031250e+02,6.591531372070312500e+01,-1.071254501342773438e+02,8.363270568847656250e+01,1.607882690429687500e+01,5.941796112060546875e+01,1.729930419921875000e+02,3.410218048095703125e+01,5.475852966308593750e+01
5.559999942779541016e-01,2.000000000000000000e+00,2.694515991210937500e+01,-2.892639160156250000e+00,5.832245254516601562e+01,-1.633700256347656250e+02,6.591711425781250000e+01,-1.071073837280273438e+02,8.359952545166015625e+01,1.605821800231933594e+01,5.938988876342773438e+01,1.730036773681640625e+02,3.411728668212890625e+01,5.474905014038085938e+01
5.600000023841857910e-01,2.000000000000000000e+00,2.687761116027832031e+01,-2.861298799514770508e+00,5.829501724243164062e+01,-1.633794097900390625e+02,6.591889953613281250e+01,-1.070893325805664062e+02,8.356636047363281250e+01,1.603761672973632812e+01,5.936183166503906250e+01,1.730143127441406250e+02,3.413238525390625000e+01,5.473957443237304688e+01
5.640000104904174805e-01,2.000000000000000000e+00,2.681008338928222656e+01,-2.829968452453613281e+00,5.826758575439453125e+01,-1.633887939453125000e+02,6.592070007324218750e+01,-1.070712738037109375e+02,8.353321075439453125e+01,1.601702308654785156e+01,5.933378601074218750e+01,1.730249481201171875e+02,3.414748001098632812e+01,5.473010635375976562e+01
5.680000185966491699e-01,2.000000000000000000e+00,2.674258041381835938e+01,-2.798648357391357422e+00,5.824016189575195312e+01,-1.633981781005859375e+02,6.592248535156250000e+01,-1.070532302856445312e+02,8.350006866455078125e+01,1.599643516540527344e+01,5.930574798583984375e+01,1.730355834960937500e+02,3.416256713867187500e+01,5.472063446044921875e+01
5.720000267028808594e-01,2.000000000000000000e+00,2.667509841918945312e+01,-2.767338514328002930e+00,5.821275329589843750e+01,-1.634075469970703125e+02,6.592427825927734375e+01,-1.070351943969726562e+02,8.346693420410156250e+01,1.597585391998291016e+01,5.927771759033203125e+01,1.730461883544921875e+02,3.417765045166015625e+01,5.471116638183593750e+01
5.759999752044677734e-01,2.000000000000000000e+00,2.660763740539550781e+01,-2.736038684844970703e+00,5.818535232543945312e+01,-1.634169311523437500e+02,6.592607116699218750e+01,-1.070171508789062500e+02,8.343380737304687500e+01,1.595527935028076172e+01,5.924969100952148438e+01,1.730568237304687500e+02,3.419272994995117188e+01,5.470170974731445312e+01
5.799999833106994629e-01,2.000000000000000000e+00,2.654019927978515625e+01,-2.704749107360839844e+00,5.815796279907226562e+01,-1.634263000488281250e+02,6.592786407470703125e+01,-1.069991302490234375e+02,8.340069580078125000e+01,1.593471240997314453e+01,5.922168350219726562e+01,1.730674285888671875e+02,3.420780563354492188e+01,5.469224929809570312e+01
5.839999914169311523e-01,2.000000000000000000e+00,2.647278404235839844e+01,-2.673470020294189453e+00,5.813057327270507812e+01,-1.634356842041015625e+02,6.592964935302734375e+01,-1.069811019897460938e+02,8.336759948730468750e+01,1.591414928436279297e+01,5.919367980957031250e+01,1.730780487060546875e+02,3.422287368774414062e+01,5.468279266357421875e+01
5.879999995231628418e-01,2.000000000000000000e+00,2.640538787841796875e+01,-2.642200708389282227e+00,5.810319900512695312e+01,-1.634450531005859375e+02,6.593144226074218750e+01,-1.069630889892578125e+02,8.333450317382812500e+01,1.589359569549560547e+01,5.916567993164062500e+01,1.730886688232421875e+02,3.423793792724609375e+01,5.467333602905273438e+01
5.920000076293945312e-01,2.000000000000000000e+00,2.633801651000976562e+01,-2.610941648483276367e+00,5.807583618164062500e+01,-1.634544067382812500e+02,6.593322753906250000e+01,-1.069450759887695312e+02,8.330142211914062500e+01,1.587304878234863281e+01,5.913769912719726562e+01,1.730992584228515625e+02,3.425299835205078125e+01,5.466388702392578125e+01
5.960000157356262207e-01,2.000000000000000000e+00,2.627066421508789062e+01,-2.579692602157592773e+00,5.804847335815429688e+01,-1.634637603759765625e+02,6.593502044677734375e+01,-1.069270706176757812e+02,8.326836395263671875e+01,1.585250759124755859e+01,5.910972213745117188e+01,1.731098632812500000e+02,3.426805496215820312e+01,5.465444183349609375e+01
6.000000238418579102e-01,2.000000000000000000e+00,2.620333671569824219e+01,-2.548454046249389648e+00,5.802112579345703125e+01,-1.634731140136718750e+02,6.593680572509765625e+01,-1.069090652465820312e+02,8.323530578613281250e+01,1.583197212219238281e+01,5.908176040649414062e+01,1.731204681396484375e+02,3.428310394287109375e+01,5.464499282836914062e+01
6.039999723434448242e-01,2.000000000000000000e+00,2.613603019714355469e+01,-2.517225503921508789e+00,5.799378585815429688e+01,-1.634824829101562500e+02,6.593859100341796875e+01,-1.068910751342773438e+02,8.320224761962890625e+01,1.581144428253173828e+01,5.905379486083984375e+01,1.731310577392578125e+02,3.429814529418945312e+01,5.463555526733398438e+01
6.079999804496765137e-01,2.000000000000000000e+00,2.606874465942382812e+01,-2.486007213592529297e+00,5.796645736694335938e+01,-1.634918365478515625e+02,6.594038391113281250e+01,-1.068730850219726562e+02,8.316921234130859375e+01,1.579092502593994141e+01,5.902584838867187500e+01,1.731416625976562500e+02,3.431318664550781250e+01,5.462611389160156250e+01
6.119999885559082031e-01,2.000000000000000000e+00,2.600148010253906250e+01,-2.454798936843872070e+00,5.793913650512695312e+01,-1.635011749267578125e+02,6.594216156005859375e+01,-1.068551025390625000e+02,8.313619232177734375e+01,1.577040863037109375e+01,5.899790954589843750e+01,1.731522521972656250e+02,3.432822036743164062e+01,5.461668014526367188e+01
6.159999966621398926e-01,2.000000000000000000e+00,2.593423843383789062e+01,-2.423600196838378906e+00,5.791182327270507812e+01,-1.635105285644531250e+02,6.594394683837890625e+01,-1.068371200561523438e+02,8.310317993164062500e+01,1.574990081787109375e+01,5.896998214721679688e+01,1.731628417968750000e+02,3.434325027465820312e+01,5.460725021362304688e+01
6.200000047683715820e-01,2.000000000000000000e+00,2.586701965332031250e+01,-2.392411947250366211e+00,5.788451385498046875e+01,-1.635198669433593750e+02,6.594573974609375000e+01,-1.068191528320312500e+02,8.307016754150390625e+01,1.572939968109130859e+01,5.894206237792968750e+01,1.731734161376953125e+02,3.435827636718750000e+01,5.459782028198242188e+01
6.240000128746032715e-01,2.000000000000000000e+00,2.579981994628906250e+01,-2.361233472824096680e+00,5.785722351074218750e+01,-1.635292053222656250e+02,6.594751739501953125e+01,-1.068011932373046875e+02,8.303717803955078125e+01,1.570890617370605469e+01,5.891414642333984375e+01,1.731839904785156250e+02,3.437329483032226562e+01,5.458839416503906250e+01
6.280000209808349609e-01,2.000000000000000000e+00,2.573264503479003906e+01,-2.330065011978149414e+00,5.782993698120117188e+01,-1.635385589599609375e+02,6.594930267333984375e+01,-1.067832336425781250e+02,8.300419616699218750e+01,1.568841743469238281e+01,5.888624572753906250e+01,1.731945648193359375e+02,3.438831329345703125e+01,5.457896804809570312e+01
6.320000290870666504e-01,2.000000000000000000e+00,2.566548728942871094e+01,-2.298906803131103516e+00,5.780265426635742188e+01,-1.635478820800781250e+02,6.595108795166015625e+01,-1.067652740478515625e+02,8.297122192382812500e+01,1.566793632507324219e+01,5.885834884643554688e+01,1.732051391601562500e+02,3.440332031250000000e+01,5.456954956054687500e+01
6.359999775886535645e-01,2.000000000000000000e+00,2.559835433959960938e+01,-2.267758846282958984e+00,5.777538299560546875e+01,-1.635572204589843750e+02,6.595286560058593750e+01,-1.067473297119140625e+02,8.293825531005859375e+01,1.564746189117431641e+01,5.883046340942382812e+01,1.732157135009765625e+02,3.441832733154296875e+01,5.456013488769531250e+01
6.399999856948852539e-01,2.000000000000000000e+00,2.553124237060546875e+01,-2.236620664596557617e+00,5.774812316894531250e+01,-1.635665435791015625e+02,6.595465087890625000e+01,-1.067293930053710938e+02,8.290531158447265625e+01,1.562699317932128906e+01,5.880258941650390625e+01,1.732262725830078125e+02,3.443333053588867188e+01,5.455072021484375000e+01
6.439999938011169434e-01,2.000000000000000000e+00,2.546415138244628906e+01,-2.205492258071899414e+00,5.772087097167968750e+01,-1.635758666992187500e+02,6.595643615722656250e+01,-1.067114486694335938e+02,8.287236785888671875e+01,1.560653209686279297e+01,5.877471923828125000e+01,1.732368316650390625e+02,3.444832611083984375e+01,5.454130935668945312e+01
6.480000019073486328e-01,2.000000000000000000e+00,2.539708137512207031e+01,-2.174374103546142578e+00,5.769363021850585938e+01,-1.635851898193359375e+02,6.595821380615234375e+01,-1.066935195922851562e+02,8.283943939208984375e+01,1.558607673645019531e+01,5.874686050415039062e+01,1.732473907470703125e+02,3.446331787109375000e+01,5.453190231323242188e+01
6.520000100135803223e-01,2.000000000000000000e+00,2.533003425598144531e+01,-2.143265724182128906e+00,5.766639328002929688e+01,-1.635945129394531250e+02,6.595999145507812500e+01,-1.066755981445312500e+02,8.280651855468750000e+01,1.556562709808349609e+01,5.871900558471679688e+01,1.732579498291015625e+02,3.447830200195312500e+01,5.452249908447265625e+01
6.560000181198120117e-01,2.000000000000000000e+00,2.526300621032714844e+01,-2.112167596817016602e+00,5.763916778564453125e+01,-1.636038208007812500e+02,6.596177673339843750e+01,-1.066576766967773438e+02,8.277360534667968750e+01,1.554518604278564453e+01,5.869116592407226562e+01,1.732685089111328125e+02,3.449328613281250000e+01,5.451309585571289062e+01
6.600000262260437012e-01,2.000000000000000000e+00,2.519600296020507812e+01,-2.081079006195068359e+00,5.761194992065429688e+01,-1.636131439208984375e+02,6.596354675292968750e+01,-1.066397628784179688e+02,8.274070739746093750e+01,1.552475070953369141e+01,5.866333389282226562e+01,1.732790527343750000e+02,3.450826263427734375e+01,5.450369644165039062e+01
6.639999747276306152e-01,2.000000000000000000e+00,2.512901878356933594e+01,-2.050000429153442383e+00,5.758474349975585938e+01,-1.636224365234375000e+02,6.596533203125000000e+01,-1.066218566894531250e+02,8.270781707763671875e+01,1.550432109832763672e+01,5.863551330566406250e+01,1.732896118164062500e+02,3.452323532104492188e+01,5.449430084228515625e+01
6.679999828338623047e-01,2.000000000000000000e+00,2.506205558776855469e+01,-2.018931865692138672e+00,5.755754089355468750e+01,-1.636317596435546875e+02,6.596710968017578125e+01,-1.066039581298828125e+02,8.267494964599609375e+01,1.548389911651611328e+01,5.860769653320312500e+01,1.733001556396484375e+02,3.453820419311523438e+01,5.448490905761718750e+01
6.719999909400939941e-01,2.000000000000000000e+00,2.499511528015136719e+01,-1.987872958183288574e+00,5.753034973144531250e+01,-1.636410675048828125e+02,6.596888732910156250e+01,-1.065860595703125000e+02,8.264208221435546875e+01,1.546348190307617188e+01,5.857989501953125000e+01,1.733106842041015625e+02,3.455316543579101562e+01,5.447552108764648438e+01
6.759999990463256836e-01,2.000000000000000000e+00,2.492819595336914062e+01,-1.956824064254760742e+00,5.750317382812500000e+01,-1.636503601074218750e+02,6.597065734863281250e+01,-1.065681610107421875e+02,8.260922241210937500e+01,1.544307327270507812e+01,5.855209732055664062e+01,1.733212127685546875e+02,3.456812286376953125e+01,5.446613311767578125e+01
6.800000071525573730e-01,2.000000000000000000e+00,2.486129760742187500e+01,-1.925784826278686523e+00,5.747599411010742188e+01,-1.636596527099609375e+02,6.597243499755859375e+01,-1.065502853393554688e+02,8.257637023925781250e+01,1.542266941070556641e+01,5.852430725097656250e+01,1.733317413330078125e+02,3.458308029174804688e+01,5.445674896240234375e+01
6.840000152587890625e-01,2.000000000000000000e+00,2.479442024230957031e+01,-1.894755601882934570e+00,5.744882965087890625e+01,-1.636689605712890625e+02,6.597421264648437500e+01,-1.065324020385742188e+02,8.254354095458984375e+01,1.540227317810058594e+01,5.849652862548828125e+01,1.733422851562500000e+02,3.459802627563476562e+01,5.444736480712890625e+01
6.880000233650207520e-01,2.000000000000000000e+00,2.472756385803222656e+01,-1.863736271858215332e+00,5.742167282104492188e+01,-1.636782379150390625e+02,6.597599029541015625e+01,-1.065145263671875000e+02,8.251071166992187500e+01,1.538188362121582031e+01,5.846875762939453125e+01,1.733528137207031250e+02,3.461297225952148438e+01,5.443798828125000000e+01
6.919999718666076660e-01,2.000000000000000000e+00,2.466073036193847656e+01,-1.832726597785949707e+00,5.739452362060546875e+01,-1.636875305175781250e+02,6.597776031494140625e+01,-1.064966583251953125e+02,8.247789764404296875e+01,1.536149883270263672e+01,5.844099807739257812e+01,1.733633270263671875e+02,3.462790679931640625e+01,5.442861175537109375e+01
6.959999799728393555e-01,2.000000000000000000e+00,2.459391403198242188e+01,-1.801726698875427246e+00,5.736738967895507812e+01,-1.636968231201171875e+02,6.597953796386718750e+01,-1.064787979125976562e+02,8.244509124755859375e+01,1.534112071990966797e+01,5.841324615478515625e+01,1.733738555908203125e+02,3.464284133911132812e+01,5.441924285888671875e+01
6.999999880790710449e-01,2.000000000000000000e+00,2.452712249755859375e+01,-1.770736575126647949e+00,5.734025192260742188e+01,-1.637061157226562500e+02,6.598130798339843750e+01,-1.064609451293945312e+02,8.241230010986328125e+01,1.532074928283691406e+01,5.838550186157226562e+01,1.733843688964843750e+02,3.465777206420898438e+01,5.440987014770507812e+01
7.039999961853027344e-01,2.000000000000000000e+00,2.446035003662109375e+01,-1.739756226539611816e+00,5.731312942504882812e+01,-1.637153930664062500e+02,6.598308563232421875e+01,-1.064430923461914062e+02,8.237951660156250000e+01,1.530038547515869141e+01,5.835776519775390625e+01,1.733948669433593750e+02,3.467269897460937500e+01,5.440050888061523438e+01
7.080000042915344238e-01,2.000000000000000000e+00,2.439360046386718750e+01,-1.708785653114318848e+00,5.728601837158203125e+01,-1.637246704101562500e+02,6.598486328125000000e+01,-1.064252395629882812e+02,8.234673309326171875e+01,1.528002834320068359e+01,5.833003616333007812e+01,1.734053802490234375e+02,3.468761825561523438e+01,5.439114379882812500e+01
7.120000123977661133e-01,2.000000000000000000e+00,2.432686996459960938e+01,-1.677824974060058594e+00,5.725891494750976562e+01,-1.637339324951171875e+02,6.598662567138671875e+01,-1.064074020385742188e+02,8.231397247314453125e+01,1.525967597961425781e+01,5.830231857299804688e+01,1.734158782958984375e+02,3.470253372192382812e+01,5.438178253173828125e+01
7.160000205039978027e-01,2.000000000000000000e+00,2.426016044616699219e+01,-1.646873950958251953e+00,5.723181533813476562e+01,-1.637432098388671875e+02,6.598839569091796875e+01,-1.063895721435546875e+02,8.228121948242187500e+01,1.523933029174804688e+01,5.827460861206054688e+01,1.734263916015625000e+02,3.471744537353515625e+01,5.437242507934570312e+01
7.200000286102294922e-01,2.000000000000000000e+00,2.419347381591796875e+01,-1.615932703018188477e+00,5.720472717285156250e+01,-1.637524719238281250e+02,6.599016571044921875e+01,-1.063717422485351562e+02,8.224847412109375000e+01,1.521899223327636719e+01,5.824691009521484375e+01,1.734368896484375000e+02,3.473235321044921875e+01,5.436307144165039062e+01
7.239999771118164062e-01,2.000000000000000000e+00,2.412680816650390625e+01,-1.585001230239868164e+00,5.717765045166015625e+01,-1.637617492675781250e+02,6.599194335937500000e+01,-1.063539199829101562e+02,8.221574401855468750e+01,1.519865798950195312e+01,5.821922302246093750e+01,1.734473876953125000e+02,3.474725341796875000e+01,5.435372161865234375e+01
7.279999852180480957e-01,2.000000000000000000e+00,2.406016349792480469e+01,-1.554079413414001465e+00,5.715057754516601562e+01,-1.637710113525390625e+02,6.599371337890625000e+01,-1.063361053466796875e+02,8.218302154541015625e+01,1.517833328247070312e+01,5.819153976440429688e+01,1.734578704833984375e+02,3.476215362548828125e+01,5.434437179565429688e+01
7.319999933242797852e-01,2.000000000000000000e+00,2.399353790283203125e+01,-1.523167371749877930e+00,5.712351226806640625e+01,-1.637802734375000000e+02,6.599548339843750000e+01,-1.063182907104492188e+02,8.215031433105468750e+01,1.515801334381103516e+01,5.816386413574218750e+01,1.734683685302734375e+02,3.477704238891601562e+01,5.433502578735351562e+01
7.360000014305114746e-01,2.000000000000000000e+00,2.392693328857421875e+01,-1.492264986038208008e+00,5.709645843505859375e+01,-1.637895202636718750e+02,6.599725341796875000e+01,-1.063004837036132812e+02,8.211760711669921875e+01,1.513770103454589844e+01,5.813619232177734375e+01,1.734788360595703125e+02,3.479193115234375000e+01,5.432568359375000000e+01
7.400000095367431641e-01,2.000000000000000000e+00,2.386035156250000000e+01,-1.461372256278991699e+00,5.706941223144531250e+01,-1.637987823486328125e+02,6.599901580810546875e+01,-1.062826843261718750e+02,8.208491516113281250e+01,1.511739253997802734e+01,5.810853958129882812e+01,1.734893341064453125e+02,3.480681610107421875e+01,5.431634521484375000e+01
7.440000176429748535e-01,2.000000000000000000e+00,2.379378890991210938e+01,-1.430489301681518555e+00,5.704237747192382812e+01,-1.638080291748046875e+02,6.600077819824218750e+01,-1.062648925781250000e+02,8.205223846435546875e+01,1.509709167480468750e+01,5.808089065551757812e+01,1.734998168945312500e+02,3.482168960571289062e+01,5.430701065063476562e+01
7.480000257492065430e-01,2.000000000000000000e+00,2.372724723815917969e+01,-1.399616003036499023e+00,5.701534652709960938e+01,-1.638172760009765625e+02,6.600254821777343750e+01,-1.062471008300781250e+02,8.201956176757812500e+01,1.507679748535156250e+01,5.805324935913085938e+01,1.735102844238281250e+02,3.483656311035156250e+01,5.429767608642578125e+01
7.519999742507934570e-01,2.000000000000000000e+00,2.366072845458984375e+01,-1.368752479553222656e+00,5.698832702636718750e+01,-1.638265228271484375e+02,6.600431060791015625e+01,-1.062293167114257812e+02,8.198690032958984375e+01,1.505650997161865234e+01,5.802561950683593750e+01,1.735207672119140625e+02,3.485143280029296875e+01,5.428834152221679688e+01
7.559999823570251465e-01,2.000000000000000000e+00,2.359422874450683594e+01,-1.337898492813110352e+00,5.696131515502929688e+01,-1.638357696533203125e+02,6.600608062744140625e+01,-1.062115402221679688e+02,8.195425415039062500e+01,1.503623008728027344e+01,5.799799728393554688e+01,1.735312347412109375e+02,3.486629867553710938e+01,5.427901458740234375e+01
7.599999904632568359e-01,2.000000000000000000e+00,2.352775001525878906e+01,-1.307054400444030762e+00,5.693431472778320312e+01,-1.638450164794921875e+02,6.600784301757812500e+01,-1.061937713623046875e+02,8.192160797119140625e+01,1.501595401763916016e+01,5.797038269042968750e+01,1.735416870117187500e+02,3.488115692138671875e+01,5.426968765258789062e+01
7.639999985694885254e-01,2.000000000000000000e+00,2.346129226684570312e+01,-1.276219844818115234e+00,5.690731811523437500e+01,-1.638542480468750000e+02,6.600961303710937500e+01,-1.061759948730468750e+02,8.188898468017578125e+01,1.499568557739257812e+01,5.794277572631835938e+01,1.735521545410156250e+02,3.489601516723632812e+01,5.426036834716796875e+01
7.680000066757202148e-01,2.000000000000000000e+00,2.339485549926757812e+01,-1.245394825935363770e+00,5.688032913208007812e+01,-1.638634796142578125e+02,6.601137542724609375e+01,-1.061582336425781250e+02,8.185636138916015625e+01,1.497542190551757812e+01,5.791518402099609375e+01,1.735626220703125000e+02,3.491086196899414062e+01,5.425104904174804688e+01
7.720000147819519043e-01,2.000000000000000000e+00,2.332843971252441406e+01,-1.214579582214355469e+00,5.685335159301757812e+01,-1.638727111816406250e+02,6.601313781738281250e+01,-1.061404800415039062e+02,8.182375335693359375e+01,1.495516681671142578e+01,5.788759613037109375e+01,1.735730743408203125e+02,3.492570877075195312e+01,5.424173355102539062e+01
7.760000228881835938e-01,2.000000000000000000e+00,2.326204490661621094e+01,-1.183773875236511230e+00,5.682638168334960938e+01,-1.638819427490234375e+02,6.601490020751953125e+01,-1.061227264404296875e+02,8.179115295410156250e+01,1.493491744995117188e+01,5.786001586914062500e+01,1.735835266113281250e+02,3.494055175781250000e+01,5.423241806030273438e+01
7.799999713897705078e-01,2.000000000000000000e+00,2.319566917419433594e+01,-1.152977943420410156e+00,5.679942321777343750e+01,-1.638911743164062500e+02,6.601666259765625000e+01,-1.061049804687500000e+02,8.175856018066406250e+01,1.491467285156250000e+01,5.783244705200195312e+01,1.735939788818359375e+02,3.495538711547851562e+01,5.422311019897460938e+01
7.839999794960021973e-01,2.000000000000000000e+00,2.312931632995605469e+01,-1.122191429138183594e+00,5.677246856689453125e+01,-1.639003906250000000e+02,6.601842498779296875e+01,-1.060872421264648438e+02,8.172599029541015625e+01,1.489443683624267578e+01,5.780488204956054688e+01,1.736044158935546875e+02,3.497021865844726562e+01,5.421380233764648438e+01
7.879999876022338867e-01,2.000000000000000000e+00,2.306298255920410156e+01,-1.091414690017700195e+00,5.674552536010742188e+01,-1.639096069335937500e+02,6.602018737792968750e+01,-1.060695114135742188e+02,8.169341278076171875e+01,1.487420558929443359e+01,5.777732849121093750e+01,1.736148681640625000e+02,3.498504638671875000e+01,5.420449829101562500e+01
7.919999957084655762e-01,2.000000000000000000e+00,2.299666976928710938e+01,-1.060647487640380859e+00,5.671858978271484375e+01,-1.639188385009765625e+02,6.602194976806640625e+01,-1.060517807006835938e+02,8.166085815429687500e+01,1.485398101806640625e+01,5.774979019165039062e+01,1.736253051757812500e+02,3.499986648559570312e+01,5.419519424438476562e+01
7.960000038146972656e-01,2.000000000000000000e+00,2.293037986755371094e+01,-1.029889941215515137e+00,5.669166183471679688e+01,-1.639280395507812500e+02,6.602371215820312500e+01,-1.060340576171875000e+02,8.162831115722656250e+01,1.483376216888427734e+01,5.772225189208984375e+01,1.736357421875000000e+02,3.501468658447265625e+01,5.418589782714843750e+01
8.000000119209289551e-01,2.000000000000000000e+00,2.286410713195800781e+01,-9.991419911384582520e-01,5.666474151611328125e+01,-1.639372406005859375e+02,6.602546691894531250e+01,-1.060163421630859375e+02,8.159577178955078125e+01,1.481355190277099609e+01,5.769472503662109375e+01,1.736461791992187500e+02,3.502949523925781250e+01,5.417660140991210938e+01
8.040000200271606445e-01,2.000000000000000000e+00,2.279785728454589844e+01,-9.684035778045654297e-01,5.663783264160156250e+01,-1.639464569091796875e+02,6.602722930908203125e+01,-1.059986267089843750e+02,8.156324768066406250e+01,1.479334640502929688e+01,5.766720581054687500e+01,1.736566009521484375e+02,3.504430770874023438e+01,5.416730880737304688e+01
8.080000281333923340e-01,2.000000000000000000e+00,2.273162841796875000e+01,-9.376747608184814453e-01,5.661093139648437500e+01,-1.639556579589843750e+02,6.602898406982421875e+01,-1.059809265136718750e+02,8.153072357177734375e+01,1.477314567565917969e+01,5.763969421386718750e+01,1.736670227050781250e+02,3.505910873413085938e+01,5.415802001953125000e+01
8.119999766349792480e-01,2.000000000000000000e+00,2.266541862487792969e+01,-9.069554209709167480e-01,5.658403778076171875e+01,-1.639648742675781250e+02,6.603074645996093750e+01,-1.059632186889648438e+02,8.149821472167968750e+01,1.475295257568359375e+01,5.761219406127929688e+01,1.736774444580078125e+02,3.507390975952148438e+01,5.414873123168945312e+01
8.159999847412109375e-01,2.000000000000000000e+00,2.259922981262207031e+01,-8.762457966804504395e-01,5.655714797973632812e+01,-1.639740600585937500e+02,6.603250122070312500e+01,-1.059455337524414062e+02,8.146571350097656250e+01,1.473276615142822266e+01,5.758469772338867188e+01,1.736878814697265625e+02,3.508870315551757812e+01,5.413944625854492188e+01
8.199999928474426270e-01,2.000000000000000000e+00,2.253306198120117188e+01,-8.455456495285034180e-01,5.653027343750000000e+01,-1.639832611083984375e+02,6.603425598144531250e+01,-1.059278411865234375e+02,8.143323516845703125e+01,1.471258640289306641e+01,5.755721282958984375e+01,1.736983032226562500e+02,3.510349655151367188e+01,5.413016510009765625e+01
8.240000009536743164e-01,2.000000000000000000e+00,2.246691513061523438e+01,-8.148550391197204590e-01,5.650340270996093750e+01,-1.639924621582031250e+02,6.603601074218750000e+01,-1.059101562500000000e+02,8.140075683593750000e+01,1.469241142272949219e+01,5.752974319458007812e+01,1.737087097167968750e+02,3.511827850341796875e+01,5.412088775634765625e+01
8.280000090599060059e-01,2.000000000000000000e+00,2.240078926086425781e+01,-7.841739058494567871e-01,5.647654342651367188e+01,-1.640016479492187500e+02,6.603776550292968750e+01,-1.058924713134765625e+02,8.136828613281250000e+01,1.467224407196044922e+01,5.750226974487304688e+01,1.737191162109375000e+02,3.513306045532226562e+01,5.411161041259765625e+01
8.320000171661376953e-01,2.000000000000000000e+00,2.233468055725097656e+01,-7.535024285316467285e-01,5.644969177246093750e+01,-1.640108337402343750e+02,6.603952026367187500e+01,-1.058748016357421875e+02,8.133582305908203125e+01,1.465208244323730469e+01,5.747481155395507812e+01,1.737295227050781250e+02,3.514783477783203125e+01,5.410234069824218750e+01
8.360000252723693848e-01,2.000000000000000000e+00,2.226859664916992188e+01,-7.228403687477111816e-01,5.642284774780273438e+01,-1.640200347900390625e+02,6.604127502441406250e+01,-1.058571319580078125e+02,8.130337524414062500e+01,1.463192653656005859e+01,5.744736099243164062e+01,1.737399291992187500e+02,3.516260910034179688e+01,5.409306716918945312e+01
8.399999737739562988e-01,2.000000000000000000e+00,2.220252990722656250e+01,-6.921878457069396973e-01,5.639601135253906250e+01,-1.640292053222656250e+02,6.604302978515625000e+01,-1.058394699096679688e+02,8.127094268798828125e+01,1.461177730560302734e+01,5.741991806030273438e+01,1.737503356933593750e+02,3.517737579345703125e+01,5.408380126953125000e+01
8.439999818801879883e-01,2.000000000000000000e+00,2.213648605346679688e+01,-6.615449190139770508e-01,5.636918258666992188e+01,-1.640383911132812500e+02,6.604478454589843750e+01,-1.058218154907226562e+02,8.123851013183593750e+01,1.459163570404052734e+01,5.739249038696289062e+01,1.737607269287109375e+02,3.519213867187500000e+01,5.407453536987304688e+01
8.479999899864196777e-01,2.000000000000000000e+00,2.207046318054199219e+01,-6.309114098548889160e-01,5.634236526489257812e+01,-1.640475616455078125e+02,6.604654693603515625e+01,-1.058041687011718750e+02,8.120609283447265625e+01,1.457149887084960938e+01,5.736505889892578125e+01,1.737711181640625000e+02,3.520689773559570312e+01,5.406527328491210938e+01
8.519999980926513672e-01,2.000000000000000000e+00,2.200445938110351562e+01,-6.002873778343200684e-01,5.631555557250976562e+01,-1.640567321777343750e+02,6.604829406738281250e+01,-1.057865142822265625e+02,8.117369079589843750e+01,1.455136775970458984e+01,5.733764266967773438e+01,1.737815093994140625e+02,3.522164916992187500e+01,5.405601501464843750e+01
8.560000061988830566e-01,2.000000000000000000e+00,2.193847656250000000e+01,-5.696728825569152832e-01,5.628875350952148438e+01,-1.640659179687500000e+02,6.605004882812500000e+01,-1.057688827514648438e+02,8.114128875732421875e+01,1.453124427795410156e+01,5.731023788452148438e+01,1.737919158935546875e+02,3.523640060424804688e+01,5.404676055908203125e+01
8.600000143051147461e-01,2.000000000000000000e+00,2.187251091003417969e+01,-5.390678048133850098e-01,5.626195907592773438e+01,-1.640750732421875000e+02,6.605179595947265625e+01,-1.057512435913085938e+02,8.110890960693359375e+01,1.451112651824951172e+01,5.728283691406250000e+01,1.738022918701171875e+02,3.525114440917968750e+01,5.403750991821289062e+01
8.640000224113464355e-01,2.000000000000000000e+00,2.180657005310058594e+01,-5.084722638130187988e-01,5.623517608642578125e+01,-1.640842437744140625e+02,6.605354309082031250e+01,-1.057336196899414062e+02,8.107652282714843750e+01,1.449101448059082031e+01,5.725544738769531250e+01,1.738126678466796875e+02,3.526588058471679688e+01,5.402825927734375000e+01
8.679999709129333496e-01,2.000000000000000000e+00,2.174064826965332031e+01,-4.778861999511718750e-01,5.620839691162109375e+01,-1.640933990478515625e+02,6.605529785156250000e+01,-1.057159881591796875e+02,8.104415893554687500e+01,1.447091007232666016e+01,5.722806549072265625e+01,1.738230438232421875e+02,3.528061676025390625e+01,5.401901245117187500e+01
8.719999790191650391e-01,2.000000000000000000e+00,2.167474746704101562e+01,-4.473095238208770752e-01,5.618162536621093750e+01,-1.641025695800781250e+02,6.605704498291015625e+01,-1.056983718872070312e+02,8.101180267333984375e+01,1.445081043243408203e+01,5.720069122314453125e+01,1.738334197998046875e+02,3.529534912109375000e+01,5.400976943969726562e+01
8.759999871253967285e-01,2.000000000000000000e+00,2.160886383056640625e+01,-4.167423248291015625e-01,5.615486526489257812e+01,-1.641117095947265625e+02,6.605879974365234375e+01,-1.056807556152343750e+02,8.097945404052734375e+01,1.443071842193603516e+01,5.717332458496093750e+01,1.738437957763671875e+02,3.531007385253906250e+01,5.400052642822265625e+01
8.799999952316284180e-01,2.000000000000000000e+00,2.154300498962402344e+01,-3.861845433712005615e-01,5.612811660766601562e+01,-1.641208648681640625e+02,6.606054687500000000e+01,-1.056631469726562500e+02,8.094712066650390625e+01,1.441063022613525391e+01,5.714596557617187500e+01,1.738541564941406250e+02,3.532479476928710938e+01,5.399129104614257812e+01
8.840000033378601074e-01,2.000000000000000000e+00,2.147716331481933594e+01,-3.556362092494964600e-01,5.610136795043945312e+01,-1.641300201416015625e+02,6.606229400634765625e+01,-1.056455459594726562e+02,8.091479492187500000e+01,1.439054965972900391e+01,5.711861801147460938e+01,1.738645324707031250e+02,3.533951187133789062e+01,5.398205184936523438e+01
8.880000114440917969e-01,2.000000000000000000e+00,2.141134262084960938e+01,-3.250972926616668701e-01,5.607463455200195312e+01,-1.641391754150390625e+02,6.606404113769531250e+01,-1.056279525756835938e+02,8.088246917724609375e+01,1.437047576904296875e+01,5.709127807617187500e+01,1.738748931884765625e+02,3.535422515869140625e+01,5.397282028198242188e+01
8.920000195503234863e-01,2.000000000000000000e+00,2.134554100036621094e+01,-2.945678234100341797e-01,5.604790496826171875e+01,-1.641483154296875000e+02,6.606578826904296875e+01,-1.056103591918945312e+02,8.085016632080078125e+01,1.435040664672851562e+01,5.706394577026367188e+01,1.738852539062500000e+02,3.536893463134765625e+01,5.396358871459960938e+01
8.960000276565551758e-01,2.000000000000000000e+00,2.127976226806640625e+01,-2.640477120876312256e-01,5.602118301391601562e+01,-1.641574707031250000e+02,6.606753540039062500e+01,-1.055927734375000000e+02,8.081786346435546875e+01,1.433034515380859375e+01,5.703662109375000000e+01,1.738956146240234375e+02,3.538363647460937500e+01,5.395436096191406250e+01
8.999999761581420898e-01,2.000000000000000000e+00,2.121400260925292969e+01,-2.335370332002639771e-01,5.599447631835937500e+01,-1.641666107177734375e+02,6.606928253173828125e+01,-1.055751876831054688e+02,8.078557586669921875e+01,1.431028938293457031e+01,5.700930786132812500e+01,1.739059600830078125e+02,3.539833831787109375e+01,5.394513702392578125e+01
9.039999842643737793e-01,2.000000000000000000e+00,2.114826393127441406e+01,-2.030357420444488525e-01,5.596777343750000000e+01,-1.641757354736328125e+02,6.607102203369140625e+01,-1.055576171875000000e+02,8.075330352783203125e+01,1.429023933410644531e+01,5.698200225830078125e+01,1.739163208007812500e+02,3.541302871704101562e+01,5.393591690063476562e+01
9.079999923706054688e-01,2.000000000000000000e+00,2.108254623413085938e+01,-1.725438386201858521e-01,5.594107818603515625e+01,-1.641848602294921875e+02,6.607276916503906250e+01,-1.055400466918945312e+02,8.072103118896484375e+01,1.427019596099853516e+01,5.695470428466796875e+01,1.739266510009765625e+02,3.542771911621093750e+01,5.392670059204101562e+01
9.120000004768371582e-01,2.000000000000000000e+00,2.101684570312500000e+01,-1.420613229274749756e-01,5.591438674926757812e+01,-1.641940002441406250e+02,6.607451629638671875e+01,-1.055224838256835938e+02,8.068877410888671875e+01,1.425015830993652344e+01,5.692741394042968750e+01,1.739369964599609375e+02,3.544240570068359375e+01,5.391748428344726562e+01
9.160000085830688477e-01,2.000000000000000000e+00,2.095116615295410156e+01,-1.115881800651550293e-01,5.588771438598632812e+01,-1.642031250000000000e+02,6.607626342773437500e+01,-1.055049285888671875e+02,8.065653228759765625e+01,1.423012733459472656e+01,5.690013122558593750e+01,1.739473419189453125e+02,3.545708847045898438e+01,5.390827178955078125e+01
9.200000166893005371e-01,2.000000000000000000e+00,2.088550758361816406e+01,-8.112439513206481934e-02,5.586104202270507812e+01,-1.642122497558593750e+02,6.607800292968750000e+01,-1.054873733520507812e+02,8.062429046630859375e+01,1.421010303497314453e+01,5.687285995483398438e+01,1.739576873779296875e+02,3.547175979614257812e+01,5.389906311035156250e+01
9.240000247955322266e-01,2.000000000000000000e+00,2.081986999511718750e+01,-5.066996812820434570e-02,5.583438110351562500e+01,-1.642213745117187500e+02,6.607974243164062500e+01,-1.054698257446289062e+02,8.059206390380859375e+01,1.419008350372314453e+01,5.684559631347656250e+01,1.739680023193359375e+02,3.548643112182617188e+01,5.388985443115234375e+01
9.279999732971191406e-01,2.000000000000000000e+00,2.075425148010253906e+01,-2.022489346563816071e-02,5.580772399902343750e+01,-1.642305145263671875e+02,6.608148956298828125e+01,-1.054522857666015625e+02,8.055984497070312500e+01,1.417007160186767578e+01,5.681834030151367188e+01,1.739783477783203125e+02,3.550109863281250000e+01,5.388064956665039062e+01
9.319999814033508301e-01,2.000000000000000000e+00,2.068865585327148438e+01,1.021083537489175797e-02,5.578107833862304688e+01,-1.642396240234375000e+02,6.608322906494140625e+01,-1.054347457885742188e+02,8.052764129638671875e+01,1.415006446838378906e+01,5.679109191894531250e+01,1.739886779785156250e+02,3.551576614379882812e+01,5.387144851684570312e+01
9.359999895095825195e-01,2.000000000000000000e+00,2.062307739257812500e+01,4.063722863793373108e-02,5.575444030761718750e+01,-1.642487335205078125e+02,6.608496856689453125e+01,-1.054172134399414062e+02,8.049543762207031250e+01,1.413006401062011719e+01,5.676385116577148438e+01,1.739990081787109375e+02,3.553042221069335938e+01,5.386225128173828125e+01
9.399999976158142090e-01,2.000000000000000000e+00,2.055751991271972656e+01,7.105429470539093018e-02,5.572780990600585938e+01,-1.642578430175781250e+02,6.608670806884765625e+01,-1.053996887207031250e+02,8.046325683593750000e+01,1.411006927490234375e+01,5.673661804199218750e+01,1.740093231201171875e+02,3.554507827758789062e+01,5.385305404663085938e+01
9.440000057220458984e-01,2.000000000000000000e+00,2.049198150634765625e+01,1.014620438218116760e-01,5.570119094848632812e+01,-1.642669525146484375e+02,6.608845520019531250e+01,-1.053821640014648438e+02,8.043107604980468750e+01,1.409008121490478516e+01,5.670939636230468750e+01,1.740196228027343750e+02,3.555972290039062500e+01,5.384386062622070312e+01
9.480000138282775879e-01,2.000000000000000000e+00,2.042646217346191406e+01,1.318604648113250732e-01,5.567457580566406250e+01,-1.642760620117187500e+02,6.609018707275390625e+01,-1.053646545410156250e+02,8.039891052246093750e+01,1.407009983062744141e+01,5.668218231201171875e+01,1.740299377441406250e+02,3.557437133789062500e+01,5.383467102050781250e+01
9.520000219345092773e-01,2.000000000000000000e+00,2.036096572875976562e+01,1.622495949268341064e-01,5.564797210693359375e+01,-1.642851562500000000e+02,6.609192657470703125e+01,-1.053471374511718750e+02,8.036674499511718750e+01,1.405012321472167969e+01,5.665497970581054688e+01,1.740402526855468750e+02,3.558900833129882812e+01,5.382548522949218750e+01
9.559999704360961914e-01,2.000000000000000000e+00,2.029548835754394531e+01,1.926294267177581787e-01,5.562137603759765625e+01,-1.642942810058593750e+02,6.609367370605468750e+01,-1.053296356201171875e+02,8.033459472656250000e+01,1.403015422821044922e+01,5.662778091430664062e+01,1.740505676269531250e+02,3.560364532470703125e+01,5.381629562377929688e+01
9.599999785423278809e-01,2.000000000000000000e+00,2.023003196716308594e+01,2.229999601840972900e-01,5.559478759765625000e+01,-1.643033752441406250e+02,6.609540557861328125e+01,-1.053121337890625000e+02,8.030245971679687500e+01,1.401019001007080078e+01,5.660058975219726562e+01,1.740608673095703125e+02,3.561827468872070312e+01,5.380711746215820312e+01
9.639999866485595703e-01,2.000000000000000000e+00,2.016459274291992188e+01,2.533611953258514404e-01,5.556820678710937500e+01,-1.643124542236328125e+02,6.609714508056640625e+01,-1.052946395874023438e+02,8.027033233642578125e+01,1.399023246765136719e+01,5.657341003417968750e+01,1.740711822509765625e+02,3.563290405273437500e+01,5.379793930053710938e+01
9.679999947547912598e-01,2.000000000000000000e+00,2.009917640686035156e+01,2.837131619453430176e-01,5.554163360595703125e+01,-1.643215484619140625e+02,6.609888458251953125e+01,-1.052771530151367188e+02,8.023820495605468750e+01,1.397028064727783203e+01,5.654623413085937500e+01,1.740814666748046875e+02,3.564752578735351562e+01,5.378876113891601562e+01
9.720000028610229492e-01,2.000000000000000000e+00,2.003377914428710938e+01,3.140558898448944092e-01,5.551507186889648438e+01,-1.643306427001953125e+02,6.610061645507812500e+01,-1.052596664428710938e+02,8.020610046386718750e+01,1.395033550262451172e+01,5.651906967163085938e+01,1.740917663574218750e+02,3.566214370727539062e+01,5.377958679199218750e+01
9.760000109672546387e-01,2.000000000000000000e+00,1.996840095520019531e+01,3.443893194198608398e-01,5.548851394653320312e+01,-1.643397369384765625e+02,6.610235595703125000e+01,-1.052421875000000000e+02,8.017399597167968750e+01,1.393039512634277344e+01,5.649191284179687500e+01,1.741020660400390625e+02,3.567675781250000000e+01,5.377042007446289062e+01
9.800000190734863281e-01,2.000000000000000000e+00,1.990304374694824219e+01,3.747134804725646973e-01,5.546196746826171875e+01,-1.643488159179687500e+02,6.610408782958984375e+01,-1.052247161865234375e+02,8.014190673828125000e+01,1.391046237945556641e+01,5.646476745605468750e+01,1.741123504638671875e+02,3.569136428833007812e+01,5.376124954223632812e+01
9.840000271797180176e-01,2.000000000000000000e+00,1.983770561218261719e+01,4.050284326076507568e-01,5.543542861938476562e+01,-1.643578948974609375e+02,6.610581970214843750e+01,-1.052072525024414062e+02,8.010982513427734375e+01,1.389053535461425781e+01,5.643762969970703125e+01,1.741226501464843750e+02,3.570597076416015625e+01,5.375208663940429688e+01
9.879999756813049316e-01,2.000000000000000000e+00,1.977238845825195312e+01,4.353341162204742432e-01,5.540889739990234375e+01,-1.643669738769531250e+02,6.610755920410156250e+01,-1.051897811889648438e+02,8.007775878906250000e+01,1.387061405181884766e+01,5.641049575805664062e+01,1.741329345703125000e+02,3.572057342529296875e+01,5.374292373657226562e+01
9.919999837875366211e-01,2.000000000000000000e+00,1.970709037780761719e+01,4.656305909156799316e-01,5.538236999511718750e+01,-1.643760375976562500e+02,6.610929107666015625e+01,-1.051723251342773438e+02,8.004570007324218750e+01,1.385069942474365234e+01,5.638337326049804688e+01,1.741432037353515625e+02,3.573516845703125000e+01,5.373376464843750000e+01
9.959999918937683105e-01,2.000000000000000000e+00,1.964181327819824219e+01,4.959178566932678223e-01,5.535585784912109375e+01,-1.643851318359375000e+02,6.611103057861328125e+01,-1.051548767089843750e+02,8.001364898681640625e+01,1.383078956604003906e+01,5.635625839233398438e+01,1.741534881591796875e+02,3.574975585937500000e+01,5.372460937500000000e+01
1.000000000000000000e+00,2.000000000000000000e+00,1.957655525207519531e+01,5.261958241462707520e-01,5.532934951782226562e+01,-1.643941955566406250e+02,6.611275482177734375e+01,-1.051374282836914062e+02,7.998160552978515625e+01,1.381088733673095703e+01,5.632915115356445312e+01,1.741637573242187500e+02,3.576434707641601562e+01,5.371545410156250000e+01
1.003999948501586914e+00,2.000000000000000000e+00,1.951131629943847656e+01,5.564646720886230469e-01,5.530284881591796875e+01,-1.644032592773437500e+02,6.611448669433593750e+01,-1.051199874877929688e+02,7.994957733154296875e+01,1.379099082946777344e+01,5.630205154418945312e+01,1.741740264892578125e+02,3.577892684936523438e+01,5.370630264282226562e+01
1.008000016212463379e+00,2.000000000000000000e+00,1.944609832763671875e+01,5.867242217063903809e-01,5.527635574340820312e+01,-1.644123229980468750e+02,6.611622619628906250e+01,-1.051025543212890625e+02,7.991754913330078125e+01,1.377110004425048828e+01,5.627496337890625000e+01,1.741842956542968750e+02,3.579350280761718750e+01,5.369715499877929688e+01
1.011999964714050293e+00,2.000000000000000000e+00,1.938089942932128906e+01,6.169746518135070801e-01,5.524987030029296875e+01,-1.644213867187500000e+02,6.611795043945312500e+01,-1.050851287841796875e+02,7.988554382324218750e+01,1.375121498107910156e+01,5.624788284301757812e+01,1.741945648193359375e+02,3.580807876586914062e+01,5.368801116943359375e+01
1.016000032424926758e+00,2.000000000000000000e+00,1.931571960449218750e+01,6.472158432006835938e-01,5.522340011596679688e+01,-1.644304504394531250e+02,6.611968231201171875e+01,-1.050676956176757812e+02,7.985353851318359375e+01,1.373133659362792969e+01,5.622080612182617188e+01,1.742048187255859375e+02,3.582264709472656250e+01,5.367886734008789062e+01
1.019999980926513672e+00,2.000000000000000000e+00,1.925056266784667969e+01,6.774478554725646973e-01,5.519692993164062500e+01,-1.644395141601562500e+02,6.612141418457031250e+01,-1.050502777099609375e+02,7.982154846191406250e+01,1.371146392822265625e+01,5.619374465942382812e+01,1.742150878906250000e+02,3.583721160888671875e+01,5.366972351074218750e+01
1.024000048637390137e+00,2.000000000000000000e+00,1.918542289733886719e+01,7.076706886291503906e-01,5.517047119140625000e+01,-1.644485473632812500e+02,6.612314605712890625e+01,-1.050328598022460938e+02,7.978956604003906250e+01,1.369159698486328125e+01,5.616668319702148438e+01,1.742253417968750000e+02,3.585177230834960938e+01,5.366059112548828125e+01
1.026999950408935547e+00,2.000000000000000000e+00,1.912030410766601562e+01,7.378844022750854492e-01,5.514401626586914062e+01,-1.644576110839843750e+02,6.612487030029296875e+01,-1.050154495239257812e+02,7.975759124755859375e+01,1.367173671722412109e+01,5.613963317871093750e+01,1.742355804443359375e+02,3.586632919311523438e+01,5.365145492553710938e+01
1.031999945640563965e+00,2.000000000000000000e+00,1.905520439147949219e+01,7.680888772010803223e-01,5.511757659912109375e+01,-1.644666595458984375e+02,6.612660217285156250e+01,-1.049980468750000000e+02,7.972563171386718750e+01,1.365188217163085938e+01,5.611259460449218750e+01,1.742458343505859375e+02,3.588087844848632812e+01,5.364232254028320312e+01
1.036000013351440430e+00,2.000000000000000000e+00,1.899012374877929688e+01,7.982842326164245605e-01,5.509114074707031250e+01,-1.644756927490234375e+02,6.612832641601562500e+01,-1.049806518554687500e+02,7.969367218017578125e+01,1.363203334808349609e+01,5.608556365966796875e+01,1.742560729980468750e+02,3.589542770385742188e+01,5.363319396972656250e+01
1.039999961853027344e+00,2.000000000000000000e+00,1.892506408691406250e+01,8.284704685211181641e-01,5.506471252441406250e+01,-1.644847412109375000e+02,6.613005828857421875e+01,-1.049632568359375000e+02,7.966173553466796875e+01,1.361219024658203125e+01,5.605853652954101562e+01,1.742663269042968750e+02,3.590996932983398438e+01,5.362406921386718750e+01
1.044000029563903809e+00,2.000000000000000000e+00,1.886002349853515625e+01,8.586475253105163574e-01,5.503829193115234375e+01,-1.644937896728515625e+02,6.613178253173828125e+01,-1.049458694458007812e+02,7.962979888916015625e+01,1.359235382080078125e+01,5.603152084350585938e+01,1.742765655517578125e+02,3.592450714111328125e+01,5.361494827270507812e+01
1.047999978065490723e+00,2.000000000000000000e+00,1.879500198364257812e+01,8.888154625892639160e-01,5.501188278198242188e+01,-1.645028228759765625e+02,6.613351440429687500e+01,-1.049284896850585938e+02,7.959786987304687500e+01,1.357252311706542969e+01,5.600451278686523438e+01,1.742868041992187500e+02,3.593904113769531250e+01,5.360582351684570312e+01
1.052000045776367188e+00,2.000000000000000000e+00,1.873000144958496094e+01,9.189742207527160645e-01,5.498547744750976562e+01,-1.645118560791015625e+02,6.613523101806640625e+01,-1.049111022949218750e+02,7.956595611572265625e+01,1.355269908905029297e+01,5.597751235961914062e+01,1.742970275878906250e+02,3.595357131958007812e+01,5.359670639038085938e+01
1.054999947547912598e+00,2.000000000000000000e+00,1.866501998901367188e+01,9.491239786148071289e-01,5.495908355712890625e+01,-1.645208892822265625e+02,6.613696289062500000e+01,-1.048937377929687500e+02,7.953404998779296875e+01,1.353287982940673828e+01,5.595051956176757812e+01,1.743072662353515625e+02,3.596809387207031250e+01,5.358759307861328125e+01
1.059999942779541016e+00,2.000000000000000000e+00,1.860005760192871094e+01,9.792644977569580078e-01,5.493269729614257812e+01,-1.645299224853515625e+02,6.613867950439453125e+01,-1.048763656616210938e+02,7.950215148925781250e+01,1.351306724548339844e+01,5.592353820800781250e+01,1.743174896240234375e+02,3.598261642456054688e+01,5.357847976684570312e+01
1.064000010490417480e+00,2.000000000000000000e+00,1.853511619567871094e+01,1.009395956993103027e+00,5.490631866455078125e+01,-1.645389404296875000e+02,6.614041137695312500e+01,-1.048590087890625000e+02,7.947026824951171875e+01,1.349326133728027344e+01,5.589656066894531250e+01,1.743277130126953125e+02,3.599713134765625000e+01,5.356937026977539062e+01
1.067999958992004395e+00,2.000000000000000000e+00,1.847019195556640625e+01,1.039518356323242188e+00,5.487994384765625000e+01,-1.645479736328125000e+02,6.614213562011718750e+01,-1.048416519165039062e+02,7.943839263916015625e+01,1.347346115112304688e+01,5.586959457397460938e+01,1.743379516601562500e+02,3.601164245605468750e+01,5.356026458740234375e+01
1.072000026702880859e+00,2.000000000000000000e+00,1.840529060363769531e+01,1.069631695747375488e+00,5.485358428955078125e+01,-1.645569915771484375e+02,6.614385986328125000e+01,-1.048243026733398438e+02,7.940652465820312500e+01,1.345366668701171875e+01,5.584263610839843750e+01,1.743481597900390625e+02,3.602614974975585938e+01,5.355115890502929688e+01
1.075999975204467773e+00,2.000000000000000000e+00,1.834040641784667969e+01,1.099735856056213379e+00,5.482722854614257812e+01,-1.645660095214843750e+02,6.614558410644531250e+01,-1.048069534301757812e+02,7.937466430664062500e+01,1.343387794494628906e+01,5.581568527221679688e+01,1.743583679199218750e+02,3.604065322875976562e+01,5.354205703735351562e+01
1.080000042915344238e+00,2.000000000000000000e+00,1.827554321289062500e+01,1.129830956459045410e+00,5.480088043212890625e+01,-1.645750274658203125e+02,6.614730072021484375e+01,-1.047896118164062500e+02,7.934281921386718750e+01,1.341409492492675781e+01,5.578874206542968750e+01,1.743685913085937500e+02,3.605515289306640625e+01,5.353295898437500000e+01
1.083999991416931152e+00,2.000000000000000000e+00,1.821069908142089844e+01,1.159916996955871582e+00,5.477453994750976562e+01,-1.645840301513671875e+02,6.614902496337890625e+01,-1.047722778320312500e+02,7.931098175048828125e+01,1.339431762695312500e+01,5.576181030273437500e+01,1.743787841796875000e+02,3.606964492797851562e+01,5.352386093139648438e+01
1.088000059127807617e+00,2.000000000000000000e+00,1.814587211608886719e+01,1.189993977546691895e+00,5.474820709228515625e+01,-1.645930328369140625e+02,6.615074157714843750e+01,-1.047549438476562500e+02,7.927915191650390625e+01,1.337454700469970703e+01,5.573488235473632812e+01,1.743889923095703125e+02,3.608413696289062500e+01,5.351477050781250000e+01
1.090999960899353027e+00,2.000000000000000000e+00,1.808106803894042969e+01,1.220061898231506348e+00,5.472188568115234375e+01,-1.646020507812500000e+02,6.615246582031250000e+01,-1.047376174926757812e+02,7.924732971191406250e+01,1.335478210449218750e+01,5.570796203613281250e+01,1.743992004394531250e+02,3.609862136840820312e+01,5.350568008422851562e+01
1.095999956130981445e+00,2.000000000000000000e+00,1.801628303527832031e+01,1.250120759010314941e+00,5.469556808471679688e+01,-1.646110534667968750e+02,6.615419006347656250e+01,-1.047202987670898438e+02,7.921552276611328125e+01,1.333502292633056641e+01,5.568105316162109375e+01,1.744094085693359375e+02,3.611310195922851562e+01,5.349659347534179688e+01
1.100000023841857910e+00,2.000000000000000000e+00,1.795151710510253906e+01,1.280170679092407227e+00,5.466926193237304688e+01,-1.646200561523437500e+02,6.615590667724609375e+01,-1.047029800415039062e+02,7.918373107910156250e+01,1.331527042388916016e+01,5.565414810180664062e+01,1.744195861816406250e+02,3.612757873535156250e+01,5.348751068115234375e+01
1.103999972343444824e+00,2.000000000000000000e+00,1.788677024841308594e+01,1.310211420059204102e+00,5.464296340942382812e+01,-1.646290588378906250e+02,6.615762329101562500e+01,-1.046856765747070312e+02,7.915193176269531250e+01,1.329552364349365234e+01,5.562725448608398438e+01,1.744297943115234375e+02,3.614205169677734375e+01,5.347842407226562500e+01
1.108000040054321289e+00,2.000000000000000000e+00,1.782204246520996094e+01,1.340243220329284668e+00,5.461666870117187500e+01,-1.646380462646484375e+02,6.615934753417968750e+01,-1.046683654785156250e+02,7.912015533447265625e+01,1.327578258514404297e+01,5.560036849975585938e+01,1.744399871826171875e+02,3.615652084350585938e+01,5.346934890747070312e+01
1.111999988555908203e+00,2.000000000000000000e+00,1.775733375549316406e+01,1.370265960693359375e+00,5.459038543701171875e+01,-1.646470489501953125e+02,6.616105651855468750e+01,-1.046510772705078125e+02,7.908838653564453125e+01,1.325604724884033203e+01,5.557349014282226562e+01,1.744501647949218750e+02,3.617098617553710938e+01,5.346026992797851562e+01
1.116000056266784668e+00,2.000000000000000000e+00,1.769264602661132812e+01,1.400279641151428223e+00,5.456410598754882812e+01,-1.646560363769531250e+02,6.616278076171875000e+01,-1.046337814331054688e+02,7.905661773681640625e+01,1.323631858825683594e+01,5.554661941528320312e+01,1.744603576660156250e+02,3.618544387817382812e+01,5.345119476318359375e+01
1.118999958038330078e+00,2.000000000000000000e+00,1.762797737121582031e+01,1.430284261703491211e+00,5.453784179687500000e+01,-1.646650238037109375e+02,6.616449737548828125e+01,-1.046164855957031250e+02,7.902487182617187500e+01,1.321659564971923828e+01,5.551975631713867188e+01,1.744705352783203125e+02,3.619989776611328125e+01,5.344212722778320312e+01
1.123999953269958496e+00,2.000000000000000000e+00,1.756332778930664062e+01,1.460280060768127441e+00,5.451158142089843750e+01,-1.646740112304687500e+02,6.616621398925781250e+01,-1.045992050170898438e+02,7.899312591552734375e+01,1.319687747955322266e+01,5.549290466308593750e+01,1.744807128906250000e+02,3.621435165405273438e+01,5.343305587768554688e+01
