rpiRobotics/ARM-21-02-F-19-Robot-Motion-Program/data_performance_abb/curve_1/dual_arm/diffevo_pose1/grad_result/sim/dual_iteration_0.csv
timestamp,cmd_num,J1,J2,J3,J4,J5,J6,J1_2,J2_2,J3_2,J4_2,J5_2,J6_2
0.000000000000000000e+00,-1.000000000000000000e+00,3.410474777221679688e+01,-6.213612079620361328e+00,6.123000335693359375e+01,-1.623750305175781250e+02,6.572703552246093750e+01,-1.090212097167968750e+02,8.711444854736328125e+01,1.824158477783203125e+01,6.236338424682617188e+01,1.718766326904296875e+02,3.251713943481445312e+01,5.575320816040039062e+01
2.000000094994902611e-03,-1.000000000000000000e+00,3.410474777221679688e+01,-6.213612079620361328e+00,6.123000335693359375e+01,-1.623750305175781250e+02,6.572703552246093750e+01,-1.090212097167968750e+02,8.711444854736328125e+01,1.824158477783203125e+01,6.236338424682617188e+01,1.718766326904296875e+02,3.251713943481445312e+01,5.575320816040039062e+01
4.000000189989805222e-03,-1.000000000000000000e+00,3.410474777221679688e+01,-6.213612079620361328e+00,6.123000335693359375e+01,-1.623750305175781250e+02,6.572703552246093750e+01,-1.090212097167968750e+02,8.711444854736328125e+01,1.824158477783203125e+01,6.236338424682617188e+01,1.718766326904296875e+02,3.251713943481445312e+01,5.575320816040039062e+01
9.999999776482582092e-03,-1.000000000000000000e+00,3.410474777221679688e+01,-6.213612079620361328e+00,6.123000335693359375e+01,-1.623750305175781250e+02,6.572703552246093750e+01,-1.090212097167968750e+02,8.711444854736328125e+01,1.824158477783203125e+01,6.236338424682617188e+01,1.718766326904296875e+02,3.251713943481445312e+01,5.575320816040039062e+01
1.200000010430812836e-02,-1.000000000000000000e+00,3.410474777221679688e+01,-6.213612079620361328e+00,6.123000335693359375e+01,-1.623750305175781250e+02,6.572703552246093750e+01,-1.090212097167968750e+02,8.711444854736328125e+01,1.824158477783203125e+01,6.236338424682617188e+01,1.718766326904296875e+02,3.251713943481445312e+01,5.575320816040039062e+01
1.600000075995922089e-02,-1.000000000000000000e+00,3.410474777221679688e+01,-6.213612079620361328e+00,6.123000335693359375e+01,-1.623750305175781250e+02,6.572703552246093750e+01,-1.090212097167968750e+02,8.711444854736328125e+01,1.824158477783203125e+01,6.236338424682617188e+01,1.718766326904296875e+02,3.251713943481445312e+01,5.575320816040039062e+01
1.999999955296516418e-02,-1.000000000000000000e+00,3.410474777221679688e+01,-6.213612079620361328e+00,6.123000335693359375e+01,-1.623750305175781250e+02,6.572703552246093750e+01,-1.090212097167968750e+02,8.711444854736328125e+01,1.824158477783203125e+01,6.236338424682617188e+01,1.718766326904296875e+02,3.251713943481445312e+01,5.575320816040039062e+01
2.400000020861625671e-02,-1.000000000000000000e+00,3.410474777221679688e+01,-6.213612079620361328e+00,6.123000335693359375e+01,-1.623750305175781250e+02,6.572703552246093750e+01,-1.090212097167968750e+02,8.711444854736328125e+01,1.824158477783203125e+01,6.236338424682617188e+01,1.718766326904296875e+02,3.251713943481445312e+01,5.575320816040039062e+01
2.899999916553497314e-02,2.000000000000000000e+00,3.410474777221679688e+01,-6.213612079620361328e+00,6.123000335693359375e+01,-1.623750305175781250e+02,6.572703552246093750e+01,-1.090212097167968750e+02,8.711444854736328125e+01,1.824158477783203125e+01,6.236338424682617188e+01,1.718766326904296875e+02,3.251713943481445312e+01,5.575320816040039062e+01
3.500000014901161194e-02,2.000000000000000000e+00,3.410474777221679688e+01,-6.213612079620361328e+00,6.123000335693359375e+01,-1.623750305175781250e+02,6.572703552246093750e+01,-1.090212097167968750e+02,8.711444854736328125e+01,1.824158477783203125e+01,6.236338424682617188e+01,1.718766326904296875e+02,3.251713943481445312e+01,5.575320816040039062e+01
3.900000080466270447e-02,2.000000000000000000e+00,3.410474777221679688e+01,-6.213612079620361328e+00,6.123000335693359375e+01,-1.623750305175781250e+02,6.572703552246093750e+01,-1.090212097167968750e+02,8.711444854736328125e+01,1.824158477783203125e+01,6.236338424682617188e+01,1.718766326904296875e+02,3.251713943481445312e+01,5.575320816040039062e+01
4.100000113248825073e-02,2.000000000000000000e+00,3.410474777221679688e+01,-6.213612079620361328e+00,6.123000335693359375e+01,-1.623750305175781250e+02,6.572703552246093750e+01,-1.090212097167968750e+02,8.711444854736328125e+01,1.824158477783203125e+01,6.236338424682617188e+01,1.718766326904296875e+02,3.251713943481445312e+01,5.575320816040039062e+01
4.600000008940696716e-02,2.000000000000000000e+00,3.410474777221679688e+01,-6.213612079620361328e+00,6.123000335693359375e+01,-1.623750305175781250e+02,6.572703552246093750e+01,-1.090212097167968750e+02,8.711444854736328125e+01,1.824158477783203125e+01,6.236338424682617188e+01,1.718766326904296875e+02,3.251713943481445312e+01,5.575320816040039062e+01
4.800000041723251343e-02,2.000000000000000000e+00,3.410474777221679688e+01,-6.213612079620361328e+00,6.123000335693359375e+01,-1.623750305175781250e+02,6.572703552246093750e+01,-1.090212097167968750e+02,8.711444854736328125e+01,1.824158477783203125e+01,6.236338424682617188e+01,1.718766326904296875e+02,3.251713943481445312e+01,5.575320816040039062e+01
5.200000107288360596e-02,2.000000000000000000e+00,3.410474777221679688e+01,-6.213612079620361328e+00,6.123000335693359375e+01,-1.623750305175781250e+02,6.572703552246093750e+01,-1.090212097167968750e+02,8.711444854736328125e+01,1.824158477783203125e+01,6.236338424682617188e+01,1.718766326904296875e+02,3.251713943481445312e+01,5.575320816040039062e+01
5.600000172853469849e-02,2.000000000000000000e+00,3.410474777221679688e+01,-6.213612079620361328e+00,6.123000335693359375e+01,-1.623750305175781250e+02,6.572703552246093750e+01,-1.090212097167968750e+02,8.711444854736328125e+01,1.824158477783203125e+01,6.236338424682617188e+01,1.718766326904296875e+02,3.251713943481445312e+01,5.575320816040039062e+01
5.999999865889549255e-02,2.000000000000000000e+00,3.410474777221679688e+01,-6.213612079620361328e+00,6.123000335693359375e+01,-1.623750305175781250e+02,6.572703552246093750e+01,-1.090212097167968750e+02,8.711444854736328125e+01,1.824158477783203125e+01,6.236338424682617188e+01,1.718766326904296875e+02,3.251713943481445312e+01,5.575320816040039062e+01
6.400000303983688354e-02,2.000000000000000000e+00,3.410474777221679688e+01,-6.213612079620361328e+00,6.123000335693359375e+01,-1.623750305175781250e+02,6.572703552246093750e+01,-1.090212097167968750e+02,8.711444854736328125e+01,1.824158477783203125e+01,6.236338424682617188e+01,1.718766326904296875e+02,3.251713943481445312e+01,5.575320816040039062e+01
6.800000369548797607e-02,2.000000000000000000e+00,3.410474777221679688e+01,-6.213612079620361328e+00,6.123000335693359375e+01,-1.623750305175781250e+02,6.572703552246093750e+01,-1.090212097167968750e+02,8.711444854736328125e+01,1.824158477783203125e+01,6.236338424682617188e+01,1.718766326904296875e+02,3.251713943481445312e+01,5.575320816040039062e+01
7.199999690055847168e-02,2.000000000000000000e+00,3.410467910766601562e+01,-6.213593959808349609e+00,6.122998809814453125e+01,-1.623750305175781250e+02,6.572703552246093750e+01,-1.090212097167968750e+02,8.711444854736328125e+01,1.824158477783203125e+01,6.236338424682617188e+01,1.718766326904296875e+02,3.251713943481445312e+01,5.575320816040039062e+01
7.599999755620956421e-02,2.000000000000000000e+00,3.410430526733398438e+01,-6.213481426239013672e+00,6.122993469238281250e+01,-1.623750305175781250e+02,6.572703552246093750e+01,-1.090212097167968750e+02,8.711444854736328125e+01,1.824158477783203125e+01,6.236338424682617188e+01,1.718766326904296875e+02,3.251713943481445312e+01,5.575320816040039062e+01
7.999999821186065674e-02,2.000000000000000000e+00,3.410324096679687500e+01,-6.213131904602050781e+00,6.122975921630859375e+01,-1.623750152587890625e+02,6.572704315185546875e+01,-1.090212020874023438e+02,8.711444854736328125e+01,1.824158477783203125e+01,6.236338424682617188e+01,1.718766326904296875e+02,3.251713943481445312e+01,5.575320816040039062e+01
8.399999886751174927e-02,2.000000000000000000e+00,3.410113525390625000e+01,-6.212379455566406250e+00,6.122937393188476562e+01,-1.623749847412109375e+02,6.572705078125000000e+01,-1.090211639404296875e+02,8.711444091796875000e+01,1.824158096313476562e+01,6.236337661743164062e+01,1.718766326904296875e+02,3.251713943481445312e+01,5.575320816040039062e+01
8.799999952316284180e-02,2.000000000000000000e+00,3.409775924682617188e+01,-6.211082935333251953e+00,6.122867965698242188e+01,-1.623749694824218750e+02,6.572705841064453125e+01,-1.090210647583007812e+02,8.711436462402343750e+01,1.824155044555664062e+01,6.236334991455078125e+01,1.718766479492187500e+02,3.251715469360351562e+01,5.575320816040039062e+01
9.200000017881393433e-02,2.000000000000000000e+00,3.409296417236328125e+01,-6.209125041961669922e+00,6.122759246826171875e+01,-1.623749847412109375e+02,6.572709655761718750e+01,-1.090208511352539062e+02,8.711412811279296875e+01,1.824144744873046875e+01,6.236325454711914062e+01,1.718766632080078125e+02,3.251719284057617188e+01,5.575320053100585938e+01
9.600000083446502686e-02,2.000000000000000000e+00,3.408658218383789062e+01,-6.206389427185058594e+00,6.122599411010742188e+01,-1.623750762939453125e+02,6.572714996337890625e+01,-1.090204467773437500e+02,8.711357116699218750e+01,1.824119758605957031e+01,6.236300277709960938e+01,1.718767089843750000e+02,3.251730346679687500e+01,5.575315856933593750e+01
1.000000014901161194e-01,2.000000000000000000e+00,3.407851028442382812e+01,-6.202778339385986328e+00,6.122378158569335938e+01,-1.623752899169921875e+02,6.572724151611328125e+01,-1.090197601318359375e+02,8.711251068115234375e+01,1.824069976806640625e+01,6.236246871948242188e+01,1.718768615722656250e+02,3.251754379272460938e+01,5.575305938720703125e+01
1.040000021457672119e-01,2.000000000000000000e+00,3.406869888305664062e+01,-6.198222160339355469e+00,6.122083663940429688e+01,-1.623756866455078125e+02,6.572737121582031250e+01,-1.090186691284179688e+02,8.711074829101562500e+01,1.823982429504394531e+01,6.236148071289062500e+01,1.718771514892578125e+02,3.251801300048828125e+01,5.575284194946289062e+01
1.080000028014183044e-01,2.000000000000000000e+00,3.405696105957031250e+01,-6.192632675170898438e+00,6.121703338623046875e+01,-1.623763732910156250e+02,6.572754669189453125e+01,-1.090170364379882812e+02,8.710800170898437500e+01,1.823840522766113281e+01,6.235981369018554688e+01,1.718776702880859375e+02,3.251882934570312500e+01,5.575242233276367188e+01
1.120000034570693970e-01,2.000000000000000000e+00,3.404291915893554688e+01,-6.185860157012939453e+00,6.121221160888671875e+01,-1.623773803710937500e+02,6.572779083251953125e+01,-1.090147552490234375e+02,8.710401916503906250e+01,1.823625755310058594e+01,6.235718917846679688e+01,1.718785400390625000e+02,3.252014160156250000e+01,5.575170516967773438e+01
1.159999966621398926e-01,2.000000000000000000e+00,3.402602386474609375e+01,-6.177701473236083984e+00,6.120617294311523438e+01,-1.623788146972656250e+02,6.572811889648437500e+01,-1.090116806030273438e+02,8.709855651855468750e+01,1.823319816589355469e+01,6.235332870483398438e+01,1.718798675537109375e+02,3.252211761474609375e+01,5.575057601928710938e+01
1.199999973177909851e-01,2.000000000000000000e+00,3.400583267211914062e+01,-6.167985439300537109e+00,6.119874954223632812e+01,-1.623807220458984375e+02,6.572853851318359375e+01,-1.090076675415039062e+02,8.709138488769531250e+01,1.822905158996582031e+01,6.234796142578125000e+01,1.718817749023437500e+02,3.252491760253906250e+01,5.574892425537109375e+01
1.239999979734420776e-01,2.000000000000000000e+00,3.398215866088867188e+01,-6.156671524047851562e+00,6.118982696533203125e+01,-1.623832092285156250e+02,6.572906494140625000e+01,-1.090026016235351562e+02,8.708226013183593750e+01,1.822362899780273438e+01,6.234080886840820312e+01,1.718843841552734375e+02,3.252869033813476562e+01,5.574663925170898438e+01
1.280000060796737671e-01,2.000000000000000000e+00,3.395504760742187500e+01,-6.143834590911865234e+00,6.117936325073242188e+01,-1.623863372802734375e+02,6.572969818115234375e+01,-1.089963455200195312e+02,8.707092285156250000e+01,1.821676445007324219e+01,6.233163833618164062e+01,1.718877868652343750e+02,3.253356933593750000e+01,5.574364089965820312e+01
1.309999972581863403e-01,2.000000000000000000e+00,3.392459869384765625e+01,-6.129565715789794922e+00,6.116735076904296875e+01,-1.623901824951171875e+02,6.573044586181640625e+01,-1.089888153076171875e+02,8.705715942382812500e+01,1.820833396911621094e+01,6.232026672363281250e+01,1.718920440673828125e+02,3.253965759277343750e+01,5.573986816406250000e+01
1.360000073909759521e-01,2.000000000000000000e+00,3.389082336425781250e+01,-6.113896846771240234e+00,6.115375137329101562e+01,-1.623947601318359375e+02,6.573133850097656250e+01,-1.089799652099609375e+02,8.704088592529296875e+01,1.819826316833496094e+01,6.230659103393554688e+01,1.718971862792968750e+02,3.254700088500976562e+01,5.573527908325195312e+01
1.389999985694885254e-01,2.000000000000000000e+00,3.385371780395507812e+01,-6.096828937530517578e+00,6.113856887817382812e+01,-1.624001007080078125e+02,6.573233795166015625e+01,-1.089697647094726562e+02,8.702206420898437500e+01,1.818653678894042969e+01,6.229059600830078125e+01,1.719032592773437500e+02,3.255561828613281250e+01,5.572986602783203125e+01
1.439999938011169434e-01,2.000000000000000000e+00,3.381328964233398438e+01,-6.078352451324462891e+00,6.112179946899414062e+01,-1.624061737060546875e+02,6.573347473144531250e+01,-1.089582443237304688e+02,8.700074768066406250e+01,1.817318534851074219e+01,6.227231597900390625e+01,1.719102020263671875e+02,3.256548690795898438e+01,5.572364807128906250e+01
1.480000019073486328e-01,2.000000000000000000e+00,3.376948165893554688e+01,-6.058404445648193359e+00,6.110347366333007812e+01,-1.624129486083984375e+02,6.573473358154296875e+01,-1.089454803466796875e+02,8.697708129882812500e+01,1.815829658508300781e+01,6.225187301635742188e+01,1.719179992675781250e+02,3.257653808593750000e+01,5.571666336059570312e+01
1.519999951124191284e-01,2.000000000000000000e+00,3.372219848632812500e+01,-6.036887645721435547e+00,6.108361053466796875e+01,-1.624203491210937500e+02,6.573609161376953125e+01,-1.089315643310546875e+02,8.695126342773437500e+01,1.814201736450195312e+01,6.222947311401367188e+01,1.719265594482421875e+02,3.258866882324218750e+01,5.570898818969726562e+01
1.560000032186508179e-01,2.000000000000000000e+00,3.367148208618164062e+01,-6.013767719268798828e+00,6.106227493286132812e+01,-1.624282989501953125e+02,6.573755645751953125e+01,-1.089166259765625000e+02,8.692359161376953125e+01,1.812452125549316406e+01,6.220535278320312500e+01,1.719357910156250000e+02,3.260173797607421875e+01,5.570069885253906250e+01
1.599999964237213135e-01,2.000000000000000000e+00,3.361762237548828125e+01,-5.989144802093505859e+00,6.103960418701171875e+01,-1.624366912841796875e+02,6.573911285400390625e+01,-1.089008026123046875e+02,8.689430236816406250e+01,1.810600090026855469e+01,6.217981719970703125e+01,1.719455718994140625e+02,3.261557769775390625e+01,5.569192123413085938e+01
1.640000045299530029e-01,2.000000000000000000e+00,3.356113433837890625e+01,-5.963216304779052734e+00,6.101578903198242188e+01,-1.624454956054687500e+02,6.574073791503906250e+01,-1.088842163085937500e+02,8.686362457275390625e+01,1.808663368225097656e+01,6.215313720703125000e+01,1.719557800292968750e+02,3.263003158569335938e+01,5.568276596069335938e+01
1.679999977350234985e-01,2.000000000000000000e+00,3.350252914428710938e+01,-5.936171054840087891e+00,6.099101638793945312e+01,-1.624546203613281250e+02,6.574242401123046875e+01,-1.088670043945312500e+02,8.683179473876953125e+01,1.806660270690917969e+01,6.212559890747070312e+01,1.719662780761718750e+02,3.264493179321289062e+01,5.567334365844726562e+01
1.720000058412551880e-01,2.000000000000000000e+00,3.344209289550781250e+01,-5.908127307891845703e+00,6.096542358398437500e+01,-1.624639739990234375e+02,6.574416351318359375e+01,-1.088493194580078125e+02,8.679907989501953125e+01,1.804608726501464844e+01,6.209745788574218750e+01,1.719769897460937500e+02,3.266012954711914062e+01,5.566375732421875000e+01
1.759999990463256836e-01,2.000000000000000000e+00,3.337991714477539062e+01,-5.879152774810791016e+00,6.093913269042968750e+01,-1.624735107421875000e+02,6.574594116210937500e+01,-1.088312683105468750e+02,8.676573181152343750e+01,1.802524757385253906e+01,6.206893539428710938e+01,1.719878234863281250e+02,3.267551803588867188e+01,5.565407180786132812e+01
1.800000071525573730e-01,2.000000000000000000e+00,3.331606292724609375e+01,-5.849321842193603516e+00,6.091226196289062500e+01,-1.624831542968750000e+02,6.574774169921875000e+01,-1.088129577636718750e+02,8.673194122314453125e+01,1.800419425964355469e+01,6.204018783569335938e+01,1.719987182617187500e+02,3.269101333618164062e+01,5.564434814453125000e+01
1.840000003576278687e-01,2.000000000000000000e+00,3.325066757202148438e+01,-5.818744659423828125e+00,6.088491439819335938e+01,-1.624928436279296875e+02,6.574956512451171875e+01,-1.087944946289062500e+02,8.669789123535156250e+01,1.798302459716796875e+01,6.201131439208984375e+01,1.720096282958984375e+02,3.270655441284179688e+01,5.563460159301757812e+01
1.879999935626983643e-01,2.000000000000000000e+00,3.318391036987304688e+01,-5.787538051605224609e+00,6.085721206665039062e+01,-1.625025482177734375e+02,6.575140380859375000e+01,-1.087759399414062500e+02,8.666371917724609375e+01,1.796180343627929688e+01,6.198239517211914062e+01,1.720205535888671875e+02,3.272211456298828125e+01,5.562485504150390625e+01
1.920000016689300537e-01,2.000000000000000000e+00,3.311595535278320312e+01,-5.755829811096191406e+00,6.082922744750976562e+01,-1.625122680664062500e+02,6.575325012207031250e+01,-1.087573471069335938e+02,8.662951660156250000e+01,1.794057083129882812e+01,6.195347213745117188e+01,1.720314788818359375e+02,3.273767471313476562e+01,5.561511230468750000e+01
1.959999948740005493e-01,2.000000000000000000e+00,3.304709243774414062e+01,-5.723780155181884766e+00,6.080108261108398438e+01,-1.625219421386718750e+02,6.575508880615234375e+01,-1.087387466430664062e+02,8.659532165527343750e+01,1.791934394836425781e+01,6.192455673217773438e+01,1.720424194335937500e+02,3.275322723388671875e+01,5.560537338256835938e+01
2.000000029802322388e-01,2.000000000000000000e+00,3.297772598266601562e+01,-5.691558361053466797e+00,6.077284622192382812e+01,-1.625316314697265625e+02,6.575693511962890625e+01,-1.087201385498046875e+02,8.656112670898437500e+01,1.789812088012695312e+01,6.189564514160156250e+01,1.720533294677734375e+02,3.276877593994140625e+01,5.559563827514648438e+01
2.039999961853027344e-01,2.000000000000000000e+00,3.290819168090820312e+01,-5.659288883209228516e+00,6.074458694458007812e+01,-1.625413055419921875e+02,6.575878906250000000e+01,-1.087015304565429688e+02,8.652694702148437500e+01,1.787690734863281250e+01,6.186675643920898438e+01,1.720642395019531250e+02,3.278432083129882812e+01,5.558590316772460938e+01
2.080000042915344238e-01,2.000000000000000000e+00,3.283865356445312500e+01,-5.627022743225097656e+00,6.071634674072265625e+01,-1.625509796142578125e+02,6.576063537597656250e+01,-1.086829376220703125e+02,8.649278259277343750e+01,1.785570144653320312e+01,6.183786392211914062e+01,1.720751495361328125e+02,3.279985809326171875e+01,5.557617568969726562e+01
2.119999974966049194e-01,2.000000000000000000e+00,3.276913833618164062e+01,-5.594766616821289062e+00,6.068810272216796875e+01,-1.625606536865234375e+02,6.576248168945312500e+01,-1.086643600463867188e+02,8.645863342285156250e+01,1.783450126647949219e+01,6.180898666381835938e+01,1.720860595703125000e+02,3.281539535522460938e+01,5.556644821166992188e+01
2.160000056028366089e-01,2.000000000000000000e+00,3.269964599609375000e+01,-5.562522411346435547e+00,6.065987396240234375e+01,-1.625703125000000000e+02,6.576432800292968750e+01,-1.086457748413085938e+02,8.642449188232421875e+01,1.781331062316894531e+01,6.178012084960937500e+01,1.720969543457031250e+02,3.283092117309570312e+01,5.555672073364257812e+01
2.199999988079071045e-01,2.000000000000000000e+00,3.263017654418945312e+01,-5.530288696289062500e+00,6.063165664672851562e+01,-1.625799713134765625e+02,6.576617431640625000e+01,-1.086271972656250000e+02,8.639035797119140625e+01,1.779212570190429688e+01,6.175126266479492188e+01,1.721078643798828125e+02,3.284644317626953125e+01,5.554700088500976562e+01
2.240000069141387939e-01,2.000000000000000000e+00,3.256073379516601562e+01,-5.498065948486328125e+00,6.060345077514648438e+01,-1.625896148681640625e+02,6.576801300048828125e+01,-1.086086349487304688e+02,8.635623931884765625e+01,1.777094841003417969e+01,6.172241210937500000e+01,1.721187438964843750e+02,3.286196136474609375e+01,5.553728485107421875e+01
2.280000001192092896e-01,2.000000000000000000e+00,3.249131393432617188e+01,-5.465854644775390625e+00,6.057524871826171875e+01,-1.625992736816406250e+02,6.576985931396484375e+01,-1.085900726318359375e+02,8.632213592529296875e+01,1.774977874755859375e+01,6.169357681274414062e+01,1.721296539306640625e+02,3.287747573852539062e+01,5.552757263183593750e+01
2.319999933242797852e-01,2.000000000000000000e+00,3.242191696166992188e+01,-5.433654308319091797e+00,6.054705810546875000e+01,-1.626089324951171875e+02,6.577170562744140625e+01,-1.085715103149414062e+02,8.628804016113281250e+01,1.772861480712890625e+01,6.166474533081054688e+01,1.721405334472656250e+02,3.289297866821289062e+01,5.551786041259765625e+01
2.360000014305114746e-01,2.000000000000000000e+00,3.235254287719726562e+01,-5.401464939117431641e+00,6.051887893676757812e+01,-1.626185760498046875e+02,6.577354431152343750e+01,-1.085529708862304688e+02,8.625395965576171875e+01,1.770746040344238281e+01,6.163592910766601562e+01,1.721514282226562500e+02,3.290848159790039062e+01,5.550815582275390625e+01
2.399999946355819702e-01,2.000000000000000000e+00,3.228319549560546875e+01,-5.369286537170410156e+00,6.049070358276367188e+01,-1.626282196044921875e+02,6.577538299560546875e+01,-1.085344238281250000e+02,8.621988677978515625e+01,1.768631172180175781e+01,6.160711669921875000e+01,1.721622924804687500e+02,3.292397689819335938e+01,5.549845504760742188e+01
2.440000027418136597e-01,2.000000000000000000e+00,3.221387100219726562e+01,-5.337119102478027344e+00,6.046254348754882812e+01,-1.626378784179687500e+02,6.577722930908203125e+01,-1.085158920288085938e+02,8.618582916259765625e+01,1.766517066955566406e+01,6.157832336425781250e+01,1.721731719970703125e+02,3.293946838378906250e+01,5.548875045776367188e+01
2.479999959468841553e-01,2.000000000000000000e+00,3.214456939697265625e+01,-5.304963111877441406e+00,6.043438720703125000e+01,-1.626475067138671875e+02,6.577906799316406250e+01,-1.084973602294921875e+02,8.615177917480468750e+01,1.764403724670410156e+01,6.154953384399414062e+01,1.721840515136718750e+02,3.295495223999023438e+01,5.547905731201171875e+01
2.520000040531158447e-01,2.000000000000000000e+00,3.207529067993164062e+01,-5.272817611694335938e+00,6.040625000000000000e+01,-1.626571350097656250e+02,6.578091430664062500e+01,-1.084788360595703125e+02,8.611774444580078125e+01,1.762291145324707031e+01,6.152075576782226562e+01,1.721949157714843750e+02,3.297043228149414062e+01,5.546936035156250000e+01
2.560000121593475342e-01,2.000000000000000000e+00,3.200603485107421875e+01,-5.240683555603027344e+00,6.037811660766601562e+01,-1.626667633056640625e+02,6.578274536132812500e+01,-1.084603195190429688e+02,8.608371734619140625e+01,1.760179138183593750e+01,6.149198913574218750e+01,1.722057800292968750e+02,3.298590850830078125e+01,5.545967102050781250e+01
2.599999904632568359e-01,2.000000000000000000e+00,3.193680381774902344e+01,-5.208559989929199219e+00,6.034999465942382812e+01,-1.626763916015625000e+02,6.578458404541015625e+01,-1.084418106079101562e+02,8.604970550537109375e+01,1.758068084716796875e+01,6.146322631835937500e+01,1.722166442871093750e+02,3.300137710571289062e+01,5.544998168945312500e+01
2.639999985694885254e-01,2.000000000000000000e+00,3.186759757995605469e+01,-5.176447391510009766e+00,6.032188034057617188e+01,-1.626860198974609375e+02,6.578642272949218750e+01,-1.084233016967773438e+02,8.601570892333984375e+01,1.755957412719726562e+01,6.143447875976562500e+01,1.722274932861328125e+02,3.301684188842773438e+01,5.544029998779296875e+01
2.680000066757202148e-01,2.000000000000000000e+00,3.179841423034667969e+01,-5.144346237182617188e+00,6.029377746582031250e+01,-1.626956481933593750e+02,6.578826141357421875e+01,-1.084048004150390625e+02,8.598171234130859375e+01,1.753847885131835938e+01,6.140574264526367188e+01,1.722383575439453125e+02,3.303230285644531250e+01,5.543061828613281250e+01
2.720000147819519043e-01,2.000000000000000000e+00,3.172925186157226562e+01,-5.112255573272705078e+00,6.026568222045898438e+01,-1.627052612304687500e+02,6.579010009765625000e+01,-1.083863143920898438e+02,8.594773101806640625e+01,1.751738548278808594e+01,6.137701034545898438e+01,1.722492065429687500e+02,3.304775619506835938e+01,5.542094421386718750e+01
2.759999930858612061e-01,2.000000000000000000e+00,3.166011619567871094e+01,-5.080175876617431641e+00,6.023759841918945312e+01,-1.627148742675781250e+02,6.579193115234375000e+01,-1.083678283691406250e+02,8.591376495361328125e+01,1.749630355834960938e+01,6.134829711914062500e+01,1.722600555419921875e+02,3.306320571899414062e+01,5.541127014160156250e+01
2.800000011920928955e-01,2.000000000000000000e+00,3.159100151062011719e+01,-5.048107147216796875e+00,6.020952606201171875e+01,-1.627244873046875000e+02,6.579376983642578125e+01,-1.083493499755859375e+02,8.587981414794921875e+01,1.747522735595703125e+01,6.131958007812500000e+01,1.722708892822265625e+02,3.307864761352539062e+01,5.540159606933593750e+01
2.840000092983245850e-01,2.000000000000000000e+00,3.152191352844238281e+01,-5.016048908233642578e+00,6.018146133422851562e+01,-1.627341003417968750e+02,6.579560089111328125e+01,-1.083308715820312500e+02,8.584587097167968750e+01,1.745415687561035156e+01,6.129088211059570312e+01,1.722817382812500000e+02,3.309408187866210938e+01,5.539193344116210938e+01
2.879999876022338867e-01,2.000000000000000000e+00,3.145284652709960938e+01,-4.984002113342285156e+00,6.015340042114257812e+01,-1.627436981201171875e+02,6.579743957519531250e+01,-1.083124084472656250e+02,8.581193542480468750e+01,1.743309593200683594e+01,6.126219558715820312e+01,1.722925720214843750e+02,3.310951614379882812e+01,5.538226699829101562e+01
2.919999957084655762e-01,2.000000000000000000e+00,3.138380432128906250e+01,-4.951966285705566406e+00,6.012535858154296875e+01,-1.627532958984375000e+02,6.579927062988281250e+01,-1.082939453125000000e+02,8.577801513671875000e+01,1.741204071044921875e+01,6.123350906372070312e+01,1.723034057617187500e+02,3.312494659423828125e+01,5.537260818481445312e+01
2.960000038146972656e-01,2.000000000000000000e+00,3.131478500366210938e+01,-4.919941902160644531e+00,6.009732055664062500e+01,-1.627629089355468750e+02,6.580110931396484375e+01,-1.082754898071289062e+02,8.574410247802734375e+01,1.739099311828613281e+01,6.120484161376953125e+01,1.723142395019531250e+02,3.314036941528320312e+01,5.536294937133789062e+01
3.000000119209289551e-01,2.000000000000000000e+00,3.124578666687011719e+01,-4.887929439544677734e+00,6.006929397583007812e+01,-1.627724914550781250e+02,6.580294036865234375e+01,-1.082570419311523438e+02,8.571021270751953125e+01,1.736995315551757812e+01,6.117617416381835938e+01,1.723250579833984375e+02,3.315578460693359375e+01,5.535329437255859375e+01
3.039999902248382568e-01,2.000000000000000000e+00,3.117681503295898438e+01,-4.855927467346191406e+00,6.004127883911132812e+01,-1.627820892333984375e+02,6.580477142333984375e+01,-1.082386016845703125e+02,8.567632293701171875e+01,1.734891891479492188e+01,6.114752960205078125e+01,1.723358764648437500e+02,3.317119598388671875e+01,5.534364318847656250e+01
3.079999983310699463e-01,2.000000000000000000e+00,3.110786819458007812e+01,-4.823936462402343750e+00,6.001326751708984375e+01,-1.627916717529296875e+02,6.580660247802734375e+01,-1.082201690673828125e+02,8.564244842529296875e+01,1.732789230346679688e+01,6.111888122558593750e+01,1.723466949462890625e+02,3.318660736083984375e+01,5.533399581909179688e+01
3.120000064373016357e-01,2.000000000000000000e+00,3.103894042968750000e+01,-4.791955947875976562e+00,5.998527145385742188e+01,-1.628012695312500000e+02,6.580842590332031250e+01,-1.082017440795898438e+02,8.560858917236328125e+01,1.730687332153320312e+01,6.109025192260742188e+01,1.723575134277343750e+02,3.320200729370117188e+01,5.532435226440429688e+01
3.160000145435333252e-01,2.000000000000000000e+00,3.097003746032714844e+01,-4.759985446929931641e+00,5.995727920532226562e+01,-1.628108520507812500e+02,6.581025695800781250e+01,-1.081833114624023438e+02,8.557472991943359375e+01,1.728586196899414062e+01,6.106162643432617188e+01,1.723683166503906250e+02,3.321740341186523438e+01,5.531471252441406250e+01
3.199999928474426270e-01,2.000000000000000000e+00,3.090115547180175781e+01,-4.728025436401367188e+00,5.992929458618164062e+01,-1.628204345703125000e+02,6.581208801269531250e+01,-1.081649017333984375e+02,8.554089355468750000e+01,1.726485633850097656e+01,6.103301239013671875e+01,1.723791351318359375e+02,3.323279571533203125e+01,5.530507278442382812e+01
3.240000009536743164e-01,2.000000000000000000e+00,3.083230018615722656e+01,-4.696075916290283203e+00,5.990132522583007812e+01,-1.628300018310546875e+02,6.581391906738281250e+01,-1.081464843750000000e+02,8.550706481933593750e+01,1.724385833740234375e+01,6.100440979003906250e+01,1.723899383544921875e+02,3.324818038940429688e+01,5.529544067382812500e+01
3.280000090599060059e-01,2.000000000000000000e+00,3.076346588134765625e+01,-4.664136886596679688e+00,5.987336349487304688e+01,-1.628395843505859375e+02,6.581574249267578125e+01,-1.081280822753906250e+02,8.547324371337890625e+01,1.722286605834960938e+01,6.097581863403320312e+01,1.724007415771484375e+02,3.326356124877929688e+01,5.528580856323242188e+01
3.319999873638153076e-01,2.000000000000000000e+00,3.069465446472167969e+01,-4.632208347320556641e+00,5.984541320800781250e+01,-1.628491363525390625e+02,6.581757354736328125e+01,-1.081096801757812500e+02,8.543943786621093750e+01,1.720188140869140625e+01,6.094723510742187500e+01,1.724115295410156250e+02,3.327893447875976562e+01,5.527618026733398438e+01
3.359999954700469971e-01,2.000000000000000000e+00,3.062586593627929688e+01,-4.600290775299072266e+00,5.981747055053710938e+01,-1.628587036132812500e+02,6.581939697265625000e+01,-1.080912933349609375e+02,8.540563964843750000e+01,1.718090438842773438e+01,6.091865539550781250e+01,1.724223175048828125e+02,3.329430770874023438e+01,5.526655578613281250e+01
3.400000035762786865e-01,2.000000000000000000e+00,3.055709838867187500e+01,-4.568383693695068359e+00,5.978953552246093750e+01,-1.628682861328125000e+02,6.582122802734375000e+01,-1.080729064941406250e+02,8.537185668945312500e+01,1.715993309020996094e+01,6.089009094238281250e+01,1.724331207275390625e+02,3.330967712402343750e+01,5.525693130493164062e+01
3.440000116825103760e-01,2.000000000000000000e+00,3.048835945129394531e+01,-4.536487579345703125e+00,5.976160812377929688e+01,-1.628778228759765625e+02,6.582305145263671875e+01,-1.080545196533203125e+02,8.533808898925781250e+01,1.713897132873535156e+01,6.086153411865234375e+01,1.724439086914062500e+02,3.332503128051757812e+01,5.524731445312500000e+01
3.479999899864196777e-01,2.000000000000000000e+00,3.041963768005371094e+01,-4.504601478576660156e+00,5.973369216918945312e+01,-1.628873901367187500e+02,6.582487487792968750e+01,-1.080361480712890625e+02,8.530432128906250000e+01,1.711801528930664062e+01,6.083298492431640625e+01,1.724546813964843750e+02,3.334038925170898438e+01,5.523769760131835938e+01
3.519999980926513672e-01,2.000000000000000000e+00,3.035094261169433594e+01,-4.472726345062255859e+00,5.970579147338867188e+01,-1.628969421386718750e+02,6.582669830322265625e+01,-1.080177841186523438e+02,8.527056884765625000e+01,1.709706497192382812e+01,6.080444717407226562e+01,1.724654541015625000e+02,3.335573959350585938e+01,5.522808837890625000e+01
3.560000061988830566e-01,2.000000000000000000e+00,3.028226852416992188e+01,-4.440862178802490234e+00,5.967789840698242188e+01,-1.629065093994140625e+02,6.582852935791015625e+01,-1.079994201660156250e+02,8.523682403564453125e+01,1.707612419128417969e+01,6.077592468261718750e+01,1.724762420654296875e+02,3.337108612060546875e+01,5.521847534179687500e+01
3.600000143051147461e-01,2.000000000000000000e+00,3.021361923217773438e+01,-4.409008502960205078e+00,5.965000915527343750e+01,-1.629160308837890625e+02,6.583034515380859375e+01,-1.079810638427734375e+02,8.520310211181640625e+01,1.705518722534179688e+01,6.074740219116210938e+01,1.724869995117187500e+02,3.338642501831054688e+01,5.520886993408203125e+01
3.639999926090240479e-01,2.000000000000000000e+00,3.014499282836914062e+01,-4.377165317535400391e+00,5.962212753295898438e+01,-1.629255828857421875e+02,6.583216857910156250e+01,-1.079627151489257812e+02,8.516938781738281250e+01,1.703425979614257812e+01,6.071889495849609375e+01,1.724977722167968750e+02,3.340176010131835938e+01,5.519927215576171875e+01
3.680000007152557373e-01,2.000000000000000000e+00,3.007638740539550781e+01,-4.345332622528076172e+00,5.959426116943359375e+01,-1.629351348876953125e+02,6.583399200439453125e+01,-1.079443740844726562e+02,8.513568115234375000e+01,1.701333808898925781e+01,6.069039916992187500e+01,1.725085296630859375e+02,3.341709136962890625e+01,5.518967056274414062e+01
3.720000088214874268e-01,2.000000000000000000e+00,3.000780487060546875e+01,-4.313510894775390625e+00,5.956640243530273438e+01,-1.629446716308593750e+02,6.583581542968750000e+01,-1.079260330200195312e+02,8.510198974609375000e+01,1.699242401123046875e+01,6.066191101074218750e+01,1.725193023681640625e+02,3.343241500854492188e+01,5.518007278442382812e+01
3.759999871253967285e-01,2.000000000000000000e+00,2.993924713134765625e+01,-4.281699657440185547e+00,5.953855514526367188e+01,-1.629542083740234375e+02,6.583763885498046875e+01,-1.079076995849609375e+02,8.506829833984375000e+01,1.697151756286621094e+01,6.063342666625976562e+01,1.725300598144531250e+02,3.344773483276367188e+01,5.517048263549804688e+01
3.799999952316284180e-01,2.000000000000000000e+00,2.987070846557617188e+01,-4.249898910522460938e+00,5.951071548461914062e+01,-1.629637298583984375e+02,6.583946228027343750e+01,-1.078893737792968750e+02,8.503462982177734375e+01,1.695061683654785156e+01,6.060495758056640625e+01,1.725408172607421875e+02,3.346304702758789062e+01,5.516089248657226562e+01
3.840000033378601074e-01,2.000000000000000000e+00,2.980219459533691406e+01,-4.218108654022216797e+00,5.948288345336914062e+01,-1.629732666015625000e+02,6.584127807617187500e+01,-1.078710556030273438e+02,8.500096893310546875e+01,1.692972373962402344e+01,6.057649612426757812e+01,1.725515594482421875e+02,3.347835540771484375e+01,5.515130615234375000e+01
3.880000114440917969e-01,2.000000000000000000e+00,2.973370552062988281e+01,-4.186329364776611328e+00,5.945505523681640625e+01,-1.629827880859375000e+02,6.584310150146484375e+01,-1.078527450561523438e+02,8.496732330322265625e+01,1.690883636474609375e+01,6.054804229736328125e+01,1.725623016357421875e+02,3.349365997314453125e+01,5.514172363281250000e+01
3.919999897480010986e-01,2.000000000000000000e+00,2.966523933410644531e+01,-4.154560089111328125e+00,5.942724227905273438e+01,-1.629923095703125000e+02,6.584491729736328125e+01,-1.078344421386718750e+02,8.493368530273437500e+01,1.688795661926269531e+01,6.051960372924804688e+01,1.725730438232421875e+02,3.350896072387695312e+01,5.513214111328125000e+01
3.959999978542327881e-01,2.000000000000000000e+00,2.959679412841796875e+01,-4.122801780700683594e+00,5.939944458007812500e+01,-1.630018310546875000e+02,6.584673309326171875e+01,-1.078161392211914062e+02,8.490005493164062500e+01,1.686708450317382812e+01,6.049116897583007812e+01,1.725837860107421875e+02,3.352425765991210938e+01,5.512256240844726562e+01
4.000000059604644775e-01,2.000000000000000000e+00,2.952837371826171875e+01,-4.091053485870361328e+00,5.937164688110351562e+01,-1.630113525390625000e+02,6.584854888916015625e+01,-1.077978439331054688e+02,8.486643981933593750e+01,1.684622001647949219e+01,6.046274948120117188e+01,1.725945281982421875e+02,3.353954696655273438e+01,5.511299133300781250e+01
4.040000140666961670e-01,2.000000000000000000e+00,2.945997238159179688e+01,-4.059316158294677734e+00,5.934386062622070312e+01,-1.630208587646484375e+02,6.585036468505859375e+01,-1.077795562744140625e+02,8.483283233642578125e+01,1.682535934448242188e+01,6.043433380126953125e+01,1.726052551269531250e+02,3.355482864379882812e+01,5.510342025756835938e+01
4.079999923706054688e-01,2.000000000000000000e+00,2.939159584045410156e+01,-4.027589797973632812e+00,5.931608963012695312e+01,-1.630303649902343750e+02,6.585218048095703125e+01,-1.077612686157226562e+02,8.479924011230468750e+01,1.680451011657714844e+01,6.040592575073242188e+01,1.726159820556640625e+02,3.357010650634765625e+01,5.509385299682617188e+01
4.120000004768371582e-01,2.000000000000000000e+00,2.932324218750000000e+01,-3.995873212814331055e+00,5.928831863403320312e+01,-1.630398712158203125e+02,6.585400390625000000e+01,-1.077429885864257812e+02,8.476566314697265625e+01,1.678366279602050781e+01,6.037753295898437500e+01,1.726267089843750000e+02,3.358538055419921875e+01,5.508428955078125000e+01
4.160000085830688477e-01,2.000000000000000000e+00,2.925490951538085938e+01,-3.964167594909667969e+00,5.926055908203125000e+01,-1.630493774414062500e+02,6.585581207275390625e+01,-1.077247238159179688e+02,8.473208618164062500e+01,1.676282691955566406e+01,6.034914779663085938e+01,1.726374206542968750e+02,3.360064697265625000e+01,5.507472610473632812e+01
4.199999868869781494e-01,2.000000000000000000e+00,2.918660163879394531e+01,-3.932472467422485352e+00,5.923281478881835938e+01,-1.630588684082031250e+02,6.585762786865234375e+01,-1.077064590454101562e+02,8.469852447509765625e+01,1.674199485778808594e+01,6.032077407836914062e+01,1.726481475830078125e+02,3.361591339111328125e+01,5.506517028808593750e+01
4.239999949932098389e-01,2.000000000000000000e+00,2.911831665039062500e+01,-3.900787591934204102e+00,5.920507812500000000e+01,-1.630683593750000000e+02,6.585943603515625000e+01,-1.076882019042968750e+02,8.466497802734375000e+01,1.672117042541503906e+01,6.029240798950195312e+01,1.726588439941406250e+02,3.363117218017578125e+01,5.505561447143554688e+01
4.280000030994415283e-01,2.000000000000000000e+00,2.905005073547363281e+01,-3.869113445281982422e+00,5.917734527587890625e+01,-1.630778656005859375e+02,6.586125183105468750e+01,-1.076699523925781250e+02,8.463143920898437500e+01,1.670035362243652344e+01,6.026404953002929688e+01,1.726695556640625000e+02,3.364642333984375000e+01,5.504606246948242188e+01
4.320000112056732178e-01,2.000000000000000000e+00,2.898181152343750000e+01,-3.837449550628662109e+00,5.914962387084960938e+01,-1.630873565673828125e+02,6.586306762695312500e+01,-1.076517028808593750e+02,8.459790802001953125e+01,1.667954444885253906e+01,6.023569869995117188e+01,1.726802673339843750e+02,3.366167068481445312e+01,5.503651428222656250e+01
4.359999895095825195e-01,2.000000000000000000e+00,2.891359138488769531e+01,-3.805796384811401367e+00,5.912191390991210938e+01,-1.630968475341796875e+02,6.586487579345703125e+01,-1.076334609985351562e+02,8.456439208984375000e+01,1.665873908996582031e+01,6.020735931396484375e+01,1.726909790039062500e+02,3.367691802978515625e+01,5.502696990966796875e+01
4.399999976158142090e-01,2.000000000000000000e+00,2.884539794921875000e+01,-3.774153470993041992e+00,5.909421157836914062e+01,-1.631063232421875000e+02,6.586669158935546875e+01,-1.076152267456054688e+02,8.453089141845703125e+01,1.663794326782226562e+01,6.017903518676757812e+01,1.727016754150390625e+02,3.369215393066406250e+01,5.501742553710937500e+01
4.440000057220458984e-01,2.000000000000000000e+00,2.877722358703613281e+01,-3.742521047592163086e+00,5.906652069091796875e+01,-1.631158142089843750e+02,6.586849975585937500e+01,-1.075970001220703125e+02,8.449739837646484375e+01,1.661715316772460938e+01,6.015071868896484375e+01,1.727123718261718750e+02,3.370738601684570312e+01,5.500788879394531250e+01
4.480000138282775879e-01,2.000000000000000000e+00,2.870907402038574219e+01,-3.710899114608764648e+00,5.903882980346679688e+01,-1.631252899169921875e+02,6.587030792236328125e+01,-1.075787811279296875e+02,8.446391296386718750e+01,1.659637069702148438e+01,6.012240600585937500e+01,1.727230682373046875e+02,3.372261810302734375e+01,5.499835205078125000e+01
4.519999921321868896e-01,2.000000000000000000e+00,2.864094543457031250e+01,-3.679287672042846680e+00,5.901116180419921875e+01,-1.631347503662109375e+02,6.587212371826171875e+01,-1.075605621337890625e+02,8.443044281005859375e+01,1.657559585571289062e+01,6.009410095214843750e+01,1.727337493896484375e+02,3.373783874511718750e+01,5.498881912231445312e+01
4.560000002384185791e-01,2.000000000000000000e+00,2.857283973693847656e+01,-3.647686481475830078e+00,5.898349380493164062e+01,-1.631442413330078125e+02,6.587392425537109375e+01,-1.075423507690429688e+02,8.439698028564453125e+01,1.655482482910156250e+01,6.006581115722656250e+01,1.727444305419921875e+02,3.375305557250976562e+01,5.497929000854492188e+01
4.600000083446502686e-01,2.000000000000000000e+00,2.850475692749023438e+01,-3.616096019744873047e+00,5.895583724975585938e+01,-1.631537017822265625e+02,6.587573242187500000e+01,-1.075241470336914062e+02,8.436353302001953125e+01,1.653406333923339844e+01,6.003752899169921875e+01,1.727551116943359375e+02,3.376827239990234375e+01,5.496976089477539062e+01
4.639999866485595703e-01,2.000000000000000000e+00,2.843669509887695312e+01,-3.584515810012817383e+00,5.892818832397460938e+01,-1.631631622314453125e+02,6.587754058837890625e+01,-1.075059509277343750e+02,8.433009338378906250e+01,1.651330757141113281e+01,6.000925827026367188e+01,1.727657928466796875e+02,3.378347778320312500e+01,5.496024322509765625e+01
4.679999947547912598e-01,2.000000000000000000e+00,2.836865615844726562e+01,-3.552946090698242188e+00,5.890054702758789062e+01,-1.631726226806640625e+02,6.587934875488281250e+01,-1.074877624511718750e+02,8.429666900634765625e+01,1.649255943298339844e+01,5.998099517822265625e+01,1.727764739990234375e+02,3.379868316650390625e+01,5.495072174072265625e+01
4.720000028610229492e-01,2.000000000000000000e+00,2.830064201354980469e+01,-3.521386384963989258e+00,5.887291717529296875e+01,-1.631820831298828125e+02,6.588115692138671875e+01,-1.074695739746093750e+02,8.426325225830078125e+01,1.647181701660156250e+01,5.995273590087890625e+01,1.727871551513671875e+02,3.381388092041015625e+01,5.494120407104492188e+01
4.760000109672546387e-01,2.000000000000000000e+00,2.823264694213867188e+01,-3.489837408065795898e+00,5.884529876708984375e+01,-1.631915435791015625e+02,6.588295745849609375e+01,-1.074513931274414062e+02,8.422984313964843750e+01,1.645108222961425781e+01,5.992449569702148438e+01,1.727978210449218750e+02,3.382907485961914062e+01,5.493168640136718750e+01
4.799999892711639404e-01,2.000000000000000000e+00,2.816467666625976562e+01,-3.458298683166503906e+00,5.881768798828125000e+01,-1.632009887695312500e+02,6.588477325439453125e+01,-1.074332122802734375e+02,8.419645690917968750e+01,1.643035507202148438e+01,5.989625930786132812e+01,1.728084716796875000e+02,3.384426498413085938e+01,5.492217636108398438e+01
4.839999973773956299e-01,2.000000000000000000e+00,2.809672546386718750e+01,-3.426770687103271484e+00,5.879008865356445312e+01,-1.632104492187500000e+02,6.588657379150390625e+01,-1.074150466918945312e+02,8.416307067871093750e+01,1.640963363647460938e+01,5.986803054809570312e+01,1.728191375732421875e+02,3.385944747924804688e+01,5.491267013549804688e+01
4.880000054836273193e-01,2.000000000000000000e+00,2.802880096435546875e+01,-3.395252704620361328e+00,5.876249313354492188e+01,-1.632198791503906250e+02,6.588837432861328125e+01,-1.073968811035156250e+02,8.412969207763671875e+01,1.638891983032226562e+01,5.983981323242187500e+01,1.728298034667968750e+02,3.387462234497070312e+01,5.490316390991210938e+01
4.920000135898590088e-01,2.000000000000000000e+00,2.796089553833007812e+01,-3.363744974136352539e+00,5.873490905761718750e+01,-1.632293395996093750e+02,6.589018249511718750e+01,-1.073787307739257812e+02,8.409633636474609375e+01,1.636820983886718750e+01,5.981160354614257812e+01,1.728404541015625000e+02,3.388979721069335938e+01,5.489366531372070312e+01
4.959999918937683105e-01,2.000000000000000000e+00,2.789301490783691406e+01,-3.332247734069824219e+00,5.870733261108398438e+01,-1.632387847900390625e+02,6.589198303222656250e+01,-1.073605804443359375e+02,8.406298828125000000e+01,1.634750938415527344e+01,5.978340530395507812e+01,1.728511047363281250e+02,3.390496826171875000e+01,5.488416671752929688e+01
5.000000000000000000e-01,2.000000000000000000e+00,2.782515525817871094e+01,-3.300760984420776367e+00,5.867976760864257812e+01,-1.632482147216796875e+02,6.589378356933593750e+01,-1.073424377441406250e+02,8.402964782714843750e+01,1.632681655883789062e+01,5.975521469116210938e+01,1.728617553710937500e+02,3.392013168334960938e+01,5.487467193603515625e+01
5.040000081062316895e-01,2.000000000000000000e+00,2.775731658935546875e+01,-3.269284486770629883e+00,5.865221405029296875e+01,-1.632576446533203125e+02,6.589558410644531250e+01,-1.073243026733398438e+02,8.399631500244140625e+01,1.630612945556640625e+01,5.972703552246093750e+01,1.728723907470703125e+02,3.393528747558593750e+01,5.486517715454101562e+01
5.080000162124633789e-01,2.000000000000000000e+00,2.768950271606445312e+01,-3.237818241119384766e+00,5.862466049194335938e+01,-1.632670745849609375e+02,6.589738464355468750e+01,-1.073061676025390625e+02,8.396299743652343750e+01,1.628544998168945312e+01,5.969886779785156250e+01,1.728830261230468750e+02,3.395043945312500000e+01,5.485569000244140625e+01
5.120000243186950684e-01,2.000000000000000000e+00,2.762170791625976562e+01,-3.206362247467041016e+00,5.859712982177734375e+01,-1.632765045166015625e+02,6.589919281005859375e+01,-1.072880401611328125e+02,8.392968750000000000e+01,1.626477432250976562e+01,5.967070388793945312e+01,1.728936767578125000e+02,3.396558761596679688e+01,5.484620285034179688e+01
5.159999728202819824e-01,2.000000000000000000e+00,2.755393791198730469e+01,-3.174916505813598633e+00,5.856959533691406250e+01,-1.632859344482421875e+02,6.590098571777343750e+01,-1.072699203491210938e+02,8.389639282226562500e+01,1.624410820007324219e+01,5.964255142211914062e+01,1.729042968750000000e+02,3.398073196411132812e+01,5.483671951293945312e+01
5.199999809265136719e-01,2.000000000000000000e+00,2.748618888854980469e+01,-3.143481254577636719e+00,5.854207611083984375e+01,-1.632953643798828125e+02,6.590278625488281250e+01,-1.072518081665039062e+02,8.386310577392578125e+01,1.622344779968261719e+01,5.961441040039062500e+01,1.729149322509765625e+02,3.399586868286132812e+01,5.482724380493164062e+01
5.239999890327453613e-01,2.000000000000000000e+00,2.741846466064453125e+01,-3.112056493759155273e+00,5.851456451416015625e+01,-1.633047637939453125e+02,6.590458679199218750e+01,-1.072336959838867188e+02,8.382983398437500000e+01,1.620279312133789062e+01,5.958627700805664062e+01,1.729255523681640625e+02,3.401100540161132812e+01,5.481776809692382812e+01
5.279999971389770508e-01,2.000000000000000000e+00,2.735075950622558594e+01,-3.080641508102416992e+00,5.848706054687500000e+01,-1.633141784667968750e+02,6.590637969970703125e+01,-1.072155914306640625e+02,8.379656982421875000e+01,1.618214797973632812e+01,5.955815124511718750e+01,1.729361877441406250e+02,3.402613449096679688e+01,5.480829238891601562e+01
5.320000052452087402e-01,2.000000000000000000e+00,2.728307914733886719e+01,-3.049237012863159180e+00,5.845956802368164062e+01,-1.633235931396484375e+02,6.590818786621093750e+01,-1.071974945068359375e+02,8.376331329345703125e+01,1.616150665283203125e+01,5.953002929687500000e+01,1.729467926025390625e+02,3.404125595092773438e+01,5.479882431030273438e+01
5.360000133514404297e-01,2.000000000000000000e+00,2.721541786193847656e+01,-3.017843008041381836e+00,5.843208312988281250e+01,-1.633330078125000000e+02,6.590998077392578125e+01,-1.071794052124023438e+02,8.373007202148437500e+01,1.614087486267089844e+01,5.950192260742187500e+01,1.729574127197265625e+02,3.405637359619140625e+01,5.478935241699218750e+01
5.400000214576721191e-01,2.000000000000000000e+00,2.714777946472167969e+01,-2.986458778381347656e+00,5.840460586547851562e+01,-1.633424224853515625e+02,6.591177368164062500e+01,-1.071613159179687500e+02,8.369684600830078125e+01,1.612024688720703125e+01,5.947383117675781250e+01,1.729680328369140625e+02,3.407149124145507812e+01,5.477989196777343750e+01
5.440000295639038086e-01,2.000000000000000000e+00,2.708016395568847656e+01,-2.955085277557373047e+00,5.837714385986328125e+01,-1.633518218994140625e+02,6.591357421875000000e+01,-1.071432418823242188e+02,8.366362762451171875e+01,1.609962844848632812e+01,5.944573974609375000e+01,1.729786376953125000e+02,3.408659744262695312e+01,5.477043151855468750e+01
5.479999780654907227e-01,2.000000000000000000e+00,2.701256942749023438e+01,-2.923721790313720703e+00,5.834968566894531250e+01,-1.633612213134765625e+02,6.591535949707031250e+01,-1.071251678466796875e+02,8.363041687011718750e+01,1.607901573181152344e+01,5.941765975952148438e+01,1.729892425537109375e+02,3.410169982910156250e+01,5.476097106933593750e+01
5.519999861717224121e-01,2.000000000000000000e+00,2.694499969482421875e+01,-2.892368555068969727e+00,5.832223510742187500e+01,-1.633706207275390625e+02,6.591716003417968750e+01,-1.071071014404296875e+02,8.359722137451171875e+01,1.605840873718261719e+01,5.938959503173828125e+01,1.729998474121093750e+02,3.411680221557617188e+01,5.475151824951171875e+01
5.559999942779541016e-01,2.000000000000000000e+00,2.687744903564453125e+01,-2.861025333404541016e+00,5.829479217529296875e+01,-1.633800048828125000e+02,6.591895294189453125e+01,-1.070890426635742188e+02,8.356403350830078125e+01,1.603780937194824219e+01,5.936153030395507812e+01,1.730104370117187500e+02,3.413189315795898438e+01,5.474206542968750000e+01
5.600000023841857910e-01,2.000000000000000000e+00,2.680992126464843750e+01,-2.829692840576171875e+00,5.826736068725585938e+01,-1.633893890380859375e+02,6.592074584960937500e+01,-1.070709838867187500e+02,8.353086090087890625e+01,1.601721763610839844e+01,5.933347702026367188e+01,1.730210266113281250e+02,3.414698410034179688e+01,5.473262023925781250e+01
5.640000104904174805e-01,2.000000000000000000e+00,2.674241638183593750e+01,-2.798370122909545898e+00,5.823994445800781250e+01,-1.633987884521484375e+02,6.592253875732421875e+01,-1.070529327392578125e+02,8.349768829345703125e+01,1.599663066864013672e+01,5.930543899536132812e+01,1.730316314697265625e+02,3.416206741333007812e+01,5.472317123413085938e+01
5.680000185966491699e-01,2.000000000000000000e+00,2.667493247985839844e+01,-2.767057895660400391e+00,5.821252822875976562e+01,-1.634081726074218750e+02,6.592433166503906250e+01,-1.070348892211914062e+02,8.346453857421875000e+01,1.597605133056640625e+01,5.927740097045898438e+01,1.730422210693359375e+02,3.417714691162109375e+01,5.471372985839843750e+01
5.720000267028808594e-01,2.000000000000000000e+00,2.660746955871582031e+01,-2.735755443572998047e+00,5.818512725830078125e+01,-1.634175567626953125e+02,6.592612457275390625e+01,-1.070168533325195312e+02,8.343138885498046875e+01,1.595547962188720703e+01,5.924937820434570312e+01,1.730528106689453125e+02,3.419222259521484375e+01,5.470428848266601562e+01
5.759999752044677734e-01,2.000000000000000000e+00,2.654003143310546875e+01,-2.704463481903076172e+00,5.815773010253906250e+01,-1.634269409179687500e+02,6.592791748046875000e+01,-1.069988250732421875e+02,8.339825439453125000e+01,1.593491172790527344e+01,5.922136688232421875e+01,1.730633697509765625e+02,3.420729064941406250e+01,5.469485473632812500e+01
5.799999833106994629e-01,2.000000000000000000e+00,2.647261238098144531e+01,-2.673181533813476562e+00,5.813034057617187500e+01,-1.634363098144531250e+02,6.592970275878906250e+01,-1.069807968139648438e+02,8.336513519287109375e+01,1.591435337066650391e+01,5.919335556030273438e+01,1.730739593505859375e+02,3.422235488891601562e+01,5.468541717529296875e+01
5.839999914169311523e-01,2.000000000000000000e+00,2.640521812438964844e+01,-2.641909837722778320e+00,5.810296630859375000e+01,-1.634456939697265625e+02,6.593149566650390625e+01,-1.069627685546875000e+02,8.333202362060546875e+01,1.589380073547363281e+01,5.916535949707031250e+01,1.730845336914062500e+02,3.423741531372070312e+01,5.467599105834960938e+01
5.879999995231628418e-01,2.000000000000000000e+00,2.633784294128417969e+01,-2.610648393630981445e+00,5.807559585571289062e+01,-1.634550476074218750e+02,6.593328857421875000e+01,-1.069447631835937500e+02,8.329892730712890625e+01,1.587325382232666016e+01,5.913737869262695312e+01,1.730950927734375000e+02,3.425247192382812500e+01,5.466656494140625000e+01
5.920000076293945312e-01,2.000000000000000000e+00,2.627049064636230469e+01,-2.579396963119506836e+00,5.804823303222656250e+01,-1.634644165039062500e+02,6.593507385253906250e+01,-1.069267501831054688e+02,8.326583099365234375e+01,1.585271549224853516e+01,5.910939407348632812e+01,1.731056671142578125e+02,3.426752090454101562e+01,5.465713882446289062e+01
5.960000157356262207e-01,2.000000000000000000e+00,2.620316123962402344e+01,-2.548155784606933594e+00,5.802088546752929688e+01,-1.634737854003906250e+02,6.593686676025390625e+01,-1.069087448120117188e+02,8.323275756835937500e+01,1.583218193054199219e+01,5.908143234252929688e+01,1.731162261962890625e+02,3.428256225585937500e+01,5.464771652221679688e+01
6.000000238418579102e-01,2.000000000000000000e+00,2.613585281372070312e+01,-2.516924619674682617e+00,5.799354553222656250e+01,-1.634831542968750000e+02,6.593864440917968750e+01,-1.068907470703125000e+02,8.319968414306640625e+01,1.581165599822998047e+01,5.905346679687500000e+01,1.731267852783203125e+02,3.429760360717773438e+01,5.463830184936523438e+01
6.039999723434448242e-01,2.000000000000000000e+00,2.606856727600097656e+01,-2.485703945159912109e+00,5.796620941162109375e+01,-1.634925079345703125e+02,6.594043731689453125e+01,-1.068727569580078125e+02,8.316662597656250000e+01,1.579113769531250000e+01,5.902552032470703125e+01,1.731373443603515625e+02,3.431264114379882812e+01,5.462888336181640625e+01
6.079999804496765137e-01,2.000000000000000000e+00,2.600130081176757812e+01,-2.454493045806884766e+00,5.793888473510742188e+01,-1.635018615722656250e+02,6.594222259521484375e+01,-1.068547744750976562e+02,8.313358306884765625e+01,1.577062511444091797e+01,5.899757766723632812e+01,1.731479034423828125e+02,3.432767105102539062e+01,5.461947250366210938e+01
6.119999885559082031e-01,2.000000000000000000e+00,2.593405723571777344e+01,-2.423292160034179688e+00,5.791156768798828125e+01,-1.635111999511718750e+02,6.594400787353515625e+01,-1.068367919921875000e+02,8.310054016113281250e+01,1.575011920928955078e+01,5.896964263916015625e+01,1.731584472656250000e+02,3.434269714355468750e+01,5.461006546020507812e+01
6.159999966621398926e-01,2.000000000000000000e+00,2.586683654785156250e+01,-2.392101049423217773e+00,5.788426208496093750e+01,-1.635205688476562500e+02,6.594579315185546875e+01,-1.068188171386718750e+02,8.306752014160156250e+01,1.572961807250976562e+01,5.894171142578125000e+01,1.731689910888671875e+02,3.435771560668945312e+01,5.460065841674804688e+01
6.200000047683715820e-01,2.000000000000000000e+00,2.579963684082031250e+01,-2.360920190811157227e+00,5.785696792602539062e+01,-1.635299072265625000e+02,6.594757843017578125e+01,-1.068008575439453125e+02,8.303450012207031250e+01,1.570912647247314453e+01,5.891379547119140625e+01,1.731795501708984375e+02,3.437273406982421875e+01,5.459125518798828125e+01
6.240000128746032715e-01,2.000000000000000000e+00,2.573245811462402344e+01,-2.329749584197998047e+00,5.782967376708984375e+01,-1.635392456054687500e+02,6.594936370849609375e+01,-1.067828903198242188e+02,8.300149536132812500e+01,1.568864059448242188e+01,5.888589477539062500e+01,1.731900939941406250e+02,3.438774108886718750e+01,5.458185577392578125e+01
6.280000209808349609e-01,2.000000000000000000e+00,2.566530227661132812e+01,-2.298588752746582031e+00,5.780239486694335938e+01,-1.635485839843750000e+02,6.595114898681640625e+01,-1.067649383544921875e+02,8.296849822998046875e+01,1.566816043853759766e+01,5.885799407958984375e+01,1.732006225585937500e+02,3.440275192260742188e+01,5.457245635986328125e+01
6.320000290870666504e-01,2.000000000000000000e+00,2.559816551208496094e+01,-2.267438173294067383e+00,5.777513122558593750e+01,-1.635579223632812500e+02,6.595292663574218750e+01,-1.067469863891601562e+02,8.293551635742187500e+01,1.564768695831298828e+01,5.883010864257812500e+01,1.732111511230468750e+02,3.441775131225585938e+01,5.456306457519531250e+01
6.359999775886535645e-01,2.000000000000000000e+00,2.553105354309082031e+01,-2.236297369003295898e+00,5.774786376953125000e+01,-1.635672607421875000e+02,6.595471191406250000e+01,-1.067290420532226562e+02,8.290254974365234375e+01,1.562722206115722656e+01,5.880222702026367188e+01,1.732216796875000000e+02,3.443274688720703125e+01,5.455367279052734375e+01
6.399999856948852539e-01,2.000000000000000000e+00,2.546396064758300781e+01,-2.205166816711425781e+00,5.772061157226562500e+01,-1.635765838623046875e+02,6.595649719238281250e+01,-1.067110977172851562e+02,8.286958312988281250e+01,1.560676193237304688e+01,5.877436065673828125e+01,1.732322082519531250e+02,3.444773864746093750e+01,5.454428482055664062e+01
6.439999938011169434e-01,2.000000000000000000e+00,2.539688873291015625e+01,-2.174046039581298828e+00,5.769336700439453125e+01,-1.635859222412109375e+02,6.595827484130859375e+01,-1.066931686401367188e+02,8.283663177490234375e+01,1.558630752563476562e+01,5.874649810791015625e+01,1.732427368164062500e+02,3.446272659301757812e+01,5.453490066528320312e+01
6.480000019073486328e-01,2.000000000000000000e+00,2.532983970642089844e+01,-2.142935276031494141e+00,5.766612625122070312e+01,-1.635952453613281250e+02,6.596005249023437500e+01,-1.066752395629882812e+02,8.280368804931640625e+01,1.556586170196533203e+01,5.871864700317382812e+01,1.732532501220703125e+02,3.447771072387695312e+01,5.452552032470703125e+01
6.520000100135803223e-01,2.000000000000000000e+00,2.526281166076660156e+01,-2.111834526062011719e+00,5.763890075683593750e+01,-1.636045684814453125e+02,6.596183776855468750e+01,-1.066573181152343750e+02,8.277075958251953125e+01,1.554542160034179688e+01,5.869079971313476562e+01,1.732637786865234375e+02,3.449268341064453125e+01,5.451614379882812500e+01
6.560000181198120117e-01,2.000000000000000000e+00,2.519580650329589844e+01,-2.080743551254272461e+00,5.761168289184570312e+01,-1.636138763427734375e+02,6.596361541748046875e+01,-1.066394042968750000e+02,8.273783874511718750e+01,1.552498817443847656e+01,5.866296386718750000e+01,1.732742767333984375e+02,3.450765609741210938e+01,5.450676727294921875e+01
6.600000262260437012e-01,2.000000000000000000e+00,2.512882041931152344e+01,-2.049662590026855469e+00,5.758447265625000000e+01,-1.636231994628906250e+02,6.596539306640625000e+01,-1.066214981079101562e+02,8.270493316650390625e+01,1.550456047058105469e+01,5.863513946533203125e+01,1.732847900390625000e+02,3.452262496948242188e+01,5.449739456176757812e+01
6.639999747276306152e-01,2.000000000000000000e+00,2.506185722351074219e+01,-2.018591403961181641e+00,5.755726623535156250e+01,-1.636325073242187500e+02,6.596717071533203125e+01,-1.066035842895507812e+02,8.267202758789062500e+01,1.548413944244384766e+01,5.860731887817382812e+01,1.732953033447265625e+02,3.453759002685546875e+01,5.448802185058593750e+01
6.679999828338623047e-01,2.000000000000000000e+00,2.499491500854492188e+01,-1.987530231475830078e+00,5.753007507324218750e+01,-1.636418151855468750e+02,6.596895599365234375e+01,-1.065856933593750000e+02,8.263914489746093750e+01,1.546372413635253906e+01,5.857951354980468750e+01,1.733058013916015625e+02,3.455254745483398438e+01,5.447865676879882812e+01
6.719999909400939941e-01,2.000000000000000000e+00,2.492799568176269531e+01,-1.956478714942932129e+00,5.750289154052734375e+01,-1.636511230468750000e+02,6.597072601318359375e+01,-1.065677947998046875e+02,8.260626220703125000e+01,1.544331741333007812e+01,5.855171585083007812e+01,1.733162994384765625e+02,3.456749725341796875e+01,5.446929550170898438e+01
6.759999990463256836e-01,2.000000000000000000e+00,2.486109542846679688e+01,-1.925437211990356445e+00,5.747571563720703125e+01,-1.636604309082031250e+02,6.597250366210937500e+01,-1.065499038696289062e+02,8.257339477539062500e+01,1.542291545867919922e+01,5.852392196655273438e+01,1.733267974853515625e+02,3.458245086669921875e+01,5.445993423461914062e+01
6.800000071525573730e-01,2.000000000000000000e+00,2.479421615600585938e+01,-1.894405484199523926e+00,5.744855117797851562e+01,-1.636697387695312500e+02,6.597428131103515625e+01,-1.065320281982421875e+02,8.254053497314453125e+01,1.540252113342285156e+01,5.849614334106445312e+01,1.733372955322265625e+02,3.459739303588867188e+01,5.445057678222656250e+01
6.840000152587890625e-01,2.000000000000000000e+00,2.472735786437988281e+01,-1.863383650779724121e+00,5.742138671875000000e+01,-1.636790313720703125e+02,6.597605895996093750e+01,-1.065141525268554688e+02,8.250769042968750000e+01,1.538213253021240234e+01,5.846836471557617188e+01,1.733477783203125000e+02,3.461233139038085938e+01,5.444121932983398438e+01
6.880000233650207520e-01,2.000000000000000000e+00,2.466052246093750000e+01,-1.832371354103088379e+00,5.739423751831054688e+01,-1.636883239746093750e+02,6.597782897949218750e+01,-1.064962768554687500e+02,8.247485351562500000e+01,1.536174964904785156e+01,5.844060134887695312e+01,1.733582611083984375e+02,3.462726593017578125e+01,5.443186950683593750e+01
6.919999718666076660e-01,2.000000000000000000e+00,2.459370613098144531e+01,-1.801369190216064453e+00,5.736709976196289062e+01,-1.636976165771484375e+02,6.597960662841796875e+01,-1.064784164428710938e+02,8.244202423095703125e+01,1.534137535095214844e+01,5.841284942626953125e+01,1.733687591552734375e+02,3.464219665527343750e+01,5.442251586914062500e+01
6.959999799728393555e-01,2.000000000000000000e+00,2.452691268920898438e+01,-1.770376563072204590e+00,5.733996582031250000e+01,-1.637069091796875000e+02,6.598138427734375000e+01,-1.064605560302734375e+02,8.240921020507812500e+01,1.532100582122802734e+01,5.838510131835937500e+01,1.733792266845703125e+02,3.465711975097656250e+01,5.441317367553710938e+01
6.999999880790710449e-01,2.000000000000000000e+00,2.446014022827148438e+01,-1.739393949508666992e+00,5.731284332275390625e+01,-1.637161865234375000e+02,6.598315429687500000e+01,-1.064427032470703125e+02,8.237640380859375000e+01,1.530064296722412109e+01,5.835736083984375000e+01,1.733897094726562500e+02,3.467204284667968750e+01,5.440383148193359375e+01
7.039999961853027344e-01,2.000000000000000000e+00,2.439338684082031250e+01,-1.708420991897583008e+00,5.728572082519531250e+01,-1.637254638671875000e+02,6.598493194580078125e+01,-1.064248504638671875e+02,8.234360504150390625e+01,1.528028583526611328e+01,5.832963943481445312e+01,1.734001770019531250e+02,3.468695831298828125e+01,5.439448928833007812e+01
7.080000042915344238e-01,2.000000000000000000e+00,2.432665634155273438e+01,-1.677457690238952637e+00,5.725861740112304688e+01,-1.637347564697265625e+02,6.598669433593750000e+01,-1.064070129394531250e+02,8.231082153320312500e+01,1.525993728637695312e+01,5.830191421508789062e+01,1.734106445312500000e+02,3.470186996459960938e+01,5.438515472412109375e+01
7.120000123977661133e-01,2.000000000000000000e+00,2.425994682312011719e+01,-1.646504163742065430e+00,5.723151779174804688e+01,-1.637440338134765625e+02,6.598847198486328125e+01,-1.063891754150390625e+02,8.227805328369140625e+01,1.523959350585937500e+01,5.827420425415039062e+01,1.734211120605468750e+02,3.471677780151367188e+01,5.437582015991210938e+01
7.160000205039978027e-01,2.000000000000000000e+00,2.419325828552246094e+01,-1.615560531616210938e+00,5.720442581176757812e+01,-1.637533111572265625e+02,6.599024200439453125e+01,-1.063713378906250000e+02,8.224528503417968750e+01,1.521925640106201172e+01,5.824650192260742188e+01,1.734315795898437500e+02,3.473167800903320312e+01,5.436648559570312500e+01
7.200000286102294922e-01,2.000000000000000000e+00,2.412659072875976562e+01,-1.584626555442810059e+00,5.717734527587890625e+01,-1.637625732421875000e+02,6.599201202392578125e+01,-1.063535156250000000e+02,8.221253204345703125e+01,1.519892501831054688e+01,5.821880340576171875e+01,1.734420318603515625e+02,3.474657821655273438e+01,5.435715866088867188e+01
7.239999771118164062e-01,2.000000000000000000e+00,2.405994224548339844e+01,-1.553702354431152344e+00,5.715027236938476562e+01,-1.637718505859375000e+02,6.599378204345703125e+01,-1.063357009887695312e+02,8.217978668212890625e+01,1.517860126495361328e+01,5.819112396240234375e+01,1.734524993896484375e+02,3.476146697998046875e+01,5.434783172607421875e+01
7.279999852180480957e-01,2.000000000000000000e+00,2.399331855773925781e+01,-1.522787809371948242e+00,5.712320709228515625e+01,-1.637811126708984375e+02,6.599555206298828125e+01,-1.063178787231445312e+02,8.214705657958984375e+01,1.515828323364257812e+01,5.816344070434570312e+01,1.734629364013671875e+02,3.477635574340820312e+01,5.433850860595703125e+01
7.319999933242797852e-01,2.000000000000000000e+00,2.392671394348144531e+01,-1.491883039474487305e+00,5.709614944458007812e+01,-1.637903747558593750e+02,6.599732208251953125e+01,-1.063000717163085938e+02,8.211433410644531250e+01,1.513797187805175781e+01,5.813577651977539062e+01,1.734733886718750000e+02,3.479124069213867188e+01,5.432918930053710938e+01
7.360000014305114746e-01,2.000000000000000000e+00,2.386012840270996094e+01,-1.460987925529479980e+00,5.706910324096679688e+01,-1.637996368408203125e+02,6.599908447265625000e+01,-1.062822647094726562e+02,8.208161163330078125e+01,1.511766624450683594e+01,5.810811614990234375e+01,1.734838409423828125e+02,3.480611419677734375e+01,5.431987380981445312e+01
7.400000095367431641e-01,2.000000000000000000e+00,2.379356575012207031e+01,-1.430102586746215820e+00,5.704206466674804688e+01,-1.638088989257812500e+02,6.600085449218750000e+01,-1.062644729614257812e+02,8.204891204833984375e+01,1.509736824035644531e+01,5.808046722412109375e+01,1.734942779541015625e+02,3.482099151611328125e+01,5.431056213378906250e+01
7.440000176429748535e-01,2.000000000000000000e+00,2.372702217102050781e+01,-1.399226903915405273e+00,5.701503372192382812e+01,-1.638181457519531250e+02,6.600262451171875000e+01,-1.062466812133789062e+02,8.201622009277343750e+01,1.507707595825195312e+01,5.805281829833984375e+01,1.735047302246093750e+02,3.483586120605468750e+01,5.430125045776367188e+01
7.480000257492065430e-01,2.000000000000000000e+00,2.366050148010253906e+01,-1.368360877037048340e+00,5.698801040649414062e+01,-1.638274078369140625e+02,6.600438690185546875e+01,-1.062288970947265625e+02,8.198354339599609375e+01,1.505679035186767578e+01,5.802518844604492188e+01,1.735151672363281250e+02,3.485072326660156250e+01,5.429194259643554688e+01
7.519999742507934570e-01,2.000000000000000000e+00,2.359400177001953125e+01,-1.337504506111145020e+00,5.696099853515625000e+01,-1.638366546630859375e+02,6.600615692138671875e+01,-1.062111129760742188e+02,8.195086669921875000e+01,1.503650951385498047e+01,5.799756240844726562e+01,1.735255889892578125e+02,3.486558151245117188e+01,5.428263854980468750e+01
7.559999823570251465e-01,2.000000000000000000e+00,2.352752113342285156e+01,-1.306657910346984863e+00,5.693399047851562500e+01,-1.638458862304687500e+02,6.600792694091796875e+01,-1.061933364868164062e+02,8.191820526123046875e+01,1.501623630523681641e+01,5.796994781494140625e+01,1.735360260009765625e+02,3.488043594360351562e+01,5.427333450317382812e+01
7.599999904632568359e-01,2.000000000000000000e+00,2.346106147766113281e+01,-1.275820851325988770e+00,5.690699386596679688e+01,-1.638551330566406250e+02,6.600968933105468750e+01,-1.061755676269531250e+02,8.188555145263671875e+01,1.499596881866455078e+01,5.794234085083007812e+01,1.735464477539062500e+02,3.489528656005859375e+01,5.426403808593750000e+01
7.639999985694885254e-01,2.000000000000000000e+00,2.339462471008300781e+01,-1.244993567466735840e+00,5.688000488281250000e+01,-1.638643646240234375e+02,6.601145172119140625e+01,-1.061577987670898438e+02,8.185291290283203125e+01,1.497570896148681641e+01,5.791473770141601562e+01,1.735568695068359375e+02,3.491013717651367188e+01,5.425474166870117188e+01
7.680000066757202148e-01,2.000000000000000000e+00,2.332820701599121094e+01,-1.214175820350646973e+00,5.685302734375000000e+01,-1.638736114501953125e+02,6.601322174072265625e+01,-1.061400375366210938e+02,8.182028198242187500e+01,1.495545387268066406e+01,5.788714981079101562e+01,1.735672912597656250e+02,3.492497253417968750e+01,5.424544525146484375e+01
7.720000147819519043e-01,2.000000000000000000e+00,2.326181030273437500e+01,-1.183367729187011719e+00,5.682605743408203125e+01,-1.638828430175781250e+02,6.601498413085937500e+01,-1.061222915649414062e+02,8.178766632080078125e+01,1.493520736694335938e+01,5.785956573486328125e+01,1.735777130126953125e+02,3.493981170654296875e+01,5.423615646362304688e+01
7.760000228881835938e-01,2.000000000000000000e+00,2.319543457031250000e+01,-1.152569413185119629e+00,5.679909133911132812e+01,-1.638920745849609375e+02,6.601674652099609375e+01,-1.061045455932617188e+02,8.175505065917968750e+01,1.491496467590332031e+01,5.783199691772460938e+01,1.735881195068359375e+02,3.495464324951171875e+01,5.422686767578125000e+01
7.799999713897705078e-01,2.000000000000000000e+00,2.312907981872558594e+01,-1.121780514717102051e+00,5.677213668823242188e+01,-1.639013061523437500e+02,6.601850891113281250e+01,-1.060867996215820312e+02,8.172245025634765625e+01,1.489473056793212891e+01,5.780443191528320312e+01,1.735985412597656250e+02,3.496947097778320312e+01,5.421758651733398438e+01
7.839999794960021973e-01,2.000000000000000000e+00,2.306274604797363281e+01,-1.091001391410827637e+00,5.674519348144531250e+01,-1.639105224609375000e+02,6.602027130126953125e+01,-1.060690612792968750e+02,8.168986511230468750e+01,1.487450122833251953e+01,5.777687072753906250e+01,1.736089477539062500e+02,3.498429489135742188e+01,5.420830154418945312e+01
7.879999876022338867e-01,2.000000000000000000e+00,2.299643135070800781e+01,-1.060231804847717285e+00,5.671825408935546875e+01,-1.639197540283203125e+02,6.602203369140625000e+01,-1.060513305664062500e+02,8.165727996826171875e+01,1.485427856445312500e+01,5.774932479858398438e+01,1.736193542480468750e+02,3.499910736083984375e+01,5.419902420043945312e+01
7.919999957084655762e-01,2.000000000000000000e+00,2.293013954162597656e+01,-1.029471874237060547e+00,5.669132614135742188e+01,-1.639289703369140625e+02,6.602378845214843750e+01,-1.060336074829101562e+02,8.162471008300781250e+01,1.483406257629394531e+01,5.772178649902343750e+01,1.736297454833984375e+02,3.501392364501953125e+01,5.418974685668945312e+01
7.960000038146972656e-01,2.000000000000000000e+00,2.286386489868164062e+01,-9.987214803695678711e-01,5.666440582275390625e+01,-1.639381866455078125e+02,6.602555084228515625e+01,-1.060158920288085938e+02,8.159214782714843750e+01,1.481385231018066406e+01,5.769425964355468750e+01,1.736401519775390625e+02,3.502873229980468750e+01,5.418047332763671875e+01
8.000000119209289551e-01,2.000000000000000000e+00,2.279761505126953125e+01,-9.679806232452392578e-01,5.663748931884765625e+01,-1.639474029541015625e+02,6.602731323242187500e+01,-1.059981689453125000e+02,8.155960083007812500e+01,1.479364871978759766e+01,5.766673278808593750e+01,1.736505432128906250e+02,3.504353713989257812e+01,5.417120361328125000e+01
8.040000200271606445e-01,2.000000000000000000e+00,2.273138427734375000e+01,-9.372494816780090332e-01,5.661058425903320312e+01,-1.639566192626953125e+02,6.602906799316406250e+01,-1.059804687500000000e+02,8.152706146240234375e+01,1.477345180511474609e+01,5.763922119140625000e+01,1.736609344482421875e+02,3.505833816528320312e+01,5.416193389892578125e+01
8.080000281333923340e-01,2.000000000000000000e+00,2.266517448425292969e+01,-9.065278172492980957e-01,5.658369064331054688e+01,-1.639658203125000000e+02,6.603083038330078125e+01,-1.059627609252929688e+02,8.149452972412109375e+01,1.475325965881347656e+01,5.761171722412109375e+01,1.736713104248046875e+02,3.507313156127929688e+01,5.415267562866210938e+01
8.119999766349792480e-01,2.000000000000000000e+00,2.259898376464843750e+01,-8.758156299591064453e-01,5.655680465698242188e+01,-1.639750366210937500e+02,6.603258514404296875e+01,-1.059450683593750000e+02,8.146201324462890625e+01,1.473307514190673828e+01,5.758422470092773438e+01,1.736817169189453125e+02,3.508792114257812500e+01,5.414341354370117188e+01
8.159999847412109375e-01,2.000000000000000000e+00,2.253281402587890625e+01,-8.451131582260131836e-01,5.652992630004882812e+01,-1.639842224121093750e+02,6.603433990478515625e+01,-1.059273681640625000e+02,8.142950439453125000e+01,1.471289730072021484e+01,5.755673599243164062e+01,1.736920928955078125e+02,3.510270690917968750e+01,5.413415527343750000e+01
8.199999928474426270e-01,2.000000000000000000e+00,2.246666526794433594e+01,-8.144201040267944336e-01,5.650305557250976562e+01,-1.639934387207031250e+02,6.603610229492187500e+01,-1.059096832275390625e+02,8.139700317382812500e+01,1.469272422790527344e+01,5.752925491333007812e+01,1.737024688720703125e+02,3.511748504638671875e+01,5.412489700317382812e+01
8.240000009536743164e-01,2.000000000000000000e+00,2.240053749084472656e+01,-7.837367057800292969e-01,5.647619247436523438e+01,-1.640026245117187500e+02,6.603785705566406250e+01,-1.058920059204101562e+02,8.136450958251953125e+01,1.467255783081054688e+01,5.750178527832031250e+01,1.737128448486328125e+02,3.513226318359375000e+01,5.411564254760742188e+01
8.280000090599060059e-01,2.000000000000000000e+00,2.233443069458007812e+01,-7.530627250671386719e-01,5.644933700561523438e+01,-1.640118255615234375e+02,6.603961181640625000e+01,-1.058743286132812500e+02,8.133203887939453125e+01,1.465239906311035156e+01,5.747432708740234375e+01,1.737232208251953125e+02,3.514703369140625000e+01,5.410639190673828125e+01
8.320000171661376953e-01,2.000000000000000000e+00,2.226834297180175781e+01,-7.223983407020568848e-01,5.642249298095703125e+01,-1.640210113525390625e+02,6.604136657714843750e+01,-1.058566589355468750e+02,8.129956817626953125e+01,1.463224411010742188e+01,5.744686889648437500e+01,1.737335815429687500e+02,3.516180419921875000e+01,5.409714889526367188e+01
8.360000252723693848e-01,2.000000000000000000e+00,2.220227622985839844e+01,-6.917434930801391602e-01,5.639565277099609375e+01,-1.640301971435546875e+02,6.604312133789062500e+01,-1.058389968872070312e+02,8.126710510253906250e+01,1.461209678649902344e+01,5.741942596435546875e+01,1.737439575195312500e+02,3.517656326293945312e+01,5.408790206909179688e+01
8.399999737739562988e-01,2.000000000000000000e+00,2.213623237609863281e+01,-6.610980629920959473e-01,5.636882400512695312e+01,-1.640393829345703125e+02,6.604486846923828125e+01,-1.058213272094726562e+02,8.123465728759765625e+01,1.459195613861083984e+01,5.739199066162109375e+01,1.737543182373046875e+02,3.519132232666015625e+01,5.407866287231445312e+01
8.439999818801879883e-01,2.000000000000000000e+00,2.207020568847656250e+01,-6.304622292518615723e-01,5.634200668334960938e+01,-1.640485687255859375e+02,6.604662322998046875e+01,-1.058036804199218750e+02,8.120222473144531250e+01,1.457182121276855469e+01,5.736456680297851562e+01,1.737646789550781250e+02,3.520607757568359375e+01,5.406942367553710938e+01
8.479999899864196777e-01,2.000000000000000000e+00,2.200419998168945312e+01,-5.998358726501464844e-01,5.631518936157226562e+01,-1.640577392578125000e+02,6.604837799072265625e+01,-1.057860336303710938e+02,8.116979217529296875e+01,1.455169296264648438e+01,5.733714294433593750e+01,1.737750244140625000e+02,3.522082519531250000e+01,5.406018447875976562e+01
8.519999980926513672e-01,2.000000000000000000e+00,2.193821525573730469e+01,-5.692189335823059082e-01,5.628838729858398438e+01,-1.640669250488281250e+02,6.605013275146484375e+01,-1.057683868408203125e+02,8.113737487792968750e+01,1.453157043457031250e+01,5.730973434448242188e+01,1.737853851318359375e+02,3.523556900024414062e+01,5.405095672607421875e+01
8.560000061988830566e-01,2.000000000000000000e+00,2.187225151062011719e+01,-5.386115312576293945e-01,5.626158905029296875e+01,-1.640760955810546875e+02,6.605188751220703125e+01,-1.057507476806640625e+02,8.110496520996093750e+01,1.451145458221435547e+01,5.728233337402343750e+01,1.737957305908203125e+02,3.525030899047851562e+01,5.404172515869140625e+01
8.600000143051147461e-01,2.000000000000000000e+00,2.180630874633789062e+01,-5.080135464668273926e-01,5.623480224609375000e+01,-1.640852508544921875e+02,6.605363464355468750e+01,-1.057331161499023438e+02,8.107257080078125000e+01,1.449134445190429688e+01,5.725494003295898438e+01,1.738060760498046875e+02,3.526504516601562500e+01,5.403249740600585938e+01
8.640000224113464355e-01,2.000000000000000000e+00,2.174038505554199219e+01,-4.774250984191894531e-01,5.620802307128906250e+01,-1.640944366455078125e+02,6.605538940429687500e+01,-1.057154922485351562e+02,8.104018402099609375e+01,1.447124195098876953e+01,5.722755432128906250e+01,1.738164215087890625e+02,3.527977371215820312e+01,5.402327346801757812e+01
8.679999709129333496e-01,2.000000000000000000e+00,2.167448234558105469e+01,-4.468460679054260254e-01,5.618125534057617188e+01,-1.641036071777343750e+02,6.605713653564453125e+01,-1.056978683471679688e+02,8.100779724121093750e+01,1.445114326477050781e+01,5.720017623901367188e+01,1.738267517089843750e+02,3.529450225830078125e+01,5.401405334472656250e+01
8.719999790191650391e-01,2.000000000000000000e+00,2.160860061645507812e+01,-4.162765145301818848e-01,5.615449142456054688e+01,-1.641127471923828125e+02,6.605888366699218750e+01,-1.056802520751953125e+02,8.097543334960937500e+01,1.443105220794677734e+01,5.717280960083007812e+01,1.738370971679687500e+02,3.530922317504882812e+01,5.400483322143554688e+01
8.759999871253967285e-01,2.000000000000000000e+00,2.154273796081542969e+01,-3.857164084911346436e-01,5.612773513793945312e+01,-1.641219177246093750e+02,6.606063079833984375e+01,-1.056626434326171875e+02,8.094307708740234375e+01,1.441096878051757812e+01,5.714545059204101562e+01,1.738474273681640625e+02,3.532394027709960938e+01,5.399561691284179688e+01
8.799999952316284180e-01,2.000000000000000000e+00,2.147689437866210938e+01,-3.551656901836395264e-01,5.610099029541015625e+01,-1.641310729980468750e+02,6.606238555908203125e+01,-1.056450347900390625e+02,8.091072845458984375e+01,1.439088916778564453e+01,5.711809921264648438e+01,1.738577575683593750e+02,3.533864974975585938e+01,5.398640823364257812e+01
8.840000033378601074e-01,2.000000000000000000e+00,2.141107368469238281e+01,-3.246244192123413086e-01,5.607425308227539062e+01,-1.641402282714843750e+02,6.606413269042968750e+01,-1.056274414062500000e+02,8.087838745117187500e+01,1.437081718444824219e+01,5.709075546264648438e+01,1.738680877685546875e+02,3.535335922241210938e+01,5.397719573974609375e+01
8.880000114440917969e-01,2.000000000000000000e+00,2.134527206420898438e+01,-2.940925657749176025e-01,5.604752349853515625e+01,-1.641493835449218750e+02,6.606587982177734375e+01,-1.056098480224609375e+02,8.084606170654296875e+01,1.435074996948242188e+01,5.706341934204101562e+01,1.738784027099609375e+02,3.536806106567382812e+01,5.396799087524414062e+01
8.920000195503234863e-01,2.000000000000000000e+00,2.127949142456054688e+01,-2.635701298713684082e-01,5.602080154418945312e+01,-1.641585235595703125e+02,6.606762695312500000e+01,-1.055922622680664062e+02,8.081374359130859375e+01,1.433068943023681641e+01,5.703609466552734375e+01,1.738887329101562500e+02,3.538276290893554688e+01,5.395878601074218750e+01
8.960000276565551758e-01,2.000000000000000000e+00,2.121373176574707031e+01,-2.330570816993713379e-01,5.599409103393554688e+01,-1.641676635742187500e+02,6.606936645507812500e+01,-1.055746688842773438e+02,8.078143310546875000e+01,1.431063652038574219e+01,5.700877761840820312e+01,1.738990478515625000e+02,3.539745712280273438e+01,5.394958114624023438e+01
8.999999761581420898e-01,2.000000000000000000e+00,2.114799118041992188e+01,-2.025534361600875854e-01,5.596738433837890625e+01,-1.641768188476562500e+02,6.607112121582031250e+01,-1.055570983886718750e+02,8.074913024902343750e+01,1.429058837890625000e+01,5.698146820068359375e+01,1.739093627929687500e+02,3.541214752197265625e+01,5.394038391113281250e+01
9.039999842643737793e-01,2.000000000000000000e+00,2.108226966857910156e+01,-1.720591932535171509e-01,5.594068908691406250e+01,-1.641859588623046875e+02,6.607286834716796875e+01,-1.055395278930664062e+02,8.071685028076171875e+01,1.427054691314697266e+01,5.695416641235351562e+01,1.739196777343750000e+02,3.542683410644531250e+01,5.393118667602539062e+01
9.079999923706054688e-01,2.000000000000000000e+00,2.101657104492187500e+01,-1.415743082761764526e-01,5.591399765014648438e+01,-1.641950988769531250e+02,6.607460784912109375e+01,-1.055219573974609375e+02,8.068457031250000000e+01,1.425051116943359375e+01,5.692687606811523438e+01,1.739299926757812500e+02,3.544151306152343750e+01,5.392199325561523438e+01
9.120000004768371582e-01,2.000000000000000000e+00,2.095088958740234375e+01,-1.110988184809684753e-01,5.588731765747070312e+01,-1.642042236328125000e+02,6.607634735107421875e+01,-1.055043945312500000e+02,8.065229797363281250e+01,1.423048114776611328e+01,5.689959335327148438e+01,1.739402923583984375e+02,3.545618820190429688e+01,5.391280364990234375e+01
9.160000085830688477e-01,2.000000000000000000e+00,2.088523101806640625e+01,-8.063268661499023438e-02,5.586064529418945312e+01,-1.642133636474609375e+02,6.607810211181640625e+01,-1.054868392944335938e+02,8.062003326416015625e+01,1.421045780181884766e+01,5.687231445312500000e+01,1.739505920410156250e+02,3.547085952758789062e+01,5.390361785888671875e+01
9.200000166893005371e-01,2.000000000000000000e+00,2.081959152221679688e+01,-5.017591267824172974e-02,5.583398056030273438e+01,-1.642224884033203125e+02,6.607984161376953125e+01,-1.054692916870117188e+02,8.058779144287109375e+01,1.419044113159179688e+01,5.684505081176757812e+01,1.739608917236328125e+02,3.548552703857421875e+01,5.389443588256835938e+01
9.240000247955322266e-01,2.000000000000000000e+00,2.075397300720214844e+01,-1.972849480807781219e-02,5.580732345581054688e+01,-1.642316131591796875e+02,6.608158111572265625e+01,-1.054517440795898438e+02,8.055554962158203125e+01,1.417043018341064453e+01,5.681779098510742188e+01,1.739711914062500000e+02,3.550018692016601562e+01,5.388525009155273438e+01
9.279999732971191406e-01,2.000000000000000000e+00,2.068837356567382812e+01,1.070957817137241364e-02,5.578067779541015625e+01,-1.642407379150390625e+02,6.608332061767578125e+01,-1.054342041015625000e+02,8.052332305908203125e+01,1.415042591094970703e+01,5.679054260253906250e+01,1.739814758300781250e+02,3.551485061645507812e+01,5.387607192993164062e+01
9.319999814033508301e-01,2.000000000000000000e+00,2.062279319763183594e+01,4.113831371068954468e-02,5.575403976440429688e+01,-1.642498474121093750e+02,6.608506774902343750e+01,-1.054166717529296875e+02,8.049110412597656250e+01,1.413042736053466797e+01,5.676329803466796875e+01,1.739917602539062500e+02,3.552950286865234375e+01,5.386689376831054688e+01
9.359999895095825195e-01,2.000000000000000000e+00,2.055723571777343750e+01,7.155771553516387939e-02,5.572740936279296875e+01,-1.642589721679687500e+02,6.608680725097656250e+01,-1.053991470336914062e+02,8.045889282226562500e+01,1.411043548583984375e+01,5.673606491088867188e+01,1.740020446777343750e+02,3.554415130615234375e+01,5.385772323608398438e+01
9.399999976158142090e-01,2.000000000000000000e+00,2.049169731140136719e+01,1.019678041338920593e-01,5.570078277587890625e+01,-1.642680816650390625e+02,6.608854675292968750e+01,-1.053816146850585938e+02,8.042669677734375000e+01,1.409044837951660156e+01,5.670883941650390625e+01,1.740123291015625000e+02,3.555879592895507812e+01,5.384855270385742188e+01
9.440000057220458984e-01,2.000000000000000000e+00,2.042617797851562500e+01,1.323685795068740845e-01,5.567417144775390625e+01,-1.642771911621093750e+02,6.609029388427734375e+01,-1.053640975952148438e+02,8.039450073242187500e+01,1.407046794891357422e+01,5.668162155151367188e+01,1.740226287841796875e+02,3.557343673706054688e+01,5.383938598632812500e+01
9.480000138282775879e-01,2.000000000000000000e+00,2.036067771911621094e+01,1.627600342035293579e-01,5.564756393432617188e+01,-1.642863159179687500e+02,6.609202575683593750e+01,-1.053465881347656250e+02,8.036232757568359375e+01,1.405049419403076172e+01,5.665441131591796875e+01,1.740328979492187500e+02,3.558807373046875000e+01,5.383021926879882812e+01
9.520000219345092773e-01,2.000000000000000000e+00,2.029520034790039062e+01,1.931421905755996704e-01,5.562096405029296875e+01,-1.642954254150390625e+02,6.609376525878906250e+01,-1.053290786743164062e+02,8.033015441894531250e+01,1.403052616119384766e+01,5.662720870971679688e+01,1.740431671142578125e+02,3.560270309448242188e+01,5.382105636596679688e+01
9.559999704360961914e-01,2.000000000000000000e+00,2.022974205017089844e+01,2.235150486230850220e-01,5.559437179565429688e+01,-1.643045196533203125e+02,6.609551239013671875e+01,-1.053115768432617188e+02,8.029799652099609375e+01,1.401056385040283203e+01,5.660002136230468750e+01,1.740534362792968750e+02,3.561732864379882812e+01,5.381189727783203125e+01
9.599999785423278809e-01,2.000000000000000000e+00,2.016430282592773438e+01,2.538786530494689941e-01,5.556779098510742188e+01,-1.643136138916015625e+02,6.609724426269531250e+01,-1.052940826416015625e+02,8.026584625244140625e+01,1.399060821533203125e+01,5.657283401489257812e+01,1.740637054443359375e+02,3.563195419311523438e+01,5.380274200439453125e+01
9.639999866485595703e-01,2.000000000000000000e+00,2.009888458251953125e+01,2.842329442501068115e-01,5.554121780395507812e+01,-1.643227081298828125e+02,6.609897613525390625e+01,-1.052765884399414062e+02,8.023370361328125000e+01,1.397065830230712891e+01,5.654566192626953125e+01,1.740739746093750000e+02,3.564656829833984375e+01,5.379359054565429688e+01
9.679999947547912598e-01,2.000000000000000000e+00,2.003348541259765625e+01,3.145779371261596680e-01,5.551465225219726562e+01,-1.643318176269531250e+02,6.610072326660156250e+01,-1.052591018676757812e+02,8.020156860351562500e+01,1.395071506500244141e+01,5.651849365234375000e+01,1.740842285156250000e+02,3.566118240356445312e+01,5.378443908691406250e+01
9.720000028610229492e-01,2.000000000000000000e+00,1.996810531616210938e+01,3.449137210845947266e-01,5.548809051513671875e+01,-1.643409118652343750e+02,6.610245513916015625e+01,-1.052416152954101562e+02,8.016945648193359375e+01,1.393077754974365234e+01,5.649133300781250000e+01,1.740944824218750000e+02,3.567579269409179688e+01,5.377529144287109375e+01
9.760000109672546387e-01,2.000000000000000000e+00,1.990274810791015625e+01,3.752402067184448242e-01,5.546154403686523438e+01,-1.643499908447265625e+02,6.610418701171875000e+01,-1.052241439819335938e+02,8.013733673095703125e+01,1.391084575653076172e+01,5.646418380737304688e+01,1.741047363281250000e+02,3.569039535522460938e+01,5.376614761352539062e+01
9.800000190734863281e-01,2.000000000000000000e+00,1.983740806579589844e+01,4.055574834346771240e-01,5.543500137329101562e+01,-1.643590850830078125e+02,6.610592651367187500e+01,-1.052066726684570312e+02,8.010523986816406250e+01,1.389092063903808594e+01,5.643704223632812500e+01,1.741149902343750000e+02,3.570499801635742188e+01,5.375700378417968750e+01
9.840000271797180176e-01,2.000000000000000000e+00,1.977208900451660156e+01,4.358654916286468506e-01,5.540846633911132812e+01,-1.643681640625000000e+02,6.610765838623046875e+01,-1.051892089843750000e+02,8.007315063476562500e+01,1.387100124359130859e+01,5.640990829467773438e+01,1.741252441406250000e+02,3.571959304809570312e+01,5.374786758422851562e+01
9.879999756813049316e-01,2.000000000000000000e+00,1.970679092407226562e+01,4.661642611026763916e-01,5.538193893432617188e+01,-1.643772430419921875e+02,6.610939788818359375e+01,-1.051717529296875000e+02,8.004106903076171875e+01,1.385108852386474609e+01,5.638278198242187500e+01,1.741354827880859375e+02,3.573418426513671875e+01,5.373872756958007812e+01
9.919999837875366211e-01,2.000000000000000000e+00,1.964151191711425781e+01,4.964537918567657471e-01,5.535542297363281250e+01,-1.643863372802734375e+02,6.611112976074218750e+01,-1.051542968750000000e+02,8.000899505615234375e+01,1.383118057250976562e+01,5.635566711425781250e+01,1.741457214355468750e+02,3.574877166748046875e+01,5.372959518432617188e+01
9.959999918937683105e-01,2.000000000000000000e+00,1.957625389099121094e+01,5.267341732978820801e-01,5.532891464233398438e+01,-1.643954010009765625e+02,6.611286163330078125e+01,-1.051368408203125000e+02,7.997693634033203125e+01,1.381127929687500000e+01,5.632855224609375000e+01,1.741559600830078125e+02,3.576335144042968750e+01,5.372046279907226562e+01
1.000000000000000000e+00,2.000000000000000000e+00,1.951101493835449219e+01,5.570052266120910645e-01,5.530241394042968750e+01,-1.644044647216796875e+02,6.611459350585937500e+01,-1.051194076538085938e+02,7.994487762451171875e+01,1.379138469696044922e+01,5.630145645141601562e+01,1.741661987304687500e+02,3.577793121337890625e+01,5.371133422851562500e+01
1.003999948501586914e+00,2.000000000000000000e+00,1.944579505920410156e+01,5.872671604156494141e-01,5.527592086791992188e+01,-1.644135437011718750e+02,6.611632537841796875e+01,-1.051019592285156250e+02,7.991284179687500000e+01,1.377149581909179688e+01,5.627436447143554688e+01,1.741764373779296875e+02,3.579250335693359375e+01,5.370220947265625000e+01
1.008000016212463379e+00,2.000000000000000000e+00,1.938059616088867188e+01,6.175198554992675781e-01,5.524943542480468750e+01,-1.644226074218750000e+02,6.611805725097656250e+01,-1.050845336914062500e+02,7.988080596923828125e+01,1.375161266326904297e+01,5.624727630615234375e+01,1.741866760253906250e+02,3.580707168579101562e+01,5.369308471679687500e+01
1.011999964714050293e+00,2.000000000000000000e+00,1.931541442871093750e+01,6.477633714675903320e-01,5.522295761108398438e+01,-1.644316711425781250e+02,6.611978912353515625e+01,-1.050671005249023438e+02,7.984878540039062500e+01,1.373173618316650391e+01,5.622019958496093750e+01,1.741968841552734375e+02,3.582163619995117188e+01,5.368396759033203125e+01
1.016000032424926758e+00,2.000000000000000000e+00,1.925025558471679688e+01,6.779977083206176758e-01,5.519648742675781250e+01,-1.644407348632812500e+02,6.612152099609375000e+01,-1.050496826171875000e+02,7.981677246093750000e+01,1.371186542510986328e+01,5.619313049316406250e+01,1.742071228027343750e+02,3.583619689941406250e+01,5.367484664916992188e+01
1.019999980926513672e+00,2.000000000000000000e+00,1.918511581420898438e+01,7.082228660583496094e-01,5.517002868652343750e+01,-1.644497985839843750e+02,6.612325286865234375e+01,-1.050322647094726562e+02,7.978476715087890625e+01,1.369200038909912109e+01,5.616607284545898438e+01,1.742173309326171875e+02,3.585074996948242188e+01,5.366573333740234375e+01
1.024000048637390137e+00,2.000000000000000000e+00,1.911999511718750000e+01,7.384387850761413574e-01,5.514357376098632812e+01,-1.644588470458984375e+02,6.612498474121093750e+01,-1.050148468017578125e+02,7.975276947021484375e+01,1.367214202880859375e+01,5.613902282714843750e+01,1.742275543212890625e+02,3.586530303955078125e+01,5.365662002563476562e+01
1.026999950408935547e+00,2.000000000000000000e+00,1.905489349365234375e+01,7.686456441879272461e-01,5.511712646484375000e+01,-1.644679107666015625e+02,6.612670898437500000e+01,-1.049974441528320312e+02,7.972078704833984375e+01,1.365228939056396484e+01,5.611198043823242188e+01,1.742377624511718750e+02,3.587985229492187500e+01,5.364751434326171875e+01
1.031999945640563965e+00,2.000000000000000000e+00,1.898981285095214844e+01,7.988433241844177246e-01,5.509069061279296875e+01,-1.644769592285156250e+02,6.612844085693359375e+01,-1.049800415039062500e+02,7.968881225585937500e+01,1.363244247436523438e+01,5.608494186401367188e+01,1.742479705810546875e+02,3.589439392089843750e+01,5.363840484619140625e+01
1.036000013351440430e+00,2.000000000000000000e+00,1.892475128173828125e+01,8.290318250656127930e-01,5.506426239013671875e+01,-1.644860076904296875e+02,6.613016510009765625e+01,-1.049626464843750000e+02,7.965685272216796875e+01,1.361260128021240234e+01,5.605791473388671875e+01,1.742581787109375000e+02,3.590893173217773438e+01,5.362929916381835938e+01
1.039999961853027344e+00,2.000000000000000000e+00,1.885971069335937500e+01,8.592112064361572266e-01,5.503783798217773438e+01,-1.644950561523437500e+02,6.613189697265625000e+01,-1.049452590942382812e+02,7.962489318847656250e+01,1.359276676177978516e+01,5.603089904785156250e+01,1.742683868408203125e+02,3.592346572875976562e+01,5.362020111083984375e+01
1.044000029563903809e+00,2.000000000000000000e+00,1.879468727111816406e+01,8.893814086914062500e-01,5.501142501831054688e+01,-1.645041046142578125e+02,6.613362121582031250e+01,-1.049278717041015625e+02,7.959294891357421875e+01,1.357293796539306641e+01,5.600388717651367188e+01,1.742785949707031250e+02,3.593799209594726562e+01,5.361110305786132812e+01
1.047999978065490723e+00,2.000000000000000000e+00,1.872968482971191406e+01,9.195424914360046387e-01,5.498501968383789062e+01,-1.645131378173828125e+02,6.613534545898437500e+01,-1.049104919433593750e+02,7.956101226806640625e+01,1.355311584472656250e+01,5.597688293457031250e+01,1.742887878417968750e+02,3.595251846313476562e+01,5.360200881958007812e+01
1.052000045776367188e+00,2.000000000000000000e+00,1.866470336914062500e+01,9.496945142745971680e-01,5.495862579345703125e+01,-1.645221710205078125e+02,6.613706970214843750e+01,-1.048931121826171875e+02,7.952908325195312500e+01,1.353329849243164062e+01,5.594988632202148438e+01,1.742989807128906250e+02,3.596703720092773438e+01,5.359291458129882812e+01
1.054999947547912598e+00,2.000000000000000000e+00,1.859974098205566406e+01,9.798374176025390625e-01,5.493223571777343750e+01,-1.645312194824218750e+02,6.613880157470703125e+01,-1.048757476806640625e+02,7.949716949462890625e+01,1.351348781585693359e+01,5.592290115356445312e+01,1.743091735839843750e+02,3.598155593872070312e+01,5.358382415771484375e+01
1.059999942779541016e+00,2.000000000000000000e+00,1.853479766845703125e+01,1.009971141815185547e+00,5.490585708618164062e+01,-1.645402374267578125e+02,6.614051818847656250e+01,-1.048583831787109375e+02,7.946526336669921875e+01,1.349368381500244141e+01,5.589592742919921875e+01,1.743193664550781250e+02,3.599606704711914062e+01,5.357473754882812500e+01
1.064000010490417480e+00,2.000000000000000000e+00,1.846987342834472656e+01,1.040095806121826172e+00,5.487948226928710938e+01,-1.645492706298828125e+02,6.614225006103515625e+01,-1.048410186767578125e+02,7.943336486816406250e+01,1.347388458251953125e+01,5.586895370483398438e+01,1.743295593261718750e+02,3.601057434082031250e+01,5.356565475463867188e+01
1.067999958992004395e+00,2.000000000000000000e+00,1.840497016906738281e+01,1.070211410522460938e+00,5.485311508178710938e+01,-1.645582885742187500e+02,6.614396667480468750e+01,-1.048236694335937500e+02,7.940147399902343750e+01,1.345409107208251953e+01,5.584199523925781250e+01,1.743397369384765625e+02,3.602507781982421875e+01,5.355657196044921875e+01
1.072000026702880859e+00,2.000000000000000000e+00,1.834008407592773438e+01,1.100317716598510742e+00,5.482675933837890625e+01,-1.645673217773437500e+02,6.614569091796875000e+01,-1.048063201904296875e+02,7.936959838867187500e+01,1.343430423736572266e+01,5.581504058837890625e+01,1.743499145507812500e+02,3.603957366943359375e+01,5.354749679565429688e+01
1.075999975204467773e+00,2.000000000000000000e+00,1.827521896362304688e+01,1.130415201187133789e+00,5.480041122436523438e+01,-1.645763397216796875e+02,6.614741516113281250e+01,-1.047889785766601562e+02,7.933773040771484375e+01,1.341452407836914062e+01,5.578809356689453125e+01,1.743600921630859375e+02,3.605406951904296875e+01,5.353841781616210938e+01
1.080000042915344238e+00,2.000000000000000000e+00,1.821037483215332031e+01,1.160503506660461426e+00,5.477406692504882812e+01,-1.645853576660156250e+02,6.614913940429687500e+01,-1.047716369628906250e+02,7.930587005615234375e+01,1.339474868774414062e+01,5.576115798950195312e+01,1.743702697753906250e+02,3.606855773925781250e+01,5.352934265136718750e+01
1.083999991416931152e+00,2.000000000000000000e+00,1.814554786682128906e+01,1.190582752227783203e+00,5.474773406982421875e+01,-1.645943756103515625e+02,6.615086364746093750e+01,-1.047543029785156250e+02,7.927402496337890625e+01,1.337497997283935547e+01,5.573423004150390625e+01,1.743804473876953125e+02,3.608304595947265625e+01,5.352027511596679688e+01
1.088000059127807617e+00,2.000000000000000000e+00,1.808074188232421875e+01,1.220653057098388672e+00,5.472140884399414062e+01,-1.646033782958984375e+02,6.615258026123046875e+01,-1.047369766235351562e+02,7.924217987060546875e+01,1.335521697998046875e+01,5.570730590820312500e+01,1.743906097412109375e+02,3.609752655029296875e+01,5.351120758056640625e+01
1.090999960899353027e+00,2.000000000000000000e+00,1.801595687866210938e+01,1.250714182853698730e+00,5.469509506225585938e+01,-1.646123962402343750e+02,6.615430450439453125e+01,-1.047196578979492188e+02,7.921035003662109375e+01,1.333546066284179688e+01,5.568039321899414062e+01,1.744007720947265625e+02,3.611200332641601562e+01,5.350214004516601562e+01
1.095999956130981445e+00,2.000000000000000000e+00,1.795118904113769531e+01,1.280766248703002930e+00,5.466878509521484375e+01,-1.646213989257812500e+02,6.615602111816406250e+01,-1.047023315429687500e+02,7.917853546142578125e+01,1.331570911407470703e+01,5.565348815917968750e+01,1.744109344482421875e+02,3.612647628784179688e+01,5.349308013916015625e+01
1.100000023841857910e+00,2.000000000000000000e+00,1.788644027709960938e+01,1.310809254646301270e+00,5.464247894287109375e+01,-1.646304016113281250e+02,6.615773773193359375e+01,-1.046850280761718750e+02,7.914672088623046875e+01,1.329596424102783203e+01,5.562659072875976562e+01,1.744210968017578125e+02,3.614094161987304688e+01,5.348402023315429688e+01
1.103999972343444824e+00,2.000000000000000000e+00,1.782171249389648438e+01,1.340843319892883301e+00,5.461618804931640625e+01,-1.646394042968750000e+02,6.615946197509765625e+01,-1.046677169799804688e+02,7.911492156982421875e+01,1.327622509002685547e+01,5.559970474243164062e+01,1.744312438964843750e+02,3.615540695190429688e+01,5.347496032714843750e+01
1.108000040054321289e+00,2.000000000000000000e+00,1.775700378417968750e+01,1.370868444442749023e+00,5.458990097045898438e+01,-1.646484069824218750e+02,6.616117858886718750e+01,-1.046504211425781250e+02,7.908312988281250000e+01,1.325649166107177734e+01,5.557282257080078125e+01,1.744413909912109375e+02,3.616986465454101562e+01,5.346590805053710938e+01
1.111999988555908203e+00,2.000000000000000000e+00,1.769231224060058594e+01,1.400884270668029785e+00,5.456362152099609375e+01,-1.646574096679687500e+02,6.616289520263671875e+01,-1.046331176757812500e+02,7.905134582519531250e+01,1.323676395416259766e+01,5.554595184326171875e+01,1.744515380859375000e+02,3.618432235717773438e+01,5.345685577392578125e+01
1.116000056266784668e+00,2.000000000000000000e+00,1.762764358520507812e+01,1.430891394615173340e+00,5.453735351562500000e+01,-1.646663970947265625e+02,6.616461944580078125e+01,-1.046158294677734375e+02,7.901956939697265625e+01,1.321704292297363281e+01,5.551908493041992188e+01,1.744617004394531250e+02,3.619876861572265625e+01,5.344780349731445312e+01
1.118999958038330078e+00,2.000000000000000000e+00,1.756299400329589844e+01,1.460889339447021484e+00,5.451109313964843750e+01,-1.646753845214843750e+02,6.616632843017578125e+01,-1.045985412597656250e+02,7.898781585693359375e+01,1.319732666015625000e+01,5.549222946166992188e+01,1.744718475341796875e+02,3.621321868896484375e+01,5.343876266479492188e+01
1.123999953269958496e+00,2.000000000000000000e+00,1.749836158752441406e+01,1.490878105163574219e+00,5.448483657836914062e+01,-1.646843719482421875e+02,6.616804504394531250e+01,-1.045812606811523438e+02,7.895606231689453125e+01,1.317761707305908203e+01,5.546538162231445312e+01,1.744819793701171875e+02,3.622765731811523438e+01,5.342971420288085938e+01
