rpiRobotics/ARM-21-02-F-19-Robot-Motion-Program/data_performance_abb/curve_1/baseline/0.1/curve_exe_v187.5_z10.csv
timestamp, cmd_num, J1, J2, J3, J4, J5, J6
0, -1, 11.7062, 15.4772, 16.3486, -145.703, -100.114, 139.863
0.002, -1, 11.7062, 15.4772, 16.3486, -145.703, -100.114, 139.863
0.006, -1, 11.7062, 15.4772, 16.3486, -145.703, -100.114, 139.863
0.008, -1, 11.7062, 15.4772, 16.3486, -145.703, -100.114, 139.863
0.011, -1, 11.7062, 15.4772, 16.3486, -145.703, -100.114, 139.863
0.016, -1, 11.7062, 15.4772, 16.3486, -145.703, -100.114, 139.863
0.02, -1, 11.7062, 15.4772, 16.3486, -145.703, -100.114, 139.863
0.024, -1, 11.7062, 15.4772, 16.3486, -145.703, -100.114, 139.863
0.028, -1, 11.7062, 15.4772, 16.3486, -145.703, -100.114, 139.863
0.032, -1, 11.7062, 15.4772, 16.3486, -145.703, -100.114, 139.863
0.036, -1, 11.7061, 15.4772, 16.3486, -145.703, -100.114, 139.863
0.04, -1, 11.7058, 15.4771, 16.3486, -145.703, -100.114, 139.863
0.044, -1, 11.7052, 15.477, 16.3485, -145.703, -100.114, 139.863
0.048, -1, 11.7039, 15.4768, 16.3484, -145.703, -100.114, 139.863
0.052, -1, 11.7018, 15.4765, 16.3481, -145.703, -100.114, 139.863
0.056, -1, 11.6988, 15.476, 16.3478, -145.703, -100.114, 139.862
0.06, -1, 11.6948, 15.4752, 16.3474, -145.703, -100.114, 139.861
0.064, -1, 11.6896, 15.4741, 16.3468, -145.704, -100.114, 139.859
0.068, -1, 11.6831, 15.4726, 16.3462, -145.704, -100.114, 139.856
0.072, -1, 11.6751, 15.4707, 16.3455, -145.705, -100.113, 139.851
0.076, -1, 11.6652, 15.4682, 16.3448, -145.706, -100.113, 139.844
0.08, -1, 11.6531, 15.4651, 16.344, -145.708, -100.112, 139.835
0.084, -1, 11.6385, 15.4612, 16.3433, -145.71, -100.111, 139.821
0.088, -1, 11.621, 15.4565, 16.3427, -145.714, -100.11, 139.804
0.092, -1, 11.6008, 15.4509, 16.3423, -145.718, -100.108, 139.781
0.096, -1, 11.5777, 15.4445, 16.3423, -145.723, -100.106, 139.753
0.1, -1, 11.5518, 15.4372, 16.3427, -145.729, -100.103, 139.718
0.104, -1, 11.5231, 15.429, 16.3437, -145.737, -100.1, 139.675
0.108, -1, 11.4914, 15.4198, 16.3454, -145.746, -100.096, 139.625
0.112, -1, 11.4566, 15.4096, 16.3477, -145.757, -100.091, 139.566
0.116, -1, 11.4185, 15.3984, 16.3507, -145.769, -100.086, 139.5
0.12, -1, 11.3772, 15.3861, 16.3543, -145.783, -100.079, 139.424
0.124, -1, 11.3327, 15.3728, 16.3585, -145.798, -100.073, 139.341
0.128, -1, 11.2849, 15.3586, 16.3633, -145.815, -100.065, 139.251
0.131, -1, 11.2342, 15.3434, 16.3686, -145.833, -100.057, 139.153
0.136, -1, 11.1807, 15.3273, 16.3744, -145.852, -100.049, 139.048
0.139, -1, 11.1242, 15.3104, 16.3805, -145.872, -100.04, 138.938
0.144, -1, 11.065, 15.2927, 16.3868, -145.893, -100.03, 138.823
0.148, -1, 11.0031, 15.2741, 16.3932, -145.915, -100.021, 138.703
0.152, -1, 10.9386, 15.2548, 16.3997, -145.937, -100.01, 138.58
0.156, -1, 10.8719, 15.2349, 16.4061, -145.96, -100, 138.454
0.16, -1, 10.8031, 15.2144, 16.4125, -145.983, -99.9898, 138.325
0.164, -1, 10.7327, 15.1934, 16.4187, -146.007, -99.9792, 138.195
0.168, -1, 10.661, 15.172, 16.4249, -146.031, -99.9685, 138.064
0.172, -1, 10.588, 15.1504, 16.4311, -146.055, -99.9578, 137.932
0.176, -1, 10.5141, 15.1285, 16.4371, -146.08, -99.947, 137.799
0.18, -1, 10.4394, 15.1063, 16.4431, -146.104, -99.9361, 137.665
0.184, -1, 10.3639, 15.0841, 16.4491, -146.128, -99.9252, 137.531
0.188, -1, 10.2878, 15.0617, 16.455, -146.153, -99.9144, 137.397
0.192, -1, 10.2112, 15.0392, 16.4609, -146.177, -99.9035, 137.263
0.196, -1, 10.1344, 15.0167, 16.4667, -146.202, -99.8926, 137.128
0.2, -1, 10.0573, 14.9942, 16.4726, -146.226, -99.8817, 136.994
0.204, -1, 9.98014, 14.9716, 16.4784, -146.251, -99.8708, 136.859
0.208, -1, 9.90285, 14.949, 16.4842, -146.276, -99.8598, 136.724
0.212, -1, 9.82549, 14.9264, 16.49, -146.3, -99.8489, 136.59
0.216, -1, 9.74808, 14.9038, 16.4958, -146.325, -99.838, 136.455
0.22, -1, 9.67064, 14.8812, 16.5016, -146.349, -99.8271, 136.32
0.224, -1, 9.59317, 14.8585, 16.5074, -146.374, -99.8162, 136.185
0.228, -1, 9.51568, 14.8359, 16.5132, -146.399, -99.8052, 136.05
0.232, -1, 9.43817, 14.8133, 16.519, -146.423, -99.7943, 135.916
0.236, -1, 9.36066, 14.7906, 16.5248, -146.448, -99.7834, 135.781
0.24, -1, 9.28313, 14.768, 16.5306, -146.472, -99.7724, 135.646
0.244, -1, 9.20559, 14.7453, 16.5364, -146.497, -99.7615, 135.511
0.248, -1, 9.12805, 14.7227, 16.5422, -146.522, -99.7506, 135.376
0.252, -1, 9.05049, 14.7, 16.5481, -146.546, -99.7397, 135.241
0.256, -1, 8.97293, 14.6774, 16.5539, -146.571, -99.7287, 135.106
0.26, -1, 8.89536, 14.6547, 16.5597, -146.595, -99.7178, 134.971
0.264, -1, 8.81779, 14.6321, 16.5655, -146.62, -99.7069, 134.836
0.268, -1, 8.74021, 14.6094, 16.5713, -146.645, -99.6959, 134.702
0.272, -1, 8.66262, 14.5868, 16.5771, -146.669, -99.685, 134.567
0.276, -1, 8.58503, 14.5641, 16.5829, -146.694, -99.6741, 134.432
0.28, -1, 8.50743, 14.5415, 16.5887, -146.719, -99.6631, 134.297
0.284, -1, 8.42982, 14.5188, 16.5945, -146.743, -99.6522, 134.162
0.288, -1, 8.35221, 14.4961, 16.6003, -146.768, -99.6412, 134.027
0.292, -1, 8.27459, 14.4734, 16.6061, -146.792, -99.6303, 133.892
0.296, -1, 8.19696, 14.4508, 16.6119, -146.817, -99.6194, 133.757
0.3, -1, 8.11933, 14.4281, 16.6178, -146.842, -99.6084, 133.622
0.304, -1, 8.04169, 14.4054, 16.6236, -146.866, -99.5975, 133.487
0.308, -1, 7.96404, 14.3828, 16.6294, -146.891, -99.5865, 133.352
0.312, -1, 7.88639, 14.3601, 16.6352, -146.916, -99.5756, 133.216
0.316, -1, 7.80873, 14.3374, 16.641, -146.94, -99.5646, 133.081
0.32, -1, 7.73107, 14.3147, 16.6468, -146.965, -99.5537, 132.946
0.324, -1, 7.6534, 14.292, 16.6526, -146.99, -99.5428, 132.811
0.328, -1, 7.57572, 14.2693, 16.6585, -147.014, -99.5318, 132.676
0.332, -1, 7.49803, 14.2467, 16.6643, -147.039, -99.5209, 132.541
0.336, -1, 7.42034, 14.224, 16.6701, -147.064, -99.5099, 132.406
0.34, -1, 7.34264, 14.2013, 16.6759, -147.088, -99.499, 132.271
0.344, -1, 7.26494, 14.1786, 16.6817, -147.113, -99.488, 132.136
0.348, -1, 7.18723, 14.1559, 16.6875, -147.138, -99.4771, 132
0.352, -1, 7.10951, 14.1332, 16.6934, -147.162, -99.4661, 131.865
0.356, -1, 7.03179, 14.1105, 16.6992, -147.187, -99.4551, 131.73
0.36, -1, 6.95406, 14.0878, 16.705, -147.212, -99.4442, 131.595
0.364, -1, 6.87633, 14.0651, 16.7108, -147.236, -99.4332, 131.46
0.368, -1, 6.79858, 14.0424, 16.7166, -147.261, -99.4223, 131.324
0.372, -1, 6.72084, 14.0197, 16.7225, -147.286, -99.4113, 131.189
0.376, -1, 6.64308, 13.997, 16.7283, -147.31, -99.4004, 131.054
0.38, -1, 6.56532, 13.9743, 16.7341, -147.335, -99.3894, 130.919
0.384, -1, 6.48755, 13.9516, 16.7399, -147.36, -99.3784, 130.783
0.388, -1, 6.40978, 13.9288, 16.7457, -147.384, -99.3675, 130.648
0.392, -1, 6.33199, 13.9061, 16.7516, -147.409, -99.3565, 130.513
0.396, -1, 6.25421, 13.8834, 16.7574, -147.434, -99.3456, 130.378
0.4, -1, 6.17641, 13.8607, 16.7632, -147.458, -99.3346, 130.242
0.404, -1, 6.09861, 13.838, 16.769, -147.483, -99.3236, 130.107
0.408, -1, 6.0208, 13.8152, 16.7749, -147.508, -99.3127, 129.972
0.412, -1, 5.94299, 13.7925, 16.7807, -147.532, -99.3017, 129.836
0.416, -1, 5.86517, 13.7698, 16.7865, -147.557, -99.2907, 129.701
0.42, -1, 5.78734, 13.7471, 16.7923, -147.582, -99.2798, 129.566
0.424, -1, 5.70951, 13.7243, 16.7982, -147.607, -99.2688, 129.43
0.428, -1, 5.63167, 13.7016, 16.804, -147.631, -99.2578, 129.295
0.432, -1, 5.55382, 13.6789, 16.8098, -147.656, -99.2468, 129.159
0.436, -1, 5.47597, 13.6561, 16.8156, -147.681, -99.2359, 129.024
0.44, -1, 5.39811, 13.6334, 16.8215, -147.705, -99.2249, 128.889
0.444, -1, 5.32024, 13.6107, 16.8273, -147.73, -99.2139, 128.753
0.448, -1, 5.24237, 13.5879, 16.8331, -147.755, -99.2029, 128.618
0.452, -1, 5.16449, 13.5652, 16.839, -147.78, -99.192, 128.482
0.456, -1, 5.0866, 13.5424, 16.8448, -147.804, -99.181, 128.347
0.46, -1, 5.00871, 13.5197, 16.8506, -147.829, -99.17, 128.211
0.464, -1, 4.93081, 13.4969, 16.8564, -147.854, -99.159, 128.076
0.468, -1, 4.8529, 13.4742, 16.8623, -147.878, -99.1481, 127.94
0.472, -1, 4.77498, 13.4514, 16.8681, -147.903, -99.1371, 127.805
0.476, -1, 4.69706, 13.4287, 16.8739, -147.928, -99.1261, 127.669
0.48, -1, 4.61914, 13.4059, 16.8798, -147.953, -99.1151, 127.534
0.484, -1, 4.5412, 13.3831, 16.8856, -147.977, -99.1041, 127.398
0.488, -1, 4.46326, 13.3604, 16.8914, -148.002, -99.0931, 127.263
0.492, -1, 4.38532, 13.3376, 16.8973, -148.027, -99.0822, 127.127
0.496, -1, 4.30736, 13.3148, 16.9031, -148.052, -99.0712, 126.991
0.5, -1, 4.2294, 13.2921, 16.909, -148.076, -99.0602, 126.856
0.504, -1, 4.15143, 13.2693, 16.9148, -148.101, -99.0492, 126.72
0.508, -1, 4.07346, 13.2465, 16.9206, -148.126, -99.0382, 126.585
0.512, -1, 3.99548, 13.2238, 16.9265, -148.151, -99.0272, 126.449
0.516, -1, 3.91749, 13.201, 16.9323, -148.175, -99.0162, 126.313
0.52, -1, 3.83949, 13.1782, 16.9381, -148.2, -99.0052, 126.178
0.524, -1, 3.76149, 13.1554, 16.944, -148.225, -98.9942, 126.042
0.528, -1, 3.68348, 13.1326, 16.9498, -148.25, -98.9832, 125.906
0.532, -1, 3.60547, 13.1099, 16.9557, -148.274, -98.9723, 125.771
0.536, -1, 3.52745, 13.0871, 16.9615, -148.299, -98.9613, 125.635
0.54, -1, 3.44942, 13.0643, 16.9673, -148.324, -98.9503, 125.499
0.544, -1, 3.37138, 13.0415, 16.9732, -148.349, -98.9393, 125.363
0.548, -1, 3.29334, 13.0187, 16.979, -148.373, -98.9283, 125.228
0.552, -1, 3.21529, 12.9959, 16.9849, -148.398, -98.9173, 125.092
0.556, -1, 3.13724, 12.9731, 16.9907, -148.423, -98.9063, 124.956
0.56, -1, 3.05917, 12.9503, 16.9966, -148.448, -98.8953, 124.82
0.564, -1, 2.9811, 12.9275, 17.0024, -148.472, -98.8843, 124.685
0.568, -1, 2.90303, 12.9047, 17.0082, -148.497, -98.8732, 124.549
0.572, -1, 2.82494, 12.8819, 17.0141, -148.522, -98.8622, 124.413
0.576, -1, 2.74685, 12.8591, 17.0199, -148.547, -98.8512, 124.277
0.58, -1, 2.66876, 12.8363, 17.0258, -148.572, -98.8402, 124.141
0.584, -1, 2.59065, 12.8135, 17.0316, -148.596, -98.8292, 124.005
0.588, -1, 2.51254, 12.7907, 17.0375, -148.621, -98.8182, 123.87
0.592, -1, 2.43443, 12.7679, 17.0433, -148.646, -98.8072, 123.734
0.596, -1, 2.3563, 12.7451, 17.0492, -148.671, -98.7962, 123.598
0.6, -1, 2.27817, 12.7222, 17.055, -148.696, -98.7852, 123.462
0.604, -1, 2.20003, 12.6994, 17.0609, -148.72, -98.7742, 123.326
0.608, -1, 2.12189, 12.6766, 17.0667, -148.745, -98.7632, 123.19
0.612, -1, 2.04374, 12.6538, 17.0726, -148.77, -98.7521, 123.054
0.616, -1, 1.96558, 12.6309, 17.0784, -148.795, -98.7411, 122.918
0.62, -1, 1.88741, 12.6081, 17.0843, -148.82, -98.7301, 122.782
0.624, -1, 1.80924, 12.5853, 17.0901, -148.844, -98.7191, 122.646
0.628, -1, 1.73106, 12.5625, 17.096, -148.869, -98.7081, 122.51
0.632, -1, 1.65288, 12.5396, 17.1018, -148.894, -98.6971, 122.374
0.636, -1, 1.57468, 12.5168, 17.1077, -148.919, -98.686, 122.238
0.64, -1, 1.49648, 12.4939, 17.1135, -148.944, -98.675, 122.102
0.644, -1, 1.41828, 12.4711, 17.1194, -148.968, -98.664, 121.966
0.648, -1, 1.34007, 12.4483, 17.1252, -148.993, -98.653, 121.83
0.652, -1, 1.26185, 12.4254, 17.1311, -149.018, -98.6419, 121.694
0.656, -1, 1.18362, 12.4026, 17.137, -149.043, -98.6309, 121.558
0.66, -1, 1.10538, 12.3797, 17.1428, -149.068, -98.6199, 121.422
0.664, -1, 1.02714, 12.3569, 17.1487, -149.093, -98.6089, 121.286
0.668, -1, 0.948897, 12.334, 17.1545, -149.117, -98.5978, 121.15
0.672, -1, 0.870643, 12.3112, 17.1604, -149.142, -98.5868, 121.014
0.676, -1, 0.792381, 12.2883, 17.1662, -149.167, -98.5758, 120.878
0.68, -1, 0.714113, 12.2655, 17.1721, -149.192, -98.5648, 120.742
0.684, -1, 0.635839, 12.2426, 17.178, -149.217, -98.5537, 120.605
0.688, -1, 0.557557, 12.2197, 17.1838, -149.242, -98.5427, 120.469
0.692, -1, 0.479268, 12.1969, 17.1897, -149.267, -98.5317, 120.333
0.696, -1, 0.400972, 12.174, 17.1955, -149.291, -98.5206, 120.197
0.7, -1, 0.32267, 12.1511, 17.2014, -149.316, -98.5096, 120.061
0.704, -1, 0.24436, 12.1283, 17.2073, -149.341, -98.4985, 119.925
0.708, -1, 0.166043, 12.1054, 17.2131, -149.366, -98.4875, 119.788
0.712, -1, 0.0877193, 12.0825, 17.219, -149.391, -98.4765, 119.652
0.716, -1, 0.00938835, 12.0596, 17.2249, -149.416, -98.4654, 119.516
0.72, -1, -0.0689497, 12.0368, 17.2307, -149.441, -98.4544, 119.38
0.724, -1, -0.147295, 12.0139, 17.2366, -149.465, -98.4433, 119.243
0.728, -1, -0.225647, 11.991, 17.2425, -149.49, -98.4323, 119.107
0.732, -1, -0.304006, 11.9681, 17.2483, -149.515, -98.4213, 118.971
0.736, -1, -0.382373, 11.9452, 17.2542, -149.54, -98.4102, 118.834
0.74, -1, -0.460746, 11.9224, 17.2601, -149.565, -98.3992, 118.698
0.744, -1, -0.539127, 11.8995, 17.2659, -149.59, -98.3881, 118.562
0.748, -1, -0.617514, 11.8766, 17.2718, -149.615, -98.3771, 118.425
0.752, -1, -0.695909, 11.8537, 17.2777, -149.639, -98.366, 118.289
0.756, -1, -0.774311, 11.8308, 17.2835, -149.664, -98.355, 118.153
0.76, -1, -0.85272, 11.8079, 17.2894, -149.689, -98.3439, 118.016
0.764, -1, -0.931136, 11.785, 17.2953, -149.714, -98.3329, 117.88
0.768, -1, -1.00956, 11.7621, 17.3011, -149.739, -98.3218, 117.744
0.772, -1, -1.08799, 11.7392, 17.307, -149.764, -98.3108, 117.607
0.776, -1, -1.16643, 11.7163, 17.3129, -149.789, -98.2997, 117.471
0.78, -1, -1.24487, 11.6934, 17.3187, -149.814, -98.2887, 117.334
0.784, -1, -1.32333, 11.6704, 17.3246, -149.839, -98.2776, 117.198
0.788, -1, -1.40179, 11.6475, 17.3305, -149.864, -98.2665, 117.061
0.792, -1, -1.48025, 11.6246, 17.3364, -149.888, -98.2555, 116.925
0.796, -1, -1.55873, 11.6017, 17.3422, -149.913, -98.2444, 116.788
0.8, -1, -1.63721, 11.5788, 17.3481, -149.938, -98.2334, 116.652
0.804, -1, -1.7157, 11.5559, 17.354, -149.963, -98.2223, 116.515
0.808, -1, -1.79419, 11.5329, 17.3599, -149.988, -98.2112, 116.379
0.812, -1, -1.8727, 11.51, 17.3657, -150.013, -98.2002, 116.242
0.816, -1, -1.95121, 11.4871, 17.3716, -150.038, -98.1891, 116.106
0.82, -1, -2.02973, 11.4641, 17.3775, -150.063, -98.178, 115.969
0.824, -1, -2.10825, 11.4412, 17.3834, -150.088, -98.167, 115.833
0.828, -1, -2.18679, 11.4183, 17.3893, -150.113, -98.1559, 115.696
0.832, -1, -2.26533, 11.3953, 17.3951, -150.138, -98.1448, 115.559
0.836, -1, -2.34388, 11.3724, 17.401, -150.163, -98.1338, 115.423
0.84, -1, -2.42243, 11.3495, 17.4069, -150.187, -98.1227, 115.286
0.844, -1, -2.50099, 11.3265, 17.4128, -150.212, -98.1116, 115.149
0.848, -1, -2.57956, 11.3036, 17.4187, -150.237, -98.1005, 115.013
0.852, -1, -2.65814, 11.2806, 17.4245, -150.262, -98.0895, 114.876
0.856, -1, -2.73673, 11.2577, 17.4304, -150.287, -98.0784, 114.739
0.86, -1, -2.81532, 11.2347, 17.4363, -150.312, -98.0673, 114.603
0.864, -1, -2.89392, 11.2118, 17.4422, -150.337, -98.0562, 114.466
0.868, -1, -2.97253, 11.1888, 17.4481, -150.362, -98.0452, 114.329
0.872, -1, -3.05114, 11.1658, 17.454, -150.387, -98.0341, 114.193
0.876, -1, -3.12976, 11.1429, 17.4599, -150.412, -98.023, 114.056
0.88, -1, -3.20839, 11.1199, 17.4657, -150.437, -98.0119, 113.919
0.884, -1, -3.28703, 11.097, 17.4716, -150.462, -98.0008, 113.782
0.888, -1, -3.36567, 11.074, 17.4775, -150.487, -97.9898, 113.646
0.892, -1, -3.44432, 11.051, 17.4834, -150.512, -97.9787, 113.509
0.896, -1, -3.52298, 11.028, 17.4893, -150.537, -97.9676, 113.372
0.9, -1, -3.60165, 11.0051, 17.4952, -150.562, -97.9565, 113.235
0.904, -1, -3.68032, 10.9821, 17.5011, -150.587, -97.9454, 113.098
0.908, -1, -3.759, 10.9591, 17.507, -150.612, -97.9343, 112.961
0.912, -1, -3.83769, 10.9361, 17.5128, -150.637, -97.9232, 112.825
0.916, -1, -3.91639, 10.9132, 17.5187, -150.662, -97.9121, 112.688
0.92, -1, -3.99509, 10.8902, 17.5246, -150.687, -97.901, 112.551
0.924, -1, -4.0738, 10.8672, 17.5305, -150.712, -97.89, 112.414
0.928, -1, -4.15252, 10.8442, 17.5364, -150.737, -97.8789, 112.277
0.932, -1, -4.23125, 10.8212, 17.5423, -150.762, -97.8678, 112.14
0.936, -1, -4.30998, 10.7982, 17.5482, -150.786, -97.8567, 112.003
0.94, -1, -4.38872, 10.7752, 17.5541, -150.811, -97.8456, 111.866
0.944, -1, -4.46747, 10.7522, 17.56, -150.836, -97.8345, 111.729
0.948, -1, -4.54622, 10.7292, 17.5659, -150.861, -97.8234, 111.592
0.952, -1, -4.62499, 10.7062, 17.5718, -150.886, -97.8123, 111.455
0.956, -1, -4.70376, 10.6832, 17.5777, -150.911, -97.8012, 111.318
0.96, -1, -4.78253, 10.6602, 17.5836, -150.936, -97.7901, 111.181
0.964, -1, -4.86132, 10.6372, 17.5895, -150.961, -97.779, 111.044
0.968, -1, -4.94011, 10.6142, 17.5954, -150.986, -97.7679, 110.907
0.972, -1, -5.01891, 10.5912, 17.6013, -151.012, -97.7568, 110.77
0.976, -1, -5.09772, 10.5682, 17.6072, -151.037, -97.7456, 110.633
0.98, -1, -5.17654, 10.5451, 17.6131, -151.062, -97.7345, 110.496
0.984, -1, -5.25536, 10.5221, 17.619, -151.087, -97.7234, 110.359
0.988, -1, -5.33419, 10.4991, 17.6249, -151.112, -97.7123, 110.222
0.992, -1, -5.41303, 10.4761, 17.6308, -151.137, -97.7012, 110.085
0.996, -1, -5.49187, 10.453, 17.6367, -151.162, -97.6901, 109.947
1, -1, -5.57073, 10.43, 17.6426, -151.187, -97.679, 109.81
1.004, -1, -5.64959, 10.407, 17.6485, -151.212, -97.6679, 109.673
1.008, -1, -5.72845, 10.384, 17.6544, -151.237, -97.6567, 109.536
1.012, -1, -5.80733, 10.3609, 17.6603, -151.262, -97.6456, 109.399
1.016, -1, -5.88621, 10.3379, 17.6662, -151.287, -97.6345, 109.262
1.02, -1, -5.9651, 10.3148, 17.6721, -151.312, -97.6234, 109.124
1.024, -1, -6.044, 10.2918, 17.678, -151.337, -97.6123, 108.987
1.027, -1, -6.12291, 10.2688, 17.6839, -151.362, -97.6012, 108.85
1.032, -1, -6.20182, 10.2457, 17.6898, -151.387, -97.59, 108.713
1.036, -1, -6.28074, 10.2227, 17.6957, -151.412, -97.5789, 108.575
1.04, -1, -6.35967, 10.1996, 17.7016, -151.437, -97.5678, 108.438
1.044, -1, -6.4386, 10.1766, 17.7075, -151.462, -97.5567, 108.301
1.048, -1, -6.51755, 10.1535, 17.7135, -151.487, -97.5455, 108.163
1.052, -1, -6.5965, 10.1304, 17.7194, -151.512, -97.5344, 108.026
1.055, -1, -6.67546, 10.1074, 17.7253, -151.537, -97.5233, 107.889
1.06, -1, -6.75442, 10.0843, 17.7312, -151.562, -97.5122, 107.751
1.064, -1, -6.8334, 10.0613, 17.7371, -151.587, -97.501, 107.614
1.068, -1, -6.91238, 10.0382, 17.743, -151.612, -97.4899, 107.477
1.072, -1, -6.99137, 10.0151, 17.7489, -151.638, -97.4788, 107.339
1.076, -1, -7.07036, 9.99206, 17.7548, -151.663, -97.4676, 107.202
1.08, -1, -7.14937, 9.96898, 17.7607, -151.688, -97.4565, 107.064
1.084, -1, -7.22838, 9.94591, 17.7667, -151.713, -97.4454, 106.927
1.088, -1, -7.3074, 9.92283, 17.7726, -151.738, -97.4342, 106.79
1.091, -1, -7.38642, 9.89975, 17.7785, -151.763, -97.4231, 106.652
1.096, -1, -7.46546, 9.87667, 17.7844, -151.788, -97.4119, 106.515
1.1, -1, -7.5445, 9.85359, 17.7903, -151.813, -97.4008, 106.377
1.104, -1, -7.62355, 9.8305, 17.7962, -151.838, -97.3897, 106.24
1.108, -1, -7.70261, 9.80741, 17.8022, -151.863, -97.3785, 106.102
1.112, -1, -7.78168, 9.78432, 17.8081, -151.888, -97.3674, 105.965
1.116, -1, -7.86075, 9.76123, 17.814, -151.913, -97.3562, 105.827
1.119, -1, -7.93983, 9.73814, 17.8199, -151.939, -97.3451, 105.69
1.124, -1, -8.01892, 9.71504, 17.8258, -151.964, -97.3339, 105.552
1.128, -1, -8.09802, 9.69194, 17.8318, -151.989, -97.3228, 105.414
1.132, -1, -8.17713, 9.66884, 17.8377, -152.014, -97.3116, 105.277
1.136, -1, -8.25624, 9.64573, 17.8436, -152.039, -97.3005, 105.139
1.14, -1, -8.33536, 9.62263, 17.8495, -152.064, -97.2893, 105.002
1.144, -1, -8.41449, 9.59952, 17.8555, -152.089, -97.2782, 104.864
1.147, -1, -8.49363, 9.57641, 17.8614, -152.114, -97.267, 104.726
1.152, -1, -8.57277, 9.55329, 17.8673, -152.139, -97.2559, 104.589
1.156, -1, -8.65192, 9.53018, 17.8732, -152.165, -97.2447, 104.451
1.16, -1, -8.73109, 9.50706, 17.8792, -152.19, -97.2336, 104.313
1.164, -1, -8.81025, 9.48394, 17.8851, -152.215, -97.2224, 104.176
1.168, -1, -8.88943, 9.46081, 17.891, -152.24, -97.2113, 104.038
1.172, -1, -8.96862, 9.43769, 17.8969, -152.265, -97.2001, 103.9
1.175, -1, -9.04781, 9.41456, 17.9029, -152.29, -97.1889, 103.763
1.18, -1, -9.12701, 9.39143, 17.9088, -152.315, -97.1778, 103.625
1.184, -1, -9.20622, 9.3683, 17.9147, -152.34, -97.1666, 103.487
1.188, -1, -9.28544, 9.34516, 17.9207, -152.366, -97.1554, 103.349
1.192, -1, -9.36467, 9.32202, 17.9266, -152.391, -97.1443, 103.211
1.196, -1, -9.4439, 9.29889, 17.9325, -152.416, -97.1331, 103.074
1.2, -1, -9.52314, 9.27574, 17.9384, -152.441, -97.1219, 102.936
1.204, -1, -9.60239, 9.2526, 17.9444, -152.466, -97.1108, 102.798
1.208, -1, -9.68165, 9.22945, 17.9503, -152.491, -97.0996, 102.66
1.212, -1, -9.76091, 9.2063, 17.9562, -152.516, -97.0884, 102.522
1.216, -1, -9.84019, 9.18315, 17.9622, -152.542, -97.0773, 102.384
1.22, -1, -9.91947, 9.16, 17.9681, -152.567, -97.0661, 102.246
1.224, -1, -9.99876, 9.13684, 17.974, -152.592, -97.0549, 102.108
1.228, -1, -10.0781, 9.11368, 17.98, -152.617, -97.0437, 101.971
1.232, -1, -10.1574, 9.09052, 17.9859, -152.642, -97.0326, 101.833
1.236, -1, -10.2367, 9.06736, 17.9919, -152.667, -97.0214, 101.695
1.24, -1, -10.316, 9.04419, 17.9978, -152.693, -97.0102, 101.557
1.244, -1, -10.3953, 9.02102, 18.0037, -152.718, -96.999, 101.419
1.248, -1, -10.4747, 8.99785, 18.0097, -152.743, -96.9878, 101.281
1.252, -1, -10.554, 8.97468, 18.0156, -152.768, -96.9766, 101.143
1.256, -1, -10.6334, 8.9515, 18.0216, -152.793, -96.9655, 101.005
1.26, -1, -10.7127, 8.92833, 18.0275, -152.819, -96.9543, 100.867
1.264, -1, -10.7921, 8.90515, 18.0334, -152.844, -96.9431, 100.729
1.267, -1, -10.8715, 8.88196, 18.0394, -152.869, -96.9319, 100.591
1.272, -1, -10.9509, 8.85878, 18.0453, -152.894, -96.9207, 100.452
1.276, -1, -11.0303, 8.83559, 18.0513, -152.919, -96.9095, 100.314
1.28, -1, -11.1097, 8.8124, 18.0572, -152.945, -96.8983, 100.176
1.284, -1, -11.1891, 8.78921, 18.0632, -152.97, -96.8871, 100.038
1.288, -1, -11.2685, 8.76601, 18.0691, -152.995, -96.8759, 99.9
1.292, -1, -11.348, 8.74282, 18.075, -153.02, -96.8647, 99.7618
1.295, -1, -11.4274, 8.71962, 18.081, -153.045, -96.8536, 99.6236
1.3, -1, -11.5068, 8.69641, 18.0869, -153.071, -96.8424, 99.4855
1.304, -1, -11.5863, 8.67321, 18.0929, -153.096, -96.8312, 99.3473
1.308, -1, -11.6658, 8.65, 18.0988, -153.121, -96.82, 99.209
1.312, -1, -11.7452, 8.6268, 18.1048, -153.146, -96.8088, 99.0708
1.316, -1, -11.8247, 8.60358, 18.1107, -153.171, -96.7976, 98.9326
1.32, -1, -11.9042, 8.58037, 18.1167, -153.197, -96.7864, 98.7943
1.324, -1, -11.9837, 8.55715, 18.1226, -153.222, -96.7751, 98.6561
1.328, -1, -12.0632, 8.53394, 18.1286, -153.247, -96.7639, 98.5178
1.332, -1, -12.1427, 8.51071, 18.1345, -153.272, -96.7527, 98.3795
1.336, -1, -12.2222, 8.48749, 18.1405, -153.298, -96.7415, 98.2412
1.34, -1, -12.3018, 8.46426, 18.1464, -153.323, -96.7303, 98.1028
1.344, -1, -12.3813, 8.44104, 18.1524, -153.348, -96.7191, 97.9645
1.348, -1, -12.4608, 8.41781, 18.1584, -153.373, -96.7079, 97.8261
1.352, -1, -12.5404, 8.39457, 18.1643, -153.399, -96.6967, 97.6878
1.356, -1, -12.62, 8.37134, 18.1703, -153.424, -96.6855, 97.5494
1.36, -1, -12.6995, 8.3481, 18.1762, -153.449, -96.6743, 97.411
1.364, -1, -12.7791, 8.32486, 18.1822, -153.474, -96.663, 97.2726
1.368, -1, -12.8587, 8.30162, 18.1881, -153.5, -96.6518, 97.1342
1.372, -1, -12.9383, 8.27837, 18.1941, -153.525, -96.6406, 96.9957
1.376, -1, -13.0179, 8.25512, 18.2001, -153.55, -96.6294, 96.8573
1.38, -1, -13.0975, 8.23187, 18.206, -153.575, -96.6182, 96.7188
1.384, -1, -13.1771, 8.20862, 18.212, -153.601, -96.607, 96.5803
1.388, -1, -13.2568, 8.18536, 18.2179, -153.626, -96.5957, 96.4418
1.392, -1, -13.3364, 8.16211, 18.2239, -153.651, -96.5845, 96.3033
1.396, -1, -13.416, 8.13885, 18.2299, -153.677, -96.5733, 96.1648
1.4, -1, -13.4957, 8.11559, 18.2358, -153.702, -96.5621, 96.0262
1.404, -1, -13.5754, 8.09232, 18.2418, -153.727, -96.5508, 95.8877
1.408, -1, -13.655, 8.06905, 18.2478, -153.752, -96.5396, 95.7491
1.412, -1, -13.7347, 8.04578, 18.2537, -153.778, -96.5284, 95.6105
1.416, -1, -13.8144, 8.02251, 18.2597, -153.803, -96.5171, 95.4719
1.42, -1, -13.8941, 7.99924, 18.2656, -153.828, -96.5059, 95.3333
1.424, -1, -13.9738, 7.97596, 18.2716, -153.854, -96.4947, 95.1946
1.428, -1, -14.0535, 7.95268, 18.2776, -153.879, -96.4834, 95.056
1.432, -1, -14.1332, 7.9294, 18.2836, -153.904, -96.4722, 94.9174
1.436, -1, -14.2129, 7.90612, 18.2895, -153.929, -96.461, 94.7787
1.44, -1, -14.2927, 7.88283, 18.2955, -153.955, -96.4497, 94.64
1.444, -1, -14.3724, 7.85954, 18.3015, -153.98, -96.4385, 94.5013
1.448, -1, -14.4522, 7.83625, 18.3074, -154.005, -96.4273, 94.3626
1.452, -1, -14.5319, 7.81296, 18.3134, -154.031, -96.416, 94.2238
1.456, -1, -14.6117, 7.78966, 18.3194, -154.056, -96.4048, 94.0851
1.46, -1, -14.6915, 7.76636, 18.3253, -154.081, -96.3935, 93.9463
1.464, -1, -14.7713, 7.74306, 18.3313, -154.107, -96.3823, 93.8076
1.468, -1, -14.8511, 7.71976, 18.3373, -154.132, -96.371, 93.6688
1.472, -1, -14.9309, 7.69645, 18.3433, -154.157, -96.3598, 93.53
1.476, -1, -15.0107, 7.67314, 18.3492, -154.183, -96.3485, 93.3911
1.48, -1, -15.0905, 7.64983, 18.3552, -154.208, -96.3373, 93.2523
1.484, -1, -15.1703, 7.62652, 18.3612, -154.233, -96.326, 93.1135
1.488, -1, -15.2502, 7.6032, 18.3672, -154.259, -96.3148, 92.9746
1.492, -1, -15.33, 7.57988, 18.3731, -154.284, -96.3035, 92.8357
1.496, -1, -15.4099, 7.55656, 18.3791, -154.309, -96.2923, 92.6968
1.5, -1, -15.4898, 7.53324, 18.3851, -154.335, -96.281, 92.5579
1.504, -1, -15.5696, 7.50991, 18.3911, -154.36, -96.2698, 92.419
1.508, -1, -15.6495, 7.48658, 18.3971, -154.385, -96.2585, 92.2801
1.512, -1, -15.7294, 7.46325, 18.403, -154.411, -96.2472, 92.1411
1.516, -1, -15.8093, 7.43991, 18.409, -154.436, -96.236, 92.0021
1.52, -1, -15.8892, 7.41658, 18.415, -154.461, -96.2247, 91.8631
1.524, -1, -15.9691, 7.39324, 18.421, -154.487, -96.2135, 91.7241
1.528, -1, -16.0491, 7.3699, 18.427, -154.512, -96.2022, 91.5851
1.532, -1, -16.129, 7.34655, 18.4329, -154.538, -96.1909, 91.4461
1.536, -1, -16.2089, 7.32321, 18.4389, -154.563, -96.1797, 91.3071
1.54, -1, -16.2889, 7.29986, 18.4449, -154.588, -96.1684, 91.168
1.544, -1, -16.3688, 7.2765, 18.4509, -154.614, -96.1571, 91.0289
1.548, -1, -16.4488, 7.25315, 18.4569, -154.639, -96.1459, 90.8898
1.552, -1, -16.5288, 7.22979, 18.4629, -154.664, -96.1346, 90.7507
1.556, -1, -16.6088, 7.20643, 18.4689, -154.69, -96.1233, 90.6116
1.56, -1, -16.6888, 7.18307, 18.4749, -154.715, -96.112, 90.4724
1.564, -1, -16.7688, 7.15971, 18.4808, -154.741, -96.1008, 90.3333
1.568, -1, -16.8488, 7.13634, 18.4868, -154.766, -96.0895, 90.1941
1.572, -1, -16.9288, 7.11297, 18.4928, -154.791, -96.0782, 90.0549
1.576, -1, -17.0089, 7.08959, 18.4988, -154.817, -96.0669, 89.9157
1.58, -1, -17.0889, 7.06622, 18.5048, -154.842, -96.0556, 89.7765
1.584, -1, -17.169, 7.04284, 18.5108, -154.868, -96.0443, 89.6373
1.588, -1, -17.249, 7.01946, 18.5168, -154.893, -96.0331, 89.498
1.592, -1, -17.3291, 6.99608, 18.5228, -154.918, -96.0218, 89.3588
1.596, -1, -17.4092, 6.97269, 18.5288, -154.944, -96.0105, 89.2195
1.6, -1, -17.4892, 6.9493, 18.5348, -154.969, -95.9992, 89.0802
1.604, -1, -17.5693, 6.92591, 18.5408, -154.995, -95.9879, 88.9409
1.608, -1, -17.6494, 6.90252, 18.5468, -155.02, -95.9766, 88.8015
1.612, -1, -17.7296, 6.87912, 18.5528, -155.046, -95.9653, 88.6622
1.616, -1, -17.8097, 6.85572, 18.5588, -155.071, -95.9541, 88.5228
1.62, -1, -17.8898, 6.83232, 18.5648, -155.096, -95.9428, 88.3835
1.624, -1, -17.9699, 6.80891, 18.5708, -155.122, -95.9315, 88.2441
1.628, -1, -18.0501, 6.78551, 18.5768, -155.147, -95.9202, 88.1047
1.632, -1, -18.1303, 6.7621, 18.5828, -155.173, -95.9089, 87.9652
1.636, -1, -18.2104, 6.73869, 18.5888, -155.198, -95.8976, 87.8258
1.64, -1, -18.2906, 6.71527, 18.5948, -155.224, -95.8863, 87.6864
1.644, -1, -18.3708, 6.69185, 18.6008, -155.249, -95.875, 87.5469
1.648, -1, -18.451, 6.66843, 18.6068, -155.275, -95.8637, 87.4074
1.652, -1, -18.5312, 6.64501, 18.6128, -155.3, -95.8524, 87.2679
1.656, -1, -18.6114, 6.62158, 18.6188, -155.325, -95.8411, 87.1284
1.66, -1, -18.6916, 6.59816, 18.6248, -155.351, -95.8298, 86.9889
1.664, -1, -18.7718, 6.57473, 18.6308, -155.376, -95.8184, 86.8493
1.668, -1, -18.8521, 6.55129, 18.6368, -155.402, -95.8071, 86.7098
1.672, -1, -18.9323, 6.52786, 18.6428, -155.427, -95.7958, 86.5702
1.676, -1, -19.0126, 6.50442, 18.6488, -155.453, -95.7845, 86.4306
1.68, -1, -19.0929, 6.48098, 18.6548, -155.478, -95.7732, 86.291
1.684, -1, -19.1731, 6.45753, 18.6608, -155.504, -95.7619, 86.1514
1.688, -1, -19.2534, 6.43409, 18.6668, -155.529, -95.7506, 86.0117
1.692, -1, -19.3337, 6.41064, 18.6728, -155.555, -95.7393, 85.8721
1.696, -1, -19.414, 6.38718, 18.6789, -155.58, -95.7279, 85.7324
1.7, -1, -19.4943, 6.36373, 18.6849, -155.606, -95.7166, 85.5927
1.704, -1, -19.5746, 6.34027, 18.6909, -155.631, -95.7053, 85.453
1.708, -1, -19.655, 6.31681, 18.6969, -155.657, -95.694, 85.3133
1.712, -1, -19.7353, 6.29335, 18.7029, -155.682, -95.6827, 85.1735
1.716, -1, -19.8157, 6.26989, 18.7089, -155.708, -95.6713, 85.0338
1.72, -1, -19.896, 6.24642, 18.7149, -155.733, -95.66, 84.894
1.724, -1, -19.9764, 6.22295, 18.721, -155.759, -95.6487, 84.7542
1.728, -1, -20.0568, 6.19947, 18.727, -155.784, -95.6374, 84.6144
1.732, -1, -20.1371, 6.176, 18.733, -155.81, -95.626, 84.4746
1.736, -1, -20.2175, 6.15252, 18.739, -155.835, -95.6147, 84.3348
1.74, -1, -20.2979, 6.12904, 18.745, -155.861, -95.6034, 84.195
1.744, -1, -20.3784, 6.10556, 18.751, -155.886, -95.592, 84.0551
1.748, -1, -20.4588, 6.08207, 18.7571, -155.912, -95.5807, 83.9152
1.752, -1, -20.5392, 6.05858, 18.7631, -155.937, -95.5694, 83.7753
1.756, -1, -20.6196, 6.03509, 18.7691, -155.963, -95.558, 83.6354
1.76, -1, -20.7001, 6.0116, 18.7751, -155.988, -95.5467, 83.4955
1.764, -1, -20.7805, 5.9881, 18.7812, -156.014, -95.5353, 83.3555
1.768, -1, -20.861, 5.9646, 18.7872, -156.039, -95.524, 83.2156
1.772, -1, -20.9415, 5.9411, 18.7932, -156.065, -95.5127, 83.0756
1.776, -1, -21.022, 5.91759, 18.7992, -156.09, -95.5013, 82.9356
1.78, -1, -21.1025, 5.89409, 18.8053, -156.116, -95.49, 82.7956
1.784, -1, -21.183, 5.87058, 18.8113, -156.142, -95.4786, 82.6556
1.788, -1, -21.2635, 5.84706, 18.8173, -156.167, -95.4673, 82.5156
1.792, -1, -21.344, 5.82355, 18.8233, -156.193, -95.4559, 82.3755
1.796, -1, -21.4245, 5.80003, 18.8294, -156.218, -95.4446, 82.2355
1.8, -1, -21.5051, 5.77651, 18.8354, -156.244, -95.4332, 82.0954
1.804, -1, -21.5856, 5.75299, 18.8414, -156.269, -95.4219, 81.9553
1.808, -1, -21.6662, 5.72946, 18.8475, -156.295, -95.4105, 81.8152
1.812, -1, -21.7467, 5.70593, 18.8535, -156.32, -95.3992, 81.675
1.816, -1, -21.8273, 5.6824, 18.8595, -156.346, -95.3878, 81.5349
1.82, -1, -21.9079, 5.65887, 18.8655, -156.372, -95.3765, 81.3947
1.824, -1, -21.9885, 5.63533, 18.8716, -156.397, -95.3651, 81.2546
1.828, -1, -22.0691, 5.61179, 18.8776, -156.423, -95.3537, 81.1144
1.832, -1, -22.1497, 5.58825, 18.8836, -156.448, -95.3424, 80.9742
1.836, -1, -22.2303, 5.5647, 18.8897, -156.474, -95.331, 80.8339
1.84, -1, -22.311, 5.54116, 18.8957, -156.5, -95.3197, 80.6937
1.844, -1, -22.3916, 5.51761, 18.9018, -156.525, -95.3083, 80.5534
1.848, -1, -22.4722, 5.49405, 18.9078, -156.551, -95.2969, 80.4132
1.852, -1, -22.5529, 5.4705, 18.9138, -156.576, -95.2856, 80.2729
1.856, -1, -22.6336, 5.44694, 18.9199, -156.602, -95.2742, 80.1326
1.86, -1, -22.7142, 5.42338, 18.9259, -156.628, -95.2628, 79.9922
1.864, -1, -22.7949, 5.39982, 18.9319, -156.653, -95.2514, 79.8519
1.868, -1, -22.8756, 5.37625, 18.938, -156.679, -95.2401, 79.7115
1.872, -1, -22.9563, 5.35268, 18.944, -156.704, -95.2287, 79.5712
1.876, -1, -23.037, 5.32911, 18.9501, -156.73, -95.2173, 79.4308
1.88, -1, -23.1178, 5.30553, 18.9561, -156.756, -95.2059, 79.2904
1.884, -1, -23.1985, 5.28195, 18.9622, -156.781, -95.1946, 79.15
1.888, -1, -23.2792, 5.25838, 18.9682, -156.807, -95.1832, 79.0095
1.892, -1, -23.36, 5.23479, 18.9742, -156.833, -95.1718, 78.8691
1.896, -1, -23.4408, 5.21121, 18.9803, -156.858, -95.1604, 78.7286
1.9, -1, -23.5215, 5.18762, 18.9863, -156.884, -95.149, 78.5881
1.904, -1, -23.6023, 5.16403, 18.9924, -156.909, -95.1377, 78.4476
1.908, -1, -23.6831, 5.14043, 18.9984, -156.935, -95.1263, 78.3071
1.912, -1, -23.7639, 5.11683, 19.0045, -156.961, -95.1149, 78.1666
1.916, -1, -23.8447, 5.09324, 19.0105, -156.986, -95.1035, 78.026
1.92, -1, -23.9255, 5.06963, 19.0166, -157.012, -95.0921, 77.8854
1.924, -1, -24.0064, 5.04603, 19.0226, -157.038, -95.0807, 77.7449
1.928, -1, -24.0872, 5.02242, 19.0287, -157.063, -95.0693, 77.6042
1.932, -1, -24.168, 4.99881, 19.0347, -157.089, -95.0579, 77.4636
1.936, -1, -24.2489, 4.97519, 19.0408, -157.115, -95.0465, 77.323
1.94, -1, -24.3298, 4.95158, 19.0468, -157.14, -95.0351, 77.1823
1.944, -1, -24.4107, 4.92796, 19.0529, -157.166, -95.0237, 77.0417
1.948, -1, -24.4915, 4.90433, 19.059, -157.192, -95.0123, 76.901
1.952, -1, -24.5724, 4.88071, 19.065, -157.217, -95.0009, 76.7603
1.956, -1, -24.6533, 4.85708, 19.0711, -157.243, -94.9895, 76.6195
1.96, -1, -24.7343, 4.83345, 19.0771, -157.269, -94.9781, 76.4788
1.964, -1, -24.8152, 4.80982, 19.0832, -157.294, -94.9667, 76.338
1.968, -1, -24.8961, 4.78618, 19.0892, -157.32, -94.9553, 76.1973
1.972, -1, -24.9771, 4.76254, 19.0953, -157.346, -94.9439, 76.0565
1.976, -1, -25.058, 4.7389, 19.1014, -157.371, -94.9325, 75.9157
1.98, -1, -25.139, 4.71525, 19.1074, -157.397, -94.9211, 75.7748
1.984, -1, -25.22, 4.6916, 19.1135, -157.423, -94.9097, 75.634
1.988, -1, -25.3009, 4.66795, 19.1195, -157.449, -94.8983, 75.4931
1.992, -1, -25.3819, 4.6443, 19.1256, -157.474, -94.8868, 75.3523
1.996, -1, -25.4629, 4.62064, 19.1317, -157.5, -94.8754, 75.2114
1.999, -1, -25.544, 4.59698, 19.1377, -157.526, -94.864, 75.0705
2.004, -1, -25.625, 4.57332, 19.1438, -157.551, -94.8526, 74.9295
2.008, -1, -25.706, 4.54965, 19.1499, -157.577, -94.8412, 74.7886
2.012, -1, -25.7871, 4.52599, 19.1559, -157.603, -94.8297, 74.6476
2.015, -1, -25.8681, 4.50232, 19.162, -157.629, -94.8183, 74.5067
2.019, -1, -25.9492, 4.47864, 19.1681, -157.654, -94.8069, 74.3657
2.024, -1, -26.0302, 4.45497, 19.1741, -157.68, -94.7955, 74.2247
2.028, -1, -26.1113, 4.43129, 19.1802, -157.706, -94.784, 74.0836
2.031, -1, -26.1924, 4.40761, 19.1863, -157.731, -94.7726, 73.9426
2.036, -1, -26.2735, 4.38392, 19.1924, -157.757, -94.7612, 73.8015
2.04, -1, -26.3546, 4.36023, 19.1984, -157.783, -94.7497, 73.6605
2.044, -1, -26.4357, 4.33654, 19.2045, -157.809, -94.7383, 73.5194
2.048, -1, -26.5169, 4.31285, 19.2106, -157.834, -94.7269, 73.3783
2.051, -1, -26.598, 4.28915, 19.2166, -157.86, -94.7154, 73.2371
2.055, -1, -26.6792, 4.26545, 19.2227, -157.886, -94.704, 73.096
2.06, -1, -26.7603, 4.24175, 19.2288, -157.912, -94.6926, 72.9548
2.064, -1, -26.8415, 4.21805, 19.2349, -157.937, -94.6811, 72.8136
2.068, -1, -26.9227, 4.19434, 19.2409, -157.963, -94.6697, 72.6724
2.071, -1, -27.0039, 4.17063, 19.247, -157.989, -94.6582, 72.5312
2.076, -1, -27.0851, 4.14691, 19.2531, -158.015, -94.6468, 72.39
2.08, -1, -27.1663, 4.1232, 19.2592, -158.041, -94.6354, 72.2487
2.084, -1, -27.2475, 4.09948, 19.2653, -158.066, -94.6239, 72.1075
2.087, -1, -27.3287, 4.07576, 19.2713, -158.092, -94.6125, 71.9662
2.092, -1, -27.41, 4.05203, 19.2774, -158.118, -94.601, 71.8249
2.096, -1, -27.4912, 4.02831, 19.2835, -158.144, -94.5896, 71.6836
2.1, -1, -27.5725, 4.00458, 19.2896, -158.169, -94.5781, 71.5423
2.104, -1, -27.6537, 3.98084, 19.2957, -158.195, -94.5667, 71.4009
2.107, -1, -27.735, 3.95711, 19.3018, -158.221, -94.5552, 71.2596
2.111, -1, -27.8163, 3.93337, 19.3078, -158.247, -94.5437, 71.1182
2.116, -1, -27.8976, 3.90963, 19.3139, -158.273, -94.5323, 70.9768
2.12, -1, -27.9789, 3.88588, 19.32, -158.298, -94.5208, 70.8354
2.124, -1, -28.0602, 3.86213, 19.3261, -158.324, -94.5094, 70.6939
2.127, -1, -28.1415, 3.83838, 19.3322, -158.35, -94.4979, 70.5525
2.132, -1, -28.2229, 3.81463, 19.3383, -158.376, -94.4865, 70.411
2.136, -1, -28.3042, 3.79087, 19.3444, -158.402, -94.475, 70.2695
2.14, -1, -28.3856, 3.76712, 19.3505, -158.428, -94.4635, 70.128
2.143, -1, -28.4669, 3.74335, 19.3565, -158.453, -94.452, 69.9865
2.148, -1, -28.5483, 3.71959, 19.3626, -158.479, -94.4406, 69.845
2.152, -1, -28.6297, 3.69582, 19.3687, -158.505, -94.4291, 69.7034
2.156, -1, -28.7111, 3.67205, 19.3748, -158.531, -94.4176, 69.5619
2.16, -1, -28.7925, 3.64828, 19.3809, -158.557, -94.4062, 69.4203
2.163, -1, -28.8739, 3.6245, 19.387, -158.582, -94.3947, 69.2787
2.168, -1, -28.9553, 3.60073, 19.3931, -158.608, -94.3832, 69.137
2.172, -1, -29.0367, 3.57694, 19.3992, -158.634, -94.3717, 68.9954
2.176, -1, -29.1182, 3.55316, 19.4053, -158.66, -94.3603, 68.8538
2.179, -1, -29.1996, 3.52937, 19.4114, -158.686, -94.3488, 68.7121
2.184, -1, -29.2811, 3.50558, 19.4175, -158.712, -94.3373, 68.5704
2.188, -1, -29.3626, 3.48179, 19.4236, -158.738, -94.3258, 68.4287
2.192, -1, -29.444, 3.45799, 19.4297, -158.763, -94.3143, 68.287
2.196, -1, -29.5255, 3.4342, 19.4358, -158.789, -94.3028, 68.1452
2.199, -1, -29.607, 3.41039, 19.4419, -158.815, -94.2914, 68.0035
2.204, -1, -29.6885, 3.38659, 19.448, -158.841, -94.2799, 67.8617
2.208, -1, -29.7701, 3.36278, 19.4541, -158.867, -94.2684, 67.7199
2.212, -1, -29.8516, 3.33897, 19.4602, -158.893, -94.2569, 67.5781
2.216, -1, -29.9331, 3.31516, 19.4663, -158.919, -94.2454, 67.4363
2.219, -1, -30.0147, 3.29135, 19.4724, -158.945, -94.2339, 67.2945
2.224, -1, -30.0962, 3.26753, 19.4785, -158.97, -94.2224, 67.1526
2.228, -1, -30.1778, 3.24371, 19.4846, -158.996, -94.2109, 67.0107
2.232, -1, -30.2594, 3.21988, 19.4907, -159.022, -94.1994, 66.8688
2.235, -1, -30.341, 3.19605, 19.4968, -159.048, -94.1879, 66.7269
2.24, -1, -30.4226, 3.17222, 19.5029, -159.074, -94.1764, 66.585
2.244, -1, -30.5042, 3.14839, 19.5091, -159.1, -94.1649, 66.4431
2.248, -1, -30.5858, 3.12455, 19.5152, -159.126, -94.1534, 66.3011
2.252, -1, -30.6674, 3.10072, 19.5213, -159.152, -94.1419, 66.1591
2.255, -1, -30.7491, 3.07687, 19.5274, -159.178, -94.1304, 66.0171
2.259, -1, -30.8307, 3.05303, 19.5335, -159.204, -94.1189, 65.8751
2.264, -1, -30.9124, 3.02918, 19.5396, -159.229, -94.1074, 65.7331
2.268, -1, -30.994, 3.00533, 19.5457, -159.255, -94.0959, 65.591
2.272, -1, -31.0757, 2.98148, 19.5518, -159.281, -94.0844, 65.449
2.275, -1, -31.1574, 2.95762, 19.558, -159.307, -94.0729, 65.3069
2.28, -1, -31.2391, 2.93376, 19.5641, -159.333, -94.0613, 65.1648
2.284, -1, -31.3208, 2.9099, 19.5702, -159.359, -94.0498, 65.0227
2.288, -1, -31.4025, 2.88603, 19.5763, -159.385, -94.0383, 64.8805
2.291, -1, -31.4843, 2.86217, 19.5824, -159.411, -94.0268, 64.7384
2.296, -1, -31.566, 2.83829, 19.5885, -159.437, -94.0153, 64.5962
2.3, -1, -31.6477, 2.81442, 19.5947, -159.463, -94.0038, 64.454
2.304, -1, -31.7295, 2.79054, 19.6008, -159.489, -93.9922, 64.3118
2.308, -1, -31.8113, 2.76666, 19.6069, -159.515, -93.9807, 64.1696
2.311, -1, -31.8931, 2.74278, 19.613, -159.541, -93.9692, 64.0274
2.316, -1, -31.9748, 2.71889, 19.6191, -159.567, -93.9576, 63.8851
2.32, -1, -32.0566, 2.695, 19.6253, -159.593, -93.9461, 63.7428
2.324, -1, -32.1385, 2.67111, 19.6314, -159.619, -93.9346, 63.6005
2.328, -1, -32.2203, 2.64722, 19.6375, -159.645, -93.9231, 63.4582
2.331, -1, -32.3021, 2.62332, 19.6436, -159.671, -93.9115, 63.3159
2.336, -1, -32.3839, 2.59942, 19.6498, -159.697, -93.9, 63.1735
2.34, -1, -32.4658, 2.57551, 19.6559, -159.722, -93.8885, 63.0312
2.344, -1, -32.5477, 2.55161, 19.662, -159.748, -93.8769, 62.8888
2.347, -1, -32.6295, 2.5277, 19.6682, -159.774, -93.8654, 62.7464
2.352, -1, -32.7114, 2.50379, 19.6743, -159.8, -93.8538, 62.604
2.356, -1, -32.7933, 2.47987, 19.6804, -159.826, -93.8423, 62.4615
2.36, -1, -32.8752, 2.45595, 19.6865, -159.852, -93.8307, 62.3191
2.364, -1, -32.9571, 2.43203, 19.6927, -159.878, -93.8192, 62.1766
2.367, -1, -33.039, 2.4081, 19.6988, -159.904, -93.8077, 62.0341
2.372, -1, -33.121, 2.38418, 19.7049, -159.93, -93.7961, 61.8916
2.376, -1, -33.2029, 2.36025, 19.7111, -159.956, -93.7846, 61.7491
2.38, -1, -33.2849, 2.33631, 19.7172, -159.982, -93.773, 61.6066
2.383, -1, -33.3668, 2.31238, 19.7233, -160.008, -93.7615, 61.464
2.388, -1, -33.4488, 2.28844, 19.7295, -160.034, -93.7499, 61.3214
2.392, -1, -33.5308, 2.2645, 19.7356, -160.06, -93.7384, 61.1788
2.396, -1, -33.6128, 2.24055, 19.7418, -160.087, -93.7268, 61.0362
2.4, -1, -33.6948, 2.2166, 19.7479, -160.113, -93.7152, 60.8936
2.403, -1, -33.7768, 2.19265, 19.754, -160.139, -93.7037, 60.751
2.408, -1, -33.8588, 2.1687, 19.7602, -160.165, -93.6921, 60.6083
2.412, -1, -33.9408, 2.14474, 19.7663, -160.191, -93.6806, 60.4656
2.416, -1, -34.0229, 2.12078, 19.7725, -160.217, -93.669, 60.3229
2.42, -1, -34.1049, 2.09682, 19.7786, -160.243, -93.6574, 60.1802
2.423, -1, -34.187, 2.07285, 19.7847, -160.269, -93.6459, 60.0375
2.428, -1, -34.2691, 2.04888, 19.7909, -160.295, -93.6343, 59.8947
2.432, -1, -34.3512, 2.02491, 19.797, -160.321, -93.6227, 59.7519
2.436, -1, -34.4332, 2.00094, 19.8032, -160.347, -93.6112, 59.6092
2.439, -1, -34.5154, 1.97696, 19.8093, -160.373, -93.5996, 59.4664
2.444, -1, -34.5975, 1.95298, 19.8155, -160.399, -93.588, 59.3235
2.448, -1, -34.6796, 1.929, 19.8216, -160.425, -93.5765, 59.1807
2.452, -1, -34.7617, 1.90501, 19.8278, -160.451, -93.5649, 59.0378
2.456, -1, -34.8439, 1.88102, 19.8339, -160.477, -93.5533, 58.895
2.459, -1, -34.926, 1.85703, 19.8401, -160.503, -93.5417, 58.7521
2.464, -1, -35.0082, 1.83303, 19.8462, -160.529, -93.5301, 58.6092
2.468, -1, -35.0904, 1.80903, 19.8524, -160.555, -93.5186, 58.4662
2.472, -1, -35.1726, 1.78503, 19.8585, -160.582, -93.507, 58.3233
2.476, -1, -35.2547, 1.76103, 19.8647, -160.608, -93.4954, 58.1803
2.479, -1, -35.3368, 1.73705, 19.8708, -160.634, -93.4838, 58.0373
2.484, -1, -35.4186, 1.71313, 19.8771, -160.66, -93.4722, 57.8944
2.488, -1, -35.4996, 1.68938, 19.8833, -160.686, -93.4606, 57.7514
2.492, -1, -35.5797, 1.66589, 19.8898, -160.712, -93.449, 57.6087
2.495, -1, -35.6583, 1.64278, 19.8964, -160.738, -93.4375, 57.4663
2.5, -1, -35.7352, 1.62016, 19.9031, -160.764, -93.426, 57.3247
2.504, -1, -35.8102, 1.59814, 19.9101, -160.789, -93.4145, 57.1844
2.508, -1, -35.883, 1.57677, 19.9171, -160.814, -93.4033, 57.0461
2.512, -1, -35.9537, 1.5561, 19.9242, -160.839, -93.3922, 56.9105
2.515, -1, -36.0221, 1.53615, 19.9311, -160.863, -93.3815, 56.7787
2.52, -1, -36.088, 1.517, 19.9378, -160.886, -93.3711, 56.6515
2.524, -1, -36.1511, 1.49872, 19.9443, -160.908, -93.3612, 56.5299
2.528, -1, -36.211, 1.48143, 19.9503, -160.929, -93.3518, 56.415
2.531, -1, -36.2673, 1.46518, 19.956, -160.949, -93.343, 56.3074
2.536, -1, -36.32, 1.45, 19.961, -160.967, -93.3349, 56.208
2.54, -1, -36.369, 1.43587, 19.9655, -160.983, -93.3275, 56.1175
2.544, -1, -36.4143, 1.42275, 19.9692, -160.998, -93.3209, 56.0361
2.548, -1, -36.4561, 1.4106, 19.9722, -161.011, -93.3151, 55.9642
2.551, -1, -36.4944, 1.39941, 19.9745, -161.023, -93.31, 55.9016
2.556, -1, -36.5292, 1.38919, 19.976, -161.032, -93.3057, 55.8481
2.56, -1, -36.5603, 1.38, 19.977, -161.041, -93.3021, 55.8031
2.564, -1, -36.5878, 1.37188, 19.9774, -161.048, -93.2992, 55.7659
2.568, -1, -36.6115, 1.36486, 19.9776, -161.053, -93.2968, 55.7357
2.571, -1, -36.6318, 1.35888, 19.9774, -161.058, -93.2949, 55.7115
2.576, -1, -36.6489, 1.35387, 19.9771, -161.061, -93.2934, 55.6926
2.58, -1, -36.6633, 1.34972, 19.9767, -161.064, -93.2923, 55.6781
2.584, -1, -36.6753, 1.34631, 19.9762, -161.066, -93.2915, 55.6672
2.587, -1, -36.6853, 1.34356, 19.9757, -161.067, -93.2908, 55.6591
2.592, -1, -36.6934, 1.34139, 19.9753, -161.069, -93.2904, 55.6534
2.596, -1, -36.6998, 1.3397, 19.9748, -161.069, -93.2901, 55.6493
2.6, 2, -36.7048, 1.33844, 19.9745, -161.07, -93.2899, 55.6465
2.604, 2, -36.7085, 1.33753, 19.9742, -161.07, -93.2898, 55.6446
2.607, 2, -36.7111, 1.3369, 19.974, -161.07, -93.2897, 55.6433
2.612, 2, -36.7129, 1.33646, 19.9739, -161.071, -93.2896, 55.6424
2.616, 2, -36.7141, 1.33617, 19.9738, -161.071, -93.2896, 55.6418
2.62, 2, -36.7149, 1.33597, 19.9737, -161.071, -93.2896, 55.6414
2.624, 2, -36.7155, 1.33583, 19.9737, -161.071, -93.2895, 55.6411
2.627, 2, -36.7159, 1.33574, 19.9736, -161.071, -93.2895, 55.6409
2.632, 2, -36.7161, 1.33568, 19.9736, -161.071, -93.2895, 55.6408
2.636, 2, -36.7163, 1.33564, 19.9736, -161.071, -93.2895, 55.6407
2.64, 2, -36.7164, 1.33561, 19.9736, -161.071, -93.2895, 55.6407
2.643, 2, -36.7165, 1.33559, 19.9736, -161.071, -93.2895, 55.6406
2.648, 2, -36.7165, 1.33558, 19.9736, -161.071, -93.2895, 55.6406
2.652, 2, -36.7166, 1.33557, 19.9736, -161.071, -93.2895, 55.6406
2.656, 2, -36.7166, 1.33556, 19.9736, -161.071, -93.2895, 55.6406
2.66, 2, -36.7166, 1.33556, 19.9736, -161.071, -93.2895, 55.6406
2.663, 2, -36.7166, 1.33555, 19.9736, -161.071, -93.2895, 55.6406
2.668, 2, -36.7166, 1.33555, 19.9736, -161.071, -93.2895, 55.6406
2.672, 2, -36.7166, 1.33555, 19.9736, -161.071, -93.2895, 55.6406
2.676, 2, -36.7166, 1.33555, 19.9736, -161.071, -93.2895, 55.6406
2.679, 2, -36.7166, 1.33555, 19.9736, -161.071, -93.2895, 55.6405
2.684, 2, -36.7167, 1.33555, 19.9736, -161.071, -93.2895, 55.6405
2.688, 2, -36.7167, 1.33555, 19.9736, -161.071, -93.2895, 55.6405
2.692, 2, -36.7167, 1.33555, 19.9736, -161.071, -93.2895, 55.6405
2.696, 2, -36.7167, 1.33555, 19.9736, -161.071, -93.2895, 55.6405
2.699, 2, -36.7167, 1.33555, 19.9736, -161.071, -93.2895, 55.6405
2.704, 2, -36.7167, 1.33555, 19.9736, -161.071, -93.2895, 55.6405
2.708, 2, -36.7167, 1.33555, 19.9736, -161.071, -93.2895, 55.6405
2.712, 2, -36.7167, 1.33555, 19.9736, -161.071, -93.2895, 55.6405
2.716, 2, -36.7167, 1.33555, 19.9736, -161.071, -93.2895, 55.6405
2.719, 2, -36.7167, 1.33555, 19.9736, -161.071, -93.2895, 55.6405
2.724, 2, -36.7167, 1.33555, 19.9736, -161.071, -93.2895, 55.6405
2.728, 2, -36.7167, 1.33555, 19.9736, -161.071, -93.2895, 55.6405
2.732, 2, -36.7167, 1.33555, 19.9736, -161.071, -93.2895, 55.6405
2.735, 2, -36.7167, 1.33555, 19.9736, -161.071, -93.2895, 55.6405
2.74, 2, -36.7167, 1.33555, 19.9736, -161.071, -93.2895, 55.6405
2.744, 2, -36.7167, 1.33555, 19.9736, -161.071, -93.2895, 55.6405
2.748, 2, -36.7167, 1.33555, 19.9736, -161.071, -93.2895, 55.6405
2.752, 2, -36.7167, 1.33555, 19.9736, -161.071, -93.2895, 55.6405
2.755, 2, -36.7167, 1.33555, 19.9736, -161.071, -93.2895, 55.6405
2.76, 2, -36.7167, 1.33555, 19.9736, -161.071, -93.2895, 55.6405
2.764, 2, -36.7167, 1.33555, 19.9736, -161.071, -93.2895, 55.6405
2.768, 2, -36.7167, 1.33555, 19.9736, -161.071, -93.2895, 55.6405
2.772, 2, -36.7167, 1.33555, 19.9736, -161.071, -93.2895, 55.6405
2.775, 2, -36.7167, 1.33555, 19.9736, -161.071, -93.2895, 55.6405
2.78, 2, -36.7167, 1.33555, 19.9736, -161.071, -93.2895, 55.6405
2.784, 2, -36.7167, 1.33555, 19.9736, -161.071, -93.2895, 55.6405
2.788, 2, -36.7167, 1.33555, 19.9736, -161.071, -93.2895, 55.6405
2.791, 2, -36.7167, 1.33555, 19.9736, -161.071, -93.2895, 55.6405
2.796, 2, -36.7167, 1.33555, 19.9736, -161.071, -93.2895, 55.6405
2.8, 2, -36.7167, 1.33555, 19.9736, -161.071, -93.2895, 55.6405
2.804, 2, -36.7167, 1.33555, 19.9736, -161.071, -93.2895, 55.6405
2.808, 2, -36.7167, 1.33555, 19.9736, -161.071, -93.2895, 55.6405
2.811, 2, -36.7167, 1.33555, 19.9736, -161.071, -93.2895, 55.6405
2.816, 2, -36.7167, 1.33555, 19.9736, -161.071, -93.2895, 55.6405
2.82, 2, -36.7167, 1.33555, 19.9736, -161.071, -93.2895, 55.6405
2.824, 2, -36.7167, 1.33555, 19.9736, -161.071, -93.2895, 55.6405
2.828, 2, -36.7167, 1.33555, 19.9736, -161.071, -93.2895, 55.6405
2.831, 2, -36.7167, 1.33555, 19.9736, -161.071, -93.2895, 55.6405
2.836, 2, -36.7167, 1.33555, 19.9736, -161.071, -93.2895, 55.6405
2.84, 2, -36.7167, 1.33555, 19.9736, -161.071, -93.2895, 55.6405
2.844, 2, -36.7167, 1.33555, 19.9736, -161.071, -93.2895, 55.6405
2.847, 2, -36.7167, 1.33555, 19.9736, -161.071, -93.2895, 55.6405
2.852, 2, -36.7167, 1.33555, 19.9736, -161.071, -93.2895, 55.6405
2.856, 2, -36.7167, 1.33555, 19.9736, -161.071, -93.2895, 55.6405
2.86, 2, -36.7167, 1.33555, 19.9736, -161.071, -93.2895, 55.6405
2.864, 2, -36.7167, 1.33555, 19.9736, -161.071, -93.2895, 55.6405
2.867, 2, -36.7167, 1.33555, 19.9736, -161.071, -93.2895, 55.6405
2.872, 2, -36.7167, 1.33555, 19.9736, -161.071, -93.2895, 55.6405
2.876, 2, -36.7167, 1.33555, 19.9736, -161.071, -93.2895, 55.6405
2.88, 2, -36.7167, 1.33555, 19.9736, -161.071, -93.2895, 55.6405
2.883, 2, -36.7167, 1.33555, 19.9736, -161.071, -93.2895, 55.6405
2.888, 2, -36.7167, 1.33555, 19.9736, -161.071, -93.2895, 55.6405
2.892, 2, -36.7167, 1.33555, 19.9736, -161.071, -93.2895, 55.6405
2.896, 2, -36.7167, 1.33555, 19.9736, -161.071, -93.2895, 55.6405
2.9, 2, -36.7167, 1.33555, 19.9736, -161.071, -93.2895, 55.6405
2.903, 2, -36.7167, 1.33555, 19.9736, -161.071, -93.2895, 55.6405
2.908, 2, -36.7167, 1.33555, 19.9736, -161.071, -93.2895, 55.6405
2.912, 2, -36.7167, 1.33555, 19.9736, -161.071, -93.2895, 55.6405
2.916, 2, -36.7167, 1.33555, 19.9736, -161.071, -93.2895, 55.6405
2.92, 2, -36.7167, 1.33555, 19.9736, -161.071, -93.2895, 55.6405
2.923, 2, -36.7167, 1.33555, 19.9736, -161.071, -93.2895, 55.6405
2.928, 2, -36.7167, 1.33555, 19.9736, -161.071, -93.2895, 55.6405
2.932, 2, -36.7167, 1.33555, 19.9736, -161.071, -93.2895, 55.6405
2.936, 2, -36.7167, 1.33555, 19.9736, -161.071, -93.2895, 55.6405
2.939, 2, -36.7167, 1.33555, 19.9736, -161.071, -93.2895, 55.6405
2.944, 2, -36.7167, 1.33555, 19.9736, -161.071, -93.2895, 55.6405
2.948, 2, -36.7167, 1.33555, 19.9736, -161.071, -93.2895, 55.6405
2.952, 2, -36.7167, 1.33555, 19.9736, -161.071, -93.2895, 55.6405
2.956, 2, -36.7167, 1.33555, 19.9736, -161.071, -93.2895, 55.6405
2.959, 2, -36.7167, 1.33555, 19.9736, -161.071, -93.2895, 55.6405
2.964, 2, -36.7167, 1.33555, 19.9736, -161.071, -93.2895, 55.6405
2.968, 2, -36.7167, 1.33555, 19.9736, -161.071, -93.2895, 55.6405
2.972, 2, -36.7167, 1.33555, 19.9736, -161.071, -93.2895, 55.6405
2.976, 2, -36.7167, 1.33555, 19.9736, -161.071, -93.2895, 55.6405
2.98, 2, -36.7167, 1.33555, 19.9736, -161.071, -93.2895, 55.6405
2.984, 2, -36.7167, 1.33555, 19.9736, -161.071, -93.2895, 55.6405
2.988, 2, -36.7167, 1.33555, 19.9736, -161.071, -93.2895, 55.6405
2.992, 2, -36.7167, 1.33555, 19.9736, -161.071, -93.2895, 55.6405
2.995, 2, -36.7167, 1.33555, 19.9736, -161.071, -93.2895, 55.6405
3, 2, -36.7167, 1.33555, 19.9736, -161.071, -93.2895, 55.6405
3.004, 2, -36.7167, 1.33555, 19.9736, -161.071, -93.2895, 55.6405
3.008, 2, -36.7167, 1.33555, 19.9736, -161.071, -93.2895, 55.6405
3.012, 2, -36.7167, 1.33555, 19.9736, -161.071, -93.2895, 55.6405
3.015, 2, -36.7167, 1.33555, 19.9736, -161.071, -93.2895, 55.6405
3.02, 2, -36.7167, 1.33555, 19.9736, -161.071, -93.2895, 55.6405
3.024, 2, -36.7167, 1.33555, 19.9736, -161.071, -93.2895, 55.6405
3.028, 2, -36.7167, 1.33555, 19.9736, -161.071, -93.2895, 55.6405
3.031, 2, -36.7167, 1.33555, 19.9736, -161.071, -93.2895, 55.6405
3.036, 2, -36.7167, 1.33555, 19.9736, -161.071, -93.2895, 55.6405
3.04, 2, -36.7167, 1.33555, 19.9736, -161.071, -93.2895, 55.6405
3.044, 2, -36.7167, 1.33555, 19.9736, -161.071, -93.2895, 55.6405
3.048, 2, -36.7167, 1.33555, 19.9736, -161.071, -93.2895, 55.6405
3.051, 2, -36.7167, 1.33555, 19.9736, -161.071, -93.2895, 55.6405
3.056, 2, -36.7167, 1.33555, 19.9736, -161.071, -93.2895, 55.6405
3.06, 2, -36.7167, 1.33555, 19.9736, -161.071, -93.2895, 55.6405
3.064, 2, -36.7167, 1.33555, 19.9736, -161.071, -93.2895, 55.6405
3.068, 2, -36.7167, 1.33555, 19.9736, -161.071, -93.2895, 55.6405
3.071, 2, -36.7167, 1.33555, 19.9736, -161.071, -93.2895, 55.6405
3.076, 2, -36.7167, 1.33555, 19.9736, -161.071, -93.2895, 55.6405
3.08, 2, -36.7167, 1.33555, 19.9736, -161.071, -93.2895, 55.6405
3.084, 2, -36.7167, 1.33555, 19.9736, -161.071, -93.2895, 55.6405
3.087, 2, -36.7167, 1.33555, 19.9736, -161.071, -93.2895, 55.6405
3.092, 2, -36.7167, 1.33555, 19.9736, -161.071, -93.2895, 55.6405
3.096, 2, -36.7167, 1.33555, 19.9736, -161.071, -93.2895, 55.6405
3.1, 2, -36.7167, 1.33555, 19.9736, -161.071, -93.2895, 55.6405
3.104, 2, -36.7167, 1.33555, 19.9736, -161.071, -93.2895, 55.6405
3.107, 2, -36.7167, 1.33555, 19.9736, -161.071, -93.2895, 55.6405
3.112, 2, -36.7167, 1.33555, 19.9736, -161.071, -93.2895, 55.6405
3.116, 2, -36.7167, 1.33555, 19.9736, -161.071, -93.2895, 55.6405
3.12, 2, -36.7167, 1.33555, 19.9736, -161.071, -93.2895, 55.6405
3.124, 2, -36.7167, 1.33555, 19.9736, -161.071, -93.2895, 55.6405
3.128, 2, -36.7167, 1.33555, 19.9736, -161.071, -93.2895, 55.6405
3.132, 2, -36.7167, 1.33555, 19.9736, -161.071, -93.2895, 55.6405
3.136, 2, -36.7167, 1.33555, 19.9736, -161.071, -93.2895, 55.6405
3.14, 2, -36.7167, 1.33555, 19.9736, -161.071, -93.2895, 55.6405
3.143, 2, -36.7167, 1.33555, 19.9736, -161.071, -93.2895, 55.6405
3.148, 2, -36.7167, 1.33555, 19.9736, -161.071, -93.2895, 55.6405
3.152, 2, -36.7167, 1.33555, 19.9736, -161.071, -93.2895, 55.6405
3.156, 2, -36.7167, 1.33555, 19.9736, -161.071, -93.2895, 55.6405
3.16, 2, -36.7167, 1.33555, 19.9736, -161.071, -93.2895, 55.6405
3.163, 2, -36.7167, 1.33555, 19.9736, -161.071, -93.2895, 55.6405
3.168, 2, -36.7167, 1.33555, 19.9736, -161.071, -93.2895, 55.6405
3.172, 2, -36.7167, 1.33555, 19.9736, -161.071, -93.2895, 55.6405
3.176, 2, -36.7167, 1.33555, 19.9736, -161.071, -93.2895, 55.6405
3.179, 2, -36.7167, 1.33555, 19.9736, -161.071, -93.2895, 55.6405
3.184, 2, -36.7167, 1.33555, 19.9736, -161.071, -93.2895, 55.6405
3.188, 2, -36.7167, 1.33555, 19.9736, -161.071, -93.2895, 55.6405
3.192, 2, -36.7167, 1.33555, 19.9736, -161.071, -93.2895, 55.6405
3.196, 2, -36.7167, 1.33555, 19.9736, -161.071, -93.2895, 55.6405
3.199, 2, -36.7167, 1.33555, 19.9736, -161.071, -93.2895, 55.6405
3.204, 2, -36.7167, 1.33555, 19.9736, -161.071, -93.2895, 55.6405
3.208, 2, -36.7167, 1.33555, 19.9736, -161.071, -93.2895, 55.6405
3.212, 2, -36.7167, 1.33555, 19.9736, -161.071, -93.2895, 55.6405
3.216, 2, -36.7167, 1.33555, 19.9736, -161.071, -93.2895, 55.6405
3.22, 2, -36.7167, 1.33555, 19.9736, -161.071, -93.2895, 55.6405
3.224, 2, -36.7167, 1.33555, 19.9736, -161.071, -93.2895, 55.6405
3.228, 2, -36.7167, 1.33555, 19.9736, -161.071, -93.2895, 55.6405
3.232, 2, -36.7167, 1.33555, 19.9736, -161.071, -93.2895, 55.6405
3.235, 2, -36.7167, 1.33555, 19.9736, -161.071, -93.2895, 55.6405
3.24, 2, -36.7167, 1.33555, 19.9736, -161.071, -93.2895, 55.6405
3.244, 2, -36.7167, 1.33555, 19.9736, -161.071, -93.2895, 55.6405
3.248, 2, -36.7167, 1.33555, 19.9736, -161.071, -93.2895, 55.6405
3.252, 2, -36.7167, 1.33555, 19.9736, -161.071, -93.2895, 55.6405
3.255, 2, -36.7167, 1.33555, 19.9736, -161.071, -93.2895, 55.6405
3.26, 2, -36.7167, 1.33555, 19.9736, -161.071, -93.2895, 55.6405
3.264, 2, -36.7167, 1.33555, 19.9736, -161.071, -93.2895, 55.6405
3.268, 2, -36.7167, 1.33555, 19.9736, -161.071, -93.2895, 55.6405
3.272, 2, -36.7167, 1.33555, 19.9736, -161.071, -93.2895, 55.6405
3.276, 2, -36.7167, 1.33555, 19.9736, -161.071, -93.2895, 55.6405
3.28, 2, -36.7167, 1.33555, 19.9736, -161.071, -93.2895, 55.6405
3.284, 2, -36.7167, 1.33555, 19.9736, -161.071, -93.2895, 55.6405
3.288, 2, -36.7167, 1.33555, 19.9736, -161.071, -93.2895, 55.6405
3.291, 2, -36.7167, 1.33555, 19.9736, -161.071, -93.2895, 55.6405
3.296, 2, -36.7167, 1.33555, 19.9736, -161.071, -93.2895, 55.6405
3.3, 2, -36.7167, 1.33555, 19.9736, -161.071, -93.2895, 55.6405
3.304, 2, -36.7167, 1.33555, 19.9736, -161.071, -93.2895, 55.6405
3.308, 2, -36.7167, 1.33555, 19.9736, -161.071, -93.2895, 55.6405
3.312, 2, -36.7167, 1.33555, 19.9736, -161.071, -93.2895, 55.6405
3.316, 2, -36.7167, 1.33555, 19.9736, -161.071, -93.2895, 55.6405
3.32, 2, -36.7167, 1.33555, 19.9736, -161.071, -93.2895, 55.6405
3.324, 2, -36.7167, 1.33555, 19.9736, -161.071, -93.2895, 55.6405
3.328, 2, -36.7167, 1.33555, 19.9736, -161.071, -93.2895, 55.6405
3.332, 2, -36.7167, 1.33555, 19.9736, -161.071, -93.2895, 55.6405
3.336, 2, -36.7167, 1.33555, 19.9736, -161.071, -93.2895, 55.6405
3.34, 2, -36.7167, 1.33555, 19.9736, -161.071, -93.2895, 55.6405
3.344, 2, -36.7167, 1.33555, 19.9736, -161.071, -93.2895, 55.6405
3.347, 2, -36.7167, 1.33555, 19.9736, -161.071, -93.2895, 55.6405
3.352, 2, -36.7167, 1.33555, 19.9736, -161.071, -93.2895, 55.6405
3.356, 2, -36.7167, 1.33555, 19.9736, -161.071, -93.2895, 55.6405
3.36, 2, -36.7167, 1.33555, 19.9736, -161.071, -93.2895, 55.6405
3.364, 2, -36.7167, 1.33555, 19.9736, -161.071, -93.2895, 55.6405
3.368, 2, -36.7167, 1.33555, 19.9736, -161.071, -93.2895, 55.6405
3.372, 2, -36.7167, 1.33555, 19.9736, -161.071, -93.2895, 55.6405
3.376, 2, -36.7167, 1.33555, 19.9736, -161.071, -93.2895, 55.6405
3.38, 2, -36.7167, 1.33555, 19.9736, -161.071, -93.2895, 55.6405
3.383, 2, -36.7167, 1.33555, 19.9736, -161.071, -93.2895, 55.6405
3.388, 2, -36.7167, 1.33555, 19.9736, -161.071, -93.2895, 55.6405
3.392, 2, -36.7167, 1.33555, 19.9736, -161.071, -93.2895, 55.6405
3.396, 2, -36.7167, 1.33555, 19.9736, -161.071, -93.2895, 55.6405
3.4, 2, -36.7167, 1.33555, 19.9736, -161.071, -93.2895, 55.6405
3.403, 2, -36.7167, 1.33555, 19.9736, -161.071, -93.2895, 55.6405
3.408, 2, -36.7167, 1.33555, 19.9736, -161.071, -93.2895, 55.6405
3.412, 2, -36.7167, 1.33555, 19.9736, -161.071, -93.2895, 55.6405
3.416, 2, -36.7167, 1.33555, 19.9736, -161.071, -93.2895, 55.6405
3.42, 2, -36.7167, 1.33555, 19.9736, -161.071, -93.2895, 55.6405
3.424, 2, -36.7167, 1.33555, 19.9736, -161.071, -93.2895, 55.6405
3.428, 2, -36.7167, 1.33555, 19.9736, -161.071, -93.2895, 55.6405
3.432, 2, -36.7167, 1.33555, 19.9736, -161.071, -93.2895, 55.6405
3.436, 2, -36.7167, 1.33555, 19.9736, -161.071, -93.2895, 55.6405
3.439, 2, -36.7167, 1.33555, 19.9736, -161.071, -93.2895, 55.6405
3.444, 2, -36.7167, 1.33555, 19.9736, -161.071, -93.2895, 55.6405
3.448, 2, -36.7167, 1.33555, 19.9736, -161.071, -93.2895, 55.6405
3.452, 2, -36.7167, 1.33555, 19.9736, -161.071, -93.2895, 55.6405
3.456, 2, -36.7167, 1.33555, 19.9736, -161.071, -93.2895, 55.6405
3.46, 2, -36.7167, 1.33555, 19.9736, -161.071, -93.2895, 55.6405
3.464, 2, -36.7167, 1.33555, 19.9736, -161.071, -93.2895, 55.6405
3.468, 2, -36.7167, 1.33555, 19.9736, -161.071, -93.2895, 55.6405
3.472, 2, -36.7167, 1.33555, 19.9736, -161.071, -93.2895, 55.6405
3.476, 2, -36.7167, 1.33555, 19.9736, -161.071, -93.2895, 55.6405
3.48, 2, -36.7167, 1.33555, 19.9736, -161.071, -93.2895, 55.6405
3.484, 2, -36.7167, 1.33555, 19.9736, -161.071, -93.2895, 55.6405
3.488, 2, -36.7167, 1.33555, 19.9736, -161.071, -93.2895, 55.6405
3.492, 2, -36.7167, 1.33555, 19.9736, -161.071, -93.2895, 55.6405
3.495, 2, -36.7167, 1.33555, 19.9736, -161.071, -93.2895, 55.6405
3.5, 2, -36.7167, 1.33555, 19.9736, -161.071, -93.2895, 55.6405
3.504, 2, -36.7167, 1.33555, 19.9736, -161.071, -93.2895, 55.6405
3.508, 2, -36.7167, 1.33555, 19.9736, -161.071, -93.2895, 55.6405
3.512, 2, -36.7167, 1.33555, 19.9736, -161.071, -93.2895, 55.6405
3.516, 2, -36.7167, 1.33555, 19.9736, -161.071, -93.2895, 55.6405
3.52, 2, -36.7167, 1.33555, 19.9736, -161.071, -93.2895, 55.6405
3.524, 2, -36.7167, 1.33555, 19.9736, -161.071, -93.2895, 55.6405
3.528, 2, -36.7167, 1.33555, 19.9736, -161.071, -93.2895, 55.6405
3.531, 2, -36.7167, 1.33555, 19.9736, -161.071, -93.2895, 55.6405
3.536, 2, -36.7167, 1.33555, 19.9736, -161.071, -93.2895, 55.6405
3.54, 2, -36.7167, 1.33555, 19.9736, -161.071, -93.2895, 55.6405
3.544, 2, -36.7167, 1.33555, 19.9736, -161.071, -93.2895, 55.6405
3.548, 2, -36.7167, 1.33555, 19.9736, -161.071, -93.2895, 55.6405
3.552, 2, -36.7167, 1.33555, 19.9736, -161.071, -93.2895, 55.6405
3.556, 2, -36.7167, 1.33555, 19.9736, -161.071, -93.2895, 55.6405
3.56, 2, -36.7167, 1.33555, 19.9736, -161.071, -93.2895, 55.6405
3.564, 2, -36.7167, 1.33555, 19.9736, -161.071, -93.2895, 55.6405
3.568, 2, -36.7167, 1.33555, 19.9736, -161.071, -93.2895, 55.6405
3.572, 2, -36.7167, 1.33555, 19.9736, -161.071, -93.2895, 55.6405
3.576, 2, -36.7167, 1.33555, 19.9736, -161.071, -93.2895, 55.6405
3.58, 2, -36.7167, 1.33555, 19.9736, -161.071, -93.2895, 55.6405
3.584, 2, -36.7167, 1.33555, 19.9736, -161.071, -93.2895, 55.6405
3.587, 2, -36.7167, 1.33555, 19.9736, -161.071, -93.2895, 55.6405
3.592, 2, -36.7167, 1.33555, 19.9736, -161.071, -93.2895, 55.6405
3.596, 2, -36.7167, 1.33555, 19.9736, -161.071, -93.2895, 55.6405
3.6, 2, -36.7167, 1.33555, 19.9736, -161.071, -93.2895, 55.6405
3.604, 2, -36.7167, 1.33555, 19.9736, -161.071, -93.2895, 55.6405
3.608, 2, -36.7167, 1.33555, 19.9736, -161.071, -93.2895, 55.6405
3.612, 2, -36.7167, 1.33555, 19.9736, -161.071, -93.2895, 55.6405
3.616, 2, -36.7167, 1.33555, 19.9736, -161.071, -93.2895, 55.6405
3.62, 2, -36.7167, 1.33555, 19.9736, -161.071, -93.2895, 55.6405
3.624, 2, -36.7167, 1.33555, 19.9736, -161.071, -93.2895, 55.6405
3.628, 2, -36.7167, 1.33555, 19.9736, -161.071, -93.2895, 55.6405
3.632, 2, -36.7167, 1.33555, 19.9736, -161.071, -93.2895, 55.6405
3.636, 2, -36.7167, 1.33555, 19.9736, -161.071, -93.2895, 55.6405
3.64, 2, -36.7167, 1.33555, 19.9736, -161.071, -93.2895, 55.6405
3.644, 2, -36.7167, 1.33555, 19.9736, -161.071, -93.2895, 55.6405
3.648, 2, -36.7167, 1.33555, 19.9736, -161.071, -93.2895, 55.6405
3.652, 2, -36.7167, 1.33555, 19.9736, -161.071, -93.2895, 55.6405
3.656, 2, -36.7167, 1.33555, 19.9736, -161.071, -93.2895, 55.6405
3.66, 2, -36.7167, 1.33555, 19.9736, -161.071, -93.2895, 55.6405
3.664, 2, -36.7167, 1.33555, 19.9736, -161.071, -93.2895, 55.6405
3.668, 2, -36.7167, 1.33555, 19.9736, -161.071, -93.2895, 55.6405
3.672, 2, -36.7167, 1.33555, 19.9736, -161.071, -93.2895, 55.6405
3.676, 4, -36.7167, 1.33555, 19.9736, -161.071, -93.2895, 55.6405
3.679, 4, -36.7167, 1.33555, 19.9736, -161.071, -93.2895, 55.6405
3.684, 4, -36.7167, 1.33555, 19.9736, -161.071, -93.2895, 55.6405
3.688, 4, -36.7167, 1.33555, 19.9736, -161.071, -93.2895, 55.6405
3.692, 4, -36.7167, 1.33555, 19.9736, -161.071, -93.2895, 55.6405
3.696, 4, -36.7167, 1.33555, 19.9736, -161.071, -93.2895, 55.6405
3.7, 4, -36.7167, 1.33555, 19.9736, -161.071, -93.2895, 55.6405
3.704, 4, -36.7167, 1.33555, 19.9736, -161.071, -93.2895, 55.6405
3.708, 4, -36.7167, 1.33555, 19.9736, -161.071, -93.2895, 55.6405
3.712, 4, -36.7167, 1.33555, 19.9736, -161.071, -93.2895, 55.6405
3.716, 4, -36.7167, 1.33555, 19.9736, -161.071, -93.2895, 55.6405
3.72, 4, -36.7167, 1.33555, 19.9736, -161.071, -93.2895, 55.6405
3.724, 4, -36.7167, 1.33555, 19.9736, -161.071, -93.2895, 55.6405
3.728, 4, -36.7167, 1.33555, 19.9736, -161.071, -93.2895, 55.6405
3.732, 4, -36.7167, 1.33555, 19.9736, -161.071, -93.2895, 55.6405
3.735, 4, -36.7167, 1.33555, 19.9736, -161.071, -93.2895, 55.6405
3.74, 4, -36.7167, 1.33555, 19.9736, -161.071, -93.2895, 55.6405
3.744, 4, -36.7167, 1.33555, 19.9736, -161.071, -93.2895, 55.6405
3.748, 4, -36.7167, 1.33555, 19.9736, -161.071, -93.2895, 55.6405
3.752, 4, -36.7167, 1.33555, 19.9736, -161.071, -93.2895, 55.6405
3.756, 4, -36.7167, 1.33555, 19.9736, -161.071, -93.2895, 55.6405
3.76, 4, -36.7167, 1.33555, 19.9736, -161.071, -93.2895, 55.6405
3.764, 4, -36.7167, 1.33555, 19.9736, -161.071, -93.2895, 55.6405
3.768, 4, -36.7167, 1.33555, 19.9736, -161.071, -93.2895, 55.6405
3.772, 4, -36.7167, 1.33555, 19.9736, -161.071, -93.2895, 55.6405
3.776, 4, -36.7167, 1.33555, 19.9736, -161.071, -93.2895, 55.6405
3.78, 4, -36.7167, 1.33555, 19.9736, -161.071, -93.2895, 55.6405
3.784, 4, -36.7167, 1.33555, 19.9736, -161.071, -93.2895, 55.6405
3.788, 4, -36.7167, 1.33555, 19.9736, -161.071, -93.2895, 55.6405
3.792, 4, -36.7167, 1.33555, 19.9736, -161.071, -93.2895, 55.6405
3.796, 4, -36.7167, 1.33555, 19.9736, -161.071, -93.2895, 55.6405
3.8, 4, -36.7167, 1.33555, 19.9736, -161.071, -93.2895, 55.6405
3.804, 4, -36.7166, 1.33555, 19.9736, -161.071, -93.2895, 55.6405
3.808, 4, -36.7166, 1.33552, 19.9736, -161.071, -93.2895, 55.6405
3.812, 4, -36.7164, 1.33541, 19.9736, -161.071, -93.2895, 55.6405
3.816, 4, -36.7159, 1.33513, 19.9737, -161.071, -93.2895, 55.6405
3.82, 4, -36.715, 1.33456, 19.9739, -161.071, -93.2895, 55.6405
3.824, 4, -36.7135, 1.33357, 19.9743, -161.071, -93.2895, 55.6405
3.828, 4, -36.7112, 1.33203, 19.9749, -161.071, -93.2895, 55.6404
3.832, 4, -36.7082, 1.32983, 19.9759, -161.071, -93.2895, 55.6403
3.836, 4, -36.7045, 1.32691, 19.9774, -161.07, -93.2894, 55.6401
3.84, 4, -36.7, 1.32323, 19.9795, -161.07, -93.2892, 55.6397
3.844, 4, -36.6948, 1.31875, 19.9823, -161.069, -93.2888, 55.6391
3.848, 5, -36.6889, 1.31343, 19.9859, -161.068, -93.2883, 55.6384
3.852, 5, -36.6823, 1.30718, 19.9906, -161.067, -93.2875, 55.6373
3.856, 5, -36.6749, 1.29993, 19.9965, -161.065, -93.2865, 55.6359
3.86, 5, -36.6667, 1.29162, 20.0036, -161.063, -93.2852, 55.6342
3.864, 5, -36.6575, 1.28222, 20.0122, -161.061, -93.2835, 55.6321
3.868, 5, -36.6475, 1.27174, 20.0222, -161.058, -93.2815, 55.6295
3.872, 5, -36.6367, 1.2602, 20.0337, -161.054, -93.2791, 55.6265
3.876, 5, -36.625, 1.24763, 20.0468, -161.05, -93.2763, 55.6231
3.88, 5, -36.6126, 1.23406, 20.0613, -161.045, -93.2731, 55.6192
3.884, 5, -36.5994, 1.21948, 20.0773, -161.04, -93.2695, 55.6149
3.888, 5, -36.5854, 1.20384, 20.0947, -161.035, -93.2656, 55.6102
3.892, 5, -36.5704, 1.18711, 20.1133, -161.029, -93.2615, 55.6052
3.896, 5, -36.5544, 1.16927, 20.1331, -161.022, -93.257, 55.5999
3.9, 5, -36.5375, 1.15038, 20.154, -161.015, -93.2524, 55.5943
3.904, 5, -36.5198, 1.13051, 20.1757, -161.008, -93.2476, 55.5885
3.908, 5, -36.5012, 1.10976, 20.1982, -161.001, -93.2426, 55.5825
3.912, 5, -36.4819, 1.08824, 20.2213, -160.994, -93.2375, 55.5764
3.916, 5, -36.4619, 1.06606, 20.2449, -160.986, -93.2324, 55.5702
3.92, 5, -36.4413, 1.04331, 20.2688, -160.978, -93.2271, 55.5639
3.924, 5, -36.4201, 1.02008, 20.2931, -160.971, -93.2219, 55.5576
3.928, 5, -36.3984, 0.996466, 20.3176, -160.963, -93.2166, 55.5512
3.932, 5, -36.3762, 0.972538, 20.3423, -160.955, -93.2113, 55.5448
3.936, 5, -36.3537, 0.948383, 20.367, -160.947, -93.206, 55.5384
3.94, 5, -36.3309, 0.92407, 20.3919, -160.939, -93.2007, 55.532
3.944, 5, -36.308, 0.899652, 20.4167, -160.931, -93.1954, 55.5256
3.948, 5, -36.2849, 0.875167, 20.4416, -160.923, -93.19, 55.5192
3.952, 5, -36.2617, 0.850641, 20.4665, -160.915, -93.1847, 55.5128
3.956, 5, -36.2385, 0.826089, 20.4914, -160.907, -93.1794, 55.5065
3.96, 5, -36.2152, 0.801524, 20.5163, -160.899, -93.1741, 55.5001
3.964, 5, -36.1919, 0.776953, 20.5412, -160.891, -93.1688, 55.4938
3.968, 5, -36.1686, 0.752383, 20.5661, -160.883, -93.1634, 55.4875
3.972, 5, -36.1452, 0.727815, 20.5909, -160.875, -93.1581, 55.4812
3.976, 5, -36.1218, 0.703254, 20.6158, -160.867, -93.1528, 55.4749
3.98, 5, -36.0984, 0.6787, 20.6406, -160.859, -93.1475, 55.4686
3.984, 5, -36.075, 0.654155, 20.6654, -160.851, -93.1422, 55.4623
3.988, 5, -36.0515, 0.629619, 20.6901, -160.843, -93.1369, 55.4561
3.992, 5, -36.0281, 0.605093, 20.7149, -160.835, -93.1316, 55.4498
3.996, 5, -36.0046, 0.580577, 20.7396, -160.827, -93.1263, 55.4436
3.999, 5, -35.9811, 0.556072, 20.7643, -160.819, -93.121, 55.4374
4.004, 5, -35.9576, 0.531577, 20.789, -160.811, -93.1157, 55.4312
4.008, 5, -35.934, 0.507094, 20.8137, -160.803, -93.1104, 55.4251
4.012, 5, -35.9105, 0.482621, 20.8383, -160.795, -93.1051, 55.4189
4.016, 5, -35.887, 0.45816, 20.863, -160.787, -93.0998, 55.4128
4.02, 5, -35.8634, 0.433709, 20.8876, -160.779, -93.0945, 55.4066
4.024, 5, -35.8398, 0.40927, 20.9122, -160.77, -93.0892, 55.4005
4.028, 5, -35.8162, 0.384842, 20.9367, -160.762, -93.0839, 55.3944
4.032, 5, -35.7926, 0.360424, 20.9613, -160.754, -93.0786, 55.3883
4.036, 5, -35.769, 0.336018, 20.9858, -160.746, -93.0733, 55.3823
4.04, 5, -35.7453, 0.311624, 21.0103, -160.738, -93.0681, 55.3762
4.044, 5, -35.7217, 0.28724, 21.0348, -160.73, -93.0628, 55.3702
4.048, 5, -35.698, 0.262868, 21.0592, -160.722, -93.0575, 55.3642
4.052, 5, -35.6743, 0.238507, 21.0837, -160.714, -93.0522, 55.3582
4.056, 5, -35.6506, 0.214157, 21.1081, -160.706, -93.0469, 55.3522
4.06, 5, -35.6269, 0.189818, 21.1325, -160.698, -93.0417, 55.3462
4.064, 5, -35.6032, 0.165491, 21.1569, -160.69, -93.0364, 55.3402
4.068, 5, -35.5794, 0.141175, 21.1812, -160.681, -93.0311, 55.3343
4.072, 5, -35.5556, 0.11687, 21.2055, -160.673, -93.0259, 55.3284
4.076, 5, -35.5319, 0.0925771, 21.2299, -160.665, -93.0206, 55.3224
4.08, 5, -35.5081, 0.0682952, 21.2542, -160.657, -93.0153, 55.3165
4.084, 5, -35.4843, 0.0440246, 21.2784, -160.649, -93.01, 55.3106
4.088, 5, -35.4605, 0.0197654, 21.3027, -160.641, -93.0048, 55.3048
4.092, 5, -35.4366, -0.00448238, 21.3269, -160.633, -92.9995, 55.2989
4.096, 5, -35.4128, -0.0287188, 21.3511, -160.625, -92.9943, 55.2931
4.1, 5, -35.3889, -0.0529437, 21.3753, -160.616, -92.989, 55.2873
4.104, 5, -35.365, -0.0771572, 21.3995, -160.608, -92.9837, 55.2815
4.108, 5, -35.3411, -0.101359, 21.4236, -160.6, -92.9785, 55.2757
4.112, 5, -35.3172, -0.12555, 21.4477, -160.592, -92.9732, 55.2699
4.116, 5, -35.2933, -0.149729, 21.4718, -160.584, -92.968, 55.2641
4.12, 5, -35.2694, -0.173896, 21.4959, -160.576, -92.9627, 55.2584
4.124, 5, -35.2454, -0.198053, 21.52, -160.567, -92.9575, 55.2526
4.128, 5, -35.2214, -0.222197, 21.544, -160.559, -92.9522, 55.2469
4.132, 5, -35.1975, -0.24633, 21.568, -160.551, -92.9469, 55.2412
4.136, 5, -35.1735, -0.270452, 21.592, -160.543, -92.9417, 55.2355
4.14, 5, -35.1494, -0.294561, 21.616, -160.535, -92.9365, 55.2299
4.144, 5, -35.1254, -0.31866, 21.6399, -160.527, -92.9312, 55.2242
4.148, 5, -35.1014, -0.342746, 21.6639, -160.518, -92.926, 55.2186
4.152, 5, -35.0773, -0.366822, 21.6878, -160.51, -92.9207, 55.213
4.156, 5, -35.0532, -0.390885, 21.7117, -160.502, -92.9155, 55.2073
4.16, 5, -35.0292, -0.414937, 21.7355, -160.494, -92.9102, 55.2018
4.164, 5, -35.0051, -0.438977, 21.7594, -160.485, -92.905, 55.1962
4.168, 5, -34.9809, -0.463006, 21.7832, -160.477, -92.8997, 55.1906
4.172, 5, -34.9568, -0.487023, 21.807, -160.469, -92.8945, 55.1851
4.176, 5, -34.9327, -0.511029, 21.8308, -160.461, -92.8893, 55.1795
4.18, 5, -34.9085, -0.535023, 21.8546, -160.453, -92.884, 55.174
4.184, 5, -34.8843, -0.559005, 21.8783, -160.444, -92.8788, 55.1685
4.188, 5, -34.8601, -0.582975, 21.902, -160.436, -92.8736, 55.163
4.192, 5, -34.8359, -0.606934, 21.9257, -160.428, -92.8683, 55.1576
4.196, 5, -34.8117, -0.630881, 21.9494, -160.42, -92.8631, 55.1521
4.2, 5, -34.7874, -0.654817, 21.9731, -160.411, -92.8578, 55.1467
4.204, 5, -34.7632, -0.678741, 21.9967, -160.403, -92.8526, 55.1412
4.208, 5, -34.7389, -0.702653, 22.0203, -160.395, -92.8474, 55.1358
4.212, 5, -34.7146, -0.726553, 22.0439, -160.387, -92.8422, 55.1304
4.216, 5, -34.6903, -0.750442, 22.0675, -160.378, -92.8369, 55.1251
4.22, 5, -34.666, -0.774319, 22.091, -160.37, -92.8317, 55.1197
4.224, 5, -34.6417, -0.798184, 22.1146, -160.362, -92.8265, 55.1143
4.228, 5, -34.6174, -0.822038, 22.1381, -160.354, -92.8212, 55.109
4.232, 5, -34.593, -0.845879, 22.1616, -160.345, -92.816, 55.1037
4.236, 5, -34.5686, -0.869709, 22.185, -160.337, -92.8108, 55.0984
4.24, 5, -34.5442, -0.893527, 22.2085, -160.329, -92.8056, 55.0931
4.244, 5, -34.5198, -0.917334, 22.2319, -160.32, -92.8003, 55.0878
4.248, 5, -34.4954, -0.941128, 22.2553, -160.312, -92.7951, 55.0826
4.252, 5, -34.471, -0.964911, 22.2787, -160.304, -92.7899, 55.0773
4.256, 5, -34.4465, -0.988682, 22.3021, -160.296, -92.7847, 55.0721
4.26, 5, -34.4221, -1.01244, 22.3254, -160.287, -92.7794, 55.0669
4.264, 5, -34.3976, -1.03619, 22.3487, -160.279, -92.7742, 55.0617
4.268, 5, -34.3731, -1.05992, 22.372, -160.271, -92.769, 55.0565
4.272, 5, -34.3486, -1.08365, 22.3953, -160.262, -92.7638, 55.0514
4.276, 5, -34.3241, -1.10736, 22.4186, -160.254, -92.7586, 55.0462
4.28, 5, -34.2995, -1.13106, 22.4418, -160.246, -92.7533, 55.0411
4.284, 5, -34.275, -1.15474, 22.465, -160.237, -92.7481, 55.036
4.288, 5, -34.2504, -1.17842, 22.4882, -160.229, -92.7429, 55.0309
4.292, 5, -34.2258, -1.20208, 22.5114, -160.221, -92.7377, 55.0258
4.296, 5, -34.2012, -1.22573, 22.5345, -160.212, -92.7325, 55.0207
4.3, 5, -34.1766, -1.24937, 22.5577, -160.204, -92.7272, 55.0156
4.304, 5, -34.152, -1.273, 22.5808, -160.196, -92.722, 55.0106
4.308, 5, -34.1273, -1.29662, 22.6039, -160.187, -92.7168, 55.0056
4.312, 5, -34.1027, -1.32022, 22.6269, -160.179, -92.7116, 55.0006
4.316, 5, -34.078, -1.34381, 22.65, -160.171, -92.7064, 54.9956
4.32, 5, -34.0533, -1.36739, 22.673, -160.162, -92.7012, 54.9906
4.324, 5, -34.0286, -1.39096, 22.696, -160.154, -92.6959, 54.9856
4.328, 5, -34.0039, -1.41451, 22.719, -160.145, -92.6907, 54.9807
4.332, 5, -33.9791, -1.43806, 22.742, -160.137, -92.6855, 54.9757
4.336, 5, -33.9544, -1.46159, 22.7649, -160.129, -92.6803, 54.9708
4.34, 5, -33.9296, -1.48511, 22.7879, -160.12, -92.6751, 54.9659
4.344, 5, -33.9049, -1.50861, 22.8108, -160.112, -92.6699, 54.961
4.348, 5, -33.8801, -1.53211, 22.8336, -160.104, -92.6646, 54.9561
4.352, 5, -33.8553, -1.55559, 22.8565, -160.095, -92.6594, 54.9513
4.356, 5, -33.8304, -1.57906, 22.8793, -160.087, -92.6542, 54.9464
4.36, 5, -33.8056, -1.60252, 22.9022, -160.078, -92.649, 54.9416
4.364, 5, -33.7807, -1.62597, 22.925, -160.07, -92.6438, 54.9368
4.368, 5, -33.7559, -1.6494, 22.9477, -160.062, -92.6386, 54.932
4.372, 5, -33.731, -1.67282, 22.9705, -160.053, -92.6334, 54.9272
4.376, 5, -33.7061, -1.69623, 22.9932, -160.045, -92.6281, 54.9225
4.38, 5, -33.6812, -1.71963, 23.0159, -160.036, -92.6229, 54.9177
4.384, 5, -33.6562, -1.74301, 23.0386, -160.028, -92.6177, 54.913
4.388, 5, -33.6313, -1.76638, 23.0613, -160.02, -92.6125, 54.9083
4.392, 5, -33.6063, -1.78974, 23.084, -160.011, -92.6073, 54.9036
4.396, 5, -33.5813, -1.81309, 23.1066, -160.003, -92.602, 54.8989
4.4, 5, -33.5563, -1.83643, 23.1292, -159.994, -92.5968, 54.8942
4.404, 5, -33.5313, -1.85975, 23.1518, -159.986, -92.5916, 54.8895
4.408, 5, -33.5063, -1.88306, 23.1744, -159.977, -92.5864, 54.8849
4.412, 5, -33.4813, -1.90636, 23.1969, -159.969, -92.5812, 54.8803
4.416, 5, -33.4562, -1.92965, 23.2194, -159.96, -92.576, 54.8756
4.42, 5, -33.4312, -1.95292, 23.2419, -159.952, -92.5707, 54.8711
4.424, 5, -33.4061, -1.97618, 23.2644, -159.943, -92.5655, 54.8665
4.428, 5, -33.381, -1.99943, 23.2869, -159.935, -92.5603, 54.8619
4.432, 5, -33.3559, -2.02267, 23.3093, -159.927, -92.5551, 54.8573
4.436, 5, -33.3307, -2.04589, 23.3318, -159.918, -92.5499, 54.8528
4.44, 5, -33.3056, -2.0691, 23.3542, -159.91, -92.5446, 54.8483
4.444, 5, -33.2804, -2.0923, 23.3765, -159.901, -92.5394, 54.8438
4.448, 5, -33.2552, -2.11549, 23.3989, -159.893, -92.5342, 54.8393
4.452, 5, -33.2301, -2.13866, 23.4212, -159.884, -92.529, 54.8348
4.456, 5, -33.2049, -2.16182, 23.4436, -159.876, -92.5238, 54.8304
4.46, 5, -33.1796, -2.18497, 23.4659, -159.867, -92.5185, 54.8259
4.464, 5, -33.1544, -2.20811, 23.4881, -159.859, -92.5133, 54.8215
4.468, 5, -33.1291, -2.23123, 23.5104, -159.85, -92.5081, 54.8171
4.472, 5, -33.1039, -2.25434, 23.5326, -159.842, -92.5029, 54.8127
4.476, 5, -33.0786, -2.27744, 23.5548, -159.833, -92.4976, 54.8083
4.48, 5, -33.0533, -2.30053, 23.577, -159.825, -92.4924, 54.8039
4.484, 5, -33.028, -2.3236, 23.5992, -159.816, -92.4872, 54.7996
4.488, 5, -33.0027, -2.34666, 23.6214, -159.808, -92.4819, 54.7952
4.492, 5, -32.9773, -2.36971, 23.6435, -159.799, -92.4767, 54.7909
4.496, 5, -32.952, -2.39275, 23.6656, -159.791, -92.4715, 54.7866
4.5, 5, -32.9266, -2.41577, 23.6877, -159.782, -92.4663, 54.7823
4.504, 5, -32.9012, -2.43878, 23.7098, -159.774, -92.461, 54.778
4.508, 5, -32.8758, -2.46178, 23.7318, -159.765, -92.4558, 54.7738
4.512, 5, -32.8504, -2.48477, 23.7538, -159.756, -92.4506, 54.7695
4.516, 5, -32.8249, -2.50774, 23.7758, -159.748, -92.4453, 54.7653
4.52, 5, -32.7995, -2.5307, 23.7978, -159.739, -92.4401, 54.7611
4.524, 5, -32.774, -2.55366, 23.8198, -159.731, -92.4349, 54.7569
4.528, 5, -32.7486, -2.57662, 23.8417, -159.722, -92.4296, 54.7527
4.532, 5, -32.7231, -2.59959, 23.8636, -159.714, -92.4244, 54.7485
4.536, 5, -32.6976, -2.6226, 23.8856, -159.705, -92.4192, 54.7444
4.54, 5, -32.6722, -2.64564, 23.9075, -159.697, -92.4139, 54.7402
4.544, 5, -32.6468, -2.66874, 23.9294, -159.688, -92.4086, 54.736
4.548, 5, -32.6214, -2.6919, 23.9513, -159.679, -92.4033, 54.7318
4.552, 5, -32.5961, -2.71513, 23.9732, -159.671, -92.3979, 54.7276
4.556, 5, -32.5708, -2.73845, 23.9952, -159.662, -92.3925, 54.7233
4.56, 5, -32.5455, -2.76186, 24.0172, -159.653, -92.3869, 54.7188
4.564, 5, -32.5203, -2.78539, 24.0393, -159.644, -92.3813, 54.7143
4.568, 5, -32.4951, -2.80905, 24.0614, -159.635, -92.3755, 54.7096
4.572, 5, -32.47, -2.83286, 24.0837, -159.626, -92.3695, 54.7048
4.576, 5, -32.4449, -2.85684, 24.1061, -159.617, -92.3634, 54.6997
4.58, 5, -32.4199, -2.88099, 24.1287, -159.608, -92.357, 54.6945
4.584, 5, -32.395, -2.90532, 24.1513, -159.598, -92.3505, 54.6889
4.588, 5, -32.3701, -2.92985, 24.1742, -159.588, -92.3436, 54.6831
4.592, 5, -32.3454, -2.9546, 24.1973, -159.579, -92.3366, 54.677
4.596, 5, -32.3207, -2.97958, 24.2205, -159.569, -92.3292, 54.6706
4.6, 5, -32.296, -3.0048, 24.244, -159.558, -92.3216, 54.6638
4.604, 5, -32.2715, -3.03028, 24.2676, -159.548, -92.3136, 54.6568
4.608, 5, -32.2471, -3.05605, 24.2915, -159.537, -92.3054, 54.6494
4.612, 5, -32.2228, -3.0821, 24.3156, -159.526, -92.2969, 54.6416
4.616, 5, -32.1987, -3.10844, 24.34, -159.515, -92.2881, 54.6335
4.62, 6, -32.1746, -3.13508, 24.3646, -159.504, -92.279, 54.6251
4.624, 6, -32.1507, -3.16203, 24.3894, -159.493, -92.2697, 54.6163
4.628, 6, -32.1269, -3.18929, 24.4144, -159.481, -92.26, 54.6071
4.632, 6, -32.1032, -3.21686, 24.4397, -159.469, -92.25, 54.5976
4.636, 6, -32.0797, -3.24474, 24.4652, -159.457, -92.2397, 54.5877
4.64, 6, -32.0563, -3.27294, 24.491, -159.445, -92.2291, 54.5775
4.644, 6, -32.033, -3.30146, 24.517, -159.433, -92.2183, 54.5669
4.648, 6, -32.0098, -3.33029, 24.5432, -159.42, -92.2071, 54.556
4.652, 6, -31.9868, -3.35945, 24.5697, -159.407, -92.1956, 54.5447
4.656, 6, -31.9639, -3.38892, 24.5964, -159.394, -92.1838, 54.533
4.66, 6, -31.9412, -3.41871, 24.6234, -159.381, -92.1718, 54.521
4.664, 6, -31.9186, -3.44881, 24.6506, -159.367, -92.1594, 54.5086
4.668, 6, -31.8961, -3.47924, 24.678, -159.353, -92.1467, 54.4958
4.672, 6, -31.8737, -3.50997, 24.7057, -159.339, -92.1338, 54.4827
4.676, 6, -31.8515, -3.54102, 24.7336, -159.325, -92.1205, 54.4693
4.68, 6, -31.8294, -3.57238, 24.7618, -159.311, -92.1069, 54.4555
4.684, 6, -31.8074, -3.60404, 24.7901, -159.297, -92.0931, 54.4413
4.688, 6, -31.7855, -3.63599, 24.8188, -159.282, -92.0789, 54.4268
4.692, 6, -31.7638, -3.66822, 24.8476, -159.267, -92.0645, 54.4119
4.696, 6, -31.7421, -3.70071, 24.8766, -159.252, -92.0498, 54.3967
4.7, 6, -31.7205, -3.73344, 24.9059, -159.236, -92.0348, 54.3812
4.704, 6, -31.699, -3.76641, 24.9354, -159.221, -92.0195, 54.3653
4.708, 6, -31.6776, -3.7996, 24.965, -159.205, -92.004, 54.3492
4.712, 6, -31.6563, -3.833, 24.9948, -159.189, -91.9882, 54.3328
4.716, 6, -31.635, -3.8666, 25.0248, -159.173, -91.9722, 54.3161
4.72, 6, -31.6138, -3.90039, 25.0549, -159.157, -91.9561, 54.2992
4.724, 6, -31.5927, -3.93434, 25.0851, -159.141, -91.9397, 54.2821
4.728, 6, -31.5716, -3.96844, 25.1155, -159.124, -91.9232, 54.2649
4.732, 6, -31.5505, -4.00267, 25.1459, -159.108, -91.9065, 54.2474
4.736, 6, -31.5296, -4.03703, 25.1764, -159.091, -91.8897, 54.2299
4.74, 6, -31.5086, -4.07149, 25.2069, -159.075, -91.8729, 54.2123
4.744, 6, -31.4877, -4.10605, 25.2375, -159.058, -91.856, 54.1946
4.748, 6, -31.4669, -4.14069, 25.2681, -159.041, -91.839, 54.1768
4.752, 6, -31.446, -4.17541, 25.2987, -159.025, -91.822, 54.1591
4.756, 6, -31.4252, -4.21018, 25.3293, -159.008, -91.805, 54.1413
4.76, 6, -31.4044, -4.24499, 25.3599, -158.991, -91.788, 54.1235
4.764, 6, -31.3837, -4.27983, 25.3905, -158.974, -91.7709, 54.1057
4.768, 6, -31.3629, -4.3147, 25.4211, -158.958, -91.7539, 54.0879
4.772, 6, -31.3421, -4.34959, 25.4516, -158.941, -91.7368, 54.0701
4.776, 6, -31.3214, -4.38452, 25.4822, -158.924, -91.7198, 54.0523
4.78, 6, -31.3006, -4.41948, 25.5127, -158.907, -91.7027, 54.0345
4.784, 6, -31.2799, -4.4545, 25.5433, -158.89, -91.6856, 54.0167
4.788, 6, -31.2592, -4.48958, 25.5738, -158.873, -91.6685, 53.999
4.792, 6, -31.2385, -4.52473, 25.6043, -158.856, -91.6514, 53.9811
4.796, 6, -31.2178, -4.55996, 25.6349, -158.84, -91.6342, 53.9633
4.8, 6, -31.1972, -4.59529, 25.6655, -158.823, -91.617, 53.9453
4.804, 6, -31.1766, -4.63072, 25.6962, -158.806, -91.5996, 53.9273
4.808, 6, -31.156, -4.66628, 25.7269, -158.788, -91.5822, 53.9092
4.812, 6, -31.1355, -4.70197, 25.7577, -158.771, -91.5646, 53.8909
4.816, 6, -31.1151, -4.73782, 25.7886, -158.754, -91.5469, 53.8725
4.82, 6, -31.0947, -4.77384, 25.8197, -158.737, -91.5289, 53.8539
4.824, 6, -31.0744, -4.81005, 25.8508, -158.719, -91.5108, 53.8351
4.828, 6, -31.0541, -4.84645, 25.8822, -158.701, -91.4924, 53.8161
4.832, 6, -31.0339, -4.88306, 25.9137, -158.683, -91.4738, 53.7967
4.836, 6, -31.0137, -4.91989, 25.9454, -158.665, -91.4549, 53.7772
4.84, 6, -30.9937, -4.95697, 25.9773, -158.647, -91.4358, 53.7573
4.844, 6, -30.9737, -4.99429, 26.0094, -158.629, -91.4164, 53.7371
4.848, 6, -30.9538, -5.0319, 26.0417, -158.61, -91.3967, 53.7167
4.852, 6, -30.9341, -5.06979, 26.0743, -158.592, -91.3767, 53.6959
4.856, 6, -30.9144, -5.10798, 26.107, -158.573, -91.3564, 53.6748
4.86, 6, -30.8948, -5.14647, 26.14, -158.554, -91.3358, 53.6533
4.864, 7, -30.8754, -5.18528, 26.1733, -158.534, -91.315, 53.6316
4.868, 7, -30.8561, -5.2244, 26.2068, -158.515, -91.2938, 53.6095
4.872, 7, -30.8368, -5.26384, 26.2405, -158.495, -91.2723, 53.5871
4.876, 7, -30.8178, -5.30361, 26.2745, -158.475, -91.2506, 53.5643
4.88, 7, -30.7988, -5.3437, 26.3087, -158.455, -91.2285, 53.5412
4.884, 7, -30.7799, -5.38412, 26.3431, -158.435, -91.2061, 53.5178
4.888, 7, -30.7612, -5.42487, 26.3778, -158.415, -91.1835, 53.494
4.892, 7, -30.7426, -5.46594, 26.4127, -158.394, -91.1605, 53.4699
4.896, 7, -30.7242, -5.50735, 26.4479, -158.373, -91.1373, 53.4455
4.9, 7, -30.7058, -5.54909, 26.4833, -158.352, -91.1137, 53.4207
4.904, 7, -30.6876, -5.59115, 26.519, -158.331, -91.0899, 53.3956
4.908, 7, -30.6695, -5.63355, 26.5549, -158.31, -91.0657, 53.3702
4.912, 7, -30.6515, -5.67627, 26.5911, -158.288, -91.0413, 53.3444
4.916, 7, -30.6336, -5.71931, 26.6275, -158.266, -91.0165, 53.3182
4.92, 7, -30.6159, -5.76268, 26.6642, -158.244, -90.9915, 53.2918
4.924, 7, -30.5983, -5.80638, 26.701, -158.222, -90.9662, 53.265
4.928, 7, -30.5808, -5.85038, 26.7382, -158.2, -90.9406, 53.2379
4.932, 7, -30.5634, -5.89468, 26.7755, -158.177, -90.9146, 53.2104
4.936, 7, -30.5461, -5.93928, 26.8131, -158.154, -90.8884, 53.1826
4.94, 7, -30.5289, -5.98414, 26.8509, -158.132, -90.862, 53.1545
4.944, 7, -30.5118, -6.02926, 26.889, -158.108, -90.8352, 53.1261
4.948, 7, -30.4948, -6.07462, 26.9272, -158.085, -90.8082, 53.0974
4.952, 7, -30.4778, -6.12022, 26.9656, -158.062, -90.7809, 53.0684
4.956, 7, -30.4609, -6.16604, 27.0042, -158.038, -90.7534, 53.0391
4.96, 7, -30.4441, -6.21206, 27.043, -158.014, -90.7257, 53.0097
4.964, 7, -30.4274, -6.25828, 27.0819, -157.99, -90.6977, 52.9799
4.968, 7, -30.4107, -6.30468, 27.1209, -157.966, -90.6696, 52.95
4.972, 7, -30.3941, -6.35123, 27.16, -157.942, -90.6414, 52.92
4.976, 7, -30.3775, -6.39792, 27.1993, -157.918, -90.613, 52.8898
4.98, 7, -30.361, -6.44474, 27.2386, -157.893, -90.5845, 52.8594
4.984, 7, -30.3445, -6.49168, 27.2779, -157.869, -90.556, 52.829
4.988, 7, -30.3281, -6.53872, 27.3173, -157.845, -90.5274, 52.7985
4.992, 7, -30.3116, -6.58585, 27.3567, -157.82, -90.4987, 52.768
4.996, 7, -30.2953, -6.63305, 27.3962, -157.796, -90.47, 52.7374
5, 7, -30.2789, -6.68033, 27.4356, -157.771, -90.4413, 52.7068
5.004, 7, -30.2625, -6.72764, 27.475, -157.746, -90.4126, 52.6762
5.008, 7, -30.2462, -6.775, 27.5145, -157.722, -90.3839, 52.6456
5.012, 7, -30.2298, -6.82237, 27.5539, -157.697, -90.3552, 52.615
5.016, 7, -30.2135, -6.86978, 27.5933, -157.673, -90.3265, 52.5844
5.02, 7, -30.1971, -6.9172, 27.6327, -157.648, -90.2978, 52.5538
5.024, 7, -30.1808, -6.96467, 27.6721, -157.623, -90.2691, 52.5232
5.028, 7, -30.1645, -7.01218, 27.7115, -157.599, -90.2404, 52.4925
5.032, 7, -30.1481, -7.05975, 27.7509, -157.574, -90.2117, 52.4619
5.036, 7, -30.1318, -7.10738, 27.7903, -157.549, -90.183, 52.4313
5.04, 7, -30.1156, -7.15509, 27.8297, -157.524, -90.1543, 52.4006
5.044, 7, -30.0993, -7.20288, 27.8692, -157.5, -90.1255, 52.3699
5.048, 7, -30.0831, -7.25076, 27.9086, -157.475, -90.0966, 52.3391
5.052, 7, -30.0669, -7.29876, 27.9482, -157.45, -90.0677, 52.3083
5.056, 7, -30.0508, -7.34688, 27.9878, -157.425, -90.0386, 52.2774
5.06, 7, -30.0346, -7.39514, 28.0275, -157.4, -90.0095, 52.2463
5.064, 7, -30.0186, -7.44357, 28.0673, -157.375, -89.9801, 52.2151
5.068, 7, -30.0026, -7.49216, 28.1073, -157.349, -89.9507, 52.1837
5.072, 7, -29.9867, -7.54094, 28.1474, -157.324, -89.921, 52.1522
5.076, 7, -29.9708, -7.58992, 28.1876, -157.298, -89.8911, 52.1205
5.08, 7, -29.955, -7.63911, 28.228, -157.273, -89.8609, 52.0885
5.084, 7, -29.9392, -7.68852, 28.2686, -157.247, -89.8306, 52.0563
5.088, 7, -29.9236, -7.73817, 28.3094, -157.221, -89.8, 52.0239
5.092, 7, -29.908, -7.78808, 28.3505, -157.194, -89.7691, 51.9912
5.096, 7, -29.8925, -7.83826, 28.3917, -157.168, -89.7379, 51.9583
5.1, 7, -29.8771, -7.88873, 28.4331, -157.141, -89.7065, 51.9251
5.104, 7, -29.8618, -7.93949, 28.4748, -157.115, -89.6748, 51.8916
5.108, 8, -29.8466, -7.99056, 28.5167, -157.088, -89.6428, 51.8578
5.112, 8, -29.8315, -8.04193, 28.5589, -157.061, -89.6106, 51.8238
5.116, 8, -29.8165, -8.09361, 28.6013, -157.033, -89.578, 51.7895
5.12, 8, -29.8017, -8.1456, 28.6439, -157.006, -89.5452, 51.7549
5.124, 8, -29.7869, -8.19792, 28.6868, -156.978, -89.5121, 51.72
5.128, 8, -29.7723, -8.25056, 28.7299, -156.95, -89.4787, 51.6848
5.132, 8, -29.7578, -8.30351, 28.7732, -156.922, -89.445, 51.6493
5.136, 8, -29.7434, -8.3568, 28.8168, -156.894, -89.4111, 51.6136
5.14, 8, -29.7291, -8.4104, 28.8607, -156.865, -89.3769, 51.5776
5.144, 8, -29.715, -8.46434, 28.9048, -156.837, -89.3423, 51.5412
5.148, 8, -29.7009, -8.5186, 28.9491, -156.808, -89.3075, 51.5046
5.152, 8, -29.687, -8.57318, 28.9937, -156.779, -89.2725, 51.4677
5.156, 8, -29.6732, -8.62808, 29.0386, -156.749, -89.2371, 51.4305
5.16, 8, -29.6595, -8.68331, 29.0836, -156.72, -89.2015, 51.393
5.164, 8, -29.646, -8.73886, 29.129, -156.69, -89.1656, 51.3553
5.168, 8, -29.6325, -8.79473, 29.1745, -156.661, -89.1294, 51.3172
5.172, 8, -29.6192, -8.85091, 29.2203, -156.631, -89.0929, 51.2788
5.176, 8, -29.6059, -8.90739, 29.2664, -156.6, -89.0562, 51.2402
5.18, 8, -29.5928, -8.96416, 29.3127, -156.57, -89.0192, 51.2013
5.184, 8, -29.5797, -9.0212, 29.3592, -156.539, -88.9819, 51.1621
5.188, 8, -29.5668, -9.0785, 29.4059, -156.509, -88.9444, 51.1226
5.192, 8, -29.5539, -9.13605, 29.4528, -156.478, -88.9066, 51.0829
5.196, 8, -29.5411, -9.19383, 29.5, -156.446, -88.8686, 51.0429
5.2, 8, -29.5284, -9.25183, 29.5473, -156.415, -88.8303, 51.0027
5.204, 8, -29.5157, -9.31004, 29.5947, -156.384, -88.7919, 50.9623
5.208, 8, -29.5032, -9.36845, 29.6424, -156.352, -88.7532, 50.9217
5.212, 8, -29.4906, -9.42705, 29.6901, -156.32, -88.7144, 50.8809
5.216, 8, -29.4782, -9.4858, 29.738, -156.288, -88.6755, 50.8399
5.22, 8, -29.4658, -9.5447, 29.786, -156.256, -88.6365, 50.7989
5.224, 8, -29.4534, -9.60373, 29.8341, -156.224, -88.5973, 50.7577
5.228, 8, -29.441, -9.66288, 29.8822, -156.192, -88.5581, 50.7164
5.232, 8, -29.4288, -9.72214, 29.9303, -156.16, -88.5189, 50.6751
5.236, 8, -29.4165, -9.78149, 29.9785, -156.128, -88.4796, 50.6337
5.24, 8, -29.4042, -9.84093, 30.0268, -156.095, -88.4402, 50.5922
5.244, 8, -29.392, -9.90044, 30.075, -156.063, -88.4009, 50.5508
5.248, 8, -29.3798, -9.96, 30.1232, -156.031, -88.3616, 50.5093
5.252, 8, -29.3676, -10.0196, 30.1715, -155.998, -88.3223, 50.4678
5.256, 8, -29.3554, -10.0792, 30.2197, -155.966, -88.283, 50.4263
5.26, 8, -29.3432, -10.1389, 30.268, -155.933, -88.2437, 50.3847
5.264, 8, -29.331, -10.1985, 30.3162, -155.901, -88.2044, 50.3432
5.268, 8, -29.3188, -10.2582, 30.3644, -155.868, -88.1652, 50.3017
5.272, 8, -29.3066, -10.3179, 30.4127, -155.836, -88.1259, 50.2601
5.276, 8, -29.2944, -10.3776, 30.4609, -155.803, -88.0867, 50.2186
5.28, 8, -29.2822, -10.4373, 30.5091, -155.771, -88.0475, 50.177
5.284, 8, -29.27, -10.497, 30.5573, -155.738, -88.0083, 50.1354
5.288, 8, -29.2578, -10.5567, 30.6055, -155.705, -87.9691, 50.0939
5.292, 8, -29.2456, -10.6165, 30.6537, -155.673, -87.93, 50.0523
5.296, 8, -29.2334, -10.6764, 30.7019, -155.64, -87.8908, 50.0107
5.3, 8, -29.2212, -10.7363, 30.7501, -155.607, -87.8517, 49.9691
5.304, 8, -29.209, -10.7963, 30.7983, -155.574, -87.8125, 49.9275
5.308, 8, -29.1969, -10.8563, 30.8466, -155.542, -87.7733, 49.8858
5.312, 8, -29.1848, -10.9165, 30.8949, -155.509, -87.734, 49.8441
5.316, 8, -29.1727, -10.9768, 30.9433, -155.476, -87.6947, 49.8024
5.32, 8, -29.1607, -11.0372, 30.9918, -155.443, -87.6553, 49.7606
5.324, 8, -29.1487, -11.0977, 31.0403, -155.409, -87.6158, 49.7188
5.328, 8, -29.1367, -11.1584, 31.089, -155.376, -87.5761, 49.6768
5.332, 8, -29.1248, -11.2193, 31.1378, -155.343, -87.5363, 49.6348
5.336, 8, -29.113, -11.2803, 31.1867, -155.309, -87.4963, 49.5927
5.34, 8, -29.1012, -11.3416, 31.2358, -155.276, -87.4562, 49.5504
5.344, 8, -29.0895, -11.4031, 31.2851, -155.242, -87.4158, 49.5081
5.348, 8, -29.0779, -11.4647, 31.3346, -155.208, -87.3752, 49.4656
5.352, 8, -29.0663, -11.5266, 31.3843, -155.173, -87.3343, 49.4229
5.356, 8, -29.0548, -11.5888, 31.4342, -155.139, -87.2932, 49.3802
5.36, 9, -29.0434, -11.6512, 31.4843, -155.104, -87.2519, 49.3373
5.364, 9, -29.0321, -11.7139, 31.5347, -155.07, -87.2103, 49.2942
5.368, 9, -29.0209, -11.7769, 31.5853, -155.035, -87.1684, 49.251
5.372, 9, -29.0098, -11.8402, 31.6361, -154.999, -87.1263, 49.2076
5.376, 9, -28.9988, -11.9038, 31.6872, -154.964, -87.0839, 49.1641
5.38, 9, -28.9879, -11.9676, 31.7384, -154.929, -87.0413, 49.1204
5.384, 9, -28.9771, -12.0318, 31.79, -154.893, -86.9984, 49.0766
5.388, 9, -28.9664, -12.0963, 31.8417, -154.857, -86.9552, 49.0326
5.392, 9, -28.9558, -12.1611, 31.8938, -154.821, -86.9118, 48.9884
5.396, 9, -28.9453, -12.2262, 31.946, -154.784, -86.8681, 48.9441
5.4, 9, -28.9349, -12.2916, 31.9985, -154.748, -86.8242, 48.8996
5.404, 9, -28.9246, -12.3573, 32.0512, -154.711, -86.78, 48.855
5.408, 9, -28.9145, -12.4233, 32.1042, -154.674, -86.7355, 48.8102
5.412, 9, -28.9044, -12.4896, 32.1574, -154.637, -86.6908, 48.7652
5.416, 9, -28.8944, -12.5563, 32.2109, -154.6, -86.6459, 48.7201
5.42, 9, -28.8846, -12.6232, 32.2646, -154.562, -86.6007, 48.6748
5.424, 9, -28.8748, -12.6903, 32.3185, -154.524, -86.5552, 48.6294
5.428, 9, -28.8651, -12.7578, 32.3726, -154.486, -86.5095, 48.5838
5.432, 9, -28.8555, -12.8255, 32.427, -154.448, -86.4635, 48.538
5.436, 9, -28.846, -12.8934, 32.4816, -154.41, -86.4173, 48.4921
5.44, 9, -28.8365, -12.9615, 32.5364, -154.371, -86.3709, 48.4461
5.444, 9, -28.8271, -13.0299, 32.5913, -154.332, -86.3243, 48.4
5.448, 9, -28.8178, -13.0985, 32.6465, -154.294, -86.2775, 48.3537
5.452, 9, -28.8085, -13.1672, 32.7017, -154.255, -86.2306, 48.3073
5.456, 9, -28.7993, -13.2361, 32.7571, -154.215, -86.1835, 48.2608
5.46, 9, -28.7902, -13.3052, 32.8126, -154.176, -86.1363, 48.2142
5.464, 9, -28.7811, -13.3744, 32.8683, -154.137, -86.0891, 48.1676
5.468, 9, -28.772, -13.4438, 32.924, -154.097, -86.0417, 48.1209
5.472, 9, -28.763, -13.5133, 32.9797, -154.058, -85.9943, 48.0741
5.476, 9, -28.7539, -13.5829, 33.0355, -154.018, -85.9469, 48.0273
5.48, 9, -28.745, -13.6525, 33.0914, -153.978, -85.8994, 47.9804
5.484, 9, -28.736, -13.7223, 33.1473, -153.939, -85.852, 47.9336
5.488, 9, -28.7271, -13.7921, 33.2031, -153.899, -85.8045, 47.8867
5.492, 9, -28.7181, -13.862, 33.2591, -153.859, -85.7571, 47.8397
5.496, 9, -28.7092, -13.9319, 33.315, -153.819, -85.7097, 47.7928
5.5, 9, -28.7003, -14.0019, 33.3709, -153.779, -85.6623, 47.7458
5.504, 9, -28.6913, -14.0718, 33.4268, -153.739, -85.6149, 47.6988
5.508, 9, -28.6824, -14.1418, 33.4827, -153.699, -85.5675, 47.6518
5.512, 9, -28.6734, -14.2118, 33.5387, -153.659, -85.5202, 47.6048
5.516, 9, -28.6645, -14.2818, 33.5946, -153.619, -85.4729, 47.5577
5.52, 9, -28.6555, -14.3519, 33.6505, -153.579, -85.4256, 47.5107
5.524, 9, -28.6465, -14.4219, 33.7064, -153.538, -85.3783, 47.4636
5.528, 9, -28.6376, -14.492, 33.7623, -153.498, -85.3311, 47.4165
5.532, 9, -28.6286, -14.562, 33.8183, -153.458, -85.2839, 47.3694
5.536, 9, -28.6196, -14.6321, 33.8742, -153.418, -85.2368, 47.3223
5.54, 9, -28.6106, -14.7022, 33.9301, -153.377, -85.1896, 47.2751
5.544, 9, -28.6016, -14.7723, 33.986, -153.337, -85.1425, 47.228
5.548, 9, -28.5926, -14.8424, 34.0419, -153.297, -85.0954, 47.1808
5.552, 9, -28.5835, -14.9125, 34.0978, -153.256, -85.0484, 47.1336
5.556, 9, -28.5745, -14.9826, 34.1537, -153.216, -85.0013, 47.0864
5.56, 9, -28.5655, -15.0527, 34.2097, -153.175, -84.9543, 47.0392
5.564, 9, -28.5564, -15.1229, 34.2656, -153.135, -84.9073, 46.992
5.568, 9, -28.5474, -15.1931, 34.3215, -153.094, -84.8604, 46.9448
5.572, 9, -28.5383, -15.2633, 34.3774, -153.053, -84.8135, 46.8975
5.576, 9, -28.5293, -15.3335, 34.4333, -153.013, -84.7665, 46.8503
5.58, 9, -28.5202, -15.4038, 34.4892, -152.972, -84.7196, 46.8031
5.584, 9, -28.5112, -15.4741, 34.5452, -152.931, -84.6727, 46.7559
5.588, 9, -28.5021, -15.5445, 34.6011, -152.89, -84.6258, 46.7087
5.592, 9, -28.4931, -15.6149, 34.6571, -152.849, -84.5789, 46.6617
5.596, 9, -28.4841, -15.6854, 34.7132, -152.808, -84.532, 46.6147
5.6, 9, -28.4751, -15.7559, 34.7692, -152.767, -84.485, 46.5678
5.604, 9, -28.4661, -15.8266, 34.8254, -152.726, -84.438, 46.5211
5.608, 9, -28.4572, -15.8973, 34.8816, -152.685, -84.3909, 46.4745
5.612, 9, -28.4482, -15.9681, 34.9378, -152.644, -84.3437, 46.4281
5.616, 9, -28.4393, -16.0389, 34.9942, -152.602, -84.2965, 46.3819
5.62, 9, -28.4304, -16.1099, 35.0506, -152.56, -84.2492, 46.3359
5.624, 9, -28.4216, -16.181, 35.1072, -152.519, -84.2017, 46.2902
5.628, 9, -28.4127, -16.2522, 35.1638, -152.477, -84.1542, 46.2446
5.632, 9, -28.404, -16.3235, 35.2206, -152.435, -84.1065, 46.1994
5.636, 9, -28.3952, -16.3949, 35.2774, -152.393, -84.0587, 46.1543
5.64, 10, -28.3865, -16.4665, 35.3344, -152.35, -84.0108, 46.1096
5.644, 10, -28.3778, -16.5382, 35.3915, -152.308, -83.9628, 46.0651
5.648, 10, -28.3692, -16.61, 35.4487, -152.265, -83.9146, 46.0208
5.652, 10, -28.3606, -16.682, 35.5061, -152.222, -83.8663, 45.9769
5.656, 10, -28.352, -16.7541, 35.5635, -152.179, -83.8179, 45.9332
5.66, 10, -28.3435, -16.8263, 35.6211, -152.136, -83.7694, 45.8897
5.664, 10, -28.335, -16.8987, 35.6788, -152.093, -83.7207, 45.8466
5.668, 10, -28.3266, -16.9713, 35.7366, -152.049, -83.6719, 45.8037
5.672, 10, -28.3182, -17.044, 35.7946, -152.006, -83.623, 45.761
5.676, 10, -28.3099, -17.1168, 35.8527, -151.962, -83.5739, 45.7187
5.68, 10, -28.3016, -17.1898, 35.9109, -151.918, -83.5247, 45.6766
5.684, 10, -28.2934, -17.2629, 35.9692, -151.874, -83.4754, 45.6348
5.688, 10, -28.2852, -17.3362, 36.0277, -151.83, -83.426, 45.5932
5.692, 10, -28.277, -17.4096, 36.0863, -151.786, -83.3764, 45.5519
5.696, 10, -28.2689, -17.4831, 36.145, -151.741, -83.3267, 45.5109
5.7, 10, -28.2608, -17.5568, 36.2038, -151.697, -83.2769, 45.4702
5.704, 10, -28.2527, -17.6306, 36.2628, -151.652, -83.2269, 45.4297
5.708, 10, -28.2447, -17.7046, 36.3218, -151.607, -83.1768, 45.3895
5.712, 10, -28.2366, -17.7786, 36.381, -151.562, -83.1267, 45.3495
5.716, 10, -28.2287, -17.8528, 36.4403, -151.517, -83.0764, 45.3098
5.72, 10, -28.2207, -17.9271, 36.4997, -151.472, -83.026, 45.2703
5.724, 10, -28.2128, -18.0015, 36.5591, -151.426, -82.9755, 45.231
5.728, 10, -28.2048, -18.076, 36.6187, -151.381, -82.9249, 45.1919
5.732, 10, -28.1969, -18.1506, 36.6783, -151.335, -82.8743, 45.1529
5.736, 10, -28.189, -18.2253, 36.7379, -151.289, -82.8236, 45.1141
5.74, 10, -28.1811, -18.3, 36.7976, -151.243, -82.7729, 45.0755
5.744, 10, -28.1732, -18.3749, 36.8574, -151.197, -82.7221, 45.0369
5.748, 10, -28.1653, -18.4498, 36.9172, -151.152, -82.6713, 44.9985
5.752, 10, -28.1574, -18.5247, 36.9771, -151.105, -82.6205, 44.96
5.756, 10, -28.1495, -18.5997, 37.0369, -151.059, -82.5697, 44.9217
5.76, 10, -28.1416, -18.6748, 37.0968, -151.013, -82.519, 44.8833
5.764, 10, -28.1337, -18.7499, 37.1567, -150.967, -82.4682, 44.845
5.768, 10, -28.1258, -18.8251, 37.2166, -150.921, -82.4174, 44.8067
5.772, 10, -28.1179, -18.9003, 37.2765, -150.875, -82.3667, 44.7684
5.776, 10, -28.1099, -18.9755, 37.3364, -150.828, -82.3159, 44.7301
5.78, 10, -28.1019, -19.0508, 37.3963, -150.782, -82.2652, 44.6918
5.784, 10, -28.0939, -19.1261, 37.4562, -150.736, -82.2146, 44.6535
5.788, 10, -28.0859, -19.2014, 37.5161, -150.689, -82.1639, 44.6152
5.792, 10, -28.0779, -19.2767, 37.576, -150.643, -82.1133, 44.5768
5.796, 10, -28.0698, -19.352, 37.6359, -150.596, -82.0627, 44.5385
5.8, 10, -28.0618, -19.4274, 37.6959, -150.55, -82.0121, 44.5002
5.804, 10, -28.0537, -19.5028, 37.7558, -150.503, -81.9615, 44.4618
5.808, 10, -28.0455, -19.5782, 37.8157, -150.457, -81.911, 44.4235
5.812, 10, -28.0374, -19.6536, 37.8756, -150.41, -81.8605, 44.3851
5.816, 10, -28.0292, -19.7291, 37.9356, -150.363, -81.81, 44.3467
5.82, 10, -28.0211, -19.8046, 37.9955, -150.317, -81.7596, 44.3083
5.824, 10, -28.0129, -19.88, 38.0554, -150.27, -81.7091, 44.2699
5.828, 10, -28.0046, -19.9556, 38.1153, -150.223, -81.6587, 44.2315
5.832, 10, -27.9964, -20.0311, 38.1753, -150.176, -81.6083, 44.1931
5.836, 10, -27.9881, -20.1066, 38.2352, -150.13, -81.558, 44.1547
5.84, 10, -27.9798, -20.1822, 38.2951, -150.083, -81.5076, 44.1163
5.844, 10, -27.9715, -20.2578, 38.3551, -150.036, -81.4573, 44.0779
5.848, 10, -27.9631, -20.3334, 38.415, -149.989, -81.407, 44.0394
5.852, 10, -27.9548, -20.4091, 38.4749, -149.942, -81.3568, 44.001
5.856, 10, -27.9464, -20.4847, 38.5349, -149.895, -81.3065, 43.9625
5.86, 10, -27.938, -20.5604, 38.5948, -149.848, -81.2563, 43.9241
5.864, 10, -27.9295, -20.6361, 38.6548, -149.801, -81.2061, 43.8856
5.868, 10, -27.9211, -20.7118, 38.7147, -149.754, -81.156, 43.8471
5.872, 10, -27.9126, -20.7875, 38.7746, -149.707, -81.1058, 43.8086
