rpiRobotics/ARM-21-02-F-19-Robot-Motion-Program/data_performance_abb/curve_2/curve_pose_opt2/greedy0.02/grad_result/real_from_sim/run_4.csv
timestamp,cmd_num,J1,J2,J3,J4,J5,J6
1.409999968018382788e-04,-1.000000000000000000e+00,9.512548446655273438e+00,-1.098594379425048828e+01,3.916372060775756836e+00,-2.087273254394531250e+02,-1.022810897827148438e+02,-1.807227172851562500e+02,5.500712203979492188e+01,-2.090467262268066406e+01,-9.345405578613281250e+01,-1.180768966674804688e+02,6.585860443115234375e+01,-2.980424880981445312e+01
5.932999774813652039e-03,1.000000000000000000e+00,9.512548446655273438e+00,-1.098594379425048828e+01,3.916331529617309570e+00,-2.087272186279296875e+02,-1.022812423706054688e+02,-1.807227172851562500e+02,5.500734329223632812e+01,-2.090467262268066406e+01,-9.345405578613281250e+01,-1.180768966674804688e+02,6.585875701904296875e+01,-2.980424880981445312e+01
9.611999616026878357e-03,1.000000000000000000e+00,9.512491226196289062e+00,-1.098589801788330078e+01,3.916270494461059570e+00,-2.087272186279296875e+02,-1.022810897827148438e+02,-1.807225799560546875e+02,5.500723266601562500e+01,-2.090467262268066406e+01,-9.345405578613281250e+01,-1.180766754150390625e+02,6.585875701904296875e+01,-2.980424880981445312e+01
1.563199982047080994e-02,1.000000000000000000e+00,9.512548446655273438e+00,-1.098594379425048828e+01,3.916331529617309570e+00,-2.087272186279296875e+02,-1.022810897827148438e+02,-1.807225799560546875e+02,5.500712203979492188e+01,-2.090467262268066406e+01,-9.345405578613281250e+01,-1.180768966674804688e+02,6.585875701904296875e+01,-2.980424880981445312e+01
3.948900103569030762e-02,1.000000000000000000e+00,9.512491226196289062e+00,-1.098594379425048828e+01,3.916331529617309570e+00,-2.087271118164062500e+02,-1.022812423706054688e+02,-1.807227172851562500e+02,5.500723266601562500e+01,-2.090467262268066406e+01,-9.345405578613281250e+01,-1.180768966674804688e+02,6.585875701904296875e+01,-2.980424880981445312e+01
4.096600040793418884e-02,1.000000000000000000e+00,9.512491226196289062e+00,-1.098589801788330078e+01,3.916331529617309570e+00,-2.087272186279296875e+02,-1.022812423706054688e+02,-1.807227172851562500e+02,5.500723266601562500e+01,-2.090467262268066406e+01,-9.345405578613281250e+01,-1.180768966674804688e+02,6.585875701904296875e+01,-2.980424880981445312e+01
4.221900179982185364e-02,1.000000000000000000e+00,9.512491226196289062e+00,-1.098589801788330078e+01,3.916331529617309570e+00,-2.087272186279296875e+02,-1.022812423706054688e+02,-1.807227172851562500e+02,5.500723266601562500e+01,-2.090467262268066406e+01,-9.345405578613281250e+01,-1.180768966674804688e+02,6.585875701904296875e+01,-2.980424880981445312e+01
4.517199844121932983e-02,1.000000000000000000e+00,9.512548446655273438e+00,-1.098596668243408203e+01,3.916331529617309570e+00,-2.087272186279296875e+02,-1.022810897827148438e+02,-1.807227172851562500e+02,5.500723266601562500e+01,-2.090467262268066406e+01,-9.345405578613281250e+01,-1.180768966674804688e+02,6.585875701904296875e+01,-2.980424880981445312e+01
4.792699962854385376e-02,1.000000000000000000e+00,9.512548446655273438e+00,-1.098596668243408203e+01,3.916331529617309570e+00,-2.087272186279296875e+02,-1.022810897827148438e+02,-1.807227172851562500e+02,5.500723266601562500e+01,-2.090467262268066406e+01,-9.345405578613281250e+01,-1.180768966674804688e+02,6.585875701904296875e+01,-2.980424880981445312e+01
4.939800128340721130e-02,1.000000000000000000e+00,9.512491226196289062e+00,-1.098596668243408203e+01,3.916270494461059570e+00,-2.087272186279296875e+02,-1.022812423706054688e+02,-1.807227172851562500e+02,5.500723266601562500e+01,-2.090467262268066406e+01,-9.345405578613281250e+01,-1.180768966674804688e+02,6.585875701904296875e+01,-2.980402946472167969e+01
5.179899930953979492e-02,1.000000000000000000e+00,9.512491226196289062e+00,-1.098596668243408203e+01,3.916270494461059570e+00,-2.087272186279296875e+02,-1.022812423706054688e+02,-1.807227172851562500e+02,5.500723266601562500e+01,-2.090467262268066406e+01,-9.345405578613281250e+01,-1.180768966674804688e+02,6.585875701904296875e+01,-2.980402946472167969e+01
5.708499997854232788e-02,1.000000000000000000e+00,9.512491226196289062e+00,-1.098589801788330078e+01,3.916331529617309570e+00,-2.087272186279296875e+02,-1.022812423706054688e+02,-1.807227172851562500e+02,5.500712203979492188e+01,-2.090467262268066406e+01,-9.345405578613281250e+01,-1.180768966674804688e+02,6.585875701904296875e+01,-2.980424880981445312e+01
5.838600173592567444e-02,1.000000000000000000e+00,9.512491226196289062e+00,-1.098589801788330078e+01,3.916331529617309570e+00,-2.087272186279296875e+02,-1.022812423706054688e+02,-1.807227172851562500e+02,5.500712203979492188e+01,-2.090467262268066406e+01,-9.345405578613281250e+01,-1.180768966674804688e+02,6.585875701904296875e+01,-2.980424880981445312e+01
6.103799864649772644e-02,1.000000000000000000e+00,9.512060165405273438e+00,-1.098569393157958984e+01,3.916270494461059570e+00,-2.087272186279296875e+02,-1.022809753417968750e+02,-1.807227172851562500e+02,5.500723266601562500e+01,-2.090467262268066406e+01,-9.345405578613281250e+01,-1.180768966674804688e+02,6.585875701904296875e+01,-2.980402946472167969e+01
6.438600271940231323e-02,1.000000000000000000e+00,9.511084556579589844e+00,-1.098512935638427734e+01,3.916331529617309570e+00,-2.087272186279296875e+02,-1.022809753417968750e+02,-1.807225799560546875e+02,5.500723266601562500e+01,-2.090467262268066406e+01,-9.345405578613281250e+01,-1.180768966674804688e+02,6.585875701904296875e+01,-2.980424880981445312e+01
6.784100085496902466e-02,1.000000000000000000e+00,9.511084556579589844e+00,-1.098512935638427734e+01,3.916331529617309570e+00,-2.087272186279296875e+02,-1.022809753417968750e+02,-1.807225799560546875e+02,5.500723266601562500e+01,-2.090467262268066406e+01,-9.345405578613281250e+01,-1.180768966674804688e+02,6.585875701904296875e+01,-2.980424880981445312e+01
6.926999986171722412e-02,1.000000000000000000e+00,9.509247779846191406e+00,-1.098395252227783203e+01,3.916331529617309570e+00,-2.087272186279296875e+02,-1.022809753417968750e+02,-1.807225799560546875e+02,5.500723266601562500e+01,-2.090467262268066406e+01,-9.345405578613281250e+01,-1.180768966674804688e+02,6.585875701904296875e+01,-2.980446624755859375e+01
7.052200287580490112e-02,1.000000000000000000e+00,9.509247779846191406e+00,-1.098395252227783203e+01,3.916331529617309570e+00,-2.087272186279296875e+02,-1.022809753417968750e+02,-1.807225799560546875e+02,5.500723266601562500e+01,-2.090467262268066406e+01,-9.345405578613281250e+01,-1.180768966674804688e+02,6.585875701904296875e+01,-2.980446624755859375e+01
7.312099635601043701e-02,1.000000000000000000e+00,9.506635665893554688e+00,-1.098209667205810547e+01,3.916372060775756836e+00,-2.087272186279296875e+02,-1.022807693481445312e+02,-1.807227172851562500e+02,5.500723266601562500e+01,-2.090467262268066406e+01,-9.345405578613281250e+01,-1.180768966674804688e+02,6.585875701904296875e+01,-2.980424880981445312e+01
7.466199994087219238e-02,1.000000000000000000e+00,9.506635665893554688e+00,-1.098209667205810547e+01,3.916372060775756836e+00,-2.087272186279296875e+02,-1.022807693481445312e+02,-1.807227172851562500e+02,5.500723266601562500e+01,-2.090467262268066406e+01,-9.345405578613281250e+01,-1.180768966674804688e+02,6.585875701904296875e+01,-2.980424880981445312e+01
8.057899773120880127e-02,1.000000000000000000e+00,9.498568534851074219e+00,-1.097533035278320312e+01,3.916738271713256836e+00,-2.087266387939453125e+02,-1.022789001464843750e+02,-1.807223815917968750e+02,5.500723266601562500e+01,-2.090467262268066406e+01,-9.345405578613281250e+01,-1.180768966674804688e+02,6.585875701904296875e+01,-2.980424880981445312e+01
8.183000236749649048e-02,1.000000000000000000e+00,9.498568534851074219e+00,-1.097533035278320312e+01,3.916738271713256836e+00,-2.087266387939453125e+02,-1.022789001464843750e+02,-1.807223815917968750e+02,5.500723266601562500e+01,-2.090467262268066406e+01,-9.345405578613281250e+01,-1.180768966674804688e+02,6.585875701904296875e+01,-2.980424880981445312e+01
8.460800349712371826e-02,1.000000000000000000e+00,9.492770195007324219e+00,-1.096996688842773438e+01,3.917144775390625000e+00,-2.087253265380859375e+02,-1.022767181396484375e+02,-1.807215728759765625e+02,5.500723266601562500e+01,-2.090467262268066406e+01,-9.345405578613281250e+01,-1.180768966674804688e+02,6.585875701904296875e+01,-2.980402946472167969e+01
8.810199797153472900e-02,1.000000000000000000e+00,9.492770195007324219e+00,-1.096996688842773438e+01,3.917144775390625000e+00,-2.087253265380859375e+02,-1.022767181396484375e+02,-1.807215728759765625e+02,5.500723266601562500e+01,-2.090467262268066406e+01,-9.345405578613281250e+01,-1.180768966674804688e+02,6.585875701904296875e+01,-2.980402946472167969e+01
9.197500348091125488e-02,1.000000000000000000e+00,9.485564231872558594e+00,-1.096288394927978516e+01,3.917653083801269531e+00,-2.087226867675781250e+02,-1.022736740112304688e+02,-1.807195434570312500e+02,5.500723266601562500e+01,-2.090476417541503906e+01,-9.345405578613281250e+01,-1.180768966674804688e+02,6.585875701904296875e+01,-2.980402946472167969e+01
9.631399810314178467e-02,1.000000000000000000e+00,9.476522445678710938e+00,-1.095355987548828125e+01,3.918364763259887695e+00,-2.087189941406250000e+02,-1.022689819335937500e+02,-1.807158050537109375e+02,5.500723266601562500e+01,-2.090467262268066406e+01,-9.345405578613281250e+01,-1.180768966674804688e+02,6.585875701904296875e+01,-2.980424880981445312e+01
1.009000018239021301e-01,1.000000000000000000e+00,9.465154647827148438e+00,-1.094199657440185547e+01,3.919340610504150391e+00,-2.087140502929687500e+02,-1.022626419067382812e+02,-1.807100524902343750e+02,5.500723266601562500e+01,-2.090467262268066406e+01,-9.345405578613281250e+01,-1.180768966674804688e+02,6.585860443115234375e+01,-2.980424880981445312e+01
1.045510023832321167e-01,1.000000000000000000e+00,9.451173782348632812e+00,-1.092773914337158203e+01,3.920662164688110352e+00,-2.087071533203125000e+02,-1.022534637451171875e+02,-1.807024536132812500e+02,5.500734329223632812e+01,-2.090467262268066406e+01,-9.345405578613281250e+01,-1.180768966674804688e+02,6.585875701904296875e+01,-2.980402946472167969e+01
1.087260022759437561e-01,1.000000000000000000e+00,9.434265136718750000e+00,-1.091072177886962891e+01,3.922390222549438477e+00,-2.086978302001953125e+02,-1.022417373657226562e+02,-1.806926879882812500e+02,5.500723266601562500e+01,-2.090467262268066406e+01,-9.345405578613281250e+01,-1.180768966674804688e+02,6.585875701904296875e+01,-2.980424880981445312e+01
1.122369989752769470e-01,1.000000000000000000e+00,9.414572715759277344e+00,-1.089157676696777344e+01,3.924382925033569336e+00,-2.086857147216796875e+02,-1.022268600463867188e+02,-1.806798706054687500e+02,5.500723266601562500e+01,-2.090467262268066406e+01,-9.345405578613281250e+01,-1.180768966674804688e+02,6.585875701904296875e+01,-2.980424880981445312e+01
1.164480000734329224e-01,1.000000000000000000e+00,9.392754554748535156e+00,-1.087066745758056641e+01,3.926802158355712891e+00,-2.086709747314453125e+02,-1.022089462280273438e+02,-1.806637878417968750e+02,5.500723266601562500e+01,-2.090467262268066406e+01,-9.345405578613281250e+01,-1.180768966674804688e+02,6.585875701904296875e+01,-2.980402946472167969e+01
1.205089986324310303e-01,1.000000000000000000e+00,9.368583679199218750e+00,-1.084842205047607422e+01,3.929730176925659180e+00,-2.086533203125000000e+02,-1.021873016357421875e+02,-1.806443328857421875e+02,5.500723266601562500e+01,-2.090467262268066406e+01,-9.345405578613281250e+01,-1.180768966674804688e+02,6.585875701904296875e+01,-2.980402946472167969e+01
1.244589984416961670e-01,1.000000000000000000e+00,9.341599464416503906e+00,-1.082511329650878906e+01,3.932840824127197266e+00,-2.086325225830078125e+02,-1.021615524291992188e+02,-1.806215362548828125e+02,5.500723266601562500e+01,-2.090467262268066406e+01,-9.345405578613281250e+01,-1.180768966674804688e+02,6.585875701904296875e+01,-2.980424880981445312e+01
1.290470063686370850e-01,1.000000000000000000e+00,9.311944961547851562e+00,-1.080003833770751953e+01,3.936378479003906250e+00,-2.086085968017578125e+02,-1.021309432983398438e+02,-1.805950927734375000e+02,5.500723266601562500e+01,-2.090467262268066406e+01,-9.345405578613281250e+01,-1.180768966674804688e+02,6.585875701904296875e+01,-2.980424880981445312e+01
1.325860023498535156e-01,1.000000000000000000e+00,9.279478073120117188e+00,-1.077304172515869141e+01,3.940200805664062500e+00,-2.085811004638671875e+02,-1.020940475463867188e+02,-1.805643005371093750e+02,5.500723266601562500e+01,-2.090467262268066406e+01,-9.345405578613281250e+01,-1.180768966674804688e+02,6.585875701904296875e+01,-2.980402946472167969e+01
1.365730017423629761e-01,1.000000000000000000e+00,9.244111061096191406e+00,-1.074427890777587891e+01,3.944328308105468750e+00,-2.085484466552734375e+02,-1.020530014038085938e+02,-1.805295715332031250e+02,5.500723266601562500e+01,-2.090467262268066406e+01,-9.345405578613281250e+01,-1.180768966674804688e+02,6.585875701904296875e+01,-2.980402946472167969e+01
1.403509974479675293e-01,1.000000000000000000e+00,9.206190109252929688e+00,-1.071338939666748047e+01,3.948862314224243164e+00,-2.085114135742187500e+02,-1.020091171264648438e+02,-1.804898376464843750e+02,5.500723266601562500e+01,-2.090467262268066406e+01,-9.345405578613281250e+01,-1.180768966674804688e+02,6.585875701904296875e+01,-2.980424880981445312e+01
1.447100043296813965e-01,1.000000000000000000e+00,9.165454864501953125e+00,-1.068111801147460938e+01,3.953762292861938477e+00,-2.084719696044921875e+02,-1.019604949951171875e+02,-1.804456939697265625e+02,5.500723266601562500e+01,-2.090458106994628906e+01,-9.345405578613281250e+01,-1.180768966674804688e+02,6.585875701904296875e+01,-2.980424880981445312e+01
1.486269980669021606e-01,1.000000000000000000e+00,9.122423171997070312e+00,-1.064715099334716797e+01,3.959170341491699219e+00,-2.084306182861328125e+02,-1.019054183959960938e+02,-1.803987731933593750e+02,5.500723266601562500e+01,-2.090467262268066406e+01,-9.345405578613281250e+01,-1.180768966674804688e+02,6.585875701904296875e+01,-2.980424880981445312e+01
1.533869951963424683e-01,1.000000000000000000e+00,9.077181816101074219e+00,-1.061157703399658203e+01,3.964802265167236328e+00,-2.083858337402343750e+02,-1.018482131958007812e+02,-1.803501434326171875e+02,5.500723266601562500e+01,-2.090467262268066406e+01,-9.345405578613281250e+01,-1.180768966674804688e+02,6.585875701904296875e+01,-2.980424880981445312e+01
1.567140072584152222e-01,1.000000000000000000e+00,9.029901504516601562e+00,-1.057421493530273438e+01,3.970658063888549805e+00,-2.083364868164062500e+02,-1.017882308959960938e+02,-1.802973785400390625e+02,5.500712203979492188e+01,-2.090458106994628906e+01,-9.345405578613281250e+01,-1.180768966674804688e+02,6.585875701904296875e+01,-2.980424880981445312e+01
1.608069986104965210e-01,1.000000000000000000e+00,8.980353355407714844e+00,-1.053481674194335938e+01,3.977021932601928711e+00,-2.082853851318359375e+02,-1.017243041992187500e+02,-1.802402038574218750e+02,5.500723266601562500e+01,-2.090467262268066406e+01,-9.345405578613281250e+01,-1.180768966674804688e+02,6.585875701904296875e+01,-2.980424880981445312e+01
1.643960028886795044e-01,1.000000000000000000e+00,8.928422927856445312e+00,-1.049306392669677734e+01,3.983833074569702148e+00,-2.082332916259765625e+02,-1.016582412719726562e+02,-1.801822204589843750e+02,5.500723266601562500e+01,-2.090467262268066406e+01,-9.345405578613281250e+01,-1.180768966674804688e+02,6.585875701904296875e+01,-2.980424880981445312e+01
1.674209982156753540e-01,1.000000000000000000e+00,8.873965263366699219e+00,-1.044859600067138672e+01,3.990989685058593750e+00,-2.081792449951171875e+02,-1.015892562866210938e+02,-1.801243896484375000e+02,5.500723266601562500e+01,-2.090467262268066406e+01,-9.345405578613281250e+01,-1.180768966674804688e+02,6.585875701904296875e+01,-2.980424880981445312e+01
1.725099980831146240e-01,1.000000000000000000e+00,8.817528724670410156e+00,-1.040166187286376953e+01,3.998370170593261719e+00,-2.081243591308593750e+02,-1.015202102661132812e+02,-1.800633392333984375e+02,5.500723266601562500e+01,-2.090467262268066406e+01,-9.345405578613281250e+01,-1.180768966674804688e+02,6.585875701904296875e+01,-2.980402946472167969e+01
1.754669994115829468e-01,1.000000000000000000e+00,8.759368896484375000e+00,-1.035278034210205078e+01,4.005893230438232422e+00,-2.080676269531250000e+02,-1.014485549926757812e+02,-1.800001373291015625e+02,5.500723266601562500e+01,-2.090467262268066406e+01,-9.345405578613281250e+01,-1.180768966674804688e+02,6.585875701904296875e+01,-2.980446624755859375e+01
1.794710010290145874e-01,1.000000000000000000e+00,8.699801445007324219e+00,-1.030227184295654297e+01,4.013395309448242188e+00,-2.080099639892578125e+02,-1.013764114379882812e+02,-1.799378814697265625e+02,5.500712203979492188e+01,-2.090467262268066406e+01,-9.345405578613281250e+01,-1.180768966674804688e+02,6.585875701904296875e+01,-2.980424880981445312e+01
1.835069954395294189e-01,1.000000000000000000e+00,8.638771057128906250e+00,-1.025051689147949219e+01,4.021060466766357422e+00,-2.079522247314453125e+02,-1.013026275634765625e+02,-1.798735961914062500e+02,5.500723266601562500e+01,-2.090467262268066406e+01,-9.345405578613281250e+01,-1.180768966674804688e+02,6.585875701904296875e+01,-2.980402946472167969e+01
1.874109953641891479e-01,1.000000000000000000e+00,8.576965332031250000e+00,-1.019778823852539062e+01,4.028766155242919922e+00,-2.078942871093750000e+02,-1.012295837402343750e+02,-1.798097076416015625e+02,5.500723266601562500e+01,-2.090467262268066406e+01,-9.345405578613281250e+01,-1.180766754150390625e+02,6.585889434814453125e+01,-2.980402946472167969e+01
1.914660036563873291e-01,1.000000000000000000e+00,8.514011383056640625e+00,-1.014445018768310547e+01,4.036492347717285156e+00,-2.078366546630859375e+02,-1.011565399169921875e+02,-1.797464294433593750e+02,5.500734329223632812e+01,-2.090467262268066406e+01,-9.345405578613281250e+01,-1.180768966674804688e+02,6.585875701904296875e+01,-2.980402946472167969e+01
1.954559981822967529e-01,1.000000000000000000e+00,8.450282096862792969e+00,-1.009059143066406250e+01,4.044340133666992188e+00,-2.077783508300781250e+02,-1.010821075439453125e+02,-1.796811981201171875e+02,5.500723266601562500e+01,-2.090467262268066406e+01,-9.345405578613281250e+01,-1.180768966674804688e+02,6.585875701904296875e+01,-2.980424880981445312e+01
1.994979977607727051e-01,1.000000000000000000e+00,8.385978698730468750e+00,-1.003573608398437500e+01,4.052392005920410156e+00,-2.077198791503906250e+02,-1.010074691772460938e+02,-1.796166992187500000e+02,5.500723266601562500e+01,-2.090467262268066406e+01,-9.345405578613281250e+01,-1.180768966674804688e+02,6.585875701904296875e+01,-2.980424880981445312e+01
2.034209966659545898e-01,1.000000000000000000e+00,8.321043968200683594e+00,-9.980428695678710938e+00,4.060524463653564453e+00,-2.076613616943359375e+02,-1.009331970214843750e+02,-1.795528259277343750e+02,5.500723266601562500e+01,-2.090467262268066406e+01,-9.345405578613281250e+01,-1.180768966674804688e+02,6.585875701904296875e+01,-2.980424880981445312e+01
2.075279951095581055e-01,1.000000000000000000e+00,8.255563735961914062e+00,-9.924691200256347656e+00,4.068758964538574219e+00,-2.076026916503906250e+02,-1.008590927124023438e+02,-1.794877777099609375e+02,5.500734329223632812e+01,-2.090467262268066406e+01,-9.345405578613281250e+01,-1.180766754150390625e+02,6.585875701904296875e+01,-2.980424880981445312e+01
2.114129960536956787e-01,1.000000000000000000e+00,8.189939498901367188e+00,-9.868930816650390625e+00,4.076952934265136719e+00,-2.075449981689453125e+02,-1.007848739624023438e+02,-1.794238891601562500e+02,5.500712203979492188e+01,-2.090467262268066406e+01,-9.345405578613281250e+01,-1.180768966674804688e+02,6.585875701904296875e+01,-2.980424880981445312e+01
2.154230028390884399e-01,1.000000000000000000e+00,8.124114990234375000e+00,-9.813261985778808594e+00,4.085125923156738281e+00,-2.074865875244140625e+02,-1.007099685668945312e+02,-1.793597412109375000e+02,5.500723266601562500e+01,-2.090467262268066406e+01,-9.345405578613281250e+01,-1.180768966674804688e+02,6.585875701904296875e+01,-2.980424880981445312e+01
2.194869965314865112e-01,1.000000000000000000e+00,8.058691978454589844e+00,-9.757614135742187500e+00,4.093136787414550781e+00,-2.074286041259765625e+02,-1.006355361938476562e+02,-1.792947692871093750e+02,5.500723266601562500e+01,-2.090467262268066406e+01,-9.345405578613281250e+01,-1.180768966674804688e+02,6.585875701904296875e+01,-2.980402946472167969e+01
2.234099954366683960e-01,1.000000000000000000e+00,7.993211746215820312e+00,-9.702125549316406250e+00,4.101330757141113281e+00,-2.073702850341796875e+02,-1.005613784790039062e+02,-1.792306823730468750e+02,5.500723266601562500e+01,-2.090467262268066406e+01,-9.345405578613281250e+01,-1.180768966674804688e+02,6.585875701904296875e+01,-2.980424880981445312e+01
2.274080067873001099e-01,1.000000000000000000e+00,7.927415847778320312e+00,-9.646343231201171875e+00,4.109666347503662109e+00,-2.073112792968750000e+02,-1.004866714477539062e+02,-1.791665954589843750e+02,5.500734329223632812e+01,-2.090467262268066406e+01,-9.345405578613281250e+01,-1.180768966674804688e+02,6.585875701904296875e+01,-2.980424880981445312e+01
2.315330058336257935e-01,1.000000000000000000e+00,7.862194061279296875e+00,-9.590764045715332031e+00,4.118022918701171875e+00,-2.072533569335937500e+02,-1.004120864868164062e+02,-1.791018981933593750e+02,5.500712203979492188e+01,-2.090467262268066406e+01,-9.345405578613281250e+01,-1.180768966674804688e+02,6.585875701904296875e+01,-2.980424880981445312e+01
2.354730069637298584e-01,1.000000000000000000e+00,7.796742916107177734e+00,-9.535387992858886719e+00,4.126277923583984375e+00,-2.071945648193359375e+02,-1.003379287719726562e+02,-1.790380859375000000e+02,5.500734329223632812e+01,-2.090467262268066406e+01,-9.345405578613281250e+01,-1.180768966674804688e+02,6.585875701904296875e+01,-2.980424880981445312e+01
2.394639998674392700e-01,1.000000000000000000e+00,7.731348037719726562e+00,-9.480126380920410156e+00,4.134369850158691406e+00,-2.071361999511718750e+02,-1.002633895874023438e+02,-1.789742126464843750e+02,5.500723266601562500e+01,-2.090467262268066406e+01,-9.345405578613281250e+01,-1.180768966674804688e+02,6.585875701904296875e+01,-2.980402946472167969e+01
2.435380071401596069e-01,1.000000000000000000e+00,7.666069507598876953e+00,-9.424999237060546875e+00,4.142238140106201172e+00,-2.070778350830078125e+02,-1.001888046264648438e+02,-1.789096984863281250e+02,5.500723266601562500e+01,-2.090467262268066406e+01,-9.345405578613281250e+01,-1.180768966674804688e+02,6.585875701904296875e+01,-2.980402946472167969e+01
2.474959939718246460e-01,1.000000000000000000e+00,7.600818157196044922e+00,-9.369782447814941406e+00,4.150065898895263672e+00,-2.070188903808593750e+02,-1.001137847900390625e+02,-1.788459625244140625e+02,5.500723266601562500e+01,-2.090467262268066406e+01,-9.345405578613281250e+01,-1.180768966674804688e+02,6.585875701904296875e+01,-2.980424880981445312e+01
2.514350116252899170e-01,1.000000000000000000e+00,7.535855293273925781e+00,-9.314927101135253906e+00,4.158015727996826172e+00,-2.069609527587890625e+02,-1.000404205322265625e+02,-1.787811279296875000e+02,5.500723266601562500e+01,-2.090467262268066406e+01,-9.345405578613281250e+01,-1.180768966674804688e+02,6.585875701904296875e+01,-2.980402946472167969e+01
2.554639875888824463e-01,1.000000000000000000e+00,7.471035003662109375e+00,-9.259846687316894531e+00,4.166290760040283203e+00,-2.069023284912109375e+02,-9.996598815917968750e+01,-1.787160339355468750e+02,5.500723266601562500e+01,-2.090467262268066406e+01,-9.345405578613281250e+01,-1.180768966674804688e+02,6.585875701904296875e+01,-2.980402946472167969e+01
2.594769895076751709e-01,1.000000000000000000e+00,7.406330108642578125e+00,-9.204719543457031250e+00,4.174382686614990234e+00,-2.068439636230468750e+02,-9.989118957519531250e+01,-1.786529541015625000e+02,5.500723266601562500e+01,-2.090458106994628906e+01,-9.345405578613281250e+01,-1.180768966674804688e+02,6.585875701904296875e+01,-2.980402946472167969e+01
2.634130120277404785e-01,1.000000000000000000e+00,7.341280460357666016e+00,-9.149683952331542969e+00,4.182373046875000000e+00,-2.067854919433593750e+02,-9.981584930419921875e+01,-1.785883941650390625e+02,5.500723266601562500e+01,-2.090458106994628906e+01,-9.345405578613281250e+01,-1.180768966674804688e+02,6.585875701904296875e+01,-2.980424880981445312e+01
2.674039900302886963e-01,1.000000000000000000e+00,7.276201248168945312e+00,-9.094625473022460938e+00,4.190160274505615234e+00,-2.067268218994140625e+02,-9.974227905273437500e+01,-1.785240325927734375e+02,5.500723266601562500e+01,-2.090467262268066406e+01,-9.345405578613281250e+01,-1.180768966674804688e+02,6.585875701904296875e+01,-2.980424880981445312e+01
2.714009881019592285e-01,1.000000000000000000e+00,7.211296081542968750e+00,-9.039748191833496094e+00,4.197825431823730469e+00,-2.066689300537109375e+02,-9.966795349121093750e+01,-1.784604339599609375e+02,5.500723266601562500e+01,-2.090467262268066406e+01,-9.345405578613281250e+01,-1.180768966674804688e+02,6.585875701904296875e+01,-2.980446624755859375e+01
2.754830121994018555e-01,1.000000000000000000e+00,7.146275043487548828e+00,-8.984848022460937500e+00,4.205632686614990234e+00,-2.066103515625000000e+02,-9.959314727783203125e+01,-1.783953247070312500e+02,5.500723266601562500e+01,-2.090467262268066406e+01,-9.345405578613281250e+01,-1.180768966674804688e+02,6.585875701904296875e+01,-2.980424880981445312e+01
2.794609963893890381e-01,1.000000000000000000e+00,7.081339836120605469e+00,-8.929880142211914062e+00,4.213765144348144531e+00,-2.065520324707031250e+02,-9.951792144775390625e+01,-1.783312225341796875e+02,5.500723266601562500e+01,-2.090467262268066406e+01,-9.345405578613281250e+01,-1.180768966674804688e+02,6.585875701904296875e+01,-2.980424880981445312e+01
2.835400104522705078e-01,1.000000000000000000e+00,7.016261577606201172e+00,-8.874957084655761719e+00,4.222020149230957031e+00,-2.064940490722656250e+02,-9.944407653808593750e+01,-1.782678375244140625e+02,5.500723266601562500e+01,-2.090467262268066406e+01,-9.345405578613281250e+01,-1.180768966674804688e+02,6.585875701904296875e+01,-2.980424880981445312e+01
2.874239981174468994e-01,1.000000000000000000e+00,6.951183319091796875e+00,-8.819920539855957031e+00,4.230152606964111328e+00,-2.064355926513671875e+02,-9.937001800537109375e+01,-1.782031250000000000e+02,5.500734329223632812e+01,-2.090467262268066406e+01,-9.345405578613281250e+01,-1.180768966674804688e+02,6.585875701904296875e+01,-2.980402946472167969e+01
2.935029864311218262e-01,1.000000000000000000e+00,6.885760307312011719e+00,-8.764998435974121094e+00,4.238326072692871094e+00,-2.063773803710937500e+02,-9.929516601562500000e+01,-1.781392517089843750e+02,5.500723266601562500e+01,-2.090467262268066406e+01,-9.345405578613281250e+01,-1.180768966674804688e+02,6.585875701904296875e+01,-2.980402946472167969e+01
2.954800128936767578e-01,1.000000000000000000e+00,6.820480823516845703e+00,-8.709917068481445312e+00,4.246357440948486328e+00,-2.063184814453125000e+02,-9.922042083740234375e+01,-1.780756988525390625e+02,5.500723266601562500e+01,-2.090467262268066406e+01,-9.345405578613281250e+01,-1.180768966674804688e+02,6.585875701904296875e+01,-2.980424880981445312e+01
2.994500100612640381e-01,1.000000000000000000e+00,6.755029678344726562e+00,-8.654881477355957031e+00,4.254286766052246094e+00,-2.062600250244140625e+02,-9.914635467529296875e+01,-1.780109405517578125e+02,5.500723266601562500e+01,-2.090467262268066406e+01,-9.345405578613281250e+01,-1.180768966674804688e+02,6.585875701904296875e+01,-2.980424880981445312e+01
3.057579994201660156e-01,1.000000000000000000e+00,6.690008640289306641e+00,-8.599867820739746094e+00,4.262236595153808594e+00,-2.062017059326171875e+02,-9.907251739501953125e+01,-1.779469909667968750e+02,5.500734329223632812e+01,-2.090467262268066406e+01,-9.345405578613281250e+01,-1.180768966674804688e+02,6.585875701904296875e+01,-2.980424880981445312e+01
3.074600100517272949e-01,1.000000000000000000e+00,6.624901294708251953e+00,-8.544514656066894531e+00,4.270348548889160156e+00,-2.061434631347656250e+02,-9.899793243408203125e+01,-1.778839874267578125e+02,5.500723266601562500e+01,-2.090458106994628906e+01,-9.345405578613281250e+01,-1.180768966674804688e+02,6.585875701904296875e+01,-2.980402946472167969e+01
3.124690055847167969e-01,1.000000000000000000e+00,6.624901294708251953e+00,-8.544514656066894531e+00,4.270348548889160156e+00,-2.061434631347656250e+02,-9.899793243408203125e+01,-1.778839874267578125e+02,5.500723266601562500e+01,-2.090458106994628906e+01,-9.345405578613281250e+01,-1.180768966674804688e+02,6.585875701904296875e+01,-2.980392074584960938e+01
3.154160082340240479e-01,1.000000000000000000e+00,6.494112968444824219e+00,-8.433650016784667969e+00,4.286674976348876953e+00,-2.060265655517578125e+02,-9.884885406494140625e+01,-1.777552642822265625e+02,5.500723266601562500e+01,-2.090467262268066406e+01,-9.345405578613281250e+01,-1.180768966674804688e+02,6.585875701904296875e+01,-2.980392074584960938e+01
3.204540014266967773e-01,1.000000000000000000e+00,6.494112968444824219e+00,-8.433650016784667969e+00,4.286674976348876953e+00,-2.060265655517578125e+02,-9.884885406494140625e+01,-1.777552642822265625e+02,5.500723266601562500e+01,-2.090467262268066406e+01,-9.345405578613281250e+01,-1.180768966674804688e+02,6.585875701904296875e+01,-2.980392074584960938e+01
3.236559927463531494e-01,1.000000000000000000e+00,6.363325119018554688e+00,-8.322650909423828125e+00,4.302879810333251953e+00,-2.059098968505859375e+02,-9.870021057128906250e+01,-1.776269531250000000e+02,5.500723266601562500e+01,-2.090467262268066406e+01,-9.345405578613281250e+01,-1.180768966674804688e+02,6.585875701904296875e+01,-2.980392074584960938e+01
3.300389945507049561e-01,1.000000000000000000e+00,6.363325119018554688e+00,-8.322650909423828125e+00,4.302879810333251953e+00,-2.059098968505859375e+02,-9.870021057128906250e+01,-1.776269531250000000e+02,5.500712203979492188e+01,-2.090467262268066406e+01,-9.345405578613281250e+01,-1.180768966674804688e+02,6.585875701904296875e+01,-2.980402946472167969e+01
3.315280079841613770e-01,1.000000000000000000e+00,6.232393264770507812e+00,-8.211718559265136719e+00,4.318840026855468750e+00,-2.057938690185546875e+02,-9.855220794677734375e+01,-1.774993286132812500e+02,5.500712203979492188e+01,-2.090467262268066406e+01,-9.345405578613281250e+01,-1.180768966674804688e+02,6.585875701904296875e+01,-2.980424880981445312e+01
3.354629874229431152e-01,1.000000000000000000e+00,6.232393264770507812e+00,-8.211718559265136719e+00,4.318840026855468750e+00,-2.057938690185546875e+02,-9.855220794677734375e+01,-1.774993286132812500e+02,5.500712203979492188e+01,-2.090467262268066406e+01,-9.345405578613281250e+01,-1.180768966674804688e+02,6.585875701904296875e+01,-2.980424880981445312e+01
3.394620120525360107e-01,1.000000000000000000e+00,6.166654586791992188e+00,-8.156026840209960938e+00,4.327176094055175781e+00,-2.057352294921875000e+02,-9.847809600830078125e+01,-1.774346313476562500e+02,5.500723266601562500e+01,-2.090467262268066406e+01,-9.345405578613281250e+01,-1.180768966674804688e+02,6.585875701904296875e+01,-2.980424880981445312e+01
3.434939980506896973e-01,1.000000000000000000e+00,6.101174354553222656e+00,-8.100628852844238281e+00,4.335491657257080078e+00,-2.056775054931640625e+02,-9.840339660644531250e+01,-1.773711547851562500e+02,5.500723266601562500e+01,-2.090458106994628906e+01,-9.345405578613281250e+01,-1.180768966674804688e+02,6.585875701904296875e+01,-2.980424880981445312e+01
3.474769890308380127e-01,1.000000000000000000e+00,6.035636901855468750e+00,-8.045185089111328125e+00,4.343787193298339844e+00,-2.056187591552734375e+02,-9.832949829101562500e+01,-1.773070068359375000e+02,5.500723266601562500e+01,-2.090467262268066406e+01,-9.345405578613281250e+01,-1.180768966674804688e+02,6.585875701904296875e+01,-2.980446624755859375e+01
3.514670133590698242e-01,1.000000000000000000e+00,5.970070362091064453e+00,-7.989855289459228516e+00,4.352042198181152344e+00,-2.055605163574218750e+02,-9.825512695312500000e+01,-1.772423095703125000e+02,5.500723266601562500e+01,-2.090467262268066406e+01,-9.345405578613281250e+01,-1.180768966674804688e+02,6.585875701904296875e+01,-2.980424880981445312e+01
3.554979860782623291e-01,1.000000000000000000e+00,5.904274463653564453e+00,-7.934457302093505859e+00,4.360235691070556641e+00,-2.055026702880859375e+02,-9.818144226074218750e+01,-1.771788940429687500e+02,5.500723266601562500e+01,-2.090467262268066406e+01,-9.345405578613281250e+01,-1.180768966674804688e+02,6.585875701904296875e+01,-2.980424880981445312e+01
3.594720065593719482e-01,1.000000000000000000e+00,5.838822841644287109e+00,-7.879149913787841797e+00,4.368246078491210938e+00,-2.054439392089843750e+02,-9.810707092285156250e+01,-1.771146545410156250e+02,5.500723266601562500e+01,-2.090467262268066406e+01,-9.345405578613281250e+01,-1.180768966674804688e+02,6.585875701904296875e+01,-2.980402946472167969e+01
3.634580075740814209e-01,1.000000000000000000e+00,5.773170471191406250e+00,-7.823797225952148438e+00,4.376155376434326172e+00,-2.053858337402343750e+02,-9.803301239013671875e+01,-1.770500335693359375e+02,5.500723266601562500e+01,-2.090467262268066406e+01,-9.345405578613281250e+01,-1.180768966674804688e+02,6.585875701904296875e+01,-2.980424880981445312e+01
3.675720095634460449e-01,1.000000000000000000e+00,5.707833766937255859e+00,-7.768512248992919922e+00,4.384166240692138672e+00,-2.053270111083984375e+02,-9.795880126953125000e+01,-1.769869689941406250e+02,5.500723266601562500e+01,-2.090467262268066406e+01,-9.345405578613281250e+01,-1.180768966674804688e+02,6.585875701904296875e+01,-2.980424880981445312e+01
3.714790046215057373e-01,1.000000000000000000e+00,5.642497062683105469e+00,-7.713226795196533203e+00,4.392278671264648438e+00,-2.052685852050781250e+02,-9.788468170166015625e+01,-1.769224700927734375e+02,5.500723266601562500e+01,-2.090467262268066406e+01,-9.345405578613281250e+01,-1.180768966674804688e+02,6.585875701904296875e+01,-2.980402946472167969e+01
3.756549954414367676e-01,1.000000000000000000e+00,5.577275276184082031e+00,-7.657806873321533203e+00,4.400309562683105469e+00,-2.052106475830078125e+02,-9.780993652343750000e+01,-1.768579101562500000e+02,5.500723266601562500e+01,-2.090458106994628906e+01,-9.345405578613281250e+01,-1.180768966674804688e+02,6.585875701904296875e+01,-2.980402946472167969e+01
3.794530034065246582e-01,1.000000000000000000e+00,5.512311458587646484e+00,-7.602521419525146484e+00,4.408239364624023438e+00,-2.051519165039062500e+02,-9.773641204833984375e+01,-1.767947692871093750e+02,5.500723266601562500e+01,-2.090458106994628906e+01,-9.345405578613281250e+01,-1.180768966674804688e+02,6.585875701904296875e+01,-2.980402946472167969e+01
3.834489881992340088e-01,1.000000000000000000e+00,5.447032451629638672e+00,-7.547440052032470703e+00,4.416188716888427734e+00,-2.050940246582031250e+02,-9.766278839111328125e+01,-1.767306213378906250e+02,5.500723266601562500e+01,-2.090467262268066406e+01,-9.345405578613281250e+01,-1.180768966674804688e+02,6.585875701904296875e+01,-2.980402946472167969e+01
3.875240087509155273e-01,1.000000000000000000e+00,5.381752967834472656e+00,-7.492404460906982422e+00,4.424036979675292969e+00,-2.050353546142578125e+02,-9.758851623535156250e+01,-1.766663970947265625e+02,5.500723266601562500e+01,-2.090467262268066406e+01,-9.345405578613281250e+01,-1.180768966674804688e+02,6.585875701904296875e+01,-2.980424880981445312e+01
3.914810121059417725e-01,1.000000000000000000e+00,5.316731929779052734e+00,-7.437210559844970703e+00,4.432128906250000000e+00,-2.049773559570312500e+02,-9.751397705078125000e+01,-1.766027832031250000e+02,5.500734329223632812e+01,-2.090467262268066406e+01,-9.345405578613281250e+01,-1.180768966674804688e+02,6.585875701904296875e+01,-2.980424880981445312e+01
3.954539895057678223e-01,1.000000000000000000e+00,5.251711368560791016e+00,-7.382196426391601562e+00,4.440444946289062500e+00,-2.049196319580078125e+02,-9.744029998779296875e+01,-1.765378112792968750e+02,5.500723266601562500e+01,-2.090467262268066406e+01,-9.345405578613281250e+01,-1.180768966674804688e+02,6.585875701904296875e+01,-2.980424880981445312e+01
4.001309871673583984e-01,1.000000000000000000e+00,5.186891078948974609e+00,-7.327206134796142578e+00,4.448678970336914062e+00,-2.048611602783203125e+02,-9.736661529541015625e+01,-1.764740753173828125e+02,5.500723266601562500e+01,-2.090467262268066406e+01,-9.345405578613281250e+01,-1.180768966674804688e+02,6.585875701904296875e+01,-2.980424880981445312e+01
4.044120013713836670e-01,1.000000000000000000e+00,5.056676864624023438e+00,-7.217224597930908203e+00,4.464944362640380859e+00,-2.047443237304687500e+02,-9.721785736083984375e+01,-1.763459014892578125e+02,5.500723266601562500e+01,-2.090467262268066406e+01,-9.345405578613281250e+01,-1.180768966674804688e+02,6.585875701904296875e+01,-2.980402946472167969e+01
4.074040055274963379e-01,1.000000000000000000e+00,4.991512775421142578e+00,-7.162392616271972656e+00,4.472975730895996094e+00,-2.046864471435546875e+02,-9.714396667480468750e+01,-1.762820129394531250e+02,5.500723266601562500e+01,-2.090467262268066406e+01,-9.345405578613281250e+01,-1.180768966674804688e+02,6.585875701904296875e+01,-2.980424880981445312e+01
4.114690124988555908e-01,1.000000000000000000e+00,4.991512775421142578e+00,-7.162392616271972656e+00,4.472975730895996094e+00,-2.046864471435546875e+02,-9.714396667480468750e+01,-1.762820129394531250e+02,5.500723266601562500e+01,-2.090467262268066406e+01,-9.345405578613281250e+01,-1.180768966674804688e+02,6.585875701904296875e+01,-2.980424880981445312e+01
4.155159890651702881e-01,1.000000000000000000e+00,4.926175594329833984e+00,-7.107492446899414062e+00,4.480884552001953125e+00,-2.046284942626953125e+02,-9.706991577148437500e+01,-1.762181243896484375e+02,5.500701522827148438e+01,-2.090467262268066406e+01,-9.345405578613281250e+01,-1.180768966674804688e+02,6.585875701904296875e+01,-2.980402946472167969e+01
4.194670021533966064e-01,1.000000000000000000e+00,4.860953807830810547e+00,-7.052297592163085938e+00,4.488813877105712891e+00,-2.045699157714843750e+02,-9.699591064453125000e+01,-1.761534423828125000e+02,5.500723266601562500e+01,-2.090467262268066406e+01,-9.345405578613281250e+01,-1.180768966674804688e+02,6.585875701904296875e+01,-2.980424880981445312e+01
4.241429865360260010e-01,1.000000000000000000e+00,4.795789718627929688e+00,-6.997126102447509766e+00,4.496987342834472656e+00,-2.045117187500000000e+02,-9.692126464843750000e+01,-1.760896759033203125e+02,5.500734329223632812e+01,-2.090467262268066406e+01,-9.345405578613281250e+01,-1.180768966674804688e+02,6.585875701904296875e+01,-2.980424880981445312e+01
4.284479916095733643e-01,1.000000000000000000e+00,4.730423927307128906e+00,-6.941954135894775391e+00,4.505120277404785156e+00,-2.044530944824218750e+02,-9.684747314453125000e+01,-1.760267486572265625e+02,5.500723266601562500e+01,-2.090467262268066406e+01,-9.345405578613281250e+01,-1.180768966674804688e+02,6.585875701904296875e+01,-2.980446624755859375e+01
4.324069917201995850e-01,1.000000000000000000e+00,4.665316581726074219e+00,-6.886782646179199219e+00,4.513171195983886719e+00,-2.043951416015625000e+02,-9.677330780029296875e+01,-1.759615783691406250e+02,5.500723266601562500e+01,-2.090467262268066406e+01,-9.345405578613281250e+01,-1.180768966674804688e+02,6.585875701904296875e+01,-2.980446624755859375e+01
4.366399943828582764e-01,1.000000000000000000e+00,4.534614562988281250e+00,-6.776190280914306641e+00,4.528725624084472656e+00,-2.042787322998046875e+02,-9.662407684326171875e+01,-1.758340759277343750e+02,5.500712203979492188e+01,-2.090467262268066406e+01,-9.345405578613281250e+01,-1.180768966674804688e+02,6.585875701904296875e+01,-2.980424880981445312e+01
4.399420022964477539e-01,1.000000000000000000e+00,4.469536781311035156e+00,-6.720995903015136719e+00,4.536613941192626953e+00,-2.042209167480468750e+02,-9.655088043212890625e+01,-1.757697906494140625e+02,5.500723266601562500e+01,-2.090458106994628906e+01,-9.345405578613281250e+01,-1.180768966674804688e+02,6.585875701904296875e+01,-2.980424880981445312e+01
4.434680044651031494e-01,1.000000000000000000e+00,4.469536781311035156e+00,-6.720995903015136719e+00,4.536613941192626953e+00,-2.042209167480468750e+02,-9.655088043212890625e+01,-1.757697906494140625e+02,5.500723266601562500e+01,-2.090458106994628906e+01,-9.345405578613281250e+01,-1.180768966674804688e+02,6.585875701904296875e+01,-2.980424880981445312e+01
4.484269917011260986e-01,1.000000000000000000e+00,4.404372215270996094e+00,-6.665575504302978516e+00,4.544807910919189453e+00,-2.041622772216796875e+02,-9.647666168212890625e+01,-1.757065887451171875e+02,5.500712203979492188e+01,-2.090467262268066406e+01,-9.345405578613281250e+01,-1.180768966674804688e+02,6.585875701904296875e+01,-2.980424880981445312e+01
4.524559974670410156e-01,1.000000000000000000e+00,4.339351177215576172e+00,-6.610425949096679688e+00,4.553286075592041016e+00,-2.041047058105468750e+02,-9.640265655517578125e+01,-1.756428375244140625e+02,5.500723266601562500e+01,-2.090467262268066406e+01,-9.345405578613281250e+01,-1.180768966674804688e+02,6.585875701904296875e+01,-2.980424880981445312e+01
4.554539918899536133e-01,1.000000000000000000e+00,4.273985862731933594e+00,-6.555073261260986328e+00,4.561459541320800781e+00,-2.040462951660156250e+02,-9.632753753662109375e+01,-1.755780792236328125e+02,5.500723266601562500e+01,-2.090467262268066406e+01,-9.345405578613281250e+01,-1.180768966674804688e+02,6.585875701904296875e+01,-2.980424880981445312e+01
4.594590067863464355e-01,1.000000000000000000e+00,4.208964347839355469e+00,-6.499855995178222656e+00,4.569734573364257812e+00,-2.039884033203125000e+02,-9.625444030761718750e+01,-1.755145263671875000e+02,5.500723266601562500e+01,-2.090467262268066406e+01,-9.345405578613281250e+01,-1.180768966674804688e+02,6.585875701904296875e+01,-2.980424880981445312e+01
4.637570083141326904e-01,1.000000000000000000e+00,4.143857955932617188e+00,-6.444639205932617188e+00,4.577826976776123047e+00,-2.039307250976562500e+02,-9.618032836914062500e+01,-1.754501647949218750e+02,5.500723266601562500e+01,-2.090467262268066406e+01,-9.345405578613281250e+01,-1.180768966674804688e+02,6.585875701904296875e+01,-2.980424880981445312e+01
4.674690067768096924e-01,1.000000000000000000e+00,4.078807830810546875e+00,-6.389354228973388672e+00,4.585816860198974609e+00,-2.038718261718750000e+02,-9.610616302490234375e+01,-1.753853454589843750e+02,5.500723266601562500e+01,-2.090467262268066406e+01,-9.345405578613281250e+01,-1.180768966674804688e+02,6.585875701904296875e+01,-2.980424880981445312e+01
4.725260138511657715e-01,1.000000000000000000e+00,4.013499736785888672e+00,-6.334024429321289062e+00,4.593787193298339844e+00,-2.038142700195312500e+02,-9.603136444091796875e+01,-1.753227539062500000e+02,5.500734329223632812e+01,-2.090476417541503906e+01,-9.345405578613281250e+01,-1.180768966674804688e+02,6.585875701904296875e+01,-2.980424880981445312e+01
4.755100011825561523e-01,1.000000000000000000e+00,3.948019742965698242e+00,-6.278694152832031250e+00,4.601879119873046875e+00,-2.037560577392578125e+02,-9.595768737792968750e+01,-1.752582397460937500e+02,5.500723266601562500e+01,-2.090467262268066406e+01,-9.345405578613281250e+01,-1.180768966674804688e+02,6.585875701904296875e+01,-2.980424880981445312e+01
4.794690012931823730e-01,1.000000000000000000e+00,3.882654428482055664e+00,-6.223408699035644531e+00,4.610113620758056641e+00,-2.036976318359375000e+02,-9.588405609130859375e+01,-1.751934814453125000e+02,5.500723266601562500e+01,-2.090467262268066406e+01,-9.345405578613281250e+01,-1.180768966674804688e+02,6.585875701904296875e+01,-2.980424880981445312e+01
4.834550023078918457e-01,1.000000000000000000e+00,3.817346334457397461e+00,-6.168078899383544922e+00,4.618408679962158203e+00,-2.036396484375000000e+02,-9.580973052978515625e+01,-1.751303405761718750e+02,5.500712203979492188e+01,-2.090467262268066406e+01,-9.345405578613281250e+01,-1.180768966674804688e+02,6.585875701904296875e+01,-2.980424880981445312e+01
4.879919886589050293e-01,1.000000000000000000e+00,3.752153396606445312e+00,-6.112703323364257812e+00,4.626623153686523438e+00,-2.035809173583984375e+02,-9.573492431640625000e+01,-1.750656433105468750e+02,5.500723266601562500e+01,-2.090467262268066406e+01,-9.345405578613281250e+01,-1.180768966674804688e+02,6.585875701904296875e+01,-2.980424880981445312e+01
4.924710094928741455e-01,1.000000000000000000e+00,3.687103509902954102e+00,-6.057441234588623047e+00,4.634633541107177734e+00,-2.035232391357421875e+02,-9.566123962402343750e+01,-1.750014953613281250e+02,5.500723266601562500e+01,-2.090467262268066406e+01,-9.345405578613281250e+01,-1.180768966674804688e+02,6.585875701904296875e+01,-2.980424880981445312e+01
4.963999986648559570e-01,1.000000000000000000e+00,3.622197389602661133e+00,-6.002269744873046875e+00,4.642420768737792969e+00,-2.034651336669921875e+02,-9.558756256103515625e+01,-1.749384918212890625e+02,5.500712203979492188e+01,-2.090467262268066406e+01,-9.345405578613281250e+01,-1.180768966674804688e+02,6.585875701904296875e+01,-2.980424880981445312e+01
4.994469881057739258e-01,1.000000000000000000e+00,3.556860685348510742e+00,-5.947143077850341797e+00,4.650187492370605469e+00,-2.034070434570312500e+02,-9.551329040527343750e+01,-1.748739318847656250e+02,5.500723266601562500e+01,-2.090476417541503906e+01,-9.345405578613281250e+01,-1.180768966674804688e+02,6.585875701904296875e+01,-2.980424880981445312e+01
5.035480260848999023e-01,1.000000000000000000e+00,3.491696357727050781e+00,-5.891993999481201172e+00,4.658380985260009766e+00,-2.033488311767578125e+02,-9.543891906738281250e+01,-1.748097076416015625e+02,5.500723266601562500e+01,-2.090467262268066406e+01,-9.345405578613281250e+01,-1.180768966674804688e+02,6.585875701904296875e+01,-2.980446624755859375e+01
5.076180100440979004e-01,1.000000000000000000e+00,3.426646709442138672e+00,-5.836890220642089844e+00,4.666717529296875000e+00,-2.032905731201171875e+02,-9.536496734619140625e+01,-1.747465667724609375e+02,5.500723266601562500e+01,-2.090467262268066406e+01,-9.345405578613281250e+01,-1.180768966674804688e+02,6.585875701904296875e+01,-2.980424880981445312e+01
5.121920108795166016e-01,1.000000000000000000e+00,3.361711740493774414e+00,-5.781831741333007812e+00,4.675053119659423828e+00,-2.032327423095703125e+02,-9.529144287109375000e+01,-1.746819458007812500e+02,5.500712203979492188e+01,-2.090467262268066406e+01,-9.345405578613281250e+01,-1.180768966674804688e+02,6.585875701904296875e+01,-2.980424880981445312e+01
5.155209898948669434e-01,1.000000000000000000e+00,3.296777009963989258e+00,-5.726750373840332031e+00,4.683287620544433594e+00,-2.031748046875000000e+02,-9.521691131591796875e+01,-1.746178588867187500e+02,5.500723266601562500e+01,-2.090467262268066406e+01,-9.345405578613281250e+01,-1.180768966674804688e+02,6.585875701904296875e+01,-2.980446624755859375e+01
5.211020112037658691e-01,1.000000000000000000e+00,3.231956958770751953e+00,-5.671827793121337891e+00,4.691298484802246094e+00,-2.031165924072265625e+02,-9.514279174804687500e+01,-1.745548553466796875e+02,5.500723266601562500e+01,-2.090467262268066406e+01,-9.345405578613281250e+01,-1.180768966674804688e+02,6.585875701904296875e+01,-2.980424880981445312e+01
5.244100093841552734e-01,1.000000000000000000e+00,3.166936159133911133e+00,-5.616950035095214844e+00,4.699105739593505859e+00,-2.030586090087890625e+02,-9.506879425048828125e+01,-1.744904174804687500e+02,5.500723266601562500e+01,-2.090467262268066406e+01,-9.345405578613281250e+01,-1.180768966674804688e+02,6.585875701904296875e+01,-2.980424880981445312e+01
5.275670289993286133e-01,1.000000000000000000e+00,3.101714134216308594e+00,-5.561868667602539062e+00,4.706770896911621094e+00,-2.030004577636718750e+02,-9.499526977539062500e+01,-1.744265441894531250e+02,5.500723266601562500e+01,-2.090467262268066406e+01,-9.345405578613281250e+01,-1.180768966674804688e+02,6.585875701904296875e+01,-2.980424880981445312e+01
5.317509770393371582e-01,1.000000000000000000e+00,3.036520957946777344e+00,-5.506719589233398438e+00,4.714740753173828125e+00,-2.029428253173828125e+02,-9.492095184326171875e+01,-1.743625946044921875e+02,5.500723266601562500e+01,-2.090467262268066406e+01,-9.345405578613281250e+01,-1.180768966674804688e+02,6.585875701904296875e+01,-2.980424880981445312e+01
5.363709926605224609e-01,1.000000000000000000e+00,2.971184253692626953e+00,-5.451502323150634766e+00,4.722731590270996094e+00,-2.028842926025390625e+02,-9.484700012207031250e+01,-1.742976226806640625e+02,5.500723266601562500e+01,-2.090467262268066406e+01,-9.345405578613281250e+01,-1.180768966674804688e+02,6.585875701904296875e+01,-2.980424880981445312e+01
5.397809743881225586e-01,1.000000000000000000e+00,2.906134605407714844e+00,-5.396511554718017578e+00,4.730884552001953125e+00,-2.028258819580078125e+02,-9.477299499511718750e+01,-1.742344055175781250e+02,5.500723266601562500e+01,-2.090467262268066406e+01,-9.345405578613281250e+01,-1.180768966674804688e+02,6.585875701904296875e+01,-2.980402946472167969e+01
5.438299775123596191e-01,1.000000000000000000e+00,2.840912580490112305e+00,-5.341430187225341797e+00,4.738935470581054688e+00,-2.027677917480468750e+02,-9.469921112060546875e+01,-1.741706695556640625e+02,5.500723266601562500e+01,-2.090467262268066406e+01,-9.345405578613281250e+01,-1.180768966674804688e+02,6.585875701904296875e+01,-2.980392074584960938e+01
5.477790236473083496e-01,1.000000000000000000e+00,2.775719642639160156e+00,-5.286417007446289062e+00,4.746885299682617188e+00,-2.027096862792968750e+02,-9.462477874755859375e+01,-1.741062469482421875e+02,5.500723266601562500e+01,-2.090467262268066406e+01,-9.345405578613281250e+01,-1.180768966674804688e+02,6.585875701904296875e+01,-2.980402946472167969e+01
5.517299771308898926e-01,1.000000000000000000e+00,2.710497617721557617e+00,-5.231222629547119141e+00,4.754754066467285156e+00,-2.026516418457031250e+02,-9.455109405517578125e+01,-1.740429077148437500e+02,5.500723266601562500e+01,-2.090467262268066406e+01,-9.345405578613281250e+01,-1.180768966674804688e+02,6.585875701904296875e+01,-2.980402946472167969e+01
5.560010075569152832e-01,1.000000000000000000e+00,2.645103454589843750e+00,-5.175938129425048828e+00,4.762744426727294922e+00,-2.025934448242187500e+02,-9.447703552246093750e+01,-1.739788818359375000e+02,5.500723266601562500e+01,-2.090467262268066406e+01,-9.345405578613281250e+01,-1.180768966674804688e+02,6.585875701904296875e+01,-2.980402946472167969e+01
5.605220198631286621e-01,1.000000000000000000e+00,2.579996347427368164e+00,-5.120879173278808594e+00,4.770978450775146484e+00,-2.025355529785156250e+02,-9.440308380126953125e+01,-1.739143218994140625e+02,5.500734329223632812e+01,-2.090467262268066406e+01,-9.345405578613281250e+01,-1.180768966674804688e+02,6.585875701904296875e+01,-2.980402946472167969e+01
5.638409852981567383e-01,1.000000000000000000e+00,2.514745950698852539e+00,-5.065798282623291016e+00,4.779294490814208984e+00,-2.024775543212890625e+02,-9.432908630371093750e+01,-1.738511810302734375e+02,5.500723266601562500e+01,-2.090458106994628906e+01,-9.345405578613281250e+01,-1.180768966674804688e+02,6.585875701904296875e+01,-2.980402946472167969e+01
5.678579807281494141e-01,1.000000000000000000e+00,2.449667453765869141e+00,-5.010829925537109375e+00,4.787528991699218750e+00,-2.024192352294921875e+02,-9.425561523437500000e+01,-1.737877044677734375e+02,5.500723266601562500e+01,-2.090467262268066406e+01,-9.345405578613281250e+01,-1.180768966674804688e+02,6.585875701904296875e+01,-2.980424880981445312e+01
5.719190239906311035e-01,1.000000000000000000e+00,2.384474277496337891e+00,-4.955862045288085938e+00,4.795763015747070312e+00,-2.023614654541015625e+02,-9.418209075927734375e+01,-1.737228698730468750e+02,5.500723266601562500e+01,-2.090467262268066406e+01,-9.345405578613281250e+01,-1.180768966674804688e+02,6.585875701904296875e+01,-2.980424880981445312e+01
5.764859914779663086e-01,1.000000000000000000e+00,2.319281339645385742e+00,-4.900758266448974609e+00,4.803855419158935547e+00,-2.023029937744140625e+02,-9.410808563232421875e+01,-1.736600036621093750e+02,5.500723266601562500e+01,-2.090467262268066406e+01,-9.345405578613281250e+01,-1.180768966674804688e+02,6.585860443115234375e+01,-2.980402946472167969e+01
5.801060199737548828e-01,1.000000000000000000e+00,2.254346370697021484e+00,-4.845654487609863281e+00,4.811723709106445312e+00,-2.022454681396484375e+02,-9.403376770019531250e+01,-1.735960693359375000e+02,5.500723266601562500e+01,-2.090467262268066406e+01,-9.345405578613281250e+01,-1.180768966674804688e+02,6.585875701904296875e+01,-2.980392074584960938e+01
5.847010016441345215e-01,1.000000000000000000e+00,2.189124584197998047e+00,-4.790527820587158203e+00,4.819530963897705078e+00,-2.021875305175781250e+02,-9.396002960205078125e+01,-1.735318298339843750e+02,5.500723266601562500e+01,-2.090467262268066406e+01,-9.345405578613281250e+01,-1.180768966674804688e+02,6.585875701904296875e+01,-2.980424880981445312e+01
5.883150100708007812e-01,1.000000000000000000e+00,2.123701572418212891e+00,-4.735424041748046875e+00,4.827704429626464844e+00,-2.021289062500000000e+02,-9.388651275634765625e+01,-1.734686889648437500e+02,5.500734329223632812e+01,-2.090467262268066406e+01,-9.345405578613281250e+01,-1.180768966674804688e+02,6.585875701904296875e+01,-2.980402946472167969e+01
5.920640230178833008e-01,1.000000000000000000e+00,2.058307409286499023e+00,-4.680093765258789062e+00,4.835877895355224609e+00,-2.020713806152343750e+02,-9.381277465820312500e+01,-1.734052276611328125e+02,5.500723266601562500e+01,-2.090467262268066406e+01,-9.345405578613281250e+01,-1.180768966674804688e+02,6.585875701904296875e+01,-2.980402946472167969e+01
5.960810184478759766e-01,1.000000000000000000e+00,1.993056893348693848e+00,-4.624786376953125000e+00,4.843929290771484375e+00,-2.020129089355468750e+02,-9.373855590820312500e+01,-1.733409271240234375e+02,5.500723266601562500e+01,-2.090467262268066406e+01,-9.345405578613281250e+01,-1.180768966674804688e+02,6.585875701904296875e+01,-2.980402946472167969e+01
6.000530123710632324e-01,1.000000000000000000e+00,1.927921175956726074e+00,-4.569705009460449219e+00,4.851980686187744141e+00,-2.019547576904296875e+02,-9.366445159912109375e+01,-1.732777252197265625e+02,5.500723266601562500e+01,-2.090467262268066406e+01,-9.345405578613281250e+01,-1.180768966674804688e+02,6.585875701904296875e+01,-2.980424880981445312e+01
6.043090224266052246e-01,1.000000000000000000e+00,1.862613081932067871e+00,-4.514533042907714844e+00,4.859869003295898438e+00,-2.018965606689453125e+02,-9.359070587158203125e+01,-1.732130889892578125e+02,5.500723266601562500e+01,-2.090467262268066406e+01,-9.345405578613281250e+01,-1.180768966674804688e+02,6.585875701904296875e+01,-2.980402946472167969e+01
6.089500188827514648e-01,1.000000000000000000e+00,1.797592282295227051e+00,-4.459429264068603516e+00,4.867534160614013672e+00,-2.018381500244140625e+02,-9.351702880859375000e+01,-1.731492919921875000e+02,5.500723266601562500e+01,-2.090467262268066406e+01,-9.345405578613281250e+01,-1.180768966674804688e+02,6.585875701904296875e+01,-2.980402946472167969e+01
6.124899983406066895e-01,1.000000000000000000e+00,1.732686161994934082e+00,-4.404393196105957031e+00,4.875524997711181641e+00,-2.017806701660156250e+02,-9.344264984130859375e+01,-1.730862121582031250e+02,5.500723266601562500e+01,-2.090467262268066406e+01,-9.345405578613281250e+01,-1.180768966674804688e+02,6.585875701904296875e+01,-2.980402946472167969e+01
6.161869764328002930e-01,1.000000000000000000e+00,1.667665243148803711e+00,-4.349357128143310547e+00,4.883820056915283203e+00,-2.017225189208984375e+02,-9.336901855468750000e+01,-1.730217742919921875e+02,5.500723266601562500e+01,-2.090467262268066406e+01,-9.345405578613281250e+01,-1.180768966674804688e+02,6.585875701904296875e+01,-2.980402946472167969e+01
6.204079985618591309e-01,1.000000000000000000e+00,1.602730393409729004e+00,-4.294343948364257812e+00,4.892135620117187500e+00,-2.016643218994140625e+02,-9.329512786865234375e+01,-1.729577636718750000e+02,5.500723266601562500e+01,-2.090467262268066406e+01,-9.345405578613281250e+01,-1.180768966674804688e+02,6.585875701904296875e+01,-2.980402946472167969e+01
6.244140267372131348e-01,1.000000000000000000e+00,1.537623286247253418e+00,-4.239263057708740234e+00,4.900370121002197266e+00,-2.016059570312500000e+02,-9.322138977050781250e+01,-1.728944244384765625e+02,5.500723266601562500e+01,-2.090467262268066406e+01,-9.345405578613281250e+01,-1.180768966674804688e+02,6.585875701904296875e+01,-2.980402946472167969e+01
6.285340189933776855e-01,1.000000000000000000e+00,1.472831964492797852e+00,-4.184362411499023438e+00,4.908523082733154297e+00,-2.015479583740234375e+02,-9.314642333984375000e+01,-1.728301391601562500e+02,5.500723266601562500e+01,-2.090467262268066406e+01,-9.345405578613281250e+01,-1.180768966674804688e+02,6.585875701904296875e+01,-2.980402946472167969e+01
6.331779956817626953e-01,1.000000000000000000e+00,1.408098101615905762e+00,-4.129372119903564453e+00,4.916492938995361328e+00,-2.014906005859375000e+02,-9.307353973388671875e+01,-1.727659149169921875e+02,5.500712203979492188e+01,-2.090467262268066406e+01,-9.345405578613281250e+01,-1.180768966674804688e+02,6.585875701904296875e+01,-2.980424880981445312e+01
6.366189718246459961e-01,1.000000000000000000e+00,1.343421697616577148e+00,-4.074223041534423828e+00,4.924178600311279297e+00,-2.014323883056640625e+02,-9.299964141845703125e+01,-1.727029113769531250e+02,5.500723266601562500e+01,-2.090467262268066406e+01,-9.345405578613281250e+01,-1.180768966674804688e+02,6.585875701904296875e+01,-2.980424880981445312e+01
6.407020092010498047e-01,1.000000000000000000e+00,1.278745293617248535e+00,-4.019209384918212891e+00,4.931986331939697266e+00,-2.013743438720703125e+02,-9.292585754394531250e+01,-1.726382751464843750e+02,5.500723266601562500e+01,-2.090467262268066406e+01,-9.345405578613281250e+01,-1.180768966674804688e+02,6.585875701904296875e+01,-2.980446624755859375e+01
6.444810032844543457e-01,1.000000000000000000e+00,1.213666915893554688e+00,-3.963947296142578125e+00,4.940037727355957031e+00,-2.013160858154296875e+02,-9.285073089599609375e+01,-1.725746002197265625e+02,5.500723266601562500e+01,-2.090467262268066406e+01,-9.345405578613281250e+01,-1.180768966674804688e+02,6.585875701904296875e+01,-2.980424880981445312e+01
6.485450267791748047e-01,1.000000000000000000e+00,1.148674607276916504e+00,-3.908911228179931641e+00,4.948210716247558594e+00,-2.012579803466796875e+02,-9.277742767333984375e+01,-1.725110626220703125e+02,5.500723266601562500e+01,-2.090467262268066406e+01,-9.345405578613281250e+01,-1.180768966674804688e+02,6.585875701904296875e+01,-2.980424880981445312e+01
6.527550220489501953e-01,1.000000000000000000e+00,1.083739876747131348e+00,-3.853739738464355469e+00,4.956384658813476562e+00,-2.012004241943359375e+02,-9.270352935791015625e+01,-1.724467620849609375e+02,5.500723266601562500e+01,-2.090467262268066406e+01,-9.345405578613281250e+01,-1.180768966674804688e+02,6.585875701904296875e+01,-2.980424880981445312e+01
6.572099924087524414e-01,1.000000000000000000e+00,1.018891096115112305e+00,-3.798861980438232422e+00,4.964517116546630859e+00,-2.011421661376953125e+02,-9.262968444824218750e+01,-1.723834991455078125e+02,5.500723266601562500e+01,-2.090467262268066406e+01,-9.345405578613281250e+01,-1.180768966674804688e+02,6.585875701904296875e+01,-2.980424880981445312e+01
6.603890061378479004e-01,1.000000000000000000e+00,9.540424346923828125e-01,-3.743826150894165039e+00,4.972486972808837891e+00,-2.010841674804687500e+02,-9.255493927001953125e+01,-1.723200836181640625e+02,5.500734329223632812e+01,-2.090467262268066406e+01,-9.345405578613281250e+01,-1.180768966674804688e+02,6.585875701904296875e+01,-2.980446624755859375e+01
6.646789908409118652e-01,1.000000000000000000e+00,8.892798423767089844e-01,-3.688563823699951172e+00,4.980274200439453125e+00,-2.010258636474609375e+02,-9.248114776611328125e+01,-1.722557830810546875e+02,5.500723266601562500e+01,-2.090467262268066406e+01,-9.345405578613281250e+01,-1.180768966674804688e+02,6.585875701904296875e+01,-2.980446624755859375e+01
6.686300039291381836e-01,1.000000000000000000e+00,8.241727948188781738e-01,-3.633573055267333984e+00,4.988244533538818359e+00,-2.009677581787109375e+02,-9.240767669677734375e+01,-1.721921844482421875e+02,5.500723266601562500e+01,-2.090467262268066406e+01,-9.345405578613281250e+01,-1.180768966674804688e+02,6.585875701904296875e+01,-2.980424880981445312e+01
6.714130043983459473e-01,1.000000000000000000e+00,7.591805458068847656e-01,-3.578537225723266602e+00,4.996376991271972656e+00,-2.009099731445312500e+02,-9.233373260498046875e+01,-1.721287078857421875e+02,5.500723266601562500e+01,-2.090467262268066406e+01,-9.345405578613281250e+01,-1.180768966674804688e+02,6.585875701904296875e+01,-2.980424880981445312e+01
6.753910183906555176e-01,1.000000000000000000e+00,6.942457556724548340e-01,-3.523659706115722656e+00,5.004672050476074219e+00,-2.008517761230468750e+02,-9.225919342041015625e+01,-1.720640716552734375e+02,5.500723266601562500e+01,-2.090467262268066406e+01,-9.345405578613281250e+01,-1.180768966674804688e+02,6.585875701904296875e+01,-2.980424880981445312e+01
6.813380122184753418e-01,1.000000000000000000e+00,6.292822360992431641e-01,-3.468759536743164062e+00,5.012886524200439453e+00,-2.007941894531250000e+02,-9.218534851074218750e+01,-1.720010833740234375e+02,5.500712203979492188e+01,-2.090467262268066406e+01,-9.345405578613281250e+01,-1.180768966674804688e+02,6.585875701904296875e+01,-2.980424880981445312e+01
6.834729909896850586e-01,1.000000000000000000e+00,5.645771026611328125e-01,-3.413723468780517578e+00,5.020998954772949219e+00,-2.007355804443359375e+02,-9.211209869384765625e+01,-1.719374542236328125e+02,5.500723266601562500e+01,-2.090467262268066406e+01,-9.345405578613281250e+01,-1.180768966674804688e+02,6.585875701904296875e+01,-2.980424880981445312e+01
6.874449849128723145e-01,1.000000000000000000e+00,4.997857511043548584e-01,-3.358664989471435547e+00,5.029029846191406250e+00,-2.006778869628906250e+02,-9.203804016113281250e+01,-1.718733062744140625e+02,5.500723266601562500e+01,-2.090467262268066406e+01,-9.345405578613281250e+01,-1.180768966674804688e+02,6.585860443115234375e+01,-2.980424880981445312e+01
6.914809942245483398e-01,1.000000000000000000e+00,4.346787035465240479e-01,-3.303560972213745117e+00,5.036837100982666016e+00,-2.006202087402343750e+02,-9.196350097656250000e+01,-1.718096313476562500e+02,5.500723266601562500e+01,-2.090467262268066406e+01,-9.345405578613281250e+01,-1.180768966674804688e+02,6.585875701904296875e+01,-2.980424880981445312e+01
6.954190135002136230e-01,1.000000000000000000e+00,3.698013424873352051e-01,-3.248615503311157227e+00,5.044624328613281250e+00,-2.005622253417968750e+02,-9.188970947265625000e+01,-1.717456207275390625e+02,5.500723266601562500e+01,-2.090467262268066406e+01,-9.345405578613281250e+01,-1.180768966674804688e+02,6.585875701904296875e+01,-2.980424880981445312e+01
6.993970274925231934e-01,1.000000000000000000e+00,3.047229647636413574e-01,-3.193421363830566406e+00,5.052635192871093750e+00,-2.005050201416015625e+02,-9.181645965576171875e+01,-1.716819305419921875e+02,5.500723266601562500e+01,-2.090467262268066406e+01,-9.345405578613281250e+01,-1.180768966674804688e+02,6.585875701904296875e+01,-2.980402946472167969e+01
7.035269737243652344e-01,1.000000000000000000e+00,2.395872175693511963e-01,-3.138249635696411133e+00,5.060747623443603516e+00,-2.004466552734375000e+02,-9.174234008789062500e+01,-1.716190032958984375e+02,5.500723266601562500e+01,-2.090467262268066406e+01,-9.345405578613281250e+01,-1.180768966674804688e+02,6.585875701904296875e+01,-2.980402946472167969e+01
7.073919773101806641e-01,1.000000000000000000e+00,1.741356551647186279e-01,-3.083145618438720703e+00,5.068819046020507812e+00,-2.003882904052734375e+02,-9.166807556152343750e+01,-1.715551757812500000e+02,5.500723266601562500e+01,-2.090467262268066406e+01,-9.345405578613281250e+01,-1.180768966674804688e+02,6.585875701904296875e+01,-2.980402946472167969e+01
7.114260196685791016e-01,1.000000000000000000e+00,1.089711934328079224e-01,-3.028177499771118164e+00,5.076768875122070312e+00,-2.003309783935546875e+02,-9.159433746337890625e+01,-1.714902801513671875e+02,5.500723266601562500e+01,-2.090467262268066406e+01,-9.345405578613281250e+01,-1.180768966674804688e+02,6.585875701904296875e+01,-2.980402946472167969e+01
7.154430150985717773e-01,1.000000000000000000e+00,4.380672425031661987e-02,-2.973164081573486328e+00,5.084556102752685547e+00,-2.002725067138671875e+02,-9.152081298828125000e+01,-1.714273376464843750e+02,5.500723266601562500e+01,-2.090458106994628906e+01,-9.345405578613281250e+01,-1.180768966674804688e+02,6.585875701904296875e+01,-2.980392074584960938e+01
7.193890213966369629e-01,1.000000000000000000e+00,-2.135774865746498108e-02,-2.918128252029418945e+00,5.092404365539550781e+00,-2.002149963378906250e+02,-9.144702911376953125e+01,-1.713634033203125000e+02,5.500723266601562500e+01,-2.090467262268066406e+01,-9.345405578613281250e+01,-1.180768966674804688e+02,6.585875701904296875e+01,-2.980392074584960938e+01
7.234249711036682129e-01,1.000000000000000000e+00,-8.634997904300689697e-02,-2.863182783126831055e+00,5.100475788116455078e+00,-2.001563262939453125e+02,-9.137291717529296875e+01,-1.712994995117187500e+02,5.500723266601562500e+01,-2.090467262268066406e+01,-9.345405578613281250e+01,-1.180768966674804688e+02,6.585875701904296875e+01,-2.980392074584960938e+01
7.274309992790222168e-01,1.000000000000000000e+00,-1.515718698501586914e-01,-2.808192014694213867e+00,5.108710289001464844e+00,-2.000984191894531250e+02,-9.129912567138671875e+01,-1.712365112304687500e+02,5.500723266601562500e+01,-2.090467262268066406e+01,-9.345405578613281250e+01,-1.180768966674804688e+02,6.585889434814453125e+01,-2.980392074584960938e+01
7.313939929008483887e-01,1.000000000000000000e+00,-2.166502177715301514e-01,-2.753178596496582031e+00,5.116985321044921875e+00,-2.000408477783203125e+02,-9.122571563720703125e+01,-1.711725616455078125e+02,5.500723266601562500e+01,-2.090458106994628906e+01,-9.345405578613281250e+01,-1.180768966674804688e+02,6.585875701904296875e+01,-2.980402946472167969e+01
7.354279756546020508e-01,1.000000000000000000e+00,-2.817859649658203125e-01,-2.698256015777587891e+00,5.125178813934326172e+00,-1.999826965332031250e+02,-9.115224456787109375e+01,-1.711082000732421875e+02,5.500723266601562500e+01,-2.090467262268066406e+01,-9.345405578613281250e+01,-1.180768966674804688e+02,6.585889434814453125e+01,-2.980424880981445312e+01
7.394880056381225586e-01,1.000000000000000000e+00,-3.466346561908721924e-01,-2.643355846405029297e+00,5.133332252502441406e+00,-1.999249725341796875e+02,-9.107850646972656250e+01,-1.710451202392578125e+02,5.500723266601562500e+01,-2.090467262268066406e+01,-9.345405578613281250e+01,-1.180768966674804688e+02,6.585875701904296875e+01,-2.980424880981445312e+01
7.434269785881042480e-01,1.000000000000000000e+00,-4.114833772182464600e-01,-2.588342428207397461e+00,5.141261577606201172e+00,-1.998663940429687500e+02,-9.100503540039062500e+01,-1.709804229736328125e+02,5.500723266601562500e+01,-2.090467262268066406e+01,-9.345405578613281250e+01,-1.180768966674804688e+02,6.585875701904296875e+01,-2.980424880981445312e+01
7.474719882011413574e-01,1.000000000000000000e+00,-4.763894677162170410e-01,-2.533261299133300781e+00,5.149150371551513672e+00,-1.998087158203125000e+02,-9.093092346191406250e+01,-1.709165496826171875e+02,5.500723266601562500e+01,-2.090467262268066406e+01,-9.345405578613281250e+01,-1.180768966674804688e+02,6.585875701904296875e+01,-2.980424880981445312e+01
7.514569759368896484e-01,1.000000000000000000e+00,-5.413529872894287109e-01,-2.478134632110595703e+00,5.157038688659667969e+00,-1.997513580322265625e+02,-9.085735321044921875e+01,-1.708537445068359375e+02,5.500723266601562500e+01,-2.090467262268066406e+01,-9.345405578613281250e+01,-1.180768966674804688e+02,6.585875701904296875e+01,-2.980424880981445312e+01
7.553899884223937988e-01,1.000000000000000000e+00,-6.064026355743408203e-01,-2.423189163208007812e+00,5.165212154388427734e+00,-1.996929473876953125e+02,-9.078366851806640625e+01,-1.707891845703125000e+02,5.500723266601562500e+01,-2.090467262268066406e+01,-9.345405578613281250e+01,-1.180768966674804688e+02,6.585875701904296875e+01,-2.980446624755859375e+01
7.594820261001586914e-01,1.000000000000000000e+00,-6.715384125709533691e-01,-2.368130445480346680e+00,5.173324584960937500e+00,-1.996355285644531250e+02,-9.071051788330078125e+01,-1.707250976562500000e+02,5.500734329223632812e+01,-2.090467262268066406e+01,-9.345405578613281250e+01,-1.180768966674804688e+02,6.585875701904296875e+01,-2.980424880981445312e+01
7.633900046348571777e-01,1.000000000000000000e+00,-7.366167306900024414e-01,-2.313185214996337891e+00,5.181375980377197266e+00,-1.995773773193359375e+02,-9.063672637939453125e+01,-1.706613464355468750e+02,5.500723266601562500e+01,-2.090467262268066406e+01,-9.345405578613281250e+01,-1.180768966674804688e+02,6.585875701904296875e+01,-2.980446624755859375e+01
7.673900127410888672e-01,1.000000000000000000e+00,-8.014654517173767090e-01,-2.258239746093750000e+00,5.189244270324707031e+00,-1.995196838378906250e+02,-9.056277465820312500e+01,-1.705970001220703125e+02,5.500723266601562500e+01,-2.090467262268066406e+01,-9.345405578613281250e+01,-1.180768966674804688e+02,6.585875701904296875e+01,-2.980424880981445312e+01
7.713829874992370605e-01,1.000000000000000000e+00,-8.664289712905883789e-01,-2.203090667724609375e+00,5.196929931640625000e+00,-1.994617614746093750e+02,-9.048893737792968750e+01,-1.705336456298828125e+02,5.500723266601562500e+01,-2.090467262268066406e+01,-9.345405578613281250e+01,-1.180768966674804688e+02,6.585875701904296875e+01,-2.980424880981445312e+01
7.754349708557128906e-01,1.000000000000000000e+00,-9.314785599708557129e-01,-2.148167848587036133e+00,5.204635620117187500e+00,-1.994032897949218750e+02,-9.041562652587890625e+01,-1.704705200195312500e+02,5.500723266601562500e+01,-2.090467262268066406e+01,-9.345405578613281250e+01,-1.180768966674804688e+02,6.585875701904296875e+01,-2.980424880981445312e+01
7.793899774551391602e-01,1.000000000000000000e+00,-9.963272809982299805e-01,-2.093177080154418945e+00,5.212707519531250000e+00,-1.993454589843750000e+02,-9.034226226806640625e+01,-1.704058837890625000e+02,5.500734329223632812e+01,-2.090458106994628906e+01,-9.345405578613281250e+01,-1.180768966674804688e+02,6.585875701904296875e+01,-2.980446624755859375e+01
7.833979725837707520e-01,1.000000000000000000e+00,-1.061175942420959473e+00,-2.038390159606933594e+00,5.221063613891601562e+00,-1.992873535156250000e+02,-9.026831054687500000e+01,-1.703424072265625000e+02,5.500723266601562500e+01,-2.090467262268066406e+01,-9.345405578613281250e+01,-1.180768966674804688e+02,6.585875701904296875e+01,-2.980424880981445312e+01
7.875419855117797852e-01,1.000000000000000000e+00,-1.126053333282470703e+00,-1.983580470085144043e+00,5.229196071624755859e+00,-1.992295684814453125e+02,-9.019436645507812500e+01,-1.702789306640625000e+02,5.500723266601562500e+01,-2.090467262268066406e+01,-9.345405578613281250e+01,-1.180768966674804688e+02,6.585860443115234375e+01,-2.980424880981445312e+01
7.914130091667175293e-01,1.000000000000000000e+00,-1.190787196159362793e+00,-1.928702831268310547e+00,5.237370014190673828e+00,-1.991713714599609375e+02,-9.012062835693359375e+01,-1.702147827148437500e+02,5.500723266601562500e+01,-2.090467262268066406e+01,-9.345405578613281250e+01,-1.180768966674804688e+02,6.585875701904296875e+01,-2.980424880981445312e+01
7.953919768333435059e-01,1.000000000000000000e+00,-1.255578517913818359e+00,-1.873712182044982910e+00,5.245461940765380859e+00,-1.991132659912109375e+02,-9.004715728759765625e+01,-1.701517028808593750e+02,5.500723266601562500e+01,-2.090467262268066406e+01,-9.345405578613281250e+01,-1.180768966674804688e+02,6.585875701904296875e+01,-2.980446624755859375e+01
7.994650006294250488e-01,1.000000000000000000e+00,-1.320628166198730469e+00,-1.818585753440856934e+00,5.253289699554443359e+00,-1.990557403564453125e+02,-8.997293853759765625e+01,-1.700880889892578125e+02,5.500723266601562500e+01,-2.090467262268066406e+01,-9.345405578613281250e+01,-1.180768966674804688e+02,6.585875701904296875e+01,-2.980446624755859375e+01
8.044570088386535645e-01,1.000000000000000000e+00,-1.385304689407348633e+00,-1.763685464859008789e+00,5.261035919189453125e+00,-1.989976501464843750e+02,-8.989936828613281250e+01,-1.700239410400390625e+02,5.500723266601562500e+01,-2.090467262268066406e+01,-9.345405578613281250e+01,-1.180768966674804688e+02,6.585875701904296875e+01,-2.980446624755859375e+01
8.074070215225219727e-01,1.000000000000000000e+00,-1.450067162513732910e+00,-1.708626866340637207e+00,5.269046783447265625e+00,-1.989401245117187500e+02,-8.982557678222656250e+01,-1.699606018066406250e+02,5.500723266601562500e+01,-2.090467262268066406e+01,-9.345405578613281250e+01,-1.180768966674804688e+02,6.585875701904296875e+01,-2.980424880981445312e+01
8.114879727363586426e-01,1.000000000000000000e+00,-1.514944672584533691e+00,-1.653500437736511230e+00,5.277342319488525391e+00,-1.988820190429687500e+02,-8.975210571289062500e+01,-1.698965911865234375e+02,5.500723266601562500e+01,-2.090467262268066406e+01,-9.345405578613281250e+01,-1.180768966674804688e+02,6.585875701904296875e+01,-2.980446624755859375e+01
8.178600072860717773e-01,1.000000000000000000e+00,-1.579965591430664062e+00,-1.598464369773864746e+00,5.285657405853271484e+00,-1.988234558105468750e+02,-8.967736053466796875e+01,-1.698321533203125000e+02,5.500734329223632812e+01,-2.090467262268066406e+01,-9.345405578613281250e+01,-1.180768966674804688e+02,6.585875701904296875e+01,-2.980446624755859375e+01
8.193820118904113770e-01,1.000000000000000000e+00,-1.644728183746337891e+00,-1.543541669845581055e+00,5.293749809265136719e+00,-1.987665100097656250e+02,-8.960382843017578125e+01,-1.697691497802734375e+02,5.500723266601562500e+01,-2.090467262268066406e+01,-9.345405578613281250e+01,-1.180768966674804688e+02,6.585875701904296875e+01,-2.980446624755859375e+01
8.244079947471618652e-01,1.000000000000000000e+00,-1.644728183746337891e+00,-1.543541669845581055e+00,5.293749809265136719e+00,-1.987665100097656250e+02,-8.960382843017578125e+01,-1.697691497802734375e+02,5.500723266601562500e+01,-2.090467262268066406e+01,-9.345405578613281250e+01,-1.180768966674804688e+02,6.585875701904296875e+01,-2.980446624755859375e+01
8.273869752883911133e-01,1.000000000000000000e+00,-1.774540424346923828e+00,-1.433560252189636230e+00,5.309263229370117188e+00,-1.986502075195312500e+02,-8.945678710937500000e+01,-1.696412506103515625e+02,5.500723266601562500e+01,-2.090467262268066406e+01,-9.345405578613281250e+01,-1.180768966674804688e+02,6.585875701904296875e+01,-2.980446624755859375e+01
8.314419984817504883e-01,1.000000000000000000e+00,-1.774540424346923828e+00,-1.433560252189636230e+00,5.309263229370117188e+00,-1.986502075195312500e+02,-8.945678710937500000e+01,-1.696412506103515625e+02,5.500723266601562500e+01,-2.090467262268066406e+01,-9.345405578613281250e+01,-1.180768966674804688e+02,6.585875701904296875e+01,-2.980446624755859375e+01
8.364580273628234863e-01,1.000000000000000000e+00,-1.904151797294616699e+00,-1.323578834533691406e+00,5.325284481048583984e+00,-1.985341644287109375e+02,-8.930809020996093750e+01,-1.695136871337890625e+02,5.500723266601562500e+01,-2.090467262268066406e+01,-9.345405578613281250e+01,-1.180768966674804688e+02,6.585875701904296875e+01,-2.980424880981445312e+01
8.397390246391296387e-01,1.000000000000000000e+00,-1.968799471855163574e+00,-1.268701195716857910e+00,5.333580017089843750e+00,-1.984768524169921875e+02,-8.923467254638671875e+01,-1.694497375488281250e+02,5.500723266601562500e+01,-2.090467262268066406e+01,-9.345405578613281250e+01,-1.180768966674804688e+02,6.585875701904296875e+01,-2.980424880981445312e+01
8.444619774818420410e-01,1.000000000000000000e+00,-1.968799471855163574e+00,-1.268701195716857910e+00,5.333580017089843750e+00,-1.984768524169921875e+02,-8.923467254638671875e+01,-1.694497375488281250e+02,5.500723266601562500e+01,-2.090467262268066406e+01,-9.345405578613281250e+01,-1.180768966674804688e+02,6.585875701904296875e+01,-2.980424880981445312e+01
8.474649786949157715e-01,1.000000000000000000e+00,-2.098410606384277344e+00,-1.159081935882568359e+00,5.350211620330810547e+00,-1.983600158691406250e+02,-8.908634948730468750e+01,-1.693233947753906250e+02,5.500723266601562500e+01,-2.090467262268066406e+01,-9.345405578613281250e+01,-1.180768966674804688e+02,6.585875701904296875e+01,-2.980424880981445312e+01
8.514509797096252441e-01,1.000000000000000000e+00,-2.098410606384277344e+00,-1.159081935882568359e+00,5.350211620330810547e+00,-1.983600158691406250e+02,-8.908634948730468750e+01,-1.693233947753906250e+02,5.500723266601562500e+01,-2.090467262268066406e+01,-9.345405578613281250e+01,-1.180768966674804688e+02,6.585875701904296875e+01,-2.980424880981445312e+01
8.554350137710571289e-01,1.000000000000000000e+00,-2.163345575332641602e+00,-1.103955388069152832e+00,5.358181476593017578e+00,-1.983025054931640625e+02,-8.901239776611328125e+01,-1.692593078613281250e+02,5.500723266601562500e+01,-2.090467262268066406e+01,-9.345405578613281250e+01,-1.180768966674804688e+02,6.585875701904296875e+01,-2.980446624755859375e+01
8.595150113105773926e-01,1.000000000000000000e+00,-2.228022098541259766e+00,-1.048964619636535645e+00,5.365948200225830078e+00,-1.982442474365234375e+02,-8.893914031982421875e+01,-1.691964416503906250e+02,5.500723266601562500e+01,-2.090467262268066406e+01,-9.345405578613281250e+01,-1.180768966674804688e+02,6.585875701904296875e+01,-2.980424880981445312e+01
8.634439706802368164e-01,1.000000000000000000e+00,-2.292870521545410156e+00,-9.938608407974243164e-01,5.373572349548339844e+00,-1.981864624023437500e+02,-8.886573028564453125e+01,-1.691322937011718750e+02,5.500723266601562500e+01,-2.090467262268066406e+01,-9.345405578613281250e+01,-1.180768966674804688e+02,6.585875701904296875e+01,-2.980402946472167969e+01
8.674470186233520508e-01,1.000000000000000000e+00,-2.357633113861083984e+00,-9.390512108802795410e-01,5.381562709808349609e+00,-1.981284637451171875e+02,-8.879097747802734375e+01,-1.690688018798828125e+02,5.500723266601562500e+01,-2.090467262268066406e+01,-9.345405578613281250e+01,-1.180768966674804688e+02,6.585875701904296875e+01,-2.980402946472167969e+01
8.715860247611999512e-01,1.000000000000000000e+00,-2.422539472579956055e+00,-8.840605020523071289e-01,5.389614582061767578e+00,-1.980708923339843750e+02,-8.871718597412109375e+01,-1.690060729980468750e+02,5.500723266601562500e+01,-2.090467262268066406e+01,-9.345405578613281250e+01,-1.180768966674804688e+02,6.585875701904296875e+01,-2.980392074584960938e+01
8.754339814186096191e-01,1.000000000000000000e+00,-2.487387895584106445e+00,-8.291376829147338867e-01,5.397767543792724609e+00,-1.980131225585937500e+02,-8.864382171630859375e+01,-1.689423217773437500e+02,5.500723266601562500e+01,-2.090467262268066406e+01,-9.345405578613281250e+01,-1.180768966674804688e+02,6.585875701904296875e+01,-2.980402946472167969e+01
8.794760107994079590e-01,1.000000000000000000e+00,-2.552265405654907227e+00,-7.741469740867614746e-01,5.405798435211181641e+00,-1.979550170898437500e+02,-8.857051086425781250e+01,-1.688785858154296875e+02,5.500712203979492188e+01,-2.090467262268066406e+01,-9.345405578613281250e+01,-1.180768966674804688e+02,6.585875701904296875e+01,-2.980402946472167969e+01
8.834440112113952637e-01,1.000000000000000000e+00,-2.617114305496215820e+00,-7.191789150238037109e-01,5.413686752319335938e+00,-1.978974914550781250e+02,-8.849640655517578125e+01,-1.688154449462890625e+02,5.500734329223632812e+01,-2.090467262268066406e+01,-9.345405578613281250e+01,-1.180768966674804688e+02,6.585875701904296875e+01,-2.980402946472167969e+01
8.874449729919433594e-01,1.000000000000000000e+00,-2.681905508041381836e+00,-6.643692255020141602e-01,5.421331882476806641e+00,-1.978390808105468750e+02,-8.842261505126953125e+01,-1.687508850097656250e+02,5.500723266601562500e+01,-2.090467262268066406e+01,-9.345405578613281250e+01,-1.180768966674804688e+02,6.585875701904296875e+01,-2.980424880981445312e+01
8.914359807968139648e-01,1.000000000000000000e+00,-2.746869087219238281e+00,-6.095595359802246094e-01,5.429099082946777344e+00,-1.977815551757812500e+02,-8.834898376464843750e+01,-1.686871337890625000e+02,5.500712203979492188e+01,-2.090467262268066406e+01,-9.345405578613281250e+01,-1.180768966674804688e+02,6.585875701904296875e+01,-2.980402946472167969e+01
8.955140113830566406e-01,1.000000000000000000e+00,-2.811918735504150391e+00,-5.548177957534790039e-01,5.437333106994628906e+00,-1.977237243652343750e+02,-8.827561950683593750e+01,-1.686242675781250000e+02,5.500723266601562500e+01,-2.090467262268066406e+01,-9.345405578613281250e+01,-1.180768966674804688e+02,6.585875701904296875e+01,-2.980424880981445312e+01
8.994280099868774414e-01,1.000000000000000000e+00,-2.876796007156372070e+00,-5.000081062316894531e-01,5.445648670196533203e+00,-1.976657257080078125e+02,-8.820119476318359375e+01,-1.685601043701171875e+02,5.500723266601562500e+01,-2.090467262268066406e+01,-9.345405578613281250e+01,-1.180768966674804688e+02,6.585875701904296875e+01,-2.980402946472167969e+01
9.034469723701477051e-01,1.000000000000000000e+00,-2.941644668579101562e+00,-4.452437162399291992e-01,5.453964710235595703e+00,-1.976077270507812500e+02,-8.812793731689453125e+01,-1.684963073730468750e+02,5.500723266601562500e+01,-2.090467262268066406e+01,-9.345405578613281250e+01,-1.180768966674804688e+02,6.585875701904296875e+01,-2.980424880981445312e+01
9.074429869651794434e-01,1.000000000000000000e+00,-3.006694316864013672e+00,-3.905019164085388184e-01,5.462076663970947266e+00,-1.975494232177734375e+02,-8.805425262451171875e+01,-1.684327545166015625e+02,5.500723266601562500e+01,-2.090467262268066406e+01,-9.345405578613281250e+01,-1.180768966674804688e+02,6.585875701904296875e+01,-2.980424880981445312e+01
9.114450216293334961e-01,1.000000000000000000e+00,-3.071629285812377930e+00,-3.356017470359802246e-01,5.470128059387207031e+00,-1.974918518066406250e+02,-8.798100280761718750e+01,-1.683687438964843750e+02,5.500723266601562500e+01,-2.090467262268066406e+01,-9.345405578613281250e+01,-1.180768966674804688e+02,6.585875701904296875e+01,-2.980424880981445312e+01
9.155030250549316406e-01,1.000000000000000000e+00,-3.136391639709472656e+00,-2.807468175888061523e-01,5.477874755859375000e+00,-1.974341735839843750e+02,-8.790673065185546875e+01,-1.683052673339843750e+02,5.500723266601562500e+01,-2.090467262268066406e+01,-9.345405578613281250e+01,-1.180768966674804688e+02,6.585875701904296875e+01,-2.980424880981445312e+01
9.194350242614746094e-01,1.000000000000000000e+00,-3.201240301132202148e+00,-2.257561087608337402e-01,5.485621452331542969e+00,-1.973762207031250000e+02,-8.783351898193359375e+01,-1.682418518066406250e+02,5.500712203979492188e+01,-2.090467262268066406e+01,-9.345405578613281250e+01,-1.180768966674804688e+02,6.585875701904296875e+01,-2.980424880981445312e+01
9.234430193901062012e-01,1.000000000000000000e+00,-3.266289949417114258e+00,-1.707427799701690674e-01,5.493591308593750000e+00,-1.973184509277343750e+02,-8.775957489013671875e+01,-1.681772155761718750e+02,5.500723266601562500e+01,-2.090467262268066406e+01,-9.345405578613281250e+01,-1.180768966674804688e+02,6.585875701904296875e+01,-2.980424880981445312e+01
9.275029897689819336e-01,1.000000000000000000e+00,-3.331253528594970703e+00,-1.158425956964492798e-01,5.501805305480957031e+00,-1.972601928710937500e+02,-8.768647766113281250e+01,-1.681144256591796875e+02,5.500723266601562500e+01,-2.090467262268066406e+01,-9.345405578613281250e+01,-1.180768966674804688e+02,6.585875701904296875e+01,-2.980424880981445312e+01
9.323400259017944336e-01,1.000000000000000000e+00,-3.396044731140136719e+00,-6.096504256129264832e-02,5.509856700897216797e+00,-1.972028808593750000e+02,-8.761221313476562500e+01,-1.680505981445312500e+02,5.500723266601562500e+01,-2.090467262268066406e+01,-9.345405578613281250e+01,-1.180768966674804688e+02,6.585889434814453125e+01,-2.980424880981445312e+01
9.373959898948669434e-01,1.000000000000000000e+00,-3.461094379425048828e+00,-6.019594613462686539e-03,5.517867565155029297e+00,-1.971448822021484375e+02,-8.753911590576171875e+01,-1.679863128662109375e+02,5.500712203979492188e+01,-2.090467262268066406e+01,-9.345405578613281250e+01,-1.180768966674804688e+02,6.585875701904296875e+01,-2.980446624755859375e+01
9.399530291557312012e-01,1.000000000000000000e+00,-3.590992927551269531e+00,1.037581488490104675e-01,5.533401012420654297e+00,-1.970299530029296875e+02,-8.739169311523437500e+01,-1.678597717285156250e+02,5.500723266601562500e+01,-2.090476417541503906e+01,-9.345405578613281250e+01,-1.180768966674804688e+02,6.585875701904296875e+01,-2.980446624755859375e+01
9.436550140380859375e-01,1.000000000000000000e+00,-3.590992927551269531e+00,1.037581488490104675e-01,5.533401012420654297e+00,-1.970299530029296875e+02,-8.739169311523437500e+01,-1.678597717285156250e+02,5.500723266601562500e+01,-2.090476417541503906e+01,-9.345405578613281250e+01,-1.180768966674804688e+02,6.585875701904296875e+01,-2.980446624755859375e+01
9.475060105323791504e-01,1.000000000000000000e+00,-3.655956506729125977e+00,1.585451811552047729e-01,5.541126728057861328e+00,-1.969712829589843750e+02,-8.731763458251953125e+01,-1.677956237792968750e+02,5.500712203979492188e+01,-2.090467262268066406e+01,-9.345405578613281250e+01,-1.180768966674804688e+02,6.585875701904296875e+01,-2.980402946472167969e+01
9.514459967613220215e-01,1.000000000000000000e+00,-3.720804929733276367e+00,2.134680002927780151e-01,5.549218654632568359e+00,-1.969139556884765625e+02,-8.724443054199218750e+01,-1.677327575683593750e+02,5.500723266601562500e+01,-2.090467262268066406e+01,-9.345405578613281250e+01,-1.180768966674804688e+02,6.585875701904296875e+01,-2.980402946472167969e+01
9.555079936981201172e-01,1.000000000000000000e+00,-3.785711288452148438e+00,2.682550549507141113e-01,5.557453632354736328e+00,-1.968561248779296875e+02,-8.717133331298828125e+01,-1.676685943603515625e+02,5.500723266601562500e+01,-2.090467262268066406e+01,-9.345405578613281250e+01,-1.180768966674804688e+02,6.585875701904296875e+01,-2.980402946472167969e+01
9.597190022468566895e-01,1.000000000000000000e+00,-3.850473880767822266e+00,3.230194449424743652e-01,5.565769195556640625e+00,-1.967979736328125000e+02,-8.709764862060546875e+01,-1.676045074462890625e+02,5.500723266601562500e+01,-2.090467262268066406e+01,-9.345405578613281250e+01,-1.180768966674804688e+02,6.585875701904296875e+01,-2.980392074584960938e+01
9.634339809417724609e-01,1.000000000000000000e+00,-3.915265083312988281e+00,3.779422640800476074e-01,5.573983192443847656e+00,-1.967404022216796875e+02,-8.702343750000000000e+01,-1.675417175292968750e+02,5.500723266601562500e+01,-2.090467262268066406e+01,-9.345405578613281250e+01,-1.180768966674804688e+02,6.585875701904296875e+01,-2.980402946472167969e+01
9.676460027694702148e-01,1.000000000000000000e+00,-3.980199813842773438e+00,4.328424334526062012e-01,5.582014083862304688e+00,-1.966818847656250000e+02,-8.695039367675781250e+01,-1.674776153564453125e+02,5.500723266601562500e+01,-2.090467262268066406e+01,-9.345405578613281250e+01,-1.180768966674804688e+02,6.585875701904296875e+01,-2.980402946472167969e+01
9.715030193328857422e-01,1.000000000000000000e+00,-4.045134544372558594e+00,4.879463315010070801e-01,5.589801311492919922e+00,-1.966242980957031250e+02,-8.687725067138671875e+01,-1.674138793945312500e+02,5.500712203979492188e+01,-2.090467262268066406e+01,-9.345405578613281250e+01,-1.180768966674804688e+02,6.585875701904296875e+01,-2.980402946472167969e+01
9.754390120506286621e-01,1.000000000000000000e+00,-4.109954357147216797e+00,5.428690910339355469e-01,5.597568035125732422e+00,-1.965665740966796875e+02,-8.680339813232421875e+01,-1.673503265380859375e+02,5.500723266601562500e+01,-2.090458106994628906e+01,-9.345405578613281250e+01,-1.180770339965820312e+02,6.585875701904296875e+01,-2.980402946472167969e+01
9.801399707794189453e-01,1.000000000000000000e+00,-4.174659729003906250e+00,5.977919101715087891e-01,5.605537891387939453e+00,-1.965086822509765625e+02,-8.672940063476562500e+01,-1.672864379882812500e+02,5.500723266601562500e+01,-2.090467262268066406e+01,-9.345405578613281250e+01,-1.180768966674804688e+02,6.585875701904296875e+01,-2.980424880981445312e+01
9.839590191841125488e-01,1.000000000000000000e+00,-4.239393711090087891e+00,6.524884700775146484e-01,5.613670825958251953e+00,-1.964511718750000000e+02,-8.665576934814453125e+01,-1.672227020263671875e+02,5.500723266601562500e+01,-2.090467262268066406e+01,-9.345405578613281250e+01,-1.180768966674804688e+02,6.585875701904296875e+01,-2.980402946472167969e+01
9.884390234947204590e-01,1.000000000000000000e+00,-4.304156303405761719e+00,7.075017690658569336e-01,5.621905326843261719e+00,-1.963929138183593750e+02,-8.658208465576171875e+01,-1.671600341796875000e+02,5.500723266601562500e+01,-2.090467262268066406e+01,-9.345405578613281250e+01,-1.180768966674804688e+02,6.585875701904296875e+01,-2.980424880981445312e+01
9.916430115699768066e-01,1.000000000000000000e+00,-4.369004726409912109e+00,7.625151276588439941e-01,5.629976749420166016e+00,-1.963352355957031250e+02,-8.650834655761718750e+01,-1.670958862304687500e+02,5.500723266601562500e+01,-2.090467262268066406e+01,-9.345405578613281250e+01,-1.180770339965820312e+02,6.585875701904296875e+01,-2.980424880981445312e+01
9.955049753189086914e-01,1.000000000000000000e+00,-4.433911323547363281e+00,8.173474073410034180e-01,5.637865543365478516e+00,-1.962775573730468750e+02,-8.643466186523437500e+01,-1.670319366455078125e+02,5.500723266601562500e+01,-2.090467262268066406e+01,-9.345405578613281250e+01,-1.180768966674804688e+02,6.585875701904296875e+01,-2.980424880981445312e+01
9.994410276412963867e-01,1.000000000000000000e+00,-4.498673915863037109e+00,8.721570372581481934e-01,5.645551204681396484e+00,-1.962198791503906250e+02,-8.636141204833984375e+01,-1.669687957763671875e+02,5.500723266601562500e+01,-2.090467262268066406e+01,-9.345405578613281250e+01,-1.180768966674804688e+02,6.585875701904296875e+01,-2.980446624755859375e+01
1.004372954368591309e+00,1.000000000000000000e+00,-4.563436508178710938e+00,9.267630577087402344e-01,5.653338432312011719e+00,-1.961622009277343750e+02,-8.628756713867187500e+01,-1.669047698974609375e+02,5.500734329223632812e+01,-2.090467262268066406e+01,-9.345405578613281250e+01,-1.180770339965820312e+02,6.585875701904296875e+01,-2.980424880981445312e+01
1.008097052574157715e+00,1.000000000000000000e+00,-4.628256320953369141e+00,9.814369082450866699e-01,5.661430358886718750e+00,-1.961041564941406250e+02,-8.621382904052734375e+01,-1.668414306640625000e+02,5.500712203979492188e+01,-2.090467262268066406e+01,-9.345405578613281250e+01,-1.180768966674804688e+02,6.585875701904296875e+01,-2.980424880981445312e+01
1.011479020118713379e+00,1.000000000000000000e+00,-4.693076610565185547e+00,1.036246657371520996e+00,5.669725418090820312e+00,-1.960467376708984375e+02,-8.613955688476562500e+01,-1.667787628173828125e+02,5.500712203979492188e+01,-2.090458106994628906e+01,-9.345405578613281250e+01,-1.180768966674804688e+02,6.585875701904296875e+01,-2.980424880981445312e+01
1.015707015991210938e+00,1.000000000000000000e+00,-4.757465362548828125e+00,1.091033577919006348e+00,5.677959918975830078e+00,-1.959886932373046875e+02,-8.606657409667968750e+01,-1.667143402099609375e+02,5.500723266601562500e+01,-2.090467262268066406e+01,-9.345405578613281250e+01,-1.180768966674804688e+02,6.585875701904296875e+01,-2.980402946472167969e+01
1.019582986831665039e+00,1.000000000000000000e+00,-4.821969985961914062e+00,1.145979046821594238e+00,5.686173915863037109e+00,-1.959304809570312500e+02,-8.599299621582031250e+01,-1.666505889892578125e+02,5.500723266601562500e+01,-2.090467262268066406e+01,-9.345405578613281250e+01,-1.180768966674804688e+02,6.585875701904296875e+01,-2.980402946472167969e+01
1.023686051368713379e+00,1.000000000000000000e+00,-4.886646270751953125e+00,1.200811386108398438e+00,5.694143772125244141e+00,-1.958725433349609375e+02,-8.591920471191406250e+01,-1.665875244140625000e+02,5.500723266601562500e+01,-2.090467262268066406e+01,-9.345405578613281250e+01,-1.180768966674804688e+02,6.585875701904296875e+01,-2.980402946472167969e+01
1.028355002403259277e+00,1.000000000000000000e+00,-4.951236724853515625e+00,1.255711674690246582e+00,5.701829433441162109e+00,-1.958146057128906250e+02,-8.584477233886718750e+01,-1.665229644775390625e+02,5.500723266601562500e+01,-2.090467262268066406e+01,-9.345405578613281250e+01,-1.180768966674804688e+02,6.585875701904296875e+01,-2.980392074584960938e+01
1.032341957092285156e+00,1.000000000000000000e+00,-5.015913009643554688e+00,1.310566544532775879e+00,5.709576129913330078e+00,-1.957570343017578125e+02,-8.577205657958984375e+01,-1.664595489501953125e+02,5.500723266601562500e+01,-2.090467262268066406e+01,-9.345405578613281250e+01,-1.180768966674804688e+02,6.585875701904296875e+01,-2.980402946472167969e+01
1.035519957542419434e+00,1.000000000000000000e+00,-5.080474853515625000e+00,1.365444064140319824e+00,5.717505455017089844e+00,-1.956987762451171875e+02,-8.569837188720703125e+01,-1.663964843750000000e+02,5.500723266601562500e+01,-2.090467262268066406e+01,-9.345405578613281250e+01,-1.180768966674804688e+02,6.585860443115234375e+01,-2.980424880981445312e+01
1.039857983589172363e+00,1.000000000000000000e+00,-5.144950389862060547e+00,1.420185923576354980e+00,5.725576877593994141e+00,-1.956415252685546875e+02,-8.562464141845703125e+01,-1.663318634033203125e+02,5.500723266601562500e+01,-2.090467262268066406e+01,-9.345405578613281250e+01,-1.180768966674804688e+02,6.585875701904296875e+01,-2.980446624755859375e+01
1.044448018074035645e+00,1.000000000000000000e+00,-5.209741592407226562e+00,1.475063443183898926e+00,5.733668804168701172e+00,-1.955836334228515625e+02,-8.555031585693359375e+01,-1.662686462402343750e+02,5.500712203979492188e+01,-2.090467262268066406e+01,-9.345405578613281250e+01,-1.180768966674804688e+02,6.585875701904296875e+01,-2.980402946472167969e+01
1.047595024108886719e+00,1.000000000000000000e+00,-5.274188518524169922e+00,1.529940962791442871e+00,5.741741180419921875e+00,-1.955255889892578125e+02,-8.547705841064453125e+01,-1.662050323486328125e+02,5.500723266601562500e+01,-2.090467262268066406e+01,-9.345405578613281250e+01,-1.180768966674804688e+02,6.585875701904296875e+01,-2.980402946472167969e+01
1.052706003189086914e+00,1.000000000000000000e+00,-5.338836193084716797e+00,1.584728002548217773e+00,5.749568462371826172e+00,-1.954680023193359375e+02,-8.540406799316406250e+01,-1.661406860351562500e+02,5.500723266601562500e+01,-2.090467262268066406e+01,-9.345405578613281250e+01,-1.180768966674804688e+02,6.585875701904296875e+01,-2.980392074584960938e+01
1.056494951248168945e+00,1.000000000000000000e+00,-5.403627395629882812e+00,1.639469742774963379e+00,5.757274150848388672e+00,-1.954101104736328125e+02,-8.533011627197265625e+01,-1.660778198242187500e+02,5.500723266601562500e+01,-2.090467262268066406e+01,-9.345405578613281250e+01,-1.180768966674804688e+02,6.585875701904296875e+01,-2.980392074584960938e+01
1.059751033782958984e+00,1.000000000000000000e+00,-5.468361377716064453e+00,1.694279432296752930e+00,5.765122413635253906e+00,-1.953523254394531250e+02,-8.525605773925781250e+01,-1.660144042968750000e+02,5.500723266601562500e+01,-2.090458106994628906e+01,-9.345405578613281250e+01,-1.180768966674804688e+02,6.585875701904296875e+01,-2.980392074584960938e+01
1.063917040824890137e+00,1.000000000000000000e+00,-5.533066272735595703e+00,1.748953342437744141e+00,5.773234367370605469e+00,-1.952950286865234375e+02,-8.518258666992187500e+01,-1.659501190185546875e+02,5.500723266601562500e+01,-2.090467262268066406e+01,-9.345405578613281250e+01,-1.180768966674804688e+02,6.585875701904296875e+01,-2.980392074584960938e+01
1.068467974662780762e+00,1.000000000000000000e+00,-5.597685337066650391e+00,1.803649783134460449e+00,5.781530380249023438e+00,-1.952365112304687500e+02,-8.510965728759765625e+01,-1.658870391845703125e+02,5.500734329223632812e+01,-2.090467262268066406e+01,-9.345405578613281250e+01,-1.180768966674804688e+02,6.585875701904296875e+01,-2.980402946472167969e+01
1.072049021720886230e+00,1.000000000000000000e+00,-5.662275791168212891e+00,1.858504772186279297e+00,5.789825439453125000e+00,-1.951794586181640625e+02,-8.503591918945312500e+01,-1.658235015869140625e+02,5.500723266601562500e+01,-2.090467262268066406e+01,-9.345405578613281250e+01,-1.180768966674804688e+02,6.585875701904296875e+01,-2.980424880981445312e+01
1.075991034507751465e+00,1.000000000000000000e+00,-5.726923465728759766e+00,1.913382291793823242e+00,5.797957897186279297e+00,-1.951214141845703125e+02,-8.496170043945312500e+01,-1.657592163085937500e+02,5.500712203979492188e+01,-2.090467262268066406e+01,-9.345405578613281250e+01,-1.180768966674804688e+02,6.585875701904296875e+01,-2.980402946472167969e+01
1.080765962600708008e+00,1.000000000000000000e+00,-5.791600227355957031e+00,1.968327760696411133e+00,5.805969238281250000e+00,-1.950633239746093750e+02,-8.488812255859375000e+01,-1.656966247558593750e+02,5.500723266601562500e+01,-2.090467262268066406e+01,-9.345405578613281250e+01,-1.180768966674804688e+02,6.585875701904296875e+01,-2.980402946472167969e+01
1.083971023559570312e+00,1.000000000000000000e+00,-5.856477260589599609e+00,2.023069620132446289e+00,5.813755989074707031e+00,-1.950055847167968750e+02,-8.481518554687500000e+01,-1.656331481933593750e+02,5.500723266601562500e+01,-2.090476417541503906e+01,-9.345405578613281250e+01,-1.180768966674804688e+02,6.585875701904296875e+01,-2.980402946472167969e+01
1.087877988815307617e+00,1.000000000000000000e+00,-5.921440601348876953e+00,2.077947139739990234e+00,5.821543216705322266e+00,-1.949468994140625000e+02,-8.474124145507812500e+01,-1.655693206787109375e+02,5.500723266601562500e+01,-2.090467262268066406e+01,-9.345405578613281250e+01,-1.180768966674804688e+02,6.585875701904296875e+01,-2.980402946472167969e+01
1.092059016227722168e+00,1.000000000000000000e+00,-5.986203193664550781e+00,2.132575750350952148e+00,5.829492568969726562e+00,-1.948900146484375000e+02,-8.466761016845703125e+01,-1.655061798095703125e+02,5.500723266601562500e+01,-2.090467262268066406e+01,-9.345405578613281250e+01,-1.180768966674804688e+02,6.585875701904296875e+01,-2.980424880981445312e+01
1.096053957939147949e+00,1.000000000000000000e+00,-6.050994873046875000e+00,2.187498569488525391e+00,5.837666511535644531e+00,-1.948320159912109375e+02,-8.459387207031250000e+01,-1.654419708251953125e+02,5.500723266601562500e+01,-2.090467262268066406e+01,-9.345405578613281250e+01,-1.180768966674804688e+02,6.585875701904296875e+01,-2.980424880981445312e+01
1.100172996520996094e+00,1.000000000000000000e+00,-6.115872383117675781e+00,2.242466688156127930e+00,5.845676898956298828e+00,-1.947741851806640625e+02,-8.452104187011718750e+01,-1.653780670166015625e+02,5.500734329223632812e+01,-2.090467262268066406e+01,-9.345405578613281250e+01,-1.180768966674804688e+02,6.585875701904296875e+01,-2.980402946472167969e+01
1.104884028434753418e+00,1.000000000000000000e+00,-6.180605888366699219e+00,2.297140598297119141e+00,5.853687763214111328e+00,-1.947163391113281250e+02,-8.444693756103515625e+01,-1.653154144287109375e+02,5.500723266601562500e+01,-2.090467262268066406e+01,-9.345405578613281250e+01,-1.180768966674804688e+02,6.585875701904296875e+01,-2.980402946472167969e+01
1.108152985572814941e+00,1.000000000000000000e+00,-6.245512008666992188e+00,2.351882457733154297e+00,5.861474514007568359e+00,-1.946581878662109375e+02,-8.437325286865234375e+01,-1.652515411376953125e+02,5.500723266601562500e+01,-2.090467262268066406e+01,-9.345405578613281250e+01,-1.180768966674804688e+02,6.585875701904296875e+01,-2.980402946472167969e+01
