rpiRobotics/ARM-21-02-F-19-Robot-Motion-Program/data_performance_abb/curve_2/curve_pose_opt2/greedy0.02/grad_result/real_from_sim/run_2.csv
timestamp,cmd_num,J1,J2,J3,J4,J5,J6
1.510000001871958375e-04,-1.000000000000000000e+00,9.512635231018066406e+00,-1.098589801788330078e+01,3.916270494461059570e+00,-2.087272186279296875e+02,-1.022812423706054688e+02,-1.807227172851562500e+02,5.500701522827148438e+01,-2.090467262268066406e+01,-9.345405578613281250e+01,-1.180768966674804688e+02,6.585875701904296875e+01,-2.980402946472167969e+01
4.000000189989805222e-03,1.000000000000000000e+00,9.512692451477050781e+00,-1.098594379425048828e+01,3.916331529617309570e+00,-2.087272186279296875e+02,-1.022812423706054688e+02,-1.807227172851562500e+02,5.500712203979492188e+01,-2.090467262268066406e+01,-9.345405578613281250e+01,-1.180768966674804688e+02,6.585875701904296875e+01,-2.980424880981445312e+01
9.502000175416469574e-03,1.000000000000000000e+00,9.512635231018066406e+00,-1.098589801788330078e+01,3.916270494461059570e+00,-2.087273254394531250e+02,-1.022810897827148438e+02,-1.807227172851562500e+02,5.500712203979492188e+01,-2.090467262268066406e+01,-9.345405578613281250e+01,-1.180768966674804688e+02,6.585875701904296875e+01,-2.980424880981445312e+01
1.328499987721443176e-02,1.000000000000000000e+00,9.512578010559082031e+00,-1.098589801788330078e+01,3.916209459304809570e+00,-2.087272186279296875e+02,-1.022812423706054688e+02,-1.807227172851562500e+02,5.500712203979492188e+01,-2.090467262268066406e+01,-9.345405578613281250e+01,-1.180768966674804688e+02,6.585875701904296875e+01,-2.980424880981445312e+01
3.797800093889236450e-02,1.000000000000000000e+00,9.512635231018066406e+00,-1.098589801788330078e+01,3.916331529617309570e+00,-2.087273254394531250e+02,-1.022813568115234375e+02,-1.807227172851562500e+02,5.500723266601562500e+01,-2.090467262268066406e+01,-9.345405578613281250e+01,-1.180768966674804688e+02,6.585889434814453125e+01,-2.980424880981445312e+01
4.043899849057197571e-02,1.000000000000000000e+00,9.512635231018066406e+00,-1.098589801788330078e+01,3.916270494461059570e+00,-2.087272186279296875e+02,-1.022812423706054688e+02,-1.807227172851562500e+02,5.500701522827148438e+01,-2.090467262268066406e+01,-9.345405578613281250e+01,-1.180768966674804688e+02,6.585875701904296875e+01,-2.980424880981445312e+01
4.168799892067909241e-02,1.000000000000000000e+00,9.512635231018066406e+00,-1.098589801788330078e+01,3.916270494461059570e+00,-2.087272186279296875e+02,-1.022812423706054688e+02,-1.807227172851562500e+02,5.500701522827148438e+01,-2.090467262268066406e+01,-9.345405578613281250e+01,-1.180768966674804688e+02,6.585875701904296875e+01,-2.980424880981445312e+01
4.502899944782257080e-02,1.000000000000000000e+00,9.512635231018066406e+00,-1.098589801788330078e+01,3.916270494461059570e+00,-2.087272186279296875e+02,-1.022813568115234375e+02,-1.807225799560546875e+02,5.500712203979492188e+01,-2.090467262268066406e+01,-9.345405578613281250e+01,-1.180768966674804688e+02,6.585875701904296875e+01,-2.980424880981445312e+01
4.777900129556655884e-02,1.000000000000000000e+00,9.512635231018066406e+00,-1.098589801788330078e+01,3.916270494461059570e+00,-2.087272186279296875e+02,-1.022813568115234375e+02,-1.807225799560546875e+02,5.500712203979492188e+01,-2.090467262268066406e+01,-9.345405578613281250e+01,-1.180768966674804688e+02,6.585875701904296875e+01,-2.980424880981445312e+01
4.924400150775909424e-02,1.000000000000000000e+00,9.512578010559082031e+00,-1.098585319519042969e+01,3.916270494461059570e+00,-2.087273254394531250e+02,-1.022810897827148438e+02,-1.807229309082031250e+02,5.500712203979492188e+01,-2.090467262268066406e+01,-9.345405578613281250e+01,-1.180768966674804688e+02,6.585875701904296875e+01,-2.980446624755859375e+01
5.248399823904037476e-02,1.000000000000000000e+00,9.512578010559082031e+00,-1.098585319519042969e+01,3.916270494461059570e+00,-2.087273254394531250e+02,-1.022810897827148438e+02,-1.807229309082031250e+02,5.500712203979492188e+01,-2.090467262268066406e+01,-9.345405578613281250e+01,-1.180768966674804688e+02,6.585875701904296875e+01,-2.980446624755859375e+01
5.380599945783615112e-02,1.000000000000000000e+00,9.512548446655273438e+00,-1.098580741882324219e+01,3.916270494461059570e+00,-2.087272186279296875e+02,-1.022812423706054688e+02,-1.807227172851562500e+02,5.500712203979492188e+01,-2.090467262268066406e+01,-9.345405578613281250e+01,-1.180768966674804688e+02,6.585875701904296875e+01,-2.980446624755859375e+01
6.076100096106529236e-02,1.000000000000000000e+00,9.511142730712890625e+00,-1.098517417907714844e+01,3.916270494461059570e+00,-2.087272186279296875e+02,-1.022810897827148438e+02,-1.807225799560546875e+02,5.500723266601562500e+01,-2.090467262268066406e+01,-9.345405578613281250e+01,-1.180768966674804688e+02,6.585875701904296875e+01,-2.980424880981445312e+01
6.404999643564224243e-02,1.000000000000000000e+00,9.509362220764160156e+00,-1.098402023315429688e+01,3.916331529617309570e+00,-2.087272186279296875e+02,-1.022810897827148438e+02,-1.807227172851562500e+02,5.500712203979492188e+01,-2.090467262268066406e+01,-9.345405578613281250e+01,-1.180768966674804688e+02,6.585875701904296875e+01,-2.980424880981445312e+01
6.534700095653533936e-02,1.000000000000000000e+00,9.509362220764160156e+00,-1.098402023315429688e+01,3.916331529617309570e+00,-2.087272186279296875e+02,-1.022810897827148438e+02,-1.807227172851562500e+02,5.500712203979492188e+01,-2.090467262268066406e+01,-9.345405578613281250e+01,-1.180768966674804688e+02,6.585875701904296875e+01,-2.980424880981445312e+01
6.812600046396255493e-02,1.000000000000000000e+00,9.509362220764160156e+00,-1.098402023315429688e+01,3.916331529617309570e+00,-2.087272186279296875e+02,-1.022810897827148438e+02,-1.807227172851562500e+02,5.500712203979492188e+01,-2.090467262268066406e+01,-9.345405578613281250e+01,-1.180768966674804688e+02,6.585875701904296875e+01,-2.980424880981445312e+01
7.255499809980392456e-02,1.000000000000000000e+00,9.506663322448730469e+00,-1.098223209381103516e+01,3.916372060775756836e+00,-2.087272186279296875e+02,-1.022808685302734375e+02,-1.807225799560546875e+02,5.500712203979492188e+01,-2.090467262268066406e+01,-9.345405578613281250e+01,-1.180768966674804688e+02,6.585875701904296875e+01,-2.980424880981445312e+01
7.391399890184402466e-02,1.000000000000000000e+00,9.503104209899902344e+00,-1.097944927215576172e+01,3.916473627090454102e+00,-2.087272186279296875e+02,-1.022802886962890625e+02,-1.807225799560546875e+02,5.500701522827148438e+01,-2.090467262268066406e+01,-9.345405578613281250e+01,-1.180768966674804688e+02,6.585875701904296875e+01,-2.980402946472167969e+01
7.634299993515014648e-02,1.000000000000000000e+00,9.498511314392089844e+00,-1.097551155090332031e+01,3.916738271713256836e+00,-2.087266387939453125e+02,-1.022791671752929688e+02,-1.807222442626953125e+02,5.500712203979492188e+01,-2.090467262268066406e+01,-9.345405578613281250e+01,-1.180768966674804688e+02,6.585875701904296875e+01,-2.980402946472167969e+01
7.759699970483779907e-02,1.000000000000000000e+00,9.498511314392089844e+00,-1.097551155090332031e+01,3.916738271713256836e+00,-2.087266387939453125e+02,-1.022791671752929688e+02,-1.807222442626953125e+02,5.500712203979492188e+01,-2.090467262268066406e+01,-9.345405578613281250e+01,-1.180768966674804688e+02,6.585875701904296875e+01,-2.980402946472167969e+01
8.067800104618072510e-02,1.000000000000000000e+00,9.492684364318847656e+00,-1.097023868560791016e+01,3.917144775390625000e+00,-2.087252197265625000e+02,-1.022769241333007812e+02,-1.807215728759765625e+02,5.500712203979492188e+01,-2.090467262268066406e+01,-9.345405578613281250e+01,-1.180768966674804688e+02,6.585875701904296875e+01,-2.980424880981445312e+01
8.203499764204025269e-02,1.000000000000000000e+00,9.492684364318847656e+00,-1.097023868560791016e+01,3.917144775390625000e+00,-2.087252197265625000e+02,-1.022769241333007812e+02,-1.807215728759765625e+02,5.500712203979492188e+01,-2.090467262268066406e+01,-9.345405578613281250e+01,-1.180768966674804688e+02,6.585875701904296875e+01,-2.980424880981445312e+01
8.455999940633773804e-02,1.000000000000000000e+00,9.485391616821289062e+00,-1.096310997009277344e+01,3.917653083801269531e+00,-2.087224273681640625e+02,-1.022737808227539062e+02,-1.807195434570312500e+02,5.500712203979492188e+01,-2.090467262268066406e+01,-9.345405578613281250e+01,-1.180768966674804688e+02,6.585875701904296875e+01,-2.980424880981445312e+01
8.818099647760391235e-02,1.000000000000000000e+00,9.485391616821289062e+00,-1.096310997009277344e+01,3.917653083801269531e+00,-2.087224273681640625e+02,-1.022737808227539062e+02,-1.807195434570312500e+02,5.500712203979492188e+01,-2.090467262268066406e+01,-9.345405578613281250e+01,-1.180768966674804688e+02,6.585875701904296875e+01,-2.980424880981445312e+01
9.221900254487991333e-02,1.000000000000000000e+00,9.476349830627441406e+00,-1.095387649536132812e+01,3.918263196945190430e+00,-2.087187347412109375e+02,-1.022692489624023438e+02,-1.807158050537109375e+02,5.500712203979492188e+01,-2.090467262268066406e+01,-9.345405578613281250e+01,-1.180768966674804688e+02,6.585875701904296875e+01,-2.980424880981445312e+01
9.678599983453750610e-02,1.000000000000000000e+00,9.465039253234863281e+00,-1.094229030609130859e+01,3.919279575347900391e+00,-2.087136840820312500e+02,-1.022627410888671875e+02,-1.807102508544921875e+02,5.500712203979492188e+01,-2.090467262268066406e+01,-9.345405578613281250e+01,-1.180768966674804688e+02,6.585875701904296875e+01,-2.980424880981445312e+01
1.003919988870620728e-01,1.000000000000000000e+00,9.451116561889648438e+00,-1.092801094055175781e+01,3.920662164688110352e+00,-2.087068786621093750e+02,-1.022537841796875000e+02,-1.807029266357421875e+02,5.500712203979492188e+01,-2.090467262268066406e+01,-9.345405578613281250e+01,-1.180768966674804688e+02,6.585875701904296875e+01,-2.980424880981445312e+01
1.042900010943412781e-01,1.000000000000000000e+00,9.434207916259765625e+00,-1.091099357604980469e+01,3.922390222549438477e+00,-2.086974639892578125e+02,-1.022419509887695312e+02,-1.806926879882812500e+02,5.500723266601562500e+01,-2.090467262268066406e+01,-9.345405578613281250e+01,-1.180768966674804688e+02,6.585875701904296875e+01,-2.980424880981445312e+01
1.082020029425621033e-01,1.000000000000000000e+00,9.414515495300292969e+00,-1.089180278778076172e+01,3.924423456192016602e+00,-2.086854553222656250e+02,-1.022272338867187500e+02,-1.806797332763671875e+02,5.500712203979492188e+01,-2.090467262268066406e+01,-9.345405578613281250e+01,-1.180768966674804688e+02,6.585875701904296875e+01,-2.980424880981445312e+01
1.120389997959136963e-01,1.000000000000000000e+00,9.392669677734375000e+00,-1.087089347839355469e+01,3.926802158355712891e+00,-2.086706542968750000e+02,-1.022091140747070312e+02,-1.806637878417968750e+02,5.500712203979492188e+01,-2.090467262268066406e+01,-9.345405578613281250e+01,-1.180768966674804688e+02,6.585875701904296875e+01,-2.980424880981445312e+01
1.162939965724945068e-01,1.000000000000000000e+00,9.368641853332519531e+00,-1.084876060485839844e+01,3.929730176925659180e+00,-2.086531524658203125e+02,-1.021876754760742188e+02,-1.806446685791015625e+02,5.500712203979492188e+01,-2.090467262268066406e+01,-9.345405578613281250e+01,-1.180768966674804688e+02,6.585875701904296875e+01,-2.980424880981445312e+01
1.189789995551109314e-01,1.000000000000000000e+00,9.341599464416503906e+00,-1.082545185089111328e+01,3.932942390441894531e+00,-2.086323547363281250e+02,-1.021619186401367188e+02,-1.806216735839843750e+02,5.500723266601562500e+01,-2.090467262268066406e+01,-9.345405578613281250e+01,-1.180768966674804688e+02,6.585875701904296875e+01,-2.980424880981445312e+01
1.229880005121231079e-01,1.000000000000000000e+00,9.311944961547851562e+00,-1.080037879943847656e+01,3.936439514160156250e+00,-2.086083374023437500e+02,-1.021312103271484375e+02,-1.805950927734375000e+02,5.500712203979492188e+01,-2.090467262268066406e+01,-9.345405578613281250e+01,-1.180768966674804688e+02,6.585875701904296875e+01,-2.980402946472167969e+01
1.285630017518997192e-01,1.000000000000000000e+00,9.279478073120117188e+00,-1.077340316772460938e+01,3.940200805664062500e+00,-2.085805816650390625e+02,-1.020942153930664062e+02,-1.805644378662109375e+02,5.500712203979492188e+01,-2.090476417541503906e+01,-9.345405578613281250e+01,-1.180768966674804688e+02,6.585875701904296875e+01,-2.980424880981445312e+01
1.323309987783432007e-01,1.000000000000000000e+00,9.244168281555175781e+00,-1.074454975128173828e+01,3.944328308105468750e+00,-2.085480804443359375e+02,-1.020532684326171875e+02,-1.805297088623046875e+02,5.500723266601562500e+01,-2.090467262268066406e+01,-9.345405578613281250e+01,-1.180768966674804688e+02,6.585875701904296875e+01,-2.980402946472167969e+01
1.349799931049346924e-01,1.000000000000000000e+00,9.206190109252929688e+00,-1.071375083923339844e+01,3.948801279067993164e+00,-2.085109863281250000e+02,-1.020093917846679688e+02,-1.804901885986328125e+02,5.500712203979492188e+01,-2.090467262268066406e+01,-9.345405578613281250e+01,-1.180768966674804688e+02,6.585875701904296875e+01,-2.980402946472167969e+01
1.390420049428939819e-01,1.000000000000000000e+00,9.165454864501953125e+00,-1.068154811859130859e+01,3.953721523284912109e+00,-2.084716033935546875e+02,-1.019607543945312500e+02,-1.804456939697265625e+02,5.500701522827148438e+01,-2.090467262268066406e+01,-9.345394897460937500e+01,-1.180768966674804688e+02,6.585875701904296875e+01,-2.980424880981445312e+01
1.429920047521591187e-01,1.000000000000000000e+00,9.122394561767578125e+00,-1.064758110046386719e+01,3.959170341491699219e+00,-2.084303588867187500e+02,-1.019059524536132812e+02,-1.803987731933593750e+02,5.500723266601562500e+01,-2.090467262268066406e+01,-9.345405578613281250e+01,-1.180768966674804688e+02,6.585875701904296875e+01,-2.980424880981445312e+01
1.469790041446685791e-01,1.000000000000000000e+00,9.077152252197265625e+00,-1.061193847656250000e+01,3.964802265167236328e+00,-2.083856353759765625e+02,-1.018484725952148438e+02,-1.803501434326171875e+02,5.500723266601562500e+01,-2.090467262268066406e+01,-9.345405578613281250e+01,-1.180768966674804688e+02,6.585875701904296875e+01,-2.980402946472167969e+01
1.510239988565444946e-01,1.000000000000000000e+00,9.029844284057617188e+00,-1.057446384429931641e+01,3.970719099044799805e+00,-2.083359680175781250e+02,-1.017885513305664062e+02,-1.802976531982421875e+02,5.500712203979492188e+01,-2.090467262268066406e+01,-9.345405578613281250e+01,-1.180768966674804688e+02,6.585875701904296875e+01,-2.980424880981445312e+01
1.550399959087371826e-01,1.000000000000000000e+00,8.980296134948730469e+00,-1.053515529632568359e+01,3.977021932601928711e+00,-2.082851867675781250e+02,-1.017247848510742188e+02,-1.802400817871093750e+02,5.500701522827148438e+01,-2.090458106994628906e+01,-9.345405578613281250e+01,-1.180768966674804688e+02,6.585875701904296875e+01,-2.980402946472167969e+01
1.604910045862197876e-01,1.000000000000000000e+00,8.928278923034667969e+00,-1.049347114562988281e+01,3.983833074569702148e+00,-2.082330932617187500e+02,-1.016586151123046875e+02,-1.801823577880859375e+02,5.500723266601562500e+01,-2.090467262268066406e+01,-9.345405578613281250e+01,-1.180768966674804688e+02,6.585875701904296875e+01,-2.980424880981445312e+01
1.647569984197616577e-01,1.000000000000000000e+00,8.873678207397460938e+00,-1.044904899597167969e+01,3.990989685058593750e+00,-2.081789855957031250e+02,-1.015894699096679688e+02,-1.801243133544921875e+02,5.500723266601562500e+01,-2.090467262268066406e+01,-9.345405578613281250e+01,-1.180768966674804688e+02,6.585875701904296875e+01,-2.980424880981445312e+01
1.686670035123825073e-01,1.000000000000000000e+00,8.817241668701171875e+00,-1.040211486816406250e+01,3.998492240905761719e+00,-2.081239471435546875e+02,-1.015203094482421875e+02,-1.800630798339843750e+02,5.500712203979492188e+01,-2.090467262268066406e+01,-9.345405578613281250e+01,-1.180768966674804688e+02,6.585875701904296875e+01,-2.980424880981445312e+01
1.733520030975341797e-01,1.000000000000000000e+00,8.759166717529296875e+00,-1.035325622558593750e+01,4.005974292755126953e+00,-2.080671691894531250e+02,-1.014489822387695312e+02,-1.800002136230468750e+02,5.500712203979492188e+01,-2.090467262268066406e+01,-9.345405578613281250e+01,-1.180768966674804688e+02,6.585875701904296875e+01,-2.980424880981445312e+01
1.749739944934844971e-01,1.000000000000000000e+00,8.699398994445800781e+00,-1.030261039733886719e+01,4.013537883758544922e+00,-2.080094757080078125e+02,-1.013765258789062500e+02,-1.799378814697265625e+02,5.500723266601562500e+01,-2.090467262268066406e+01,-9.345405578613281250e+01,-1.180768966674804688e+02,6.585875701904296875e+01,-2.980424880981445312e+01
1.790529936552047729e-01,1.000000000000000000e+00,8.638426780700683594e+00,-1.025090122222900391e+01,4.021203041076660156e+00,-2.079518585205078125e+02,-1.013029937744140625e+02,-1.798734588623046875e+02,5.500723266601562500e+01,-2.090467262268066406e+01,-9.345405578613281250e+01,-1.180768966674804688e+02,6.585875701904296875e+01,-2.980424880981445312e+01
1.830389946699142456e-01,1.000000000000000000e+00,8.576534271240234375e+00,-1.019824218750000000e+01,4.028827190399169922e+00,-2.078940734863281250e+02,-1.012300109863281250e+02,-1.798098449707031250e+02,5.500712203979492188e+01,-2.090467262268066406e+01,-9.345405578613281250e+01,-1.180768966674804688e+02,6.585875701904296875e+01,-2.980424880981445312e+01
1.870300024747848511e-01,1.000000000000000000e+00,8.513781547546386719e+00,-1.014494800567626953e+01,4.036593914031982422e+00,-2.078360900878906250e+02,-1.011568069458007812e+02,-1.797466278076171875e+02,5.500712203979492188e+01,-2.090467262268066406e+01,-9.345405578613281250e+01,-1.180768966674804688e+02,6.585875701904296875e+01,-2.980424880981445312e+01
1.911370009183883667e-01,1.000000000000000000e+00,8.449995040893554688e+00,-1.009106636047363281e+01,4.044442176818847656e+00,-2.077778320312500000e+02,-1.010824813842773438e+02,-1.796813201904296875e+02,5.500712203979492188e+01,-2.090467262268066406e+01,-9.345405578613281250e+01,-1.180768966674804688e+02,6.585875701904296875e+01,-2.980424880981445312e+01
1.950149983167648315e-01,1.000000000000000000e+00,8.385604858398437500e+00,-1.003614330291748047e+01,4.052473545074462891e+00,-2.077195129394531250e+02,-1.010076217651367188e+02,-1.796164855957031250e+02,5.500723266601562500e+01,-2.090467262268066406e+01,-9.345394897460937500e+01,-1.180768966674804688e+02,6.585889434814453125e+01,-2.980424880981445312e+01
2.010969966650009155e-01,1.000000000000000000e+00,8.320699691772460938e+00,-9.980857849121093750e+00,4.060707569122314453e+00,-2.076611022949218750e+02,-1.009334640502929688e+02,-1.795526885986328125e+02,5.500712203979492188e+01,-2.090467262268066406e+01,-9.345405578613281250e+01,-1.180768966674804688e+02,6.585875701904296875e+01,-2.980424880981445312e+01
2.029760032892227173e-01,1.000000000000000000e+00,8.255305290222167969e+00,-9.925121307373046875e+00,4.068962097167968750e+00,-2.076024169921875000e+02,-1.008594665527343750e+02,-1.794879913330078125e+02,5.500701522827148438e+01,-2.090476417541503906e+01,-9.345405578613281250e+01,-1.180770339965820312e+02,6.585875701904296875e+01,-2.980424880981445312e+01
2.070910036563873291e-01,1.000000000000000000e+00,8.189739227294921875e+00,-9.869428634643554688e+00,4.077115535736083984e+00,-2.075447387695312500e+02,-1.007850341796875000e+02,-1.794233551025390625e+02,5.500712203979492188e+01,-2.090476417541503906e+01,-9.345405578613281250e+01,-1.180768966674804688e+02,6.585875701904296875e+01,-2.980424880981445312e+01
2.109840065240859985e-01,1.000000000000000000e+00,8.123913764953613281e+00,-9.813781738281250000e+00,4.085227489471435547e+00,-2.074863281250000000e+02,-1.007100219726562500e+02,-1.793597412109375000e+02,5.500712203979492188e+01,-2.090467262268066406e+01,-9.345405578613281250e+01,-1.180768966674804688e+02,6.585875701904296875e+01,-2.980402946472167969e+01
2.150280028581619263e-01,1.000000000000000000e+00,8.058290481567382812e+00,-9.758067131042480469e+00,4.093238353729248047e+00,-2.074283294677734375e+02,-1.006355819702148438e+02,-1.792944335937500000e+02,5.500712203979492188e+01,-2.090467262268066406e+01,-9.345405578613281250e+01,-1.180768966674804688e+02,6.585875701904296875e+01,-2.980424880981445312e+01
2.190580070018768311e-01,1.000000000000000000e+00,7.992551803588867188e+00,-9.702578544616699219e+00,4.101452827453613281e+00,-2.073701782226562500e+02,-1.005615844726562500e+02,-1.792306823730468750e+02,5.500712203979492188e+01,-2.090467262268066406e+01,-9.345405578613281250e+01,-1.180768966674804688e+02,6.585875701904296875e+01,-2.980424880981445312e+01
2.252990007400512695e-01,1.000000000000000000e+00,7.927128791809082031e+00,-9.646841049194335938e+00,4.109768390655517578e+00,-2.073110198974609375e+02,-1.004869384765625000e+02,-1.791665954589843750e+02,5.500712203979492188e+01,-2.090467262268066406e+01,-9.345405578613281250e+01,-1.180768966674804688e+02,6.585875701904296875e+01,-2.980424880981445312e+01
2.269770056009292603e-01,1.000000000000000000e+00,7.861849308013916016e+00,-9.591306686401367188e+00,4.118226528167724609e+00,-2.072530364990234375e+02,-1.004122467041015625e+02,-1.791017761230468750e+02,5.500712203979492188e+01,-2.090467262268066406e+01,-9.345405578613281250e+01,-1.180768966674804688e+02,6.585875701904296875e+01,-2.980424880981445312e+01
2.310490012168884277e-01,1.000000000000000000e+00,7.796427249908447266e+00,-9.535863876342773438e+00,4.126399517059326172e+00,-2.071942901611328125e+02,-1.003379287719726562e+02,-1.790380096435546875e+02,5.500701522827148438e+01,-2.090467262268066406e+01,-9.345405578613281250e+01,-1.180768966674804688e+02,6.585875701904296875e+01,-2.980424880981445312e+01
2.350420057773590088e-01,1.000000000000000000e+00,7.731147766113281250e+00,-9.480578422546386719e+00,4.134491443634033203e+00,-2.071361083984375000e+02,-1.002638092041015625e+02,-1.789738006591796875e+02,5.500723266601562500e+01,-2.090467262268066406e+01,-9.345405578613281250e+01,-1.180768966674804688e+02,6.585875701904296875e+01,-2.980424880981445312e+01
2.389860004186630249e-01,1.000000000000000000e+00,7.665896892547607422e+00,-9.425542831420898438e+00,4.142400741577148438e+00,-2.070774688720703125e+02,-1.001889572143554688e+02,-1.789096984863281250e+02,5.500712203979492188e+01,-2.090458106994628906e+01,-9.345405578613281250e+01,-1.180768966674804688e+02,6.585875701904296875e+01,-2.980446624755859375e+01
2.429990023374557495e-01,1.000000000000000000e+00,7.600818157196044922e+00,-9.370415687561035156e+00,4.150249004364013672e+00,-2.070184783935546875e+02,-1.001141510009765625e+02,-1.788459014892578125e+02,5.500712203979492188e+01,-2.090467262268066406e+01,-9.345405578613281250e+01,-1.180768966674804688e+02,6.585875701904296875e+01,-2.980424880981445312e+01
2.495400011539459229e-01,1.000000000000000000e+00,7.535711288452148438e+00,-9.315424919128417969e+00,4.158279895782470703e+00,-2.069607391357421875e+02,-1.000405273437500000e+02,-1.787809906005859375e+02,5.500712203979492188e+01,-2.090467262268066406e+01,-9.345405578613281250e+01,-1.180768966674804688e+02,6.585875701904296875e+01,-2.980424880981445312e+01
2.531589865684509277e-01,1.000000000000000000e+00,7.470977783203125000e+00,-9.260253906250000000e+00,4.166574954986572266e+00,-2.069022216796875000e+02,-9.996620941162109375e+01,-1.787160339355468750e+02,5.500712203979492188e+01,-2.090467262268066406e+01,-9.345405578613281250e+01,-1.180768966674804688e+02,6.585875701904296875e+01,-2.980424880981445312e+01
2.554830014705657959e-01,1.000000000000000000e+00,7.406157970428466797e+00,-9.205240249633789062e+00,4.174708366394042969e+00,-2.068437042236328125e+02,-9.989150238037109375e+01,-1.786529541015625000e+02,5.500723266601562500e+01,-2.090458106994628906e+01,-9.345405578613281250e+01,-1.180768966674804688e+02,6.585875701904296875e+01,-2.980424880981445312e+01
2.600350081920623779e-01,1.000000000000000000e+00,7.341136932373046875e+00,-9.150159835815429688e+00,4.182678222656250000e+00,-2.067851257324218750e+02,-9.981622314453125000e+01,-1.785882568359375000e+02,5.500701522827148438e+01,-2.090467262268066406e+01,-9.345405578613281250e+01,-1.180770339965820312e+02,6.585875701904296875e+01,-2.980424880981445312e+01
2.629970014095306396e-01,1.000000000000000000e+00,7.276087284088134766e+00,-9.095146179199218750e+00,4.190404415130615234e+00,-2.067267150878906250e+02,-9.974249267578125000e+01,-1.785236968994140625e+02,5.500712203979492188e+01,-2.090467262268066406e+01,-9.345405578613281250e+01,-1.180768966674804688e+02,6.585875701904296875e+01,-2.980424880981445312e+01
2.669979929924011230e-01,1.000000000000000000e+00,7.211180686950683594e+00,-9.040246009826660156e+00,4.198028564453125000e+00,-2.066688232421875000e+02,-9.966795349121093750e+01,-1.784598846435546875e+02,5.500723266601562500e+01,-2.090467262268066406e+01,-9.345405578613281250e+01,-1.180768966674804688e+02,6.585875701904296875e+01,-2.980424880981445312e+01
2.740739881992340088e-01,1.000000000000000000e+00,7.211180686950683594e+00,-9.040246009826660156e+00,4.198028564453125000e+00,-2.066688232421875000e+02,-9.966795349121093750e+01,-1.784598846435546875e+02,5.500723266601562500e+01,-2.090467262268066406e+01,-9.345405578613281250e+01,-1.180768966674804688e+02,6.585875701904296875e+01,-2.980424880981445312e+01
2.754769921302795410e-01,1.000000000000000000e+00,7.081139087677001953e+00,-8.930468559265136719e+00,4.214029312133789062e+00,-2.065519409179687500e+02,-9.951818847656250000e+01,-1.783310852050781250e+02,5.500712203979492188e+01,-2.090467262268066406e+01,-9.345405578613281250e+01,-1.180768966674804688e+02,6.585875701904296875e+01,-2.980446624755859375e+01
2.800320088863372803e-01,1.000000000000000000e+00,7.015974521636962891e+00,-8.875477790832519531e+00,4.222345352172851562e+00,-2.064937438964843750e+02,-9.944434356689453125e+01,-1.782676239013671875e+02,5.500712203979492188e+01,-2.090458106994628906e+01,-9.345405578613281250e+01,-1.180768966674804688e+02,6.585875701904296875e+01,-2.980424880981445312e+01
2.830370068550109863e-01,1.000000000000000000e+00,6.950839042663574219e+00,-8.820418357849121094e+00,4.230457782745361328e+00,-2.064353790283203125e+02,-9.937028503417968750e+01,-1.782031250000000000e+02,5.500712203979492188e+01,-2.090467262268066406e+01,-9.345405578613281250e+01,-1.180768966674804688e+02,6.585860443115234375e+01,-2.980424880981445312e+01
2.880310118198394775e-01,1.000000000000000000e+00,6.950839042663574219e+00,-8.820418357849121094e+00,4.230457782745361328e+00,-2.064353790283203125e+02,-9.937028503417968750e+01,-1.782031250000000000e+02,5.500712203979492188e+01,-2.090467262268066406e+01,-9.345405578613281250e+01,-1.180768966674804688e+02,6.585860443115234375e+01,-2.980424880981445312e+01
2.910119891166687012e-01,1.000000000000000000e+00,6.820251464843750000e+00,-8.710370063781738281e+00,4.246662139892578125e+00,-2.063186035156250000e+02,-9.922062683105468750e+01,-1.780755615234375000e+02,5.500723266601562500e+01,-2.090467262268066406e+01,-9.345405578613281250e+01,-1.180768966674804688e+02,6.585875701904296875e+01,-2.980424880981445312e+01
2.950839996337890625e-01,1.000000000000000000e+00,6.820251464843750000e+00,-8.710370063781738281e+00,4.246662139892578125e+00,-2.063186035156250000e+02,-9.922062683105468750e+01,-1.780755615234375000e+02,5.500723266601562500e+01,-2.090467262268066406e+01,-9.345405578613281250e+01,-1.180768966674804688e+02,6.585875701904296875e+01,-2.980424880981445312e+01
2.990590035915374756e-01,1.000000000000000000e+00,6.754971981048583984e+00,-8.655333518981933594e+00,4.254591464996337891e+00,-2.062599639892578125e+02,-9.914657592773437500e+01,-1.780108032226562500e+02,5.500712203979492188e+01,-2.090467262268066406e+01,-9.345405578613281250e+01,-1.180768966674804688e+02,6.585875701904296875e+01,-2.980424880981445312e+01
3.030590116977691650e-01,1.000000000000000000e+00,6.689778804779052734e+00,-8.600388526916503906e+00,4.262541294097900391e+00,-2.062016143798828125e+02,-9.907283782958984375e+01,-1.779468536376953125e+02,5.500701522827148438e+01,-2.090467262268066406e+01,-9.345405578613281250e+01,-1.180768966674804688e+02,6.585875701904296875e+01,-2.980402946472167969e+01
3.070659935474395752e-01,1.000000000000000000e+00,6.624557018280029297e+00,-8.544921875000000000e+00,4.270694732666015625e+00,-2.061433563232421875e+02,-9.899808502197265625e+01,-1.778839874267578125e+02,5.500723266601562500e+01,-2.090467262268066406e+01,-9.345405578613281250e+01,-1.180768966674804688e+02,6.585875701904296875e+01,-2.980424880981445312e+01
3.110379874706268311e-01,1.000000000000000000e+00,6.559220314025878906e+00,-8.489592552185058594e+00,4.278908729553222656e+00,-2.060850372314453125e+02,-9.892344665527343750e+01,-1.778193511962890625e+02,5.500723266601562500e+01,-2.090467262268066406e+01,-9.345405578613281250e+01,-1.180768966674804688e+02,6.585889434814453125e+01,-2.980446624755859375e+01
3.150390088558197021e-01,1.000000000000000000e+00,6.493912696838378906e+00,-8.434103012084960938e+00,4.287061214447021484e+00,-2.060265655517578125e+02,-9.884917449951171875e+01,-1.777552642822265625e+02,5.500723266601562500e+01,-2.090467262268066406e+01,-9.345405578613281250e+01,-1.180768966674804688e+02,6.585875701904296875e+01,-2.980424880981445312e+01
3.190799951553344727e-01,1.000000000000000000e+00,6.428547382354736328e+00,-8.378637313842773438e+00,4.295133113861083984e+00,-2.059684143066406250e+02,-9.877533721923828125e+01,-1.776911773681640625e+02,5.500712203979492188e+01,-2.090467262268066406e+01,-9.345405578613281250e+01,-1.180768966674804688e+02,6.585875701904296875e+01,-2.980424880981445312e+01
3.230240046977996826e-01,1.000000000000000000e+00,6.363038063049316406e+00,-8.323125839233398438e+00,4.303184509277343750e+00,-2.059097900390625000e+02,-9.870058441162109375e+01,-1.776270904541015625e+02,5.500712203979492188e+01,-2.090467262268066406e+01,-9.345405578613281250e+01,-1.180768966674804688e+02,6.585875701904296875e+01,-2.980424880981445312e+01
3.270550072193145752e-01,1.000000000000000000e+00,6.297500133514404297e+00,-8.267546653747558594e+00,4.311113834381103516e+00,-2.058517913818359375e+02,-9.862648010253906250e+01,-1.775629425048828125e+02,5.500723266601562500e+01,-2.090467262268066406e+01,-9.345405578613281250e+01,-1.180768966674804688e+02,6.585875701904296875e+01,-2.980424880981445312e+01
3.311530053615570068e-01,1.000000000000000000e+00,6.231991291046142578e+00,-8.212103843688964844e+00,4.319124698638916016e+00,-2.057937469482421875e+02,-9.855220794677734375e+01,-1.774991149902343750e+02,5.500723266601562500e+01,-2.090458106994628906e+01,-9.345394897460937500e+01,-1.180768966674804688e+02,6.585875701904296875e+01,-2.980424880981445312e+01
3.350259959697723389e-01,1.000000000000000000e+00,6.166310310363769531e+00,-8.156411170959472656e+00,4.327501773834228516e+00,-2.057351226806640625e+02,-9.847809600830078125e+01,-1.774346313476562500e+02,5.500712203979492188e+01,-2.090467262268066406e+01,-9.345405578613281250e+01,-1.180768966674804688e+02,6.585875701904296875e+01,-2.980402946472167969e+01
3.390679955482482910e-01,1.000000000000000000e+00,6.100772380828857422e+00,-8.100922584533691406e+00,4.335898399353027344e+00,-2.056773986816406250e+02,-9.840366363525390625e+01,-1.773711547851562500e+02,5.500723266601562500e+01,-2.090458106994628906e+01,-9.345405578613281250e+01,-1.180768966674804688e+02,6.585875701904296875e+01,-2.980424880981445312e+01
3.431200087070465088e-01,1.000000000000000000e+00,6.035263538360595703e+00,-8.045524597167968750e+00,4.344193935394287109e+00,-2.056187591552734375e+02,-9.832987976074218750e+01,-1.773072052001953125e+02,5.500723266601562500e+01,-2.090467262268066406e+01,-9.345405578613281250e+01,-1.180768966674804688e+02,6.585875701904296875e+01,-2.980424880981445312e+01
3.470399975776672363e-01,1.000000000000000000e+00,5.969726085662841797e+00,-7.990172386169433594e+00,4.352428436279296875e+00,-2.055605163574218750e+02,-9.825544738769531250e+01,-1.772424926757812500e+02,5.500723266601562500e+01,-2.090467262268066406e+01,-9.345405578613281250e+01,-1.180768966674804688e+02,6.585889434814453125e+01,-2.980424880981445312e+01
3.510240018367767334e-01,1.000000000000000000e+00,5.904073715209960938e+00,-7.934841632843017578e+00,4.360682964324951172e+00,-2.055026245117187500e+02,-9.818170928955078125e+01,-1.771788940429687500e+02,5.500723266601562500e+01,-2.090467262268066406e+01,-9.345405578613281250e+01,-1.180768966674804688e+02,6.585875701904296875e+01,-2.980424880981445312e+01
3.550220131874084473e-01,1.000000000000000000e+00,5.838507175445556641e+00,-7.879512310028076172e+00,4.368673801422119141e+00,-2.054437866210937500e+02,-9.810701751708984375e+01,-1.771148681640625000e+02,5.500723266601562500e+01,-2.090467262268066406e+01,-9.345405578613281250e+01,-1.180768966674804688e+02,6.585875701904296875e+01,-2.980424880981445312e+01
3.590939939022064209e-01,1.000000000000000000e+00,5.772969245910644531e+00,-7.824181556701660156e+00,4.376602649688720703e+00,-2.053855743408203125e+02,-9.803322601318359375e+01,-1.770501708984375000e+02,5.500723266601562500e+01,-2.090467262268066406e+01,-9.345405578613281250e+01,-1.180768966674804688e+02,6.585889434814453125e+01,-2.980424880981445312e+01
3.630619943141937256e-01,1.000000000000000000e+00,5.707661151885986328e+00,-7.768874168395996094e+00,4.384654045104980469e+00,-2.053268585205078125e+02,-9.795901489257812500e+01,-1.769871063232421875e+02,5.500712203979492188e+01,-2.090458106994628906e+01,-9.345405578613281250e+01,-1.180768966674804688e+02,6.585875701904296875e+01,-2.980446624755859375e+01
3.670409917831420898e-01,1.000000000000000000e+00,5.642295837402343750e+00,-7.713521480560302734e+00,4.392705440521240234e+00,-2.052685852050781250e+02,-9.788494873046875000e+01,-1.769226074218750000e+02,5.500712203979492188e+01,-2.090467262268066406e+01,-9.345405578613281250e+01,-1.180768966674804688e+02,6.585875701904296875e+01,-2.980424880981445312e+01
3.711000084877014160e-01,1.000000000000000000e+00,5.577275276184082031e+00,-7.658214092254638672e+00,4.400797843933105469e+00,-2.052106475830078125e+02,-9.781031036376953125e+01,-1.768580474853515625e+02,5.500712203979492188e+01,-2.090467262268066406e+01,-9.345405578613281250e+01,-1.180768966674804688e+02,6.585875701904296875e+01,-2.980424880981445312e+01
3.754549920558929443e-01,1.000000000000000000e+00,5.512167930603027344e+00,-7.602861404418945312e+00,4.408706665039062500e+00,-2.051518096923828125e+02,-9.773667907714843750e+01,-1.767947692871093750e+02,5.500712203979492188e+01,-2.090458106994628906e+01,-9.345405578613281250e+01,-1.180768966674804688e+02,6.585875701904296875e+01,-2.980424880981445312e+01
3.790169954299926758e-01,1.000000000000000000e+00,5.446974754333496094e+00,-7.547757148742675781e+00,4.416534423828125000e+00,-2.050938720703125000e+02,-9.766294097900390625e+01,-1.767306823730468750e+02,5.500712203979492188e+01,-2.090467262268066406e+01,-9.345405578613281250e+01,-1.180768966674804688e+02,6.585875701904296875e+01,-2.980402946472167969e+01
3.841260075569152832e-01,1.000000000000000000e+00,5.381810665130615234e+00,-7.492653369903564453e+00,4.424402713775634766e+00,-2.050355072021484375e+02,-9.758878326416015625e+01,-1.766665954589843750e+02,5.500701522827148438e+01,-2.090467262268066406e+01,-9.345405578613281250e+01,-1.180768966674804688e+02,6.585875701904296875e+01,-2.980424880981445312e+01
3.875139951705932617e-01,1.000000000000000000e+00,5.251452922821044922e+00,-7.382445812225341797e+00,4.440871715545654297e+00,-2.049194183349609375e+02,-9.744039916992187500e+01,-1.765379486083984375e+02,5.500712203979492188e+01,-2.090467262268066406e+01,-9.345405578613281250e+01,-1.180768966674804688e+02,6.585875701904296875e+01,-2.980424880981445312e+01
3.910349905490875244e-01,1.000000000000000000e+00,5.251452922821044922e+00,-7.382445812225341797e+00,4.440871715545654297e+00,-2.049194183349609375e+02,-9.744039916992187500e+01,-1.765379486083984375e+02,5.500712203979492188e+01,-2.090467262268066406e+01,-9.345405578613281250e+01,-1.180768966674804688e+02,6.585875701904296875e+01,-2.980424880981445312e+01
3.951419889926910400e-01,1.000000000000000000e+00,5.186632633209228516e+00,-7.327409744262695312e+00,4.449146270751953125e+00,-2.048610534667968750e+02,-9.736671447753906250e+01,-1.764738006591796875e+02,5.500723266601562500e+01,-2.090467262268066406e+01,-9.345405578613281250e+01,-1.180768966674804688e+02,6.585875701904296875e+01,-2.980424880981445312e+01
3.997910022735595703e-01,1.000000000000000000e+00,5.121554374694824219e+00,-7.272374153137207031e+00,4.457320213317871094e+00,-2.048030090332031250e+02,-9.729266357421875000e+01,-1.764105224609375000e+02,5.500701522827148438e+01,-2.090467262268066406e+01,-9.345394897460937500e+01,-1.180768966674804688e+02,6.585875701904296875e+01,-2.980424880981445312e+01
4.040119946002960205e-01,1.000000000000000000e+00,5.056533336639404297e+00,-7.217473983764648438e+00,4.465452671051025391e+00,-2.047441101074218750e+02,-9.721807098388671875e+01,-1.763460388183593750e+02,5.500723266601562500e+01,-2.090467262268066406e+01,-9.345405578613281250e+01,-1.180768966674804688e+02,6.585875701904296875e+01,-2.980402946472167969e+01
4.080539941787719727e-01,1.000000000000000000e+00,4.991254329681396484e+00,-7.162641048431396484e+00,4.473381996154785156e+00,-2.046863403320312500e+02,-9.714396667480468750e+01,-1.762817993164062500e+02,5.500712203979492188e+01,-2.090467262268066406e+01,-9.345405578613281250e+01,-1.180768966674804688e+02,6.585875701904296875e+01,-2.980424880981445312e+01
4.130159914493560791e-01,1.000000000000000000e+00,4.925974845886230469e+00,-7.107718467712402344e+00,4.481250286102294922e+00,-2.046283874511718750e+02,-9.707012176513671875e+01,-1.762179260253906250e+02,5.500701522827148438e+01,-2.090467262268066406e+01,-9.345405578613281250e+01,-1.180768966674804688e+02,6.585875701904296875e+01,-2.980424880981445312e+01
4.155859947204589844e-01,1.000000000000000000e+00,4.795530796051025391e+00,-6.997306823730468750e+00,4.497495651245117188e+00,-2.045115661621093750e+02,-9.692153167724609375e+01,-1.760898895263671875e+02,5.500723266601562500e+01,-2.090476417541503906e+01,-9.345405578613281250e+01,-1.180768966674804688e+02,6.585875701904296875e+01,-2.980424880981445312e+01
4.192320108413696289e-01,1.000000000000000000e+00,4.795530796051025391e+00,-6.997306823730468750e+00,4.497495651245117188e+00,-2.045115661621093750e+02,-9.692153167724609375e+01,-1.760898895263671875e+02,5.500723266601562500e+01,-2.090476417541503906e+01,-9.345405578613281250e+01,-1.180768966674804688e+02,6.585875701904296875e+01,-2.980424880981445312e+01
4.238699972629547119e-01,1.000000000000000000e+00,4.730309009552001953e+00,-6.942044734954833984e+00,4.505648612976074219e+00,-2.044530944824218750e+02,-9.684757995605468750e+01,-1.760266113281250000e+02,5.500712203979492188e+01,-2.090458106994628906e+01,-9.345405578613281250e+01,-1.180770339965820312e+02,6.585875701904296875e+01,-2.980424880981445312e+01
4.280250072479248047e-01,1.000000000000000000e+00,4.665030002593994141e+00,-6.886963367462158203e+00,4.513659477233886719e+00,-2.043952636718750000e+02,-9.677347564697265625e+01,-1.759614410400390625e+02,5.500712203979492188e+01,-2.090467262268066406e+01,-9.345405578613281250e+01,-1.180768966674804688e+02,6.585875701904296875e+01,-2.980424880981445312e+01
4.311000108718872070e-01,1.000000000000000000e+00,4.599951267242431641e+00,-6.831723690032958984e+00,4.521568775177001953e+00,-2.043371582031250000e+02,-9.669909667968750000e+01,-1.758978271484375000e+02,5.500712203979492188e+01,-2.090467262268066406e+01,-9.345405578613281250e+01,-1.180768966674804688e+02,6.585889434814453125e+01,-2.980424880981445312e+01
4.354540109634399414e-01,1.000000000000000000e+00,4.534557342529296875e+00,-6.776461601257324219e+00,4.529274463653564453e+00,-2.042787322998046875e+02,-9.662434387207031250e+01,-1.758343505859375000e+02,5.500723266601562500e+01,-2.090467262268066406e+01,-9.345405578613281250e+01,-1.180768966674804688e+02,6.585875701904296875e+01,-2.980424880981445312e+01
4.390290081501007080e-01,1.000000000000000000e+00,4.469364166259765625e+00,-6.721199512481689453e+00,4.537122249603271484e+00,-2.042207946777343750e+02,-9.655097961425781250e+01,-1.757697906494140625e+02,5.500712203979492188e+01,-2.090467262268066406e+01,-9.345405578613281250e+01,-1.180768966674804688e+02,6.585875701904296875e+01,-2.980424880981445312e+01
4.441410005092620850e-01,1.000000000000000000e+00,4.404200077056884766e+00,-6.665779113769531250e+00,4.545275211334228516e+00,-2.041622772216796875e+02,-9.647682189941406250e+01,-1.757063140869140625e+02,5.500712203979492188e+01,-2.090467262268066406e+01,-9.345405578613281250e+01,-1.180768966674804688e+02,6.585875701904296875e+01,-2.980424880981445312e+01
4.478560090065002441e-01,1.000000000000000000e+00,4.338977813720703125e+00,-6.610516548156738281e+00,4.553692817687988281e+00,-2.041045532226562500e+02,-9.640270996093750000e+01,-1.756426391601562500e+02,5.500712203979492188e+01,-2.090467262268066406e+01,-9.345405578613281250e+01,-1.180768966674804688e+02,6.585875701904296875e+01,-2.980424880981445312e+01
4.520139992237091064e-01,1.000000000000000000e+00,4.273928165435791016e+00,-6.555208683013916016e+00,4.561987876892089844e+00,-2.040461730957031250e+02,-9.632780456542968750e+01,-1.755782775878906250e+02,5.500712203979492188e+01,-2.090467262268066406e+01,-9.345405578613281250e+01,-1.180770339965820312e+02,6.585875701904296875e+01,-2.980424880981445312e+01
4.550470113754272461e-01,1.000000000000000000e+00,4.208620548248291016e+00,-6.499969005584716797e+00,4.570161819458007812e+00,-2.039882965087890625e+02,-9.625454711914062500e+01,-1.755145263671875000e+02,5.500712203979492188e+01,-2.090467262268066406e+01,-9.345405578613281250e+01,-1.180768966674804688e+02,6.585875701904296875e+01,-2.980424880981445312e+01
4.596599936485290527e-01,1.000000000000000000e+00,4.143713951110839844e+00,-6.444752216339111328e+00,4.578192710876464844e+00,-2.039307250976562500e+02,-9.618054199218750000e+01,-1.754501647949218750e+02,5.500712203979492188e+01,-2.090467262268066406e+01,-9.345405578613281250e+01,-1.180768966674804688e+02,6.585875701904296875e+01,-2.980424880981445312e+01
4.640150070190429688e-01,1.000000000000000000e+00,4.078664779663085938e+00,-6.389580726623535156e+00,4.586183071136474609e+00,-2.038717803955078125e+02,-9.610616302490234375e+01,-1.753853454589843750e+02,5.500723266601562500e+01,-2.090458106994628906e+01,-9.345405578613281250e+01,-1.180768966674804688e+02,6.585875701904296875e+01,-2.980424880981445312e+01
4.672969877719879150e-01,1.000000000000000000e+00,4.013213157653808594e+00,-6.334273338317871094e+00,4.594091892242431641e+00,-2.038141021728515625e+02,-9.603152465820312500e+01,-1.753222045898437500e+02,5.500723266601562500e+01,-2.090467262268066406e+01,-9.345405578613281250e+01,-1.180768966674804688e+02,6.585875701904296875e+01,-2.980446624755859375e+01
4.719550013542175293e-01,1.000000000000000000e+00,3.947761535644531250e+00,-6.278943061828613281e+00,4.602224826812744141e+00,-2.037560577392578125e+02,-9.595794677734375000e+01,-1.752582397460937500e+02,5.500712203979492188e+01,-2.090467262268066406e+01,-9.345405578613281250e+01,-1.180768966674804688e+02,6.585875701904296875e+01,-2.980446624755859375e+01
4.760110080242156982e-01,1.000000000000000000e+00,3.882396221160888672e+00,-6.223658084869384766e+00,4.610459327697753906e+00,-2.036976318359375000e+02,-9.588405609130859375e+01,-1.751936798095703125e+02,5.500701522827148438e+01,-2.090467262268066406e+01,-9.345405578613281250e+01,-1.180768966674804688e+02,6.585875701904296875e+01,-2.980424880981445312e+01
4.792029857635498047e-01,1.000000000000000000e+00,3.817174196243286133e+00,-6.168237209320068359e+00,4.618754386901855469e+00,-2.036393890380859375e+02,-9.580973052978515625e+01,-1.751301422119140625e+02,5.500712203979492188e+01,-2.090467262268066406e+01,-9.345405578613281250e+01,-1.180768966674804688e+02,6.585875701904296875e+01,-2.980424880981445312e+01
4.838649928569793701e-01,1.000000000000000000e+00,3.752009391784667969e+00,-6.112861633300781250e+00,4.626948356628417969e+00,-2.035808105468750000e+02,-9.573514556884765625e+01,-1.750656433105468750e+02,5.500712203979492188e+01,-2.090467262268066406e+01,-9.345405578613281250e+01,-1.180768966674804688e+02,6.585875701904296875e+01,-2.980424880981445312e+01
4.880309998989105225e-01,1.000000000000000000e+00,3.686902523040771484e+00,-6.057667732238769531e+00,4.634979248046875000e+00,-2.035232391357421875e+02,-9.566134643554687500e+01,-1.750013580322265625e+02,5.500712203979492188e+01,-2.090467262268066406e+01,-9.345405578613281250e+01,-1.180768966674804688e+02,6.585875701904296875e+01,-2.980424880981445312e+01
4.914279878139495850e-01,1.000000000000000000e+00,3.622054100036621094e+00,-6.002608776092529297e+00,4.642766475677490234e+00,-2.034652404785156250e+02,-9.558766174316406250e+01,-1.749384918212890625e+02,5.500723266601562500e+01,-2.090467262268066406e+01,-9.345405578613281250e+01,-1.180768966674804688e+02,6.585875701904296875e+01,-2.980424880981445312e+01
4.960440099239349365e-01,1.000000000000000000e+00,3.556746006011962891e+00,-5.947391986846923828e+00,4.650533199310302734e+00,-2.034069366455078125e+02,-9.551355743408203125e+01,-1.748739318847656250e+02,5.500712203979492188e+01,-2.090467262268066406e+01,-9.345405578613281250e+01,-1.180768966674804688e+02,6.585875701904296875e+01,-2.980402946472167969e+01
4.992269873619079590e-01,1.000000000000000000e+00,3.491552591323852539e+00,-5.892265319824218750e+00,4.658686161041259766e+00,-2.033488311767578125e+02,-9.543913269042968750e+01,-1.748097076416015625e+02,5.500712203979492188e+01,-2.090467262268066406e+01,-9.345405578613281250e+01,-1.180768966674804688e+02,6.585875701904296875e+01,-2.980424880981445312e+01
5.034250020980834961e-01,1.000000000000000000e+00,3.426502943038940430e+00,-5.837048530578613281e+00,4.667083263397216797e+00,-2.032905731201171875e+02,-9.536518096923828125e+01,-1.747462921142578125e+02,5.500712203979492188e+01,-2.090476417541503906e+01,-9.345405578613281250e+01,-1.180768966674804688e+02,6.585875701904296875e+01,-2.980424880981445312e+01
5.080559849739074707e-01,1.000000000000000000e+00,3.361654281616210938e+00,-5.782080650329589844e+00,4.675378322601318359e+00,-2.032327423095703125e+02,-9.529144287109375000e+01,-1.746818084716796875e+02,5.500712203979492188e+01,-2.090467262268066406e+01,-9.345405578613281250e+01,-1.180768966674804688e+02,6.585875701904296875e+01,-2.980424880981445312e+01
5.114489793777465820e-01,1.000000000000000000e+00,3.296662092208862305e+00,-5.726953983306884766e+00,4.683511257171630859e+00,-2.031746826171875000e+02,-9.521706390380859375e+01,-1.746181793212890625e+02,5.500723266601562500e+01,-2.090467262268066406e+01,-9.345405578613281250e+01,-1.180766754150390625e+02,6.585875701904296875e+01,-2.980446624755859375e+01
5.155109763145446777e-01,1.000000000000000000e+00,3.231813430786132812e+00,-5.672053813934326172e+00,4.691542148590087891e+00,-2.031164855957031250e+02,-9.514295959472656250e+01,-1.745545806884765625e+02,5.500723266601562500e+01,-2.090467262268066406e+01,-9.345405578613281250e+01,-1.180768966674804688e+02,6.585875701904296875e+01,-2.980424880981445312e+01
5.207800269126892090e-01,1.000000000000000000e+00,3.166849851608276367e+00,-5.617063045501708984e+00,4.699369907379150391e+00,-2.030587005615234375e+02,-9.506895446777343750e+01,-1.744904937744140625e+02,5.500712203979492188e+01,-2.090476417541503906e+01,-9.345405578613281250e+01,-1.180768966674804688e+02,6.585875701904296875e+01,-2.980424880981445312e+01
5.240489840507507324e-01,1.000000000000000000e+00,3.101771593093872070e+00,-5.562049865722656250e+00,4.707035064697265625e+00,-2.030005493164062500e+02,-9.499553680419921875e+01,-1.744265441894531250e+02,5.500712203979492188e+01,-2.090467262268066406e+01,-9.345405578613281250e+01,-1.180768966674804688e+02,6.585875701904296875e+01,-2.980446624755859375e+01
5.276920199394226074e-01,1.000000000000000000e+00,3.036549806594848633e+00,-5.506900787353515625e+00,4.715004920959472656e+00,-2.029428253173828125e+02,-9.492105102539062500e+01,-1.743626556396484375e+02,5.500712203979492188e+01,-2.090467262268066406e+01,-9.345405578613281250e+01,-1.180768966674804688e+02,6.585875701904296875e+01,-2.980446624755859375e+01
5.323719978332519531e-01,1.000000000000000000e+00,2.971184253692626953e+00,-5.451706409454345703e+00,4.723056793212890625e+00,-2.028842468261718750e+02,-9.484700012207031250e+01,-1.742974853515625000e+02,5.500712203979492188e+01,-2.090467262268066406e+01,-9.345405578613281250e+01,-1.180768966674804688e+02,6.585875701904296875e+01,-2.980424880981445312e+01
5.357159972190856934e-01,1.000000000000000000e+00,2.905962228775024414e+00,-5.396647930145263672e+00,4.731209754943847656e+00,-2.028257293701171875e+02,-9.477315521240234375e+01,-1.742341461181640625e+02,5.500712203979492188e+01,-2.090467262268066406e+01,-9.345405578613281250e+01,-1.180768966674804688e+02,6.585875701904296875e+01,-2.980424880981445312e+01
5.402299761772155762e-01,1.000000000000000000e+00,2.840740442276000977e+00,-5.341498374938964844e+00,4.739200115203857422e+00,-2.027677917480468750e+02,-9.469941711425781250e+01,-1.741708068847656250e+02,5.500723266601562500e+01,-2.090458106994628906e+01,-9.345405578613281250e+01,-1.180768966674804688e+02,6.585875701904296875e+01,-2.980424880981445312e+01
5.436030030250549316e-01,1.000000000000000000e+00,2.775576114654541016e+00,-5.286484718322753906e+00,4.747231483459472656e+00,-2.027096862792968750e+02,-9.462520599365234375e+01,-1.741063690185546875e+02,5.500701522827148438e+01,-2.090467262268066406e+01,-9.345405578613281250e+01,-1.180770339965820312e+02,6.585889434814453125e+01,-2.980424880981445312e+01
5.476109981536865234e-01,1.000000000000000000e+00,2.710440158843994141e+00,-5.231403827667236328e+00,4.755018234252929688e+00,-2.026517486572265625e+02,-9.455125427246093750e+01,-1.740425720214843750e+02,5.500712203979492188e+01,-2.090467262268066406e+01,-9.345405578613281250e+01,-1.180768966674804688e+02,6.585875701904296875e+01,-2.980402946472167969e+01
5.520989894866943359e-01,1.000000000000000000e+00,2.645103454589843750e+00,-5.176164150238037109e+00,4.762968063354492188e+00,-2.025934448242187500e+02,-9.447714233398437500e+01,-1.739784698486328125e+02,5.500712203979492188e+01,-2.090467262268066406e+01,-9.345405578613281250e+01,-1.180768966674804688e+02,6.585875701904296875e+01,-2.980424880981445312e+01
5.564190149307250977e-01,1.000000000000000000e+00,2.579996347427368164e+00,-5.121082782745361328e+00,4.771202087402343750e+00,-2.025355529785156250e+02,-9.440319061279296875e+01,-1.739141235351562500e+02,5.500712203979492188e+01,-2.090467262268066406e+01,-9.345405578613281250e+01,-1.180768966674804688e+02,6.585875701904296875e+01,-2.980402946472167969e+01
5.597310066223144531e-01,1.000000000000000000e+00,2.514659643173217773e+00,-5.066001892089843750e+00,4.779518127441406250e+00,-2.024775543212890625e+02,-9.432924652099609375e+01,-1.738509826660156250e+02,5.500712203979492188e+01,-2.090476417541503906e+01,-9.345422363281250000e+01,-1.180768966674804688e+02,6.585875701904296875e+01,-2.980424880981445312e+01
5.642330050468444824e-01,1.000000000000000000e+00,2.449552536010742188e+00,-5.011033535003662109e+00,4.787813186645507812e+00,-2.024192352294921875e+02,-9.425561523437500000e+01,-1.737875671386718750e+02,5.500712203979492188e+01,-2.090467262268066406e+01,-9.345405578613281250e+01,-1.180768966674804688e+02,6.585875701904296875e+01,-2.980424880981445312e+01
5.677869915962219238e-01,1.000000000000000000e+00,2.384388446807861328e+00,-4.955975055694580078e+00,4.795966148376464844e+00,-2.023615722656250000e+02,-9.418235778808593750e+01,-1.737227325439453125e+02,5.500723266601562500e+01,-2.090467262268066406e+01,-9.345405578613281250e+01,-1.180768966674804688e+02,6.585889434814453125e+01,-2.980424880981445312e+01
5.721020102500915527e-01,1.000000000000000000e+00,2.319281339645385742e+00,-4.900938987731933594e+00,4.804018020629882812e+00,-2.023029937744140625e+02,-9.410808563232421875e+01,-1.736598663330078125e+02,5.500712203979492188e+01,-2.090467262268066406e+01,-9.345405578613281250e+01,-1.180768966674804688e+02,6.585875701904296875e+01,-2.980402946472167969e+01
5.760009884834289551e-01,1.000000000000000000e+00,2.254346370697021484e+00,-4.845925807952880859e+00,4.811865806579589844e+00,-2.022453613281250000e+02,-9.403387451171875000e+01,-1.735959320068359375e+02,5.500712203979492188e+01,-2.090467262268066406e+01,-9.345405578613281250e+01,-1.180768966674804688e+02,6.585875701904296875e+01,-2.980424880981445312e+01
5.806120038032531738e-01,1.000000000000000000e+00,2.189038276672363281e+00,-4.790686130523681641e+00,4.819714069366455078e+00,-2.021874237060546875e+02,-9.396002960205078125e+01,-1.735319671630859375e+02,5.500712203979492188e+01,-2.090467262268066406e+01,-9.345405578613281250e+01,-1.180768966674804688e+02,6.585860443115234375e+01,-2.980424880981445312e+01
5.842509865760803223e-01,1.000000000000000000e+00,2.123644113540649414e+00,-4.735604763031005859e+00,4.827785491943359375e+00,-2.021287994384765625e+02,-9.388677978515625000e+01,-1.734688262939453125e+02,5.500712203979492188e+01,-2.090467262268066406e+01,-9.345405578613281250e+01,-1.180768966674804688e+02,6.585875701904296875e+01,-2.980424880981445312e+01
5.881749987602233887e-01,1.000000000000000000e+00,2.058250188827514648e+00,-4.680342674255371094e+00,4.836020469665527344e+00,-2.020716400146484375e+02,-9.381309509277343750e+01,-1.734052276611328125e+02,5.500712203979492188e+01,-2.090467262268066406e+01,-9.345405578613281250e+01,-1.180768966674804688e+02,6.585875701904296875e+01,-2.980424880981445312e+01
5.929819941520690918e-01,1.000000000000000000e+00,1.992913484573364258e+00,-4.625102996826171875e+00,4.844213962554931641e+00,-2.020129699707031250e+02,-9.373855590820312500e+01,-1.733407897949218750e+02,5.500712203979492188e+01,-2.090467262268066406e+01,-9.345405578613281250e+01,-1.180768966674804688e+02,6.585875701904296875e+01,-2.980402946472167969e+01
5.961539745330810547e-01,1.000000000000000000e+00,1.927806377410888672e+00,-4.569886207580566406e+00,4.852183818817138672e+00,-2.019547576904296875e+02,-9.366455078125000000e+01,-1.732775878906250000e+02,5.500723266601562500e+01,-2.090467262268066406e+01,-9.345405578613281250e+01,-1.180768966674804688e+02,6.585875701904296875e+01,-2.980402946472167969e+01
6.002439856529235840e-01,1.000000000000000000e+00,1.862555742263793945e+00,-4.514760017395019531e+00,4.859910011291503906e+00,-2.018966674804687500e+02,-9.359082031250000000e+01,-1.732130889892578125e+02,5.500723266601562500e+01,-2.090467262268066406e+01,-9.345405578613281250e+01,-1.180768966674804688e+02,6.585875701904296875e+01,-2.980424880981445312e+01
6.047809720039367676e-01,1.000000000000000000e+00,1.797592282295227051e+00,-4.459633350372314453e+00,4.867636203765869141e+00,-2.018380279541015625e+02,-9.351728820800781250e+01,-1.731490173339843750e+02,5.500712203979492188e+01,-2.090467262268066406e+01,-9.345405578613281250e+01,-1.180768966674804688e+02,6.585875701904296875e+01,-2.980424880981445312e+01
6.080970168113708496e-01,1.000000000000000000e+00,1.732542634010314941e+00,-4.404529094696044922e+00,4.875565528869628906e+00,-2.017805633544921875e+02,-9.344281005859375000e+01,-1.730860748291015625e+02,5.500723266601562500e+01,-2.090467262268066406e+01,-9.345405578613281250e+01,-1.180768966674804688e+02,6.585875701904296875e+01,-2.980424880981445312e+01
6.123430132865905762e-01,1.000000000000000000e+00,1.667406797409057617e+00,-4.349447727203369141e+00,4.883921623229980469e+00,-2.017222595214843750e+02,-9.336913299560546875e+01,-1.730221252441406250e+02,5.500712203979492188e+01,-2.090467262268066406e+01,-9.345405578613281250e+01,-1.180768966674804688e+02,6.585875701904296875e+01,-2.980424880981445312e+01
6.169000267982482910e-01,1.000000000000000000e+00,1.602414608001708984e+00,-4.294456958770751953e+00,4.892237663269042969e+00,-2.016644287109375000e+02,-9.329512786865234375e+01,-1.729577636718750000e+02,5.500701522827148438e+01,-2.090467262268066406e+01,-9.345405578613281250e+01,-1.180768966674804688e+02,6.585875701904296875e+01,-2.980424880981445312e+01
6.201490163803100586e-01,1.000000000000000000e+00,1.537709474563598633e+00,-4.239466667175292969e+00,4.900431156158447266e+00,-2.016059570312500000e+02,-9.322165679931640625e+01,-1.728944244384765625e+02,5.500712203979492188e+01,-2.090476417541503906e+01,-9.345405578613281250e+01,-1.180766754150390625e+02,6.585875701904296875e+01,-2.980424880981445312e+01
6.229640245437622070e-01,1.000000000000000000e+00,1.473004221916198730e+00,-4.184543609619140625e+00,4.908624649047851562e+00,-2.015478057861328125e+02,-9.314669036865234375e+01,-1.728298034667968750e+02,5.500712203979492188e+01,-2.090467262268066406e+01,-9.345405578613281250e+01,-1.180768966674804688e+02,6.585875701904296875e+01,-2.980424880981445312e+01
6.269609928131103516e-01,1.000000000000000000e+00,1.408213019371032715e+00,-4.129575729370117188e+00,4.916594982147216797e+00,-2.014906005859375000e+02,-9.307364654541015625e+01,-1.727659149169921875e+02,5.500712203979492188e+01,-2.090467262268066406e+01,-9.345405578613281250e+01,-1.180768966674804688e+02,6.585875701904296875e+01,-2.980446624755859375e+01
6.325600147247314453e-01,1.000000000000000000e+00,1.343249440193176270e+00,-4.074358463287353516e+00,4.924280643463134766e+00,-2.014322967529296875e+02,-9.299970245361328125e+01,-1.727026977539062500e+02,5.500723266601562500e+01,-2.090467262268066406e+01,-9.345405578613281250e+01,-1.180768966674804688e+02,6.585875701904296875e+01,-2.980424880981445312e+01
6.364099979400634766e-01,1.000000000000000000e+00,1.278687834739685059e+00,-4.019209384918212891e+00,4.932047367095947266e+00,-2.013742370605468750e+02,-9.292585754394531250e+01,-1.726382751464843750e+02,5.500723266601562500e+01,-2.090467262268066406e+01,-9.345405578613281250e+01,-1.180768966674804688e+02,6.585875701904296875e+01,-2.980424880981445312e+01
6.389579772949218750e-01,1.000000000000000000e+00,1.213724255561828613e+00,-3.964015245437622070e+00,4.940037727355957031e+00,-2.013159942626953125e+02,-9.285094451904296875e+01,-1.725744781494140625e+02,5.500723266601562500e+01,-2.090467262268066406e+01,-9.345405578613281250e+01,-1.180770339965820312e+02,6.585875701904296875e+01,-2.980424880981445312e+01
6.443880200386047363e-01,1.000000000000000000e+00,1.148674607276916504e+00,-3.909047126770019531e+00,4.948210716247558594e+00,-2.012580413818359375e+02,-9.277758026123046875e+01,-1.725111999511718750e+02,5.500701522827148438e+01,-2.090467262268066406e+01,-9.345405578613281250e+01,-1.180768966674804688e+02,6.585875701904296875e+01,-2.980424880981445312e+01
6.470779776573181152e-01,1.000000000000000000e+00,1.083739876747131348e+00,-3.853965759277343750e+00,4.956384658813476562e+00,-2.012005157470703125e+02,-9.270363616943359375e+01,-1.724464263916015625e+02,5.500712203979492188e+01,-2.090467262268066406e+01,-9.345405578613281250e+01,-1.180768966674804688e+02,6.585875701904296875e+01,-2.980424880981445312e+01
6.510090231895446777e-01,1.000000000000000000e+00,1.018833756446838379e+00,-3.798975229263305664e+00,4.964517116546630859e+00,-2.011420593261718750e+02,-9.262995147705078125e+01,-1.723831634521484375e+02,5.500723266601562500e+01,-2.090467262268066406e+01,-9.345405578613281250e+01,-1.180768966674804688e+02,6.585875701904296875e+01,-2.980424880981445312e+01
6.549770236015319824e-01,1.000000000000000000e+00,9.539563059806823730e-01,-3.743893861770629883e+00,4.972486972808837891e+00,-2.010840148925781250e+02,-9.255493927001953125e+01,-1.723198089599609375e+02,5.500712203979492188e+01,-2.090458106994628906e+01,-9.345405578613281250e+01,-1.180768966674804688e+02,6.585875701904296875e+01,-2.980402946472167969e+01
6.590279936790466309e-01,1.000000000000000000e+00,8.890501856803894043e-01,-3.688609123229980469e+00,4.980314731597900391e+00,-2.010258636474609375e+02,-9.248130798339843750e+01,-1.722557830810546875e+02,5.500701522827148438e+01,-2.090458106994628906e+01,-9.345405578613281250e+01,-1.180768966674804688e+02,6.585889434814453125e+01,-2.980424880981445312e+01
6.629729866981506348e-01,1.000000000000000000e+00,8.241727948188781738e-01,-3.633663654327392578e+00,4.988244533538818359e+00,-2.009677581787109375e+02,-9.240783691406250000e+01,-1.721921234130859375e+02,5.500701522827148438e+01,-2.090476417541503906e+01,-9.345405578613281250e+01,-1.180768966674804688e+02,6.585875701904296875e+01,-2.980424880981445312e+01
6.685929894447326660e-01,1.000000000000000000e+00,7.590944170951843262e-01,-3.578695535659790039e+00,4.996458530426025391e+00,-2.009101867675781250e+02,-9.233388519287109375e+01,-1.721282348632812500e+02,5.500723266601562500e+01,-2.090467262268066406e+01,-9.345405578613281250e+01,-1.180770339965820312e+02,6.585875701904296875e+01,-2.980424880981445312e+01
6.727769970893859863e-01,1.000000000000000000e+00,6.942457556724548340e-01,-3.523818016052246094e+00,5.004713058471679688e+00,-2.008519287109375000e+02,-9.225956726074218750e+01,-1.720640716552734375e+02,5.500723266601562500e+01,-2.090467262268066406e+01,-9.345405578613281250e+01,-1.180768966674804688e+02,6.585889434814453125e+01,-2.980402946472167969e+01
6.773920059204101562e-01,1.000000000000000000e+00,6.293970942497253418e-01,-3.468917846679687500e+00,5.012968063354492188e+00,-2.007941894531250000e+02,-9.218566894531250000e+01,-1.720010833740234375e+02,5.500723266601562500e+01,-2.090476417541503906e+01,-9.345405578613281250e+01,-1.180768966674804688e+02,6.585875701904296875e+01,-2.980424880981445312e+01
6.789939999580383301e-01,1.000000000000000000e+00,5.646919012069702148e-01,-3.413904428482055664e+00,5.021121025085449219e+00,-2.007357177734375000e+02,-9.211214447021484375e+01,-1.719373168945312500e+02,5.500723266601562500e+01,-2.090467262268066406e+01,-9.345405578613281250e+01,-1.180768966674804688e+02,6.585875701904296875e+01,-2.980424880981445312e+01
6.830459833145141602e-01,1.000000000000000000e+00,4.997283816337585449e-01,-3.358823299407958984e+00,5.029131412506103516e+00,-2.006777343750000000e+02,-9.203824615478515625e+01,-1.718729705810546875e+02,5.500723266601562500e+01,-2.090467262268066406e+01,-9.345405578613281250e+01,-1.180768966674804688e+02,6.585875701904296875e+01,-2.980424880981445312e+01
6.869660019874572754e-01,1.000000000000000000e+00,4.347648322582244873e-01,-3.303787231445312500e+00,5.036898136138916016e+00,-2.006203155517578125e+02,-9.196366119384765625e+01,-1.718094177246093750e+02,5.500712203979492188e+01,-2.090467262268066406e+01,-9.345405578613281250e+01,-1.180768966674804688e+02,6.585875701904296875e+01,-2.980424880981445312e+01
6.927930116653442383e-01,1.000000000000000000e+00,3.698013424873352051e-01,-3.248706102371215820e+00,5.044583320617675781e+00,-2.005623168945312500e+02,-9.188992309570312500e+01,-1.717456207275390625e+02,5.500712203979492188e+01,-2.090467262268066406e+01,-9.345405578613281250e+01,-1.180768966674804688e+02,6.585875701904296875e+01,-2.980424880981445312e+01
6.969900131225585938e-01,1.000000000000000000e+00,3.046655654907226562e-01,-3.193624973297119141e+00,5.052554130554199219e+00,-2.005050201416015625e+02,-9.181645965576171875e+01,-1.716815948486328125e+02,5.500701522827148438e+01,-2.090476417541503906e+01,-9.345405578613281250e+01,-1.180766754150390625e+02,6.585875701904296875e+01,-2.980424880981445312e+01
6.989610195159912109e-01,1.000000000000000000e+00,2.394723892211914062e-01,-3.138407945632934570e+00,5.060625553131103516e+00,-2.004464416503906250e+02,-9.174260711669921875e+01,-1.716187896728515625e+02,5.500712203979492188e+01,-2.090467262268066406e+01,-9.345405578613281250e+01,-1.180768966674804688e+02,6.585875701904296875e+01,-2.980402946472167969e+01
7.048979997634887695e-01,1.000000000000000000e+00,1.741930842399597168e-01,-3.083371877670288086e+00,5.068676948547363281e+00,-2.003882904052734375e+02,-9.166834259033203125e+01,-1.715549011230468750e+02,5.500723266601562500e+01,-2.090467262268066406e+01,-9.345405578613281250e+01,-1.180768966674804688e+02,6.585875701904296875e+01,-2.980424880981445312e+01
7.091519832611083984e-01,1.000000000000000000e+00,1.090286076068878174e-01,-3.028358697891235352e+00,5.076667308807373047e+00,-2.003309783935546875e+02,-9.159460449218750000e+01,-1.714902801513671875e+02,5.500712203979492188e+01,-2.090467262268066406e+01,-9.345405578613281250e+01,-1.180768966674804688e+02,6.585875701904296875e+01,-2.980424880981445312e+01
7.110170125961303711e-01,1.000000000000000000e+00,4.386413842439651489e-02,-2.973254919052124023e+00,5.084515571594238281e+00,-2.002725677490234375e+02,-9.152098083496093750e+01,-1.714270629882812500e+02,5.500723266601562500e+01,-2.090458106994628906e+01,-9.345394897460937500e+01,-1.180768966674804688e+02,6.585875701904296875e+01,-2.980424880981445312e+01
7.150070071220397949e-01,1.000000000000000000e+00,-2.144386805593967438e-02,-2.918196201324462891e+00,5.092383861541748047e+00,-2.002148742675781250e+02,-9.144718170166015625e+01,-1.713635406494140625e+02,5.500723266601562500e+01,-2.090467262268066406e+01,-9.345405578613281250e+01,-1.180768966674804688e+02,6.585875701904296875e+01,-2.980424880981445312e+01
7.191339731216430664e-01,1.000000000000000000e+00,-8.634997904300689697e-02,-2.863205432891845703e+00,5.100435256958007812e+00,-2.001564178466796875e+02,-9.137302398681640625e+01,-1.712994995117187500e+02,5.500712203979492188e+01,-2.090467262268066406e+01,-9.345405578613281250e+01,-1.180768966674804688e+02,6.585875701904296875e+01,-2.980424880981445312e+01
7.229700088500976562e-01,1.000000000000000000e+00,-1.514857411384582520e-01,-2.808192014694213867e+00,5.108710289001464844e+00,-2.000983123779296875e+02,-9.129944610595703125e+01,-1.712365112304687500e+02,5.500723266601562500e+01,-2.090467262268066406e+01,-9.345405578613281250e+01,-1.180768966674804688e+02,6.585875701904296875e+01,-2.980424880981445312e+01
7.292739748954772949e-01,1.000000000000000000e+00,-2.167650461196899414e-01,-2.753178596496582031e+00,5.117025852203369141e+00,-2.000410156250000000e+02,-9.122571563720703125e+01,-1.711723632812500000e+02,5.500723266601562500e+01,-2.090467262268066406e+01,-9.345394897460937500e+01,-1.180770339965820312e+02,6.585875701904296875e+01,-2.980424880981445312e+01
7.309820055961608887e-01,1.000000000000000000e+00,-2.817572951316833496e-01,-2.698301315307617188e+00,5.125178813934326172e+00,-1.999826965332031250e+02,-9.115239715576171875e+01,-1.711080627441406250e+02,5.500712203979492188e+01,-2.090467262268066406e+01,-9.345405578613281250e+01,-1.180768966674804688e+02,6.585875701904296875e+01,-2.980424880981445312e+01
7.349810004234313965e-01,1.000000000000000000e+00,-3.468069136142730713e-01,-2.643468856811523438e+00,5.133291721343994141e+00,-1.999250793457031250e+02,-9.107866668701171875e+01,-1.710447845458984375e+02,5.500712203979492188e+01,-2.090476417541503906e+01,-9.345405578613281250e+01,-1.180766754150390625e+02,6.585875701904296875e+01,-2.980424880981445312e+01
7.395560145378112793e-01,1.000000000000000000e+00,-4.114259481430053711e-01,-2.588455677032470703e+00,5.141261577606201172e+00,-1.998666687011718750e+02,-9.100535583496093750e+01,-1.709804229736328125e+02,5.500723266601562500e+01,-2.090458106994628906e+01,-9.345405578613281250e+01,-1.180768966674804688e+02,6.585875701904296875e+01,-2.980424880981445312e+01
7.452499866485595703e-01,1.000000000000000000e+00,-4.762459397315979004e-01,-2.533396959304809570e+00,5.149068832397460938e+00,-1.998087158203125000e+02,-9.093129730224609375e+01,-1.709162750244140625e+02,5.500712203979492188e+01,-2.090467262268066406e+01,-9.345405578613281250e+01,-1.180768966674804688e+02,6.585875701904296875e+01,-2.980424880981445312e+01
7.469609975814819336e-01,1.000000000000000000e+00,-5.413529872894287109e-01,-2.478202581405639648e+00,5.156977653503417969e+00,-1.997513580322265625e+02,-9.085755920410156250e+01,-1.708534088134765625e+02,5.500712203979492188e+01,-2.090467262268066406e+01,-9.345405578613281250e+01,-1.180768966674804688e+02,6.585875701904296875e+01,-2.980424880981445312e+01
7.510629892349243164e-01,1.000000000000000000e+00,-6.064887642860412598e-01,-2.423189163208007812e+00,5.165151119232177734e+00,-1.996930389404296875e+02,-9.078366851806640625e+01,-1.707890472412109375e+02,5.500712203979492188e+01,-2.090467262268066406e+01,-9.345405578613281250e+01,-1.180770339965820312e+02,6.585875701904296875e+01,-2.980424880981445312e+01
7.549710273742675781e-01,1.000000000000000000e+00,-6.715384125709533691e-01,-2.368175745010375977e+00,5.173284053802490234e+00,-1.996353607177734375e+02,-9.071078491210937500e+01,-1.707253112792968750e+02,5.500712203979492188e+01,-2.090467262268066406e+01,-9.345405578613281250e+01,-1.180768966674804688e+02,6.585875701904296875e+01,-2.980424880981445312e+01
7.620139718055725098e-01,1.000000000000000000e+00,-6.715384125709533691e-01,-2.368175745010375977e+00,5.173284053802490234e+00,-1.996353607177734375e+02,-9.071078491210937500e+01,-1.707253112792968750e+02,5.500712203979492188e+01,-2.090467262268066406e+01,-9.345405578613281250e+01,-1.180766754150390625e+02,6.585875701904296875e+01,-2.980402946472167969e+01
7.635909914970397949e-01,1.000000000000000000e+00,-8.015515804290771484e-01,-2.258239746093750000e+00,5.189142704010009766e+00,-1.995195922851562500e+02,-9.056304168701171875e+01,-1.705970001220703125e+02,5.500712203979492188e+01,-2.090467262268066406e+01,-9.345405578613281250e+01,-1.180768966674804688e+02,6.585875701904296875e+01,-2.980424880981445312e+01
7.679489850997924805e-01,1.000000000000000000e+00,-8.664289712905883789e-01,-2.203135728836059570e+00,5.196868896484375000e+00,-1.994617004394531250e+02,-9.048904418945312500e+01,-1.705337829589843750e+02,5.500723266601562500e+01,-2.090467262268066406e+01,-9.345405578613281250e+01,-1.180768966674804688e+02,6.585875701904296875e+01,-2.980424880981445312e+01
7.709619998931884766e-01,1.000000000000000000e+00,-9.315360188484191895e-01,-2.148281097412109375e+00,5.204574584960937500e+00,-1.994034881591796875e+02,-9.041584014892578125e+01,-1.704705200195312500e+02,5.500712203979492188e+01,-2.090467262268066406e+01,-9.345405578613281250e+01,-1.180768966674804688e+02,6.585875701904296875e+01,-2.980424880981445312e+01
7.775819897651672363e-01,1.000000000000000000e+00,-9.315360188484191895e-01,-2.148281097412109375e+00,5.204574584960937500e+00,-1.994034881591796875e+02,-9.041584014892578125e+01,-1.704705200195312500e+02,5.500712203979492188e+01,-2.090467262268066406e+01,-9.345405578613281250e+01,-1.180768966674804688e+02,6.585875701904296875e+01,-2.980424880981445312e+01
7.800120115280151367e-01,1.000000000000000000e+00,-1.061175942420959473e+00,-2.038548469543457031e+00,5.220962047576904297e+00,-1.992874450683593750e+02,-9.026842498779296875e+01,-1.703424072265625000e+02,5.500701522827148438e+01,-2.090467262268066406e+01,-9.345405578613281250e+01,-1.180768966674804688e+02,6.585875701904296875e+01,-2.980424880981445312e+01
7.829689979553222656e-01,1.000000000000000000e+00,-1.126139521598815918e+00,-1.983648300170898438e+00,5.229135036468505859e+00,-1.992292938232421875e+02,-9.019441986083984375e+01,-1.702788085937500000e+02,5.500712203979492188e+01,-2.090467262268066406e+01,-9.345405578613281250e+01,-1.180770339965820312e+02,6.585889434814453125e+01,-2.980424880981445312e+01
7.894989848136901855e-01,1.000000000000000000e+00,-1.126139521598815918e+00,-1.983648300170898438e+00,5.229135036468505859e+00,-1.992292938232421875e+02,-9.019441986083984375e+01,-1.702788085937500000e+02,5.500712203979492188e+01,-2.090467262268066406e+01,-9.345405578613281250e+01,-1.180770339965820312e+02,6.585889434814453125e+01,-2.980424880981445312e+01
7.910320162773132324e-01,1.000000000000000000e+00,-1.255836963653564453e+00,-1.873780012130737305e+00,5.245299339294433594e+00,-1.991132659912109375e+02,-9.004726409912109375e+01,-1.701518402099609375e+02,5.500701522827148438e+01,-2.090467262268066406e+01,-9.345405578613281250e+01,-1.180768966674804688e+02,6.585889434814453125e+01,-2.980446624755859375e+01
7.960039973258972168e-01,1.000000000000000000e+00,-1.255836963653564453e+00,-1.873780012130737305e+00,5.245299339294433594e+00,-1.991132659912109375e+02,-9.004726409912109375e+01,-1.701518402099609375e+02,5.500701522827148438e+01,-2.090467262268066406e+01,-9.345405578613281250e+01,-1.180768966674804688e+02,6.585889434814453125e+01,-2.980446624755859375e+01
7.990199923515319824e-01,1.000000000000000000e+00,-1.385419487953186035e+00,-1.763821244239807129e+00,5.260934352874755859e+00,-1.989974822998046875e+02,-8.989963531494140625e+01,-1.700242156982421875e+02,5.500712203979492188e+01,-2.090467262268066406e+01,-9.345405578613281250e+01,-1.180768966674804688e+02,6.585875701904296875e+01,-2.980424880981445312e+01
8.030800223350524902e-01,1.000000000000000000e+00,-1.385419487953186035e+00,-1.763821244239807129e+00,5.260934352874755859e+00,-1.989974822998046875e+02,-8.989963531494140625e+01,-1.700242156982421875e+02,5.500712203979492188e+01,-2.090467262268066406e+01,-9.345405578613281250e+01,-1.180768966674804688e+02,6.585875701904296875e+01,-2.980424880981445312e+01
8.079869747161865234e-01,1.000000000000000000e+00,-1.450210809707641602e+00,-1.708762645721435547e+00,5.268904685974121094e+00,-1.989400177001953125e+02,-8.982595062255859375e+01,-1.699605255126953125e+02,5.500712203979492188e+01,-2.090467262268066406e+01,-9.345405578613281250e+01,-1.180768966674804688e+02,6.585875701904296875e+01,-2.980424880981445312e+01
8.139160275459289551e-01,1.000000000000000000e+00,-1.580022931098937988e+00,-1.598645448684692383e+00,5.285454273223876953e+00,-1.988238220214843750e+02,-8.967745971679687500e+01,-1.698322906494140625e+02,5.500723266601562500e+01,-2.090467262268066406e+01,-9.345405578613281250e+01,-1.180768966674804688e+02,6.585875701904296875e+01,-2.980424880981445312e+01
8.160120248794555664e-01,1.000000000000000000e+00,-1.645015239715576172e+00,-1.543654799461364746e+00,5.293607711791992188e+00,-1.987665100097656250e+02,-8.960409545898437500e+01,-1.697692871093750000e+02,5.500723266601562500e+01,-2.090467262268066406e+01,-9.345405578613281250e+01,-1.180768966674804688e+02,6.585875701904296875e+01,-2.980424880981445312e+01
8.190360069274902344e-01,1.000000000000000000e+00,-1.709835171699523926e+00,-1.488641500473022461e+00,5.301496505737304688e+00,-1.987079925537109375e+02,-8.953057861328125000e+01,-1.697052764892578125e+02,5.500712203979492188e+01,-2.090458106994628906e+01,-9.345405578613281250e+01,-1.180768966674804688e+02,6.585875701904296875e+01,-2.980402946472167969e+01
8.230599761009216309e-01,1.000000000000000000e+00,-1.709835171699523926e+00,-1.488641500473022461e+00,5.301496505737304688e+00,-1.987079925537109375e+02,-8.953057861328125000e+01,-1.697052764892578125e+02,5.500712203979492188e+01,-2.090458106994628906e+01,-9.345405578613281250e+01,-1.180768966674804688e+02,6.585875701904296875e+01,-2.980402946472167969e+01
8.270170092582702637e-01,1.000000000000000000e+00,-1.774626493453979492e+00,-1.433605551719665527e+00,5.309222221374511719e+00,-1.986500396728515625e+02,-8.945694732666015625e+01,-1.696412506103515625e+02,5.500712203979492188e+01,-2.090467262268066406e+01,-9.345405578613281250e+01,-1.180768966674804688e+02,6.585875701904296875e+01,-2.980424880981445312e+01
8.310229778289794922e-01,1.000000000000000000e+00,-1.839302897453308105e+00,-1.378592133522033691e+00,5.316988945007324219e+00,-1.985926361083984375e+02,-8.938225555419921875e+01,-1.695783843994140625e+02,5.500712203979492188e+01,-2.090467262268066406e+01,-9.345405578613281250e+01,-1.180768966674804688e+02,6.585875701904296875e+01,-2.980424880981445312e+01
8.350269794464111328e-01,1.000000000000000000e+00,-1.904094338417053223e+00,-1.323714613914489746e+00,5.325121879577636719e+00,-1.985343322753906250e+02,-8.930830383300781250e+01,-1.695138854980468750e+02,5.500712203979492188e+01,-2.090467262268066406e+01,-9.345405578613281250e+01,-1.180768966674804688e+02,6.585875701904296875e+01,-2.980424880981445312e+01
8.400030136108398438e-01,1.000000000000000000e+00,-1.968799471855163574e+00,-1.268859624862670898e+00,5.333457946777343750e+00,-1.984766998291015625e+02,-8.923477935791015625e+01,-1.694497375488281250e+02,5.500712203979492188e+01,-2.090467262268066406e+01,-9.345405578613281250e+01,-1.180768966674804688e+02,6.585875701904296875e+01,-2.980402946472167969e+01
8.430119752883911133e-01,1.000000000000000000e+00,-2.098410606384277344e+00,-1.159014105796813965e+00,5.350069046020507812e+00,-1.983600158691406250e+02,-8.908650970458984375e+01,-1.693233947753906250e+02,5.500712203979492188e+01,-2.090467262268066406e+01,-9.345405578613281250e+01,-1.180768966674804688e+02,6.585875701904296875e+01,-2.980402946472167969e+01
8.471149802207946777e-01,1.000000000000000000e+00,-2.098410606384277344e+00,-1.159014105796813965e+00,5.350069046020507812e+00,-1.983600158691406250e+02,-8.908650970458984375e+01,-1.693233947753906250e+02,5.500712203979492188e+01,-2.090467262268066406e+01,-9.345405578613281250e+01,-1.180768966674804688e+02,6.585875701904296875e+01,-2.980402946472167969e+01
8.510069847106933594e-01,1.000000000000000000e+00,-2.163316965103149414e+00,-1.103910088539123535e+00,5.358120441436767578e+00,-1.983023986816406250e+02,-8.901239776611328125e+01,-1.692591705322265625e+02,5.500712203979492188e+01,-2.090467262268066406e+01,-9.345405578613281250e+01,-1.180770339965820312e+02,6.585875701904296875e+01,-2.980424880981445312e+01
8.560010194778442383e-01,1.000000000000000000e+00,-2.228108167648315430e+00,-1.048828959465026855e+00,5.365826129913330078e+00,-1.982442474365234375e+02,-8.893930053710937500e+01,-1.691964416503906250e+02,5.500712203979492188e+01,-2.090467262268066406e+01,-9.345405578613281250e+01,-1.180768966674804688e+02,6.585860443115234375e+01,-2.980424880981445312e+01
8.599640130996704102e-01,1.000000000000000000e+00,-2.357719421386718750e+00,-9.390512108802795410e-01,5.381379604339599609e+00,-1.981284637451171875e+02,-8.879119110107421875e+01,-1.690688018798828125e+02,5.500712203979492188e+01,-2.090467262268066406e+01,-9.345405578613281250e+01,-1.180770339965820312e+02,6.585875701904296875e+01,-2.980424880981445312e+01
8.641059994697570801e-01,1.000000000000000000e+00,-2.422539472579956055e+00,-8.840605020523071289e-01,5.389451980590820312e+00,-1.980707397460937500e+02,-8.871729278564453125e+01,-1.690062866210937500e+02,5.500712203979492188e+01,-2.090458106994628906e+01,-9.345405578613281250e+01,-1.180768966674804688e+02,6.585875701904296875e+01,-2.980424880981445312e+01
8.670290112495422363e-01,1.000000000000000000e+00,-2.487445354461669922e+00,-8.291376829147338867e-01,5.397624969482421875e+00,-1.980131225585937500e+02,-8.864382171630859375e+01,-1.689424591064453125e+02,5.500723266601562500e+01,-2.090467262268066406e+01,-9.345405578613281250e+01,-1.180768966674804688e+02,6.585875701904296875e+01,-2.980424880981445312e+01
8.710370063781738281e-01,1.000000000000000000e+00,-2.487445354461669922e+00,-8.291376829147338867e-01,5.397624969482421875e+00,-1.980131225585937500e+02,-8.864382171630859375e+01,-1.689424591064453125e+02,5.500723266601562500e+01,-2.090467262268066406e+01,-9.345405578613281250e+01,-1.180768966674804688e+02,6.585875701904296875e+01,-2.980424880981445312e+01
8.750050067901611328e-01,1.000000000000000000e+00,-2.552121877670288086e+00,-7.741922140121459961e-01,5.405716896057128906e+00,-1.979550170898437500e+02,-8.857083129882812500e+01,-1.688785247802734375e+02,5.500712203979492188e+01,-2.090467262268066406e+01,-9.345405578613281250e+01,-1.180768966674804688e+02,6.585875701904296875e+01,-2.980402946472167969e+01
8.795359730720520020e-01,1.000000000000000000e+00,-2.681876897811889648e+00,-6.644823551177978516e-01,5.421270847320556641e+00,-1.978390808105468750e+02,-8.842261505126953125e+01,-1.687508850097656250e+02,5.500723266601562500e+01,-2.090467262268066406e+01,-9.345405578613281250e+01,-1.180768966674804688e+02,6.585875701904296875e+01,-2.980446624755859375e+01
8.830459713935852051e-01,1.000000000000000000e+00,-2.681876897811889648e+00,-6.644823551177978516e-01,5.421270847320556641e+00,-1.978390808105468750e+02,-8.842261505126953125e+01,-1.687508850097656250e+02,5.500723266601562500e+01,-2.090467262268066406e+01,-9.345405578613281250e+01,-1.180768966674804688e+02,6.585875701904296875e+01,-2.980446624755859375e+01
8.870279788970947266e-01,1.000000000000000000e+00,-2.746811628341674805e+00,-6.095821857452392578e-01,5.428977012634277344e+00,-1.977813873291015625e+02,-8.834909057617187500e+01,-1.686874084472656250e+02,5.500712203979492188e+01,-2.090467262268066406e+01,-9.345405578613281250e+01,-1.180768966674804688e+02,6.585875701904296875e+01,-2.980424880981445312e+01
8.910549879074096680e-01,1.000000000000000000e+00,-2.811861276626586914e+00,-5.548177957534790039e-01,5.437211036682128906e+00,-1.977236175537109375e+02,-8.827572631835937500e+01,-1.686244049072265625e+02,5.500712203979492188e+01,-2.090467262268066406e+01,-9.345405578613281250e+01,-1.180768966674804688e+02,6.585875701904296875e+01,-2.980402946472167969e+01
8.950340151786804199e-01,1.000000000000000000e+00,-2.876652479171752930e+00,-5.000533461570739746e-01,5.445526599884033203e+00,-1.976657257080078125e+02,-8.820145416259765625e+01,-1.685598449707031250e+02,5.500712203979492188e+01,-2.090458106994628906e+01,-9.345405578613281250e+01,-1.180768966674804688e+02,6.585875701904296875e+01,-2.980446624755859375e+01
8.990439772605895996e-01,1.000000000000000000e+00,-2.941443920135498047e+00,-4.454021155834197998e-01,5.453761100769042969e+00,-1.976077880859375000e+02,-8.812809753417968750e+01,-1.684963073730468750e+02,5.500723266601562500e+01,-2.090458106994628906e+01,-9.345405578613281250e+01,-1.180768966674804688e+02,6.585875701904296875e+01,-2.980446624755859375e+01
9.030560255050659180e-01,1.000000000000000000e+00,-3.006436109542846680e+00,-3.905924558639526367e-01,5.461914062500000000e+00,-1.975493164062500000e+02,-8.805451965332031250e+01,-1.684330902099609375e+02,5.500712203979492188e+01,-2.090467262268066406e+01,-9.345405578613281250e+01,-1.180768966674804688e+02,6.585875701904296875e+01,-2.980424880981445312e+01
9.072560071945190430e-01,1.000000000000000000e+00,-3.071370840072631836e+00,-3.357601463794708252e-01,5.469904422760009766e+00,-1.974917449951171875e+02,-8.798120880126953125e+01,-1.683687438964843750e+02,5.500712203979492188e+01,-2.090467262268066406e+01,-9.345405578613281250e+01,-1.180768966674804688e+02,6.585875701904296875e+01,-2.980424880981445312e+01
9.118739962577819824e-01,1.000000000000000000e+00,-3.136391639709472656e+00,-2.808147072792053223e-01,5.477691650390625000e+00,-1.974340057373046875e+02,-8.790682983398437500e+01,-1.683049163818359375e+02,5.500723266601562500e+01,-2.090467262268066406e+01,-9.345405578613281250e+01,-1.180768966674804688e+02,6.585875701904296875e+01,-2.980402946472167969e+01
9.160019755363464355e-01,1.000000000000000000e+00,-3.201384067535400391e+00,-2.258013933897018433e-01,5.485438346862792969e+00,-1.973760833740234375e+02,-8.783341979980468750e+01,-1.682418518066406250e+02,5.500712203979492188e+01,-2.090467262268066406e+01,-9.345405578613281250e+01,-1.180768966674804688e+02,6.585875701904296875e+01,-2.980424880981445312e+01
9.200479984283447266e-01,1.000000000000000000e+00,-3.266232490539550781e+00,-1.708333045244216919e-01,5.493448734283447266e+00,-1.973185577392578125e+02,-8.775983428955078125e+01,-1.681773529052734375e+02,5.500712203979492188e+01,-2.090467262268066406e+01,-9.345405578613281250e+01,-1.180768966674804688e+02,6.585875701904296875e+01,-2.980424880981445312e+01
9.230790138244628906e-01,1.000000000000000000e+00,-3.331196308135986328e+00,-1.160236373543739319e-01,5.501723766326904297e+00,-1.972600860595703125e+02,-8.768663787841796875e+01,-1.681142272949218750e+02,5.500701522827148438e+01,-2.090476417541503906e+01,-9.345405578613281250e+01,-1.180768966674804688e+02,6.585860443115234375e+01,-2.980424880981445312e+01
9.270269870758056641e-01,1.000000000000000000e+00,-3.395987272262573242e+00,-6.114608049392700195e-02,5.509775161743164062e+00,-1.972027282714843750e+02,-8.761257934570312500e+01,-1.680505981445312500e+02,5.500712203979492188e+01,-2.090458106994628906e+01,-9.345405578613281250e+01,-1.180768966674804688e+02,6.585875701904296875e+01,-2.980424880981445312e+01
9.313809871673583984e-01,1.000000000000000000e+00,-3.461036920547485352e+00,-6.110114511102437973e-03,5.517765998840332031e+00,-1.971450042724609375e+02,-8.753921508789062500e+01,-1.679861755371093750e+02,5.500712203979492188e+01,-2.090467262268066406e+01,-9.345394897460937500e+01,-1.180768966674804688e+02,6.585875701904296875e+01,-2.980424880981445312e+01
9.350799918174743652e-01,1.000000000000000000e+00,-3.526000738143920898e+00,4.874481260776519775e-02,5.525593280792236328e+00,-1.970873107910156250e+02,-8.746495056152343750e+01,-1.679234466552734375e+02,5.500712203979492188e+01,-2.090467262268066406e+01,-9.345405578613281250e+01,-1.180768966674804688e+02,6.585875701904296875e+01,-2.980424880981445312e+01
9.392510056495666504e-01,1.000000000000000000e+00,-3.590992927551269531e+00,1.036902591586112976e-01,5.533298969268798828e+00,-1.970299530029296875e+02,-8.739190673828125000e+01,-1.678597717285156250e+02,5.500712203979492188e+01,-2.090467262268066406e+01,-9.345405578613281250e+01,-1.180768966674804688e+02,6.585875701904296875e+01,-2.980424880981445312e+01
9.430090188980102539e-01,1.000000000000000000e+00,-3.655927419662475586e+00,1.584546715021133423e-01,5.541086196899414062e+00,-1.969712829589843750e+02,-8.731806182861328125e+01,-1.677956237792968750e+02,5.500712203979492188e+01,-2.090467262268066406e+01,-9.345405578613281250e+01,-1.180768966674804688e+02,6.585875701904296875e+01,-2.980424880981445312e+01
9.470909833908081055e-01,1.000000000000000000e+00,-3.720747709274291992e+00,2.134680002927780151e-01,5.549218654632568359e+00,-1.969139099121093750e+02,-8.724486541748046875e+01,-1.677327575683593750e+02,5.500723266601562500e+01,-2.090467262268066406e+01,-9.345405578613281250e+01,-1.180768966674804688e+02,6.585875701904296875e+01,-2.980424880981445312e+01
9.510210156440734863e-01,1.000000000000000000e+00,-3.785625219345092773e+00,2.681871354579925537e-01,5.557453632354736328e+00,-1.968561706542968750e+02,-8.717150115966796875e+01,-1.676685180664062500e+02,5.500712203979492188e+01,-2.090467262268066406e+01,-9.345405578613281250e+01,-1.180768966674804688e+02,6.585875701904296875e+01,-2.980424880981445312e+01
9.556490182876586914e-01,1.000000000000000000e+00,-3.850416421890258789e+00,3.230194449424743652e-01,5.565667152404785156e+00,-1.967980194091796875e+02,-8.709776306152343750e+01,-1.676045074462890625e+02,5.500712203979492188e+01,-2.090467262268066406e+01,-9.345405578613281250e+01,-1.180768966674804688e+02,6.585875701904296875e+01,-2.980424880981445312e+01
9.600189924240112305e-01,1.000000000000000000e+00,-3.915265083312988281e+00,3.779422640800476074e-01,5.573942661285400391e+00,-1.967402954101562500e+02,-8.702354431152343750e+01,-1.675412292480468750e+02,5.500712203979492188e+01,-2.090467262268066406e+01,-9.345405578613281250e+01,-1.180768966674804688e+02,6.585889434814453125e+01,-2.980424880981445312e+01
9.632380008697509766e-01,1.000000000000000000e+00,-3.980199813842773438e+00,4.329329729080200195e-01,5.582055091857910156e+00,-1.966818847656250000e+02,-8.695050048828125000e+01,-1.674776153564453125e+02,5.500712203979492188e+01,-2.090476417541503906e+01,-9.345405578613281250e+01,-1.180768966674804688e+02,6.585875701904296875e+01,-2.980424880981445312e+01
9.670900106430053711e-01,1.000000000000000000e+00,-4.045134544372558594e+00,4.879010021686553955e-01,5.589801311492919922e+00,-1.966242980957031250e+02,-8.687740325927734375e+01,-1.674137420654296875e+02,5.500712203979492188e+01,-2.090467262268066406e+01,-9.345405578613281250e+01,-1.180768966674804688e+02,6.585875701904296875e+01,-2.980424880981445312e+01
9.712550044059753418e-01,1.000000000000000000e+00,-4.109868526458740234e+00,5.428238511085510254e-01,5.597527503967285156e+00,-1.965667419433593750e+02,-8.680351257324218750e+01,-1.673504638671875000e+02,5.500712203979492188e+01,-2.090467262268066406e+01,-9.345405578613281250e+01,-1.180768966674804688e+02,6.585875701904296875e+01,-2.980424880981445312e+01
9.753159880638122559e-01,1.000000000000000000e+00,-4.174774646759033203e+00,5.977919101715087891e-01,5.605436325073242188e+00,-1.965086822509765625e+02,-8.672945404052734375e+01,-1.672866516113281250e+02,5.500701522827148438e+01,-2.090467262268066406e+01,-9.345405578613281250e+01,-1.180768966674804688e+02,6.585860443115234375e+01,-2.980424880981445312e+01
9.797530174255371094e-01,1.000000000000000000e+00,-4.239393711090087891e+00,6.525563597679138184e-01,5.613569259643554688e+00,-1.964512634277343750e+02,-8.665592956542968750e+01,-1.672229156494140625e+02,5.500712203979492188e+01,-2.090467262268066406e+01,-9.345405578613281250e+01,-1.180768966674804688e+02,6.585875701904296875e+01,-2.980424880981445312e+01
9.840120077133178711e-01,1.000000000000000000e+00,-4.304156303405761719e+00,7.075470685958862305e-01,5.621762752532958984e+00,-1.963927459716796875e+02,-8.658229827880859375e+01,-1.671599121093750000e+02,5.500723266601562500e+01,-2.090467262268066406e+01,-9.345405578613281250e+01,-1.180768966674804688e+02,6.585889434814453125e+01,-2.980424880981445312e+01
9.872990250587463379e-01,1.000000000000000000e+00,-4.369062423706054688e+00,7.625151276588439941e-01,5.629875183105468750e+00,-1.963353271484375000e+02,-8.650846099853515625e+01,-1.670956726074218750e+02,5.500712203979492188e+01,-2.090467262268066406e+01,-9.345405578613281250e+01,-1.180766754150390625e+02,6.585875701904296875e+01,-2.980424880981445312e+01
9.911990165710449219e-01,1.000000000000000000e+00,-4.433767318725585938e+00,8.173247575759887695e-01,5.637784004211425781e+00,-1.962775573730468750e+02,-8.643492889404296875e+01,-1.670317382812500000e+02,5.500712203979492188e+01,-2.090467262268066406e+01,-9.345405578613281250e+01,-1.180768966674804688e+02,6.585875701904296875e+01,-2.980424880981445312e+01
9.952219724655151367e-01,1.000000000000000000e+00,-4.498587608337402344e+00,8.720892071723937988e-01,5.645510196685791016e+00,-1.962198791503906250e+02,-8.636141204833984375e+01,-1.669687957763671875e+02,5.500723266601562500e+01,-2.090467262268066406e+01,-9.345422363281250000e+01,-1.180768966674804688e+02,6.585875701904296875e+01,-2.980424880981445312e+01
9.994329810142517090e-01,1.000000000000000000e+00,-4.563493728637695312e+00,9.268083572387695312e-01,5.653297424316406250e+00,-1.961622009277343750e+02,-8.628772735595703125e+01,-1.669047698974609375e+02,5.500723266601562500e+01,-2.090467262268066406e+01,-9.345405578613281250e+01,-1.180768966674804688e+02,6.585875701904296875e+01,-2.980402946472167969e+01
1.003985047340393066e+00,1.000000000000000000e+00,-4.628256320953369141e+00,9.814369082450866699e-01,5.661348819732666016e+00,-1.961043701171875000e+02,-8.621382904052734375e+01,-1.668414306640625000e+02,5.500712203979492188e+01,-2.090467262268066406e+01,-9.345405578613281250e+01,-1.180768966674804688e+02,6.585875701904296875e+01,-2.980424880981445312e+01
1.007946014404296875e+00,1.000000000000000000e+00,-4.692990303039550781e+00,1.036178827285766602e+00,5.669582843780517578e+00,-1.960468902587890625e+02,-8.613967132568359375e+01,-1.667784881591796875e+02,5.500712203979492188e+01,-2.090467262268066406e+01,-9.345405578613281250e+01,-1.180768966674804688e+02,6.585875701904296875e+01,-2.980402946472167969e+01
1.012065052986145020e+00,1.000000000000000000e+00,-4.757523059844970703e+00,1.091078996658325195e+00,5.677777290344238281e+00,-1.959886322021484375e+02,-8.606678771972656250e+01,-1.667142791748046875e+02,5.500723266601562500e+01,-2.090467262268066406e+01,-9.345405578613281250e+01,-1.180768966674804688e+02,6.585875701904296875e+01,-2.980424880981445312e+01
1.015521049499511719e+00,1.000000000000000000e+00,-4.821883678436279297e+00,1.145979046821594238e+00,5.686031818389892578e+00,-1.959303894042968750e+02,-8.599299621582031250e+01,-1.666504516601562500e+02,5.500712203979492188e+01,-2.090467262268066406e+01,-9.345394897460937500e+01,-1.180768966674804688e+02,6.585875701904296875e+01,-2.980424880981445312e+01
1.019996047019958496e+00,1.000000000000000000e+00,-4.886445522308349609e+00,1.200766205787658691e+00,5.693981170654296875e+00,-1.958726501464843750e+02,-8.591931152343750000e+01,-1.665876617431640625e+02,5.500712203979492188e+01,-2.090467262268066406e+01,-9.345405578613281250e+01,-1.180768966674804688e+02,6.585875701904296875e+01,-2.980424880981445312e+01
1.023514986038208008e+00,1.000000000000000000e+00,-4.951121807098388672e+00,1.255621075630187988e+00,5.701666831970214844e+00,-1.958147125244140625e+02,-8.584494018554687500e+01,-1.665225524902343750e+02,5.500723266601562500e+01,-2.090467262268066406e+01,-9.345405578613281250e+01,-1.180768966674804688e+02,6.585875701904296875e+01,-2.980424880981445312e+01
1.028190016746520996e+00,1.000000000000000000e+00,-5.015712261199951172e+00,1.310521245002746582e+00,5.709352016448974609e+00,-1.957571258544921875e+02,-8.577216339111328125e+01,-1.664594116210937500e+02,5.500734329223632812e+01,-2.090467262268066406e+01,-9.345405578613281250e+01,-1.180768966674804688e+02,6.585875701904296875e+01,-2.980424880981445312e+01
1.032196998596191406e+00,1.000000000000000000e+00,-5.080330848693847656e+00,1.365285634994506836e+00,5.717342853546142578e+00,-1.956987762451171875e+02,-8.569847869873046875e+01,-1.663962707519531250e+02,5.500723266601562500e+01,-2.090467262268066406e+01,-9.345405578613281250e+01,-1.180768966674804688e+02,6.585875701904296875e+01,-2.980424880981445312e+01
1.035552024841308594e+00,1.000000000000000000e+00,-5.144950389862060547e+00,1.420140624046325684e+00,5.725394248962402344e+00,-1.956412506103515625e+02,-8.562490844726562500e+01,-1.663320617675781250e+02,5.500712203979492188e+01,-2.090467262268066406e+01,-9.345405578613281250e+01,-1.180768966674804688e+02,6.585875701904296875e+01,-2.980424880981445312e+01
1.039994955062866211e+00,1.000000000000000000e+00,-5.209598064422607422e+00,1.474972844123840332e+00,5.733546733856201172e+00,-1.955836334228515625e+02,-8.555046844482421875e+01,-1.662686462402343750e+02,5.500701522827148438e+01,-2.090467262268066406e+01,-9.345405578613281250e+01,-1.180768966674804688e+02,6.585875701904296875e+01,-2.980446624755859375e+01
1.043493032455444336e+00,1.000000000000000000e+00,-5.273958683013916016e+00,1.529873013496398926e+00,5.741557598114013672e+00,-1.955255889892578125e+02,-8.547732543945312500e+01,-1.662050323486328125e+02,5.500712203979492188e+01,-2.090467262268066406e+01,-9.345405578613281250e+01,-1.180768966674804688e+02,6.585875701904296875e+01,-2.980402946472167969e+01
1.048012971878051758e+00,1.000000000000000000e+00,-5.338778495788574219e+00,1.584660172462463379e+00,5.749426364898681641e+00,-1.954681243896484375e+02,-8.540422821044921875e+01,-1.661408081054687500e+02,5.500712203979492188e+01,-2.090467262268066406e+01,-9.345405578613281250e+01,-1.180768966674804688e+02,6.585875701904296875e+01,-2.980424880981445312e+01
1.052301049232482910e+00,1.000000000000000000e+00,-5.403512477874755859e+00,1.639424443244934082e+00,5.757091522216796875e+00,-1.954101104736328125e+02,-8.533011627197265625e+01,-1.660776062011718750e+02,5.500712203979492188e+01,-2.090467262268066406e+01,-9.345405578613281250e+01,-1.180768966674804688e+02,6.585875701904296875e+01,-2.980424880981445312e+01
1.055755019187927246e+00,1.000000000000000000e+00,-5.468275070190429688e+00,1.694166302680969238e+00,5.764939308166503906e+00,-1.953524475097656250e+02,-8.525627136230468750e+01,-1.660144042968750000e+02,5.500712203979492188e+01,-2.090467262268066406e+01,-9.345405578613281250e+01,-1.180768966674804688e+02,6.585875701904296875e+01,-2.980424880981445312e+01
1.060225963592529297e+00,1.000000000000000000e+00,-5.532951354980468750e+00,1.748840212821960449e+00,5.773132801055908203e+00,-1.952949218750000000e+02,-8.518290710449218750e+01,-1.659502563476562500e+02,5.500723266601562500e+01,-2.090467262268066406e+01,-9.345405578613281250e+01,-1.180768966674804688e+02,6.585875701904296875e+01,-2.980424880981445312e+01
1.063730955123901367e+00,1.000000000000000000e+00,-5.597570419311523438e+00,1.803649783134460449e+00,5.781347274780273438e+00,-1.952365112304687500e+02,-8.510975646972656250e+01,-1.658870391845703125e+02,5.500712203979492188e+01,-2.090458106994628906e+01,-9.345405578613281250e+01,-1.180768966674804688e+02,6.585889434814453125e+01,-2.980424880981445312e+01
1.068079948425292969e+00,1.000000000000000000e+00,-5.662218570709228516e+00,1.858504772186279297e+00,5.789540767669677734e+00,-1.951794586181640625e+02,-8.503597259521484375e+01,-1.658232269287109375e+02,5.500723266601562500e+01,-2.090467262268066406e+01,-9.345405578613281250e+01,-1.180768966674804688e+02,6.585875701904296875e+01,-2.980424880981445312e+01
1.071961045265197754e+00,1.000000000000000000e+00,-5.726779937744140625e+00,1.913382291793823242e+00,5.797673225402832031e+00,-1.951213073730468750e+02,-8.496186828613281250e+01,-1.657595520019531250e+02,5.500712203979492188e+01,-2.090467262268066406e+01,-9.345405578613281250e+01,-1.180768966674804688e+02,6.585875701904296875e+01,-2.980424880981445312e+01
1.076642036437988281e+00,1.000000000000000000e+00,-5.791600227355957031e+00,1.968350410461425781e+00,5.805664062500000000e+00,-1.950632171630859375e+02,-8.488823699951171875e+01,-1.656966247558593750e+02,5.500723266601562500e+01,-2.090467262268066406e+01,-9.345405578613281250e+01,-1.180768966674804688e+02,6.585875701904296875e+01,-2.980424880981445312e+01
1.080770969390869141e+00,1.000000000000000000e+00,-5.856477260589599609e+00,2.023205280303955078e+00,5.813532352447509766e+00,-1.950055389404296875e+02,-8.481518554687500000e+01,-1.656333465576171875e+02,5.500712203979492188e+01,-2.090467262268066406e+01,-9.345405578613281250e+01,-1.180768966674804688e+02,6.585875701904296875e+01,-2.980424880981445312e+01
1.084233999252319336e+00,1.000000000000000000e+00,-5.921239852905273438e+00,2.077947139739990234e+00,5.821319580078125000e+00,-1.949472198486328125e+02,-8.474161529541015625e+01,-1.655693206787109375e+02,5.500712203979492188e+01,-2.090467262268066406e+01,-9.345405578613281250e+01,-1.180768966674804688e+02,6.585875701904296875e+01,-2.980424880981445312e+01
1.087932944297790527e+00,1.000000000000000000e+00,-5.986031055450439453e+00,2.132688760757446289e+00,5.829350471496582031e+00,-1.948900146484375000e+02,-8.466777038574218750e+01,-1.655061798095703125e+02,5.500723266601562500e+01,-2.090467262268066406e+01,-9.345405578613281250e+01,-1.180768966674804688e+02,6.585875701904296875e+01,-2.980424880981445312e+01
1.092113018035888672e+00,1.000000000000000000e+00,-6.050937175750732422e+00,2.187498569488525391e+00,5.837442398071289062e+00,-1.948320159912109375e+02,-8.459387207031250000e+01,-1.654422302246093750e+02,5.500723266601562500e+01,-2.090467262268066406e+01,-9.345405578613281250e+01,-1.180768966674804688e+02,6.585875701904296875e+01,-2.980424880981445312e+01
1.096274971961975098e+00,1.000000000000000000e+00,-6.115671157836914062e+00,2.242511749267578125e+00,5.845494270324707031e+00,-1.947740783691406250e+02,-8.452115631103515625e+01,-1.653779449462890625e+02,5.500712203979492188e+01,-2.090467262268066406e+01,-9.345405578613281250e+01,-1.180768966674804688e+02,6.585875701904296875e+01,-2.980424880981445312e+01
1.100767016410827637e+00,1.000000000000000000e+00,-6.180605888366699219e+00,2.297276258468627930e+00,5.853484153747558594e+00,-1.947163391113281250e+02,-8.444703674316406250e+01,-1.653154144287109375e+02,5.500723266601562500e+01,-2.090467262268066406e+01,-9.345405578613281250e+01,-1.180768966674804688e+02,6.585875701904296875e+01,-2.980424880981445312e+01
1.104766964912414551e+00,1.000000000000000000e+00,-6.245426177978515625e+00,2.351995468139648438e+00,5.861271381378173828e+00,-1.946584625244140625e+02,-8.437341308593750000e+01,-1.652515411376953125e+02,5.500712203979492188e+01,-2.090467262268066406e+01,-9.345405578613281250e+01,-1.180768966674804688e+02,6.585875701904296875e+01,-2.980424880981445312e+01
1.108291029930114746e+00,1.000000000000000000e+00,-6.310475349426269531e+00,2.406646728515625000e+00,5.869078636169433594e+00,-1.946013183593750000e+02,-8.429988861083984375e+01,-1.651879882812500000e+02,5.500701522827148438e+01,-2.090458106994628906e+01,-9.345405578613281250e+01,-1.180768966674804688e+02,6.585875701904296875e+01,-2.980424880981445312e+01
