rpiRobotics/ARM-21-02-F-19-Robot-Motion-Program/data_performance_abb/curve_2/curve_pose_opt2/greedy0.02/grad_result/real_from_sim/run_3.csv
timestamp,cmd_num,J1,J2,J3,J4,J5,J6
1.179000013507902622e-03,-1.000000000000000000e+00,9.512692451477050781e+00,-1.098585319519042969e+01,3.916270494461059570e+00,-2.087273254394531250e+02,-1.022812423706054688e+02,-1.807227172851562500e+02,5.500723266601562500e+01,-2.090458106994628906e+01,-9.345405578613281250e+01,-1.180768966674804688e+02,6.585875701904296875e+01,-2.980424880981445312e+01
5.410000216215848923e-03,1.000000000000000000e+00,9.512721061706542969e+00,-1.098589801788330078e+01,3.916209459304809570e+00,-2.087272186279296875e+02,-1.022812423706054688e+02,-1.807227172851562500e+02,5.500723266601562500e+01,-2.090467262268066406e+01,-9.345405578613281250e+01,-1.180768966674804688e+02,6.585875701904296875e+01,-2.980424880981445312e+01
1.053600013256072998e-02,1.000000000000000000e+00,9.512692451477050781e+00,-1.098589801788330078e+01,3.916209459304809570e+00,-2.087272186279296875e+02,-1.022812423706054688e+02,-1.807227172851562500e+02,5.500723266601562500e+01,-2.090458106994628906e+01,-9.345405578613281250e+01,-1.180768966674804688e+02,6.585875701904296875e+01,-2.980424880981445312e+01
1.429599989205598831e-02,1.000000000000000000e+00,9.512692451477050781e+00,-1.098585319519042969e+01,3.916209459304809570e+00,-2.087271118164062500e+02,-1.022810897827148438e+02,-1.807225799560546875e+02,5.500723266601562500e+01,-2.090467262268066406e+01,-9.345405578613281250e+01,-1.180768966674804688e+02,6.585875701904296875e+01,-2.980424880981445312e+01
3.959599882364273071e-02,1.000000000000000000e+00,9.512692451477050781e+00,-1.098589801788330078e+01,3.916331529617309570e+00,-2.087273254394531250e+02,-1.022810897827148438e+02,-1.807227172851562500e+02,5.500734329223632812e+01,-2.090467262268066406e+01,-9.345405578613281250e+01,-1.180768966674804688e+02,6.585875701904296875e+01,-2.980424880981445312e+01
4.202499985694885254e-02,1.000000000000000000e+00,9.512721061706542969e+00,-1.098589801788330078e+01,3.916270494461059570e+00,-2.087272186279296875e+02,-1.022810897827148438e+02,-1.807227172851562500e+02,5.500723266601562500e+01,-2.090467262268066406e+01,-9.345405578613281250e+01,-1.180768966674804688e+02,6.585875701904296875e+01,-2.980424880981445312e+01
4.332000017166137695e-02,1.000000000000000000e+00,9.512721061706542969e+00,-1.098589801788330078e+01,3.916270494461059570e+00,-2.087272186279296875e+02,-1.022810897827148438e+02,-1.807227172851562500e+02,5.500723266601562500e+01,-2.090467262268066406e+01,-9.345405578613281250e+01,-1.180768966674804688e+02,6.585875701904296875e+01,-2.980424880981445312e+01
4.598300158977508545e-02,1.000000000000000000e+00,9.512721061706542969e+00,-1.098589801788330078e+01,3.916270494461059570e+00,-2.087272186279296875e+02,-1.022810897827148438e+02,-1.807227172851562500e+02,5.500723266601562500e+01,-2.090467262268066406e+01,-9.345405578613281250e+01,-1.180768966674804688e+02,6.585875701904296875e+01,-2.980424880981445312e+01
4.729500040411949158e-02,1.000000000000000000e+00,9.512692451477050781e+00,-1.098589801788330078e+01,3.916209459304809570e+00,-2.087272186279296875e+02,-1.022812423706054688e+02,-1.807227172851562500e+02,5.500723266601562500e+01,-2.090467262268066406e+01,-9.345405578613281250e+01,-1.180768966674804688e+02,6.585875701904296875e+01,-2.980424880981445312e+01
5.003200098872184753e-02,1.000000000000000000e+00,9.512692451477050781e+00,-1.098585319519042969e+01,3.916209459304809570e+00,-2.087271118164062500e+02,-1.022810897827148438e+02,-1.807227172851562500e+02,5.500723266601562500e+01,-2.090467262268066406e+01,-9.345405578613281250e+01,-1.180768966674804688e+02,6.585875701904296875e+01,-2.980424880981445312e+01
5.139400064945220947e-02,1.000000000000000000e+00,9.512692451477050781e+00,-1.098585319519042969e+01,3.916209459304809570e+00,-2.087271118164062500e+02,-1.022810897827148438e+02,-1.807227172851562500e+02,5.500723266601562500e+01,-2.090467262268066406e+01,-9.345405578613281250e+01,-1.180768966674804688e+02,6.585875701904296875e+01,-2.980424880981445312e+01
5.463799834251403809e-02,1.000000000000000000e+00,9.512692451477050781e+00,-1.098585319519042969e+01,3.916209459304809570e+00,-2.087271118164062500e+02,-1.022810897827148438e+02,-1.807227172851562500e+02,5.500723266601562500e+01,-2.090467262268066406e+01,-9.345405578613281250e+01,-1.180768966674804688e+02,6.585875701904296875e+01,-2.980424880981445312e+01
6.215399876236915588e-02,1.000000000000000000e+00,9.511199951171875000e+00,-1.098512935638427734e+01,3.916209459304809570e+00,-2.087272186279296875e+02,-1.022809753417968750e+02,-1.807227172851562500e+02,5.500734329223632812e+01,-2.090467262268066406e+01,-9.345405578613281250e+01,-1.180768966674804688e+02,6.585875701904296875e+01,-2.980402946472167969e+01
6.430000066757202148e-02,1.000000000000000000e+00,9.511199951171875000e+00,-1.098512935638427734e+01,3.916209459304809570e+00,-2.087272186279296875e+02,-1.022809753417968750e+02,-1.807227172851562500e+02,5.500734329223632812e+01,-2.090467262268066406e+01,-9.345405578613281250e+01,-1.180768966674804688e+02,6.585875701904296875e+01,-2.980402946472167969e+01
6.666900217533111572e-02,1.000000000000000000e+00,9.509362220764160156e+00,-1.098402023315429688e+01,3.916270494461059570e+00,-2.087271118164062500e+02,-1.022808685302734375e+02,-1.807227172851562500e+02,5.500723266601562500e+01,-2.090467262268066406e+01,-9.345405578613281250e+01,-1.180768966674804688e+02,6.585875701904296875e+01,-2.980424880981445312e+01
6.802099943161010742e-02,1.000000000000000000e+00,9.509362220764160156e+00,-1.098402023315429688e+01,3.916270494461059570e+00,-2.087271118164062500e+02,-1.022808685302734375e+02,-1.807227172851562500e+02,5.500723266601562500e+01,-2.090467262268066406e+01,-9.345405578613281250e+01,-1.180768966674804688e+02,6.585875701904296875e+01,-2.980424880981445312e+01
7.099699974060058594e-02,1.000000000000000000e+00,9.506635665893554688e+00,-1.098225498199462891e+01,3.916331529617309570e+00,-2.087272186279296875e+02,-1.022808685302734375e+02,-1.807225799560546875e+02,5.500723266601562500e+01,-2.090458106994628906e+01,-9.345405578613281250e+01,-1.180768966674804688e+02,6.585875701904296875e+01,-2.980424880981445312e+01
7.224900275468826294e-02,1.000000000000000000e+00,9.506635665893554688e+00,-1.098225498199462891e+01,3.916331529617309570e+00,-2.087272186279296875e+02,-1.022808685302734375e+02,-1.807225799560546875e+02,5.500723266601562500e+01,-2.090458106994628906e+01,-9.345405578613281250e+01,-1.180768966674804688e+02,6.585875701904296875e+01,-2.980424880981445312e+01
7.550700008869171143e-02,1.000000000000000000e+00,9.503018379211425781e+00,-1.097951602935791016e+01,3.916433095932006836e+00,-2.087271118164062500e+02,-1.022801818847656250e+02,-1.807223815917968750e+02,5.500712203979492188e+01,-2.090467262268066406e+01,-9.345405578613281250e+01,-1.180768966674804688e+02,6.585875701904296875e+01,-2.980424880981445312e+01
7.789000123739242554e-02,1.000000000000000000e+00,9.503018379211425781e+00,-1.097951602935791016e+01,3.916433095932006836e+00,-2.087271118164062500e+02,-1.022801818847656250e+02,-1.807223815917968750e+02,5.500712203979492188e+01,-2.090467262268066406e+01,-9.345405578613281250e+01,-1.180768966674804688e+02,6.585875701904296875e+01,-2.980424880981445312e+01
8.046700060367584229e-02,1.000000000000000000e+00,9.498396873474121094e+00,-1.097560214996337891e+01,3.916738271713256836e+00,-2.087266387939453125e+02,-1.022790069580078125e+02,-1.807222442626953125e+02,5.500723266601562500e+01,-2.090467262268066406e+01,-9.345405578613281250e+01,-1.180768966674804688e+02,6.585875701904296875e+01,-2.980424880981445312e+01
8.317200094461441040e-02,1.000000000000000000e+00,9.492511749267578125e+00,-1.097037410736083984e+01,3.917083740234375000e+00,-2.087254333496093750e+02,-1.022768173217773438e+02,-1.807213745117187500e+02,5.500723266601562500e+01,-2.090467262268066406e+01,-9.345405578613281250e+01,-1.180768966674804688e+02,6.585875701904296875e+01,-2.980446624755859375e+01
8.443400263786315918e-02,1.000000000000000000e+00,9.492511749267578125e+00,-1.097037410736083984e+01,3.917083740234375000e+00,-2.087254333496093750e+02,-1.022768173217773438e+02,-1.807213745117187500e+02,5.500723266601562500e+01,-2.090467262268066406e+01,-9.345405578613281250e+01,-1.180768966674804688e+02,6.585875701904296875e+01,-2.980446624755859375e+01
8.794800192117691040e-02,1.000000000000000000e+00,9.485305786132812500e+00,-1.096324634552001953e+01,3.917653083801269531e+00,-2.087226867675781250e+02,-1.022735671997070312e+02,-1.807194061279296875e+02,5.500723266601562500e+01,-2.090467262268066406e+01,-9.345405578613281250e+01,-1.180768966674804688e+02,6.585889434814453125e+01,-2.980424880981445312e+01
9.093900024890899658e-02,1.000000000000000000e+00,9.476177215576171875e+00,-1.095398998260498047e+01,3.918364763259887695e+00,-2.087191162109375000e+02,-1.022689819335937500e+02,-1.807156677246093750e+02,5.500723266601562500e+01,-2.090467262268066406e+01,-9.345405578613281250e+01,-1.180768966674804688e+02,6.585875701904296875e+01,-2.980424880981445312e+01
9.598899632692337036e-02,1.000000000000000000e+00,9.476177215576171875e+00,-1.095398998260498047e+01,3.918364763259887695e+00,-2.087191162109375000e+02,-1.022689819335937500e+02,-1.807156677246093750e+02,5.500723266601562500e+01,-2.090467262268066406e+01,-9.345405578613281250e+01,-1.180768966674804688e+02,6.585875701904296875e+01,-2.980424880981445312e+01
1.000109985470771790e-01,1.000000000000000000e+00,9.450886726379394531e+00,-1.092821502685546875e+01,3.920662164688110352e+00,-2.087072448730468750e+02,-1.022536773681640625e+02,-1.807025909423828125e+02,5.500723266601562500e+01,-2.090467262268066406e+01,-9.345405578613281250e+01,-1.180768966674804688e+02,6.585875701904296875e+01,-2.980424880981445312e+01
1.030189990997314453e-01,1.000000000000000000e+00,9.434006690979003906e+00,-1.091126441955566406e+01,3.922390222549438477e+00,-2.086979370117187500e+02,-1.022417373657226562e+02,-1.806923370361328125e+02,5.500723266601562500e+01,-2.090467262268066406e+01,-9.345405578613281250e+01,-1.180768966674804688e+02,6.585875701904296875e+01,-2.980424880981445312e+01
1.070030033588409424e-01,1.000000000000000000e+00,9.434006690979003906e+00,-1.091126441955566406e+01,3.922390222549438477e+00,-2.086979370117187500e+02,-1.022417373657226562e+02,-1.806923370361328125e+02,5.500723266601562500e+01,-2.090467262268066406e+01,-9.345405578613281250e+01,-1.180768966674804688e+02,6.585875701904296875e+01,-2.980424880981445312e+01
1.120639964938163757e-01,1.000000000000000000e+00,9.414371490478515625e+00,-1.089207458496093750e+01,3.924525260925292969e+00,-2.086857147216796875e+02,-1.022269744873046875e+02,-1.806791839599609375e+02,5.500723266601562500e+01,-2.090467262268066406e+01,-9.345405578613281250e+01,-1.180768966674804688e+02,6.585875701904296875e+01,-2.980424880981445312e+01
1.150360032916069031e-01,1.000000000000000000e+00,9.368498802185058594e+00,-1.084910106658935547e+01,3.929689645767211914e+00,-2.086533203125000000e+02,-1.021874084472656250e+02,-1.806443328857421875e+02,5.500723266601562500e+01,-2.090467262268066406e+01,-9.345405578613281250e+01,-1.180768966674804688e+02,6.585875701904296875e+01,-2.980424880981445312e+01
1.190730035305023193e-01,1.000000000000000000e+00,9.368498802185058594e+00,-1.084910106658935547e+01,3.929689645767211914e+00,-2.086533203125000000e+02,-1.021874084472656250e+02,-1.806443328857421875e+02,5.500723266601562500e+01,-2.090467262268066406e+01,-9.345405578613281250e+01,-1.180768966674804688e+02,6.585875701904296875e+01,-2.980424880981445312e+01
1.229899972677230835e-01,1.000000000000000000e+00,9.341399192810058594e+00,-1.082567882537841797e+01,3.932942390441894531e+00,-2.086326293945312500e+02,-1.021615524291992188e+02,-1.806213378906250000e+02,5.500723266601562500e+01,-2.090467262268066406e+01,-9.345405578613281250e+01,-1.180768966674804688e+02,6.585875701904296875e+01,-2.980424880981445312e+01
1.270619928836822510e-01,1.000000000000000000e+00,9.311744689941406250e+00,-1.080064964294433594e+01,3.936480045318603516e+00,-2.086085968017578125e+02,-1.021309432983398438e+02,-1.805947570800781250e+02,5.500734329223632812e+01,-2.090467262268066406e+01,-9.345405578613281250e+01,-1.180768966674804688e+02,6.585875701904296875e+01,-2.980446624755859375e+01
1.310130059719085693e-01,1.000000000000000000e+00,9.279335021972656250e+00,-1.077360630035400391e+01,3.940343379974365234e+00,-2.085808410644531250e+02,-1.020940475463867188e+02,-1.805637512207031250e+02,5.500734329223632812e+01,-2.090467262268066406e+01,-9.345405578613281250e+01,-1.180768966674804688e+02,6.585875701904296875e+01,-2.980424880981445312e+01
1.356869935989379883e-01,1.000000000000000000e+00,9.244025230407714844e+00,-1.074489021301269531e+01,3.944470643997192383e+00,-2.085484466552734375e+02,-1.020531005859375000e+02,-1.805293731689453125e+02,5.500723266601562500e+01,-2.090458106994628906e+01,-9.345405578613281250e+01,-1.180768966674804688e+02,6.585875701904296875e+01,-2.980424880981445312e+01
1.400929987430572510e-01,1.000000000000000000e+00,9.206247329711914062e+00,-1.071404457092285156e+01,3.948902845382690430e+00,-2.085114135742187500e+02,-1.020092773437500000e+02,-1.804897003173828125e+02,5.500723266601562500e+01,-2.090467262268066406e+01,-9.345405578613281250e+01,-1.180768966674804688e+02,6.585875701904296875e+01,-2.980446624755859375e+01
1.439500004053115845e-01,1.000000000000000000e+00,9.165512084960937500e+00,-1.068184280395507812e+01,3.953863859176635742e+00,-2.084719696044921875e+02,-1.019606552124023438e+02,-1.804452209472656250e+02,5.500723266601562500e+01,-2.090467262268066406e+01,-9.345405578613281250e+01,-1.180768966674804688e+02,6.585875701904296875e+01,-2.980424880981445312e+01
1.480319947004318237e-01,1.000000000000000000e+00,9.122423171997070312e+00,-1.064787483215332031e+01,3.959251880645751953e+00,-2.084306182861328125e+02,-1.019054183959960938e+02,-1.803986358642578125e+02,5.500723266601562500e+01,-2.090467262268066406e+01,-9.345405578613281250e+01,-1.180768966674804688e+02,6.585875701904296875e+01,-2.980424880981445312e+01
1.515399962663650513e-01,1.000000000000000000e+00,9.077095031738281250e+00,-1.061227893829345703e+01,3.964944839477539062e+00,-2.083860015869140625e+02,-1.018482131958007812e+02,-1.803500061035156250e+02,5.500723266601562500e+01,-2.090467262268066406e+01,-9.345405578613281250e+01,-1.180768966674804688e+02,6.585875701904296875e+01,-2.980446624755859375e+01
1.560019999742507935e-01,1.000000000000000000e+00,9.029901504516601562e+00,-1.057475757598876953e+01,3.970841169357299805e+00,-2.083363800048828125e+02,-1.017884445190429688e+02,-1.802970428466796875e+02,5.500723266601562500e+01,-2.090467262268066406e+01,-9.345405578613281250e+01,-1.180768966674804688e+02,6.585875701904296875e+01,-2.980424880981445312e+01
1.604309976100921631e-01,1.000000000000000000e+00,8.980237960815429688e+00,-1.053542709350585938e+01,3.977204799652099609e+00,-2.082853851318359375e+02,-1.017244110107421875e+02,-1.802399444580078125e+02,5.500712203979492188e+01,-2.090467262268066406e+01,-9.345405578613281250e+01,-1.180768966674804688e+02,6.585875701904296875e+01,-2.980424880981445312e+01
1.639509946107864380e-01,1.000000000000000000e+00,8.873908042907714844e+00,-1.044920730590820312e+01,3.991030693054199219e+00,-2.081793670654296875e+02,-1.015892028808593750e+02,-1.801239776611328125e+02,5.500712203979492188e+01,-2.090467262268066406e+01,-9.345405578613281250e+01,-1.180768966674804688e+02,6.585875701904296875e+01,-2.980424880981445312e+01
1.679909974336624146e-01,1.000000000000000000e+00,8.873908042907714844e+00,-1.044920730590820312e+01,3.991030693054199219e+00,-2.081793670654296875e+02,-1.015892028808593750e+02,-1.801239776611328125e+02,5.500712203979492188e+01,-2.090467262268066406e+01,-9.345405578613281250e+01,-1.180768966674804688e+02,6.585875701904296875e+01,-2.980424880981445312e+01
1.710570007562637329e-01,1.000000000000000000e+00,8.817471504211425781e+00,-1.040227222442626953e+01,3.998532772064208984e+00,-2.081242675781250000e+02,-1.015201034545898438e+02,-1.800628051757812500e+02,5.500734329223632812e+01,-2.090467262268066406e+01,-9.345405578613281250e+01,-1.180768966674804688e+02,6.585875701904296875e+01,-2.980424880981445312e+01
1.753769963979721069e-01,1.000000000000000000e+00,8.759282112121582031e+00,-1.035334682464599609e+01,4.005974292755126953e+00,-2.080674285888671875e+02,-1.014485549926757812e+02,-1.799996032714843750e+02,5.500734329223632812e+01,-2.090467262268066406e+01,-9.345405578613281250e+01,-1.180768966674804688e+02,6.585875701904296875e+01,-2.980424880981445312e+01
1.790080070495605469e-01,1.000000000000000000e+00,8.699571609497070312e+00,-1.030286026000976562e+01,4.013578414916992188e+00,-2.080099639892578125e+02,-1.013765258789062500e+02,-1.799375457763671875e+02,5.500723266601562500e+01,-2.090467262268066406e+01,-9.345405578613281250e+01,-1.180768966674804688e+02,6.585875701904296875e+01,-2.980424880981445312e+01
1.847440004348754883e-01,1.000000000000000000e+00,8.638541221618652344e+00,-1.025110530853271484e+01,4.021345138549804688e+00,-2.079523315429687500e+02,-1.013028945922851562e+02,-1.798733215332031250e+02,5.500723266601562500e+01,-2.090467262268066406e+01,-9.345405578613281250e+01,-1.180768966674804688e+02,6.585875701904296875e+01,-2.980424880981445312e+01
1.874359995126724243e-01,1.000000000000000000e+00,8.513838768005371094e+00,-1.014506149291992188e+01,4.036634445190429688e+00,-2.078366546630859375e+02,-1.011563796997070312e+02,-1.797462921142578125e+02,5.500723266601562500e+01,-2.090467262268066406e+01,-9.345405578613281250e+01,-1.180768966674804688e+02,6.585875701904296875e+01,-2.980424880981445312e+01
1.912019997835159302e-01,1.000000000000000000e+00,8.513838768005371094e+00,-1.014506149291992188e+01,4.036634445190429688e+00,-2.078366546630859375e+02,-1.011563796997070312e+02,-1.797462921142578125e+02,5.500723266601562500e+01,-2.090467262268066406e+01,-9.345405578613281250e+01,-1.180768966674804688e+02,6.585875701904296875e+01,-2.980424880981445312e+01
1.950210034847259521e-01,1.000000000000000000e+00,8.450138092041015625e+00,-1.009122467041015625e+01,4.044564247131347656e+00,-2.077781982421875000e+02,-1.010821075439453125e+02,-1.796809997558593750e+02,5.500734329223632812e+01,-2.090467262268066406e+01,-9.345405578613281250e+01,-1.180768966674804688e+02,6.585875701904296875e+01,-2.980424880981445312e+01
1.997379958629608154e-01,1.000000000000000000e+00,8.385604858398437500e+00,-1.003625583648681641e+01,4.052676677703857422e+00,-2.077197875976562500e+02,-1.010072555541992188e+02,-1.796163635253906250e+02,5.500712203979492188e+01,-2.090458106994628906e+01,-9.345405578613281250e+01,-1.180768966674804688e+02,6.585875701904296875e+01,-2.980424880981445312e+01
2.039889991283416748e-01,1.000000000000000000e+00,8.320612907409667969e+00,-9.980903625488281250e+00,4.060849666595458984e+00,-2.076615295410156250e+02,-1.009330978393554688e+02,-1.795523376464843750e+02,5.500723266601562500e+01,-2.090467262268066406e+01,-9.345405578613281250e+01,-1.180768966674804688e+02,6.585875701904296875e+01,-2.980424880981445312e+01
2.086990028619766235e-01,1.000000000000000000e+00,8.255391120910644531e+00,-9.925302505493164062e+00,4.069063663482666016e+00,-2.076027832031250000e+02,-1.008593521118164062e+02,-1.794874420166015625e+02,5.500723266601562500e+01,-2.090467262268066406e+01,-9.345405578613281250e+01,-1.180768966674804688e+02,6.585875701904296875e+01,-2.980424880981445312e+01
2.129600048065185547e-01,1.000000000000000000e+00,8.123856544494628906e+00,-9.813940048217773438e+00,4.085349559783935547e+00,-2.074865875244140625e+02,-1.007098541259765625e+02,-1.793596038818359375e+02,5.500712203979492188e+01,-2.090458106994628906e+01,-9.345405578613281250e+01,-1.180768966674804688e+02,6.585875701904296875e+01,-2.980424880981445312e+01
2.156659960746765137e-01,1.000000000000000000e+00,8.058233261108398438e+00,-9.758247375488281250e+00,4.093299388885498047e+00,-2.074284973144531250e+02,-1.006354293823242188e+02,-1.792942962646484375e+02,5.500734329223632812e+01,-2.090467262268066406e+01,-9.345405578613281250e+01,-1.180768966674804688e+02,6.585875701904296875e+01,-2.980424880981445312e+01
2.199819982051849365e-01,1.000000000000000000e+00,8.058233261108398438e+00,-9.758247375488281250e+00,4.093299388885498047e+00,-2.074284973144531250e+02,-1.006354293823242188e+02,-1.792942962646484375e+02,5.500734329223632812e+01,-2.090467262268066406e+01,-9.345405578613281250e+01,-1.180768966674804688e+02,6.585875701904296875e+01,-2.980424880981445312e+01
2.237199991941452026e-01,1.000000000000000000e+00,7.992609024047851562e+00,-9.702759742736816406e+00,4.101472854614257812e+00,-2.073702850341796875e+02,-1.005613784790039062e+02,-1.792305603027343750e+02,5.500723266601562500e+01,-2.090467262268066406e+01,-9.345405578613281250e+01,-1.180768966674804688e+02,6.585875701904296875e+01,-2.980424880981445312e+01
2.280029952526092529e-01,1.000000000000000000e+00,7.927042484283447266e+00,-9.647089958190917969e+00,4.109849452972412109e+00,-2.073111877441406250e+02,-1.004869384765625000e+02,-1.791665954589843750e+02,5.500723266601562500e+01,-2.090467262268066406e+01,-9.345405578613281250e+01,-1.180768966674804688e+02,6.585875701904296875e+01,-2.980424880981445312e+01
2.326979935169219971e-01,1.000000000000000000e+00,7.861763954162597656e+00,-9.591420173645019531e+00,4.118246555328369141e+00,-2.072532348632812500e+02,-1.004119796752929688e+02,-1.791016998291015625e+02,5.500712203979492188e+01,-2.090467262268066406e+01,-9.345405578613281250e+01,-1.180768966674804688e+02,6.585875701904296875e+01,-2.980402946472167969e+01
2.369659990072250366e-01,1.000000000000000000e+00,7.796369075775146484e+00,-9.535999298095703125e+00,4.126562118530273438e+00,-2.071947784423828125e+02,-1.003378143310546875e+02,-1.790378723144531250e+02,5.500723266601562500e+01,-2.090467262268066406e+01,-9.345405578613281250e+01,-1.180768966674804688e+02,6.585875701904296875e+01,-2.980424880981445312e+01
2.409600019454956055e-01,1.000000000000000000e+00,7.731147766113281250e+00,-9.480850219726562500e+00,4.134613513946533203e+00,-2.071361999511718750e+02,-1.002635421752929688e+02,-1.789737243652343750e+02,5.500712203979492188e+01,-2.090458106994628906e+01,-9.345405578613281250e+01,-1.180768966674804688e+02,6.585875701904296875e+01,-2.980424880981445312e+01
2.450689971446990967e-01,1.000000000000000000e+00,7.665781974792480469e+00,-9.370461463928222656e+00,4.150249004364013672e+00,-2.070185852050781250e+02,-1.001137847900390625e+02,-1.788457641601562500e+02,5.500723266601562500e+01,-2.090467262268066406e+01,-9.345405578613281250e+01,-1.180770339965820312e+02,6.585875701904296875e+01,-2.980424880981445312e+01
2.484840005636215210e-01,1.000000000000000000e+00,7.535654067993164062e+00,-9.315606117248535156e+00,4.158279895782470703e+00,-2.069609527587890625e+02,-1.000403137207031250e+02,-1.787808532714843750e+02,5.500723266601562500e+01,-2.090467262268066406e+01,-9.345405578613281250e+01,-1.180768966674804688e+02,6.585875701904296875e+01,-2.980424880981445312e+01
2.520110011100769043e-01,1.000000000000000000e+00,7.535654067993164062e+00,-9.315606117248535156e+00,4.158279895782470703e+00,-2.069609527587890625e+02,-1.000403137207031250e+02,-1.787808532714843750e+02,5.500723266601562500e+01,-2.090467262268066406e+01,-9.345405578613281250e+01,-1.180768966674804688e+02,6.585875701904296875e+01,-2.980424880981445312e+01
2.567119896411895752e-01,1.000000000000000000e+00,7.470805644989013672e+00,-9.260502815246582031e+00,4.166615962982177734e+00,-2.069023284912109375e+02,-9.996594238281250000e+01,-1.787160339355468750e+02,5.500723266601562500e+01,-2.090467262268066406e+01,-9.345405578613281250e+01,-1.180768966674804688e+02,6.585875701904296875e+01,-2.980424880981445312e+01
2.600550055503845215e-01,1.000000000000000000e+00,7.406157970428466797e+00,-9.205444335937500000e+00,4.174708366394042969e+00,-2.068440704345703125e+02,-9.989140319824218750e+01,-1.786526184082031250e+02,5.500723266601562500e+01,-2.090467262268066406e+01,-9.345405578613281250e+01,-1.180768966674804688e+02,6.585875701904296875e+01,-2.980424880981445312e+01
2.647370100021362305e-01,1.000000000000000000e+00,7.276259422302246094e+00,-9.095235824584960938e+00,4.190363407135009766e+00,-2.067267150878906250e+02,-9.974227905273437500e+01,-1.785238342285156250e+02,5.500723266601562500e+01,-2.090467262268066406e+01,-9.345405578613281250e+01,-1.180768966674804688e+02,6.585875701904296875e+01,-2.980424880981445312e+01
2.679849863052368164e-01,1.000000000000000000e+00,7.276259422302246094e+00,-9.095235824584960938e+00,4.190363407135009766e+00,-2.067267150878906250e+02,-9.974227905273437500e+01,-1.785238342285156250e+02,5.500723266601562500e+01,-2.090467262268066406e+01,-9.345405578613281250e+01,-1.180768966674804688e+02,6.585875701904296875e+01,-2.980424880981445312e+01
2.723219990730285645e-01,1.000000000000000000e+00,7.211238861083984375e+00,-9.040404319763183594e+00,4.198028564453125000e+00,-2.066689300537109375e+02,-9.966795349121093750e+01,-1.784598846435546875e+02,5.500723266601562500e+01,-2.090467262268066406e+01,-9.345405578613281250e+01,-1.180768966674804688e+02,6.585875701904296875e+01,-2.980424880981445312e+01
2.757430076599121094e-01,1.000000000000000000e+00,7.146245956420898438e+00,-8.985526084899902344e+00,4.205835819244384766e+00,-2.066104583740234375e+02,-9.959314727783203125e+01,-1.783951873779296875e+02,5.500723266601562500e+01,-2.090458106994628906e+01,-9.345405578613281250e+01,-1.180768966674804688e+02,6.585875701904296875e+01,-2.980446624755859375e+01
2.806909978389739990e-01,1.000000000000000000e+00,7.081139087677001953e+00,-8.930513381958007812e+00,4.214029312133789062e+00,-2.065521545410156250e+02,-9.951808166503906250e+01,-1.783309020996093750e+02,5.500734329223632812e+01,-2.090467262268066406e+01,-9.345405578613281250e+01,-1.180768966674804688e+02,6.585875701904296875e+01,-2.980402946472167969e+01
2.840420007705688477e-01,1.000000000000000000e+00,7.016060829162597656e+00,-8.875613212585449219e+00,4.222243785858154297e+00,-2.064940490722656250e+02,-9.944407653808593750e+01,-1.782676239013671875e+02,5.500723266601562500e+01,-2.090467262268066406e+01,-9.345405578613281250e+01,-1.180768966674804688e+02,6.585875701904296875e+01,-2.980424880981445312e+01
2.879639863967895508e-01,1.000000000000000000e+00,6.950896263122558594e+00,-8.820577621459960938e+00,4.230356216430664062e+00,-2.064355926513671875e+02,-9.937012481689453125e+01,-1.782031250000000000e+02,5.500723266601562500e+01,-2.090467262268066406e+01,-9.345405578613281250e+01,-1.180768966674804688e+02,6.585875701904296875e+01,-2.980424880981445312e+01
2.920509874820709229e-01,1.000000000000000000e+00,6.885559558868408203e+00,-8.765563964843750000e+00,4.238590717315673828e+00,-2.063775482177734375e+02,-9.929532623291015625e+01,-1.781387634277343750e+02,5.500723266601562500e+01,-2.090467262268066406e+01,-9.345405578613281250e+01,-1.180768966674804688e+02,6.585875701904296875e+01,-2.980424880981445312e+01
2.965739965438842773e-01,1.000000000000000000e+00,6.820309162139892578e+00,-8.710573196411132812e+00,4.246621608734130859e+00,-2.063187103271484375e+02,-9.922042083740234375e+01,-1.780754241943359375e+02,5.500723266601562500e+01,-2.090467262268066406e+01,-9.345405578613281250e+01,-1.180768966674804688e+02,6.585875701904296875e+01,-2.980424880981445312e+01
3.000049889087677002e-01,1.000000000000000000e+00,6.754915237426757812e+00,-8.655559539794921875e+00,4.254489898681640625e+00,-2.062600250244140625e+02,-9.914646911621093750e+01,-1.780106658935546875e+02,5.500723266601562500e+01,-2.090467262268066406e+01,-9.345405578613281250e+01,-1.180768966674804688e+02,6.585875701904296875e+01,-2.980424880981445312e+01
3.046909868717193604e-01,1.000000000000000000e+00,6.689692974090576172e+00,-8.600433349609375000e+00,4.262399196624755859e+00,-2.062016143798828125e+02,-9.907246398925781250e+01,-1.779467773437500000e+02,5.500723266601562500e+01,-2.090467262268066406e+01,-9.345405578613281250e+01,-1.180768966674804688e+02,6.585875701904296875e+01,-2.980424880981445312e+01
3.081170022487640381e-01,1.000000000000000000e+00,6.624471187591552734e+00,-8.545035362243652344e+00,4.270552158355712891e+00,-2.061434631347656250e+02,-9.899793243408203125e+01,-1.778835754394531250e+02,5.500723266601562500e+01,-2.090467262268066406e+01,-9.345405578613281250e+01,-1.180768966674804688e+02,6.585875701904296875e+01,-2.980424880981445312e+01
3.121480047702789307e-01,1.000000000000000000e+00,6.558990478515625000e+00,-8.489705085754394531e+00,4.278725624084472656e+00,-2.060853118896484375e+02,-9.892317962646484375e+01,-1.778192749023437500e+02,5.500723266601562500e+01,-2.090458106994628906e+01,-9.345405578613281250e+01,-1.180768966674804688e+02,6.585889434814453125e+01,-2.980424880981445312e+01
3.159370124340057373e-01,1.000000000000000000e+00,6.493969917297363281e+00,-8.434193611145019531e+00,4.286919116973876953e+00,-2.060266723632812500e+02,-9.884896087646484375e+01,-1.777551269531250000e+02,5.500712203979492188e+01,-2.090458106994628906e+01,-9.345405578613281250e+01,-1.180768966674804688e+02,6.585875701904296875e+01,-2.980424880981445312e+01
3.204829990863800049e-01,1.000000000000000000e+00,6.428461074829101562e+00,-8.378795623779296875e+00,4.294990539550781250e+00,-2.059685821533203125e+02,-9.877522277832031250e+01,-1.776914367675781250e+02,5.500723266601562500e+01,-2.090467262268066406e+01,-9.345405578613281250e+01,-1.180768966674804688e+02,6.585875701904296875e+01,-2.980424880981445312e+01
3.242459893226623535e-01,1.000000000000000000e+00,6.362980842590332031e+00,-8.323194503784179688e+00,4.303062915802001953e+00,-2.059097900390625000e+02,-9.870037078857421875e+01,-1.776262664794921875e+02,5.500723266601562500e+01,-2.090467262268066406e+01,-9.345405578613281250e+01,-1.180768966674804688e+02,6.585875701904296875e+01,-2.980402946472167969e+01
3.289760053157806396e-01,1.000000000000000000e+00,6.297471523284912109e+00,-8.267546653747558594e+00,4.310971736907958984e+00,-2.058519592285156250e+02,-9.862609863281250000e+01,-1.775628051757812500e+02,5.500723266601562500e+01,-2.090467262268066406e+01,-9.345405578613281250e+01,-1.180768966674804688e+02,6.585875701904296875e+01,-2.980424880981445312e+01
3.321169912815093994e-01,1.000000000000000000e+00,6.231848239898681641e+00,-8.212148666381835938e+00,4.319002628326416016e+00,-2.057938690185546875e+02,-9.855177307128906250e+01,-1.774994659423828125e+02,5.500723266601562500e+01,-2.090458106994628906e+01,-9.345405578613281250e+01,-1.180768966674804688e+02,6.585875701904296875e+01,-2.980424880981445312e+01
3.361299932003021240e-01,1.000000000000000000e+00,6.166310310363769531e+00,-8.156570434570312500e+00,4.327298164367675781e+00,-2.057352294921875000e+02,-9.847825622558593750e+01,-1.774346313476562500e+02,5.500723266601562500e+01,-2.090467262268066406e+01,-9.345405578613281250e+01,-1.180768966674804688e+02,6.585860443115234375e+01,-2.980424880981445312e+01
3.401060104370117188e-01,1.000000000000000000e+00,6.100916385650634766e+00,-8.101103782653808594e+00,4.335735797882080078e+00,-2.056776123046875000e+02,-9.840329742431640625e+01,-1.773708038330078125e+02,5.500723266601562500e+01,-2.090458106994628906e+01,-9.345405578613281250e+01,-1.180768966674804688e+02,6.585889434814453125e+01,-2.980446624755859375e+01
3.448570072650909424e-01,1.000000000000000000e+00,6.035349845886230469e+00,-8.045660972595214844e+00,4.344051361083984375e+00,-2.056188659667968750e+02,-9.832961273193359375e+01,-1.773068695068359375e+02,5.500723266601562500e+01,-2.090467262268066406e+01,-9.345405578613281250e+01,-1.180768966674804688e+02,6.585875701904296875e+01,-2.980424880981445312e+01
3.482350111007690430e-01,1.000000000000000000e+00,5.969668865203857422e+00,-7.990172386169433594e+00,4.352285861968994141e+00,-2.055606079101562500e+02,-9.825502014160156250e+01,-1.772423095703125000e+02,5.500723266601562500e+01,-2.090467262268066406e+01,-9.345405578613281250e+01,-1.180768966674804688e+02,6.585875701904296875e+01,-2.980424880981445312e+01
3.522270023822784424e-01,1.000000000000000000e+00,5.903958797454833984e+00,-7.934841632843017578e+00,4.360499858856201172e+00,-2.055026702880859375e+02,-9.818144226074218750e+01,-1.771785583496093750e+02,5.500723266601562500e+01,-2.090467262268066406e+01,-9.345405578613281250e+01,-1.180768966674804688e+02,6.585875701904296875e+01,-2.980424880981445312e+01
3.559409976005554199e-01,1.000000000000000000e+00,5.838449478149414062e+00,-7.879624843597412109e+00,4.368469715118408203e+00,-2.054439392089843750e+02,-9.810685729980468750e+01,-1.771148681640625000e+02,5.500723266601562500e+01,-2.090467262268066406e+01,-9.345405578613281250e+01,-1.180768966674804688e+02,6.585875701904296875e+01,-2.980424880981445312e+01
3.602449893951416016e-01,1.000000000000000000e+00,5.772912025451660156e+00,-7.824226856231689453e+00,4.376379489898681641e+00,-2.053858947753906250e+02,-9.803311920166015625e+01,-1.770500335693359375e+02,5.500712203979492188e+01,-2.090467262268066406e+01,-9.345405578613281250e+01,-1.180768966674804688e+02,6.585875701904296875e+01,-2.980424880981445312e+01
3.629690110683441162e-01,1.000000000000000000e+00,5.707546710968017578e+00,-7.768919467926025391e+00,4.384369373321533203e+00,-2.053270111083984375e+02,-9.795858001708984375e+01,-1.769871063232421875e+02,5.500712203979492188e+01,-2.090458106994628906e+01,-9.345405578613281250e+01,-1.180768966674804688e+02,6.585875701904296875e+01,-2.980424880981445312e+01
3.669649958610534668e-01,1.000000000000000000e+00,5.642238616943359375e+00,-7.713612079620361328e+00,4.392400264739990234e+00,-2.052685852050781250e+02,-9.788468170166015625e+01,-1.769224700927734375e+02,5.500723266601562500e+01,-2.090467262268066406e+01,-9.345405578613281250e+01,-1.180768966674804688e+02,6.585875701904296875e+01,-2.980446624755859375e+01
3.726249933242797852e-01,1.000000000000000000e+00,5.577131748199462891e+00,-7.658259391784667969e+00,4.400390625000000000e+00,-2.052104949951171875e+02,-9.781020355224609375e+01,-1.768579101562500000e+02,5.500723266601562500e+01,-2.090467262268066406e+01,-9.345405578613281250e+01,-1.180768966674804688e+02,6.585875701904296875e+01,-2.980424880981445312e+01
3.775289952754974365e-01,1.000000000000000000e+00,5.512110233306884766e+00,-7.602951526641845703e+00,4.408320426940917969e+00,-2.051520690917968750e+02,-9.773641204833984375e+01,-1.767945709228515625e+02,5.500712203979492188e+01,-2.090467262268066406e+01,-9.345405578613281250e+01,-1.180768966674804688e+02,6.585875701904296875e+01,-2.980424880981445312e+01
3.803679943084716797e-01,1.000000000000000000e+00,5.446974754333496094e+00,-7.547825336456298828e+00,4.416270256042480469e+00,-2.050938720703125000e+02,-9.766278839111328125e+01,-1.767306213378906250e+02,5.500723266601562500e+01,-2.090476417541503906e+01,-9.345405578613281250e+01,-1.180768966674804688e+02,6.585875701904296875e+01,-2.980402946472167969e+01
3.829720020294189453e-01,1.000000000000000000e+00,5.381752967834472656e+00,-7.492811679840087891e+00,4.424199581146240234e+00,-2.050356140136718750e+02,-9.758851623535156250e+01,-1.766666717529296875e+02,5.500723266601562500e+01,-2.090467262268066406e+01,-9.345405578613281250e+01,-1.180768966674804688e+02,6.585875701904296875e+01,-2.980424880981445312e+01
3.870109915733337402e-01,1.000000000000000000e+00,5.316588401794433594e+00,-7.437639713287353516e+00,4.432372570037841797e+00,-2.049775238037109375e+02,-9.751408386230468750e+01,-1.766025695800781250e+02,5.500734329223632812e+01,-2.090467262268066406e+01,-9.345405578613281250e+01,-1.180768966674804688e+02,6.585875701904296875e+01,-2.980424880981445312e+01
3.928770124912261963e-01,1.000000000000000000e+00,5.251711368560791016e+00,-7.382558822631835938e+00,4.440668582916259766e+00,-2.049196319580078125e+02,-9.744029998779296875e+01,-1.765376739501953125e+02,5.500723266601562500e+01,-2.090467262268066406e+01,-9.345405578613281250e+01,-1.180768966674804688e+02,6.585875701904296875e+01,-2.980402946472167969e+01
3.964959979057312012e-01,1.000000000000000000e+00,5.186747550964355469e+00,-7.327386856079101562e+00,4.448882102966308594e+00,-2.048609008789062500e+02,-9.736656188964843750e+01,-1.764736633300781250e+02,5.500723266601562500e+01,-2.090467262268066406e+01,-9.345405578613281250e+01,-1.180768966674804688e+02,6.585875701904296875e+01,-2.980424880981445312e+01
4.005889892578125000e-01,1.000000000000000000e+00,5.121612071990966797e+00,-7.272419452667236328e+00,4.456994533538818359e+00,-2.048030090332031250e+02,-9.729234313964843750e+01,-1.764103851318359375e+02,5.500723266601562500e+01,-2.090467262268066406e+01,-9.345405578613281250e+01,-1.180768966674804688e+02,6.585875701904296875e+01,-2.980424880981445312e+01
4.029319882392883301e-01,1.000000000000000000e+00,5.056591033935546875e+00,-7.217518806457519531e+00,4.465066432952880859e+00,-2.047442321777343750e+02,-9.721807098388671875e+01,-1.763459014892578125e+02,5.500734329223632812e+01,-2.090476417541503906e+01,-9.345405578613281250e+01,-1.180768966674804688e+02,6.585875701904296875e+01,-2.980446624755859375e+01
4.069589972496032715e-01,1.000000000000000000e+00,4.991311550140380859e+00,-7.162686347961425781e+00,4.473158359527587891e+00,-2.046864471435546875e+02,-9.714385986328125000e+01,-1.762816772460937500e+02,5.500723266601562500e+01,-2.090467262268066406e+01,-9.345405578613281250e+01,-1.180768966674804688e+02,6.585875701904296875e+01,-2.980424880981445312e+01
4.109570086002349854e-01,1.000000000000000000e+00,4.926089763641357422e+00,-7.107831954956054688e+00,4.481108188629150391e+00,-2.046283874511718750e+02,-9.706991577148437500e+01,-1.762179260253906250e+02,5.500712203979492188e+01,-2.090467262268066406e+01,-9.345405578613281250e+01,-1.180768966674804688e+02,6.585875701904296875e+01,-2.980424880981445312e+01
4.149309992790222168e-01,1.000000000000000000e+00,4.860867500305175781e+00,-7.052501678466796875e+00,4.489037513732910156e+00,-2.045698699951171875e+02,-9.699575042724609375e+01,-1.761534423828125000e+02,5.500734329223632812e+01,-2.090467262268066406e+01,-9.345405578613281250e+01,-1.180768966674804688e+02,6.585875701904296875e+01,-2.980424880981445312e+01
4.189760088920593262e-01,1.000000000000000000e+00,4.795703411102294922e+00,-6.997306823730468750e+00,4.497210979461669922e+00,-2.045117187500000000e+02,-9.692126464843750000e+01,-1.760898895263671875e+02,5.500723266601562500e+01,-2.090467262268066406e+01,-9.345405578613281250e+01,-1.180768966674804688e+02,6.585875701904296875e+01,-2.980424880981445312e+01
4.229640066623687744e-01,1.000000000000000000e+00,4.730423927307128906e+00,-6.941977024078369141e+00,4.505302906036376953e+00,-2.044531860351562500e+02,-9.684731292724609375e+01,-1.760264129638671875e+02,5.500734329223632812e+01,-2.090467262268066406e+01,-9.345405578613281250e+01,-1.180768966674804688e+02,6.585860443115234375e+01,-2.980446624755859375e+01
4.287360012531280518e-01,1.000000000000000000e+00,4.665173530578613281e+00,-6.886918067932128906e+00,4.513313770294189453e+00,-2.043951416015625000e+02,-9.677330780029296875e+01,-1.759614410400390625e+02,5.500723266601562500e+01,-2.090467262268066406e+01,-9.345405578613281250e+01,-1.180768966674804688e+02,6.585875701904296875e+01,-2.980402946472167969e+01
4.330939948558807373e-01,1.000000000000000000e+00,4.599894046783447266e+00,-6.831723690032958984e+00,4.521263599395751953e+00,-2.043368835449218750e+02,-9.669909667968750000e+01,-1.758978271484375000e+02,5.500723266601562500e+01,-2.090467262268066406e+01,-9.345405578613281250e+01,-1.180768966674804688e+02,6.585875701904296875e+01,-2.980402946472167969e+01
4.349269866943359375e-01,1.000000000000000000e+00,4.534500122070312500e+00,-6.776461601257324219e+00,4.528969287872314453e+00,-2.042789001464843750e+02,-9.662397766113281250e+01,-1.758342132568359375e+02,5.500712203979492188e+01,-2.090467262268066406e+01,-9.345405578613281250e+01,-1.180768966674804688e+02,6.585875701904296875e+01,-2.980424880981445312e+01
4.410910010337829590e-01,1.000000000000000000e+00,4.469421863555908203e+00,-6.721267223358154297e+00,4.536858081817626953e+00,-2.042207946777343750e+02,-9.655097961425781250e+01,-1.757695922851562500e+02,5.500712203979492188e+01,-2.090467262268066406e+01,-9.345405578613281250e+01,-1.180768966674804688e+02,6.585875701904296875e+01,-2.980424880981445312e+01
4.429430067539215088e-01,1.000000000000000000e+00,4.404285907745361328e+00,-6.665823936462402344e+00,4.545031070709228516e+00,-2.041622772216796875e+02,-9.647655487060546875e+01,-1.757063903808593750e+02,5.500734329223632812e+01,-2.090467262268066406e+01,-9.345405578613281250e+01,-1.180768966674804688e+02,6.585875701904296875e+01,-2.980446624755859375e+01
4.470629990100860596e-01,1.000000000000000000e+00,4.339121341705322266e+00,-6.610630035400390625e+00,4.553428649902343750e+00,-2.041047058105468750e+02,-9.640265655517578125e+01,-1.756428375244140625e+02,5.500734329223632812e+01,-2.090467262268066406e+01,-9.345405578613281250e+01,-1.180768966674804688e+02,6.585875701904296875e+01,-2.980424880981445312e+01
4.530920088291168213e-01,1.000000000000000000e+00,4.274043083190917969e+00,-6.555299282073974609e+00,4.561723709106445312e+00,-2.040462951660156250e+02,-9.632753753662109375e+01,-1.755778045654296875e+02,5.500723266601562500e+01,-2.090467262268066406e+01,-9.345405578613281250e+01,-1.180768966674804688e+02,6.585875701904296875e+01,-2.980424880981445312e+01
4.550029933452606201e-01,1.000000000000000000e+00,4.208677768707275391e+00,-6.500014305114746094e+00,4.569897174835205078e+00,-2.039884033203125000e+02,-9.625433349609375000e+01,-1.755143890380859375e+02,5.500734329223632812e+01,-2.090476417541503906e+01,-9.345405578613281250e+01,-1.180768966674804688e+02,6.585875701904296875e+01,-2.980424880981445312e+01
4.589349925518035889e-01,1.000000000000000000e+00,4.143628120422363281e+00,-6.444752216339111328e+00,4.577989578247070312e+00,-2.039307250976562500e+02,-9.618032836914062500e+01,-1.754499053955078125e+02,5.500723266601562500e+01,-2.090467262268066406e+01,-9.345405578613281250e+01,-1.180768966674804688e+02,6.585875701904296875e+01,-2.980424880981445312e+01
4.650520086288452148e-01,1.000000000000000000e+00,4.078463554382324219e+00,-6.389512538909912109e+00,4.585918903350830078e+00,-2.038717803955078125e+02,-9.610616302490234375e+01,-1.753853454589843750e+02,5.500723266601562500e+01,-2.090467262268066406e+01,-9.345405578613281250e+01,-1.180768966674804688e+02,6.585875701904296875e+01,-2.980424880981445312e+01
4.669730067253112793e-01,1.000000000000000000e+00,4.013155460357666016e+00,-6.334341049194335938e+00,4.593888759613037109e+00,-2.038141632080078125e+02,-9.603136444091796875e+01,-1.753222045898437500e+02,5.500723266601562500e+01,-2.090467262268066406e+01,-9.345405578613281250e+01,-1.180768966674804688e+02,6.585875701904296875e+01,-2.980402946472167969e+01
4.709500074386596680e-01,1.000000000000000000e+00,3.947790145874023438e+00,-6.278943061828613281e+00,4.601980686187744141e+00,-2.037560119628906250e+02,-9.595768737792968750e+01,-1.752581024169921875e+02,5.500723266601562500e+01,-2.090467262268066406e+01,-9.345405578613281250e+01,-1.180768966674804688e+02,6.585875701904296875e+01,-2.980424880981445312e+01
4.771069884300231934e-01,1.000000000000000000e+00,3.882568120956420898e+00,-6.223726272583007812e+00,4.610215187072753906e+00,-2.036976318359375000e+02,-9.588405609130859375e+01,-1.751936798095703125e+02,5.500723266601562500e+01,-2.090467262268066406e+01,-9.345405578613281250e+01,-1.180768966674804688e+02,6.585875701904296875e+01,-2.980424880981445312e+01
4.789679944515228271e-01,1.000000000000000000e+00,3.817403793334960938e+00,-6.168440818786621094e+00,4.618611812591552734e+00,-2.036398468017578125e+02,-9.580957031250000000e+01,-1.751303405761718750e+02,5.500723266601562500e+01,-2.090467262268066406e+01,-9.345405578613281250e+01,-1.180768966674804688e+02,6.585875701904296875e+01,-2.980424880981445312e+01
4.829739928245544434e-01,1.000000000000000000e+00,3.752210617065429688e+00,-6.113020420074462891e+00,4.626765251159667969e+00,-2.035809173583984375e+02,-9.573503112792968750e+01,-1.750653076171875000e+02,5.500712203979492188e+01,-2.090467262268066406e+01,-9.345405578613281250e+01,-1.180768966674804688e+02,6.585875701904296875e+01,-2.980424880981445312e+01
4.879640042781829834e-01,1.000000000000000000e+00,3.687046289443969727e+00,-6.057780742645263672e+00,4.634857177734375000e+00,-2.035231323242187500e+02,-9.566123962402343750e+01,-1.750013580322265625e+02,5.500723266601562500e+01,-2.090467262268066406e+01,-9.345405578613281250e+01,-1.180768966674804688e+02,6.585875701904296875e+01,-2.980424880981445312e+01
4.909720122814178467e-01,1.000000000000000000e+00,3.622054100036621094e+00,-6.002654075622558594e+00,4.642644405364990234e+00,-2.034651336669921875e+02,-9.558756256103515625e+01,-1.749381561279296875e+02,5.500723266601562500e+01,-2.090467262268066406e+01,-9.345405578613281250e+01,-1.180768966674804688e+02,6.585875701904296875e+01,-2.980446624755859375e+01
4.981769919395446777e-01,1.000000000000000000e+00,3.622054100036621094e+00,-6.002654075622558594e+00,4.642644405364990234e+00,-2.034651336669921875e+02,-9.558756256103515625e+01,-1.749381561279296875e+02,5.500723266601562500e+01,-2.090476417541503906e+01,-9.345405578613281250e+01,-1.180768966674804688e+02,6.585875701904296875e+01,-2.980424880981445312e+01
4.995999932289123535e-01,1.000000000000000000e+00,3.491409301757812500e+00,-5.892378807067871094e+00,4.658462524414062500e+00,-2.033489990234375000e+02,-9.543886566162109375e+01,-1.748097076416015625e+02,5.500701522827148438e+01,-2.090467262268066406e+01,-9.345405578613281250e+01,-1.180768966674804688e+02,6.585875701904296875e+01,-2.980402946472167969e+01
5.040230154991149902e-01,1.000000000000000000e+00,3.426589250564575195e+00,-5.837275028228759766e+00,4.666798591613769531e+00,-2.032905731201171875e+02,-9.536496734619140625e+01,-1.747462921142578125e+02,5.500734329223632812e+01,-2.090476417541503906e+01,-9.345405578613281250e+01,-1.180768966674804688e+02,6.585875701904296875e+01,-2.980424880981445312e+01
5.071110129356384277e-01,1.000000000000000000e+00,3.361769199371337891e+00,-5.782306671142578125e+00,4.675073623657226562e+00,-2.032327423095703125e+02,-9.529133605957031250e+01,-1.746816711425781250e+02,5.500723266601562500e+01,-2.090467262268066406e+01,-9.345405578613281250e+01,-1.180768966674804688e+02,6.585875701904296875e+01,-2.980424880981445312e+01
5.109630227088928223e-01,1.000000000000000000e+00,3.296977758407592773e+00,-5.727180480957031250e+00,4.683287620544433594e+00,-2.031745452880859375e+02,-9.521679687500000000e+01,-1.746178588867187500e+02,5.500734329223632812e+01,-2.090467262268066406e+01,-9.345405578613281250e+01,-1.180768966674804688e+02,6.585875701904296875e+01,-2.980424880981445312e+01
5.173699855804443359e-01,1.000000000000000000e+00,3.296977758407592773e+00,-5.727180480957031250e+00,4.683287620544433594e+00,-2.031745452880859375e+02,-9.521679687500000000e+01,-1.746178588867187500e+02,5.500734329223632812e+01,-2.090467262268066406e+01,-9.345405578613281250e+01,-1.180768966674804688e+02,6.585875701904296875e+01,-2.980424880981445312e+01
5.199350118637084961e-01,1.000000000000000000e+00,3.166993618011474609e+00,-5.617334842681884766e+00,4.699105739593505859e+00,-2.030588073730468750e+02,-9.506863403320312500e+01,-1.744902191162109375e+02,5.500723266601562500e+01,-2.090458106994628906e+01,-9.345405578613281250e+01,-1.180768966674804688e+02,6.585875701904296875e+01,-2.980446624755859375e+01
5.238950252532958984e-01,1.000000000000000000e+00,3.101771593093872070e+00,-5.562208175659179688e+00,4.706892967224121094e+00,-2.030004577636718750e+02,-9.499526977539062500e+01,-1.744265441894531250e+02,5.500723266601562500e+01,-2.090467262268066406e+01,-9.345405578613281250e+01,-1.180766754150390625e+02,6.585875701904296875e+01,-2.980424880981445312e+01
5.269839763641357422e-01,1.000000000000000000e+00,3.036549806594848633e+00,-5.507081508636474609e+00,4.714801788330078125e+00,-2.029427185058593750e+02,-9.492083740234375000e+01,-1.743624572753906250e+02,5.500723266601562500e+01,-2.090467262268066406e+01,-9.345405578613281250e+01,-1.180768966674804688e+02,6.585875701904296875e+01,-2.980424880981445312e+01
5.320280194282531738e-01,1.000000000000000000e+00,3.036549806594848633e+00,-5.507081508636474609e+00,4.714801788330078125e+00,-2.029427185058593750e+02,-9.492083740234375000e+01,-1.743624572753906250e+02,5.500723266601562500e+01,-2.090467262268066406e+01,-9.345405578613281250e+01,-1.180768966674804688e+02,6.585875701904296875e+01,-2.980424880981445312e+01
5.354239940643310547e-01,1.000000000000000000e+00,2.906019687652587891e+00,-5.396964550018310547e+00,4.730965614318847656e+00,-2.028258819580078125e+02,-9.477299499511718750e+01,-1.742342681884765625e+02,5.500712203979492188e+01,-2.090467262268066406e+01,-9.345405578613281250e+01,-1.180768966674804688e+02,6.585875701904296875e+01,-2.980446624755859375e+01
5.399559736251831055e-01,1.000000000000000000e+00,2.840855121612548828e+00,-5.341770172119140625e+00,4.738996505737304688e+00,-2.027679443359375000e+02,-9.469915008544921875e+01,-1.741705322265625000e+02,5.500723266601562500e+01,-2.090467262268066406e+01,-9.345405578613281250e+01,-1.180768966674804688e+02,6.585875701904296875e+01,-2.980424880981445312e+01
5.429289937019348145e-01,1.000000000000000000e+00,2.775662183761596680e+00,-5.286598682403564453e+00,4.747047901153564453e+00,-2.027095794677734375e+02,-9.462488555908203125e+01,-1.741059112548828125e+02,5.500723266601562500e+01,-2.090467262268066406e+01,-9.345405578613281250e+01,-1.180768966674804688e+02,6.585875701904296875e+01,-2.980446624755859375e+01
5.479829907417297363e-01,1.000000000000000000e+00,2.775662183761596680e+00,-5.286598682403564453e+00,4.747047901153564453e+00,-2.027095794677734375e+02,-9.462488555908203125e+01,-1.741059112548828125e+02,5.500723266601562500e+01,-2.090467262268066406e+01,-9.345405578613281250e+01,-1.180768966674804688e+02,6.585875701904296875e+01,-2.980446624755859375e+01
5.509240031242370605e-01,1.000000000000000000e+00,2.645160913467407227e+00,-5.176209449768066406e+00,4.762845993041992188e+00,-2.025932769775390625e+02,-9.447703552246093750e+01,-1.739786834716796875e+02,5.500723266601562500e+01,-2.090467262268066406e+01,-9.345405578613281250e+01,-1.180768966674804688e+02,6.585875701904296875e+01,-2.980424880981445312e+01
5.559960007667541504e-01,1.000000000000000000e+00,2.645160913467407227e+00,-5.176209449768066406e+00,4.762845993041992188e+00,-2.025932769775390625e+02,-9.447703552246093750e+01,-1.739786834716796875e+02,5.500723266601562500e+01,-2.090467262268066406e+01,-9.345405578613281250e+01,-1.180768966674804688e+02,6.585875701904296875e+01,-2.980424880981445312e+01
5.600150227546691895e-01,1.000000000000000000e+00,2.514860630035400391e+00,-5.066092014312744141e+00,4.779416561126708984e+00,-2.024775543212890625e+02,-9.432908630371093750e+01,-1.738509826660156250e+02,5.500723266601562500e+01,-2.090467262268066406e+01,-9.345405578613281250e+01,-1.180768966674804688e+02,6.585875701904296875e+01,-2.980424880981445312e+01
5.629230141639709473e-01,1.000000000000000000e+00,2.449696302413940430e+00,-5.011169433593750000e+00,4.787732124328613281e+00,-2.024192352294921875e+02,-9.425545501708984375e+01,-1.737875671386718750e+02,5.500723266601562500e+01,-2.090467262268066406e+01,-9.345405578613281250e+01,-1.180768966674804688e+02,6.585875701904296875e+01,-2.980424880981445312e+01
5.680059790611267090e-01,1.000000000000000000e+00,2.449696302413940430e+00,-5.011169433593750000e+00,4.787732124328613281e+00,-2.024192352294921875e+02,-9.425545501708984375e+01,-1.737875671386718750e+02,5.500723266601562500e+01,-2.090467262268066406e+01,-9.345405578613281250e+01,-1.180768966674804688e+02,6.585875701904296875e+01,-2.980424880981445312e+01
5.717080235481262207e-01,1.000000000000000000e+00,2.319223880767822266e+00,-4.901052474975585938e+00,4.803895950317382812e+00,-2.023031463623046875e+02,-9.410793304443359375e+01,-1.736596679687500000e+02,5.500734329223632812e+01,-2.090467262268066406e+01,-9.345405578613281250e+01,-1.180768966674804688e+02,6.585875701904296875e+01,-2.980424880981445312e+01
5.760210156440734863e-01,1.000000000000000000e+00,2.254346370697021484e+00,-4.845971107482910156e+00,4.811723709106445312e+00,-2.022454681396484375e+02,-9.403376770019531250e+01,-1.735959320068359375e+02,5.500734329223632812e+01,-2.090467262268066406e+01,-9.345405578613281250e+01,-1.180768966674804688e+02,6.585875701904296875e+01,-2.980424880981445312e+01
5.789980292320251465e-01,1.000000000000000000e+00,2.189182043075561523e+00,-4.790776729583740234e+00,4.819632530212402344e+00,-2.021874237060546875e+02,-9.395992279052734375e+01,-1.735318298339843750e+02,5.500723266601562500e+01,-2.090467262268066406e+01,-9.345405578613281250e+01,-1.180768966674804688e+02,6.585875701904296875e+01,-2.980424880981445312e+01
5.839689970016479492e-01,1.000000000000000000e+00,2.189182043075561523e+00,-4.790776729583740234e+00,4.819632530212402344e+00,-2.021874237060546875e+02,-9.395992279052734375e+01,-1.735318298339843750e+02,5.500723266601562500e+01,-2.090467262268066406e+01,-9.345405578613281250e+01,-1.180768966674804688e+02,6.585875701904296875e+01,-2.980424880981445312e+01
5.869349837303161621e-01,1.000000000000000000e+00,2.058163881301879883e+00,-4.680342674255371094e+00,4.835959434509277344e+00,-2.020714874267578125e+02,-9.381282806396484375e+01,-1.734052276611328125e+02,5.500712203979492188e+01,-2.090467262268066406e+01,-9.345405578613281250e+01,-1.180768966674804688e+02,6.585875701904296875e+01,-2.980446624755859375e+01
5.920330286026000977e-01,1.000000000000000000e+00,2.058163881301879883e+00,-4.680342674255371094e+00,4.835959434509277344e+00,-2.020714874267578125e+02,-9.381282806396484375e+01,-1.734052276611328125e+02,5.500712203979492188e+01,-2.090467262268066406e+01,-9.345405578613281250e+01,-1.180768966674804688e+02,6.585875701904296875e+01,-2.980446624755859375e+01
5.957400202751159668e-01,1.000000000000000000e+00,1.927806377410888672e+00,-4.569999217987060547e+00,4.851980686187744141e+00,-2.019549713134765625e+02,-9.366445159912109375e+01,-1.732775115966796875e+02,5.500723266601562500e+01,-2.090467262268066406e+01,-9.345405578613281250e+01,-1.180768966674804688e+02,6.585875701904296875e+01,-2.980424880981445312e+01
6.023210287094116211e-01,1.000000000000000000e+00,1.927806377410888672e+00,-4.569999217987060547e+00,4.851980686187744141e+00,-2.019549713134765625e+02,-9.366445159912109375e+01,-1.732775115966796875e+02,5.500723266601562500e+01,-2.090476417541503906e+01,-9.345405578613281250e+01,-1.180768966674804688e+02,6.585875701904296875e+01,-2.980424880981445312e+01
6.037290096282958984e-01,1.000000000000000000e+00,1.797678232192993164e+00,-4.459814548492431641e+00,4.867473125457763672e+00,-2.018381500244140625e+02,-9.351718902587890625e+01,-1.731488800048828125e+02,5.500723266601562500e+01,-2.090467262268066406e+01,-9.345405578613281250e+01,-1.180768966674804688e+02,6.585875701904296875e+01,-2.980402946472167969e+01
6.102229952812194824e-01,1.000000000000000000e+00,1.797678232192993164e+00,-4.459814548492431641e+00,4.867473125457763672e+00,-2.018381500244140625e+02,-9.351718902587890625e+01,-1.731488800048828125e+02,5.500723266601562500e+01,-2.090467262268066406e+01,-9.345405578613281250e+01,-1.180768966674804688e+02,6.585875701904296875e+01,-2.980402946472167969e+01
6.116459965705871582e-01,1.000000000000000000e+00,1.667579054832458496e+00,-4.349583625793457031e+00,4.883820056915283203e+00,-2.017223510742187500e+02,-9.336901855468750000e+01,-1.730217742919921875e+02,5.500723266601562500e+01,-2.090467262268066406e+01,-9.345405578613281250e+01,-1.180768966674804688e+02,6.585875701904296875e+01,-2.980424880981445312e+01
6.160479784011840820e-01,1.000000000000000000e+00,1.667579054832458496e+00,-4.349583625793457031e+00,4.883820056915283203e+00,-2.017223510742187500e+02,-9.336901855468750000e+01,-1.730217742919921875e+02,5.500723266601562500e+01,-2.090467262268066406e+01,-9.345405578613281250e+01,-1.180768966674804688e+02,6.585875701904296875e+01,-2.980424880981445312e+01
6.197310090065002441e-01,1.000000000000000000e+00,1.537623286247253418e+00,-4.239624977111816406e+00,4.900370121002197266e+00,-2.016059570312500000e+02,-9.322138977050781250e+01,-1.728942260742187500e+02,5.500712203979492188e+01,-2.090467262268066406e+01,-9.345405578613281250e+01,-1.180768966674804688e+02,6.585875701904296875e+01,-2.980424880981445312e+01
6.239740252494812012e-01,1.000000000000000000e+00,1.537623286247253418e+00,-4.239624977111816406e+00,4.900370121002197266e+00,-2.016059570312500000e+02,-9.322138977050781250e+01,-1.728942260742187500e+02,5.500712203979492188e+01,-2.090467262268066406e+01,-9.345405578613281250e+01,-1.180768966674804688e+02,6.585875701904296875e+01,-2.980424880981445312e+01
6.280019879341125488e-01,1.000000000000000000e+00,1.408155560493469238e+00,-4.129756927490234375e+00,4.916432380676269531e+00,-2.014906005859375000e+02,-9.307353973388671875e+01,-1.727655639648437500e+02,5.500723266601562500e+01,-2.090458106994628906e+01,-9.345405578613281250e+01,-1.180768966674804688e+02,6.585875701904296875e+01,-2.980424880981445312e+01
6.347230076789855957e-01,1.000000000000000000e+00,1.408155560493469238e+00,-4.129756927490234375e+00,4.916432380676269531e+00,-2.014906005859375000e+02,-9.307353973388671875e+01,-1.727655639648437500e+02,5.500723266601562500e+01,-2.090467262268066406e+01,-9.345405578613281250e+01,-1.180768966674804688e+02,6.585875701904296875e+01,-2.980424880981445312e+01
6.361460089683532715e-01,1.000000000000000000e+00,1.278687834739685059e+00,-4.019390583038330078e+00,4.931945800781250000e+00,-2.013743438720703125e+02,-9.292585754394531250e+01,-1.726381378173828125e+02,5.500723266601562500e+01,-2.090467262268066406e+01,-9.345405578613281250e+01,-1.180768966674804688e+02,6.585875701904296875e+01,-2.980424880981445312e+01
6.400290131568908691e-01,1.000000000000000000e+00,1.213724255561828613e+00,-3.964173555374145508e+00,4.939997196197509766e+00,-2.013159942626953125e+02,-9.285063171386718750e+01,-1.725743408203125000e+02,5.500723266601562500e+01,-2.090467262268066406e+01,-9.345405578613281250e+01,-1.180768966674804688e+02,6.585875701904296875e+01,-2.980424880981445312e+01
6.440550088882446289e-01,1.000000000000000000e+00,1.213724255561828613e+00,-3.964173555374145508e+00,4.939997196197509766e+00,-2.013159942626953125e+02,-9.285063171386718750e+01,-1.725743408203125000e+02,5.500723266601562500e+01,-2.090467262268066406e+01,-9.345405578613281250e+01,-1.180768966674804688e+02,6.585875701904296875e+01,-2.980424880981445312e+01
6.479330062866210938e-01,1.000000000000000000e+00,1.148703336715698242e+00,-3.909092426300048828e+00,4.948210716247558594e+00,-2.012578887939453125e+02,-9.277742767333984375e+01,-1.725113372802734375e+02,5.500712203979492188e+01,-2.090467262268066406e+01,-9.345405578613281250e+01,-1.180768966674804688e+02,6.585875701904296875e+01,-2.980424880981445312e+01
6.520299911499023438e-01,1.000000000000000000e+00,1.083797216415405273e+00,-3.854079008102416992e+00,4.956445693969726562e+00,-2.012005157470703125e+02,-9.270363616943359375e+01,-1.724466857910156250e+02,5.500723266601562500e+01,-2.090467262268066406e+01,-9.345405578613281250e+01,-1.180768966674804688e+02,6.585875701904296875e+01,-2.980424880981445312e+01
6.554089784622192383e-01,1.000000000000000000e+00,1.018948554992675781e+00,-3.799156188964843750e+00,4.964578151702880859e+00,-2.011420593261718750e+02,-9.262968444824218750e+01,-1.723830261230468750e+02,5.500723266601562500e+01,-2.090467262268066406e+01,-9.345405578613281250e+01,-1.180768966674804688e+02,6.585875701904296875e+01,-2.980424880981445312e+01
6.589729785919189453e-01,1.000000000000000000e+00,9.540424346923828125e-01,-3.743984460830688477e+00,4.972548007965087891e+00,-2.010841674804687500e+02,-9.255477142333984375e+01,-1.723196716308593750e+02,5.500712203979492188e+01,-2.090467262268066406e+01,-9.345405578613281250e+01,-1.180768966674804688e+02,6.585875701904296875e+01,-2.980424880981445312e+01
6.640380024909973145e-01,1.000000000000000000e+00,8.891363143920898438e-01,-3.688790082931518555e+00,4.980233192443847656e+00,-2.010258636474609375e+02,-9.248114776611328125e+01,-1.722555236816406250e+02,5.500734329223632812e+01,-2.090467262268066406e+01,-9.345405578613281250e+01,-1.180768966674804688e+02,6.585875701904296875e+01,-2.980446624755859375e+01
6.677449941635131836e-01,1.000000000000000000e+00,8.243163228034973145e-01,-3.633799314498901367e+00,4.988162994384765625e+00,-2.009677581787109375e+02,-9.240767669677734375e+01,-1.721921234130859375e+02,5.500712203979492188e+01,-2.090467262268066406e+01,-9.345405578613281250e+01,-1.180768966674804688e+02,6.585875701904296875e+01,-2.980446624755859375e+01
6.719759702682495117e-01,1.000000000000000000e+00,7.593528032302856445e-01,-3.578763484954833984e+00,4.996376991271972656e+00,-2.009100799560546875e+02,-9.233373260498046875e+01,-1.721283569335937500e+02,5.500712203979492188e+01,-2.090467262268066406e+01,-9.345405578613281250e+01,-1.180768966674804688e+02,6.585875701904296875e+01,-2.980446624755859375e+01
6.750469803810119629e-01,1.000000000000000000e+00,6.942457556724548340e-01,-3.523863315582275391e+00,5.004713058471679688e+00,-2.008519287109375000e+02,-9.225919342041015625e+01,-1.720638122558593750e+02,5.500723266601562500e+01,-2.090467262268066406e+01,-9.345405578613281250e+01,-1.180768966674804688e+02,6.585875701904296875e+01,-2.980446624755859375e+01
6.794689893722534180e-01,1.000000000000000000e+00,6.293109655380249023e-01,-3.468917846679687500e+00,5.012968063354492188e+00,-2.007941894531250000e+02,-9.218546295166015625e+01,-1.720007324218750000e+02,5.500734329223632812e+01,-2.090467262268066406e+01,-9.345405578613281250e+01,-1.180768966674804688e+02,6.585875701904296875e+01,-2.980402946472167969e+01
6.830250024795532227e-01,1.000000000000000000e+00,5.646344423294067383e-01,-3.413904428482055664e+00,5.021121025085449219e+00,-2.007355804443359375e+02,-9.211187744140625000e+01,-1.719369812011718750e+02,5.500712203979492188e+01,-2.090476417541503906e+01,-9.345405578613281250e+01,-1.180768966674804688e+02,6.585875701904296875e+01,-2.980424880981445312e+01
6.871770024299621582e-01,1.000000000000000000e+00,4.997857511043548584e-01,-3.358913660049438477e+00,5.029131412506103516e+00,-2.006777343750000000e+02,-9.203797912597656250e+01,-1.718727722167968750e+02,5.500712203979492188e+01,-2.090467262268066406e+01,-9.345405578613281250e+01,-1.180768966674804688e+02,6.585875701904296875e+01,-2.980424880981445312e+01
6.916959881782531738e-01,1.000000000000000000e+00,4.349657893180847168e-01,-3.303900480270385742e+00,5.036918640136718750e+00,-2.006204376220703125e+02,-9.196376800537109375e+01,-1.718092803955078125e+02,5.500723266601562500e+01,-2.090467262268066406e+01,-9.345405578613281250e+01,-1.180768966674804688e+02,6.585875701904296875e+01,-2.980424880981445312e+01
6.959869861602783203e-01,1.000000000000000000e+00,3.700883984565734863e-01,-3.248932361602783203e+00,5.044624328613281250e+00,-2.005624237060546875e+02,-9.188970947265625000e+01,-1.717456207275390625e+02,5.500723266601562500e+01,-2.090467262268066406e+01,-9.345405578613281250e+01,-1.180768966674804688e+02,6.585875701904296875e+01,-2.980424880981445312e+01
6.991270184516906738e-01,1.000000000000000000e+00,3.050100505352020264e-01,-3.193805932998657227e+00,5.052635192871093750e+00,-2.005051269531250000e+02,-9.181645965576171875e+01,-1.716813812255859375e+02,5.500712203979492188e+01,-2.090467262268066406e+01,-9.345405578613281250e+01,-1.180768966674804688e+02,6.585875701904296875e+01,-2.980424880981445312e+01
7.035109996795654297e-01,1.000000000000000000e+00,2.396446317434310913e-01,-3.138498544692993164e+00,5.060747623443603516e+00,-2.004466552734375000e+02,-9.174250793457031250e+01,-1.716184539794921875e+02,5.500723266601562500e+01,-2.090467262268066406e+01,-9.345405578613281250e+01,-1.180768966674804688e+02,6.585875701904296875e+01,-2.980424880981445312e+01
7.079600095748901367e-01,1.000000000000000000e+00,1.741069704294204712e-01,-3.083326816558837891e+00,5.068778514862060547e+00,-2.003882904052734375e+02,-9.166807556152343750e+01,-1.715547027587890625e+02,5.500712203979492188e+01,-2.090476417541503906e+01,-9.345405578613281250e+01,-1.180770339965820312e+02,6.585875701904296875e+01,-2.980424880981445312e+01
7.120019793510437012e-01,1.000000000000000000e+00,1.088276579976081848e-01,-3.028358697891235352e+00,5.076768875122070312e+00,-2.003308105468750000e+02,-9.159433746337890625e+01,-1.714901428222656250e+02,5.500712203979492188e+01,-2.090467262268066406e+01,-9.345405578613281250e+01,-1.180768966674804688e+02,6.585875701904296875e+01,-2.980424880981445312e+01
7.159389853477478027e-01,1.000000000000000000e+00,4.380672425031661987e-02,-2.973458528518676758e+00,5.084617137908935547e+00,-2.002725677490234375e+02,-9.152098083496093750e+01,-1.714270629882812500e+02,5.500734329223632812e+01,-2.090467262268066406e+01,-9.345405578613281250e+01,-1.180768966674804688e+02,6.585875701904296875e+01,-2.980424880981445312e+01
7.199630141258239746e-01,1.000000000000000000e+00,-2.135774865746498108e-02,-2.918399810791015625e+00,5.092343330383300781e+00,-2.002150421142578125e+02,-9.144718170166015625e+01,-1.713631286621093750e+02,5.500723266601562500e+01,-2.090467262268066406e+01,-9.345405578613281250e+01,-1.180768966674804688e+02,6.585875701904296875e+01,-2.980424880981445312e+01
7.240059971809387207e-01,1.000000000000000000e+00,-8.634997904300689697e-02,-2.863409042358398438e+00,5.100394248962402344e+00,-2.001564178466796875e+02,-9.137281036376953125e+01,-1.712993011474609375e+02,5.500723266601562500e+01,-2.090467262268066406e+01,-9.345405578613281250e+01,-1.180768966674804688e+02,6.585875701904296875e+01,-2.980424880981445312e+01
7.279660105705261230e-01,1.000000000000000000e+00,-1.514283269643783569e-01,-2.808463573455810547e+00,5.108710289001464844e+00,-2.000983123779296875e+02,-9.129923248291015625e+01,-1.712366485595703125e+02,5.500712203979492188e+01,-2.090467262268066406e+01,-9.345405578613281250e+01,-1.180768966674804688e+02,6.585875701904296875e+01,-2.980424880981445312e+01
7.319710254669189453e-01,1.000000000000000000e+00,-2.165928035974502563e-01,-2.753450393676757812e+00,5.117046356201171875e+00,-2.000410156250000000e+02,-9.122571563720703125e+01,-1.711725616455078125e+02,5.500723266601562500e+01,-2.090467262268066406e+01,-9.345405578613281250e+01,-1.180768966674804688e+02,6.585875701904296875e+01,-2.980424880981445312e+01
7.360169887542724609e-01,1.000000000000000000e+00,-2.817572951316833496e-01,-2.698595285415649414e+00,5.125260353088378906e+00,-1.999826965332031250e+02,-9.115224456787109375e+01,-1.711080627441406250e+02,5.500734329223632812e+01,-2.090467262268066406e+01,-9.345405578613281250e+01,-1.180768966674804688e+02,6.585875701904296875e+01,-2.980424880981445312e+01
7.412599921226501465e-01,1.000000000000000000e+00,-3.466920852661132812e-01,-2.643627405166625977e+00,5.133332252502441406e+00,-1.999249725341796875e+02,-9.107850646972656250e+01,-1.710449218750000000e+02,5.500723266601562500e+01,-2.090467262268066406e+01,-9.345405578613281250e+01,-1.180768966674804688e+02,6.585875701904296875e+01,-2.980446624755859375e+01
7.437289953231811523e-01,1.000000000000000000e+00,-4.764468967914581299e-01,-2.533577919006347656e+00,5.149109363555908203e+00,-1.998087158203125000e+02,-9.093103027343750000e+01,-1.709165496826171875e+02,5.500734329223632812e+01,-2.090467262268066406e+01,-9.345405578613281250e+01,-1.180768966674804688e+02,6.585875701904296875e+01,-2.980424880981445312e+01
7.479739785194396973e-01,1.000000000000000000e+00,-4.764468967914581299e-01,-2.533577919006347656e+00,5.149109363555908203e+00,-1.998087158203125000e+02,-9.093103027343750000e+01,-1.709165496826171875e+02,5.500734329223632812e+01,-2.090467262268066406e+01,-9.345405578613281250e+01,-1.180768966674804688e+02,6.585875701904296875e+01,-2.980424880981445312e+01
7.513440251350402832e-01,1.000000000000000000e+00,-5.414104461669921875e-01,-2.478383779525756836e+00,5.157079696655273438e+00,-1.997513580322265625e+02,-9.085735321044921875e+01,-1.708537445068359375e+02,5.500723266601562500e+01,-2.090467262268066406e+01,-9.345405578613281250e+01,-1.180768966674804688e+02,6.585875701904296875e+01,-2.980424880981445312e+01
7.554349899291992188e-01,1.000000000000000000e+00,-6.064026355743408203e-01,-2.423415660858154297e+00,5.165212154388427734e+00,-1.996930389404296875e+02,-9.078356170654296875e+01,-1.707888336181640625e+02,5.500712203979492188e+01,-2.090458106994628906e+01,-9.345405578613281250e+01,-1.180770339965820312e+02,6.585875701904296875e+01,-2.980424880981445312e+01
7.600299715995788574e-01,1.000000000000000000e+00,-6.714810132980346680e-01,-2.368402242660522461e+00,5.173385620117187500e+00,-1.996353607177734375e+02,-9.071051788330078125e+01,-1.707250976562500000e+02,5.500723266601562500e+01,-2.090467262268066406e+01,-9.345405578613281250e+01,-1.180768966674804688e+02,6.585889434814453125e+01,-2.980402946472167969e+01
7.642210125923156738e-01,1.000000000000000000e+00,-7.364158034324645996e-01,-2.313547372817993164e+00,5.181335449218750000e+00,-1.995774688720703125e+02,-9.063699340820312500e+01,-1.706615600585937500e+02,5.500723266601562500e+01,-2.090467262268066406e+01,-9.345405578613281250e+01,-1.180766754150390625e+02,6.585875701904296875e+01,-2.980424880981445312e+01
7.674019932746887207e-01,1.000000000000000000e+00,-8.014080524444580078e-01,-2.258443593978881836e+00,5.189203739166259766e+00,-1.995195922851562500e+02,-9.056277465820312500e+01,-1.705970001220703125e+02,5.500723266601562500e+01,-2.090458106994628906e+01,-9.345405578613281250e+01,-1.180768966674804688e+02,6.585875701904296875e+01,-2.980424880981445312e+01
7.714800238609313965e-01,1.000000000000000000e+00,-8.663715720176696777e-01,-2.203271865844726562e+00,5.196929931640625000e+00,-1.994618530273437500e+02,-9.048893737792968750e+01,-1.705337829589843750e+02,5.500734329223632812e+01,-2.090467262268066406e+01,-9.345405578613281250e+01,-1.180768966674804688e+02,6.585875701904296875e+01,-2.980424880981445312e+01
7.759799957275390625e-01,1.000000000000000000e+00,-9.314785599708557129e-01,-2.148416757583618164e+00,5.204635620117187500e+00,-1.994034423828125000e+02,-9.041573333740234375e+01,-1.704702453613281250e+02,5.500723266601562500e+01,-2.090467262268066406e+01,-9.345405578613281250e+01,-1.180768966674804688e+02,6.585875701904296875e+01,-2.980424880981445312e+01
7.796900272369384766e-01,1.000000000000000000e+00,-9.963272809982299805e-01,-2.093493938446044922e+00,5.212707519531250000e+00,-1.993454589843750000e+02,-9.034242248535156250e+01,-1.704060211181640625e+02,5.500723266601562500e+01,-2.090476417541503906e+01,-9.345405578613281250e+01,-1.180768966674804688e+02,6.585875701904296875e+01,-2.980402946472167969e+01
7.839720249176025391e-01,1.000000000000000000e+00,-1.061118602752685547e+00,-2.038752079010009766e+00,5.221023082733154297e+00,-1.992874450683593750e+02,-9.026837158203125000e+01,-1.703424072265625000e+02,5.500723266601562500e+01,-2.090467262268066406e+01,-9.345405578613281250e+01,-1.180768966674804688e+02,6.585875701904296875e+01,-2.980424880981445312e+01
7.883139848709106445e-01,1.000000000000000000e+00,-1.126139521598815918e+00,-1.983806729316711426e+00,5.229196071624755859e+00,-1.992292938232421875e+02,-9.019415283203125000e+01,-1.702789306640625000e+02,5.500712203979492188e+01,-2.090467262268066406e+01,-9.345405578613281250e+01,-1.180768966674804688e+02,6.585875701904296875e+01,-2.980424880981445312e+01
7.921109795570373535e-01,1.000000000000000000e+00,-1.255578517913818359e+00,-1.873938441276550293e+00,5.245461940765380859e+00,-1.991134185791015625e+02,-9.004726409912109375e+01,-1.701515655517578125e+02,5.500712203979492188e+01,-2.090467262268066406e+01,-9.345405578613281250e+01,-1.180768966674804688e+02,6.585875701904296875e+01,-2.980424880981445312e+01
7.956969738006591797e-01,1.000000000000000000e+00,-1.255578517913818359e+00,-1.873938441276550293e+00,5.245461940765380859e+00,-1.991134185791015625e+02,-9.004726409912109375e+01,-1.701515655517578125e+02,5.500712203979492188e+01,-2.090467262268066406e+01,-9.345405578613281250e+01,-1.180768966674804688e+02,6.585875701904296875e+01,-2.980424880981445312e+01
7.999969720840454102e-01,1.000000000000000000e+00,-1.320255041122436523e+00,-1.818925023078918457e+00,5.253228664398193359e+00,-1.990559997558593750e+02,-8.997293853759765625e+01,-1.700878906250000000e+02,5.500723266601562500e+01,-2.090467262268066406e+01,-9.345405578613281250e+01,-1.180768966674804688e+02,6.585875701904296875e+01,-2.980402946472167969e+01
8.037189841270446777e-01,1.000000000000000000e+00,-1.385419487953186035e+00,-1.763889074325561523e+00,5.261035919189453125e+00,-1.989974822998046875e+02,-8.989936828613281250e+01,-1.700240783691406250e+02,5.500723266601562500e+01,-2.090467262268066406e+01,-9.345405578613281250e+01,-1.180768966674804688e+02,6.585875701904296875e+01,-2.980424880981445312e+01
8.079950213432312012e-01,1.000000000000000000e+00,-1.450153350830078125e+00,-1.708921074867248535e+00,5.269046783447265625e+00,-1.989400177001953125e+02,-8.982557678222656250e+01,-1.699605255126953125e+02,5.500723266601562500e+01,-2.090467262268066406e+01,-9.345405578613281250e+01,-1.180768966674804688e+02,6.585875701904296875e+01,-2.980402946472167969e+01
8.126230239868164062e-01,1.000000000000000000e+00,-1.514858484268188477e+00,-1.653771996498107910e+00,5.277342319488525391e+00,-1.988820190429687500e+02,-8.975221252441406250e+01,-1.698965911865234375e+02,5.500712203979492188e+01,-2.090467262268066406e+01,-9.345405578613281250e+01,-1.180768966674804688e+02,6.585875701904296875e+01,-2.980424880981445312e+01
8.180159926414489746e-01,1.000000000000000000e+00,-1.579908132553100586e+00,-1.598758578300476074e+00,5.285555839538574219e+00,-1.988238220214843750e+02,-8.967745971679687500e+01,-1.698321533203125000e+02,5.500723266601562500e+01,-2.090458106994628906e+01,-9.345405578613281250e+01,-1.180768966674804688e+02,6.585875701904296875e+01,-2.980424880981445312e+01
8.206359744071960449e-01,1.000000000000000000e+00,-1.709749102592468262e+00,-1.488799810409545898e+00,5.301577568054199219e+00,-1.987079925537109375e+02,-8.953020477294921875e+01,-1.697052764892578125e+02,5.500712203979492188e+01,-2.090467262268066406e+01,-9.345405578613281250e+01,-1.180768966674804688e+02,6.585875701904296875e+01,-2.980424880981445312e+01
8.240529894828796387e-01,1.000000000000000000e+00,-1.709749102592468262e+00,-1.488799810409545898e+00,5.301577568054199219e+00,-1.987079925537109375e+02,-8.953020477294921875e+01,-1.697052764892578125e+02,5.500712203979492188e+01,-2.090467262268066406e+01,-9.345405578613281250e+01,-1.180768966674804688e+02,6.585875701904296875e+01,-2.980424880981445312e+01
8.281769752502441406e-01,1.000000000000000000e+00,-1.774540424346923828e+00,-1.433673381805419922e+00,5.309364795684814453e+00,-1.986502075195312500e+02,-8.945662689208984375e+01,-1.696412506103515625e+02,5.500723266601562500e+01,-2.090467262268066406e+01,-9.345405578613281250e+01,-1.180768966674804688e+02,6.585875701904296875e+01,-2.980424880981445312e+01
8.324429988861083984e-01,1.000000000000000000e+00,-1.904151797294616699e+00,-1.323805093765258789e+00,5.325162410736083984e+00,-1.985341644287109375e+02,-8.930819702148437500e+01,-1.695136871337890625e+02,5.500712203979492188e+01,-2.090467262268066406e+01,-9.345405578613281250e+01,-1.180768966674804688e+02,6.585875701904296875e+01,-2.980446624755859375e+01
8.369020223617553711e-01,1.000000000000000000e+00,-1.904151797294616699e+00,-1.323805093765258789e+00,5.325162410736083984e+00,-1.985341644287109375e+02,-8.930819702148437500e+01,-1.695136871337890625e+02,5.500712203979492188e+01,-2.090467262268066406e+01,-9.345405578613281250e+01,-1.180768966674804688e+02,6.585875701904296875e+01,-2.980446624755859375e+01
8.409299850463867188e-01,1.000000000000000000e+00,-1.968799471855163574e+00,-1.268859624862670898e+00,5.333539485931396484e+00,-1.984766998291015625e+02,-8.923467254638671875e+01,-1.694496002197265625e+02,5.500712203979492188e+01,-2.090467262268066406e+01,-9.345405578613281250e+01,-1.180768966674804688e+02,6.585875701904296875e+01,-2.980424880981445312e+01
8.442400097846984863e-01,1.000000000000000000e+00,-2.033590555191040039e+00,-1.214072704315185547e+00,5.341956615447998047e+00,-1.984180297851562500e+02,-8.916104125976562500e+01,-1.693869934082031250e+02,5.500712203979492188e+01,-2.090467262268066406e+01,-9.345405578613281250e+01,-1.180768966674804688e+02,6.585875701904296875e+01,-2.980424880981445312e+01
8.480910062789916992e-01,1.000000000000000000e+00,-2.098410606384277344e+00,-1.159127235412597656e+00,5.350231647491455078e+00,-1.983599243164062500e+02,-8.908634948730468750e+01,-1.693232574462890625e+02,5.500712203979492188e+01,-2.090467262268066406e+01,-9.345405578613281250e+01,-1.180768966674804688e+02,6.585875701904296875e+01,-2.980424880981445312e+01
8.519340157508850098e-01,1.000000000000000000e+00,-2.163259506225585938e+00,-1.104000687599182129e+00,5.358283042907714844e+00,-1.983025054931640625e+02,-8.901239776611328125e+01,-1.692591705322265625e+02,5.500723266601562500e+01,-2.090467262268066406e+01,-9.345405578613281250e+01,-1.180768966674804688e+02,6.585875701904296875e+01,-2.980424880981445312e+01
8.562430143356323242e-01,1.000000000000000000e+00,-2.228108167648315430e+00,-1.048987388610839844e+00,5.365948200225830078e+00,-1.982442474365234375e+02,-8.893914031982421875e+01,-1.691965789794921875e+02,5.500723266601562500e+01,-2.090467262268066406e+01,-9.345405578613281250e+01,-1.180768966674804688e+02,6.585875701904296875e+01,-2.980424880981445312e+01
8.589100241661071777e-01,1.000000000000000000e+00,-2.292698383331298828e+00,-9.940193295478820801e-01,5.373572349548339844e+00,-1.981864624023437500e+02,-8.886573028564453125e+01,-1.691325683593750000e+02,5.500723266601562500e+01,-2.090467262268066406e+01,-9.345405578613281250e+01,-1.180768966674804688e+02,6.585875701904296875e+01,-2.980446624755859375e+01
8.641149997711181641e-01,1.000000000000000000e+00,-2.357575893402099609e+00,-9.390965104103088379e-01,5.381522178649902344e+00,-1.981283111572265625e+02,-8.879108428955078125e+01,-1.690686035156250000e+02,5.500723266601562500e+01,-2.090467262268066406e+01,-9.345405578613281250e+01,-1.180768966674804688e+02,6.585875701904296875e+01,-2.980424880981445312e+01
8.669120073318481445e-01,1.000000000000000000e+00,-2.422453165054321289e+00,-8.841736316680908203e-01,5.389614582061767578e+00,-1.980707397460937500e+02,-8.871729278564453125e+01,-1.690058135986328125e+02,5.500723266601562500e+01,-2.090467262268066406e+01,-9.345405578613281250e+01,-1.180768966674804688e+02,6.585875701904296875e+01,-2.980424880981445312e+01
8.709120154380798340e-01,1.000000000000000000e+00,-2.487302064895629883e+00,-8.293187022209167480e-01,5.397787570953369141e+00,-1.980132598876953125e+02,-8.864382171630859375e+01,-1.689421844482421875e+02,5.500723266601562500e+01,-2.090476417541503906e+01,-9.345405578613281250e+01,-1.180768966674804688e+02,6.585875701904296875e+01,-2.980424880981445312e+01
8.750550150871276855e-01,1.000000000000000000e+00,-2.552064657211303711e+00,-7.742375135421752930e-01,5.405900001525878906e+00,-1.979549102783203125e+02,-8.857051086425781250e+01,-1.688789215087890625e+02,5.500712203979492188e+01,-2.090467262268066406e+01,-9.345405578613281250e+01,-1.180768966674804688e+02,6.585875701904296875e+01,-2.980424880981445312e+01
8.789280056953430176e-01,1.000000000000000000e+00,-2.616970539093017578e+00,-7.192693948745727539e-01,5.413707256317138672e+00,-1.978974914550781250e+02,-8.849645996093750000e+01,-1.688151092529296875e+02,5.500723266601562500e+01,-2.090467262268066406e+01,-9.345405578613281250e+01,-1.180768966674804688e+02,6.585875701904296875e+01,-2.980402946472167969e+01
8.830310106277465820e-01,1.000000000000000000e+00,-2.681876897811889648e+00,-6.644597649574279785e-01,5.421433925628662109e+00,-1.978389739990234375e+02,-8.842256164550781250e+01,-1.687504730224609375e+02,5.500723266601562500e+01,-2.090467262268066406e+01,-9.345405578613281250e+01,-1.180768966674804688e+02,6.585875701904296875e+01,-2.980424880981445312e+01
8.884590268135070801e-01,1.000000000000000000e+00,-2.746725320816040039e+00,-6.096274852752685547e-01,5.429200649261474609e+00,-1.977814483642578125e+02,-8.834909057617187500e+01,-1.686868591308593750e+02,5.500723266601562500e+01,-2.090467262268066406e+01,-9.345405578613281250e+01,-1.180768966674804688e+02,6.585875701904296875e+01,-2.980402946472167969e+01
8.909839987754821777e-01,1.000000000000000000e+00,-2.811803817749023438e+00,-5.549083352088928223e-01,5.437373638153076172e+00,-1.977238311767578125e+02,-8.827561950683593750e+01,-1.686241302490234375e+02,5.500712203979492188e+01,-2.090467262268066406e+01,-9.345405578613281250e+01,-1.180768966674804688e+02,6.585875701904296875e+01,-2.980424880981445312e+01
8.949570059776306152e-01,1.000000000000000000e+00,-2.876652479171752930e+00,-5.000533461570739746e-01,5.445750236511230469e+00,-1.976656188964843750e+02,-8.820135498046875000e+01,-1.685599670410156250e+02,5.500712203979492188e+01,-2.090467262268066406e+01,-9.345405578613281250e+01,-1.180768966674804688e+02,6.585875701904296875e+01,-2.980424880981445312e+01
8.989589810371398926e-01,1.000000000000000000e+00,-2.941357612609863281e+00,-4.454021155834197998e-01,5.454045772552490234e+00,-1.976077880859375000e+02,-8.812793731689453125e+01,-1.684961700439453125e+02,5.500723266601562500e+01,-2.090467262268066406e+01,-9.345405578613281250e+01,-1.180768966674804688e+02,6.585875701904296875e+01,-2.980446624755859375e+01
9.029859900474548340e-01,1.000000000000000000e+00,-3.006292343139648438e+00,-3.906376957893371582e-01,5.462198734283447266e+00,-1.975495300292968750e+02,-8.805435943603515625e+01,-1.684326171875000000e+02,5.500723266601562500e+01,-2.090467262268066406e+01,-9.345405578613281250e+01,-1.180768966674804688e+02,6.585875701904296875e+01,-2.980424880981445312e+01
9.069390296936035156e-01,1.000000000000000000e+00,-3.071428298950195312e+00,-3.356696367263793945e-01,5.470209598541259766e+00,-1.974918518066406250e+02,-8.798100280761718750e+01,-1.683683929443359375e+02,5.500723266601562500e+01,-2.090458106994628906e+01,-9.345405578613281250e+01,-1.180768966674804688e+02,6.585875701904296875e+01,-2.980424880981445312e+01
9.126939773559570312e-01,1.000000000000000000e+00,-3.136449098587036133e+00,-2.807468175888061523e-01,5.478098392486572266e+00,-1.974338073730468750e+02,-8.790656280517578125e+01,-1.683047790527343750e+02,5.500723266601562500e+01,-2.090467262268066406e+01,-9.345405578613281250e+01,-1.180768966674804688e+02,6.585875701904296875e+01,-2.980424880981445312e+01
9.166740179061889648e-01,1.000000000000000000e+00,-3.201125383377075195e+00,-2.258466333150863647e-01,5.485804080963134766e+00,-1.973762207031250000e+02,-8.783351898193359375e+01,-1.682417144775390625e+02,5.500723266601562500e+01,-2.090467262268066406e+01,-9.345405578613281250e+01,-1.180768966674804688e+02,6.585875701904296875e+01,-2.980424880981445312e+01
9.189299941062927246e-01,1.000000000000000000e+00,-3.266117811203002930e+00,-1.708333045244216919e-01,5.493733406066894531e+00,-1.973184509277343750e+02,-8.775968170166015625e+01,-1.681772155761718750e+02,5.500723266601562500e+01,-2.090467262268066406e+01,-9.345405578613281250e+01,-1.180768966674804688e+02,6.585875701904296875e+01,-2.980402946472167969e+01
9.229090213775634766e-01,1.000000000000000000e+00,-3.331196308135986328e+00,-1.159557476639747620e-01,5.501906871795654297e+00,-1.972599182128906250e+02,-8.768642425537109375e+01,-1.681139526367187500e+02,5.500723266601562500e+01,-2.090467262268066406e+01,-9.345405578613281250e+01,-1.180768966674804688e+02,6.585875701904296875e+01,-2.980402946472167969e+01
9.269850254058837891e-01,1.000000000000000000e+00,-3.395901441574096680e+00,-6.114608049392700195e-02,5.509958267211914062e+00,-1.972027282714843750e+02,-8.761221313476562500e+01,-1.680503387451171875e+02,5.500723266601562500e+01,-2.090467262268066406e+01,-9.345405578613281250e+01,-1.180768966674804688e+02,6.585875701904296875e+01,-2.980424880981445312e+01
9.309800267219543457e-01,1.000000000000000000e+00,-3.460749864578247070e+00,-6.223264150321483612e-03,5.517969131469726562e+00,-1.971450042724609375e+02,-8.753911590576171875e+01,-1.679861755371093750e+02,5.500723266601562500e+01,-2.090467262268066406e+01,-9.345405578613281250e+01,-1.180768966674804688e+02,6.585875701904296875e+01,-2.980424880981445312e+01
9.369270205497741699e-01,1.000000000000000000e+00,-3.525828361511230469e+00,4.883533343672752380e-02,5.525837421417236328e+00,-1.970870513916015625e+02,-8.746531677246093750e+01,-1.679231109619140625e+02,5.500723266601562500e+01,-2.090467262268066406e+01,-9.345405578613281250e+01,-1.180768966674804688e+02,6.585875701904296875e+01,-2.980424880981445312e+01
9.407160282135009766e-01,1.000000000000000000e+00,-3.590992927551269531e+00,1.036902591586112976e-01,5.533604145050048828e+00,-1.970298461914062500e+02,-8.739153289794921875e+01,-1.678595581054687500e+02,5.500712203979492188e+01,-2.090467262268066406e+01,-9.345405578613281250e+01,-1.180768966674804688e+02,6.585875701904296875e+01,-2.980424880981445312e+01
9.429090023040771484e-01,1.000000000000000000e+00,-3.655784130096435547e+00,1.584546715021133423e-01,5.541390895843505859e+00,-1.969713745117187500e+02,-8.731763458251953125e+01,-1.677954864501953125e+02,5.500723266601562500e+01,-2.090467262268066406e+01,-9.345405578613281250e+01,-1.180768966674804688e+02,6.585875701904296875e+01,-2.980424880981445312e+01
9.469050168991088867e-01,1.000000000000000000e+00,-3.720632791519165039e+00,2.133095860481262207e-01,5.549381256103515625e+00,-1.969139099121093750e+02,-8.724469757080078125e+01,-1.677326202392578125e+02,5.500712203979492188e+01,-2.090467262268066406e+01,-9.345405578613281250e+01,-1.180768966674804688e+02,6.585875701904296875e+01,-2.980446624755859375e+01
9.531329870223999023e-01,1.000000000000000000e+00,-3.785567522048950195e+00,2.680739760398864746e-01,5.557656764984130859e+00,-1.968561248779296875e+02,-8.717123413085937500e+01,-1.676682434082031250e+02,5.500723266601562500e+01,-2.090467262268066406e+01,-9.345405578613281250e+01,-1.180768966674804688e+02,6.585875701904296875e+01,-2.980424880981445312e+01
9.549210071563720703e-01,1.000000000000000000e+00,-3.850330114364624023e+00,3.229062855243682861e-01,5.565890789031982422e+00,-1.967979736328125000e+02,-8.709764862060546875e+01,-1.676042327880859375e+02,5.500723266601562500e+01,-2.090467262268066406e+01,-9.345405578613281250e+01,-1.180768966674804688e+02,6.585875701904296875e+01,-2.980424880981445312e+01
9.610249996185302734e-01,1.000000000000000000e+00,-3.915265083312988281e+00,3.778064846992492676e-01,5.574145793914794922e+00,-1.967401885986328125e+02,-8.702354431152343750e+01,-1.675412292480468750e+02,5.500723266601562500e+01,-2.090467262268066406e+01,-9.345405578613281250e+01,-1.180768966674804688e+02,6.585875701904296875e+01,-2.980424880981445312e+01
9.630129933357238770e-01,1.000000000000000000e+00,-3.980142593383789062e+00,4.328198134899139404e-01,5.582258224487304688e+00,-1.966817779541015625e+02,-8.695018005371093750e+01,-1.674771423339843750e+02,5.500723266601562500e+01,-2.090467262268066406e+01,-9.345405578613281250e+01,-1.180768966674804688e+02,6.585875701904296875e+01,-2.980424880981445312e+01
9.669479727745056152e-01,1.000000000000000000e+00,-4.044991493225097656e+00,4.878783822059631348e-01,5.590106010437011719e+00,-1.966241607666015625e+02,-8.687725067138671875e+01,-1.674135437011718750e+02,5.500723266601562500e+01,-2.090467262268066406e+01,-9.345405578613281250e+01,-1.180768966674804688e+02,6.585875701904296875e+01,-2.980424880981445312e+01
9.709079861640930176e-01,1.000000000000000000e+00,-4.109782695770263672e+00,5.427333712577819824e-01,5.597771167755126953e+00,-1.965667419433593750e+02,-8.680356597900390625e+01,-1.673503265380859375e+02,5.500723266601562500e+01,-2.090467262268066406e+01,-9.345405578613281250e+01,-1.180768966674804688e+02,6.585875701904296875e+01,-2.980424880981445312e+01
9.749799966812133789e-01,1.000000000000000000e+00,-4.174545288085937500e+00,5.976787805557250977e-01,5.605741024017333984e+00,-1.965087890625000000e+02,-8.672945404052734375e+01,-1.672861022949218750e+02,5.500723266601562500e+01,-2.090467262268066406e+01,-9.345405578613281250e+01,-1.180768966674804688e+02,6.585875701904296875e+01,-2.980402946472167969e+01
9.789350032806396484e-01,1.000000000000000000e+00,-4.239307880401611328e+00,6.524884700775146484e-01,5.613853931427001953e+00,-1.964511718750000000e+02,-8.665566253662109375e+01,-1.672223663330078125e+02,5.500723266601562500e+01,-2.090467262268066406e+01,-9.345405578613281250e+01,-1.180768966674804688e+02,6.585875701904296875e+01,-2.980424880981445312e+01
9.850490093231201172e-01,1.000000000000000000e+00,-4.304069995880126953e+00,7.073207497596740723e-01,5.622047424316406250e+00,-1.963927459716796875e+02,-8.658219146728515625e+01,-1.671599121093750000e+02,5.500723266601562500e+01,-2.090467262268066406e+01,-9.345405578613281250e+01,-1.180768966674804688e+02,6.585875701904296875e+01,-2.980424880981445312e+01
9.869760274887084961e-01,1.000000000000000000e+00,-4.368918895721435547e+00,7.623566985130310059e-01,5.630159854888916016e+00,-1.963353271484375000e+02,-8.650846099853515625e+01,-1.670958862304687500e+02,5.500734329223632812e+01,-2.090467262268066406e+01,-9.345405578613281250e+01,-1.180768966674804688e+02,6.585875701904296875e+01,-2.980424880981445312e+01
9.932990074157714844e-01,1.000000000000000000e+00,-4.433825016021728516e+00,8.171210885047912598e-01,5.638089656829833984e+00,-1.962775573730468750e+02,-8.643466186523437500e+01,-1.670316009521484375e+02,5.500734329223632812e+01,-2.090476417541503906e+01,-9.345405578613281250e+01,-1.180768966674804688e+02,6.585875701904296875e+01,-2.980424880981445312e+01
9.949079751968383789e-01,1.000000000000000000e+00,-4.498673915863037109e+00,8.719534277915954590e-01,5.645774841308593750e+00,-1.962196197509765625e+02,-8.636130523681640625e+01,-1.669687957763671875e+02,5.500723266601562500e+01,-2.090476417541503906e+01,-9.345405578613281250e+01,-1.180768966674804688e+02,6.585875701904296875e+01,-2.980402946472167969e+01
1.001489043235778809e+00,1.000000000000000000e+00,-4.498673915863037109e+00,8.719534277915954590e-01,5.645774841308593750e+00,-1.962196197509765625e+02,-8.636130523681640625e+01,-1.669687957763671875e+02,5.500723266601562500e+01,-2.090467262268066406e+01,-9.345405578613281250e+01,-1.180768966674804688e+02,6.585875701904296875e+01,-2.980424880981445312e+01
1.003913998603820801e+00,1.000000000000000000e+00,-4.628084182739257812e+00,9.812107086181640625e-01,5.661592960357666016e+00,-1.961042480468750000e+02,-8.621382904052734375e+01,-1.668412933349609375e+02,5.500712203979492188e+01,-2.090467262268066406e+01,-9.345405578613281250e+01,-1.180768966674804688e+02,6.585875701904296875e+01,-2.980446624755859375e+01
1.009397029876708984e+00,1.000000000000000000e+00,-4.692875385284423828e+00,1.035997629165649414e+00,5.669888019561767578e+00,-1.960468902587890625e+02,-8.613929748535156250e+01,-1.667783660888671875e+02,5.500723266601562500e+01,-2.090467262268066406e+01,-9.345405578613281250e+01,-1.180768966674804688e+02,6.585875701904296875e+01,-2.980424880981445312e+01
1.010905981063842773e+00,1.000000000000000000e+00,-4.757321834564208984e+00,1.090875267982482910e+00,5.678122520446777344e+00,-1.959886932373046875e+02,-8.606645965576171875e+01,-1.667144165039062500e+02,5.500723266601562500e+01,-2.090467262268066406e+01,-9.345405578613281250e+01,-1.180768966674804688e+02,6.585875701904296875e+01,-2.980424880981445312e+01
1.017549037933349609e+00,1.000000000000000000e+00,-4.757321834564208984e+00,1.090875267982482910e+00,5.678122520446777344e+00,-1.959886932373046875e+02,-8.606645965576171875e+01,-1.667144165039062500e+02,5.500723266601562500e+01,-2.090467262268066406e+01,-9.345405578613281250e+01,-1.180768966674804688e+02,6.585875701904296875e+01,-2.980424880981445312e+01
1.019901037216186523e+00,1.000000000000000000e+00,-4.886589050292968750e+00,1.200562477111816406e+00,5.694326877593994141e+00,-1.958724975585937500e+02,-8.591931152343750000e+01,-1.665873870849609375e+02,5.500723266601562500e+01,-2.090476417541503906e+01,-9.345405578613281250e+01,-1.180768966674804688e+02,6.585875701904296875e+01,-2.980424880981445312e+01
1.022920966148376465e+00,1.000000000000000000e+00,-4.951179027557373047e+00,1.255462646484375000e+00,5.701992034912109375e+00,-1.958146057128906250e+02,-8.584467315673828125e+01,-1.665226898193359375e+02,5.500723266601562500e+01,-2.090467262268066406e+01,-9.345405578613281250e+01,-1.180768966674804688e+02,6.585875701904296875e+01,-2.980402946472167969e+01
1.027958035469055176e+00,1.000000000000000000e+00,-4.951179027557373047e+00,1.255462646484375000e+00,5.701992034912109375e+00,-1.958146057128906250e+02,-8.584467315673828125e+01,-1.665226898193359375e+02,5.500723266601562500e+01,-2.090467262268066406e+01,-9.345405578613281250e+01,-1.180768966674804688e+02,6.585875701904296875e+01,-2.980402946472167969e+01
1.032148003578186035e+00,1.000000000000000000e+00,-5.080330848693847656e+00,1.365217804908752441e+00,5.717668056488037109e+00,-1.956990356445312500e+02,-8.569847869873046875e+01,-1.663964843750000000e+02,5.500723266601562500e+01,-2.090467262268066406e+01,-9.345405578613281250e+01,-1.180768966674804688e+02,6.585875701904296875e+01,-2.980424880981445312e+01
1.034927010536193848e+00,1.000000000000000000e+00,-5.144893169403076172e+00,1.420027375221252441e+00,5.725739479064941406e+00,-1.956412506103515625e+02,-8.562452697753906250e+01,-1.663323974609375000e+02,5.500723266601562500e+01,-2.090467262268066406e+01,-9.345405578613281250e+01,-1.180768966674804688e+02,6.585875701904296875e+01,-2.980424880981445312e+01
1.039970993995666504e+00,1.000000000000000000e+00,-5.144893169403076172e+00,1.420027375221252441e+00,5.725739479064941406e+00,-1.956412506103515625e+02,-8.562452697753906250e+01,-1.663323974609375000e+02,5.500723266601562500e+01,-2.090467262268066406e+01,-9.345405578613281250e+01,-1.180768966674804688e+02,6.585875701904296875e+01,-2.980424880981445312e+01
1.042984962463378906e+00,1.000000000000000000e+00,-5.273958683013916016e+00,1.529669404029846191e+00,5.741862773895263672e+00,-1.955257415771484375e+02,-8.547732543945312500e+01,-1.662047119140625000e+02,5.500723266601562500e+01,-2.090467262268066406e+01,-9.345405578613281250e+01,-1.180768966674804688e+02,6.585875701904296875e+01,-2.980424880981445312e+01
1.047997951507568359e+00,1.000000000000000000e+00,-5.273958683013916016e+00,1.529669404029846191e+00,5.741862773895263672e+00,-1.955257415771484375e+02,-8.547732543945312500e+01,-1.662047119140625000e+02,5.500723266601562500e+01,-2.090467262268066406e+01,-9.345405578613281250e+01,-1.180768966674804688e+02,6.585875701904296875e+01,-2.980424880981445312e+01
1.050981998443603516e+00,1.000000000000000000e+00,-5.403512477874755859e+00,1.639288783073425293e+00,5.757396221160888672e+00,-1.954099731445312500e+02,-8.533000946044921875e+01,-1.660778198242187500e+02,5.500712203979492188e+01,-2.090467262268066406e+01,-9.345405578613281250e+01,-1.180768966674804688e+02,6.585875701904296875e+01,-2.980424880981445312e+01
1.055968999862670898e+00,1.000000000000000000e+00,-5.403512477874755859e+00,1.639288783073425293e+00,5.757396221160888672e+00,-1.954099731445312500e+02,-8.533000946044921875e+01,-1.660778198242187500e+02,5.500712203979492188e+01,-2.090467262268066406e+01,-9.345405578613281250e+01,-1.180768966674804688e+02,6.585875701904296875e+01,-2.980424880981445312e+01
1.058907032012939453e+00,1.000000000000000000e+00,-5.532951354980468750e+00,1.748681783676147461e+00,5.773376941680908203e+00,-1.952950286865234375e+02,-8.518270111083984375e+01,-1.659499816894531250e+02,5.500723266601562500e+01,-2.090467262268066406e+01,-9.345405578613281250e+01,-1.180768966674804688e+02,6.585875701904296875e+01,-2.980424880981445312e+01
1.064031958580017090e+00,1.000000000000000000e+00,-5.532951354980468750e+00,1.748681783676147461e+00,5.773376941680908203e+00,-1.952950286865234375e+02,-8.518270111083984375e+01,-1.659499816894531250e+02,5.500723266601562500e+01,-2.090467262268066406e+01,-9.345405578613281250e+01,-1.180768966674804688e+02,6.585875701904296875e+01,-2.980424880981445312e+01
1.066980957984924316e+00,1.000000000000000000e+00,-5.662218570709228516e+00,1.858368992805480957e+00,5.789865970611572266e+00,-1.951792602539062500e+02,-8.503581237792968750e+01,-1.658233642578125000e+02,5.500712203979492188e+01,-2.090476417541503906e+01,-9.345405578613281250e+01,-1.180768966674804688e+02,6.585875701904296875e+01,-2.980446624755859375e+01
1.071961998939514160e+00,1.000000000000000000e+00,-5.662218570709228516e+00,1.858368992805480957e+00,5.789865970611572266e+00,-1.951792602539062500e+02,-8.503581237792968750e+01,-1.658233642578125000e+02,5.500712203979492188e+01,-2.090476417541503906e+01,-9.345405578613281250e+01,-1.180768966674804688e+02,6.585875701904296875e+01,-2.980446624755859375e+01
1.074920058250427246e+00,1.000000000000000000e+00,-5.791456222534179688e+00,1.968146800994873047e+00,5.806050300598144531e+00,-1.950633239746093750e+02,-8.488823699951171875e+01,-1.656965484619140625e+02,5.500712203979492188e+01,-2.090467262268066406e+01,-9.345405578613281250e+01,-1.180766754150390625e+02,6.585875701904296875e+01,-2.980424880981445312e+01
1.079980015754699707e+00,1.000000000000000000e+00,-5.791456222534179688e+00,1.968146800994873047e+00,5.806050300598144531e+00,-1.950633239746093750e+02,-8.488823699951171875e+01,-1.656965484619140625e+02,5.500712203979492188e+01,-2.090467262268066406e+01,-9.345405578613281250e+01,-1.180766754150390625e+02,6.585875701904296875e+01,-2.980424880981445312e+01
1.082906961441040039e+00,1.000000000000000000e+00,-5.921297073364257812e+00,2.077720642089843750e+00,5.821604251861572266e+00,-1.949472198486328125e+02,-8.474108123779296875e+01,-1.655692443847656250e+02,5.500723266601562500e+01,-2.090467262268066406e+01,-9.345405578613281250e+01,-1.180768966674804688e+02,6.585875701904296875e+01,-2.980424880981445312e+01
1.087965011596679688e+00,1.000000000000000000e+00,-5.921297073364257812e+00,2.077720642089843750e+00,5.821604251861572266e+00,-1.949472198486328125e+02,-8.474108123779296875e+01,-1.655692443847656250e+02,5.500723266601562500e+01,-2.090467262268066406e+01,-9.345405578613281250e+01,-1.180768966674804688e+02,6.585875701904296875e+01,-2.980424880981445312e+01
1.090904951095581055e+00,1.000000000000000000e+00,-6.050822257995605469e+00,2.187340259552001953e+00,5.837666511535644531e+00,-1.948318176269531250e+02,-8.459387207031250000e+01,-1.654419708251953125e+02,5.500712203979492188e+01,-2.090458106994628906e+01,-9.345405578613281250e+01,-1.180768966674804688e+02,6.585875701904296875e+01,-2.980402946472167969e+01
1.096022963523864746e+00,1.000000000000000000e+00,-6.050822257995605469e+00,2.187340259552001953e+00,5.837666511535644531e+00,-1.948318176269531250e+02,-8.459387207031250000e+01,-1.654419708251953125e+02,5.500712203979492188e+01,-2.090458106994628906e+01,-9.345405578613281250e+01,-1.180768966674804688e+02,6.585875701904296875e+01,-2.980402946472167969e+01
1.098984003067016602e+00,1.000000000000000000e+00,-6.180520057678222656e+00,2.297004699707031250e+00,5.853687763214111328e+00,-1.947163391113281250e+02,-8.444703674316406250e+01,-1.653154144287109375e+02,5.500723266601562500e+01,-2.090467262268066406e+01,-9.345405578613281250e+01,-1.180768966674804688e+02,6.585875701904296875e+01,-2.980424880981445312e+01
1.103971004486083984e+00,1.000000000000000000e+00,-6.180520057678222656e+00,2.297004699707031250e+00,5.853687763214111328e+00,-1.947163391113281250e+02,-8.444703674316406250e+01,-1.653154144287109375e+02,5.500723266601562500e+01,-2.090467262268066406e+01,-9.345405578613281250e+01,-1.180768966674804688e+02,6.585875701904296875e+01,-2.980424880981445312e+01
1.106906056404113770e+00,1.000000000000000000e+00,-6.310331821441650391e+00,2.406307220458984375e+00,5.869221210479736328e+00,-1.946013183593750000e+02,-8.429967498779296875e+01,-1.651876525878906250e+02,5.500723266601562500e+01,-2.090467262268066406e+01,-9.345405578613281250e+01,-1.180768966674804688e+02,6.585875701904296875e+01,-2.980424880981445312e+01
