rpiRobotics/ARM-21-02-F-19-Robot-Motion-Program/data_performance_abb/curve_2/curve_pose_opt2/greedy0.02/grad_result/real_from_sim/run_0.csv
timestamp,cmd_num,J1,J2,J3,J4,J5,J6
2.320000057807192206e-04,-1.000000000000000000e+00,9.349695205688476562e+00,-1.087648296356201172e+01,3.840575218200683594e+00,-2.087345428466796875e+02,-1.021746139526367188e+02,-1.808511047363281250e+02,5.500723266601562500e+01,-2.090467262268066406e+01,-9.345394897460937500e+01,-1.180768966674804688e+02,6.585875701904296875e+01,-2.980402946472167969e+01
4.656000062823295593e-03,1.000000000000000000e+00,9.349608421325683594e+00,-1.087652778625488281e+01,3.840575218200683594e+00,-2.087344360351562500e+02,-1.021746139526367188e+02,-1.808511047363281250e+02,5.500712203979492188e+01,-2.090467262268066406e+01,-9.345405578613281250e+01,-1.180768966674804688e+02,6.585875701904296875e+01,-2.980402946472167969e+01
8.346999995410442352e-03,1.000000000000000000e+00,9.349608421325683594e+00,-1.087652778625488281e+01,3.840575218200683594e+00,-2.087344360351562500e+02,-1.021746139526367188e+02,-1.808511047363281250e+02,5.500712203979492188e+01,-2.090467262268066406e+01,-9.345405578613281250e+01,-1.180768966674804688e+02,6.585875701904296875e+01,-2.980402946472167969e+01
1.274400018155574799e-02,1.000000000000000000e+00,9.349608421325683594e+00,-1.087652778625488281e+01,3.840534687042236328e+00,-2.087344360351562500e+02,-1.021746139526367188e+02,-1.808511047363281250e+02,5.500723266601562500e+01,-2.090467262268066406e+01,-9.345405578613281250e+01,-1.180768966674804688e+02,6.585875701904296875e+01,-2.980424880981445312e+01
3.691599890589714050e-02,1.000000000000000000e+00,9.349608421325683594e+00,-1.087652778625488281e+01,3.840534687042236328e+00,-2.087345428466796875e+02,-1.021746139526367188e+02,-1.808511047363281250e+02,5.500734329223632812e+01,-2.090467262268066406e+01,-9.345405578613281250e+01,-1.180768966674804688e+02,6.585875701904296875e+01,-2.980424880981445312e+01
3.830900043249130249e-02,1.000000000000000000e+00,9.349608421325683594e+00,-1.087652778625488281e+01,3.840534687042236328e+00,-2.087345428466796875e+02,-1.021746139526367188e+02,-1.808511047363281250e+02,5.500734329223632812e+01,-2.090467262268066406e+01,-9.345405578613281250e+01,-1.180768966674804688e+02,6.585875701904296875e+01,-2.980424880981445312e+01
4.087200015783309937e-02,1.000000000000000000e+00,9.349608421325683594e+00,-1.087648296356201172e+01,3.840534687042236328e+00,-2.087344360351562500e+02,-1.021746139526367188e+02,-1.808511047363281250e+02,5.500723266601562500e+01,-2.090467262268066406e+01,-9.345405578613281250e+01,-1.180768966674804688e+02,6.585875701904296875e+01,-2.980424880981445312e+01
4.557000100612640381e-02,1.000000000000000000e+00,9.349695205688476562e+00,-1.087652778625488281e+01,3.840534687042236328e+00,-2.087346496582031250e+02,-1.021746139526367188e+02,-1.808511047363281250e+02,5.500723266601562500e+01,-2.090467262268066406e+01,-9.345405578613281250e+01,-1.180768966674804688e+02,6.585875701904296875e+01,-2.980424880981445312e+01
4.682299867272377014e-02,1.000000000000000000e+00,9.349695205688476562e+00,-1.087652778625488281e+01,3.840534687042236328e+00,-2.087346496582031250e+02,-1.021746139526367188e+02,-1.808511047363281250e+02,5.500723266601562500e+01,-2.090467262268066406e+01,-9.345405578613281250e+01,-1.180768966674804688e+02,6.585875701904296875e+01,-2.980424880981445312e+01
5.007100105285644531e-02,1.000000000000000000e+00,9.349608421325683594e+00,-1.087648296356201172e+01,3.840575218200683594e+00,-2.087345428466796875e+02,-1.021746139526367188e+02,-1.808511047363281250e+02,5.500723266601562500e+01,-2.090467262268066406e+01,-9.345405578613281250e+01,-1.180768966674804688e+02,6.585875701904296875e+01,-2.980424880981445312e+01
5.250399932265281677e-02,1.000000000000000000e+00,9.349608421325683594e+00,-1.087648296356201172e+01,3.840575218200683594e+00,-2.087345428466796875e+02,-1.021746139526367188e+02,-1.808511047363281250e+02,5.500723266601562500e+01,-2.090467262268066406e+01,-9.345405578613281250e+01,-1.180768966674804688e+02,6.585875701904296875e+01,-2.980424880981445312e+01
5.725400149822235107e-02,1.000000000000000000e+00,9.349178314208984375e+00,-1.087614345550537109e+01,3.840575218200683594e+00,-2.087344360351562500e+02,-1.021747207641601562e+02,-1.808511047363281250e+02,5.500734329223632812e+01,-2.090467262268066406e+01,-9.345405578613281250e+01,-1.180768966674804688e+02,6.585875701904296875e+01,-2.980424880981445312e+01
5.852200090885162354e-02,1.000000000000000000e+00,9.349178314208984375e+00,-1.087614345550537109e+01,3.840575218200683594e+00,-2.087344360351562500e+02,-1.021747207641601562e+02,-1.808511047363281250e+02,5.500734329223632812e+01,-2.090467262268066406e+01,-9.345405578613281250e+01,-1.180768966674804688e+02,6.585875701904296875e+01,-2.980424880981445312e+01
6.177600100636482239e-02,1.000000000000000000e+00,9.348317146301269531e+00,-1.087544155120849609e+01,3.840575218200683594e+00,-2.087344360351562500e+02,-1.021746139526367188e+02,-1.808511047363281250e+02,5.500723266601562500e+01,-2.090467262268066406e+01,-9.345405578613281250e+01,-1.180768966674804688e+02,6.585875701904296875e+01,-2.980424880981445312e+01
6.302700191736221313e-02,1.000000000000000000e+00,9.348317146301269531e+00,-1.087544155120849609e+01,3.840575218200683594e+00,-2.087344360351562500e+02,-1.021746139526367188e+02,-1.808511047363281250e+02,5.500723266601562500e+01,-2.090467262268066406e+01,-9.345405578613281250e+01,-1.180768966674804688e+02,6.585875701904296875e+01,-2.980424880981445312e+01
6.874299794435501099e-02,1.000000000000000000e+00,9.346624374389648438e+00,-1.087401676177978516e+01,3.840575218200683594e+00,-2.087344360351562500e+02,-1.021743469238281250e+02,-1.808511047363281250e+02,5.500723266601562500e+01,-2.090467262268066406e+01,-9.345405578613281250e+01,-1.180768966674804688e+02,6.585875701904296875e+01,-2.980424880981445312e+01
7.023400068283081055e-02,1.000000000000000000e+00,9.343954086303710938e+00,-1.087186622619628906e+01,3.840636253356933594e+00,-2.087344360351562500e+02,-1.021743469238281250e+02,-1.808511047363281250e+02,5.500723266601562500e+01,-2.090467262268066406e+01,-9.345405578613281250e+01,-1.180768966674804688e+02,6.585875701904296875e+01,-2.980424880981445312e+01
7.343599945306777954e-02,1.000000000000000000e+00,9.343954086303710938e+00,-1.087186622619628906e+01,3.840636253356933594e+00,-2.087344360351562500e+02,-1.021743469238281250e+02,-1.808511047363281250e+02,5.500712203979492188e+01,-2.090467262268066406e+01,-9.345405578613281250e+01,-1.180768966674804688e+02,6.585875701904296875e+01,-2.980424880981445312e+01
7.475200295448303223e-02,1.000000000000000000e+00,9.340307235717773438e+00,-1.086872005462646484e+01,3.840676784515380859e+00,-2.087344360351562500e+02,-1.021739730834960938e+02,-1.808509674072265625e+02,5.500712203979492188e+01,-2.090467262268066406e+01,-9.345405578613281250e+01,-1.180768966674804688e+02,6.585875701904296875e+01,-2.980424880981445312e+01
7.917899638414382935e-02,1.000000000000000000e+00,9.335715293884277344e+00,-1.086446571350097656e+01,3.840819120407104492e+00,-2.087341156005859375e+02,-1.021727981567382812e+02,-1.808504943847656250e+02,5.500734329223632812e+01,-2.090467262268066406e+01,-9.345405578613281250e+01,-1.180768966674804688e+02,6.585875701904296875e+01,-2.980424880981445312e+01
8.178199827671051025e-02,1.000000000000000000e+00,9.329858779907226562e+00,-1.085896682739257812e+01,3.841063261032104492e+00,-2.087329101562500000e+02,-1.021708297729492188e+02,-1.808498840332031250e+02,5.500723266601562500e+01,-2.090467262268066406e+01,-9.345405578613281250e+01,-1.180766754150390625e+02,6.585875701904296875e+01,-2.980402946472167969e+01
8.309199661016464233e-02,1.000000000000000000e+00,9.329858779907226562e+00,-1.085896682739257812e+01,3.841063261032104492e+00,-2.087329101562500000e+02,-1.021708297729492188e+02,-1.808498840332031250e+02,5.500723266601562500e+01,-2.090467262268066406e+01,-9.345405578613281250e+01,-1.180766754150390625e+02,6.585875701904296875e+01,-2.980402946472167969e+01
8.639299869537353516e-02,1.000000000000000000e+00,9.322538375854492188e+00,-1.085163497924804688e+01,3.841510534286499023e+00,-2.087304840087890625e+02,-1.021675796508789062e+02,-1.808486633300781250e+02,5.500723266601562500e+01,-2.090467262268066406e+01,-9.345405578613281250e+01,-1.180768966674804688e+02,6.585875701904296875e+01,-2.980424880981445312e+01
8.921500295400619507e-02,1.000000000000000000e+00,9.313409805297851562e+00,-1.084235668182373047e+01,3.842181205749511719e+00,-2.087266387939453125e+02,-1.021630935668945312e+02,-1.808458862304687500e+02,5.500712203979492188e+01,-2.090467262268066406e+01,-9.345405578613281250e+01,-1.180768966674804688e+02,6.585875701904296875e+01,-2.980402946472167969e+01
9.350100159645080566e-02,1.000000000000000000e+00,9.301898002624511719e+00,-1.083036327362060547e+01,3.843055486679077148e+00,-2.087218017578125000e+02,-1.021568069458007812e+02,-1.808410644531250000e+02,5.500723266601562500e+01,-2.090467262268066406e+01,-9.345405578613281250e+01,-1.180768966674804688e+02,6.585875701904296875e+01,-2.980402946472167969e+01
9.529700130224227905e-02,1.000000000000000000e+00,9.301898002624511719e+00,-1.083036327362060547e+01,3.843055486679077148e+00,-2.087218017578125000e+02,-1.021568069458007812e+02,-1.808410644531250000e+02,5.500723266601562500e+01,-2.090467262268066406e+01,-9.345405578613281250e+01,-1.180768966674804688e+02,6.585875701904296875e+01,-2.980402946472167969e+01
9.929300099611282349e-02,1.000000000000000000e+00,9.287803649902343750e+00,-1.081585693359375000e+01,3.844275474548339844e+00,-2.087150573730468750e+02,-1.021477966308593750e+02,-1.808335418701171875e+02,5.500723266601562500e+01,-2.090467262268066406e+01,-9.345405578613281250e+01,-1.180768966674804688e+02,6.585875701904296875e+01,-2.980424880981445312e+01
1.033969968557357788e-01,1.000000000000000000e+00,9.270923614501953125e+00,-1.079861259460449219e+01,3.845800399780273438e+00,-2.087057800292968750e+02,-1.021360168457031250e+02,-1.808239746093750000e+02,5.500712203979492188e+01,-2.090467262268066406e+01,-9.345405578613281250e+01,-1.180770339965820312e+02,6.585875701904296875e+01,-2.980402946472167969e+01
1.072970032691955566e-01,1.000000000000000000e+00,9.251144409179687500e+00,-1.077910614013671875e+01,3.847732067108154297e+00,-2.086937713623046875e+02,-1.021208724975585938e+02,-1.808115692138671875e+02,5.500723266601562500e+01,-2.090467262268066406e+01,-9.345405578613281250e+01,-1.180768966674804688e+02,6.585875701904296875e+01,-2.980424880981445312e+01
1.112650036811828613e-01,1.000000000000000000e+00,9.229299545288085938e+00,-1.075801467895507812e+01,3.850151538848876953e+00,-2.086787567138671875e+02,-1.021020507812500000e+02,-1.807963104248046875e+02,5.500723266601562500e+01,-2.090467262268066406e+01,-9.345405578613281250e+01,-1.180768966674804688e+02,6.585875701904296875e+01,-2.980424880981445312e+01
1.153509989380836487e-01,1.000000000000000000e+00,9.205127716064453125e+00,-1.073574733734130859e+01,3.852936983108520508e+00,-2.086608428955078125e+02,-1.020792846679687500e+02,-1.807773284912109375e+02,5.500723266601562500e+01,-2.090467262268066406e+01,-9.345405578613281250e+01,-1.180768966674804688e+02,6.585860443115234375e+01,-2.980424880981445312e+01
1.192649975419044495e-01,1.000000000000000000e+00,9.177942276000976562e+00,-1.071200847625732422e+01,3.855986833572387695e+00,-2.086398315429687500e+02,-1.020533676147460938e+02,-1.807545318603515625e+02,5.500723266601562500e+01,-2.090467262268066406e+01,-9.345405578613281250e+01,-1.180768966674804688e+02,6.585875701904296875e+01,-2.980402946472167969e+01
1.232549995183944702e-01,1.000000000000000000e+00,9.148230552673339844e+00,-1.068686676025390625e+01,3.859199047088623047e+00,-2.086159667968750000e+02,-1.020231399536132812e+02,-1.807279357910156250e+02,5.500723266601562500e+01,-2.090467262268066406e+01,-9.345405578613281250e+01,-1.180768966674804688e+02,6.585875701904296875e+01,-2.980424880981445312e+01
1.272789984941482544e-01,1.000000000000000000e+00,9.115993499755859375e+00,-1.065971088409423828e+01,3.862980842590332031e+00,-2.085883789062500000e+02,-1.019879531860351562e+02,-1.806966247558593750e+02,5.500723266601562500e+01,-2.090467262268066406e+01,-9.345405578613281250e+01,-1.180768966674804688e+02,6.585875701904296875e+01,-2.980424880981445312e+01
1.313219964504241943e-01,1.000000000000000000e+00,9.080883979797363281e+00,-1.063054084777832031e+01,3.867210149765014648e+00,-2.085560302734375000e+02,-1.019462585449218750e+02,-1.806601257324218750e+02,5.500723266601562500e+01,-2.090467262268066406e+01,-9.345405578613281250e+01,-1.180768966674804688e+02,6.585875701904296875e+01,-2.980424880981445312e+01
1.352760046720504761e-01,1.000000000000000000e+00,9.042877197265625000e+00,-1.059956073760986328e+01,3.871865749359130859e+00,-2.085189971923828125e+02,-1.019000320434570312e+02,-1.806199798583984375e+02,5.500723266601562500e+01,-2.090467262268066406e+01,-9.345405578613281250e+01,-1.180768966674804688e+02,6.585875701904296875e+01,-2.980424880981445312e+01
1.393000036478042603e-01,1.000000000000000000e+00,9.002313613891601562e+00,-1.056697273254394531e+01,3.877050638198852539e+00,-2.084792327880859375e+02,-1.018521041870117188e+02,-1.805773925781250000e+02,5.500723266601562500e+01,-2.090467262268066406e+01,-9.345405578613281250e+01,-1.180768966674804688e+02,6.585875701904296875e+01,-2.980424880981445312e+01
1.433490067720413208e-01,1.000000000000000000e+00,8.959254264831542969e+00,-1.053295993804931641e+01,3.882499456405639648e+00,-2.084374084472656250e+02,-1.017996978759765625e+02,-1.805319519042968750e+02,5.500723266601562500e+01,-2.090467262268066406e+01,-9.345405578613281250e+01,-1.180768966674804688e+02,6.585875701904296875e+01,-2.980424880981445312e+01
1.472840011119842529e-01,1.000000000000000000e+00,8.913983345031738281e+00,-1.049736404418945312e+01,3.888192415237426758e+00,-2.083928985595703125e+02,-1.017411499023437500e+02,-1.804818420410156250e+02,5.500723266601562500e+01,-2.090467262268066406e+01,-9.345405578613281250e+01,-1.180768966674804688e+02,6.585875701904296875e+01,-2.980424880981445312e+01
1.512569934129714966e-01,1.000000000000000000e+00,8.866674423217773438e+00,-1.045993328094482422e+01,3.894088506698608398e+00,-2.083437042236328125e+02,-1.016804809570312500e+02,-1.804269104003906250e+02,5.500712203979492188e+01,-2.090467262268066406e+01,-9.345405578613281250e+01,-1.180768966674804688e+02,6.585875701904296875e+01,-2.980446624755859375e+01
1.552720069885253906e-01,1.000000000000000000e+00,8.817384719848632812e+00,-1.042042160034179688e+01,3.900554180145263672e+00,-2.082924041748046875e+02,-1.016166610717773438e+02,-1.803708801269531250e+02,5.500734329223632812e+01,-2.090467262268066406e+01,-9.345405578613281250e+01,-1.180768966674804688e+02,6.585875701904296875e+01,-2.980424880981445312e+01
1.593320071697235107e-01,1.000000000000000000e+00,8.765481948852539062e+00,-1.037853431701660156e+01,3.907629489898681641e+00,-2.082404632568359375e+02,-1.015509185791015625e+02,-1.803141937255859375e+02,5.500723266601562500e+01,-2.090467262268066406e+01,-9.345405578613281250e+01,-1.180768966674804688e+02,6.585875701904296875e+01,-2.980424880981445312e+01
1.633110046386718750e-01,1.000000000000000000e+00,8.710940361022949219e+00,-1.033399868011474609e+01,3.914786100387573242e+00,-2.081861419677734375e+02,-1.014830474853515625e+02,-1.802543792724609375e+02,5.500723266601562500e+01,-2.090476417541503906e+01,-9.345405578613281250e+01,-1.180768966674804688e+02,6.585875701904296875e+01,-2.980424880981445312e+01
1.673009991645812988e-01,1.000000000000000000e+00,8.654387474060058594e+00,-1.028713130950927734e+01,3.922044992446899414e+00,-2.081308898925781250e+02,-1.014123001098632812e+02,-1.801921997070312500e+02,5.500723266601562500e+01,-2.090467262268066406e+01,-9.345405578613281250e+01,-1.180768966674804688e+02,6.585875701904296875e+01,-2.980446624755859375e+01
1.712819933891296387e-01,1.000000000000000000e+00,8.596514701843261719e+00,-1.023827362060546875e+01,3.929425001144409180e+00,-2.080744934082031250e+02,-1.013411254882812500e+02,-1.801309509277343750e+02,5.500723266601562500e+01,-2.090467262268066406e+01,-9.345405578613281250e+01,-1.180768966674804688e+02,6.585875701904296875e+01,-2.980424880981445312e+01
1.775739938020706177e-01,1.000000000000000000e+00,8.537034034729003906e+00,-1.018780899047851562e+01,3.937029123306274414e+00,-2.080167541503906250e+02,-1.012687149047851562e+02,-1.800678100585937500e+02,5.500723266601562500e+01,-2.090467262268066406e+01,-9.345405578613281250e+01,-1.180768966674804688e+02,6.585875701904296875e+01,-2.980424880981445312e+01
1.792739927768707275e-01,1.000000000000000000e+00,8.476233482360839844e+00,-1.013630294799804688e+01,3.944816350936889648e+00,-2.079590759277343750e+02,-1.011965255737304688e+02,-1.800037384033203125e+02,5.500712203979492188e+01,-2.090476417541503906e+01,-9.345405578613281250e+01,-1.180770339965820312e+02,6.585875701904296875e+01,-2.980424880981445312e+01
1.833869963884353638e-01,1.000000000000000000e+00,8.414513587951660156e+00,-1.008384704589843750e+01,3.952705144882202148e+00,-2.079009246826171875e+02,-1.011231079101562500e+02,-1.799401855468750000e+02,5.500723266601562500e+01,-2.090467262268066406e+01,-9.345405578613281250e+01,-1.180768966674804688e+02,6.585875701904296875e+01,-2.980424880981445312e+01
1.872889995574951172e-01,1.000000000000000000e+00,8.352018356323242188e+00,-1.003032779693603516e+01,3.960614204406738281e+00,-2.078431854248046875e+02,-1.010491027832031250e+02,-1.798746795654296875e+02,5.500734329223632812e+01,-2.090467262268066406e+01,-9.345405578613281250e+01,-1.180768966674804688e+02,6.585875701904296875e+01,-2.980424880981445312e+01
1.912620067596435547e-01,1.000000000000000000e+00,8.288433074951171875e+00,-9.976242065429687500e+00,3.968482494354248047e+00,-2.077848815917968750e+02,-1.009746780395507812e+02,-1.798101196289062500e+02,5.500734329223632812e+01,-2.090467262268066406e+01,-9.345405578613281250e+01,-1.180770339965820312e+02,6.585875701904296875e+01,-2.980402946472167969e+01
1.962790042161941528e-01,1.000000000000000000e+00,8.223985671997070312e+00,-9.921341896057128906e+00,3.976534128189086914e+00,-2.077262573242187500e+02,-1.009007797241210938e+02,-1.797462921142578125e+02,5.500723266601562500e+01,-2.090467262268066406e+01,-9.345405578613281250e+01,-1.180768966674804688e+02,6.585875701904296875e+01,-2.980424880981445312e+01
1.994830071926116943e-01,1.000000000000000000e+00,8.159050941467285156e+00,-9.866034507751464844e+00,3.984727621078491211e+00,-2.076678924560546875e+02,-1.008268814086914062e+02,-1.796809997558593750e+02,5.500723266601562500e+01,-2.090467262268066406e+01,-9.345405578613281250e+01,-1.180768966674804688e+02,6.585875701904296875e+01,-2.980424880981445312e+01
2.032649964094161987e-01,1.000000000000000000e+00,8.093857765197753906e+00,-9.810523033142089844e+00,3.993226289749145508e+00,-2.076091003417968750e+02,-1.007521896362304688e+02,-1.796163635253906250e+02,5.500723266601562500e+01,-2.090467262268066406e+01,-9.345405578613281250e+01,-1.180768966674804688e+02,6.585875701904296875e+01,-2.980424880981445312e+01
2.083140015602111816e-01,1.000000000000000000e+00,8.028464317321777344e+00,-9.754853248596191406e+00,4.001786231994628906e+00,-2.075513305664062500e+02,-1.006779174804687500e+02,-1.795521392822265625e+02,5.500712203979492188e+01,-2.090467262268066406e+01,-9.345405578613281250e+01,-1.180768966674804688e+02,6.585875701904296875e+01,-2.980446624755859375e+01
2.112829983234405518e-01,1.000000000000000000e+00,7.962983608245849609e+00,-9.699387550354003906e+00,4.010142326354980469e+00,-2.074930267333984375e+02,-1.006035461425781250e+02,-1.794866180419921875e+02,5.500723266601562500e+01,-2.090467262268066406e+01,-9.345405578613281250e+01,-1.180768966674804688e+02,6.585875701904296875e+01,-2.980424880981445312e+01
2.162960022687911987e-01,1.000000000000000000e+00,7.962983608245849609e+00,-9.699387550354003906e+00,4.010142326354980469e+00,-2.074930267333984375e+02,-1.006035461425781250e+02,-1.794866180419921875e+02,5.500723266601562500e+01,-2.090467262268066406e+01,-9.345405578613281250e+01,-1.180768966674804688e+02,6.585875701904296875e+01,-2.980424880981445312e+01
2.193049937486648560e-01,1.000000000000000000e+00,7.832080841064453125e+00,-9.588274002075195312e+00,4.026468753814697266e+00,-2.073764495849609375e+02,-1.004544219970703125e+02,-1.793584594726562500e+02,5.500723266601562500e+01,-2.090467262268066406e+01,-9.345405578613281250e+01,-1.180768966674804688e+02,6.585875701904296875e+01,-2.980424880981445312e+01
2.260680049657821655e-01,1.000000000000000000e+00,7.832080841064453125e+00,-9.588274002075195312e+00,4.026468753814697266e+00,-2.073764495849609375e+02,-1.004544219970703125e+02,-1.793584594726562500e+02,5.500723266601562500e+01,-2.090467262268066406e+01,-9.345405578613281250e+01,-1.180768966674804688e+02,6.585875701904296875e+01,-2.980424880981445312e+01
2.275149971246719360e-01,1.000000000000000000e+00,7.701263904571533203e+00,-9.477365493774414062e+00,4.042510509490966797e+00,-2.072593994140625000e+02,-1.003061981201171875e+02,-1.792290496826171875e+02,5.500723266601562500e+01,-2.090467262268066406e+01,-9.345405578613281250e+01,-1.180768966674804688e+02,6.585875701904296875e+01,-2.980424880981445312e+01
2.323189973831176758e-01,1.000000000000000000e+00,7.636070251464843750e+00,-9.422080039978027344e+00,4.050704479217529297e+00,-2.072010498046875000e+02,-1.002318267822265625e+02,-1.791644287109375000e+02,5.500712203979492188e+01,-2.090467262268066406e+01,-9.345405578613281250e+01,-1.180768966674804688e+02,6.585875701904296875e+01,-2.980424880981445312e+01
2.353069931268692017e-01,1.000000000000000000e+00,7.570877075195312500e+00,-9.366909027099609375e+00,4.058897972106933594e+00,-2.071423187255859375e+02,-1.001567535400390625e+02,-1.790993194580078125e+02,5.500723266601562500e+01,-2.090467262268066406e+01,-9.345405578613281250e+01,-1.180768966674804688e+02,6.585875701904296875e+01,-2.980424880981445312e+01
2.393079996109008789e-01,1.000000000000000000e+00,7.570877075195312500e+00,-9.366909027099609375e+00,4.058897972106933594e+00,-2.071423187255859375e+02,-1.001567535400390625e+02,-1.790993194580078125e+02,5.500723266601562500e+01,-2.090467262268066406e+01,-9.345405578613281250e+01,-1.180768966674804688e+02,6.585875701904296875e+01,-2.980424880981445312e+01
2.433840036392211914e-01,1.000000000000000000e+00,7.505626678466796875e+00,-9.311714172363281250e+00,4.067132472991943359e+00,-2.070836944580078125e+02,-1.000828018188476562e+02,-1.790353851318359375e+02,5.500723266601562500e+01,-2.090467262268066406e+01,-9.345405578613281250e+01,-1.180768966674804688e+02,6.585875701904296875e+01,-2.980424880981445312e+01
2.502399981021881104e-01,1.000000000000000000e+00,7.440921783447265625e+00,-9.256497383117675781e+00,4.075183868408203125e+00,-2.070245361328125000e+02,-1.000089645385742188e+02,-1.789713592529296875e+02,5.500712203979492188e+01,-2.090467262268066406e+01,-9.345405578613281250e+01,-1.180766754150390625e+02,6.585875701904296875e+01,-2.980424880981445312e+01
2.516570091247558594e-01,1.000000000000000000e+00,7.311654567718505859e+00,-9.146266937255859375e+00,4.091225624084472656e+00,-2.069082336425781250e+02,-9.985935974121093750e+01,-1.788425140380859375e+02,5.500723266601562500e+01,-2.090467262268066406e+01,-9.345405578613281250e+01,-1.180768966674804688e+02,6.585875701904296875e+01,-2.980402946472167969e+01
2.563180029392242432e-01,1.000000000000000000e+00,7.311654567718505859e+00,-9.146266937255859375e+00,4.091225624084472656e+00,-2.069082336425781250e+02,-9.985935974121093750e+01,-1.788425140380859375e+02,5.500723266601562500e+01,-2.090467262268066406e+01,-9.345405578613281250e+01,-1.180768966674804688e+02,6.585875701904296875e+01,-2.980424880981445312e+01
2.592819929122924805e-01,1.000000000000000000e+00,7.182129383087158203e+00,-9.036285400390625000e+00,4.107735157012939453e+00,-2.067911376953125000e+02,-9.971119689941406250e+01,-1.787122955322265625e+02,5.500734329223632812e+01,-2.090467262268066406e+01,-9.345422363281250000e+01,-1.180770339965820312e+02,6.585875701904296875e+01,-2.980402946472167969e+01
2.633070051670074463e-01,1.000000000000000000e+00,7.182129383087158203e+00,-9.036285400390625000e+00,4.107735157012939453e+00,-2.067911376953125000e+02,-9.971119689941406250e+01,-1.787122955322265625e+02,5.500734329223632812e+01,-2.090467262268066406e+01,-9.345422363281250000e+01,-1.180770339965820312e+02,6.585875701904296875e+01,-2.980402946472167969e+01
2.673709988594055176e-01,1.000000000000000000e+00,7.117223739624023438e+00,-8.981452941894531250e+00,4.115989685058593750e+00,-2.067322998046875000e+02,-9.963681030273437500e+01,-1.786487426757812500e+02,5.500712203979492188e+01,-2.090467262268066406e+01,-9.345405578613281250e+01,-1.180768966674804688e+02,6.585875701904296875e+01,-2.980446624755859375e+01
2.713420093059539795e-01,1.000000000000000000e+00,7.052432060241699219e+00,-8.926530838012695312e+00,4.124163150787353516e+00,-2.066745605468750000e+02,-9.956179809570312500e+01,-1.785842590332031250e+02,5.500734329223632812e+01,-2.090467262268066406e+01,-9.345405578613281250e+01,-1.180768966674804688e+02,6.585875701904296875e+01,-2.980424880981445312e+01
2.753059864044189453e-01,1.000000000000000000e+00,6.987612247467041016e+00,-8.871766090393066406e+00,4.132295608520507812e+00,-2.066161956787109375e+02,-9.948753356933593750e+01,-1.785193634033203125e+02,5.500723266601562500e+01,-2.090467262268066406e+01,-9.345405578613281250e+01,-1.180768966674804688e+02,6.585875701904296875e+01,-2.980424880981445312e+01
2.793079912662506104e-01,1.000000000000000000e+00,6.922677040100097656e+00,-8.816887855529785156e+00,4.140347003936767578e+00,-2.065577392578125000e+02,-9.941368865966796875e+01,-1.784552612304687500e+02,5.500712203979492188e+01,-2.090467262268066406e+01,-9.345405578613281250e+01,-1.180768966674804688e+02,6.585875701904296875e+01,-2.980424880981445312e+01
2.833729982376098633e-01,1.000000000000000000e+00,6.857570171356201172e+00,-8.762056350708007812e+00,4.148174762725830078e+00,-2.064994201660156250e+02,-9.933936309814453125e+01,-1.783905029296875000e+02,5.500723266601562500e+01,-2.090467262268066406e+01,-9.345405578613281250e+01,-1.180768966674804688e+02,6.585875701904296875e+01,-2.980424880981445312e+01
2.873080074787139893e-01,1.000000000000000000e+00,6.792319774627685547e+00,-8.707178115844726562e+00,4.156328201293945312e+00,-2.064408569335937500e+02,-9.926435089111328125e+01,-1.783259429931640625e+02,5.500734329223632812e+01,-2.090467262268066406e+01,-9.345405578613281250e+01,-1.180768966674804688e+02,6.585875701904296875e+01,-2.980424880981445312e+01
2.913100123405456543e-01,1.000000000000000000e+00,6.727012157440185547e+00,-8.652437210083007812e+00,4.164521694183349609e+00,-2.063827514648437500e+02,-9.919013214111328125e+01,-1.782622528076171875e+02,5.500734329223632812e+01,-2.090476417541503906e+01,-9.345405578613281250e+01,-1.180768966674804688e+02,6.585875701904296875e+01,-2.980424880981445312e+01
2.953670024871826172e-01,1.000000000000000000e+00,6.661962032318115234e+00,-8.597650527954101562e+00,4.172674655914306641e+00,-2.063240814208984375e+02,-9.911634826660156250e+01,-1.781973571777343750e+02,5.500723266601562500e+01,-2.090467262268066406e+01,-9.345405578613281250e+01,-1.180768966674804688e+02,6.585875701904296875e+01,-2.980424880981445312e+01
2.993080019950866699e-01,1.000000000000000000e+00,6.596826553344726562e+00,-8.542523384094238281e+00,4.180787086486816406e+00,-2.062655487060546875e+02,-9.904234313964843750e+01,-1.781331329345703125e+02,5.500723266601562500e+01,-2.090467262268066406e+01,-9.345405578613281250e+01,-1.180768966674804688e+02,6.585875701904296875e+01,-2.980424880981445312e+01
3.033789992332458496e-01,1.000000000000000000e+00,6.532035350799560547e+00,-8.487397193908691406e+00,4.188899517059326172e+00,-2.062071380615234375e+02,-9.896764373779296875e+01,-1.780693817138671875e+02,5.500723266601562500e+01,-2.090467262268066406e+01,-9.345405578613281250e+01,-1.180768966674804688e+02,6.585875701904296875e+01,-2.980424880981445312e+01
3.073529899120330811e-01,1.000000000000000000e+00,6.467013835906982422e+00,-8.432044029235839844e+00,4.196970939636230469e+00,-2.061484527587890625e+02,-9.889337158203125000e+01,-1.780043640136718750e+02,5.500723266601562500e+01,-2.090467262268066406e+01,-9.345405578613281250e+01,-1.180768966674804688e+02,6.585875701904296875e+01,-2.980402946472167969e+01
3.113490045070648193e-01,1.000000000000000000e+00,6.401792049407958984e+00,-8.376894950866699219e+00,4.205022811889648438e+00,-2.060901947021484375e+02,-9.881937408447265625e+01,-1.779404754638671875e+02,5.500723266601562500e+01,-2.090467262268066406e+01,-9.345405578613281250e+01,-1.180766754150390625e+02,6.585875701904296875e+01,-2.980424880981445312e+01
3.153010010719299316e-01,1.000000000000000000e+00,6.336398124694824219e+00,-8.321655273437500000e+00,4.213236808776855469e+00,-2.060317840576171875e+02,-9.874526214599609375e+01,-1.778769989013671875e+02,5.500723266601562500e+01,-2.090467262268066406e+01,-9.345405578613281250e+01,-1.180768966674804688e+02,6.585875701904296875e+01,-2.980424880981445312e+01
3.193440139293670654e-01,1.000000000000000000e+00,6.271147727966308594e+00,-8.266280174255371094e+00,4.221613407135009766e+00,-2.059736938476562500e+02,-9.867057037353515625e+01,-1.778123626708984375e+02,5.500723266601562500e+01,-2.090467262268066406e+01,-9.345405578613281250e+01,-1.180768966674804688e+02,6.585875701904296875e+01,-2.980424880981445312e+01
3.233549892902374268e-01,1.000000000000000000e+00,6.205782413482666016e+00,-8.211108207702636719e+00,4.229949474334716797e+00,-2.059150085449218750e+02,-9.859640502929687500e+01,-1.777480773925781250e+02,5.500712203979492188e+01,-2.090467262268066406e+01,-9.345405578613281250e+01,-1.180768966674804688e+02,6.585875701904296875e+01,-2.980424880981445312e+01
3.273789882659912109e-01,1.000000000000000000e+00,6.140416622161865234e+00,-8.155596733093261719e+00,4.238326072692871094e+00,-2.058568420410156250e+02,-9.852256011962890625e+01,-1.776837768554687500e+02,5.500723266601562500e+01,-2.090467262268066406e+01,-9.345405578613281250e+01,-1.180768966674804688e+02,6.585875701904296875e+01,-2.980424880981445312e+01
3.313269913196563721e-01,1.000000000000000000e+00,6.075166225433349609e+00,-8.100266456604003906e+00,4.246621608734130859e+00,-2.057989196777343750e+02,-9.844888305664062500e+01,-1.776190795898437500e+02,5.500723266601562500e+01,-2.090467262268066406e+01,-9.345405578613281250e+01,-1.180770339965820312e+02,6.585889434814453125e+01,-2.980402946472167969e+01
3.353030085563659668e-01,1.000000000000000000e+00,6.009714603424072266e+00,-8.044959068298339844e+00,4.254652500152587891e+00,-2.057401428222656250e+02,-9.837402343750000000e+01,-1.775551452636718750e+02,5.500712203979492188e+01,-2.090467262268066406e+01,-9.345405578613281250e+01,-1.180768966674804688e+02,6.585875701904296875e+01,-2.980402946472167969e+01
3.393509984016418457e-01,1.000000000000000000e+00,5.944148063659667969e+00,-7.989696502685546875e+00,4.262602329254150391e+00,-2.056821289062500000e+02,-9.830028533935546875e+01,-1.774907684326171875e+02,5.500734329223632812e+01,-2.090467262268066406e+01,-9.345405578613281250e+01,-1.180768966674804688e+02,6.585875701904296875e+01,-2.980424880981445312e+01
3.433499932289123535e-01,1.000000000000000000e+00,5.878581523895263672e+00,-7.934525012969970703e+00,4.270897865295410156e+00,-2.056235504150390625e+02,-9.822607421875000000e+01,-1.774260101318359375e+02,5.500734329223632812e+01,-2.090467262268066406e+01,-9.345405578613281250e+01,-1.180768966674804688e+02,6.585875701904296875e+01,-2.980424880981445312e+01
3.473089933395385742e-01,1.000000000000000000e+00,5.812843322753906250e+00,-7.879331111907958984e+00,4.279355525970458984e+00,-2.055652618408203125e+02,-9.815233612060546875e+01,-1.773624725341796875e+02,5.500723266601562500e+01,-2.090467262268066406e+01,-9.345405578613281250e+01,-1.180768966674804688e+02,6.585875701904296875e+01,-2.980424880981445312e+01
3.513830006122589111e-01,1.000000000000000000e+00,5.747363090515136719e+00,-7.823955535888671875e+00,4.287773132324218750e+00,-2.055073089599609375e+02,-9.807785034179687500e+01,-1.772980346679687500e+02,5.500723266601562500e+01,-2.090467262268066406e+01,-9.345405578613281250e+01,-1.180768966674804688e+02,6.585875701904296875e+01,-2.980424880981445312e+01
3.553200066089630127e-01,1.000000000000000000e+00,5.682141304016113281e+00,-7.768738269805908203e+00,4.296068668365478516e+00,-2.054485778808593750e+02,-9.800416564941406250e+01,-1.772332000732421875e+02,5.500723266601562500e+01,-2.090467262268066406e+01,-9.345405578613281250e+01,-1.180768966674804688e+02,6.585875701904296875e+01,-2.980424880981445312e+01
3.593080043792724609e-01,1.000000000000000000e+00,5.616861820220947266e+00,-7.713385581970214844e+00,4.304282188415527344e+00,-2.053902130126953125e+02,-9.792984771728515625e+01,-1.771696014404296875e+02,5.500723266601562500e+01,-2.090467262268066406e+01,-9.345405578613281250e+01,-1.180768966674804688e+02,6.585860443115234375e+01,-2.980424880981445312e+01
3.633939921855926514e-01,1.000000000000000000e+00,5.552013397216796875e+00,-7.658078193664550781e+00,4.312211990356445312e+00,-2.053315887451171875e+02,-9.785584259033203125e+01,-1.771051025390625000e+02,5.500723266601562500e+01,-2.090467262268066406e+01,-9.345405578613281250e+01,-1.180768966674804688e+02,6.585875701904296875e+01,-2.980424880981445312e+01
3.677020072937011719e-01,1.000000000000000000e+00,5.486848354339599609e+00,-7.602861404418945312e+00,4.320161819458007812e+00,-2.052729644775390625e+02,-9.778135681152343750e+01,-1.770402679443359375e+02,5.500723266601562500e+01,-2.090467262268066406e+01,-9.345405578613281250e+01,-1.180768966674804688e+02,6.585875701904296875e+01,-2.980424880981445312e+01
3.713099956512451172e-01,1.000000000000000000e+00,5.421569347381591797e+00,-7.547711849212646484e+00,4.328436851501464844e+00,-2.052152404785156250e+02,-9.770810699462890625e+01,-1.769772033691406250e+02,5.500723266601562500e+01,-2.090467262268066406e+01,-9.345405578613281250e+01,-1.180768966674804688e+02,6.585875701904296875e+01,-2.980424880981445312e+01
3.761889934539794922e-01,1.000000000000000000e+00,5.356376171112060547e+00,-7.492653369903564453e+00,4.336874485015869141e+00,-2.051562957763671875e+02,-9.763436889648437500e+01,-1.769120178222656250e+02,5.500712203979492188e+01,-2.090467262268066406e+01,-9.345405578613281250e+01,-1.180766754150390625e+02,6.585875701904296875e+01,-2.980402946472167969e+01
3.793709874153137207e-01,1.000000000000000000e+00,5.291326522827148438e+00,-7.437527179718017578e+00,4.345251083374023438e+00,-2.050982971191406250e+02,-9.755998992919921875e+01,-1.768477325439453125e+02,5.500723266601562500e+01,-2.090467262268066406e+01,-9.345405578613281250e+01,-1.180768966674804688e+02,6.585889434814453125e+01,-2.980402946472167969e+01
3.833180069923400879e-01,1.000000000000000000e+00,5.226707458496093750e+00,-7.382603645324707031e+00,4.353465080261230469e+00,-2.050396728515625000e+02,-9.748571777343750000e+01,-1.767844696044921875e+02,5.500723266601562500e+01,-2.090467262268066406e+01,-9.345405578613281250e+01,-1.180768966674804688e+02,6.585875701904296875e+01,-2.980424880981445312e+01
3.877680003643035889e-01,1.000000000000000000e+00,5.161973476409912109e+00,-7.327703475952148438e+00,4.361516475677490234e+00,-2.049814605712890625e+02,-9.741225433349609375e+01,-1.767196960449218750e+02,5.500712203979492188e+01,-2.090467262268066406e+01,-9.345405578613281250e+01,-1.180768966674804688e+02,6.585875701904296875e+01,-2.980424880981445312e+01
3.922860026359558105e-01,1.000000000000000000e+00,5.097095966339111328e+00,-7.272758007049560547e+00,4.369405269622802734e+00,-2.049237365722656250e+02,-9.733840942382812500e+01,-1.766555480957031250e+02,5.500734329223632812e+01,-2.090467262268066406e+01,-9.345405578613281250e+01,-1.180768966674804688e+02,6.585875701904296875e+01,-2.980424880981445312e+01
3.955129981040954590e-01,1.000000000000000000e+00,5.032276630401611328e+00,-7.217835903167724609e+00,4.377395629882812500e+00,-2.048649902343750000e+02,-9.726403045654296875e+01,-1.765911865234375000e+02,5.500723266601562500e+01,-2.090467262268066406e+01,-9.345405578613281250e+01,-1.180768966674804688e+02,6.585875701904296875e+01,-2.980424880981445312e+01
3.999969959259033203e-01,1.000000000000000000e+00,4.967140197753906250e+00,-7.163093566894531250e+00,4.385549068450927734e+00,-2.048071746826171875e+02,-9.718997955322265625e+01,-1.765264129638671875e+02,5.500723266601562500e+01,-2.090467262268066406e+01,-9.345405578613281250e+01,-1.180768966674804688e+02,6.585875701904296875e+01,-2.980446624755859375e+01
4.034000039100646973e-01,1.000000000000000000e+00,4.901976108551025391e+00,-7.108329296112060547e+00,4.393600463867187500e+00,-2.047483215332031250e+02,-9.711586761474609375e+01,-1.764626159667968750e+02,5.500734329223632812e+01,-2.090467262268066406e+01,-9.345405578613281250e+01,-1.180768966674804688e+02,6.585875701904296875e+01,-2.980424880981445312e+01
4.074270129203796387e-01,1.000000000000000000e+00,4.837069988250732422e+00,-7.053406715393066406e+00,4.401854991912841797e+00,-2.046903381347656250e+02,-9.704207611083984375e+01,-1.763984527587890625e+02,5.500723266601562500e+01,-2.090458106994628906e+01,-9.345405578613281250e+01,-1.180768966674804688e+02,6.585875701904296875e+01,-2.980424880981445312e+01
4.120540022850036621e-01,1.000000000000000000e+00,4.771963119506835938e+00,-6.998325347900390625e+00,4.410048484802246094e+00,-2.046321258544921875e+02,-9.696765136718750000e+01,-1.763336791992187500e+02,5.500723266601562500e+01,-2.090467262268066406e+01,-9.345405578613281250e+01,-1.180768966674804688e+02,6.585875701904296875e+01,-2.980424880981445312e+01
4.153690040111541748e-01,1.000000000000000000e+00,4.706769466400146484e+00,-6.943176269531250000e+00,4.418018817901611328e+00,-2.045737762451171875e+02,-9.689375305175781250e+01,-1.762696685791015625e+02,5.500712203979492188e+01,-2.090467262268066406e+01,-9.345405578613281250e+01,-1.180768966674804688e+02,6.585875701904296875e+01,-2.980402946472167969e+01
4.195750057697296143e-01,1.000000000000000000e+00,4.641863822937011719e+00,-6.888253688812255859e+00,4.426070213317871094e+00,-2.045154571533203125e+02,-9.681980133056640625e+01,-1.762055816650390625e+02,5.500712203979492188e+01,-2.090458106994628906e+01,-9.345405578613281250e+01,-1.180768966674804688e+02,6.585875701904296875e+01,-2.980424880981445312e+01
4.242590069770812988e-01,1.000000000000000000e+00,4.576785087585449219e+00,-6.833353519439697266e+00,4.434304237365722656e+00,-2.044568786621093750e+02,-9.674579620361328125e+01,-1.761410217285156250e+02,5.500723266601562500e+01,-2.090467262268066406e+01,-9.345405578613281250e+01,-1.180768966674804688e+02,6.585875701904296875e+01,-2.980446624755859375e+01
4.276300072669982910e-01,1.000000000000000000e+00,4.511678218841552734e+00,-6.778204441070556641e+00,4.442701339721679688e+00,-2.043987884521484375e+02,-9.667078399658203125e+01,-1.760771484375000000e+02,5.500723266601562500e+01,-2.090467262268066406e+01,-9.345405578613281250e+01,-1.180768966674804688e+02,6.585875701904296875e+01,-2.980446624755859375e+01
4.317150115966796875e-01,1.000000000000000000e+00,4.446599483489990234e+00,-6.723190784454345703e+00,4.451016902923583984e+00,-2.043407897949218750e+02,-9.659693908691406250e+01,-1.760132598876953125e+02,5.500712203979492188e+01,-2.090467262268066406e+01,-9.345405578613281250e+01,-1.180768966674804688e+02,6.585875701904296875e+01,-2.980424880981445312e+01
4.361259937286376953e-01,1.000000000000000000e+00,4.381665229797363281e+00,-6.667928695678710938e+00,4.459353446960449219e+00,-2.042823791503906250e+02,-9.652346801757812500e+01,-1.759480743408203125e+02,5.500723266601562500e+01,-2.090467262268066406e+01,-9.345405578613281250e+01,-1.180768966674804688e+02,6.585875701904296875e+01,-2.980446624755859375e+01
4.394269883632659912e-01,1.000000000000000000e+00,4.316874027252197266e+00,-6.612892627716064453e+00,4.467526435852050781e+00,-2.042242279052734375e+02,-9.644947052001953125e+01,-1.758845367431640625e+02,5.500723266601562500e+01,-2.090467262268066406e+01,-9.345405578613281250e+01,-1.180768966674804688e+02,6.585860443115234375e+01,-2.980424880981445312e+01
4.437150061130523682e-01,1.000000000000000000e+00,4.251737594604492188e+00,-6.557698249816894531e+00,4.475658893585205078e+00,-2.041654968261718750e+02,-9.637472534179687500e+01,-1.758204498291015625e+02,5.500712203979492188e+01,-2.090467262268066406e+01,-9.345405578613281250e+01,-1.180768966674804688e+02,6.585875701904296875e+01,-2.980424880981445312e+01
4.483219981193542480e-01,1.000000000000000000e+00,4.186803340911865234e+00,-6.502730369567871094e+00,4.483649730682373047e+00,-2.041078643798828125e+02,-9.630077362060546875e+01,-1.757558288574218750e+02,5.500712203979492188e+01,-2.090467262268066406e+01,-9.345405578613281250e+01,-1.180768966674804688e+02,6.585875701904296875e+01,-2.980446624755859375e+01
4.515469968318939209e-01,1.000000000000000000e+00,4.122012138366699219e+00,-6.447739601135253906e+00,4.491863727569580078e+00,-2.040498657226562500e+02,-9.622735595703125000e+01,-1.756926879882812500e+02,5.500734329223632812e+01,-2.090467262268066406e+01,-9.345405578613281250e+01,-1.180768966674804688e+02,6.585875701904296875e+01,-2.980424880981445312e+01
4.557830095291137695e-01,1.000000000000000000e+00,4.056904792785644531e+00,-6.392681121826171875e+00,4.500362396240234375e+00,-2.039918823242187500e+02,-9.615345764160156250e+01,-1.756284027099609375e+02,5.500723266601562500e+01,-2.090467262268066406e+01,-9.345405578613281250e+01,-1.180768966674804688e+02,6.585860443115234375e+01,-2.980424880981445312e+01
4.602949917316436768e-01,1.000000000000000000e+00,3.991596698760986328e+00,-6.337486743927001953e+00,4.508698463439941406e+00,-2.039340362548828125e+02,-9.607859802246093750e+01,-1.755634307861328125e+02,5.500723266601562500e+01,-2.090467262268066406e+01,-9.345405578613281250e+01,-1.180768966674804688e+02,6.585875701904296875e+01,-2.980424880981445312e+01
4.636180102825164795e-01,1.000000000000000000e+00,3.926317691802978516e+00,-6.282246589660644531e+00,4.516830921173095703e+00,-2.038749847412109375e+02,-9.600428009033203125e+01,-1.754997406005859375e+02,5.500723266601562500e+01,-2.090467262268066406e+01,-9.345405578613281250e+01,-1.180768966674804688e+02,6.585875701904296875e+01,-2.980424880981445312e+01
4.679319858551025391e-01,1.000000000000000000e+00,3.861095666885375977e+00,-6.227029800415039062e+00,4.524821281433105469e+00,-2.038170471191406250e+02,-9.593134307861328125e+01,-1.754351196289062500e+02,5.500723266601562500e+01,-2.090467262268066406e+01,-9.345405578613281250e+01,-1.180768966674804688e+02,6.585875701904296875e+01,-2.980424880981445312e+01
4.729979932308197021e-01,1.000000000000000000e+00,3.796017169952392578e+00,-6.171744823455810547e+00,4.532629013061523438e+00,-2.037591094970703125e+02,-9.585713195800781250e+01,-1.753702239990234375e+02,5.500712203979492188e+01,-2.090467262268066406e+01,-9.345405578613281250e+01,-1.180768966674804688e+02,6.585875701904296875e+01,-2.980424880981445312e+01
4.759260118007659912e-01,1.000000000000000000e+00,3.730910301208496094e+00,-6.116392135620117188e+00,4.540659904479980469e+00,-2.037008972167968750e+02,-9.578242492675781250e+01,-1.753072204589843750e+02,5.500723266601562500e+01,-2.090467262268066406e+01,-9.345405578613281250e+01,-1.180768966674804688e+02,6.585875701904296875e+01,-2.980424880981445312e+01
4.802950024604797363e-01,1.000000000000000000e+00,3.665860414505004883e+00,-6.061310768127441406e+00,4.548995971679687500e+00,-2.036427459716796875e+02,-9.570837402343750000e+01,-1.752425842285156250e+02,5.500723266601562500e+01,-2.090467262268066406e+01,-9.345405578613281250e+01,-1.180768966674804688e+02,6.585875701904296875e+01,-2.980424880981445312e+01
4.846009910106658936e-01,1.000000000000000000e+00,3.600724697113037109e+00,-6.006252288818359375e+00,4.557535648345947266e+00,-2.035839080810546875e+02,-9.563485717773437500e+01,-1.751779479980468750e+02,5.500712203979492188e+01,-2.090476417541503906e+01,-9.345405578613281250e+01,-1.180768966674804688e+02,6.585875701904296875e+01,-2.980424880981445312e+01
4.878579974174499512e-01,1.000000000000000000e+00,3.535675048828125000e+00,-5.951193809509277344e+00,4.565851211547851562e+00,-2.035260925292968750e+02,-9.556111907958984375e+01,-1.751142120361328125e+02,5.500723266601562500e+01,-2.090467262268066406e+01,-9.345405578613281250e+01,-1.180768966674804688e+02,6.585875701904296875e+01,-2.980402946472167969e+01
4.925020039081573486e-01,1.000000000000000000e+00,3.470654249191284180e+00,-5.896135330200195312e+00,4.574065208435058594e+00,-2.034680938720703125e+02,-9.548641967773437500e+01,-1.750492401123046875e+02,5.500712203979492188e+01,-2.090467262268066406e+01,-9.345405578613281250e+01,-1.180768966674804688e+02,6.585875701904296875e+01,-2.980424880981445312e+01
4.959389865398406982e-01,1.000000000000000000e+00,3.405719280242919922e+00,-5.841008663177490234e+00,4.582198143005371094e+00,-2.034096679687500000e+02,-9.541236114501953125e+01,-1.749850769042968750e+02,5.500734329223632812e+01,-2.090467262268066406e+01,-9.345405578613281250e+01,-1.180768966674804688e+02,6.585875701904296875e+01,-2.980424880981445312e+01
5.003560185432434082e-01,1.000000000000000000e+00,3.340784549713134766e+00,-5.785995483398437500e+00,4.590249061584472656e+00,-2.033515167236328125e+02,-9.533872985839843750e+01,-1.749218139648437500e+02,5.500723266601562500e+01,-2.090467262268066406e+01,-9.345405578613281250e+01,-1.180768966674804688e+02,6.585875701904296875e+01,-2.980424880981445312e+01
5.041930079460144043e-01,1.000000000000000000e+00,3.276050567626953125e+00,-5.731072425842285156e+00,4.598178386688232422e+00,-2.032931060791015625e+02,-9.526521301269531250e+01,-1.748568420410156250e+02,5.500723266601562500e+01,-2.090458106994628906e+01,-9.345405578613281250e+01,-1.180768966674804688e+02,6.585875701904296875e+01,-2.980424880981445312e+01
5.087010264396667480e-01,1.000000000000000000e+00,3.211287975311279297e+00,-5.676240444183349609e+00,4.606433391571044922e+00,-2.032352142333984375e+02,-9.519051361083984375e+01,-1.747928161621093750e+02,5.500723266601562500e+01,-2.090467262268066406e+01,-9.345405578613281250e+01,-1.180768966674804688e+02,6.585875701904296875e+01,-2.980424880981445312e+01
5.120549798011779785e-01,1.000000000000000000e+00,3.146324634552001953e+00,-5.621543884277343750e+00,4.614850521087646484e+00,-2.031772155761718750e+02,-9.511662292480468750e+01,-1.747288818359375000e+02,5.500723266601562500e+01,-2.090467262268066406e+01,-9.345405578613281250e+01,-1.180768966674804688e+02,6.585875701904296875e+01,-2.980424880981445312e+01
5.160560011863708496e-01,1.000000000000000000e+00,3.081361055374145508e+00,-5.566507816314697266e+00,4.623126029968261719e+00,-2.031190643310546875e+02,-9.504288482666015625e+01,-1.746643676757812500e+02,5.500723266601562500e+01,-2.090467262268066406e+01,-9.345405578613281250e+01,-1.180768966674804688e+02,6.585875701904296875e+01,-2.980446624755859375e+01
5.215749740600585938e-01,1.000000000000000000e+00,3.016225337982177734e+00,-5.511471748352050781e+00,4.631360054016113281e+00,-2.030612792968750000e+02,-9.496946716308593750e+01,-1.746004943847656250e+02,5.500723266601562500e+01,-2.090467262268066406e+01,-9.345405578613281250e+01,-1.180768966674804688e+02,6.585875701904296875e+01,-2.980424880981445312e+01
5.243620276451110840e-01,1.000000000000000000e+00,2.951175689697265625e+00,-5.456322669982910156e+00,4.639329910278320312e+00,-2.030026702880859375e+02,-9.489461517333984375e+01,-1.745366058349609375e+02,5.500723266601562500e+01,-2.090467262268066406e+01,-9.345405578613281250e+01,-1.180768966674804688e+02,6.585875701904296875e+01,-2.980424880981445312e+01
5.284100174903869629e-01,1.000000000000000000e+00,2.886126041412353516e+00,-5.401354789733886719e+00,4.647117137908935547e+00,-2.029449768066406250e+02,-9.482114410400390625e+01,-1.744722595214843750e+02,5.500734329223632812e+01,-2.090467262268066406e+01,-9.345405578613281250e+01,-1.180768966674804688e+02,6.585875701904296875e+01,-2.980424880981445312e+01
5.329849720001220703e-01,1.000000000000000000e+00,2.820932865142822266e+00,-5.346499919891357422e+00,4.655128479003906250e+00,-2.028867340087890625e+02,-9.474708557128906250e+01,-1.744084320068359375e+02,5.500723266601562500e+01,-2.090467262268066406e+01,-9.345405578613281250e+01,-1.180768966674804688e+02,6.585875701904296875e+01,-2.980424880981445312e+01
5.363249778747558594e-01,1.000000000000000000e+00,2.755854368209838867e+00,-5.291622161865234375e+00,4.663464069366455078e+00,-2.028283538818359375e+02,-9.467366790771484375e+01,-1.743439483642578125e+02,5.500723266601562500e+01,-2.090467262268066406e+01,-9.345405578613281250e+01,-1.180768966674804688e+02,6.585875701904296875e+01,-2.980424880981445312e+01
5.404490232467651367e-01,1.000000000000000000e+00,2.690891027450561523e+00,-5.236767292022705078e+00,4.671942710876464844e+00,-2.027699432373046875e+02,-9.459902191162109375e+01,-1.742789001464843750e+02,5.500723266601562500e+01,-2.090467262268066406e+01,-9.345405578613281250e+01,-1.180768966674804688e+02,6.585875701904296875e+01,-2.980424880981445312e+01
5.443789958953857422e-01,1.000000000000000000e+00,2.625783920288085938e+00,-5.181618213653564453e+00,4.680217742919921875e+00,-2.027116851806640625e+02,-9.452550506591796875e+01,-1.742156982421875000e+02,5.500723266601562500e+01,-2.090467262268066406e+01,-9.345405578613281250e+01,-1.180768966674804688e+02,6.585875701904296875e+01,-2.980424880981445312e+01
5.483829975128173828e-01,1.000000000000000000e+00,2.560762882232666016e+00,-5.126695156097412109e+00,4.688309669494628906e+00,-2.026537475585937500e+02,-9.445128631591796875e+01,-1.741514739990234375e+02,5.500723266601562500e+01,-2.090467262268066406e+01,-9.345405578613281250e+01,-1.180768966674804688e+02,6.585875701904296875e+01,-2.980424880981445312e+01
5.526049733161926270e-01,1.000000000000000000e+00,2.495656013488769531e+00,-5.071681976318359375e+00,4.696300029754638672e+00,-2.025954284667968750e+02,-9.437770843505859375e+01,-1.740870513916015625e+02,5.500712203979492188e+01,-2.090467262268066406e+01,-9.345405578613281250e+01,-1.180768966674804688e+02,6.585875701904296875e+01,-2.980424880981445312e+01
5.571929812431335449e-01,1.000000000000000000e+00,2.430807113647460938e+00,-5.016849517822265625e+00,4.704148292541503906e+00,-2.025373840332031250e+02,-9.430343627929687500e+01,-1.740235137939453125e+02,5.500723266601562500e+01,-2.090467262268066406e+01,-9.345405578613281250e+01,-1.180768966674804688e+02,6.585875701904296875e+01,-2.980424880981445312e+01
5.603979825973510742e-01,1.000000000000000000e+00,2.365958452224731445e+00,-4.962062358856201172e+00,4.712158679962158203e+00,-2.024792938232421875e+02,-9.423050689697265625e+01,-1.739588165283203125e+02,5.500734329223632812e+01,-2.090467262268066406e+01,-9.345405578613281250e+01,-1.180768966674804688e+02,6.585875701904296875e+01,-2.980424880981445312e+01
5.645200014114379883e-01,1.000000000000000000e+00,2.300851583480834961e+00,-4.907252788543701172e+00,4.720352172851562500e+00,-2.024212341308593750e+02,-9.415676879882812500e+01,-1.738945159912109375e+02,5.500712203979492188e+01,-2.090476417541503906e+01,-9.345405578613281250e+01,-1.180768966674804688e+02,6.585875701904296875e+01,-2.980424880981445312e+01
5.684930086135864258e-01,1.000000000000000000e+00,2.235974073410034180e+00,-4.852216720581054688e+00,4.728587150573730469e+00,-2.023635559082031250e+02,-9.408265686035156250e+01,-1.738314514160156250e+02,5.500723266601562500e+01,-2.090467262268066406e+01,-9.345405578613281250e+01,-1.180768966674804688e+02,6.585875701904296875e+01,-2.980424880981445312e+01
5.725730061531066895e-01,1.000000000000000000e+00,2.170809507369995117e+00,-4.797158241271972656e+00,4.736760139465332031e+00,-2.023046112060546875e+02,-9.400806427001953125e+01,-1.737670288085937500e+02,5.500723266601562500e+01,-2.090467262268066406e+01,-9.345405578613281250e+01,-1.180768966674804688e+02,6.585875701904296875e+01,-2.980424880981445312e+01
5.752819776535034180e-01,1.000000000000000000e+00,2.105731010437011719e+00,-4.742099761962890625e+00,4.744913101196289062e+00,-2.022469940185546875e+02,-9.393497467041015625e+01,-1.737026672363281250e+02,5.500723266601562500e+01,-2.090467262268066406e+01,-9.345405578613281250e+01,-1.180768966674804688e+02,6.585875701904296875e+01,-2.980424880981445312e+01
5.792869925498962402e-01,1.000000000000000000e+00,2.040451765060424805e+00,-4.687018394470214844e+00,4.752944469451904297e+00,-2.021890106201171875e+02,-9.386171722412109375e+01,-1.736394653320312500e+02,5.500712203979492188e+01,-2.090467262268066406e+01,-9.345405578613281250e+01,-1.180768966674804688e+02,6.585875701904296875e+01,-2.980446624755859375e+01
5.832419991493225098e-01,1.000000000000000000e+00,1.975316166877746582e+00,-4.631869316101074219e+00,4.760955333709716797e+00,-2.021305847167968750e+02,-9.378776550292968750e+01,-1.735751037597656250e+02,5.500723266601562500e+01,-2.090467262268066406e+01,-9.345405578613281250e+01,-1.180768966674804688e+02,6.585875701904296875e+01,-2.980424880981445312e+01
5.872949957847595215e-01,1.000000000000000000e+00,1.910295128822326660e+00,-4.576878547668457031e+00,4.769189357757568359e+00,-2.020730133056640625e+02,-9.371339416503906250e+01,-1.735109405517578125e+02,5.500734329223632812e+01,-2.090467262268066406e+01,-9.345405578613281250e+01,-1.180768966674804688e+02,6.585875701904296875e+01,-2.980424880981445312e+01
5.912590026855468750e-01,1.000000000000000000e+00,1.845245599746704102e+00,-4.521933078765869141e+00,4.777627468109130859e+00,-2.020143890380859375e+02,-9.363949584960937500e+01,-1.734477996826171875e+02,5.500723266601562500e+01,-2.090467262268066406e+01,-9.345405578613281250e+01,-1.180768966674804688e+02,6.585875701904296875e+01,-2.980402946472167969e+01
5.952410101890563965e-01,1.000000000000000000e+00,1.780310750007629395e+00,-4.466829299926757812e+00,4.785943031311035156e+00,-2.019561767578125000e+02,-9.356602478027343750e+01,-1.733836517333984375e+02,5.500723266601562500e+01,-2.090467262268066406e+01,-9.345405578613281250e+01,-1.180768966674804688e+02,6.585875701904296875e+01,-2.980424880981445312e+01
5.993030071258544922e-01,1.000000000000000000e+00,1.715203642845153809e+00,-4.411793231964111328e+00,4.794197559356689453e+00,-2.018979797363281250e+02,-9.349192047119140625e+01,-1.733194885253906250e+02,5.500734329223632812e+01,-2.090476417541503906e+01,-9.345405578613281250e+01,-1.180768966674804688e+02,6.585860443115234375e+01,-2.980424880981445312e+01
6.032909750938415527e-01,1.000000000000000000e+00,1.650240063667297363e+00,-4.356734752655029297e+00,4.802432060241699219e+00,-2.018393554687500000e+02,-9.341806793212890625e+01,-1.732558898925781250e+02,5.500723266601562500e+01,-2.090458106994628906e+01,-9.345405578613281250e+01,-1.180768966674804688e+02,6.585875701904296875e+01,-2.980402946472167969e+01
6.072400212287902832e-01,1.000000000000000000e+00,1.585534930229187012e+00,-4.301857471466064453e+00,4.810442447662353516e+00,-2.017818298339843750e+02,-9.334428405761718750e+01,-1.731910552978515625e+02,5.500723266601562500e+01,-2.090476417541503906e+01,-9.345405578613281250e+01,-1.180768966674804688e+02,6.585875701904296875e+01,-2.980424880981445312e+01
6.113529801368713379e-01,1.000000000000000000e+00,1.520714998245239258e+00,-4.246889114379882812e+00,4.818392276763916016e+00,-2.017232666015625000e+02,-9.327033233642578125e+01,-1.731271057128906250e+02,5.500734329223632812e+01,-2.090467262268066406e+01,-9.345405578613281250e+01,-1.180768966674804688e+02,6.585875701904296875e+01,-2.980424880981445312e+01
6.153140068054199219e-01,1.000000000000000000e+00,1.455837607383728027e+00,-4.192124843597412109e+00,4.826525211334228516e+00,-2.016652221679687500e+02,-9.319628143310546875e+01,-1.730637512207031250e+02,5.500723266601562500e+01,-2.090467262268066406e+01,-9.345405578613281250e+01,-1.180768966674804688e+02,6.585875701904296875e+01,-2.980424880981445312e+01
6.192420125007629395e-01,1.000000000000000000e+00,1.391247272491455078e+00,-4.137292385101318359e+00,4.834861278533935547e+00,-2.016071624755859375e+02,-9.312222290039062500e+01,-1.729992065429687500e+02,5.500723266601562500e+01,-2.090467262268066406e+01,-9.345405578613281250e+01,-1.180768966674804688e+02,6.585875701904296875e+01,-2.980424880981445312e+01
6.233080029487609863e-01,1.000000000000000000e+00,1.326829195022583008e+00,-4.082143306732177734e+00,4.843197345733642578e+00,-2.015489196777343750e+02,-9.304901885986328125e+01,-1.729351806640625000e+02,5.500723266601562500e+01,-2.090467262268066406e+01,-9.345405578613281250e+01,-1.180768966674804688e+02,6.585875701904296875e+01,-2.980424880981445312e+01
6.272860169410705566e-01,1.000000000000000000e+00,1.261865615844726562e+00,-4.026994228363037109e+00,4.851228237152099609e+00,-2.014913940429687500e+02,-9.297506713867187500e+01,-1.728710174560546875e+02,5.500734329223632812e+01,-2.090467262268066406e+01,-9.345405578613281250e+01,-1.180768966674804688e+02,6.585875701904296875e+01,-2.980424880981445312e+01
6.312419772148132324e-01,1.000000000000000000e+00,1.197131752967834473e+00,-3.971913099288940430e+00,4.859198570251464844e+00,-2.014331207275390625e+02,-9.290085601806640625e+01,-1.728064727783203125e+02,5.500712203979492188e+01,-2.090467262268066406e+01,-9.345405578613281250e+01,-1.180768966674804688e+02,6.585875701904296875e+01,-2.980424880981445312e+01
6.352980136871337891e-01,1.000000000000000000e+00,1.132225632667541504e+00,-3.916967630386352539e+00,4.866964817047119141e+00,-2.013752441406250000e+02,-9.282631683349609375e+01,-1.727429199218750000e+02,5.500723266601562500e+01,-2.090467262268066406e+01,-9.345405578613281250e+01,-1.180768966674804688e+02,6.585875701904296875e+01,-2.980424880981445312e+01
6.392660140991210938e-01,1.000000000000000000e+00,1.067434310913085938e+00,-3.862022161483764648e+00,4.874894142150878906e+00,-2.013169250488281250e+02,-9.275321960449218750e+01,-1.726791076660156250e+02,5.500723266601562500e+01,-2.090467262268066406e+01,-9.345405578613281250e+01,-1.180768966674804688e+02,6.585875701904296875e+01,-2.980424880981445312e+01
6.432690024375915527e-01,1.000000000000000000e+00,1.002614378929138184e+00,-3.807099342346191406e+00,4.883251190185546875e+00,-2.012587280273437500e+02,-9.267937469482421875e+01,-1.726141357421875000e+02,5.500712203979492188e+01,-2.090467262268066406e+01,-9.345405578613281250e+01,-1.180768966674804688e+02,6.585875701904296875e+01,-2.980402946472167969e+01
6.472929716110229492e-01,1.000000000000000000e+00,9.378230571746826172e-01,-3.752198934555053711e+00,4.891728878021240234e+00,-2.012011566162109375e+02,-9.260516357421875000e+01,-1.725509338378906250e+02,5.500723266601562500e+01,-2.090458106994628906e+01,-9.345405578613281250e+01,-1.180768966674804688e+02,6.585875701904296875e+01,-2.980446624755859375e+01
6.512420177459716797e-01,1.000000000000000000e+00,8.731466531753540039e-01,-3.696959495544433594e+00,4.900004386901855469e+00,-2.011426391601562500e+02,-9.253046417236328125e+01,-1.724867095947265625e+02,5.500723266601562500e+01,-2.090458106994628906e+01,-9.345405578613281250e+01,-1.180768966674804688e+02,6.585875701904296875e+01,-2.980424880981445312e+01
6.552519798278808594e-01,1.000000000000000000e+00,8.084989190101623535e-01,-3.642104387283325195e+00,4.908218383789062500e+00,-2.010844879150390625e+02,-9.245731353759765625e+01,-1.724222869873046875e+02,5.500723266601562500e+01,-2.090467262268066406e+01,-9.345405578613281250e+01,-1.180768966674804688e+02,6.585875701904296875e+01,-2.980424880981445312e+01
6.593059897422790527e-01,1.000000000000000000e+00,7.435640692710876465e-01,-3.587294816970825195e+00,4.916228771209716797e+00,-2.010263366699218750e+02,-9.238362884521484375e+01,-1.723593444824218750e+02,5.500723266601562500e+01,-2.090467262268066406e+01,-9.345405578613281250e+01,-1.180768966674804688e+02,6.585875701904296875e+01,-2.980424880981445312e+01
6.632630228996276855e-01,1.000000000000000000e+00,6.789450645446777344e-01,-3.532462596893310547e+00,4.924138069152832031e+00,-2.009682312011718750e+02,-9.230931091308593750e+01,-1.722951965332031250e+02,5.500723266601562500e+01,-2.090467262268066406e+01,-9.345405578613281250e+01,-1.180768966674804688e+02,6.585875701904296875e+01,-2.980424880981445312e+01
6.672390103340148926e-01,1.000000000000000000e+00,6.140102148056030273e-01,-3.477766036987304688e+00,4.932047367095947266e+00,-2.009104614257812500e+02,-9.223530578613281250e+01,-1.722308959960937500e+02,5.500723266601562500e+01,-2.090467262268066406e+01,-9.345405578613281250e+01,-1.180768966674804688e+02,6.585875701904296875e+01,-2.980402946472167969e+01
6.712750196456909180e-01,1.000000000000000000e+00,5.494198799133300781e-01,-3.422956466674804688e+00,4.940240859985351562e+00,-2.008521881103515625e+02,-9.216167449951171875e+01,-1.721672973632812500e+02,5.500723266601562500e+01,-2.090467262268066406e+01,-9.345405578613281250e+01,-1.180768966674804688e+02,6.585875701904296875e+01,-2.980402946472167969e+01
6.753069758415222168e-01,1.000000000000000000e+00,4.847433865070343018e-01,-3.368033885955810547e+00,4.948495388031005859e+00,-2.007942962646484375e+02,-9.208810424804687500e+01,-1.721026763916015625e+02,5.500723266601562500e+01,-2.090467262268066406e+01,-9.345405578613281250e+01,-1.180768966674804688e+02,6.585875701904296875e+01,-2.980424880981445312e+01
6.792740225791931152e-01,1.000000000000000000e+00,4.199521243572235107e-01,-3.312974929809570312e+00,4.956770896911621094e+00,-2.007357177734375000e+02,-9.201388549804687500e+01,-1.720385742187500000e+02,5.500723266601562500e+01,-2.090467262268066406e+01,-9.345405578613281250e+01,-1.180768966674804688e+02,6.585875701904296875e+01,-2.980424880981445312e+01
6.832299828529357910e-01,1.000000000000000000e+00,3.552182614803314209e-01,-3.258074998855590820e+00,4.965025424957275391e+00,-2.006778869628906250e+02,-9.193993377685546875e+01,-1.719755706787109375e+02,5.500723266601562500e+01,-2.090467262268066406e+01,-9.345405578613281250e+01,-1.180768966674804688e+02,6.585875701904296875e+01,-2.980424880981445312e+01
6.873430013656616211e-01,1.000000000000000000e+00,2.901399135589599609e-01,-3.203106880187988281e+00,4.973035812377929688e+00,-2.006204376220703125e+02,-9.186624908447265625e+01,-1.719112854003906250e+02,5.500723266601562500e+01,-2.090467262268066406e+01,-9.345405578613281250e+01,-1.180768966674804688e+02,6.585875701904296875e+01,-2.980424880981445312e+01
6.912310123443603516e-01,1.000000000000000000e+00,2.250902801752090454e-01,-3.147980213165283203e+00,4.980843544006347656e+00,-2.005622253417968750e+02,-9.179267883300781250e+01,-1.718469848632812500e+02,5.500723266601562500e+01,-2.090467262268066406e+01,-9.345405578613281250e+01,-1.180768966674804688e+02,6.585875701904296875e+01,-2.980402946472167969e+01
6.975110173225402832e-01,1.000000000000000000e+00,1.598683893680572510e-01,-3.093057632446289062e+00,4.988874435424804688e+00,-2.005048980712890625e+02,-9.171862030029296875e+01,-1.717831115722656250e+02,5.500723266601562500e+01,-2.090467262268066406e+01,-9.345405578613281250e+01,-1.180768966674804688e+02,6.585875701904296875e+01,-2.980424880981445312e+01
6.993200182914733887e-01,1.000000000000000000e+00,9.470390528440475464e-02,-3.038112163543701172e+00,4.997189998626708984e+00,-2.004463500976562500e+02,-9.164466857910156250e+01,-1.717191467285156250e+02,5.500712203979492188e+01,-2.090476417541503906e+01,-9.345405578613281250e+01,-1.180768966674804688e+02,6.585875701904296875e+01,-2.980424880981445312e+01
7.056220173835754395e-01,1.000000000000000000e+00,2.971167676150798798e-02,-2.983257293701171875e+00,5.005587577819824219e+00,-2.003882904052734375e+02,-9.157099151611328125e+01,-1.716553497314453125e+02,5.500723266601562500e+01,-2.090467262268066406e+01,-9.345405578613281250e+01,-1.180768966674804688e+02,6.585875701904296875e+01,-2.980424880981445312e+01
7.072950005531311035e-01,1.000000000000000000e+00,-3.522313758730888367e-02,-2.928334474563598633e+00,5.013882637023925781e+00,-2.003308715820312500e+02,-9.149768066406250000e+01,-1.715919342041015625e+02,5.500723266601562500e+01,-2.090467262268066406e+01,-9.345405578613281250e+01,-1.180768966674804688e+02,6.585875701904296875e+01,-2.980424880981445312e+01
7.122430205345153809e-01,1.000000000000000000e+00,-1.002440825104713440e-01,-2.873321056365966797e+00,5.022157669067382812e+00,-2.002720947265625000e+02,-9.142303466796875000e+01,-1.715275115966796875e+02,5.500723266601562500e+01,-2.090467262268066406e+01,-9.345405578613281250e+01,-1.180766754150390625e+02,6.585875701904296875e+01,-2.980424880981445312e+01
7.156649827957153320e-01,1.000000000000000000e+00,-1.652650237083435059e-01,-2.818420886993408203e+00,5.030250072479248047e+00,-2.002144165039062500e+02,-9.134967041015625000e+01,-1.714630737304687500e+02,5.500734329223632812e+01,-2.090467262268066406e+01,-9.345405578613281250e+01,-1.180768966674804688e+02,6.585875701904296875e+01,-2.980424880981445312e+01
7.203270196914672852e-01,1.000000000000000000e+00,-2.302859425544738770e-01,-2.763498067855834961e+00,5.038179397583007812e+00,-2.001557922363281250e+02,-9.127567291259765625e+01,-1.713999481201171875e+02,5.500723266601562500e+01,-2.090467262268066406e+01,-9.345405578613281250e+01,-1.180768966674804688e+02,6.585875701904296875e+01,-2.980424880981445312e+01
7.233120203018188477e-01,1.000000000000000000e+00,-2.954217195510864258e-01,-2.708710908889770508e+00,5.046128749847412109e+00,-2.000978393554687500e+02,-9.120267486572265625e+01,-1.713354492187500000e+02,5.500723266601562500e+01,-2.090458106994628906e+01,-9.345405578613281250e+01,-1.180768966674804688e+02,6.585875701904296875e+01,-2.980402946472167969e+01
7.298759818077087402e-01,1.000000000000000000e+00,-2.954217195510864258e-01,-2.708710908889770508e+00,5.046128749847412109e+00,-2.000978393554687500e+02,-9.120267486572265625e+01,-1.713354492187500000e+02,5.500723266601562500e+01,-2.090458106994628906e+01,-9.345405578613281250e+01,-1.180768966674804688e+02,6.585875701904296875e+01,-2.980402946472167969e+01
7.322980165481567383e-01,1.000000000000000000e+00,-4.250617027282714844e-01,-2.598933219909667969e+00,5.062374114990234375e+00,-1.999820709228515625e+02,-9.105541992187500000e+01,-1.712083587646484375e+02,5.500723266601562500e+01,-2.090467262268066406e+01,-9.345405578613281250e+01,-1.180768966674804688e+02,6.585889434814453125e+01,-2.980424880981445312e+01
7.353119850158691406e-01,1.000000000000000000e+00,-4.896520376205444336e-01,-2.543965101242065430e+00,5.070527076721191406e+00,-1.999242858886718750e+02,-9.098184204101562500e+01,-1.711438751220703125e+02,5.500723266601562500e+01,-2.090467262268066406e+01,-9.345405578613281250e+01,-1.180768966674804688e+02,6.585875701904296875e+01,-2.980424880981445312e+01
7.398939728736877441e-01,1.000000000000000000e+00,-4.896520376205444336e-01,-2.543965101242065430e+00,5.070527076721191406e+00,-1.999242858886718750e+02,-9.098184204101562500e+01,-1.711438751220703125e+02,5.500723266601562500e+01,-2.090467262268066406e+01,-9.345405578613281250e+01,-1.180768966674804688e+02,6.585875701904296875e+01,-2.980424880981445312e+01
7.442799806594848633e-01,1.000000000000000000e+00,-6.194642186164855957e-01,-2.433938264846801758e+00,5.086528301239013672e+00,-1.998078155517578125e+02,-9.083405303955078125e+01,-1.710160369873046875e+02,5.500723266601562500e+01,-2.090467262268066406e+01,-9.345405578613281250e+01,-1.180768966674804688e+02,6.585875701904296875e+01,-2.980424880981445312e+01
7.472590208053588867e-01,1.000000000000000000e+00,-6.844851970672607422e-01,-2.378992795944213867e+00,5.094437122344970703e+00,-1.997503051757812500e+02,-9.076079559326171875e+01,-1.709509277343750000e+02,5.500712203979492188e+01,-2.090467262268066406e+01,-9.345405578613281250e+01,-1.180768966674804688e+02,6.585875701904296875e+01,-2.980424880981445312e+01
7.513639926910400391e-01,1.000000000000000000e+00,-6.844851970672607422e-01,-2.378992795944213867e+00,5.094437122344970703e+00,-1.997503051757812500e+02,-9.076079559326171875e+01,-1.709509277343750000e+02,5.500712203979492188e+01,-2.090467262268066406e+01,-9.345405578613281250e+01,-1.180768966674804688e+02,6.585875701904296875e+01,-2.980424880981445312e+01
7.552850246429443359e-01,1.000000000000000000e+00,-7.495635151863098145e-01,-2.324070215225219727e+00,5.102549552917480469e+00,-1.996920928955078125e+02,-9.068785858154296875e+01,-1.708878631591796875e+02,5.500723266601562500e+01,-2.090467262268066406e+01,-9.345405578613281250e+01,-1.180768966674804688e+02,6.585875701904296875e+01,-2.980446624755859375e+01
7.592930197715759277e-01,1.000000000000000000e+00,-8.142973780632019043e-01,-2.269283294677734375e+00,5.110886096954345703e+00,-1.996345672607421875e+02,-9.061396026611328125e+01,-1.708239746093750000e+02,5.500723266601562500e+01,-2.090467262268066406e+01,-9.345405578613281250e+01,-1.180768966674804688e+02,6.585875701904296875e+01,-2.980424880981445312e+01
7.634029984474182129e-01,1.000000000000000000e+00,-8.792322278022766113e-01,-2.214201927185058594e+00,5.119221687316894531e+00,-1.995763092041015625e+02,-9.053963470458984375e+01,-1.707595520019531250e+02,5.500723266601562500e+01,-2.090467262268066406e+01,-9.345405578613281250e+01,-1.180768966674804688e+02,6.585875701904296875e+01,-2.980424880981445312e+01
7.672989964485168457e-01,1.000000000000000000e+00,-9.441096186637878418e-01,-2.159369707107543945e+00,5.127557754516601562e+00,-1.995182647705078125e+02,-9.046617126464843750e+01,-1.706959381103515625e+02,5.500723266601562500e+01,-2.090458106994628906e+01,-9.345405578613281250e+01,-1.180768966674804688e+02,6.585875701904296875e+01,-2.980424880981445312e+01
7.713189721107482910e-01,1.000000000000000000e+00,-1.008843541145324707e+00,-2.104514598846435547e+00,5.135670185089111328e+00,-1.994605407714843750e+02,-9.039307403564453125e+01,-1.706315765380859375e+02,5.500723266601562500e+01,-2.090476417541503906e+01,-9.345405578613281250e+01,-1.180768966674804688e+02,6.585875701904296875e+01,-2.980446624755859375e+01
7.753490209579467773e-01,1.000000000000000000e+00,-1.073548674583435059e+00,-2.049772977828979492e+00,5.143741607666015625e+00,-1.994021301269531250e+02,-9.031944274902343750e+01,-1.705668945312500000e+02,5.500723266601562500e+01,-2.090467262268066406e+01,-9.345405578613281250e+01,-1.180768966674804688e+02,6.585875701904296875e+01,-2.980424880981445312e+01
7.792900204658508301e-01,1.000000000000000000e+00,-1.138253808021545410e+00,-1.994985818862915039e+00,5.151731967926025391e+00,-1.993441314697265625e+02,-9.024533843994140625e+01,-1.705039520263671875e+02,5.500723266601562500e+01,-2.090467262268066406e+01,-9.345405578613281250e+01,-1.180768966674804688e+02,6.585875701904296875e+01,-2.980446624755859375e+01
7.832869887351989746e-01,1.000000000000000000e+00,-1.203045129776000977e+00,-1.940357327461242676e+00,5.159783840179443359e+00,-1.992859344482421875e+02,-9.017170715332031250e+01,-1.704398651123046875e+02,5.500712203979492188e+01,-2.090467262268066406e+01,-9.345405578613281250e+01,-1.180768966674804688e+02,6.585875701904296875e+01,-2.980424880981445312e+01
7.885649800300598145e-01,1.000000000000000000e+00,-1.267778992652893066e+00,-1.885547637939453125e+00,5.168017864227294922e+00,-1.992277832031250000e+02,-9.009828948974609375e+01,-1.703751678466796875e+02,5.500723266601562500e+01,-2.090467262268066406e+01,-9.345405578613281250e+01,-1.180768966674804688e+02,6.585875701904296875e+01,-2.980424880981445312e+01
7.912250161170959473e-01,1.000000000000000000e+00,-1.397103190422058105e+00,-1.775679349899291992e+00,5.184405803680419922e+00,-1.991117401123046875e+02,-8.995023345947265625e+01,-1.702473297119140625e+02,5.500723266601562500e+01,-2.090467262268066406e+01,-9.345405578613281250e+01,-1.180768966674804688e+02,6.585875701904296875e+01,-2.980424880981445312e+01
7.953590154647827148e-01,1.000000000000000000e+00,-1.397103190422058105e+00,-1.775679349899291992e+00,5.184405803680419922e+00,-1.991117401123046875e+02,-8.995023345947265625e+01,-1.702473297119140625e+02,5.500723266601562500e+01,-2.090467262268066406e+01,-9.345405578613281250e+01,-1.180768966674804688e+02,6.585875701904296875e+01,-2.980424880981445312e+01
7.992910146713256836e-01,1.000000000000000000e+00,-1.461722135543823242e+00,-1.720643401145935059e+00,5.192274093627929688e+00,-1.990541534423828125e+02,-8.987676239013671875e+01,-1.701837768554687500e+02,5.500723266601562500e+01,-2.090467262268066406e+01,-9.345405578613281250e+01,-1.180768966674804688e+02,6.585875701904296875e+01,-2.980424880981445312e+01
8.032799959182739258e-01,1.000000000000000000e+00,-1.526398658752441406e+00,-1.665562152862548828e+00,5.200121879577636719e+00,-1.989954833984375000e+02,-8.980318450927734375e+01,-1.701204376220703125e+02,5.500723266601562500e+01,-2.090458106994628906e+01,-9.345405578613281250e+01,-1.180768966674804688e+02,6.585875701904296875e+01,-2.980424880981445312e+01
8.073589801788330078e-01,1.000000000000000000e+00,-1.591390848159790039e+00,-1.610775113105773926e+00,5.208071708679199219e+00,-1.989380187988281250e+02,-8.972949981689453125e+01,-1.700560150146484375e+02,5.500723266601562500e+01,-2.090467262268066406e+01,-9.345405578613281250e+01,-1.180768966674804688e+02,6.585875701904296875e+01,-2.980424880981445312e+01
8.113549947738647461e-01,1.000000000000000000e+00,-1.656124711036682129e+00,-1.556010723114013672e+00,5.216306209564208984e+00,-1.988802337646484375e+02,-8.965486145019531250e+01,-1.699922027587890625e+02,5.500723266601562500e+01,-2.090467262268066406e+01,-9.345405578613281250e+01,-1.180768966674804688e+02,6.585875701904296875e+01,-2.980446624755859375e+01
8.152530193328857422e-01,1.000000000000000000e+00,-1.785621166229248047e+00,-1.446165084838867188e+00,5.232916831970214844e+00,-1.987642974853515625e+02,-8.950797271728515625e+01,-1.698638305664062500e+02,5.500723266601562500e+01,-2.090467262268066406e+01,-9.345405578613281250e+01,-1.180768966674804688e+02,6.585875701904296875e+01,-2.980424880981445312e+01
8.193330168724060059e-01,1.000000000000000000e+00,-1.785621166229248047e+00,-1.446165084838867188e+00,5.232916831970214844e+00,-1.987642974853515625e+02,-8.950797271728515625e+01,-1.698638305664062500e+02,5.500723266601562500e+01,-2.090467262268066406e+01,-9.345405578613281250e+01,-1.180768966674804688e+02,6.585875701904296875e+01,-2.980424880981445312e+01
8.233540058135986328e-01,1.000000000000000000e+00,-1.850240230560302734e+00,-1.391174316406250000e+00,5.241192340850830078e+00,-1.987058868408203125e+02,-8.943439483642578125e+01,-1.697998046875000000e+02,5.500723266601562500e+01,-2.090467262268066406e+01,-9.345405578613281250e+01,-1.180768966674804688e+02,6.585875701904296875e+01,-2.980424880981445312e+01
8.272950053215026855e-01,1.000000000000000000e+00,-1.914830565452575684e+00,-1.336206197738647461e+00,5.249202728271484375e+00,-1.986481475830078125e+02,-8.935958862304687500e+01,-1.697363433837890625e+02,5.500723266601562500e+01,-2.090458106994628906e+01,-9.345405578613281250e+01,-1.180768966674804688e+02,6.585875701904296875e+01,-2.980424880981445312e+01
8.313069939613342285e-01,1.000000000000000000e+00,-1.979363441467285156e+00,-1.281328797340393066e+00,5.257152557373046875e+00,-1.985904235839843750e+02,-8.928601837158203125e+01,-1.696721038818359375e+02,5.500712203979492188e+01,-2.090467262268066406e+01,-9.345405578613281250e+01,-1.180768966674804688e+02,6.585875701904296875e+01,-2.980424880981445312e+01
8.353589773178100586e-01,1.000000000000000000e+00,-2.044011116027832031e+00,-1.226790666580200195e+00,5.265163421630859375e+00,-1.985317993164062500e+02,-8.921249389648437500e+01,-1.696087646484375000e+02,5.500723266601562500e+01,-2.090458106994628906e+01,-9.345405578613281250e+01,-1.180768966674804688e+02,6.585875701904296875e+01,-2.980424880981445312e+01
8.402569890022277832e-01,1.000000000000000000e+00,-2.108831167221069336e+00,-1.172094106674194336e+00,5.273458957672119141e+00,-1.984742279052734375e+02,-8.913896942138671875e+01,-1.695448913574218750e+02,5.500723266601562500e+01,-2.090467262268066406e+01,-9.345405578613281250e+01,-1.180768966674804688e+02,6.585875701904296875e+01,-2.980424880981445312e+01
8.432440161705017090e-01,1.000000000000000000e+00,-2.238183975219726562e+00,-1.061954259872436523e+00,5.290131092071533203e+00,-1.983575439453125000e+02,-8.899053192138671875e+01,-1.694167175292968750e+02,5.500723266601562500e+01,-2.090467262268066406e+01,-9.345405578613281250e+01,-1.180768966674804688e+02,6.585875701904296875e+01,-2.980446624755859375e+01
8.473939895629882812e-01,1.000000000000000000e+00,-2.238183975219726562e+00,-1.061954259872436523e+00,5.290131092071533203e+00,-1.983575439453125000e+02,-8.899053192138671875e+01,-1.694167175292968750e+02,5.500723266601562500e+01,-2.090467262268066406e+01,-9.345405578613281250e+01,-1.180768966674804688e+02,6.585875701904296875e+01,-2.980446624755859375e+01
8.512849807739257812e-01,1.000000000000000000e+00,-2.302774667739868164e+00,-1.006986260414123535e+00,5.298243045806884766e+00,-1.982998809814453125e+02,-8.891722869873046875e+01,-1.693533020019531250e+02,5.500734329223632812e+01,-2.090467262268066406e+01,-9.345405578613281250e+01,-1.180768966674804688e+02,6.585875701904296875e+01,-2.980424880981445312e+01
8.553209900856018066e-01,1.000000000000000000e+00,-2.367508411407470703e+00,-9.521765112876892090e-01,5.306111335754394531e+00,-1.982415618896484375e+02,-8.884338378906250000e+01,-1.692886047363281250e+02,5.500734329223632812e+01,-2.090476417541503906e+01,-9.345405578613281250e+01,-1.180768966674804688e+02,6.585875701904296875e+01,-2.980424880981445312e+01
8.596519827842712402e-01,1.000000000000000000e+00,-2.432184934616088867e+00,-8.972764015197753906e-01,5.313919067382812500e+00,-1.981838226318359375e+02,-8.876905822753906250e+01,-1.692253265380859375e+02,5.500723266601562500e+01,-2.090467262268066406e+01,-9.345405578613281250e+01,-1.180768966674804688e+02,6.585889434814453125e+01,-2.980424880981445312e+01
8.653370141983032227e-01,1.000000000000000000e+00,-2.496947526931762695e+00,-8.424440622329711914e-01,5.321909427642822266e+00,-1.981253662109375000e+02,-8.869538116455078125e+01,-1.691619873046875000e+02,5.500723266601562500e+01,-2.090467262268066406e+01,-9.345405578613281250e+01,-1.180768966674804688e+02,6.585875701904296875e+01,-2.980424880981445312e+01
8.680520057678222656e-01,1.000000000000000000e+00,-2.626730918884277344e+00,-7.326210737228393555e-01,5.338622570037841797e+00,-1.980104217529296875e+02,-8.854859924316406250e+01,-1.690340118408203125e+02,5.500723266601562500e+01,-2.090458106994628906e+01,-9.345405578613281250e+01,-1.180768966674804688e+02,6.585875701904296875e+01,-2.980424880981445312e+01
8.713549971580505371e-01,1.000000000000000000e+00,-2.626730918884277344e+00,-7.326210737228393555e-01,5.338622570037841797e+00,-1.980104217529296875e+02,-8.854859924316406250e+01,-1.690340118408203125e+02,5.500723266601562500e+01,-2.090458106994628906e+01,-9.345405578613281250e+01,-1.180768966674804688e+02,6.585875701904296875e+01,-2.980424880981445312e+01
8.752899765968322754e-01,1.000000000000000000e+00,-2.691493511199951172e+00,-6.779471635818481445e-01,5.346917629241943359e+00,-1.979521179199218750e+02,-8.847438812255859375e+01,-1.689706726074218750e+02,5.500712203979492188e+01,-2.090476417541503906e+01,-9.345405578613281250e+01,-1.180768966674804688e+02,6.585875701904296875e+01,-2.980424880981445312e+01
8.792970180511474609e-01,1.000000000000000000e+00,-2.756284952163696289e+00,-6.231375336647033691e-01,5.355172157287597656e+00,-1.978941802978515625e+02,-8.840081024169921875e+01,-1.689065246582031250e+02,5.500723266601562500e+01,-2.090458106994628906e+01,-9.345405578613281250e+01,-1.180768966674804688e+02,6.585875701904296875e+01,-2.980424880981445312e+01
8.838480114936828613e-01,1.000000000000000000e+00,-2.821162223815917969e+00,-5.684862732887268066e-01,5.363142490386962891e+00,-1.978357696533203125e+02,-8.832749176025390625e+01,-1.688434600830078125e+02,5.500723266601562500e+01,-2.090467262268066406e+01,-9.345405578613281250e+01,-1.180768966674804688e+02,6.585875701904296875e+01,-2.980424880981445312e+01
8.882669806480407715e-01,1.000000000000000000e+00,-2.885781288146972656e+00,-5.138349533081054688e-01,5.371010780334472656e+00,-1.977782897949218750e+02,-8.825365447998046875e+01,-1.687790985107421875e+02,5.500734329223632812e+01,-2.090458106994628906e+01,-9.345405578613281250e+01,-1.180768966674804688e+02,6.585875701904296875e+01,-2.980424880981445312e+01
8.914920091629028320e-01,1.000000000000000000e+00,-2.950543880462646484e+00,-4.591158628463745117e-01,5.378859043121337891e+00,-1.977206115722656250e+02,-8.817975616455078125e+01,-1.687140655517578125e+02,5.500723266601562500e+01,-2.090467262268066406e+01,-9.345405578613281250e+01,-1.180768966674804688e+02,6.585875701904296875e+01,-2.980424880981445312e+01
8.953830003738403320e-01,1.000000000000000000e+00,-3.015277862548828125e+00,-4.044872224330902100e-01,5.386930465698242188e+00,-1.976622009277343750e+02,-8.810618591308593750e+01,-1.686513366699218750e+02,5.500723266601562500e+01,-2.090467262268066406e+01,-9.345405578613281250e+01,-1.180768966674804688e+02,6.585875701904296875e+01,-2.980424880981445312e+01
8.992909789085388184e-01,1.000000000000000000e+00,-3.080212593078613281e+00,-3.496549427509307861e-01,5.395185470581054688e+00,-1.976041564941406250e+02,-8.803303527832031250e+01,-1.685874481201171875e+02,5.500723266601562500e+01,-2.090467262268066406e+01,-9.345405578613281250e+01,-1.180768966674804688e+02,6.585875701904296875e+01,-2.980446624755859375e+01
9.033169746398925781e-01,1.000000000000000000e+00,-3.145204782485961914e+00,-2.948226332664489746e-01,5.403358459472656250e+00,-1.975458374023437500e+02,-8.795935058593750000e+01,-1.685228118896484375e+02,5.500701522827148438e+01,-2.090467262268066406e+01,-9.345405578613281250e+01,-1.180768966674804688e+02,6.585875701904296875e+01,-2.980424880981445312e+01
9.078959822654724121e-01,1.000000000000000000e+00,-3.209881067276000977e+00,-2.399450838565826416e-01,5.411450386047363281e+00,-1.974882202148437500e+02,-8.788529205322265625e+01,-1.684594116210937500e+02,5.500723266601562500e+01,-2.090467262268066406e+01,-9.345405578613281250e+01,-1.180768966674804688e+02,6.585875701904296875e+01,-2.980424880981445312e+01
9.122999906539916992e-01,1.000000000000000000e+00,-3.339463710784912109e+00,-1.301899701356887817e-01,5.427085876464843750e+00,-1.973721771240234375e+02,-8.773845672607421875e+01,-1.683311004638671875e+02,5.500723266601562500e+01,-2.090467262268066406e+01,-9.345405578613281250e+01,-1.180768966674804688e+02,6.585875701904296875e+01,-2.980424880981445312e+01
9.155640006065368652e-01,1.000000000000000000e+00,-3.339463710784912109e+00,-1.301899701356887817e-01,5.427085876464843750e+00,-1.973721771240234375e+02,-8.773845672607421875e+01,-1.683311004638671875e+02,5.500723266601562500e+01,-2.090467262268066406e+01,-9.345405578613281250e+01,-1.180768966674804688e+02,6.585875701904296875e+01,-2.980424880981445312e+01
9.193630218505859375e-01,1.000000000000000000e+00,-3.404111385345458984e+00,-7.544819265604019165e-02,5.435238838195800781e+00,-1.973145446777343750e+02,-8.766520690917968750e+01,-1.682678222656250000e+02,5.500723266601562500e+01,-2.090467262268066406e+01,-9.345405578613281250e+01,-1.180768966674804688e+02,6.585875701904296875e+01,-2.980424880981445312e+01
9.234359860420227051e-01,1.000000000000000000e+00,-3.469218492507934570e+00,-2.059326320886611938e-02,5.443635940551757812e+00,-1.972561798095703125e+02,-8.759093475341796875e+01,-1.682032623291015625e+02,5.500723266601562500e+01,-2.090467262268066406e+01,-9.345405578613281250e+01,-1.180768966674804688e+02,6.585875701904296875e+01,-2.980424880981445312e+01
9.275320172309875488e-01,1.000000000000000000e+00,-3.534210681915283203e+00,3.426166251301765442e-02,5.451992511749267578e+00,-1.971987609863281250e+02,-8.751783752441406250e+01,-1.681393890380859375e+02,5.500712203979492188e+01,-2.090467262268066406e+01,-9.345405578613281250e+01,-1.180768966674804688e+02,6.585875701904296875e+01,-2.980424880981445312e+01
9.321150183677673340e-01,1.000000000000000000e+00,-3.599088430404663086e+00,8.918447792530059814e-02,5.460308074951171875e+00,-1.971408386230468750e+02,-8.744373321533203125e+01,-1.680762481689453125e+02,5.500723266601562500e+01,-2.090467262268066406e+01,-9.345405578613281250e+01,-1.180768966674804688e+02,6.585875701904296875e+01,-2.980424880981445312e+01
9.353730082511901855e-01,1.000000000000000000e+00,-3.663821935653686523e+00,1.438583731651306152e-01,5.468542575836181641e+00,-1.970830993652343750e+02,-8.737047576904296875e+01,-1.680116882324218750e+02,5.500723266601562500e+01,-2.090467262268066406e+01,-9.345405578613281250e+01,-1.180768966674804688e+02,6.585875701904296875e+01,-2.980402946472167969e+01
9.396719932556152344e-01,1.000000000000000000e+00,-3.728412389755249023e+00,1.986227631568908691e-01,5.476593971252441406e+00,-1.970256347656250000e+02,-8.729657745361328125e+01,-1.679479980468750000e+02,5.500723266601562500e+01,-2.090467262268066406e+01,-9.345405578613281250e+01,-1.180768966674804688e+02,6.585875701904296875e+01,-2.980424880981445312e+01
9.435099959373474121e-01,1.000000000000000000e+00,-3.793203592300415039e+00,2.532514035701751709e-01,5.484482288360595703e+00,-1.969670562744140625e+02,-8.722358703613281250e+01,-1.678846588134765625e+02,5.500723266601562500e+01,-2.090467262268066406e+01,-9.345405578613281250e+01,-1.180768966674804688e+02,6.585875701904296875e+01,-2.980424880981445312e+01
9.474300146102905273e-01,1.000000000000000000e+00,-3.857994794845581055e+00,3.079479038715362549e-01,5.492513656616210938e+00,-1.969095916748046875e+02,-8.715022277832031250e+01,-1.678201751708984375e+02,5.500723266601562500e+01,-2.090467262268066406e+01,-9.345405578613281250e+01,-1.180768966674804688e+02,6.585875701904296875e+01,-2.980446624755859375e+01
9.517480134963989258e-01,1.000000000000000000e+00,-3.922671556472778320e+00,3.628707230091094971e-01,5.500748157501220703e+00,-1.968517456054687500e+02,-8.707643890380859375e+01,-1.677567596435546875e+02,5.500723266601562500e+01,-2.090467262268066406e+01,-9.345405578613281250e+01,-1.180768966674804688e+02,6.585875701904296875e+01,-2.980424880981445312e+01
9.562780261039733887e-01,1.000000000000000000e+00,-3.987519979476928711e+00,4.178388118743896484e-01,5.508941650390625000e+00,-1.967935485839843750e+02,-8.700243377685546875e+01,-1.676930084228515625e+02,5.500723266601562500e+01,-2.090467262268066406e+01,-9.345405578613281250e+01,-1.180768966674804688e+02,6.585875701904296875e+01,-2.980424880981445312e+01
9.603310227394104004e-01,1.000000000000000000e+00,-4.052167892456054688e+00,4.728068709373474121e-01,5.517115116119384766e+00,-1.967356719970703125e+02,-8.692949676513671875e+01,-1.676284484863281250e+02,5.500723266601562500e+01,-2.090467262268066406e+01,-9.345405578613281250e+01,-1.180768966674804688e+02,6.585875701904296875e+01,-2.980402946472167969e+01
9.638659954071044922e-01,1.000000000000000000e+00,-4.116844654083251953e+00,5.276165604591369629e-01,5.525024414062500000e+00,-1.966768341064453125e+02,-8.685613250732421875e+01,-1.675647125244140625e+02,5.500723266601562500e+01,-2.090467262268066406e+01,-9.345405578613281250e+01,-1.180768966674804688e+02,6.585875701904296875e+01,-2.980424880981445312e+01
9.683169722557067871e-01,1.000000000000000000e+00,-4.181549549102783203e+00,5.824488997459411621e-01,5.532730102539062500e+00,-1.966195678710937500e+02,-8.678228759765625000e+01,-1.675010223388671875e+02,5.500723266601562500e+01,-2.090467262268066406e+01,-9.345405578613281250e+01,-1.180768966674804688e+02,6.585875701904296875e+01,-2.980424880981445312e+01
9.717079997062683105e-01,1.000000000000000000e+00,-4.246283531188964844e+00,6.373490095138549805e-01,5.540557861328125000e+00,-1.965617828369140625e+02,-8.670838928222656250e+01,-1.674370574951171875e+02,5.500712203979492188e+01,-2.090467262268066406e+01,-9.345405578613281250e+01,-1.180768966674804688e+02,6.585875701904296875e+01,-2.980424880981445312e+01
9.758660197257995605e-01,1.000000000000000000e+00,-4.310873508453369141e+00,6.920229196548461914e-01,5.548710823059082031e+00,-1.965039978027343750e+02,-8.663497161865234375e+01,-1.673736572265625000e+02,5.500723266601562500e+01,-2.090476417541503906e+01,-9.345405578613281250e+01,-1.180768966674804688e+02,6.585875701904296875e+01,-2.980402946472167969e+01
9.805229902267456055e-01,1.000000000000000000e+00,-4.375693798065185547e+00,7.470588684082031250e-01,5.557087421417236328e+00,-1.964459533691406250e+02,-8.656134796142578125e+01,-1.673094329833984375e+02,5.500723266601562500e+01,-2.090467262268066406e+01,-9.345405578613281250e+01,-1.180768966674804688e+02,6.585875701904296875e+01,-2.980424880981445312e+01
9.842770099639892578e-01,1.000000000000000000e+00,-4.440370082855224609e+00,8.017780184745788574e-01,5.565423488616943359e+00,-1.963876953125000000e+02,-8.648728942871093750e+01,-1.672452087402343750e+02,5.500734329223632812e+01,-2.090467262268066406e+01,-9.345405578613281250e+01,-1.180768966674804688e+02,6.585875701904296875e+01,-2.980402946472167969e+01
9.877799749374389648e-01,1.000000000000000000e+00,-4.505104064941406250e+00,8.565198183059692383e-01,5.573678016662597656e+00,-1.963303375244140625e+02,-8.641413879394531250e+01,-1.671818084716796875e+02,5.500723266601562500e+01,-2.090467262268066406e+01,-9.345405578613281250e+01,-1.180768966674804688e+02,6.585875701904296875e+01,-2.980424880981445312e+01
9.918839931488037109e-01,1.000000000000000000e+00,-4.569780349731445312e+00,9.111257791519165039e-01,5.581851482391357422e+00,-1.962723388671875000e+02,-8.634040069580078125e+01,-1.671184539794921875e+02,5.500723266601562500e+01,-2.090476417541503906e+01,-9.345405578613281250e+01,-1.180768966674804688e+02,6.585860443115234375e+01,-2.980424880981445312e+01
9.963089823722839355e-01,1.000000000000000000e+00,-4.634514331817626953e+00,9.657996296882629395e-01,5.589801311492919922e+00,-1.962144012451171875e+02,-8.626688385009765625e+01,-1.670539093017578125e+02,5.500723266601562500e+01,-2.090467262268066406e+01,-9.345405578613281250e+01,-1.180768966674804688e+02,6.585875701904296875e+01,-2.980424880981445312e+01
1.000110030174255371e+00,1.000000000000000000e+00,-4.699133396148681641e+00,1.020450949668884277e+00,5.597527503967285156e+00,-1.961568756103515625e+02,-8.619256591796875000e+01,-1.669904174804687500e+02,5.500723266601562500e+01,-2.090467262268066406e+01,-9.345405578613281250e+01,-1.180768966674804688e+02,6.585875701904296875e+01,-2.980424880981445312e+01
1.004680037498474121e+00,1.000000000000000000e+00,-4.763494014739990234e+00,1.075034379959106445e+00,5.605639457702636719e+00,-1.960989379882812500e+02,-8.611903381347656250e+01,-1.669267578125000000e+02,5.500723266601562500e+01,-2.090467262268066406e+01,-9.345405578613281250e+01,-1.180768966674804688e+02,6.585875701904296875e+01,-2.980424880981445312e+01
1.008293032646179199e+00,1.000000000000000000e+00,-4.827940940856933594e+00,1.129934549331665039e+00,5.613955497741699219e+00,-1.960412597656250000e+02,-8.604593658447265625e+01,-1.668623199462890625e+02,5.500712203979492188e+01,-2.090467262268066406e+01,-9.345405578613281250e+01,-1.180768966674804688e+02,6.585875701904296875e+01,-2.980424880981445312e+01
1.012045979499816895e+00,1.000000000000000000e+00,-4.892474174499511719e+00,1.184698939323425293e+00,5.622148990631103516e+00,-1.959830017089843750e+02,-8.597236633300781250e+01,-1.667995147705078125e+02,5.500712203979492188e+01,-2.090467262268066406e+01,-9.345405578613281250e+01,-1.180768966674804688e+02,6.585875701904296875e+01,-2.980424880981445312e+01
1.016044974327087402e+00,1.000000000000000000e+00,-4.956892013549804688e+00,1.239621758460998535e+00,5.630342483520507812e+00,-1.959247436523437500e+02,-8.589814758300781250e+01,-1.667357177734375000e+02,5.500712203979492188e+01,-2.090458106994628906e+01,-9.345405578613281250e+01,-1.180768966674804688e+02,6.585875701904296875e+01,-2.980424880981445312e+01
1.020040988922119141e+00,1.000000000000000000e+00,-5.021539688110351562e+00,1.294499278068542480e+00,5.638272285461425781e+00,-1.958668518066406250e+02,-8.582436370849609375e+01,-1.666708831787109375e+02,5.500723266601562500e+01,-2.090467262268066406e+01,-9.345405578613281250e+01,-1.180768966674804688e+02,6.585860443115234375e+01,-2.980424880981445312e+01
1.024319052696228027e+00,1.000000000000000000e+00,-5.085813999176025391e+00,1.349105238914489746e+00,5.646039009094238281e+00,-1.958087463378906250e+02,-8.575141906738281250e+01,-1.666078796386718750e+02,5.500723266601562500e+01,-2.090467262268066406e+01,-9.345405578613281250e+01,-1.180768966674804688e+02,6.585875701904296875e+01,-2.980446624755859375e+01
1.028902053833007812e+00,1.000000000000000000e+00,-5.150404453277587891e+00,1.403846979141235352e+00,5.653846263885498047e+00,-1.957511291503906250e+02,-8.567794799804687500e+01,-1.665435028076171875e+02,5.500723266601562500e+01,-2.090467262268066406e+01,-9.345405578613281250e+01,-1.180768966674804688e+02,6.585875701904296875e+01,-2.980446624755859375e+01
1.033390998840332031e+00,1.000000000000000000e+00,-5.214822769165039062e+00,1.458679318428039551e+00,5.662080764770507812e+00,-1.956929321289062500e+02,-8.560363006591796875e+01,-1.664792175292968750e+02,5.500723266601562500e+01,-2.090467262268066406e+01,-9.345405578613281250e+01,-1.180768966674804688e+02,6.585875701904296875e+01,-2.980402946472167969e+01
1.036025047302246094e+00,1.000000000000000000e+00,-5.279413223266601562e+00,1.513511657714843750e+00,5.670477867126464844e+00,-1.956351470947265625e+02,-8.552978515625000000e+01,-1.664162292480468750e+02,5.500723266601562500e+01,-2.090467262268066406e+01,-9.345405578613281250e+01,-1.180768966674804688e+02,6.585875701904296875e+01,-2.980446624755859375e+01
1.040321946144104004e+00,1.000000000000000000e+00,-5.344089508056640625e+00,1.568276047706604004e+00,5.678793430328369141e+00,-1.955773010253906250e+02,-8.545711517333984375e+01,-1.663518676757812500e+02,5.500723266601562500e+01,-2.090476417541503906e+01,-9.345405578613281250e+01,-1.180768966674804688e+02,6.585875701904296875e+01,-2.980424880981445312e+01
1.044337034225463867e+00,1.000000000000000000e+00,-5.408679485321044922e+00,1.623040437698364258e+00,5.687129974365234375e+00,-1.955194702148437500e+02,-8.538348388671875000e+01,-1.662879028320312500e+02,5.500723266601562500e+01,-2.090467262268066406e+01,-9.345405578613281250e+01,-1.180768966674804688e+02,6.585875701904296875e+01,-2.980424880981445312e+01
1.048416018486022949e+00,1.000000000000000000e+00,-5.473241329193115234e+00,1.677669048309326172e+00,5.695119857788085938e+00,-1.954620513916015625e+02,-8.530959320068359375e+01,-1.662242889404296875e+02,5.500712203979492188e+01,-2.090467262268066406e+01,-9.345405578613281250e+01,-1.180768966674804688e+02,6.585875701904296875e+01,-2.980424880981445312e+01
1.053894996643066406e+00,1.000000000000000000e+00,-5.537774562835693359e+00,1.732229828834533691e+00,5.702927589416503906e+00,-1.954037017822265625e+02,-8.523574829101562500e+01,-1.661601409912109375e+02,5.500712203979492188e+01,-2.090458106994628906e+01,-9.345405578613281250e+01,-1.180768966674804688e+02,6.585875701904296875e+01,-2.980424880981445312e+01
1.057247996330261230e+00,1.000000000000000000e+00,-5.602307319641113281e+00,1.786880970001220703e+00,5.710754871368408203e+00,-1.953459625244140625e+02,-8.516243743896484375e+01,-1.660960693359375000e+02,5.500723266601562500e+01,-2.090458106994628906e+01,-9.345405578613281250e+01,-1.180768966674804688e+02,6.585875701904296875e+01,-2.980424880981445312e+01
1.060534954071044922e+00,1.000000000000000000e+00,-5.667040824890136719e+00,1.841781258583068848e+00,5.718806266784667969e+00,-1.952884368896484375e+02,-8.508928680419921875e+01,-1.660332489013671875e+02,5.500723266601562500e+01,-2.090458106994628906e+01,-9.345405578613281250e+01,-1.180768966674804688e+02,6.585875701904296875e+01,-2.980424880981445312e+01
1.064331054687500000e+00,1.000000000000000000e+00,-5.731459140777587891e+00,1.896545648574829102e+00,5.727040767669677734e+00,-1.952300872802734375e+02,-8.501539611816406250e+01,-1.659687652587890625e+02,5.500723266601562500e+01,-2.090467262268066406e+01,-9.345405578613281250e+01,-1.180768966674804688e+02,6.585875701904296875e+01,-2.980424880981445312e+01
1.068235039710998535e+00,1.000000000000000000e+00,-5.796106815338134766e+00,1.951468467712402344e+00,5.735214233398437500e+00,-1.951728210449218750e+02,-8.494144439697265625e+01,-1.659049530029296875e+02,5.500723266601562500e+01,-2.090467262268066406e+01,-9.345405578613281250e+01,-1.180768966674804688e+02,6.585875701904296875e+01,-2.980424880981445312e+01
1.072515010833740234e+00,1.000000000000000000e+00,-5.860898494720458984e+00,2.006142377853393555e+00,5.743265628814697266e+00,-1.951145172119140625e+02,-8.486797332763671875e+01,-1.658416137695312500e+02,5.500712203979492188e+01,-2.090467262268066406e+01,-9.345405578613281250e+01,-1.180768966674804688e+02,6.585875701904296875e+01,-2.980424880981445312e+01
1.075220942497253418e+00,1.000000000000000000e+00,-5.925603389739990234e+00,2.060974597930908203e+00,5.751154422760009766e+00,-1.950563659667968750e+02,-8.479482269287109375e+01,-1.657771148681640625e+02,5.500723266601562500e+01,-2.090467262268066406e+01,-9.345405578613281250e+01,-1.180768966674804688e+02,6.585875701904296875e+01,-2.980424880981445312e+01
1.079259991645812988e+00,1.000000000000000000e+00,-5.990193843841552734e+00,2.115806818008422852e+00,5.758901119232177734e+00,-1.949986267089843750e+02,-8.472087860107421875e+01,-1.657139892578125000e+02,5.500723266601562500e+01,-2.090467262268066406e+01,-9.345405578613281250e+01,-1.180768966674804688e+02,6.585889434814453125e+01,-2.980402946472167969e+01
1.083297967910766602e+00,1.000000000000000000e+00,-6.054841518402099609e+00,2.170480966567993164e+00,5.766891002655029297e+00,-1.949402618408203125e+02,-8.464756774902343750e+01,-1.656506347656250000e+02,5.500734329223632812e+01,-2.090467262268066406e+01,-9.345405578613281250e+01,-1.180768966674804688e+02,6.585875701904296875e+01,-2.980402946472167969e+01
1.087231040000915527e+00,1.000000000000000000e+00,-6.119690418243408203e+00,2.225381135940551758e+00,5.775084972381591797e+00,-1.948829040527343750e+02,-8.457393646240234375e+01,-1.655864715576171875e+02,5.500723266601562500e+01,-2.090467262268066406e+01,-9.345405578613281250e+01,-1.180768966674804688e+02,6.585875701904296875e+01,-2.980424880981445312e+01
1.091317057609558105e+00,1.000000000000000000e+00,-6.184538841247558594e+00,2.280077457427978516e+00,5.783482074737548828e+00,-1.948248138427734375e+02,-8.450067901611328125e+01,-1.655228729248046875e+02,5.500723266601562500e+01,-2.090467262268066406e+01,-9.345405578613281250e+01,-1.180768966674804688e+02,6.585860443115234375e+01,-2.980424880981445312e+01
1.095307946205139160e+00,1.000000000000000000e+00,-6.249272823333740234e+00,2.334728717803955078e+00,5.791736602783203125e+00,-1.947667541503906250e+02,-8.442667388916015625e+01,-1.654589843750000000e+02,5.500712203979492188e+01,-2.090476417541503906e+01,-9.345405578613281250e+01,-1.180768966674804688e+02,6.585875701904296875e+01,-2.980424880981445312e+01
1.099231004714965820e+00,1.000000000000000000e+00,-6.314093112945556641e+00,2.389402866363525391e+00,5.799991607666015625e+00,-1.947089691162109375e+02,-8.435320281982421875e+01,-1.653944244384765625e+02,5.500723266601562500e+01,-2.090467262268066406e+01,-9.345405578613281250e+01,-1.180768966674804688e+02,6.585875701904296875e+01,-2.980446624755859375e+01
1.104998946189880371e+00,1.000000000000000000e+00,-6.378970146179199219e+00,2.444053888320922852e+00,5.808022499084472656e+00,-1.946510925292968750e+02,-8.427952575683593750e+01,-1.653312835693359375e+02,5.500734329223632812e+01,-2.090467262268066406e+01,-9.345405578613281250e+01,-1.180768966674804688e+02,6.585875701904296875e+01,-2.980424880981445312e+01
1.108659982681274414e+00,1.000000000000000000e+00,-6.443876266479492188e+00,2.498682498931884766e+00,5.815870761871337891e+00,-1.945938262939453125e+02,-8.420648193359375000e+01,-1.652676086425781250e+02,5.500723266601562500e+01,-2.090467262268066406e+01,-9.345405578613281250e+01,-1.180768966674804688e+02,6.585875701904296875e+01,-2.980424880981445312e+01
