rpiRobotics/ARM-21-02-F-19-Robot-Motion-Program/data_performance_abb/curve_2/curve_pose_opt2/greedy0.02/grad_result/real_from_sim/run_1.csv
timestamp,cmd_num,J1,J2,J3,J4,J5,J6
1.480000064475461841e-04,-1.000000000000000000e+00,9.512578010559082031e+00,-1.098589801788330078e+01,3.916331529617309570e+00,-2.087273254394531250e+02,-1.022812423706054688e+02,-1.807227172851562500e+02,5.500723266601562500e+01,-2.090467262268066406e+01,-9.345405578613281250e+01,-1.180770339965820312e+02,6.585875701904296875e+01,-2.980402946472167969e+01
2.516000065952539444e-03,1.000000000000000000e+00,9.512548446655273438e+00,-1.098585319519042969e+01,3.916270494461059570e+00,-2.087273254394531250e+02,-1.022812423706054688e+02,-1.807229309082031250e+02,5.500734329223632812e+01,-2.090467262268066406e+01,-9.345405578613281250e+01,-1.180768966674804688e+02,6.585875701904296875e+01,-2.980424880981445312e+01
9.436000138521194458e-03,1.000000000000000000e+00,9.512578010559082031e+00,-1.098589801788330078e+01,3.916331529617309570e+00,-2.087273254394531250e+02,-1.022812423706054688e+02,-1.807227172851562500e+02,5.500712203979492188e+01,-2.090467262268066406e+01,-9.345405578613281250e+01,-1.180768966674804688e+02,6.585875701904296875e+01,-2.980424880981445312e+01
1.316799968481063843e-02,1.000000000000000000e+00,9.512548446655273438e+00,-1.098585319519042969e+01,3.916270494461059570e+00,-2.087272186279296875e+02,-1.022812423706054688e+02,-1.807225799560546875e+02,5.500723266601562500e+01,-2.090467262268066406e+01,-9.345405578613281250e+01,-1.180768966674804688e+02,6.585875701904296875e+01,-2.980424880981445312e+01
3.795799985527992249e-02,1.000000000000000000e+00,9.512548446655273438e+00,-1.098589801788330078e+01,3.916331529617309570e+00,-2.087273254394531250e+02,-1.022812423706054688e+02,-1.807227172851562500e+02,5.500723266601562500e+01,-2.090467262268066406e+01,-9.345405578613281250e+01,-1.180768966674804688e+02,6.585875701904296875e+01,-2.980402946472167969e+01
4.044400155544281006e-02,1.000000000000000000e+00,9.512548446655273438e+00,-1.098589801788330078e+01,3.916331529617309570e+00,-2.087273254394531250e+02,-1.022812423706054688e+02,-1.807227172851562500e+02,5.500723266601562500e+01,-2.090467262268066406e+01,-9.345405578613281250e+01,-1.180768966674804688e+02,6.585875701904296875e+01,-2.980424880981445312e+01
4.177200049161911011e-02,1.000000000000000000e+00,9.512548446655273438e+00,-1.098594379425048828e+01,3.916331529617309570e+00,-2.087271118164062500e+02,-1.022812423706054688e+02,-1.807227172851562500e+02,5.500723266601562500e+01,-2.090467262268066406e+01,-9.345405578613281250e+01,-1.180768966674804688e+02,6.585875701904296875e+01,-2.980424880981445312e+01
4.434699937701225281e-02,1.000000000000000000e+00,9.512548446655273438e+00,-1.098594379425048828e+01,3.916331529617309570e+00,-2.087271118164062500e+02,-1.022812423706054688e+02,-1.807227172851562500e+02,5.500723266601562500e+01,-2.090467262268066406e+01,-9.345405578613281250e+01,-1.180768966674804688e+02,6.585875701904296875e+01,-2.980424880981445312e+01
4.948600009083747864e-02,1.000000000000000000e+00,9.512548446655273438e+00,-1.098589801788330078e+01,3.916331529617309570e+00,-2.087273254394531250e+02,-1.022812423706054688e+02,-1.807227172851562500e+02,5.500723266601562500e+01,-2.090458106994628906e+01,-9.345405578613281250e+01,-1.180768966674804688e+02,6.585875701904296875e+01,-2.980424880981445312e+01
5.074200034141540527e-02,1.000000000000000000e+00,9.512548446655273438e+00,-1.098589801788330078e+01,3.916331529617309570e+00,-2.087273254394531250e+02,-1.022812423706054688e+02,-1.807227172851562500e+02,5.500723266601562500e+01,-2.090458106994628906e+01,-9.345405578613281250e+01,-1.180768966674804688e+02,6.585875701904296875e+01,-2.980424880981445312e+01
5.401200056076049805e-02,1.000000000000000000e+00,9.512491226196289062e+00,-1.098580741882324219e+01,3.916331529617309570e+00,-2.087272186279296875e+02,-1.022810897827148438e+02,-1.807227172851562500e+02,5.500712203979492188e+01,-2.090467262268066406e+01,-9.345405578613281250e+01,-1.180768966674804688e+02,6.585875701904296875e+01,-2.980424880981445312e+01
5.659300088882446289e-02,1.000000000000000000e+00,9.512491226196289062e+00,-1.098580741882324219e+01,3.916331529617309570e+00,-2.087272186279296875e+02,-1.022810897827148438e+02,-1.807227172851562500e+02,5.500712203979492188e+01,-2.090467262268066406e+01,-9.345405578613281250e+01,-1.180768966674804688e+02,6.585875701904296875e+01,-2.980424880981445312e+01
6.176299974322319031e-02,1.000000000000000000e+00,9.511142730712890625e+00,-1.098512935638427734e+01,3.916331529617309570e+00,-2.087272186279296875e+02,-1.022812423706054688e+02,-1.807227172851562500e+02,5.500723266601562500e+01,-2.090458106994628906e+01,-9.345405578613281250e+01,-1.180768966674804688e+02,6.585875701904296875e+01,-2.980446624755859375e+01
6.316599994897842407e-02,1.000000000000000000e+00,9.511142730712890625e+00,-1.098512935638427734e+01,3.916331529617309570e+00,-2.087272186279296875e+02,-1.022812423706054688e+02,-1.807227172851562500e+02,5.500723266601562500e+01,-2.090458106994628906e+01,-9.345405578613281250e+01,-1.180768966674804688e+02,6.585875701904296875e+01,-2.980446624755859375e+01
6.558199971914291382e-02,1.000000000000000000e+00,9.509362220764160156e+00,-1.098402023315429688e+01,3.916372060775756836e+00,-2.087271118164062500e+02,-1.022810897827148438e+02,-1.807227172851562500e+02,5.500723266601562500e+01,-2.090467262268066406e+01,-9.345405578613281250e+01,-1.180768966674804688e+02,6.585875701904296875e+01,-2.980424880981445312e+01
6.701000034809112549e-02,1.000000000000000000e+00,9.509362220764160156e+00,-1.098402023315429688e+01,3.916372060775756836e+00,-2.087271118164062500e+02,-1.022810897827148438e+02,-1.807227172851562500e+02,5.500723266601562500e+01,-2.090467262268066406e+01,-9.345405578613281250e+01,-1.180768966674804688e+02,6.585875701904296875e+01,-2.980424880981445312e+01
7.348600029945373535e-02,1.000000000000000000e+00,9.503046989440917969e+00,-1.097951602935791016e+01,3.916473627090454102e+00,-2.087270050048828125e+02,-1.022803878784179688e+02,-1.807223815917968750e+02,5.500734329223632812e+01,-2.090467262268066406e+01,-9.345405578613281250e+01,-1.180768966674804688e+02,6.585875701904296875e+01,-2.980424880981445312e+01
7.489699870347976685e-02,1.000000000000000000e+00,9.503046989440917969e+00,-1.097951602935791016e+01,3.916473627090454102e+00,-2.087270050048828125e+02,-1.022803878784179688e+02,-1.807223815917968750e+02,5.500734329223632812e+01,-2.090467262268066406e+01,-9.345405578613281250e+01,-1.180768966674804688e+02,6.585875701904296875e+01,-2.980424880981445312e+01
7.753700017929077148e-02,1.000000000000000000e+00,9.498568534851074219e+00,-1.097555637359619141e+01,3.916738271713256836e+00,-2.087267456054687500e+02,-1.022791671752929688e+02,-1.807223815917968750e+02,5.500723266601562500e+01,-2.090467262268066406e+01,-9.345405578613281250e+01,-1.180768966674804688e+02,6.585875701904296875e+01,-2.980424880981445312e+01
7.881200313568115234e-02,1.000000000000000000e+00,9.498568534851074219e+00,-1.097555637359619141e+01,3.916738271713256836e+00,-2.087267456054687500e+02,-1.022791671752929688e+02,-1.807223815917968750e+02,5.500723266601562500e+01,-2.090467262268066406e+01,-9.345405578613281250e+01,-1.180768966674804688e+02,6.585875701904296875e+01,-2.980424880981445312e+01
8.329799771308898926e-02,1.000000000000000000e+00,9.492741584777832031e+00,-1.097023868560791016e+01,3.917083740234375000e+00,-2.087254333496093750e+02,-1.022769241333007812e+02,-1.807213745117187500e+02,5.500712203979492188e+01,-2.090467262268066406e+01,-9.345405578613281250e+01,-1.180768966674804688e+02,6.585875701904296875e+01,-2.980446624755859375e+01
8.658800274133682251e-02,1.000000000000000000e+00,9.485507011413574219e+00,-1.096315574645996094e+01,3.917592048645019531e+00,-2.087225341796875000e+02,-1.022737808227539062e+02,-1.807195434570312500e+02,5.500712203979492188e+01,-2.090467262268066406e+01,-9.345405578613281250e+01,-1.180768966674804688e+02,6.585875701904296875e+01,-2.980424880981445312e+01
8.921299874782562256e-02,1.000000000000000000e+00,9.476464271545410156e+00,-1.095387649536132812e+01,3.918324232101440430e+00,-2.087187347412109375e+02,-1.022692489624023438e+02,-1.807158050537109375e+02,5.500723266601562500e+01,-2.090467262268066406e+01,-9.345405578613281250e+01,-1.180768966674804688e+02,6.585875701904296875e+01,-2.980424880981445312e+01
9.048599749803543091e-02,1.000000000000000000e+00,9.476464271545410156e+00,-1.095387649536132812e+01,3.918324232101440430e+00,-2.087187347412109375e+02,-1.022692489624023438e+02,-1.807158050537109375e+02,5.500723266601562500e+01,-2.090467262268066406e+01,-9.345405578613281250e+01,-1.180768966674804688e+02,6.585875701904296875e+01,-2.980424880981445312e+01
9.495999664068222046e-02,1.000000000000000000e+00,9.465210914611816406e+00,-1.094229030609130859e+01,3.919279575347900391e+00,-2.087139434814453125e+02,-1.022628479003906250e+02,-1.807102508544921875e+02,5.500723266601562500e+01,-2.090467262268066406e+01,-9.345405578613281250e+01,-1.180768966674804688e+02,6.585875701904296875e+01,-2.980402946472167969e+01
9.816899895668029785e-02,1.000000000000000000e+00,9.451316833496093750e+00,-1.092801094055175781e+01,3.920662164688110352e+00,-2.087071533203125000e+02,-1.022537841796875000e+02,-1.807029266357421875e+02,5.500723266601562500e+01,-2.090467262268066406e+01,-9.345405578613281250e+01,-1.180768966674804688e+02,6.585889434814453125e+01,-2.980424880981445312e+01
1.004969999194145203e-01,1.000000000000000000e+00,9.451316833496093750e+00,-1.092801094055175781e+01,3.920662164688110352e+00,-2.087071533203125000e+02,-1.022537841796875000e+02,-1.807029266357421875e+02,5.500723266601562500e+01,-2.090467262268066406e+01,-9.345405578613281250e+01,-1.180768966674804688e+02,6.585889434814453125e+01,-2.980424880981445312e+01
1.050800010561943054e-01,1.000000000000000000e+00,9.434466361999511719e+00,-1.091099357604980469e+01,3.922349691390991211e+00,-2.086977233886718750e+02,-1.022419509887695312e+02,-1.806926879882812500e+02,5.500723266601562500e+01,-2.090467262268066406e+01,-9.345405578613281250e+01,-1.180768966674804688e+02,6.585875701904296875e+01,-2.980424880981445312e+01
1.070749983191490173e-01,1.000000000000000000e+00,9.414773941040039062e+00,-1.089180278778076172e+01,3.924423456192016602e+00,-2.086854553222656250e+02,-1.022270736694335938e+02,-1.806795349121093750e+02,5.500723266601562500e+01,-2.090467262268066406e+01,-9.345405578613281250e+01,-1.180768966674804688e+02,6.585875701904296875e+01,-2.980424880981445312e+01
1.138890013098716736e-01,1.000000000000000000e+00,9.368784904479980469e+00,-1.084876060485839844e+01,3.929588079452514648e+00,-2.086533203125000000e+02,-1.021874084472656250e+02,-1.806446685791015625e+02,5.500734329223632812e+01,-2.090467262268066406e+01,-9.345405578613281250e+01,-1.180770339965820312e+02,6.585875701904296875e+01,-2.980446624755859375e+01
1.170630007982254028e-01,1.000000000000000000e+00,9.368784904479980469e+00,-1.084876060485839844e+01,3.929588079452514648e+00,-2.086533203125000000e+02,-1.021874084472656250e+02,-1.806446685791015625e+02,5.500734329223632812e+01,-2.090467262268066406e+01,-9.345405578613281250e+01,-1.180770339965820312e+02,6.585875701904296875e+01,-2.980446624755859375e+01
1.189780011773109436e-01,1.000000000000000000e+00,9.341743469238281250e+00,-1.082533931732177734e+01,3.932901859283447266e+00,-2.086325225830078125e+02,-1.021618194580078125e+02,-1.806218872070312500e+02,5.500734329223632812e+01,-2.090467262268066406e+01,-9.345405578613281250e+01,-1.180768966674804688e+02,6.585875701904296875e+01,-2.980424880981445312e+01
1.230460032820701599e-01,1.000000000000000000e+00,9.312031745910644531e+00,-1.080037879943847656e+01,3.936378479003906250e+00,-2.086084442138671875e+02,-1.021310577392578125e+02,-1.805953063964843750e+02,5.500723266601562500e+01,-2.090467262268066406e+01,-9.345405578613281250e+01,-1.180768966674804688e+02,6.585875701904296875e+01,-2.980424880981445312e+01
1.269910037517547607e-01,1.000000000000000000e+00,9.279621124267578125e+00,-1.077340316772460938e+01,3.940200805664062500e+00,-2.085808410644531250e+02,-1.020943145751953125e+02,-1.805643005371093750e+02,5.500723266601562500e+01,-2.090467262268066406e+01,-9.345405578613281250e+01,-1.180768966674804688e+02,6.585875701904296875e+01,-2.980446624755859375e+01
1.309700012207031250e-01,1.000000000000000000e+00,9.244313240051269531e+00,-1.074459552764892578e+01,3.944328308105468750e+00,-2.085483398437500000e+02,-1.020532684326171875e+02,-1.805295715332031250e+02,5.500712203979492188e+01,-2.090467262268066406e+01,-9.345405578613281250e+01,-1.180768966674804688e+02,6.585875701904296875e+01,-2.980424880981445312e+01
1.369830071926116943e-01,1.000000000000000000e+00,9.206190109252929688e+00,-1.071375083923339844e+01,3.948801279067993164e+00,-2.085112457275390625e+02,-1.020093917846679688e+02,-1.804900512695312500e+02,5.500712203979492188e+01,-2.090476417541503906e+01,-9.345405578613281250e+01,-1.180768966674804688e+02,6.585875701904296875e+01,-2.980424880981445312e+01
1.389950066804885864e-01,1.000000000000000000e+00,9.165627479553222656e+00,-1.068150329589843750e+01,3.953721523284912109e+00,-2.084718627929687500e+02,-1.019607543945312500e+02,-1.804458923339843750e+02,5.500723266601562500e+01,-2.090467262268066406e+01,-9.345405578613281250e+01,-1.180768966674804688e+02,6.585875701904296875e+01,-2.980424880981445312e+01
1.429699957370758057e-01,1.000000000000000000e+00,9.122567176818847656e+00,-1.064751243591308594e+01,3.959028244018554688e+00,-2.084304504394531250e+02,-1.019057922363281250e+02,-1.803987731933593750e+02,5.500723266601562500e+01,-2.090467262268066406e+01,-9.345405578613281250e+01,-1.180768966674804688e+02,6.585875701904296875e+01,-2.980402946472167969e+01
1.469800025224685669e-01,1.000000000000000000e+00,9.077296257019042969e+00,-1.061191654205322266e+01,3.964802265167236328e+00,-2.083856353759765625e+02,-1.018483734130859375e+02,-1.803502655029296875e+02,5.500723266601562500e+01,-2.090467262268066406e+01,-9.345405578613281250e+01,-1.180768966674804688e+02,6.585875701904296875e+01,-2.980424880981445312e+01
1.533129960298538208e-01,1.000000000000000000e+00,9.030016899108886719e+00,-1.057441902160644531e+01,3.970759630203247070e+00,-2.083362274169921875e+02,-1.017885513305664062e+02,-1.802977905273437500e+02,5.500712203979492188e+01,-2.090467262268066406e+01,-9.345405578613281250e+01,-1.180768966674804688e+02,6.585875701904296875e+01,-2.980424880981445312e+01
1.549859941005706787e-01,1.000000000000000000e+00,8.980611801147460938e+00,-1.053520107269287109e+01,3.977021932601928711e+00,-2.082853851318359375e+02,-1.017246246337890625e+02,-1.802403411865234375e+02,5.500723266601562500e+01,-2.090467262268066406e+01,-9.345405578613281250e+01,-1.180768966674804688e+02,6.585875701904296875e+01,-2.980424880981445312e+01
1.590420007705688477e-01,1.000000000000000000e+00,8.928624153137207031e+00,-1.049347114562988281e+01,3.983792304992675781e+00,-2.082332000732421875e+02,-1.016586685180664062e+02,-1.801823577880859375e+02,5.500712203979492188e+01,-2.090458106994628906e+01,-9.345405578613281250e+01,-1.180768966674804688e+02,6.585875701904296875e+01,-2.980446624755859375e+01
1.653050035238265991e-01,1.000000000000000000e+00,8.874052047729492188e+00,-1.044904899597167969e+01,3.990908622741699219e+00,-2.081791381835937500e+02,-1.015895690917968750e+02,-1.801245117187500000e+02,5.500723266601562500e+01,-2.090458106994628906e+01,-9.345405578613281250e+01,-1.180768966674804688e+02,6.585875701904296875e+01,-2.980424880981445312e+01
1.670179963111877441e-01,1.000000000000000000e+00,8.817614555358886719e+00,-1.040218162536621094e+01,3.998370170593261719e+00,-2.081240997314453125e+02,-1.015202102661132812e+02,-1.800634002685546875e+02,5.500723266601562500e+01,-2.090476417541503906e+01,-9.345405578613281250e+01,-1.180768966674804688e+02,6.585875701904296875e+01,-2.980424880981445312e+01
1.711789965629577637e-01,1.000000000000000000e+00,8.759426116943359375e+00,-1.035316562652587891e+01,4.005893230438232422e+00,-2.080672607421875000e+02,-1.014486541748046875e+02,-1.800003356933593750e+02,5.500723266601562500e+01,-2.090467262268066406e+01,-9.345405578613281250e+01,-1.180768966674804688e+02,6.585875701904296875e+01,-2.980424880981445312e+01
1.749819964170455933e-01,1.000000000000000000e+00,8.699686050415039062e+00,-1.030272388458251953e+01,4.013395309448242188e+00,-2.080098114013671875e+02,-1.013766784667968750e+02,-1.799378814697265625e+02,5.500734329223632812e+01,-2.090467262268066406e+01,-9.345405578613281250e+01,-1.180768966674804688e+02,6.585875701904296875e+01,-2.980424880981445312e+01
1.813749969005584717e-01,1.000000000000000000e+00,8.699686050415039062e+00,-1.030272388458251953e+01,4.013395309448242188e+00,-2.080098114013671875e+02,-1.013766784667968750e+02,-1.799378814697265625e+02,5.500734329223632812e+01,-2.090467262268066406e+01,-9.345405578613281250e+01,-1.180768966674804688e+02,6.585875701904296875e+01,-2.980424880981445312e+01
1.836179941892623901e-01,1.000000000000000000e+00,8.576908111572265625e+00,-1.019839954376220703e+01,4.028766155242919922e+00,-2.078942871093750000e+02,-1.012300109863281250e+02,-1.798097076416015625e+02,5.500723266601562500e+01,-2.090467262268066406e+01,-9.345405578613281250e+01,-1.180768966674804688e+02,6.585875701904296875e+01,-2.980424880981445312e+01
1.879709959030151367e-01,1.000000000000000000e+00,8.514097213745117188e+00,-1.014494800567626953e+01,4.036471843719482422e+00,-2.078363494873046875e+02,-1.011565399169921875e+02,-1.797466278076171875e+02,5.500712203979492188e+01,-2.090467262268066406e+01,-9.345405578613281250e+01,-1.180768966674804688e+02,6.585875701904296875e+01,-2.980402946472167969e+01
1.909669935703277588e-01,1.000000000000000000e+00,8.450425148010253906e+00,-1.009111118316650391e+01,4.044340133666992188e+00,-2.077779693603515625e+02,-1.010824813842773438e+02,-1.796814575195312500e+02,5.500723266601562500e+01,-2.090467262268066406e+01,-9.345405578613281250e+01,-1.180768966674804688e+02,6.585875701904296875e+01,-2.980424880981445312e+01
1.981669962406158447e-01,1.000000000000000000e+00,8.450425148010253906e+00,-1.009111118316650391e+01,4.044340133666992188e+00,-2.077779693603515625e+02,-1.010824813842773438e+02,-1.796814575195312500e+02,5.500723266601562500e+01,-2.090467262268066406e+01,-9.345405578613281250e+01,-1.180768966674804688e+02,6.585875701904296875e+01,-2.980424880981445312e+01
1.995770037174224854e-01,1.000000000000000000e+00,8.321043968200683594e+00,-9.980857849121093750e+00,4.060646533966064453e+00,-2.076613616943359375e+02,-1.009331970214843750e+02,-1.795526885986328125e+02,5.500723266601562500e+01,-2.090467262268066406e+01,-9.345405578613281250e+01,-1.180768966674804688e+02,6.585875701904296875e+01,-2.980424880981445312e+01
2.040379941463470459e-01,1.000000000000000000e+00,8.255679130554199219e+00,-9.925098419189453125e+00,4.068840026855468750e+00,-2.076025238037109375e+02,-1.008593521118164062e+02,-1.794879913330078125e+02,5.500723266601562500e+01,-2.090467262268066406e+01,-9.345405578613281250e+01,-1.180768966674804688e+02,6.585875701904296875e+01,-2.980424880981445312e+01
2.079750001430511475e-01,1.000000000000000000e+00,8.190169334411621094e+00,-9.869338035583496094e+00,4.077054500579833984e+00,-2.075449066162109375e+02,-1.007850341796875000e+02,-1.794236907958984375e+02,5.500734329223632812e+01,-2.090467262268066406e+01,-9.345405578613281250e+01,-1.180768966674804688e+02,6.585875701904296875e+01,-2.980424880981445312e+01
2.109809964895248413e-01,1.000000000000000000e+00,8.124258041381835938e+00,-9.813735961914062500e+00,4.085125923156738281e+00,-2.074863281250000000e+02,-1.007101745605468750e+02,-1.793597412109375000e+02,5.500723266601562500e+01,-2.090467262268066406e+01,-9.345405578613281250e+01,-1.180768966674804688e+02,6.585875701904296875e+01,-2.980424880981445312e+01
2.150190025568008423e-01,1.000000000000000000e+00,8.124258041381835938e+00,-9.813735961914062500e+00,4.085125923156738281e+00,-2.074863281250000000e+02,-1.007101745605468750e+02,-1.793597412109375000e+02,5.500723266601562500e+01,-2.090467262268066406e+01,-9.345405578613281250e+01,-1.180768966674804688e+02,6.585875701904296875e+01,-2.980424880981445312e+01
2.190929949283599854e-01,1.000000000000000000e+00,8.058634757995605469e+00,-9.758021354675292969e+00,4.093156814575195312e+00,-2.074284973144531250e+02,-1.006356964111328125e+02,-1.792947692871093750e+02,5.500723266601562500e+01,-2.090458106994628906e+01,-9.345405578613281250e+01,-1.180768966674804688e+02,6.585860443115234375e+01,-2.980424880981445312e+01
2.230290025472640991e-01,1.000000000000000000e+00,7.992953777313232422e+00,-9.702532768249511719e+00,4.101371288299560547e+00,-2.073701782226562500e+02,-1.005613784790039062e+02,-1.792308197021484375e+02,5.500712203979492188e+01,-2.090467262268066406e+01,-9.345405578613281250e+01,-1.180768966674804688e+02,6.585875701904296875e+01,-2.980424880981445312e+01
2.270109951496124268e-01,1.000000000000000000e+00,7.927415847778320312e+00,-9.646750450134277344e+00,4.109768390655517578e+00,-2.073111877441406250e+02,-1.004869384765625000e+02,-1.791667327880859375e+02,5.500723266601562500e+01,-2.090467262268066406e+01,-9.345405578613281250e+01,-1.180768966674804688e+02,6.585875701904296875e+01,-2.980424880981445312e+01
2.311740070581436157e-01,1.000000000000000000e+00,7.862194061279296875e+00,-9.591261863708496094e+00,4.118104457855224609e+00,-2.072530975341796875e+02,-1.004123535156250000e+02,-1.791017761230468750e+02,5.500723266601562500e+01,-2.090467262268066406e+01,-9.345405578613281250e+01,-1.180768966674804688e+02,6.585875701904296875e+01,-2.980424880981445312e+01
2.350710034370422363e-01,1.000000000000000000e+00,7.796742916107177734e+00,-9.535840988159179688e+00,4.126318454742431641e+00,-2.071946105957031250e+02,-1.003380813598632812e+02,-1.790384216308593750e+02,5.500723266601562500e+01,-2.090467262268066406e+01,-9.345405578613281250e+01,-1.180768966674804688e+02,6.585875701904296875e+01,-2.980402946472167969e+01
2.390359938144683838e-01,1.000000000000000000e+00,7.731549739837646484e+00,-9.480533599853515625e+00,4.134410381317138672e+00,-2.071363677978515625e+02,-1.002637100219726562e+02,-1.789742736816406250e+02,5.500723266601562500e+01,-2.090467262268066406e+01,-9.345405578613281250e+01,-1.180768966674804688e+02,6.585875701904296875e+01,-2.980424880981445312e+01
2.430820018053054810e-01,1.000000000000000000e+00,7.666097640991210938e+00,-9.425384521484375000e+00,4.142400741577148438e+00,-2.070776824951171875e+02,-1.001888046264648438e+02,-1.789099121093750000e+02,5.500723266601562500e+01,-2.090467262268066406e+01,-9.345405578613281250e+01,-1.180768966674804688e+02,6.585875701904296875e+01,-2.980424880981445312e+01
2.470290064811706543e-01,1.000000000000000000e+00,7.600990772247314453e+00,-9.370235443115234375e+00,4.150167465209960938e+00,-2.070184783935546875e+02,-1.001141510009765625e+02,-1.788457641601562500e+02,5.500712203979492188e+01,-2.090467262268066406e+01,-9.345405578613281250e+01,-1.180768966674804688e+02,6.585875701904296875e+01,-2.980424880981445312e+01
2.510200142860412598e-01,1.000000000000000000e+00,7.535855293273925781e+00,-9.315312385559082031e+00,4.158137798309326172e+00,-2.069608612060546875e+02,-1.000407333374023438e+02,-1.787811279296875000e+02,5.500723266601562500e+01,-2.090467262268066406e+01,-9.345405578613281250e+01,-1.180768966674804688e+02,6.585875701904296875e+01,-2.980402946472167969e+01
2.561120092868804932e-01,1.000000000000000000e+00,7.471121311187744141e+00,-9.260208129882812500e+00,4.166432857513427734e+00,-2.069023284912109375e+02,-9.996625518798828125e+01,-1.787162933349609375e+02,5.500723266601562500e+01,-2.090467262268066406e+01,-9.345405578613281250e+01,-1.180768966674804688e+02,6.585875701904296875e+01,-2.980424880981445312e+01
2.590160071849822998e-01,1.000000000000000000e+00,7.341337680816650391e+00,-9.150135993957519531e+00,4.182576656341552734e+00,-2.067852325439453125e+02,-9.981622314453125000e+01,-1.785887451171875000e+02,5.500723266601562500e+01,-2.090467262268066406e+01,-9.345405578613281250e+01,-1.180768966674804688e+02,6.585875701904296875e+01,-2.980424880981445312e+01
2.640140056610107422e-01,1.000000000000000000e+00,7.341337680816650391e+00,-9.150135993957519531e+00,4.182576656341552734e+00,-2.067852325439453125e+02,-9.981622314453125000e+01,-1.785887451171875000e+02,5.500723266601562500e+01,-2.090467262268066406e+01,-9.345405578613281250e+01,-1.180768966674804688e+02,6.585875701904296875e+01,-2.980424880981445312e+01
2.669680118560791016e-01,1.000000000000000000e+00,7.211410522460937500e+00,-9.040246009826660156e+00,4.197886466979980469e+00,-2.066690826416015625e+02,-9.966806030273437500e+01,-1.784602203369140625e+02,5.500734329223632812e+01,-2.090467262268066406e+01,-9.345405578613281250e+01,-1.180768966674804688e+02,6.585875701904296875e+01,-2.980424880981445312e+01
2.720200121402740479e-01,1.000000000000000000e+00,7.211410522460937500e+00,-9.040246009826660156e+00,4.197886466979980469e+00,-2.066690826416015625e+02,-9.966806030273437500e+01,-1.784602203369140625e+02,5.500734329223632812e+01,-2.090467262268066406e+01,-9.345405578613281250e+01,-1.180768966674804688e+02,6.585875701904296875e+01,-2.980424880981445312e+01
2.749809920787811279e-01,1.000000000000000000e+00,7.081254005432128906e+00,-8.930355072021484375e+00,4.213866710662841797e+00,-2.065521545410156250e+02,-9.951818847656250000e+01,-1.783312225341796875e+02,5.500712203979492188e+01,-2.090467262268066406e+01,-9.345405578613281250e+01,-1.180768966674804688e+02,6.585875701904296875e+01,-2.980424880981445312e+01
2.800300121307373047e-01,1.000000000000000000e+00,7.081254005432128906e+00,-8.930355072021484375e+00,4.213866710662841797e+00,-2.065521545410156250e+02,-9.951818847656250000e+01,-1.783312225341796875e+02,5.500712203979492188e+01,-2.090467262268066406e+01,-9.345405578613281250e+01,-1.180768966674804688e+02,6.585875701904296875e+01,-2.980424880981445312e+01
2.829770147800445557e-01,1.000000000000000000e+00,6.950982570648193359e+00,-8.820418357849121094e+00,4.230315208435058594e+00,-2.064354705810546875e+02,-9.937028503417968750e+01,-1.782031250000000000e+02,5.500723266601562500e+01,-2.090467262268066406e+01,-9.345405578613281250e+01,-1.180768966674804688e+02,6.585875701904296875e+01,-2.980424880981445312e+01
2.870860099792480469e-01,1.000000000000000000e+00,6.950982570648193359e+00,-8.820418357849121094e+00,4.230315208435058594e+00,-2.064354705810546875e+02,-9.937028503417968750e+01,-1.782031250000000000e+02,5.500723266601562500e+01,-2.090467262268066406e+01,-9.345405578613281250e+01,-1.180768966674804688e+02,6.585875701904296875e+01,-2.980424880981445312e+01
2.910149991512298584e-01,1.000000000000000000e+00,6.885674476623535156e+00,-8.765427589416503906e+00,4.238488674163818359e+00,-2.063773193359375000e+02,-9.929543304443359375e+01,-1.781390380859375000e+02,5.500712203979492188e+01,-2.090458106994628906e+01,-9.345405578613281250e+01,-1.180768966674804688e+02,6.585875701904296875e+01,-2.980424880981445312e+01
2.960940003395080566e-01,1.000000000000000000e+00,6.820423603057861328e+00,-8.710370063781738281e+00,4.246520042419433594e+00,-2.063186035156250000e+02,-9.922062683105468750e+01,-1.780758361816406250e+02,5.500723266601562500e+01,-2.090467262268066406e+01,-9.345405578613281250e+01,-1.180768966674804688e+02,6.585875701904296875e+01,-2.980424880981445312e+01
2.990530133247375488e-01,1.000000000000000000e+00,6.689865112304687500e+00,-8.600275039672851562e+00,4.262338161468505859e+00,-2.062017059326171875e+02,-9.907262420654296875e+01,-1.779469909667968750e+02,5.500723266601562500e+01,-2.090467262268066406e+01,-9.345405578613281250e+01,-1.180768966674804688e+02,6.585875701904296875e+01,-2.980424880981445312e+01
3.031409978866577148e-01,1.000000000000000000e+00,6.689865112304687500e+00,-8.600275039672851562e+00,4.262338161468505859e+00,-2.062017059326171875e+02,-9.907262420654296875e+01,-1.779469909667968750e+02,5.500723266601562500e+01,-2.090467262268066406e+01,-9.345405578613281250e+01,-1.180768966674804688e+02,6.585875701904296875e+01,-2.980424880981445312e+01
3.070119917392730713e-01,1.000000000000000000e+00,6.624671936035156250e+00,-8.544921875000000000e+00,4.270491123199462891e+00,-2.061433563232421875e+02,-9.899808502197265625e+01,-1.778838500976562500e+02,5.500712203979492188e+01,-2.090476417541503906e+01,-9.345405578613281250e+01,-1.180768966674804688e+02,6.585875701904296875e+01,-2.980424880981445312e+01
3.120819926261901855e-01,1.000000000000000000e+00,6.559278011322021484e+00,-8.489546775817871094e+00,4.278664588928222656e+00,-2.060850372314453125e+02,-9.892355346679687500e+01,-1.778198242187500000e+02,5.500723266601562500e+01,-2.090467262268066406e+01,-9.345394897460937500e+01,-1.180768966674804688e+02,6.585875701904296875e+01,-2.980424880981445312e+01
3.159779906272888184e-01,1.000000000000000000e+00,6.494199275970458984e+00,-8.434081077575683594e+00,4.286919116973876953e+00,-2.060268402099609375e+02,-9.884928894042968750e+01,-1.777555999755859375e+02,5.500723266601562500e+01,-2.090467262268066406e+01,-9.345405578613281250e+01,-1.180770339965820312e+02,6.585875701904296875e+01,-2.980402946472167969e+01
3.200179934501647949e-01,1.000000000000000000e+00,6.428891181945800781e+00,-8.378637313842773438e+00,4.294990539550781250e+00,-2.059685821533203125e+02,-9.877533721923828125e+01,-1.776917877197265625e+02,5.500723266601562500e+01,-2.090467262268066406e+01,-9.345405578613281250e+01,-1.180770339965820312e+02,6.585875701904296875e+01,-2.980402946472167969e+01
3.250530064105987549e-01,1.000000000000000000e+00,6.363410949707031250e+00,-8.323125839233398438e+00,4.303001880645751953e+00,-2.059100494384765625e+02,-9.870047760009765625e+01,-1.776269531250000000e+02,5.500712203979492188e+01,-2.090467262268066406e+01,-9.345405578613281250e+01,-1.180768966674804688e+02,6.585875701904296875e+01,-2.980402946472167969e+01
3.284089863300323486e-01,1.000000000000000000e+00,6.232364654541015625e+00,-8.212059020996093750e+00,4.319002628326416016e+00,-2.057938690185546875e+02,-9.855220794677734375e+01,-1.774996032714843750e+02,5.500723266601562500e+01,-2.090467262268066406e+01,-9.345405578613281250e+01,-1.180768966674804688e+02,6.585875701904296875e+01,-2.980424880981445312e+01
3.310430049896240234e-01,1.000000000000000000e+00,6.166597366333007812e+00,-8.156366348266601562e+00,4.327298164367675781e+00,-2.057352294921875000e+02,-9.847836303710937500e+01,-1.774349670410156250e+02,5.500723266601562500e+01,-2.090458106994628906e+01,-9.345405578613281250e+01,-1.180768966674804688e+02,6.585875701904296875e+01,-2.980424880981445312e+01
3.350279927253723145e-01,1.000000000000000000e+00,6.166597366333007812e+00,-8.156366348266601562e+00,4.327298164367675781e+00,-2.057352294921875000e+02,-9.847836303710937500e+01,-1.774349670410156250e+02,5.500723266601562500e+01,-2.090458106994628906e+01,-9.345405578613281250e+01,-1.180768966674804688e+02,6.585875701904296875e+01,-2.980424880981445312e+01
3.390220105648040771e-01,1.000000000000000000e+00,6.100973606109619141e+00,-8.100900650024414062e+00,4.335695266723632812e+00,-2.056776123046875000e+02,-9.840356445312500000e+01,-1.773711547851562500e+02,5.500723266601562500e+01,-2.090467262268066406e+01,-9.345405578613281250e+01,-1.180768966674804688e+02,6.585875701904296875e+01,-2.980424880981445312e+01
3.432590067386627197e-01,1.000000000000000000e+00,6.035694599151611328e+00,-8.045524597167968750e+00,4.344071865081787109e+00,-2.056188659667968750e+02,-9.832971954345703125e+01,-1.773070068359375000e+02,5.500723266601562500e+01,-2.090467262268066406e+01,-9.345405578613281250e+01,-1.180768966674804688e+02,6.585875701904296875e+01,-2.980424880981445312e+01
3.470210134983062744e-01,1.000000000000000000e+00,5.970156669616699219e+00,-7.990217685699462891e+00,4.352285861968994141e+00,-2.055606079101562500e+02,-9.825550079345703125e+01,-1.772426300048828125e+02,5.500723266601562500e+01,-2.090467262268066406e+01,-9.345405578613281250e+01,-1.180768966674804688e+02,6.585875701904296875e+01,-2.980424880981445312e+01
3.520820140838623047e-01,1.000000000000000000e+00,5.904446601867675781e+00,-7.934909820556640625e+00,4.360499858856201172e+00,-2.055027923583984375e+02,-9.818161010742187500e+01,-1.771788940429687500e+02,5.500723266601562500e+01,-2.090467262268066406e+01,-9.345405578613281250e+01,-1.180768966674804688e+02,6.585875701904296875e+01,-2.980424880981445312e+01
3.550989925861358643e-01,1.000000000000000000e+00,5.838737010955810547e+00,-7.879557132720947266e+00,4.368530750274658203e+00,-2.054439849853515625e+02,-9.810707092285156250e+01,-1.771148681640625000e+02,5.500723266601562500e+01,-2.090467262268066406e+01,-9.345405578613281250e+01,-1.180768966674804688e+02,6.585875701904296875e+01,-2.980424880981445312e+01
3.590260148048400879e-01,1.000000000000000000e+00,5.773170471191406250e+00,-7.824181556701660156e+00,4.376440048217773438e+00,-2.053856353759765625e+02,-9.803322601318359375e+01,-1.770501708984375000e+02,5.500723266601562500e+01,-2.090467262268066406e+01,-9.345405578613281250e+01,-1.180768966674804688e+02,6.585875701904296875e+01,-2.980424880981445312e+01
3.630200028419494629e-01,1.000000000000000000e+00,5.707890987396240234e+00,-7.768828868865966797e+00,4.384430408477783203e+00,-2.053270111083984375e+02,-9.795901489257812500e+01,-1.769872436523437500e+02,5.500723266601562500e+01,-2.090467262268066406e+01,-9.345405578613281250e+01,-1.180768966674804688e+02,6.585875701904296875e+01,-2.980402946472167969e+01
3.677290081977844238e-01,1.000000000000000000e+00,5.642497062683105469e+00,-7.713589668273925781e+00,4.392481803894042969e+00,-2.052687377929687500e+02,-9.788484954833984375e+01,-1.769226074218750000e+02,5.500723266601562500e+01,-2.090467262268066406e+01,-9.345405578613281250e+01,-1.180768966674804688e+02,6.585875701904296875e+01,-2.980424880981445312e+01
3.720139861106872559e-01,1.000000000000000000e+00,5.577361583709716797e+00,-7.658214092254638672e+00,4.400492668151855469e+00,-2.052107543945312500e+02,-9.781031036376953125e+01,-1.768581848144531250e+02,5.500712203979492188e+01,-2.090467262268066406e+01,-9.345405578613281250e+01,-1.180768966674804688e+02,6.585875701904296875e+01,-2.980424880981445312e+01
3.761860132217407227e-01,1.000000000000000000e+00,5.512311458587646484e+00,-7.602861404418945312e+00,4.408381462097167969e+00,-2.051519165039062500e+02,-9.773667907714843750e+01,-1.767947692871093750e+02,5.500723266601562500e+01,-2.090467262268066406e+01,-9.345405578613281250e+01,-1.180768966674804688e+02,6.585875701904296875e+01,-2.980424880981445312e+01
3.790520131587982178e-01,1.000000000000000000e+00,5.447032451629638672e+00,-7.547825336456298828e+00,4.416270256042480469e+00,-2.050938720703125000e+02,-9.766310882568359375e+01,-1.767305450439453125e+02,5.500712203979492188e+01,-2.090467262268066406e+01,-9.345405578613281250e+01,-1.180768966674804688e+02,6.585875701904296875e+01,-2.980424880981445312e+01
3.832409977912902832e-01,1.000000000000000000e+00,5.381867885589599609e+00,-7.492811679840087891e+00,4.424098014831542969e+00,-2.050356140136718750e+02,-9.758862304687500000e+01,-1.766664581298828125e+02,5.500723266601562500e+01,-2.090467262268066406e+01,-9.345405578613281250e+01,-1.180768966674804688e+02,6.585860443115234375e+01,-2.980424880981445312e+01
3.877539932727813721e-01,1.000000000000000000e+00,5.316731929779052734e+00,-7.437730312347412109e+00,4.432230472564697266e+00,-2.049773559570312500e+02,-9.751419830322265625e+01,-1.766027832031250000e+02,5.500712203979492188e+01,-2.090467262268066406e+01,-9.345405578613281250e+01,-1.180768966674804688e+02,6.585875701904296875e+01,-2.980424880981445312e+01
3.920159935951232910e-01,1.000000000000000000e+00,5.251711368560791016e+00,-7.382603645324707031e+00,4.440627574920654297e+00,-2.049195098876953125e+02,-9.744039916992187500e+01,-1.765379486083984375e+02,5.500723266601562500e+01,-2.090467262268066406e+01,-9.345405578613281250e+01,-1.180768966674804688e+02,6.585875701904296875e+01,-2.980424880981445312e+01
3.952910006046295166e-01,1.000000000000000000e+00,5.186891078948974609e+00,-7.327477455139160156e+00,4.448882102966308594e+00,-2.048610534667968750e+02,-9.736671447753906250e+01,-1.764738006591796875e+02,5.500723266601562500e+01,-2.090467262268066406e+01,-9.345405578613281250e+01,-1.180768966674804688e+02,6.585875701904296875e+01,-2.980424880981445312e+01
3.991790115833282471e-01,1.000000000000000000e+00,5.121841430664062500e+00,-7.272464275360107422e+00,4.457076072692871094e+00,-2.048031158447265625e+02,-9.729282379150390625e+01,-1.764103851318359375e+02,5.500723266601562500e+01,-2.090467262268066406e+01,-9.345405578613281250e+01,-1.180768966674804688e+02,6.585860443115234375e+01,-2.980424880981445312e+01
4.040110111236572266e-01,1.000000000000000000e+00,5.056734561920166016e+00,-7.217518806457519531e+00,4.465106964111328125e+00,-2.047442321777343750e+02,-9.721807098388671875e+01,-1.763460388183593750e+02,5.500723266601562500e+01,-2.090467262268066406e+01,-9.345405578613281250e+01,-1.180768966674804688e+02,6.585875701904296875e+01,-2.980424880981445312e+01
4.073239862918853760e-01,1.000000000000000000e+00,4.991455078125000000e+00,-7.162641048431396484e+00,4.473117828369140625e+00,-2.046864471435546875e+02,-9.714396667480468750e+01,-1.762816772460937500e+02,5.500723266601562500e+01,-2.090467262268066406e+01,-9.345405578613281250e+01,-1.180770339965820312e+02,6.585875701904296875e+01,-2.980424880981445312e+01
4.121089875698089600e-01,1.000000000000000000e+00,4.926175594329833984e+00,-7.107763767242431641e+00,4.481026649475097656e+00,-2.046284942626953125e+02,-9.707001495361328125e+01,-1.762181243896484375e+02,5.500723266601562500e+01,-2.090467262268066406e+01,-9.345405578613281250e+01,-1.180768966674804688e+02,6.585875701904296875e+01,-2.980424880981445312e+01
4.155029952526092529e-01,1.000000000000000000e+00,4.860867500305175781e+00,-7.052546977996826172e+00,4.488935947418212891e+00,-2.045699157714843750e+02,-9.699601745605468750e+01,-1.761536407470703125e+02,5.500723266601562500e+01,-2.090467262268066406e+01,-9.345405578613281250e+01,-1.180768966674804688e+02,6.585875701904296875e+01,-2.980424880981445312e+01
4.194869995117187500e-01,1.000000000000000000e+00,4.795703411102294922e+00,-6.997352123260498047e+00,4.497129917144775391e+00,-2.045117187500000000e+02,-9.692153167724609375e+01,-1.760898895263671875e+02,5.500712203979492188e+01,-2.090467262268066406e+01,-9.345405578613281250e+01,-1.180768966674804688e+02,6.585875701904296875e+01,-2.980424880981445312e+01
4.233070015907287598e-01,1.000000000000000000e+00,4.730366706848144531e+00,-6.942044734954833984e+00,4.505302906036376953e+00,-2.044531860351562500e+02,-9.684757995605468750e+01,-1.760266113281250000e+02,5.500723266601562500e+01,-2.090467262268066406e+01,-9.345405578613281250e+01,-1.180768966674804688e+02,6.585875701904296875e+01,-2.980424880981445312e+01
4.273410141468048096e-01,1.000000000000000000e+00,4.665259361267089844e+00,-6.886963367462158203e+00,4.513415336608886719e+00,-2.043952636718750000e+02,-9.677357482910156250e+01,-1.759615783691406250e+02,5.500723266601562500e+01,-2.090467262268066406e+01,-9.345405578613281250e+01,-1.180768966674804688e+02,6.585889434814453125e+01,-2.980402946472167969e+01
4.316410124301910400e-01,1.000000000000000000e+00,4.599951267242431641e+00,-6.831723690032958984e+00,4.521263599395751953e+00,-2.043371582031250000e+02,-9.669909667968750000e+01,-1.758978271484375000e+02,5.500712203979492188e+01,-2.090467262268066406e+01,-9.345405578613281250e+01,-1.180768966674804688e+02,6.585875701904296875e+01,-2.980446624755859375e+01
4.361630082130432129e-01,1.000000000000000000e+00,4.534758567810058594e+00,-6.776461601257324219e+00,4.528969287872314453e+00,-2.042789001464843750e+02,-9.662418365478515625e+01,-1.758342132568359375e+02,5.500712203979492188e+01,-2.090467262268066406e+01,-9.345405578613281250e+01,-1.180768966674804688e+02,6.585875701904296875e+01,-2.980446624755859375e+01
4.395020008087158203e-01,1.000000000000000000e+00,4.469708919525146484e+00,-6.721267223358154297e+00,4.536817550659179688e+00,-2.042209167480468750e+02,-9.655097961425781250e+01,-1.757697296142578125e+02,5.500712203979492188e+01,-2.090467262268066406e+01,-9.345405578613281250e+01,-1.180768966674804688e+02,6.585875701904296875e+01,-2.980424880981445312e+01
4.442180097103118896e-01,1.000000000000000000e+00,4.404372215270996094e+00,-6.665733814239501953e+00,4.544970512390136719e+00,-2.041622772216796875e+02,-9.647692871093750000e+01,-1.757065277099609375e+02,5.500734329223632812e+01,-2.090467262268066406e+01,-9.345405578613281250e+01,-1.180768966674804688e+02,6.585875701904296875e+01,-2.980424880981445312e+01
4.475379884243011475e-01,1.000000000000000000e+00,4.339178562164306641e+00,-6.610561847686767578e+00,4.553428649902343750e+00,-2.041047058105468750e+02,-9.640265655517578125e+01,-1.756427001953125000e+02,5.500723266601562500e+01,-2.090467262268066406e+01,-9.345405578613281250e+01,-1.180768966674804688e+02,6.585875701904296875e+01,-2.980424880981445312e+01
4.517470002174377441e-01,1.000000000000000000e+00,4.273985862731933594e+00,-6.555186271667480469e+00,4.561622142791748047e+00,-2.040462951660156250e+02,-9.632785034179687500e+01,-1.755780792236328125e+02,5.500723266601562500e+01,-2.090467262268066406e+01,-9.345405578613281250e+01,-1.180768966674804688e+02,6.585889434814453125e+01,-2.980424880981445312e+01
4.560259878635406494e-01,1.000000000000000000e+00,4.208764076232910156e+00,-6.499969005584716797e+00,4.569836139678955078e+00,-2.039882965087890625e+02,-9.625454711914062500e+01,-1.755143890380859375e+02,5.500712203979492188e+01,-2.090467262268066406e+01,-9.345405578613281250e+01,-1.180768966674804688e+02,6.585875701904296875e+01,-2.980424880981445312e+01
4.604330062866210938e-01,1.000000000000000000e+00,4.143915176391601562e+00,-6.444819927215576172e+00,4.577928543090820312e+00,-2.039307250976562500e+02,-9.618054199218750000e+01,-1.754501647949218750e+02,5.500712203979492188e+01,-2.090467262268066406e+01,-9.345405578613281250e+01,-1.180768966674804688e+02,6.585875701904296875e+01,-2.980424880981445312e+01
4.638350009918212891e-01,1.000000000000000000e+00,4.078807830810546875e+00,-6.389512538909912109e+00,4.585877895355224609e+00,-2.038719482421875000e+02,-9.610616302490234375e+01,-1.753853454589843750e+02,5.500723266601562500e+01,-2.090458106994628906e+01,-9.345405578613281250e+01,-1.180768966674804688e+02,6.585875701904296875e+01,-2.980424880981445312e+01
4.682219922542572021e-01,1.000000000000000000e+00,4.013442516326904297e+00,-6.334273338317871094e+00,4.593847751617431641e+00,-2.038142700195312500e+02,-9.603152465820312500e+01,-1.753226165771484375e+02,5.500712203979492188e+01,-2.090467262268066406e+01,-9.345405578613281250e+01,-1.180768966674804688e+02,6.585875701904296875e+01,-2.980424880981445312e+01
4.717400074005126953e-01,1.000000000000000000e+00,3.948048353195190430e+00,-6.278943061828613281e+00,4.601818084716796875e+00,-2.037562103271484375e+02,-9.595794677734375000e+01,-1.752584533691406250e+02,5.500723266601562500e+01,-2.090467262268066406e+01,-9.345405578613281250e+01,-1.180768966674804688e+02,6.585875701904296875e+01,-2.980424880981445312e+01
4.760099947452545166e-01,1.000000000000000000e+00,3.882654428482055664e+00,-6.223635673522949219e+00,4.610174655914306641e+00,-2.036976318359375000e+02,-9.588405609130859375e+01,-1.751933441162109375e+02,5.500723266601562500e+01,-2.090467262268066406e+01,-9.345405578613281250e+01,-1.180766754150390625e+02,6.585875701904296875e+01,-2.980424880981445312e+01
4.800359904766082764e-01,1.000000000000000000e+00,3.817403793334960938e+00,-6.168259620666503906e+00,4.618469715118408203e+00,-2.036396484375000000e+02,-9.580973052978515625e+01,-1.751303405761718750e+02,5.500723266601562500e+01,-2.090458106994628906e+01,-9.345405578613281250e+01,-1.180770339965820312e+02,6.585875701904296875e+01,-2.980424880981445312e+01
4.845229983329772949e-01,1.000000000000000000e+00,3.752296686172485352e+00,-6.112906932830810547e+00,4.626663684844970703e+00,-2.035810241699218750e+02,-9.573514556884765625e+01,-1.750656433105468750e+02,5.500723266601562500e+01,-2.090467262268066406e+01,-9.345405578613281250e+01,-1.180768966674804688e+02,6.585875701904296875e+01,-2.980424880981445312e+01
4.879089891910552979e-01,1.000000000000000000e+00,3.687189817428588867e+00,-6.057667732238769531e+00,4.634715080261230469e+00,-2.035232391357421875e+02,-9.566134643554687500e+01,-1.750013580322265625e+02,5.500723266601562500e+01,-2.090467262268066406e+01,-9.345405578613281250e+01,-1.180768966674804688e+02,6.585875701904296875e+01,-2.980424880981445312e+01
4.922110140323638916e-01,1.000000000000000000e+00,3.622139930725097656e+00,-6.002495765686035156e+00,4.642542839050292969e+00,-2.034651336669921875e+02,-9.558766174316406250e+01,-1.749383544921875000e+02,5.500712203979492188e+01,-2.090467262268066406e+01,-9.345405578613281250e+01,-1.180770339965820312e+02,6.585875701904296875e+01,-2.980402946472167969e+01
4.967260062694549561e-01,1.000000000000000000e+00,3.556860685348510742e+00,-5.947346687316894531e+00,4.650370597839355469e+00,-2.034071960449218750e+02,-9.551355743408203125e+01,-1.748739318847656250e+02,5.500723266601562500e+01,-2.090458106994628906e+01,-9.345405578613281250e+01,-1.180768966674804688e+02,6.585875701904296875e+01,-2.980424880981445312e+01
5.000569820404052734e-01,1.000000000000000000e+00,3.491753578186035156e+00,-5.892220497131347656e+00,4.658380985260009766e+00,-2.033490905761718750e+02,-9.543913269042968750e+01,-1.748097076416015625e+02,5.500712203979492188e+01,-2.090467262268066406e+01,-9.345405578613281250e+01,-1.180768966674804688e+02,6.585875701904296875e+01,-2.980424880981445312e+01
5.040580034255981445e-01,1.000000000000000000e+00,3.426732540130615234e+00,-5.837116241455078125e+00,4.666676521301269531e+00,-2.032906799316406250e+02,-9.536518096923828125e+01,-1.747464294433593750e+02,5.500723266601562500e+01,-2.090467262268066406e+01,-9.345405578613281250e+01,-1.180768966674804688e+02,6.585875701904296875e+01,-2.980446624755859375e+01
5.087800025939941406e-01,1.000000000000000000e+00,3.361797809600830078e+00,-5.782080650329589844e+00,4.675053119659423828e+00,-2.032327423095703125e+02,-9.529160308837890625e+01,-1.746818084716796875e+02,5.500712203979492188e+01,-2.090467262268066406e+01,-9.345405578613281250e+01,-1.180768966674804688e+02,6.585875701904296875e+01,-2.980424880981445312e+01
5.123059749603271484e-01,1.000000000000000000e+00,3.296977758407592773e+00,-5.727021694183349609e+00,4.683247089385986328e+00,-2.031746826171875000e+02,-9.521706390380859375e+01,-1.746179962158203125e+02,5.500723266601562500e+01,-2.090476417541503906e+01,-9.345405578613281250e+01,-1.180768966674804688e+02,6.585875701904296875e+01,-2.980424880981445312e+01
5.163670182228088379e-01,1.000000000000000000e+00,3.232014417648315430e+00,-5.672053813934326172e+00,4.691298484802246094e+00,-2.031164855957031250e+02,-9.514305877685546875e+01,-1.745548553466796875e+02,5.500723266601562500e+01,-2.090467262268066406e+01,-9.345405578613281250e+01,-1.180768966674804688e+02,6.585875701904296875e+01,-2.980424880981445312e+01
5.214530229568481445e-01,1.000000000000000000e+00,3.167079448699951172e+00,-5.617176055908203125e+00,4.699065208435058594e+00,-2.030589141845703125e+02,-9.506895446777343750e+01,-1.744903564453125000e+02,5.500712203979492188e+01,-2.090458106994628906e+01,-9.345405578613281250e+01,-1.180768966674804688e+02,6.585875701904296875e+01,-2.980424880981445312e+01
5.240780115127563477e-01,1.000000000000000000e+00,3.101972579956054688e+00,-5.562049865722656250e+00,4.706770896911621094e+00,-2.030005493164062500e+02,-9.499553680419921875e+01,-1.744266815185546875e+02,5.500734329223632812e+01,-2.090458106994628906e+01,-9.345405578613281250e+01,-1.180768966674804688e+02,6.585875701904296875e+01,-2.980424880981445312e+01
5.282589793205261230e-01,1.000000000000000000e+00,3.036607265472412109e+00,-5.506900787353515625e+00,4.714781284332275391e+00,-2.029428253173828125e+02,-9.492105102539062500e+01,-1.743625946044921875e+02,5.500723266601562500e+01,-2.090467262268066406e+01,-9.345405578613281250e+01,-1.180768966674804688e+02,6.585875701904296875e+01,-2.980424880981445312e+01
5.328639745712280273e-01,1.000000000000000000e+00,2.971241712570190430e+00,-5.451638698577880859e+00,4.722792625427246094e+00,-2.028844604492187500e+02,-9.484700012207031250e+01,-1.742977600097656250e+02,5.500723266601562500e+01,-2.090467262268066406e+01,-9.345405578613281250e+01,-1.180768966674804688e+02,6.585875701904296875e+01,-2.980424880981445312e+01
5.360000133514404297e-01,1.000000000000000000e+00,2.905933618545532227e+00,-5.396647930145263672e+00,4.730945587158203125e+00,-2.028258819580078125e+02,-9.477304840087890625e+01,-1.742341461181640625e+02,5.500723266601562500e+01,-2.090476417541503906e+01,-9.345405578613281250e+01,-1.180768966674804688e+02,6.585875701904296875e+01,-2.980424880981445312e+01
5.403720140457153320e-01,1.000000000000000000e+00,2.840740442276000977e+00,-5.341611862182617188e+00,4.738935470581054688e+00,-2.027679443359375000e+02,-9.469931030273437500e+01,-1.741706695556640625e+02,5.500723266601562500e+01,-2.090467262268066406e+01,-9.345405578613281250e+01,-1.180768966674804688e+02,6.585875701904296875e+01,-2.980424880981445312e+01
5.440229773521423340e-01,1.000000000000000000e+00,2.775662183761596680e+00,-5.286530017852783203e+00,4.746885299682617188e+00,-2.027097930908203125e+02,-9.462509155273437500e+01,-1.741063690185546875e+02,5.500723266601562500e+01,-2.090467262268066406e+01,-9.345405578613281250e+01,-1.180768966674804688e+02,6.585875701904296875e+01,-2.980424880981445312e+01
5.481809973716735840e-01,1.000000000000000000e+00,2.710497617721557617e+00,-5.231335639953613281e+00,4.754754066467285156e+00,-2.026517486572265625e+02,-9.455114746093750000e+01,-1.740427093505859375e+02,5.500723266601562500e+01,-2.090467262268066406e+01,-9.345405578613281250e+01,-1.180768966674804688e+02,6.585875701904296875e+01,-2.980424880981445312e+01
5.509729981422424316e-01,1.000000000000000000e+00,2.645103454589843750e+00,-5.176118850708007812e+00,4.762744426727294922e+00,-2.025934448242187500e+02,-9.447714233398437500e+01,-1.739788818359375000e+02,5.500723266601562500e+01,-2.090467262268066406e+01,-9.345405578613281250e+01,-1.180770339965820312e+02,6.585875701904296875e+01,-2.980424880981445312e+01
5.550199747085571289e-01,1.000000000000000000e+00,2.579881668090820312e+00,-5.121082782745361328e+00,4.770917415618896484e+00,-2.025357055664062500e+02,-9.440330505371093750e+01,-1.739143218994140625e+02,5.500723266601562500e+01,-2.090467262268066406e+01,-9.345405578613281250e+01,-1.180768966674804688e+02,6.585875701904296875e+01,-2.980424880981445312e+01
5.605409741401672363e-01,1.000000000000000000e+00,2.514860630035400391e+00,-5.066001892089843750e+00,4.779294490814208984e+00,-2.024775543212890625e+02,-9.432924652099609375e+01,-1.738511810302734375e+02,5.500723266601562500e+01,-2.090467262268066406e+01,-9.345405578613281250e+01,-1.180768966674804688e+02,6.585875701904296875e+01,-2.980402946472167969e+01
5.643740296363830566e-01,1.000000000000000000e+00,2.449552536010742188e+00,-5.011033535003662109e+00,4.787569522857666016e+00,-2.024194030761718750e+02,-9.425561523437500000e+01,-1.737875671386718750e+02,5.500723266601562500e+01,-2.090467262268066406e+01,-9.345405578613281250e+01,-1.180768966674804688e+02,6.585875701904296875e+01,-2.980424880981445312e+01
5.684639811515808105e-01,1.000000000000000000e+00,2.384646654129028320e+00,-4.956088066101074219e+00,4.795722484588623047e+00,-2.023617248535156250e+02,-9.418225097656250000e+01,-1.737228698730468750e+02,5.500723266601562500e+01,-2.090467262268066406e+01,-9.345405578613281250e+01,-1.180770339965820312e+02,6.585875701904296875e+01,-2.980424880981445312e+01
5.710430145263671875e-01,1.000000000000000000e+00,2.319367170333862305e+00,-4.900984287261962891e+00,4.803712844848632812e+00,-2.023032531738281250e+02,-9.410820007324218750e+01,-1.736598663330078125e+02,5.500723266601562500e+01,-2.090476417541503906e+01,-9.345405578613281250e+01,-1.180768966674804688e+02,6.585875701904296875e+01,-2.980402946472167969e+01
5.749520063400268555e-01,1.000000000000000000e+00,2.254489898681640625e+00,-4.845925807952880859e+00,4.811601638793945312e+00,-2.022457275390625000e+02,-9.403376770019531250e+01,-1.735959320068359375e+02,5.500734329223632812e+01,-2.090467262268066406e+01,-9.345405578613281250e+01,-1.180768966674804688e+02,6.585875701904296875e+01,-2.980424880981445312e+01
5.790179967880249023e-01,1.000000000000000000e+00,2.189124584197998047e+00,-4.790663719177246094e+00,4.819490432739257812e+00,-2.021875305175781250e+02,-9.396002960205078125e+01,-1.735318298339843750e+02,5.500723266601562500e+01,-2.090467262268066406e+01,-9.345405578613281250e+01,-1.180766754150390625e+02,6.585875701904296875e+01,-2.980402946472167969e+01
5.845310091972351074e-01,1.000000000000000000e+00,2.123644113540649414e+00,-4.735559940338134766e+00,4.827602386474609375e+00,-2.021289672851562500e+02,-9.388666534423828125e+01,-1.734688262939453125e+02,5.500723266601562500e+01,-2.090467262268066406e+01,-9.345405578613281250e+01,-1.180768966674804688e+02,6.585875701904296875e+01,-2.980424880981445312e+01
5.885990262031555176e-01,1.000000000000000000e+00,2.058307409286499023e+00,-4.680297374725341797e+00,4.835877895355224609e+00,-2.020715484619140625e+02,-9.381314849853515625e+01,-1.734052276611328125e+02,5.500712203979492188e+01,-2.090467262268066406e+01,-9.345405578613281250e+01,-1.180768966674804688e+02,6.585875701904296875e+01,-2.980424880981445312e+01
5.927529931068420410e-01,1.000000000000000000e+00,1.993143081665039062e+00,-4.625035285949707031e+00,4.843929290771484375e+00,-2.020131225585937500e+02,-9.373860931396484375e+01,-1.733411254882812500e+02,5.500723266601562500e+01,-2.090467262268066406e+01,-9.345405578613281250e+01,-1.180768966674804688e+02,6.585875701904296875e+01,-2.980424880981445312e+01
5.966600179672241211e-01,1.000000000000000000e+00,1.928036093711853027e+00,-4.569931507110595703e+00,4.851939678192138672e+00,-2.019549713134765625e+02,-9.366477203369140625e+01,-1.732778625488281250e+02,5.500723266601562500e+01,-2.090467262268066406e+01,-9.345405578613281250e+01,-1.180768966674804688e+02,6.585875701904296875e+01,-2.980424880981445312e+01
6.010029911994934082e-01,1.000000000000000000e+00,1.862756729125976562e+00,-4.514873027801513672e+00,4.859767436981201172e+00,-2.018967742919921875e+02,-9.359070587158203125e+01,-1.732133636474609375e+02,5.500723266601562500e+01,-2.090467262268066406e+01,-9.345405578613281250e+01,-1.180768966674804688e+02,6.585875701904296875e+01,-2.980402946472167969e+01
6.054080128669738770e-01,1.000000000000000000e+00,1.797821879386901855e+00,-4.459723949432373047e+00,4.867310523986816406e+00,-2.018380279541015625e+02,-9.351702880859375000e+01,-1.731490173339843750e+02,5.500712203979492188e+01,-2.090467262268066406e+01,-9.345405578613281250e+01,-1.180768966674804688e+02,6.585875701904296875e+01,-2.980402946472167969e+01
6.070809960365295410e-01,1.000000000000000000e+00,1.732686161994934082e+00,-4.404529094696044922e+00,4.875301361083984375e+00,-2.017806701660156250e+02,-9.344281005859375000e+01,-1.730860748291015625e+02,5.500723266601562500e+01,-2.090467262268066406e+01,-9.345405578613281250e+01,-1.180768966674804688e+02,6.585875701904296875e+01,-2.980424880981445312e+01
6.109930276870727539e-01,1.000000000000000000e+00,1.667579054832458496e+00,-4.349447727203369141e+00,4.883616924285888672e+00,-2.017223510742187500e+02,-9.336913299560546875e+01,-1.730219116210937500e+02,5.500734329223632812e+01,-2.090467262268066406e+01,-9.345405578613281250e+01,-1.180768966674804688e+02,6.585889434814453125e+01,-2.980424880981445312e+01
6.150490045547485352e-01,1.000000000000000000e+00,1.602558135986328125e+00,-4.294502258300781250e+00,4.891993522644042969e+00,-2.016645812988281250e+02,-9.329528045654296875e+01,-1.729581146240234375e+02,5.500723266601562500e+01,-2.090467262268066406e+01,-9.345405578613281250e+01,-1.180768966674804688e+02,6.585875701904296875e+01,-2.980424880981445312e+01
6.189590096473693848e-01,1.000000000000000000e+00,1.537795543670654297e+00,-4.239511489868164062e+00,4.900166988372802734e+00,-2.016062164306640625e+02,-9.322138977050781250e+01,-1.728944244384765625e+02,5.500723266601562500e+01,-2.090467262268066406e+01,-9.345405578613281250e+01,-1.180768966674804688e+02,6.585875701904296875e+01,-2.980424880981445312e+01
6.229490041732788086e-01,1.000000000000000000e+00,1.473004221916198730e+00,-4.184611320495605469e+00,4.908380985260009766e+00,-2.015478057861328125e+02,-9.314653778076171875e+01,-1.728299407958984375e+02,5.500723266601562500e+01,-2.090467262268066406e+01,-9.345394897460937500e+01,-1.180768966674804688e+02,6.585875701904296875e+01,-2.980424880981445312e+01
6.269620060920715332e-01,1.000000000000000000e+00,1.408299088478088379e+00,-4.129643917083740234e+00,4.916289806365966797e+00,-2.014906005859375000e+02,-9.307364654541015625e+01,-1.727659149169921875e+02,5.500712203979492188e+01,-2.090467262268066406e+01,-9.345405578613281250e+01,-1.180770339965820312e+02,6.585875701904296875e+01,-2.980402946472167969e+01
6.330459713935852051e-01,1.000000000000000000e+00,1.343565225601196289e+00,-4.074516773223876953e+00,4.924036026000976562e+00,-2.014324951171875000e+02,-9.299990844726562500e+01,-1.727030487060546875e+02,5.500712203979492188e+01,-2.090467262268066406e+01,-9.345405578613281250e+01,-1.180768966674804688e+02,6.585875701904296875e+01,-2.980424880981445312e+01
6.350169777870178223e-01,1.000000000000000000e+00,1.278745293617248535e+00,-4.019390583038330078e+00,4.931783199310302734e+00,-2.013746643066406250e+02,-9.292591094970703125e+01,-1.726382751464843750e+02,5.500723266601562500e+01,-2.090467262268066406e+01,-9.345405578613281250e+01,-1.180768966674804688e+02,6.585875701904296875e+01,-2.980424880981445312e+01
6.389589905738830566e-01,1.000000000000000000e+00,1.213724255561828613e+00,-3.964150905609130859e+00,4.939854621887207031e+00,-2.013161926269531250e+02,-9.285089874267578125e+01,-1.725746002197265625e+02,5.500712203979492188e+01,-2.090458106994628906e+01,-9.345405578613281250e+01,-1.180768966674804688e+02,6.585875701904296875e+01,-2.980424880981445312e+01
6.450470089912414551e-01,1.000000000000000000e+00,1.148760795593261719e+00,-3.909092426300048828e+00,4.948007583618164062e+00,-2.012579803466796875e+02,-9.277742767333984375e+01,-1.725111999511718750e+02,5.500723266601562500e+01,-2.090467262268066406e+01,-9.345405578613281250e+01,-1.180768966674804688e+02,6.585875701904296875e+01,-2.980424880981445312e+01
6.470630168914794922e-01,1.000000000000000000e+00,1.083768486976623535e+00,-3.854033708572387695e+00,4.956160545349121094e+00,-2.012005157470703125e+02,-9.270374298095703125e+01,-1.724467620849609375e+02,5.500734329223632812e+01,-2.090467262268066406e+01,-9.345394897460937500e+01,-1.180768966674804688e+02,6.585875701904296875e+01,-2.980424880981445312e+01
6.509640216827392578e-01,1.000000000000000000e+00,1.018833756446838379e+00,-3.799020528793334961e+00,4.964252948760986328e+00,-2.011421661376953125e+02,-9.262979125976562500e+01,-1.723833007812500000e+02,5.500723266601562500e+01,-2.090467262268066406e+01,-9.345405578613281250e+01,-1.180768966674804688e+02,6.585875701904296875e+01,-2.980424880981445312e+01
6.574209928512573242e-01,1.000000000000000000e+00,9.540424346923828125e-01,-3.743939161300659180e+00,4.972263336181640625e+00,-2.010841674804687500e+02,-9.255515289306640625e+01,-1.723198852539062500e+02,5.500712203979492188e+01,-2.090467262268066406e+01,-9.345405578613281250e+01,-1.180768966674804688e+02,6.585875701904296875e+01,-2.980424880981445312e+01
6.590899825096130371e-01,1.000000000000000000e+00,8.890501856803894043e-01,-3.688699722290039062e+00,4.980070590972900391e+00,-2.010259704589843750e+02,-9.248141479492187500e+01,-1.722556457519531250e+02,5.500723266601562500e+01,-2.090467262268066406e+01,-9.345405578613281250e+01,-1.180768966674804688e+02,6.585875701904296875e+01,-2.980402946472167969e+01
6.630039811134338379e-01,1.000000000000000000e+00,8.241727948188781738e-01,-3.633731603622436523e+00,4.987999916076660156e+00,-2.009677581787109375e+02,-9.240794372558593750e+01,-1.721923217773437500e+02,5.500712203979492188e+01,-2.090467262268066406e+01,-9.345405578613281250e+01,-1.180768966674804688e+02,6.585875701904296875e+01,-2.980424880981445312e+01
6.690369844436645508e-01,1.000000000000000000e+00,7.591805458068847656e-01,-3.578695535659790039e+00,4.996254920959472656e+00,-2.009101867675781250e+02,-9.233399200439453125e+01,-1.721285705566406250e+02,5.500712203979492188e+01,-2.090467262268066406e+01,-9.345405578613281250e+01,-1.180768966674804688e+02,6.585875701904296875e+01,-2.980424880981445312e+01
6.710299849510192871e-01,1.000000000000000000e+00,6.941883563995361328e-01,-3.523818016052246094e+00,5.004550457000732422e+00,-2.008520355224609375e+02,-9.225930023193359375e+01,-1.720639343261718750e+02,5.500723266601562500e+01,-2.090467262268066406e+01,-9.345405578613281250e+01,-1.180768966674804688e+02,6.585875701904296875e+01,-2.980424880981445312e+01
6.749629974365234375e-01,1.000000000000000000e+00,6.292535662651062012e-01,-3.468872547149658203e+00,5.012845993041992188e+00,-2.007941894531250000e+02,-9.218566894531250000e+01,-1.720007324218750000e+02,5.500734329223632812e+01,-2.090467262268066406e+01,-9.345405578613281250e+01,-1.180768966674804688e+02,6.585860443115234375e+01,-2.980424880981445312e+01
6.789759993553161621e-01,1.000000000000000000e+00,5.645771026611328125e-01,-3.413904428482055664e+00,5.020937919616699219e+00,-2.007357177734375000e+02,-9.211225128173828125e+01,-1.719374542236328125e+02,5.500712203979492188e+01,-2.090467262268066406e+01,-9.345405578613281250e+01,-1.180768966674804688e+02,6.585875701904296875e+01,-2.980424880981445312e+01
6.840159893035888672e-01,1.000000000000000000e+00,5.645771026611328125e-01,-3.413904428482055664e+00,5.020937919616699219e+00,-2.007357177734375000e+02,-9.211225128173828125e+01,-1.719374542236328125e+02,5.500723266601562500e+01,-2.090467262268066406e+01,-9.345405578613281250e+01,-1.180768966674804688e+02,6.585875701904296875e+01,-2.980424880981445312e+01
6.870290040969848633e-01,1.000000000000000000e+00,4.347648322582244873e-01,-3.303787231445312500e+00,5.036695003509521484e+00,-2.006203155517578125e+02,-9.196366119384765625e+01,-1.718097686767578125e+02,5.500723266601562500e+01,-2.090467262268066406e+01,-9.345405578613281250e+01,-1.180768966674804688e+02,6.585875701904296875e+01,-2.980424880981445312e+01
6.934440135955810547e-01,1.000000000000000000e+00,3.698874413967132568e-01,-3.248819112777709961e+00,5.044420719146728516e+00,-2.005623168945312500e+02,-9.188992309570312500e+01,-1.717456207275390625e+02,5.500723266601562500e+01,-2.090467262268066406e+01,-9.345405578613281250e+01,-1.180766754150390625e+02,6.585875701904296875e+01,-2.980424880981445312e+01
6.949480175971984863e-01,1.000000000000000000e+00,3.048090934753417969e-01,-3.193624973297119141e+00,5.052411556243896484e+00,-2.005051269531250000e+02,-9.181655883789062500e+01,-1.716817932128906250e+02,5.500723266601562500e+01,-2.090467262268066406e+01,-9.345405578613281250e+01,-1.180768966674804688e+02,6.585875701904296875e+01,-2.980424880981445312e+01
6.999880075454711914e-01,1.000000000000000000e+00,3.048090934753417969e-01,-3.193624973297119141e+00,5.052411556243896484e+00,-2.005051269531250000e+02,-9.181655883789062500e+01,-1.716817932128906250e+02,5.500723266601562500e+01,-2.090467262268066406e+01,-9.345405578613281250e+01,-1.180768966674804688e+02,6.585875701904296875e+01,-2.980424880981445312e+01
7.039499878883361816e-01,1.000000000000000000e+00,1.742217838764190674e-01,-3.083258867263793945e+00,5.068595409393310547e+00,-2.003885650634765625e+02,-9.166850280761718750e+01,-1.715550384521484375e+02,5.500723266601562500e+01,-2.090467262268066406e+01,-9.345405578613281250e+01,-1.180768966674804688e+02,6.585875701904296875e+01,-2.980424880981445312e+01
7.069600224494934082e-01,1.000000000000000000e+00,1.089711934328079224e-01,-3.028290748596191406e+00,5.076606273651123047e+00,-2.003309783935546875e+02,-9.159449768066406250e+01,-1.714902801513671875e+02,5.500723266601562500e+01,-2.090467262268066406e+01,-9.345405578613281250e+01,-1.180768966674804688e+02,6.585875701904296875e+01,-2.980424880981445312e+01
7.110729813575744629e-01,1.000000000000000000e+00,1.089711934328079224e-01,-3.028290748596191406e+00,5.076606273651123047e+00,-2.003309783935546875e+02,-9.159449768066406250e+01,-1.714902801513671875e+02,5.500723266601562500e+01,-2.090467262268066406e+01,-9.345405578613281250e+01,-1.180768966674804688e+02,6.585875701904296875e+01,-2.980424880981445312e+01
7.159960269927978516e-01,1.000000000000000000e+00,4.386413842439651489e-02,-2.973254919052124023e+00,5.084414005279541016e+00,-2.002725677490234375e+02,-9.152108764648437500e+01,-1.714272003173828125e+02,5.500723266601562500e+01,-2.090467262268066406e+01,-9.345405578613281250e+01,-1.180768966674804688e+02,6.585875701904296875e+01,-2.980424880981445312e+01
7.189570069313049316e-01,1.000000000000000000e+00,-8.634997904300689697e-02,-2.863182783126831055e+00,5.100231647491455078e+00,-2.001564636230468750e+02,-9.137302398681640625e+01,-1.712996368408203125e+02,5.500723266601562500e+01,-2.090476417541503906e+01,-9.345405578613281250e+01,-1.180768966674804688e+02,6.585875701904296875e+01,-2.980424880981445312e+01
7.230830192565917969e-01,1.000000000000000000e+00,-8.634997904300689697e-02,-2.863182783126831055e+00,5.100231647491455078e+00,-2.001564636230468750e+02,-9.137302398681640625e+01,-1.712996368408203125e+02,5.500723266601562500e+01,-2.090476417541503906e+01,-9.345405578613281250e+01,-1.180768966674804688e+02,6.585875701904296875e+01,-2.980424880981445312e+01
7.297459840774536133e-01,1.000000000000000000e+00,-1.514283269643783569e-01,-2.808327913284301758e+00,5.108567714691162109e+00,-2.000984191894531250e+02,-9.129944610595703125e+01,-1.712368469238281250e+02,5.500723266601562500e+01,-2.090467262268066406e+01,-9.345405578613281250e+01,-1.180768966674804688e+02,6.585875701904296875e+01,-2.980424880981445312e+01
7.320709824562072754e-01,1.000000000000000000e+00,-2.817572951316833496e-01,-2.698414325714111328e+00,5.125056743621826172e+00,-1.999828033447265625e+02,-9.115261840820312500e+01,-1.711082000732421875e+02,5.500723266601562500e+01,-2.090467262268066406e+01,-9.345405578613281250e+01,-1.180768966674804688e+02,6.585875701904296875e+01,-2.980424880981445312e+01
7.350230216979980469e-01,1.000000000000000000e+00,-3.466059565544128418e-01,-2.643514156341552734e+00,5.133128643035888672e+00,-1.999249725341796875e+02,-9.107855987548828125e+01,-1.710450592041015625e+02,5.500734329223632812e+01,-2.090467262268066406e+01,-9.345405578613281250e+01,-1.180768966674804688e+02,6.585875701904296875e+01,-2.980446624755859375e+01
7.400109767913818359e-01,1.000000000000000000e+00,-3.466059565544128418e-01,-2.643514156341552734e+00,5.133128643035888672e+00,-1.999249725341796875e+02,-9.107855987548828125e+01,-1.710450592041015625e+02,5.500734329223632812e+01,-2.090467262268066406e+01,-9.345405578613281250e+01,-1.180768966674804688e+02,6.585875701904296875e+01,-2.980446624755859375e+01
7.429630160331726074e-01,1.000000000000000000e+00,-4.762459397315979004e-01,-2.533396959304809570e+00,5.148885726928710938e+00,-1.998087158203125000e+02,-9.093114471435546875e+01,-1.709165496826171875e+02,5.500723266601562500e+01,-2.090467262268066406e+01,-9.345405578613281250e+01,-1.180768966674804688e+02,6.585875701904296875e+01,-2.980424880981445312e+01
7.480670213699340820e-01,1.000000000000000000e+00,-4.762459397315979004e-01,-2.533396959304809570e+00,5.148885726928710938e+00,-1.998087158203125000e+02,-9.093114471435546875e+01,-1.709165496826171875e+02,5.500723266601562500e+01,-2.090467262268066406e+01,-9.345405578613281250e+01,-1.180768966674804688e+02,6.585875701904296875e+01,-2.980424880981445312e+01
7.510240077972412109e-01,1.000000000000000000e+00,-6.063452363014221191e-01,-2.423234701156616211e+00,5.165008544921875000e+00,-1.996932067871093750e+02,-9.078356170654296875e+01,-1.707891845703125000e+02,5.500712203979492188e+01,-2.090467262268066406e+01,-9.345405578613281250e+01,-1.180768966674804688e+02,6.585875701904296875e+01,-2.980424880981445312e+01
7.550029754638671875e-01,1.000000000000000000e+00,-6.063452363014221191e-01,-2.423234701156616211e+00,5.165008544921875000e+00,-1.996932067871093750e+02,-9.078356170654296875e+01,-1.707891845703125000e+02,5.500712203979492188e+01,-2.090467262268066406e+01,-9.345405578613281250e+01,-1.180768966674804688e+02,6.585875701904296875e+01,-2.980424880981445312e+01
7.601310014724731445e-01,1.000000000000000000e+00,-6.714236140251159668e-01,-2.368243932723999023e+00,5.173141956329345703e+00,-1.996355285644531250e+02,-9.071078491210937500e+01,-1.707254486083984375e+02,5.500723266601562500e+01,-2.090467262268066406e+01,-9.345405578613281250e+01,-1.180768966674804688e+02,6.585875701904296875e+01,-2.980424880981445312e+01
7.634689807891845703e-01,1.000000000000000000e+00,-8.013793230056762695e-01,-2.258398294448852539e+00,5.189041137695312500e+00,-1.995198059082031250e+02,-9.056288909912109375e+01,-1.705971984863281250e+02,5.500712203979492188e+01,-2.090467262268066406e+01,-9.345405578613281250e+01,-1.180768966674804688e+02,6.585875701904296875e+01,-2.980424880981445312e+01
7.701990008354187012e-01,1.000000000000000000e+00,-8.013793230056762695e-01,-2.258398294448852539e+00,5.189041137695312500e+00,-1.995198059082031250e+02,-9.056288909912109375e+01,-1.705971984863281250e+02,5.500712203979492188e+01,-2.090467262268066406e+01,-9.345405578613281250e+01,-1.180768966674804688e+02,6.585875701904296875e+01,-2.980424880981445312e+01
7.716959714889526367e-01,1.000000000000000000e+00,-9.313924312591552734e-01,-2.148349046707153320e+00,5.204533576965332031e+00,-1.994034881591796875e+02,-9.041584014892578125e+01,-1.704707183837890625e+02,5.500723266601562500e+01,-2.090467262268066406e+01,-9.345405578613281250e+01,-1.180768966674804688e+02,6.585875701904296875e+01,-2.980424880981445312e+01
7.780159711837768555e-01,1.000000000000000000e+00,-9.313924312591552734e-01,-2.148349046707153320e+00,5.204533576965332031e+00,-1.994034881591796875e+02,-9.041584014892578125e+01,-1.704707183837890625e+02,5.500723266601562500e+01,-2.090467262268066406e+01,-9.345405578613281250e+01,-1.180768966674804688e+02,6.585875701904296875e+01,-2.980424880981445312e+01
7.794600129127502441e-01,1.000000000000000000e+00,-1.061262130737304688e+00,-2.038480758666992188e+00,5.220921516418457031e+00,-1.992873535156250000e+02,-9.026842498779296875e+01,-1.703426818847656250e+02,5.500723266601562500e+01,-2.090467262268066406e+01,-9.345405578613281250e+01,-1.180768966674804688e+02,6.585860443115234375e+01,-2.980424880981445312e+01
7.879859805107116699e-01,1.000000000000000000e+00,-1.061262130737304688e+00,-2.038480758666992188e+00,5.220921516418457031e+00,-1.992873535156250000e+02,-9.026842498779296875e+01,-1.703426818847656250e+02,5.500723266601562500e+01,-2.090467262268066406e+01,-9.345405578613281250e+01,-1.180768966674804688e+02,6.585860443115234375e+01,-2.980424880981445312e+01
7.905039787292480469e-01,1.000000000000000000e+00,-1.255808234214782715e+00,-1.873780012130737305e+00,5.245238304138183594e+00,-1.991134185791015625e+02,-9.004737091064453125e+01,-1.701519165039062500e+02,5.500723266601562500e+01,-2.090467262268066406e+01,-9.345405578613281250e+01,-1.180768966674804688e+02,6.585875701904296875e+01,-2.980424880981445312e+01
7.920079827308654785e-01,1.000000000000000000e+00,-1.255808234214782715e+00,-1.873780012130737305e+00,5.245238304138183594e+00,-1.991134185791015625e+02,-9.004737091064453125e+01,-1.701519165039062500e+02,5.500723266601562500e+01,-2.090467262268066406e+01,-9.345405578613281250e+01,-1.180768966674804688e+02,6.585875701904296875e+01,-2.980424880981445312e+01
7.983220219612121582e-01,1.000000000000000000e+00,-1.320628166198730469e+00,-1.818744063377380371e+00,5.253127098083496094e+00,-1.990557403564453125e+02,-8.997293853759765625e+01,-1.700880279541015625e+02,5.500723266601562500e+01,-2.090467262268066406e+01,-9.345394897460937500e+01,-1.180768966674804688e+02,6.585875701904296875e+01,-2.980424880981445312e+01
7.997459769248962402e-01,1.000000000000000000e+00,-1.385476946830749512e+00,-1.763708114624023438e+00,5.260893344879150391e+00,-1.989976501464843750e+02,-8.989963531494140625e+01,-1.700242156982421875e+02,5.500723266601562500e+01,-2.090467262268066406e+01,-9.345405578613281250e+01,-1.180768966674804688e+02,6.585860443115234375e+01,-2.980424880981445312e+01
8.040760159492492676e-01,1.000000000000000000e+00,-1.385476946830749512e+00,-1.763708114624023438e+00,5.260893344879150391e+00,-1.989976501464843750e+02,-8.989963531494140625e+01,-1.700242156982421875e+02,5.500723266601562500e+01,-2.090467262268066406e+01,-9.345405578613281250e+01,-1.180768966674804688e+02,6.585860443115234375e+01,-2.980424880981445312e+01
8.079620003700256348e-01,1.000000000000000000e+00,-1.514858484268188477e+00,-1.653658866882324219e+00,5.277138710021972656e+00,-1.988822784423828125e+02,-8.975221252441406250e+01,-1.698967285156250000e+02,5.500723266601562500e+01,-2.090467262268066406e+01,-9.345394897460937500e+01,-1.180768966674804688e+02,6.585875701904296875e+01,-2.980424880981445312e+01
8.144599795341491699e-01,1.000000000000000000e+00,-1.514858484268188477e+00,-1.653658866882324219e+00,5.277138710021972656e+00,-1.988822784423828125e+02,-8.975221252441406250e+01,-1.698967285156250000e+02,5.500723266601562500e+01,-2.090467262268066406e+01,-9.345394897460937500e+01,-1.180768966674804688e+02,6.585875701904296875e+01,-2.980424880981445312e+01
8.158749938011169434e-01,1.000000000000000000e+00,-1.644957780838012695e+00,-1.543654799461364746e+00,5.293506145477294922e+00,-1.987665100097656250e+02,-8.960409545898437500e+01,-1.697692871093750000e+02,5.500723266601562500e+01,-2.090467262268066406e+01,-9.345405578613281250e+01,-1.180768966674804688e+02,6.585875701904296875e+01,-2.980424880981445312e+01
8.200629949569702148e-01,1.000000000000000000e+00,-1.644957780838012695e+00,-1.543654799461364746e+00,5.293506145477294922e+00,-1.987665100097656250e+02,-8.960409545898437500e+01,-1.697692871093750000e+02,5.500723266601562500e+01,-2.090467262268066406e+01,-9.345405578613281250e+01,-1.180768966674804688e+02,6.585875701904296875e+01,-2.980424880981445312e+01
8.240150213241577148e-01,1.000000000000000000e+00,-1.709806561470031738e+00,-1.488596200942993164e+00,5.301394939422607422e+00,-1.987080383300781250e+02,-8.953036499023437500e+01,-1.697052764892578125e+02,5.500723266601562500e+01,-2.090467262268066406e+01,-9.345405578613281250e+01,-1.180768966674804688e+02,6.585860443115234375e+01,-2.980402946472167969e+01
8.290359973907470703e-01,1.000000000000000000e+00,-1.774683952331542969e+00,-1.433514952659606934e+00,5.309222221374511719e+00,-1.986502990722656250e+02,-8.945694732666015625e+01,-1.696414489746093750e+02,5.500723266601562500e+01,-2.090467262268066406e+01,-9.345405578613281250e+01,-1.180768966674804688e+02,6.585875701904296875e+01,-2.980424880981445312e+01
8.317030072212219238e-01,1.000000000000000000e+00,-1.904094338417053223e+00,-1.323624134063720703e+00,5.324999809265136719e+00,-1.985344238281250000e+02,-8.930819702148437500e+01,-1.695138854980468750e+02,5.500723266601562500e+01,-2.090467262268066406e+01,-9.345405578613281250e+01,-1.180768966674804688e+02,6.585860443115234375e+01,-2.980424880981445312e+01
8.366900086402893066e-01,1.000000000000000000e+00,-1.904094338417053223e+00,-1.323624134063720703e+00,5.324999809265136719e+00,-1.985344238281250000e+02,-8.930819702148437500e+01,-1.695138854980468750e+02,5.500723266601562500e+01,-2.090467262268066406e+01,-9.345405578613281250e+01,-1.180768966674804688e+02,6.585860443115234375e+01,-2.980424880981445312e+01
8.399590253829956055e-01,1.000000000000000000e+00,-2.033648014068603516e+00,-1.213959455490112305e+00,5.341610908508300781e+00,-1.984180297851562500e+02,-8.916104125976562500e+01,-1.693871307373046875e+02,5.500723266601562500e+01,-2.090467262268066406e+01,-9.345405578613281250e+01,-1.180768966674804688e+02,6.585875701904296875e+01,-2.980424880981445312e+01
8.441410064697265625e-01,1.000000000000000000e+00,-2.033648014068603516e+00,-1.213959455490112305e+00,5.341610908508300781e+00,-1.984180297851562500e+02,-8.916104125976562500e+01,-1.693871307373046875e+02,5.500723266601562500e+01,-2.090467262268066406e+01,-9.345405578613281250e+01,-1.180768966674804688e+02,6.585875701904296875e+01,-2.980424880981445312e+01
8.479840159416198730e-01,1.000000000000000000e+00,-2.098525524139404297e+00,-1.159081935882568359e+00,5.349946975708007812e+00,-1.983601837158203125e+02,-8.908661651611328125e+01,-1.693232574462890625e+02,5.500712203979492188e+01,-2.090467262268066406e+01,-9.345405578613281250e+01,-1.180768966674804688e+02,6.585875701904296875e+01,-2.980424880981445312e+01
8.520500063896179199e-01,1.000000000000000000e+00,-2.163345575332641602e+00,-1.103955388069152832e+00,5.358038902282714844e+00,-1.983025054931640625e+02,-8.901255798339843750e+01,-1.692593078613281250e+02,5.500712203979492188e+01,-2.090467262268066406e+01,-9.345405578613281250e+01,-1.180770339965820312e+02,6.585875701904296875e+01,-2.980424880981445312e+01
8.551290035247802734e-01,1.000000000000000000e+00,-2.228022098541259766e+00,-1.048919439315795898e+00,5.365785598754882812e+00,-1.982442474365234375e+02,-8.893930053710937500e+01,-1.691967163085937500e+02,5.500723266601562500e+01,-2.090467262268066406e+01,-9.345405578613281250e+01,-1.180768966674804688e+02,6.585875701904296875e+01,-2.980424880981445312e+01
8.595569729804992676e-01,1.000000000000000000e+00,-2.292698383331298828e+00,-9.938608407974243164e-01,5.373491287231445312e+00,-1.981867828369140625e+02,-8.886573028564453125e+01,-1.691326904296875000e+02,5.500723266601562500e+01,-2.090467262268066406e+01,-9.345405578613281250e+01,-1.180768966674804688e+02,6.585875701904296875e+01,-2.980424880981445312e+01
8.651459813117980957e-01,1.000000000000000000e+00,-2.357518434524536133e+00,-9.390512108802795410e-01,5.381319046020507812e+00,-1.981285705566406250e+02,-8.879134368896484375e+01,-1.690689392089843750e+02,5.500712203979492188e+01,-2.090476417541503906e+01,-9.345405578613281250e+01,-1.180768966674804688e+02,6.585875701904296875e+01,-2.980424880981445312e+01
8.679540157318115234e-01,1.000000000000000000e+00,-2.487244606018066406e+00,-8.293187022209167480e-01,5.397624969482421875e+00,-1.980132598876953125e+02,-8.864403533935546875e+01,-1.689421844482421875e+02,5.500712203979492188e+01,-2.090467262268066406e+01,-9.345405578613281250e+01,-1.180768966674804688e+02,6.585875701904296875e+01,-2.980424880981445312e+01
8.720430135726928711e-01,1.000000000000000000e+00,-2.487244606018066406e+00,-8.293187022209167480e-01,5.397624969482421875e+00,-1.980132598876953125e+02,-8.864403533935546875e+01,-1.689421844482421875e+02,5.500712203979492188e+01,-2.090467262268066406e+01,-9.345405578613281250e+01,-1.180768966674804688e+02,6.585875701904296875e+01,-2.980424880981445312e+01
8.751369714736938477e-01,1.000000000000000000e+00,-2.552207946777343750e+00,-7.741922140121459961e-01,5.405716896057128906e+00,-1.979551086425781250e+02,-8.857067108154296875e+01,-1.688787231445312500e+02,5.500723266601562500e+01,-2.090467262268066406e+01,-9.345405578613281250e+01,-1.180768966674804688e+02,6.585875701904296875e+01,-2.980424880981445312e+01
8.790739774703979492e-01,1.000000000000000000e+00,-2.617056846618652344e+00,-7.192241549491882324e-01,5.413524150848388672e+00,-1.978974914550781250e+02,-8.849650573730468750e+01,-1.688151092529296875e+02,5.500712203979492188e+01,-2.090467262268066406e+01,-9.345405578613281250e+01,-1.180768966674804688e+02,6.585875701904296875e+01,-2.980424880981445312e+01
8.837010264396667480e-01,1.000000000000000000e+00,-2.681848049163818359e+00,-6.644823551177978516e-01,5.421270847320556641e+00,-1.978391418457031250e+02,-8.842272186279296875e+01,-1.687508850097656250e+02,5.500723266601562500e+01,-2.090467262268066406e+01,-9.345405578613281250e+01,-1.180768966674804688e+02,6.585875701904296875e+01,-2.980424880981445312e+01
8.890129923820495605e-01,1.000000000000000000e+00,-2.746610641479492188e+00,-6.096274852752685547e-01,5.428997039794921875e+00,-1.977814483642578125e+02,-8.834920501708984375e+01,-1.686871337890625000e+02,5.500723266601562500e+01,-2.090467262268066406e+01,-9.345405578613281250e+01,-1.180768966674804688e+02,6.585875701904296875e+01,-2.980424880981445312e+01
8.917139768600463867e-01,1.000000000000000000e+00,-2.876566410064697266e+00,-5.001212954521179199e-01,5.445486068725585938e+00,-1.976656188964843750e+02,-8.820162200927734375e+01,-1.685599670410156250e+02,5.500712203979492188e+01,-2.090467262268066406e+01,-9.345405578613281250e+01,-1.180768966674804688e+02,6.585875701904296875e+01,-2.980424880981445312e+01
8.960080146789550781e-01,1.000000000000000000e+00,-2.876566410064697266e+00,-5.001212954521179199e-01,5.445486068725585938e+00,-1.976656188964843750e+02,-8.820162200927734375e+01,-1.685599670410156250e+02,5.500712203979492188e+01,-2.090467262268066406e+01,-9.345405578613281250e+01,-1.180768966674804688e+02,6.585875701904296875e+01,-2.980424880981445312e+01
9.000099897384643555e-01,1.000000000000000000e+00,-2.941443920135498047e+00,-4.453568458557128906e-01,5.453802108764648438e+00,-1.976077880859375000e+02,-8.812793731689453125e+01,-1.684959564208984375e+02,5.500723266601562500e+01,-2.090467262268066406e+01,-9.345405578613281250e+01,-1.180768966674804688e+02,6.585875701904296875e+01,-2.980424880981445312e+01
9.032440185546875000e-01,1.000000000000000000e+00,-3.006551027297973633e+00,-3.905472159385681152e-01,5.461995601654052734e+00,-1.975495300292968750e+02,-8.805435943603515625e+01,-1.684327545166015625e+02,5.500723266601562500e+01,-2.090467262268066406e+01,-9.345405578613281250e+01,-1.180768966674804688e+02,6.585875701904296875e+01,-2.980446624755859375e+01
9.092540144920349121e-01,1.000000000000000000e+00,-3.071256160736083984e+00,-3.356243669986724854e-01,5.470046997070312500e+00,-1.974919586181640625e+02,-8.798120880126953125e+01,-1.683687438964843750e+02,5.500723266601562500e+01,-2.090467262268066406e+01,-9.345405578613281250e+01,-1.180768966674804688e+02,6.585875701904296875e+01,-2.980424880981445312e+01
9.119179844856262207e-01,1.000000000000000000e+00,-3.201240301132202148e+00,-2.258466333150863647e-01,5.485539913177490234e+00,-1.973762207031250000e+02,-8.783374023437500000e+01,-1.682415771484375000e+02,5.500723266601562500e+01,-2.090467262268066406e+01,-9.345405578613281250e+01,-1.180768966674804688e+02,6.585875701904296875e+01,-2.980424880981445312e+01
9.160109758377075195e-01,1.000000000000000000e+00,-3.201240301132202148e+00,-2.258466333150863647e-01,5.485539913177490234e+00,-1.973762207031250000e+02,-8.783374023437500000e+01,-1.682415771484375000e+02,5.500723266601562500e+01,-2.090467262268066406e+01,-9.345405578613281250e+01,-1.180768966674804688e+02,6.585875701904296875e+01,-2.980424880981445312e+01
9.192879796028137207e-01,1.000000000000000000e+00,-3.266232490539550781e+00,-1.708333045244216919e-01,5.493509769439697266e+00,-1.973184509277343750e+02,-8.775983428955078125e+01,-1.681770172119140625e+02,5.500723266601562500e+01,-2.090467262268066406e+01,-9.345405578613281250e+01,-1.180768966674804688e+02,6.585875701904296875e+01,-2.980402946472167969e+01
9.232450127601623535e-01,1.000000000000000000e+00,-3.331196308135986328e+00,-1.159104853868484497e-01,5.501764297485351562e+00,-1.972601928710937500e+02,-8.768658447265625000e+01,-1.681140899658203125e+02,5.500723266601562500e+01,-2.090467262268066406e+01,-9.345405578613281250e+01,-1.180768966674804688e+02,6.585875701904296875e+01,-2.980424880981445312e+01
9.275519847869873047e-01,1.000000000000000000e+00,-3.395987272262573242e+00,-6.107818707823753357e-02,5.509856700897216797e+00,-1.972028808593750000e+02,-8.761241912841796875e+01,-1.680504608154296875e+02,5.500712203979492188e+01,-2.090467262268066406e+01,-9.345405578613281250e+01,-1.180768966674804688e+02,6.585875701904296875e+01,-2.980402946472167969e+01
9.320700168609619141e-01,1.000000000000000000e+00,-3.460951089859008789e+00,-6.110114511102437973e-03,5.517867565155029297e+00,-1.971450042724609375e+02,-8.753921508789062500e+01,-1.679863128662109375e+02,5.500723266601562500e+01,-2.090476417541503906e+01,-9.345405578613281250e+01,-1.180768966674804688e+02,6.585875701904296875e+01,-2.980424880981445312e+01
9.353680014610290527e-01,1.000000000000000000e+00,-3.525943279266357422e+00,4.883533343672752380e-02,5.525634288787841797e+00,-1.970871582031250000e+02,-8.746543121337890625e+01,-1.679229736328125000e+02,5.500723266601562500e+01,-2.090467262268066406e+01,-9.345405578613281250e+01,-1.180768966674804688e+02,6.585875701904296875e+01,-2.980424880981445312e+01
9.396060109138488770e-01,1.000000000000000000e+00,-3.590964317321777344e+00,1.036902591586112976e-01,5.533298969268798828e+00,-1.970300598144531250e+02,-8.739190673828125000e+01,-1.678595581054687500e+02,5.500723266601562500e+01,-2.090458106994628906e+01,-9.345405578613281250e+01,-1.180768966674804688e+02,6.585875701904296875e+01,-2.980424880981445312e+01
9.440180063247680664e-01,1.000000000000000000e+00,-3.655812740325927734e+00,1.584546715021133423e-01,5.541126728057861328e+00,-1.969714813232421875e+02,-8.731763458251953125e+01,-1.677956237792968750e+02,5.500723266601562500e+01,-2.090458106994628906e+01,-9.345405578613281250e+01,-1.180768966674804688e+02,6.585875701904296875e+01,-2.980424880981445312e+01
9.476130008697509766e-01,1.000000000000000000e+00,-3.720747709274291992e+00,2.134001106023788452e-01,5.549279689788818359e+00,-1.969139099121093750e+02,-8.724486541748046875e+01,-1.677327575683593750e+02,5.500723266601562500e+01,-2.090467262268066406e+01,-9.345405578613281250e+01,-1.180768966674804688e+02,6.585875701904296875e+01,-2.980424880981445312e+01
9.520540237426757812e-01,1.000000000000000000e+00,-3.785768508911132812e+00,2.681871354579925537e-01,5.557555198669433594e+00,-1.968560333251953125e+02,-8.717133331298828125e+01,-1.676682434082031250e+02,5.500723266601562500e+01,-2.090467262268066406e+01,-9.345405578613281250e+01,-1.180768966674804688e+02,6.585875701904296875e+01,-2.980402946472167969e+01
9.562469720840454102e-01,1.000000000000000000e+00,-3.850473880767822266e+00,3.229515552520751953e-01,5.565769195556640625e+00,-1.967981262207031250e+02,-8.709786987304687500e+01,-1.676040954589843750e+02,5.500712203979492188e+01,-2.090458106994628906e+01,-9.345405578613281250e+01,-1.180768966674804688e+02,6.585875701904296875e+01,-2.980446624755859375e+01
9.600219726562500000e-01,1.000000000000000000e+00,-3.915265083312988281e+00,3.778517544269561768e-01,5.574044227600097656e+00,-1.967404022216796875e+02,-8.702381134033203125e+01,-1.675413665771484375e+02,5.500723266601562500e+01,-2.090467262268066406e+01,-9.345405578613281250e+01,-1.180768966674804688e+02,6.585875701904296875e+01,-2.980446624755859375e+01
9.635350108146667480e-01,1.000000000000000000e+00,-3.980257272720336914e+00,4.328877031803131104e-01,5.582115650177001953e+00,-1.966819915771484375e+02,-8.695028686523437500e+01,-1.674776153564453125e+02,5.500712203979492188e+01,-2.090467262268066406e+01,-9.345405578613281250e+01,-1.180768966674804688e+02,6.585875701904296875e+01,-2.980424880981445312e+01
9.680190086364746094e-01,1.000000000000000000e+00,-4.045077323913574219e+00,4.879915714263916016e-01,5.589902877807617188e+00,-1.966244201660156250e+02,-8.687725067138671875e+01,-1.674138793945312500e+02,5.500723266601562500e+01,-2.090467262268066406e+01,-9.345405578613281250e+01,-1.180768966674804688e+02,6.585875701904296875e+01,-2.980424880981445312e+01
9.716119766235351562e-01,1.000000000000000000e+00,-4.110040664672851562e+00,5.428238511085510254e-01,5.597568035125732422e+00,-1.965667419433593750e+02,-8.680371856689453125e+01,-1.673504638671875000e+02,5.500723266601562500e+01,-2.090467262268066406e+01,-9.345405578613281250e+01,-1.180768966674804688e+02,6.585875701904296875e+01,-2.980424880981445312e+01
9.760209918022155762e-01,1.000000000000000000e+00,-4.174716949462890625e+00,5.977466702461242676e-01,5.605537891387939453e+00,-1.965086822509765625e+02,-8.672961425781250000e+01,-1.672864379882812500e+02,5.500712203979492188e+01,-2.090467262268066406e+01,-9.345405578613281250e+01,-1.180768966674804688e+02,6.585875701904296875e+01,-2.980402946472167969e+01
9.804869890213012695e-01,1.000000000000000000e+00,-4.239450931549072266e+00,6.524884700775146484e-01,5.613711833953857422e+00,-1.964512634277343750e+02,-8.665587615966796875e+01,-1.672225646972656250e+02,5.500723266601562500e+01,-2.090467262268066406e+01,-9.345405578613281250e+01,-1.180768966674804688e+02,6.585875701904296875e+01,-2.980424880981445312e+01
9.840189814567565918e-01,1.000000000000000000e+00,-4.304156303405761719e+00,7.075017690658569336e-01,5.621864318847656250e+00,-1.963927459716796875e+02,-8.658241271972656250e+01,-1.671600341796875000e+02,5.500723266601562500e+01,-2.090467262268066406e+01,-9.345405578613281250e+01,-1.180768966674804688e+02,6.585875701904296875e+01,-2.980424880981445312e+01
9.877640008926391602e-01,1.000000000000000000e+00,-4.369004726409912109e+00,7.624698877334594727e-01,5.629976749420166016e+00,-1.963353271484375000e+02,-8.650856018066406250e+01,-1.670960235595703125e+02,5.500723266601562500e+01,-2.090467262268066406e+01,-9.345405578613281250e+01,-1.180768966674804688e+02,6.585875701904296875e+01,-2.980424880981445312e+01
9.920489788055419922e-01,1.000000000000000000e+00,-4.433911323547363281e+00,8.172795176506042480e-01,5.637926578521728516e+00,-1.962776641845703125e+02,-8.643466186523437500e+01,-1.670316009521484375e+02,5.500712203979492188e+01,-2.090467262268066406e+01,-9.345405578613281250e+01,-1.180768966674804688e+02,6.585875701904296875e+01,-2.980424880981445312e+01
9.960600137710571289e-01,1.000000000000000000e+00,-4.498731136322021484e+00,8.721117973327636719e-01,5.645551204681396484e+00,-1.962197265625000000e+02,-8.636130523681640625e+01,-1.669686584472656250e+02,5.500723266601562500e+01,-2.090467262268066406e+01,-9.345405578613281250e+01,-1.180768966674804688e+02,6.585875701904296875e+01,-2.980424880981445312e+01
1.000084996223449707e+00,1.000000000000000000e+00,-4.563493728637695312e+00,9.267178177833557129e-01,5.653338432312011719e+00,-1.961623992919921875e+02,-8.628783416748046875e+01,-1.669050445556640625e+02,5.500723266601562500e+01,-2.090467262268066406e+01,-9.345405578613281250e+01,-1.180768966674804688e+02,6.585875701904296875e+01,-2.980424880981445312e+01
1.004652023315429688e+00,1.000000000000000000e+00,-4.628314018249511719e+00,9.814369082450866699e-01,5.661470890045166016e+00,-1.961042480468750000e+02,-8.621382904052734375e+01,-1.668412170410156250e+02,5.500723266601562500e+01,-2.090467262268066406e+01,-9.345405578613281250e+01,-1.180768966674804688e+02,6.585875701904296875e+01,-2.980424880981445312e+01
1.007966995239257812e+00,1.000000000000000000e+00,-4.692990303039550781e+00,1.036110877990722656e+00,5.669643878936767578e+00,-1.960468902587890625e+02,-8.613955688476562500e+01,-1.667786254882812500e+02,5.500723266601562500e+01,-2.090467262268066406e+01,-9.345405578613281250e+01,-1.180768966674804688e+02,6.585875701904296875e+01,-2.980424880981445312e+01
1.012400984764099121e+00,1.000000000000000000e+00,-4.757465362548828125e+00,1.090920448303222656e+00,5.677959918975830078e+00,-1.959887390136718750e+02,-8.606678771972656250e+01,-1.667145538330078125e+02,5.500712203979492188e+01,-2.090467262268066406e+01,-9.345405578613281250e+01,-1.180768966674804688e+02,6.585875701904296875e+01,-2.980424880981445312e+01
1.016088008880615234e+00,1.000000000000000000e+00,-4.821883678436279297e+00,1.145865917205810547e+00,5.686173915863037109e+00,-1.959305419921875000e+02,-8.599315643310546875e+01,-1.666504516601562500e+02,5.500723266601562500e+01,-2.090467262268066406e+01,-9.345405578613281250e+01,-1.180768966674804688e+02,6.585875701904296875e+01,-2.980402946472167969e+01
1.020046949386596680e+00,1.000000000000000000e+00,-4.886531352996826172e+00,1.200720906257629395e+00,5.694184303283691406e+00,-1.958725433349609375e+02,-8.591920471191406250e+01,-1.665873870849609375e+02,5.500712203979492188e+01,-2.090467262268066406e+01,-9.345405578613281250e+01,-1.180768966674804688e+02,6.585875701904296875e+01,-2.980424880981445312e+01
1.024194955825805664e+00,1.000000000000000000e+00,-4.951236724853515625e+00,1.255621075630187988e+00,5.701869964599609375e+00,-1.958147125244140625e+02,-8.584494018554687500e+01,-1.665228271484375000e+02,5.500723266601562500e+01,-2.090467262268066406e+01,-9.345405578613281250e+01,-1.180768966674804688e+02,6.585875701904296875e+01,-2.980402946472167969e+01
1.028781056404113770e+00,1.000000000000000000e+00,-5.015855789184570312e+00,1.310611844062805176e+00,5.709453582763671875e+00,-1.957571258544921875e+02,-8.577216339111328125e+01,-1.664594116210937500e+02,5.500723266601562500e+01,-2.090467262268066406e+01,-9.345405578613281250e+01,-1.180768966674804688e+02,6.585875701904296875e+01,-2.980424880981445312e+01
1.032150030136108398e+00,1.000000000000000000e+00,-5.080417156219482422e+00,1.365398764610290527e+00,5.717383384704589844e+00,-1.956990356445312500e+02,-8.569858551025390625e+01,-1.663962707519531250e+02,5.500723266601562500e+01,-2.090467262268066406e+01,-9.345405578613281250e+01,-1.180768966674804688e+02,6.585875701904296875e+01,-2.980424880981445312e+01
1.036201953887939453e+00,1.000000000000000000e+00,-5.145036220550537109e+00,1.420140624046325684e+00,5.725536346435546875e+00,-1.956415252685546875e+02,-8.562479400634765625e+01,-1.663318634033203125e+02,5.500712203979492188e+01,-2.090467262268066406e+01,-9.345405578613281250e+01,-1.180768966674804688e+02,6.585875701904296875e+01,-2.980424880981445312e+01
1.040092945098876953e+00,1.000000000000000000e+00,-5.209511756896972656e+00,1.474972844123840332e+00,5.733628273010253906e+00,-1.955836334228515625e+02,-8.555058288574218750e+01,-1.662686462402343750e+02,5.500712203979492188e+01,-2.090467262268066406e+01,-9.345405578613281250e+01,-1.180768966674804688e+02,6.585875701904296875e+01,-2.980402946472167969e+01
1.044244050979614258e+00,1.000000000000000000e+00,-5.273958683013916016e+00,1.529895663261413574e+00,5.741700172424316406e+00,-1.955257415771484375e+02,-8.547742462158203125e+01,-1.662048492431640625e+02,5.500712203979492188e+01,-2.090467262268066406e+01,-9.345405578613281250e+01,-1.180768966674804688e+02,6.585875701904296875e+01,-2.980424880981445312e+01
1.046977043151855469e+00,1.000000000000000000e+00,-5.338721275329589844e+00,1.584728002548217773e+00,5.749568462371826172e+00,-1.954681243896484375e+02,-8.540422821044921875e+01,-1.661406860351562500e+02,5.500723266601562500e+01,-2.090467262268066406e+01,-9.345405578613281250e+01,-1.180768966674804688e+02,6.585875701904296875e+01,-2.980424880981445312e+01
1.053768992424011230e+00,1.000000000000000000e+00,-5.403512477874755859e+00,1.639515042304992676e+00,5.757274150848388672e+00,-1.954102325439453125e+02,-8.533011627197265625e+01,-1.660778198242187500e+02,5.500723266601562500e+01,-2.090467262268066406e+01,-9.345405578613281250e+01,-1.180768966674804688e+02,6.585875701904296875e+01,-2.980424880981445312e+01
1.056972980499267578e+00,1.000000000000000000e+00,-5.468332290649414062e+00,1.694279432296752930e+00,5.765081882476806641e+00,-1.953525543212890625e+02,-8.525617218017578125e+01,-1.660144042968750000e+02,5.500723266601562500e+01,-2.090467262268066406e+01,-9.345405578613281250e+01,-1.180770339965820312e+02,6.585875701904296875e+01,-2.980424880981445312e+01
1.060528039932250977e+00,1.000000000000000000e+00,-5.533066272735595703e+00,1.748953342437744141e+00,5.773234367370605469e+00,-1.952950286865234375e+02,-8.518290710449218750e+01,-1.659501190185546875e+02,5.500723266601562500e+01,-2.090467262268066406e+01,-9.345405578613281250e+01,-1.180768966674804688e+02,6.585875701904296875e+01,-2.980424880981445312e+01
1.063102960586547852e+00,1.000000000000000000e+00,-5.597513198852539062e+00,1.803604483604431152e+00,5.781448841094970703e+00,-1.952367095947265625e+02,-8.510980987548828125e+01,-1.658870391845703125e+02,5.500723266601562500e+01,-2.090467262268066406e+01,-9.345405578613281250e+01,-1.180768966674804688e+02,6.585875701904296875e+01,-2.980424880981445312e+01
1.068426966667175293e+00,1.000000000000000000e+00,-5.662275791168212891e+00,1.858504772186279297e+00,5.789743900299072266e+00,-1.951795196533203125e+02,-8.503597259521484375e+01,-1.658232269287109375e+02,5.500712203979492188e+01,-2.090467262268066406e+01,-9.345405578613281250e+01,-1.180768966674804688e+02,6.585875701904296875e+01,-2.980424880981445312e+01
1.070996999740600586e+00,1.000000000000000000e+00,-5.726923465728759766e+00,1.913404941558837891e+00,5.797876834869384766e+00,-1.951214141845703125e+02,-8.496175384521484375e+01,-1.657598266601562500e+02,5.500712203979492188e+01,-2.090467262268066406e+01,-9.345405578613281250e+01,-1.180768966674804688e+02,6.585875701904296875e+01,-2.980424880981445312e+01
1.075019955635070801e+00,1.000000000000000000e+00,-5.791600227355957031e+00,1.968440890312194824e+00,5.805928230285644531e+00,-1.950633239746093750e+02,-8.488833618164062500e+01,-1.656966247558593750e+02,5.500712203979492188e+01,-2.090467262268066406e+01,-9.345405578613281250e+01,-1.180770339965820312e+02,6.585875701904296875e+01,-2.980424880981445312e+01
1.080580949783325195e+00,1.000000000000000000e+00,-5.856391429901123047e+00,2.023160219192504883e+00,5.813674926757812500e+00,-1.950055847167968750e+02,-8.481529235839843750e+01,-1.656331481933593750e+02,5.500712203979492188e+01,-2.090467262268066406e+01,-9.345405578613281250e+01,-1.180768966674804688e+02,6.585875701904296875e+01,-2.980446624755859375e+01
1.084437966346740723e+00,1.000000000000000000e+00,-5.921211242675781250e+00,2.077947139739990234e+00,5.821502208709716797e+00,-1.949472198486328125e+02,-8.474134826660156250e+01,-1.655693817138671875e+02,5.500723266601562500e+01,-2.090467262268066406e+01,-9.345405578613281250e+01,-1.180768966674804688e+02,6.585875701904296875e+01,-2.980424880981445312e+01
1.088600993156433105e+00,1.000000000000000000e+00,-5.986117362976074219e+00,2.132643461227416992e+00,5.829452037811279297e+00,-1.948900146484375000e+02,-8.466777038574218750e+01,-1.655062561035156250e+02,5.500723266601562500e+01,-2.090467262268066406e+01,-9.345405578613281250e+01,-1.180768966674804688e+02,6.585875701904296875e+01,-2.980424880981445312e+01
1.092882037162780762e+00,1.000000000000000000e+00,-6.050822257995605469e+00,2.187543869018554688e+00,5.837584972381591797e+00,-1.948321838378906250e+02,-8.459403228759765625e+01,-1.654422302246093750e+02,5.500712203979492188e+01,-2.090467262268066406e+01,-9.345405578613281250e+01,-1.180768966674804688e+02,6.585875701904296875e+01,-2.980424880981445312e+01
1.096865057945251465e+00,1.000000000000000000e+00,-6.115728378295898438e+00,2.242466688156127930e+00,5.845636367797851562e+00,-1.947741851806640625e+02,-8.452115631103515625e+01,-1.653780670166015625e+02,5.500712203979492188e+01,-2.090467262268066406e+01,-9.345405578613281250e+01,-1.180768966674804688e+02,6.585875701904296875e+01,-2.980424880981445312e+01
1.102159023284912109e+00,1.000000000000000000e+00,-6.180605888366699219e+00,2.297230958938598633e+00,5.853586196899414062e+00,-1.947164611816406250e+02,-8.444715118408203125e+01,-1.653154144287109375e+02,5.500701522827148438e+01,-2.090467262268066406e+01,-9.345405578613281250e+01,-1.180768966674804688e+02,6.585875701904296875e+01,-2.980424880981445312e+01
1.104655981063842773e+00,1.000000000000000000e+00,-6.245426177978515625e+00,2.351950168609619141e+00,5.861332416534423828e+00,-1.946584625244140625e+02,-8.437341308593750000e+01,-1.652517395019531250e+02,5.500723266601562500e+01,-2.090467262268066406e+01,-9.345405578613281250e+01,-1.180768966674804688e+02,6.585875701904296875e+01,-2.980402946472167969e+01
1.108734011650085449e+00,1.000000000000000000e+00,-6.310331821441650391e+00,2.406556129455566406e+00,5.869119167327880859e+00,-1.946014251708984375e+02,-8.429978179931640625e+01,-1.651878509521484375e+02,5.500723266601562500e+01,-2.090467262268066406e+01,-9.345405578613281250e+01,-1.180768966674804688e+02,6.585875701904296875e+01,-2.980424880981445312e+01
