rpiRobotics/ARM-21-02-F-19-Robot-Motion-Program/data_performance_abb/curve_1/curve_pose_opt1/100L/curve_exe_v109.375_z10.csv
# timestamp,cmd_num,J1,J2,J3,J4,J5,J6
2.000000094994902611e-03,-1.000000000000000000e+00,-3.419799804687500000e+01,4.881524658203125000e+01,3.022763442993164062e+01,1.098923263549804688e+02,9.603813934326171875e+01,-1.239757061004638672e+00,1.166222991943359375e+02,8.770228385925292969e+00,3.480780029296875000e+01,-1.537292938232421875e+02,6.622257232666015625e+01,1.191414108276367188e+02
4.000000189989805222e-03,1.000000000000000000e+00,-3.419799804687500000e+01,4.881524658203125000e+01,3.022763442993164062e+01,1.098923263549804688e+02,9.603813934326171875e+01,-1.239757061004638672e+00,1.166222991943359375e+02,8.770228385925292969e+00,3.480780029296875000e+01,-1.537292938232421875e+02,6.622257232666015625e+01,1.191414108276367188e+02
8.000000379979610443e-03,1.000000000000000000e+00,-3.419799804687500000e+01,4.881524658203125000e+01,3.022763442993164062e+01,1.098923263549804688e+02,9.603813934326171875e+01,-1.239757061004638672e+00,1.166222991943359375e+02,8.770228385925292969e+00,3.480780029296875000e+01,-1.537292938232421875e+02,6.622257232666015625e+01,1.191414108276367188e+02
9.999999776482582092e-03,1.000000000000000000e+00,-3.419799804687500000e+01,4.881524658203125000e+01,3.022763442993164062e+01,1.098923263549804688e+02,9.603813934326171875e+01,-1.239757061004638672e+00,1.166222991943359375e+02,8.770228385925292969e+00,3.480780029296875000e+01,-1.537292938232421875e+02,6.622257232666015625e+01,1.191414108276367188e+02
1.400000043213367462e-02,1.000000000000000000e+00,-3.419799804687500000e+01,4.881524658203125000e+01,3.022763442993164062e+01,1.098923263549804688e+02,9.603813934326171875e+01,-1.239757061004638672e+00,1.166222991943359375e+02,8.770228385925292969e+00,3.480780029296875000e+01,-1.537292938232421875e+02,6.622257232666015625e+01,1.191414108276367188e+02
1.600000075995922089e-02,1.000000000000000000e+00,-3.419799804687500000e+01,4.881524658203125000e+01,3.022763442993164062e+01,1.098923263549804688e+02,9.603813934326171875e+01,-1.239757061004638672e+00,1.166222991943359375e+02,8.770228385925292969e+00,3.480780029296875000e+01,-1.537292938232421875e+02,6.622257232666015625e+01,1.191414108276367188e+02
1.999999955296516418e-02,1.000000000000000000e+00,-3.419799804687500000e+01,4.881524658203125000e+01,3.022763442993164062e+01,1.098923263549804688e+02,9.603813934326171875e+01,-1.239757061004638672e+00,1.166222991943359375e+02,8.770228385925292969e+00,3.480780029296875000e+01,-1.537292938232421875e+02,6.622257232666015625e+01,1.191414108276367188e+02
2.400000020861625671e-02,1.000000000000000000e+00,-3.419799804687500000e+01,4.881524658203125000e+01,3.022763442993164062e+01,1.098923263549804688e+02,9.603813934326171875e+01,-1.239757061004638672e+00,1.166222991943359375e+02,8.770228385925292969e+00,3.480780029296875000e+01,-1.537292938232421875e+02,6.622257232666015625e+01,1.191414108276367188e+02
2.800000086426734924e-02,1.000000000000000000e+00,-3.419799804687500000e+01,4.881524658203125000e+01,3.022763442993164062e+01,1.098923263549804688e+02,9.603813934326171875e+01,-1.239757061004638672e+00,1.166222991943359375e+02,8.770228385925292969e+00,3.480780029296875000e+01,-1.537292938232421875e+02,6.622257232666015625e+01,1.191414108276367188e+02
3.200000151991844177e-02,1.000000000000000000e+00,-3.419799804687500000e+01,4.881524658203125000e+01,3.022763442993164062e+01,1.098923263549804688e+02,9.603813934326171875e+01,-1.239757061004638672e+00,1.166222991943359375e+02,8.770228385925292969e+00,3.480780029296875000e+01,-1.537292938232421875e+02,6.622257232666015625e+01,1.191414108276367188e+02
3.599999845027923584e-02,1.000000000000000000e+00,-3.419799804687500000e+01,4.881524658203125000e+01,3.022763442993164062e+01,1.098923263549804688e+02,9.603813934326171875e+01,-1.239757061004638672e+00,1.166222991943359375e+02,8.770228385925292969e+00,3.480780029296875000e+01,-1.537292938232421875e+02,6.622257232666015625e+01,1.191414108276367188e+02
3.999999910593032837e-02,1.000000000000000000e+00,-3.419799804687500000e+01,4.881524658203125000e+01,3.022763442993164062e+01,1.098923263549804688e+02,9.603813934326171875e+01,-1.239757061004638672e+00,1.166222991943359375e+02,8.770228385925292969e+00,3.480780029296875000e+01,-1.537292938232421875e+02,6.622257232666015625e+01,1.191414108276367188e+02
4.399999976158142090e-02,1.000000000000000000e+00,-3.419803619384765625e+01,4.881522369384765625e+01,3.022763442993164062e+01,1.098923187255859375e+02,9.603813934326171875e+01,-1.239757180213928223e+00,1.166222991943359375e+02,8.770228385925292969e+00,3.480780029296875000e+01,-1.537292938232421875e+02,6.622257232666015625e+01,1.191414108276367188e+02
4.800000041723251343e-02,1.000000000000000000e+00,-3.419823074340820312e+01,4.881508255004882812e+01,3.022763061523437500e+01,1.098923187255859375e+02,9.603814697265625000e+01,-1.239758372306823730e+00,1.166222991943359375e+02,8.770228385925292969e+00,3.480780029296875000e+01,-1.537292938232421875e+02,6.622257232666015625e+01,1.191414108276367188e+02
5.200000107288360596e-02,1.000000000000000000e+00,-3.419875335693359375e+01,4.881464385986328125e+01,3.022762489318847656e+01,1.098923034667968750e+02,9.603816986083984375e+01,-1.239764928817749023e+00,1.166222991943359375e+02,8.770228385925292969e+00,3.480780029296875000e+01,-1.537292938232421875e+02,6.622257232666015625e+01,1.191414108276367188e+02
5.600000172853469849e-02,1.000000000000000000e+00,-3.419972991943359375e+01,4.881369018554687500e+01,3.022761726379394531e+01,1.098922271728515625e+02,9.603822326660156250e+01,-1.239787101745605469e+00,1.166222991943359375e+02,8.770228385925292969e+00,3.480780029296875000e+01,-1.537292938232421875e+02,6.622257232666015625e+01,1.191414108276367188e+02
5.999999865889549255e-02,1.000000000000000000e+00,-3.420119476318359375e+01,4.881199645996093750e+01,3.022762680053710938e+01,1.098920516967773438e+02,9.603833770751953125e+01,-1.239845514297485352e+00,1.166222991943359375e+02,8.770228385925292969e+00,3.480780029296875000e+01,-1.537292938232421875e+02,6.622257232666015625e+01,1.191414108276367188e+02
6.400000303983688354e-02,1.000000000000000000e+00,-3.420314025878906250e+01,4.880932998657226562e+01,3.022767448425292969e+01,1.098916625976562500e+02,9.603852844238281250e+01,-1.239972591400146484e+00,1.166222991943359375e+02,8.770228385925292969e+00,3.480780029296875000e+01,-1.537292938232421875e+02,6.622257232666015625e+01,1.191414108276367188e+02
6.800000369548797607e-02,1.000000000000000000e+00,-3.420557403564453125e+01,4.880541610717773438e+01,3.022780418395996094e+01,1.098909454345703125e+02,9.603883361816406250e+01,-1.240214347839355469e+00,1.166222991943359375e+02,8.770228385925292969e+00,3.480780029296875000e+01,-1.537292938232421875e+02,6.622257232666015625e+01,1.191414108276367188e+02
7.199999690055847168e-02,1.000000000000000000e+00,-3.420849227905273438e+01,4.879996871948242188e+01,3.022806167602539062e+01,1.098897094726562500e+02,9.603929138183593750e+01,-1.240629553794860840e+00,1.166222991943359375e+02,8.770228385925292969e+00,3.480780029296875000e+01,-1.537292938232421875e+02,6.622257232666015625e+01,1.191414108276367188e+02
7.599999755620956421e-02,1.000000000000000000e+00,-3.421189880371093750e+01,4.879280090332031250e+01,3.022850799560546875e+01,1.098877487182617188e+02,9.603996276855468750e+01,-1.241290688514709473e+00,1.166222991943359375e+02,8.770228385925292969e+00,3.480780029296875000e+01,-1.537292938232421875e+02,6.622257232666015625e+01,1.191414108276367188e+02
7.999999821186065674e-02,1.000000000000000000e+00,-3.421588516235351562e+01,4.878380203247070312e+01,3.022922325134277344e+01,1.098848190307617188e+02,9.604090118408203125e+01,-1.242282986640930176e+00,1.166222991943359375e+02,8.770228385925292969e+00,3.480780029296875000e+01,-1.537292938232421875e+02,6.622257232666015625e+01,1.191414108276367188e+02
8.399999886751174927e-02,1.000000000000000000e+00,-3.422064971923828125e+01,4.877284622192382812e+01,3.023027801513671875e+01,1.098806076049804688e+02,9.604219055175781250e+01,-1.243705630302429199e+00,1.166222991943359375e+02,8.770228385925292969e+00,3.480780029296875000e+01,-1.537292938232421875e+02,6.622257232666015625e+01,1.191414108276367188e+02
8.799999952316284180e-02,1.000000000000000000e+00,-3.422642898559570312e+01,4.875973510742187500e+01,3.023177719116210938e+01,1.098748092651367188e+02,9.604390716552734375e+01,-1.245670437812805176e+00,1.166222991943359375e+02,8.770228385925292969e+00,3.480780029296875000e+01,-1.537292938232421875e+02,6.622257232666015625e+01,1.191414108276367188e+02
9.200000017881393433e-02,1.000000000000000000e+00,-3.423345947265625000e+01,4.874427795410156250e+01,3.023382186889648438e+01,1.098670425415039062e+02,9.604615020751953125e+01,-1.248302340507507324e+00,1.166222991943359375e+02,8.770228385925292969e+00,3.480780029296875000e+01,-1.537292938232421875e+02,6.622257232666015625e+01,1.191414108276367188e+02
9.600000083446502686e-02,1.000000000000000000e+00,-3.424187088012695312e+01,4.872639083862304688e+01,3.023654174804687500e+01,1.098569107055664062e+02,9.604898834228515625e+01,-1.251737356185913086e+00,1.166222991943359375e+02,8.770228385925292969e+00,3.480780029296875000e+01,-1.537292938232421875e+02,6.622257232666015625e+01,1.191414108276367188e+02
1.000000014901161194e-01,1.000000000000000000e+00,-3.425171661376953125e+01,4.870604705810546875e+01,3.024006462097167969e+01,1.098440093994140625e+02,9.605251312255859375e+01,-1.256115794181823730e+00,1.166222991943359375e+02,8.770228385925292969e+00,3.480780029296875000e+01,-1.537292938232421875e+02,6.622257232666015625e+01,1.191414108276367188e+02
1.040000021457672119e-01,1.000000000000000000e+00,-3.426303100585937500e+01,4.868315124511718750e+01,3.024452590942382812e+01,1.098279342651367188e+02,9.605680847167968750e+01,-1.261573314666748047e+00,1.166222991943359375e+02,8.770228385925292969e+00,3.480780029296875000e+01,-1.537292938232421875e+02,6.622257232666015625e+01,1.191414108276367188e+02
1.080000028014183044e-01,1.000000000000000000e+00,-3.427590942382812500e+01,4.865746307373046875e+01,3.025002670288085938e+01,1.098083343505859375e+02,9.606194305419921875e+01,-1.268230795860290527e+00,1.166222991943359375e+02,8.770228385925292969e+00,3.480780029296875000e+01,-1.537292938232421875e+02,6.622257232666015625e+01,1.191414108276367188e+02
1.120000034570693970e-01,1.000000000000000000e+00,-3.429048538208007812e+01,4.862868118286132812e+01,3.025665855407714844e+01,1.097849121093750000e+02,9.606798553466796875e+01,-1.276187896728515625e+00,1.166222991943359375e+02,8.770228385925292969e+00,3.480780029296875000e+01,-1.537292938232421875e+02,6.622257232666015625e+01,1.191414108276367188e+02
1.159999966621398926e-01,1.000000000000000000e+00,-3.430687713623046875e+01,4.859656143188476562e+01,3.026449012756347656e+01,1.097574462890625000e+02,9.607498931884765625e+01,-1.285520195960998535e+00,1.166222991943359375e+02,8.770228385925292969e+00,3.480780029296875000e+01,-1.537292938232421875e+02,6.622257232666015625e+01,1.191414108276367188e+02
1.199999973177909851e-01,1.000000000000000000e+00,-3.432514953613281250e+01,4.856098175048828125e+01,3.027355957031250000e+01,1.097257919311523438e+02,9.608300018310546875e+01,-1.296278476715087891e+00,1.166222991943359375e+02,8.770228385925292969e+00,3.480780029296875000e+01,-1.537292938232421875e+02,6.622257232666015625e+01,1.191414108276367188e+02
1.239999979734420776e-01,1.000000000000000000e+00,-3.434532165527343750e+01,4.852191543579101562e+01,3.028389167785644531e+01,1.096898803710937500e+02,9.609201812744140625e+01,-1.308487296104431152e+00,1.166222991943359375e+02,8.770228385925292969e+00,3.480780029296875000e+01,-1.537292938232421875e+02,6.622257232666015625e+01,1.191414108276367188e+02
1.280000060796737671e-01,1.000000000000000000e+00,-3.436737060546875000e+01,4.847941970825195312e+01,3.029547882080078125e+01,1.096497116088867188e+02,9.610205078125000000e+01,-1.322144865989685059e+00,1.166222991943359375e+02,8.770228385925292969e+00,3.480780029296875000e+01,-1.537292938232421875e+02,6.622257232666015625e+01,1.191414108276367188e+02
1.309999972581863403e-01,1.000000000000000000e+00,-3.439124298095703125e+01,4.843360137939453125e+01,3.030829620361328125e+01,1.096053695678710938e+02,9.611307525634765625e+01,-1.337221145629882812e+00,1.166222991943359375e+02,8.770228385925292969e+00,3.480780029296875000e+01,-1.537292938232421875e+02,6.622257232666015625e+01,1.191414108276367188e+02
1.360000073909759521e-01,1.000000000000000000e+00,-3.441684341430664062e+01,4.838466262817382812e+01,3.032229423522949219e+01,1.095570373535156250e+02,9.612504577636718750e+01,-1.353658080101013184e+00,1.166222991943359375e+02,8.770228385925292969e+00,3.480780029296875000e+01,-1.537292938232421875e+02,6.622257232666015625e+01,1.191414108276367188e+02
1.389999985694885254e-01,1.000000000000000000e+00,-3.444404602050781250e+01,4.833280944824218750e+01,3.033739471435546875e+01,1.095049591064453125e+02,9.613790130615234375e+01,-1.371368885040283203e+00,1.166222991943359375e+02,8.770228385925292969e+00,3.480780029296875000e+01,-1.537292938232421875e+02,6.622257232666015625e+01,1.191414108276367188e+02
1.439999938011169434e-01,1.000000000000000000e+00,-3.447278976440429688e+01,4.827818679809570312e+01,3.035349464416503906e+01,1.094494705200195312e+02,9.615156555175781250e+01,-1.390241861343383789e+00,1.166222991943359375e+02,8.770228385925292969e+00,3.480780029296875000e+01,-1.537292938232421875e+02,6.622257232666015625e+01,1.191414108276367188e+02
1.480000019073486328e-01,1.000000000000000000e+00,-3.450304794311523438e+01,4.822083663940429688e+01,3.037046813964843750e+01,1.093909454345703125e+02,9.616597747802734375e+01,-1.410146117210388184e+00,1.166222991943359375e+02,8.770228385925292969e+00,3.480780029296875000e+01,-1.537292938232421875e+02,6.622257232666015625e+01,1.191414108276367188e+02
1.519999951124191284e-01,1.000000000000000000e+00,-3.453478622436523438e+01,4.816085815429687500e+01,3.038818168640136719e+01,1.093298110961914062e+02,9.618106079101562500e+01,-1.430941462516784668e+00,1.166222991943359375e+02,8.770228385925292969e+00,3.480780029296875000e+01,-1.537292938232421875e+02,6.622257232666015625e+01,1.191414108276367188e+02
1.560000032186508179e-01,1.000000000000000000e+00,-3.456786727905273438e+01,4.809847259521484375e+01,3.040650939941406250e+01,1.092664489746093750e+02,9.619670867919921875e+01,-1.452488780021667480e+00,1.166222991943359375e+02,8.770228385925292969e+00,3.480780029296875000e+01,-1.537292938232421875e+02,6.622257232666015625e+01,1.191414108276367188e+02
1.599999964237213135e-01,1.000000000000000000e+00,-3.460205841064453125e+01,4.803396606445312500e+01,3.042534065246582031e+01,1.092012634277343750e+02,9.621283721923828125e+01,-1.474657654762268066e+00,1.166222991943359375e+02,8.770228385925292969e+00,3.480780029296875000e+01,-1.537292938232421875e+02,6.622257232666015625e+01,1.191414108276367188e+02
1.640000045299530029e-01,1.000000000000000000e+00,-3.463709259033203125e+01,4.796754074096679688e+01,3.044457435607910156e+01,1.091345977783203125e+02,9.622937774658203125e+01,-1.497327685356140137e+00,1.166222991943359375e+02,8.770228385925292969e+00,3.480780029296875000e+01,-1.537292938232421875e+02,6.622257232666015625e+01,1.191414108276367188e+02
1.679999977350234985e-01,1.000000000000000000e+00,-3.467275619506835938e+01,4.789934158325195312e+01,3.046411514282226562e+01,1.090667800903320312e+02,9.624621582031250000e+01,-1.520390629768371582e+00,1.166222991943359375e+02,8.770228385925292969e+00,3.480780029296875000e+01,-1.537292938232421875e+02,6.622257232666015625e+01,1.191414108276367188e+02
1.720000058412551880e-01,1.000000000000000000e+00,-3.470896530151367188e+01,4.782943725585937500e+01,3.048388671875000000e+01,1.089980773925781250e+02,9.626331329345703125e+01,-1.543750405311584473e+00,1.166222991943359375e+02,8.770228385925292969e+00,3.480780029296875000e+01,-1.537292938232421875e+02,6.622257232666015625e+01,1.191414108276367188e+02
1.759999990463256836e-01,1.000000000000000000e+00,-3.474573516845703125e+01,4.775788879394531250e+01,3.050381278991699219e+01,1.089287567138671875e+02,9.628059387207031250e+01,-1.567324638366699219e+00,1.166222991943359375e+02,8.770228385925292969e+00,3.480780029296875000e+01,-1.537292938232421875e+02,6.622257232666015625e+01,1.191414108276367188e+02
1.800000071525573730e-01,1.000000000000000000e+00,-3.478307342529296875e+01,4.768480682373046875e+01,3.052384185791015625e+01,1.088589859008789062e+02,9.629801940917968750e+01,-1.591045379638671875e+00,1.166222991943359375e+02,8.770228385925292969e+00,3.480780029296875000e+01,-1.537292938232421875e+02,6.622257232666015625e+01,1.191414108276367188e+02
1.840000003576278687e-01,1.000000000000000000e+00,-3.482097244262695312e+01,4.761042022705078125e+01,3.054393386840820312e+01,1.087889556884765625e+02,9.631554412841796875e+01,-1.614859819412231445e+00,1.166222991943359375e+02,8.770228385925292969e+00,3.480780029296875000e+01,-1.537292938232421875e+02,6.622257232666015625e+01,1.191414108276367188e+02
1.879999935626983643e-01,1.000000000000000000e+00,-3.485944747924804688e+01,4.753502655029296875e+01,3.056404876708984375e+01,1.087187423706054688e+02,9.633314514160156250e+01,-1.638730168342590332e+00,1.166222991943359375e+02,8.770228385925292969e+00,3.480780029296875000e+01,-1.537292938232421875e+02,6.622257232666015625e+01,1.191414108276367188e+02
1.920000016689300537e-01,1.000000000000000000e+00,-3.489846420288085938e+01,4.745893478393554688e+01,3.058417701721191406e+01,1.086484451293945312e+02,9.635079193115234375e+01,-1.662632107734680176e+00,1.166222991943359375e+02,8.770228385925292969e+00,3.480780029296875000e+01,-1.537292938232421875e+02,6.622257232666015625e+01,1.191414108276367188e+02
1.959999948740005493e-01,1.000000000000000000e+00,-3.493787384033203125e+01,4.738242721557617188e+01,3.060431289672851562e+01,1.085780792236328125e+02,9.636846160888671875e+01,-1.686553478240966797e+00,1.166222991943359375e+02,8.770228385925292969e+00,3.480780029296875000e+01,-1.537292938232421875e+02,6.622257232666015625e+01,1.191414108276367188e+02
2.000000029802322388e-01,1.000000000000000000e+00,-3.497748947143554688e+01,4.730573272705078125e+01,3.062445449829101562e+01,1.085076751708984375e+02,9.638616180419921875e+01,-1.710489273071289062e+00,1.166222991943359375e+02,8.770228385925292969e+00,3.480780029296875000e+01,-1.537292938232421875e+02,6.622257232666015625e+01,1.191414108276367188e+02
2.039999961853027344e-01,1.000000000000000000e+00,-3.501716995239257812e+01,4.722896957397460938e+01,3.064461135864257812e+01,1.084372329711914062e+02,9.640386962890625000e+01,-1.734438180923461914e+00,1.166222991943359375e+02,8.770228385925292969e+00,3.480780029296875000e+01,-1.537292938232421875e+02,6.622257232666015625e+01,1.191414108276367188e+02
2.080000042915344238e-01,1.000000000000000000e+00,-3.505687713623046875e+01,4.715216445922851562e+01,3.066477394104003906e+01,1.083667526245117188e+02,9.642157745361328125e+01,-1.758399963378906250e+00,1.166222991943359375e+02,8.770228385925292969e+00,3.480780029296875000e+01,-1.537292938232421875e+02,6.622257232666015625e+01,1.191414108276367188e+02
2.119999974966049194e-01,1.000000000000000000e+00,-3.509661102294921875e+01,4.707531356811523438e+01,3.068494987487792969e+01,1.082962265014648438e+02,9.643930053710937500e+01,-1.782374858856201172e+00,1.166222991943359375e+02,8.770228385925292969e+00,3.480780029296875000e+01,-1.537292938232421875e+02,6.622257232666015625e+01,1.191414108276367188e+02
2.160000056028366089e-01,1.000000000000000000e+00,-3.513635635375976562e+01,4.699842071533203125e+01,3.070513534545898438e+01,1.082256774902343750e+02,9.645703887939453125e+01,-1.806362628936767578e+00,1.166222991943359375e+02,8.770228385925292969e+00,3.480780029296875000e+01,-1.537292938232421875e+02,6.622257232666015625e+01,1.191414108276367188e+02
2.199999988079071045e-01,1.000000000000000000e+00,-3.517613220214843750e+01,4.692148590087890625e+01,3.072533226013183594e+01,1.081550750732421875e+02,9.647478485107421875e+01,-1.830363750457763672e+00,1.166222991943359375e+02,8.770228385925292969e+00,3.480780029296875000e+01,-1.537292938232421875e+02,6.622257232666015625e+01,1.191414108276367188e+02
2.240000069141387939e-01,1.000000000000000000e+00,-3.521592712402343750e+01,4.684451293945312500e+01,3.074554443359375000e+01,1.080844421386718750e+02,9.649253845214843750e+01,-1.854377627372741699e+00,1.166222991943359375e+02,8.770228385925292969e+00,3.480780029296875000e+01,-1.537292938232421875e+02,6.622257232666015625e+01,1.191414108276367188e+02
2.280000001192092896e-01,1.000000000000000000e+00,-3.525574111938476562e+01,4.676749420166015625e+01,3.076576042175292969e+01,1.080137634277343750e+02,9.651029205322265625e+01,-1.878404736518859863e+00,1.166222991943359375e+02,8.770228385925292969e+00,3.480780029296875000e+01,-1.537292938232421875e+02,6.622257232666015625e+01,1.191414108276367188e+02
2.319999933242797852e-01,1.000000000000000000e+00,-3.529558181762695312e+01,4.669043731689453125e+01,3.078599166870117188e+01,1.079430541992187500e+02,9.652806854248046875e+01,-1.902444839477539062e+00,1.166222991943359375e+02,8.770228385925292969e+00,3.480780029296875000e+01,-1.537292938232421875e+02,6.622257232666015625e+01,1.191414108276367188e+02
2.360000014305114746e-01,1.000000000000000000e+00,-3.533544158935546875e+01,4.661333847045898438e+01,3.080623245239257812e+01,1.078722991943359375e+02,9.654585266113281250e+01,-1.926498174667358398e+00,1.166222991943359375e+02,8.770228385925292969e+00,3.480780029296875000e+01,-1.537292938232421875e+02,6.622257232666015625e+01,1.191414108276367188e+02
2.399999946355819702e-01,1.000000000000000000e+00,-3.537532424926757812e+01,4.653619384765625000e+01,3.082648849487304688e+01,1.078015136718750000e+02,9.656364440917968750e+01,-1.950564861297607422e+00,1.166222991943359375e+02,8.770228385925292969e+00,3.480780029296875000e+01,-1.537292938232421875e+02,6.622257232666015625e+01,1.191414108276367188e+02
2.440000027418136597e-01,1.000000000000000000e+00,-3.541522598266601562e+01,4.645900344848632812e+01,3.084675025939941406e+01,1.077306823730468750e+02,9.658144378662109375e+01,-1.974644660949707031e+00,1.166222991943359375e+02,8.770228385925292969e+00,3.480780029296875000e+01,-1.537292938232421875e+02,6.622257232666015625e+01,1.191414108276367188e+02
2.479999959468841553e-01,1.000000000000000000e+00,-3.545515060424804688e+01,4.638177490234375000e+01,3.086702537536621094e+01,1.076598129272460938e+02,9.659925842285156250e+01,-1.998737692832946777e+00,1.166222991943359375e+02,8.770228385925292969e+00,3.480780029296875000e+01,-1.537292938232421875e+02,6.622257232666015625e+01,1.191414108276367188e+02
2.520000040531158447e-01,1.000000000000000000e+00,-3.549509811401367188e+01,4.630450820922851562e+01,3.088731193542480469e+01,1.075889053344726562e+02,9.661708068847656250e+01,-2.022843837738037109e+00,1.166222991943359375e+02,8.770228385925292969e+00,3.480780029296875000e+01,-1.537292938232421875e+02,6.622257232666015625e+01,1.191414108276367188e+02
2.560000121593475342e-01,1.000000000000000000e+00,-3.553506469726562500e+01,4.622719192504882812e+01,3.090760993957519531e+01,1.075179672241210938e+02,9.663491058349609375e+01,-2.046963453292846680e+00,1.166222991943359375e+02,8.770228385925292969e+00,3.480780029296875000e+01,-1.537292938232421875e+02,6.622257232666015625e+01,1.191414108276367188e+02
2.599999904632568359e-01,1.000000000000000000e+00,-3.557505416870117188e+01,4.614983749389648438e+01,3.092791938781738281e+01,1.074469757080078125e+02,9.665274810791015625e+01,-2.071096420288085938e+00,1.166222991943359375e+02,8.770228385925292969e+00,3.480780029296875000e+01,-1.537292938232421875e+02,6.622257232666015625e+01,1.191414108276367188e+02
2.639999985694885254e-01,1.000000000000000000e+00,-3.561507034301757812e+01,4.607243728637695312e+01,3.094824028015136719e+01,1.073759536743164062e+02,9.667060089111328125e+01,-2.095242500305175781e+00,1.166222991943359375e+02,8.770228385925292969e+00,3.480780029296875000e+01,-1.537292938232421875e+02,6.622257232666015625e+01,1.191414108276367188e+02
2.680000066757202148e-01,1.000000000000000000e+00,-3.565510559082031250e+01,4.599499511718750000e+01,3.096857070922851562e+01,1.073048858642578125e+02,9.668846130371093750e+01,-2.119402170181274414e+00,1.166222991943359375e+02,8.770228385925292969e+00,3.480780029296875000e+01,-1.537292938232421875e+02,6.622257232666015625e+01,1.191414108276367188e+02
2.720000147819519043e-01,1.000000000000000000e+00,-3.569515991210937500e+01,4.591751098632812500e+01,3.098891448974609375e+01,1.072337875366210938e+02,9.670632934570312500e+01,-2.143574953079223633e+00,1.166222991943359375e+02,8.770228385925292969e+00,3.480780029296875000e+01,-1.537292938232421875e+02,6.622257232666015625e+01,1.191414108276367188e+02
2.759999930858612061e-01,1.000000000000000000e+00,-3.573524093627929688e+01,4.583998107910156250e+01,3.100926780700683594e+01,1.071626510620117188e+02,9.672420501708984375e+01,-2.167761325836181641e+00,1.166222991943359375e+02,8.770228385925292969e+00,3.480780029296875000e+01,-1.537292938232421875e+02,6.622257232666015625e+01,1.191414108276367188e+02
2.800000011920928955e-01,1.000000000000000000e+00,-3.577534103393554688e+01,4.576241302490234375e+01,3.102963256835937500e+01,1.070914688110351562e+02,9.674210357666015625e+01,-2.191961288452148438e+00,1.166222991943359375e+02,8.770228385925292969e+00,3.480780029296875000e+01,-1.537292938232421875e+02,6.622257232666015625e+01,1.191414108276367188e+02
2.840000092983245850e-01,1.000000000000000000e+00,-3.581546401977539062e+01,4.568479537963867188e+01,3.105000686645507812e+01,1.070202484130859375e+02,9.676000213623046875e+01,-2.216174364089965820e+00,1.166222991943359375e+02,8.770228385925292969e+00,3.480780029296875000e+01,-1.537292938232421875e+02,6.622257232666015625e+01,1.191414108276367188e+02
2.879999876022338867e-01,1.000000000000000000e+00,-3.585560607910156250e+01,4.560713958740234375e+01,3.107039451599121094e+01,1.069489822387695312e+02,9.677790832519531250e+01,-2.240400791168212891e+00,1.166222991943359375e+02,8.770228385925292969e+00,3.480780029296875000e+01,-1.537292938232421875e+02,6.622257232666015625e+01,1.191414108276367188e+02
2.919999957084655762e-01,1.000000000000000000e+00,-3.589577484130859375e+01,4.552943801879882812e+01,3.109079170227050781e+01,1.068776779174804688e+02,9.679582977294921875e+01,-2.264641046524047852e+00,1.166222991943359375e+02,8.770228385925292969e+00,3.480780029296875000e+01,-1.537292938232421875e+02,6.622257232666015625e+01,1.191414108276367188e+02
2.960000038146972656e-01,1.000000000000000000e+00,-3.593596649169921875e+01,4.545169067382812500e+01,3.111120414733886719e+01,1.068063430786132812e+02,9.681375885009765625e+01,-2.288894414901733398e+00,1.166222991943359375e+02,8.770228385925292969e+00,3.480780029296875000e+01,-1.537292938232421875e+02,6.622257232666015625e+01,1.191414108276367188e+02
3.000000119209289551e-01,1.000000000000000000e+00,-3.597618103027343750e+01,4.537390518188476562e+01,3.113162422180175781e+01,1.067349624633789062e+02,9.683170318603515625e+01,-2.313161373138427734e+00,1.166222991943359375e+02,8.770228385925292969e+00,3.480780029296875000e+01,-1.537292938232421875e+02,6.622257232666015625e+01,1.191414108276367188e+02
3.039999902248382568e-01,1.000000000000000000e+00,-3.601641464233398438e+01,4.529607391357421875e+01,3.115205955505371094e+01,1.066635513305664062e+02,9.684965515136718750e+01,-2.337442159652709961e+00,1.166222991943359375e+02,8.770228385925292969e+00,3.480780029296875000e+01,-1.537292938232421875e+02,6.622257232666015625e+01,1.191414108276367188e+02
3.079999983310699463e-01,1.000000000000000000e+00,-3.605667114257812500e+01,4.521820068359375000e+01,3.117250251770019531e+01,1.065920867919921875e+02,9.686760711669921875e+01,-2.361736059188842773e+00,1.166222991943359375e+02,8.770228385925292969e+00,3.480780029296875000e+01,-1.537292938232421875e+02,6.622257232666015625e+01,1.191414108276367188e+02
3.120000064373016357e-01,1.000000000000000000e+00,-3.609695434570312500e+01,4.514028167724609375e+01,3.119295883178710938e+01,1.065205917358398438e+02,9.688558197021484375e+01,-2.386043548583984375e+00,1.166222991943359375e+02,8.770228385925292969e+00,3.480780029296875000e+01,-1.537292938232421875e+02,6.622257232666015625e+01,1.191414108276367188e+02
3.160000145435333252e-01,1.000000000000000000e+00,-3.613725280761718750e+01,4.506232070922851562e+01,3.121342468261718750e+01,1.064490509033203125e+02,9.690356445312500000e+01,-2.410364866256713867e+00,1.166222991943359375e+02,8.770228385925292969e+00,3.480780029296875000e+01,-1.537292938232421875e+02,6.622257232666015625e+01,1.191414108276367188e+02
3.199999928474426270e-01,1.000000000000000000e+00,-3.617757797241210938e+01,4.498431777954101562e+01,3.123390197753906250e+01,1.063774719238281250e+02,9.692155456542968750e+01,-2.434699535369873047e+00,1.166222991943359375e+02,8.770228385925292969e+00,3.480780029296875000e+01,-1.537292938232421875e+02,6.622257232666015625e+01,1.191414108276367188e+02
3.240000009536743164e-01,1.000000000000000000e+00,-3.621792602539062500e+01,4.490626907348632812e+01,3.125439262390136719e+01,1.063058471679687500e+02,9.693955230712890625e+01,-2.459047794342041016e+00,1.166222991943359375e+02,8.770228385925292969e+00,3.480780029296875000e+01,-1.537292938232421875e+02,6.622257232666015625e+01,1.191414108276367188e+02
3.280000090599060059e-01,1.000000000000000000e+00,-3.625829696655273438e+01,4.482817459106445312e+01,3.127489280700683594e+01,1.062341918945312500e+02,9.695756530761718750e+01,-2.483409643173217773e+00,1.166222991943359375e+02,8.770228385925292969e+00,3.480780029296875000e+01,-1.537292938232421875e+02,6.622257232666015625e+01,1.191414108276367188e+02
3.319999873638153076e-01,1.000000000000000000e+00,-3.629869079589843750e+01,4.475004196166992188e+01,3.129540824890136719e+01,1.061624984741210938e+02,9.697557830810546875e+01,-2.507785320281982422e+00,1.166222991943359375e+02,8.770228385925292969e+00,3.480780029296875000e+01,-1.537292938232421875e+02,6.622257232666015625e+01,1.191414108276367188e+02
3.359999954700469971e-01,1.000000000000000000e+00,-3.633910369873046875e+01,4.467186355590820312e+01,3.131593322753906250e+01,1.060907516479492188e+02,9.699361419677734375e+01,-2.532174348831176758e+00,1.166222991943359375e+02,8.770228385925292969e+00,3.480780029296875000e+01,-1.537292938232421875e+02,6.622257232666015625e+01,1.191414108276367188e+02
3.400000035762786865e-01,1.000000000000000000e+00,-3.637953948974609375e+01,4.459363937377929688e+01,3.133646774291992188e+01,1.060189743041992188e+02,9.701165008544921875e+01,-2.556577444076538086e+00,1.166222991943359375e+02,8.770228385925292969e+00,3.480780029296875000e+01,-1.537292938232421875e+02,6.622257232666015625e+01,1.191414108276367188e+02
3.440000116825103760e-01,1.000000000000000000e+00,-3.641999816894531250e+01,4.451537322998046875e+01,3.135701560974121094e+01,1.059471588134765625e+02,9.702970123291015625e+01,-2.580993890762329102e+00,1.166222991943359375e+02,8.770228385925292969e+00,3.480780029296875000e+01,-1.537292938232421875e+02,6.622257232666015625e+01,1.191414108276367188e+02
3.479999899864196777e-01,1.000000000000000000e+00,-3.646048736572265625e+01,4.443706130981445312e+01,3.137757492065429688e+01,1.058753051757812500e+02,9.704776000976562500e+01,-2.605424165725708008e+00,1.166222991943359375e+02,8.770228385925292969e+00,3.480780029296875000e+01,-1.537292938232421875e+02,6.622257232666015625e+01,1.191414108276367188e+02
3.519999980926513672e-01,1.000000000000000000e+00,-3.650098800659179688e+01,4.435870361328125000e+01,3.139814376831054688e+01,1.058033981323242188e+02,9.706583404541015625e+01,-2.629868030548095703e+00,1.166222991943359375e+02,8.770228385925292969e+00,3.480780029296875000e+01,-1.537292938232421875e+02,6.622257232666015625e+01,1.191414108276367188e+02
3.560000061988830566e-01,1.000000000000000000e+00,-3.654151916503906250e+01,4.428030776977539062e+01,3.141872787475585938e+01,1.057314605712890625e+02,9.708391571044921875e+01,-2.654325723648071289e+00,1.166222991943359375e+02,8.770228385925292969e+00,3.480780029296875000e+01,-1.537292938232421875e+02,6.622257232666015625e+01,1.191414108276367188e+02
3.600000143051147461e-01,1.000000000000000000e+00,-3.658206939697265625e+01,4.420186233520507812e+01,3.143931961059570312e+01,1.056594772338867188e+02,9.710200500488281250e+01,-2.678797245025634766e+00,1.166222991943359375e+02,8.770228385925292969e+00,3.480780029296875000e+01,-1.537292938232421875e+02,6.622257232666015625e+01,1.191414108276367188e+02
3.639999926090240479e-01,1.000000000000000000e+00,-3.662264633178710938e+01,4.412337875366210938e+01,3.145992660522460938e+01,1.055874557495117188e+02,9.712010955810546875e+01,-2.703282594680786133e+00,1.166222991943359375e+02,8.770228385925292969e+00,3.480780029296875000e+01,-1.537292938232421875e+02,6.622257232666015625e+01,1.191414108276367188e+02
3.680000007152557373e-01,1.000000000000000000e+00,-3.666323852539062500e+01,4.404484558105468750e+01,3.148054313659667969e+01,1.055153961181640625e+02,9.713822174072265625e+01,-2.727781534194946289e+00,1.166222991943359375e+02,8.770228385925292969e+00,3.480780029296875000e+01,-1.537292938232421875e+02,6.622257232666015625e+01,1.191414108276367188e+02
3.720000088214874268e-01,1.000000000000000000e+00,-3.670385742187500000e+01,4.396627044677734375e+01,3.150117111206054688e+01,1.054432907104492188e+02,9.715634155273437500e+01,-2.752294301986694336e+00,1.166222991943359375e+02,8.770228385925292969e+00,3.480780029296875000e+01,-1.537292938232421875e+02,6.622257232666015625e+01,1.191414108276367188e+02
3.759999871253967285e-01,1.000000000000000000e+00,-3.674450302124023438e+01,4.388764953613281250e+01,3.152181243896484375e+01,1.053711547851562500e+02,9.717447662353515625e+01,-2.776821136474609375e+00,1.166222991943359375e+02,8.770228385925292969e+00,3.480780029296875000e+01,-1.537292938232421875e+02,6.622257232666015625e+01,1.191414108276367188e+02
3.799999952316284180e-01,1.000000000000000000e+00,-3.678516769409179688e+01,4.380898284912109375e+01,3.154246330261230469e+01,1.052989654541015625e+02,9.719261932373046875e+01,-2.801361560821533203e+00,1.166222991943359375e+02,8.770228385925292969e+00,3.480780029296875000e+01,-1.537292938232421875e+02,6.622257232666015625e+01,1.191414108276367188e+02
3.840000033378601074e-01,1.000000000000000000e+00,-3.682585525512695312e+01,4.373027801513671875e+01,3.156312751770019531e+01,1.052267456054687500e+02,9.721076202392578125e+01,-2.825915813446044922e+00,1.166222991943359375e+02,8.770228385925292969e+00,3.480780029296875000e+01,-1.537292938232421875e+02,6.622257232666015625e+01,1.191414108276367188e+02
3.880000114440917969e-01,1.000000000000000000e+00,-3.686656951904296875e+01,4.365152359008789062e+01,3.158380317687988281e+01,1.051544799804687500e+02,9.722893524169921875e+01,-2.850484371185302734e+00,1.166222991943359375e+02,8.770228385925292969e+00,3.480780029296875000e+01,-1.537292938232421875e+02,6.622257232666015625e+01,1.191414108276367188e+02
3.919999897480010986e-01,1.000000000000000000e+00,-3.690730285644531250e+01,4.357272338867187500e+01,3.160448837280273438e+01,1.050821685791015625e+02,9.724710083007812500e+01,-2.875066280364990234e+00,1.166222991943359375e+02,8.770228385925292969e+00,3.480780029296875000e+01,-1.537292938232421875e+02,6.622257232666015625e+01,1.191414108276367188e+02
3.959999978542327881e-01,1.000000000000000000e+00,-3.694806289672851562e+01,4.349388504028320312e+01,3.162518692016601562e+01,1.050098190307617188e+02,9.726528167724609375e+01,-2.899662494659423828e+00,1.166222991943359375e+02,8.770228385925292969e+00,3.480780029296875000e+01,-1.537292938232421875e+02,6.622257232666015625e+01,1.191414108276367188e+02
4.000000059604644775e-01,1.000000000000000000e+00,-3.698884201049804688e+01,4.341499328613281250e+01,3.164589500427246094e+01,1.049374389648437500e+02,9.728347778320312500e+01,-2.924272537231445312e+00,1.166222991943359375e+02,8.770228385925292969e+00,3.480780029296875000e+01,-1.537292938232421875e+02,6.622257232666015625e+01,1.191414108276367188e+02
4.040000140666961670e-01,1.000000000000000000e+00,-3.702964401245117188e+01,4.333606338500976562e+01,3.166661834716796875e+01,1.048650054931640625e+02,9.730168151855468750e+01,-2.948896408081054688e+00,1.166222991943359375e+02,8.770228385925292969e+00,3.480780029296875000e+01,-1.537292938232421875e+02,6.622257232666015625e+01,1.191414108276367188e+02
4.079999923706054688e-01,1.000000000000000000e+00,-3.707047271728515625e+01,4.325708770751953125e+01,3.168735122680664062e+01,1.047925338745117188e+02,9.731990051269531250e+01,-2.973534345626831055e+00,1.166222991943359375e+02,8.770228385925292969e+00,3.480780029296875000e+01,-1.537292938232421875e+02,6.622257232666015625e+01,1.191414108276367188e+02
4.120000004768371582e-01,1.000000000000000000e+00,-3.711132431030273438e+01,4.317806625366210938e+01,3.170809745788574219e+01,1.047200241088867188e+02,9.733811950683593750e+01,-2.998186349868774414e+00,1.166222991943359375e+02,8.770228385925292969e+00,3.480780029296875000e+01,-1.537292938232421875e+02,6.622257232666015625e+01,1.191414108276367188e+02
4.160000085830688477e-01,1.000000000000000000e+00,-3.715219497680664062e+01,4.309899902343750000e+01,3.172885513305664062e+01,1.046474761962890625e+02,9.735635375976562500e+01,-3.022852182388305664e+00,1.166222991943359375e+02,8.770228385925292969e+00,3.480780029296875000e+01,-1.537292938232421875e+02,6.622257232666015625e+01,1.191414108276367188e+02
4.199999868869781494e-01,1.000000000000000000e+00,-3.719309234619140625e+01,4.301988983154296875e+01,3.174962615966796875e+01,1.045748748779296875e+02,9.737460327148437500e+01,-3.047532320022583008e+00,1.166222991943359375e+02,8.770228385925292969e+00,3.480780029296875000e+01,-1.537292938232421875e+02,6.622257232666015625e+01,1.191414108276367188e+02
4.239999949932098389e-01,1.000000000000000000e+00,-3.723401260375976562e+01,4.294073104858398438e+01,3.177040672302246094e+01,1.045022430419921875e+02,9.739286041259765625e+01,-3.072226285934448242e+00,1.166222991943359375e+02,8.770228385925292969e+00,3.480780029296875000e+01,-1.537292938232421875e+02,6.622257232666015625e+01,1.191414108276367188e+02
4.280000030994415283e-01,1.000000000000000000e+00,-3.727495574951171875e+01,4.286153030395507812e+01,3.179119873046875000e+01,1.044295654296875000e+02,9.741111755371093750e+01,-3.096934318542480469e+00,1.166222991943359375e+02,8.770228385925292969e+00,3.480780029296875000e+01,-1.537292938232421875e+02,6.622257232666015625e+01,1.191414108276367188e+02
4.320000112056732178e-01,1.000000000000000000e+00,-3.731592178344726562e+01,4.278228378295898438e+01,3.181200218200683594e+01,1.043568496704101562e+02,9.742939758300781250e+01,-3.121656656265258789e+00,1.166222991943359375e+02,8.770228385925292969e+00,3.480780029296875000e+01,-1.537292938232421875e+02,6.622257232666015625e+01,1.191414108276367188e+02
4.359999895095825195e-01,1.000000000000000000e+00,-3.735691452026367188e+01,4.270298767089843750e+01,3.183282089233398438e+01,1.042840881347656250e+02,9.744769287109375000e+01,-3.146392822265625000e+00,1.166222991943359375e+02,8.770228385925292969e+00,3.480780029296875000e+01,-1.537292938232421875e+02,6.622257232666015625e+01,1.191414108276367188e+02
4.399999976158142090e-01,1.000000000000000000e+00,-3.739792633056640625e+01,4.262365341186523438e+01,3.185364532470703125e+01,1.042112808227539062e+02,9.746598052978515625e+01,-3.171143293380737305e+00,1.166222991943359375e+02,8.770228385925292969e+00,3.480780029296875000e+01,-1.537292938232421875e+02,6.622257232666015625e+01,1.191414108276367188e+02
4.440000057220458984e-01,1.000000000000000000e+00,-3.743896102905273438e+01,4.254426956176757812e+01,3.187448883056640625e+01,1.041384429931640625e+02,9.748429107666015625e+01,-3.195907831192016602e+00,1.166222991943359375e+02,8.770228385925292969e+00,3.480780029296875000e+01,-1.537292938232421875e+02,6.622257232666015625e+01,1.191414108276367188e+02
4.480000138282775879e-01,1.000000000000000000e+00,-3.748002243041992188e+01,4.246483612060546875e+01,3.189534187316894531e+01,1.040655593872070312e+02,9.750260925292968750e+01,-3.220686435699462891e+00,1.166222991943359375e+02,8.770228385925292969e+00,3.480780029296875000e+01,-1.537292938232421875e+02,6.622257232666015625e+01,1.191414108276367188e+02
4.519999921321868896e-01,1.000000000000000000e+00,-3.752110671997070312e+01,4.238536453247070312e+01,3.191620445251464844e+01,1.039926300048828125e+02,9.752093505859375000e+01,-3.245479583740234375e+00,1.166222991943359375e+02,8.770228385925292969e+00,3.480780029296875000e+01,-1.537292938232421875e+02,6.622257232666015625e+01,1.191414108276367188e+02
4.560000002384185791e-01,1.000000000000000000e+00,-3.756221389770507812e+01,4.230584335327148438e+01,3.193708038330078125e+01,1.039196624755859375e+02,9.753927612304687500e+01,-3.270286560058593750e+00,1.166222991943359375e+02,8.770228385925292969e+00,3.480780029296875000e+01,-1.537292938232421875e+02,6.622257232666015625e+01,1.191414108276367188e+02
4.600000083446502686e-01,1.000000000000000000e+00,-3.760334396362304688e+01,4.222627639770507812e+01,3.195796775817871094e+01,1.038466567993164062e+02,9.755762481689453125e+01,-3.295107841491699219e+00,1.166222991943359375e+02,8.770228385925292969e+00,3.480780029296875000e+01,-1.537292938232421875e+02,6.622257232666015625e+01,1.191414108276367188e+02
4.639999866485595703e-01,1.000000000000000000e+00,-3.764450073242187500e+01,4.214666366577148438e+01,3.197886657714843750e+01,1.037736053466796875e+02,9.757598876953125000e+01,-3.319943428039550781e+00,1.166222991943359375e+02,8.770228385925292969e+00,3.480780029296875000e+01,-1.537292938232421875e+02,6.622257232666015625e+01,1.191414108276367188e+02
4.679999947547912598e-01,1.000000000000000000e+00,-3.768567657470703125e+01,4.206700515747070312e+01,3.199978065490722656e+01,1.037005081176757812e+02,9.759436035156250000e+01,-3.344793081283569336e+00,1.166222991943359375e+02,8.770228385925292969e+00,3.480780029296875000e+01,-1.537292938232421875e+02,6.622257232666015625e+01,1.191414108276367188e+02
4.720000028610229492e-01,1.000000000000000000e+00,-3.772687911987304688e+01,4.198730087280273438e+01,3.202070617675781250e+01,1.036273727416992188e+02,9.761273956298828125e+01,-3.369657278060913086e+00,1.166222991943359375e+02,8.770228385925292969e+00,3.480780029296875000e+01,-1.537292938232421875e+02,6.622257232666015625e+01,1.191414108276367188e+02
4.760000109672546387e-01,1.000000000000000000e+00,-3.776810073852539062e+01,4.190755081176757812e+01,3.204164123535156250e+01,1.035541915893554688e+02,9.763113403320312500e+01,-3.394535779953002930e+00,1.166222991943359375e+02,8.770228385925292969e+00,3.480780029296875000e+01,-1.537292938232421875e+02,6.622257232666015625e+01,1.191414108276367188e+02
4.799999892711639404e-01,1.000000000000000000e+00,-3.780935287475585938e+01,4.182775878906250000e+01,3.206258773803710938e+01,1.034809722900390625e+02,9.764953613281250000e+01,-3.419428348541259766e+00,1.166222991943359375e+02,8.770228385925292969e+00,3.480780029296875000e+01,-1.537292938232421875e+02,6.622257232666015625e+01,1.191414108276367188e+02
4.839999973773956299e-01,1.000000000000000000e+00,-3.785062408447265625e+01,4.174791717529296875e+01,3.208354949951171875e+01,1.034077148437500000e+02,9.766794586181640625e+01,-3.444335222244262695e+00,1.166222991943359375e+02,8.770228385925292969e+00,3.480780029296875000e+01,-1.537292938232421875e+02,6.622257232666015625e+01,1.191414108276367188e+02
4.880000054836273193e-01,1.000000000000000000e+00,-3.789191818237304688e+01,4.166802597045898438e+01,3.210452270507812500e+01,1.033344116210937500e+02,9.768637084960937500e+01,-3.469256639480590820e+00,1.166222991943359375e+02,8.770228385925292969e+00,3.480780029296875000e+01,-1.537292938232421875e+02,6.622257232666015625e+01,1.191414108276367188e+02
4.920000135898590088e-01,1.000000000000000000e+00,-3.793324279785156250e+01,4.158809280395507812e+01,3.212550354003906250e+01,1.032610626220703125e+02,9.770480346679687500e+01,-3.494192600250244141e+00,1.166222991943359375e+02,8.770228385925292969e+00,3.480780029296875000e+01,-1.537292938232421875e+02,6.622257232666015625e+01,1.191414108276367188e+02
4.959999918937683105e-01,1.000000000000000000e+00,-3.797458648681640625e+01,4.150811386108398438e+01,3.214649963378906250e+01,1.031876754760742188e+02,9.772325134277343750e+01,-3.519142627716064453e+00,1.166222991943359375e+02,8.770228385925292969e+00,3.480780029296875000e+01,-1.537292938232421875e+02,6.622257232666015625e+01,1.191414108276367188e+02
5.000000000000000000e-01,1.000000000000000000e+00,-3.801594924926757812e+01,4.142808532714843750e+01,3.216751098632812500e+01,1.031142501831054688e+02,9.774170684814453125e+01,-3.544107198715209961e+00,1.166222991943359375e+02,8.770228385925292969e+00,3.480780029296875000e+01,-1.537292938232421875e+02,6.622257232666015625e+01,1.191414108276367188e+02
5.040000081062316895e-01,1.000000000000000000e+00,-3.805734252929687500e+01,4.134801483154296875e+01,3.218852996826171875e+01,1.030407714843750000e+02,9.776016998291015625e+01,-3.569085836410522461e+00,1.166222991943359375e+02,8.770228385925292969e+00,3.480780029296875000e+01,-1.537292938232421875e+02,6.622257232666015625e+01,1.191414108276367188e+02
5.080000162124633789e-01,1.000000000000000000e+00,-3.809875869750976562e+01,4.126789474487304688e+01,3.220956420898437500e+01,1.029672546386718750e+02,9.777864837646484375e+01,-3.594079256057739258e+00,1.166222991943359375e+02,8.770228385925292969e+00,3.480780029296875000e+01,-1.537292938232421875e+02,6.622257232666015625e+01,1.191414108276367188e+02
5.120000243186950684e-01,1.000000000000000000e+00,-3.814019775390625000e+01,4.118773269653320312e+01,3.223060607910156250e+01,1.028936996459960938e+02,9.779713439941406250e+01,-3.619087219238281250e+00,1.166222991943359375e+02,8.770228385925292969e+00,3.480780029296875000e+01,-1.537292938232421875e+02,6.622257232666015625e+01,1.191414108276367188e+02
5.159999728202819824e-01,1.000000000000000000e+00,-3.818166351318359375e+01,4.110751724243164062e+01,3.225166702270507812e+01,1.028200988769531250e+02,9.781563568115234375e+01,-3.644109487533569336e+00,1.166222991943359375e+02,8.770228385925292969e+00,3.480780029296875000e+01,-1.537292938232421875e+02,6.622257232666015625e+01,1.191414108276367188e+02
5.199999809265136719e-01,1.000000000000000000e+00,-3.822315216064453125e+01,4.102725982666015625e+01,3.227273559570312500e+01,1.027464523315429688e+02,9.783414459228515625e+01,-3.669146537780761719e+00,1.166222991943359375e+02,8.770228385925292969e+00,3.480780029296875000e+01,-1.537292938232421875e+02,6.622257232666015625e+01,1.191414108276367188e+02
5.239999890327453613e-01,1.000000000000000000e+00,-3.826466751098632812e+01,4.094695663452148438e+01,3.229381942749023438e+01,1.026727676391601562e+02,9.785266876220703125e+01,-3.694197893142700195e+00,1.166222991943359375e+02,8.770228385925292969e+00,3.480780029296875000e+01,-1.537292938232421875e+02,6.622257232666015625e+01,1.191414108276367188e+02
5.279999971389770508e-01,1.000000000000000000e+00,-3.830620574951171875e+01,4.086660385131835938e+01,3.231491470336914062e+01,1.025990295410156250e+02,9.787119293212890625e+01,-3.719264268875122070e+00,1.166222991943359375e+02,8.770228385925292969e+00,3.480780029296875000e+01,-1.537292938232421875e+02,6.622257232666015625e+01,1.191414108276367188e+02
5.320000052452087402e-01,1.000000000000000000e+00,-3.834776687622070312e+01,4.078620529174804688e+01,3.233601760864257812e+01,1.025252685546875000e+02,9.788973999023437500e+01,-3.744344711303710938e+00,1.166222991943359375e+02,8.770228385925292969e+00,3.480780029296875000e+01,-1.537292938232421875e+02,6.622257232666015625e+01,1.191414108276367188e+02
5.360000133514404297e-01,1.000000000000000000e+00,-3.838935089111328125e+01,4.070576095581054688e+01,3.235713577270507812e+01,1.024514465332031250e+02,9.790828704833984375e+01,-3.769440174102783203e+00,1.166222991943359375e+02,8.770228385925292969e+00,3.480780029296875000e+01,-1.537292938232421875e+02,6.622257232666015625e+01,1.191414108276367188e+02
5.400000214576721191e-01,1.000000000000000000e+00,-3.843096542358398438e+01,4.062526702880859375e+01,3.237826538085937500e+01,1.023775939941406250e+02,9.792685699462890625e+01,-3.794550418853759766e+00,1.166222991943359375e+02,8.770228385925292969e+00,3.480780029296875000e+01,-1.537292938232421875e+02,6.622257232666015625e+01,1.191414108276367188e+02
5.440000295639038086e-01,1.000000000000000000e+00,-3.847260284423828125e+01,4.054472351074218750e+01,3.239941406250000000e+01,1.023036880493164062e+02,9.794542694091796875e+01,-3.819675445556640625e+00,1.166222991943359375e+02,8.770228385925292969e+00,3.480780029296875000e+01,-1.537292938232421875e+02,6.622257232666015625e+01,1.191414108276367188e+02
5.479999780654907227e-01,1.000000000000000000e+00,-3.851425933837890625e+01,4.046413421630859375e+01,3.242056655883789062e+01,1.022297363281250000e+02,9.796401214599609375e+01,-3.844815015792846680e+00,1.166222991943359375e+02,8.770228385925292969e+00,3.480780029296875000e+01,-1.537292938232421875e+02,6.622257232666015625e+01,1.191414108276367188e+02
5.519999861717224121e-01,1.000000000000000000e+00,-3.855594253540039062e+01,4.038349914550781250e+01,3.244173431396484375e+01,1.021557464599609375e+02,9.798261260986328125e+01,-3.869969367980957031e+00,1.166222991943359375e+02,8.770228385925292969e+00,3.480780029296875000e+01,-1.537292938232421875e+02,6.622257232666015625e+01,1.191414108276367188e+02
5.559999942779541016e-01,1.000000000000000000e+00,-3.859765243530273438e+01,4.030281066894531250e+01,3.246291732788085938e+01,1.020817108154296875e+02,9.800121307373046875e+01,-3.895138740539550781e+00,1.166222991943359375e+02,8.770228385925292969e+00,3.480780029296875000e+01,-1.537292938232421875e+02,6.622257232666015625e+01,1.191414108276367188e+02
5.600000023841857910e-01,1.000000000000000000e+00,-3.863938522338867188e+01,4.022208023071289062e+01,3.248411178588867188e+01,1.020076370239257812e+02,9.801983642578125000e+01,-3.920322895050048828e+00,1.166222991943359375e+02,8.770228385925292969e+00,3.480780029296875000e+01,-1.537292938232421875e+02,6.622257232666015625e+01,1.191414108276367188e+02
5.640000104904174805e-01,1.000000000000000000e+00,-3.868114471435546875e+01,4.014130020141601562e+01,3.250531387329101562e+01,1.019335174560546875e+02,9.803845977783203125e+01,-3.945522069931030273e+00,1.166222991943359375e+02,8.770228385925292969e+00,3.480780029296875000e+01,-1.537292938232421875e+02,6.622257232666015625e+01,1.191414108276367188e+02
5.680000185966491699e-01,1.000000000000000000e+00,-3.872292327880859375e+01,4.006047058105468750e+01,3.252653503417968750e+01,1.018593521118164062e+02,9.805709838867187500e+01,-3.970736026763916016e+00,1.166222991943359375e+02,8.770228385925292969e+00,3.480780029296875000e+01,-1.537292938232421875e+02,6.622257232666015625e+01,1.191414108276367188e+02
5.720000267028808594e-01,1.000000000000000000e+00,-3.876473236083984375e+01,3.997959518432617188e+01,3.254776382446289062e+01,1.017851409912109375e+02,9.807575225830078125e+01,-3.995965003967285156e+00,1.166222991943359375e+02,8.770228385925292969e+00,3.480780029296875000e+01,-1.537292938232421875e+02,6.622257232666015625e+01,1.191414108276367188e+02
5.759999752044677734e-01,1.000000000000000000e+00,-3.880656433105468750e+01,3.989866638183593750e+01,3.256900787353515625e+01,1.017108917236328125e+02,9.809441375732421875e+01,-4.021209239959716797e+00,1.166222991943359375e+02,8.770228385925292969e+00,3.480780029296875000e+01,-1.537292938232421875e+02,6.622257232666015625e+01,1.191414108276367188e+02
5.799999833106994629e-01,1.000000000000000000e+00,-3.884841918945312500e+01,3.981769561767578125e+01,3.259026336669921875e+01,1.016365890502929688e+02,9.811309051513671875e+01,-4.046468257904052734e+00,1.166222991943359375e+02,8.770228385925292969e+00,3.480780029296875000e+01,-1.537292938232421875e+02,6.622257232666015625e+01,1.191414108276367188e+02
5.839999914169311523e-01,1.000000000000000000e+00,-3.889030075073242188e+01,3.973667144775390625e+01,3.261153411865234375e+01,1.015622482299804688e+02,9.813177490234375000e+01,-4.071742534637451172e+00,1.166222991943359375e+02,8.770228385925292969e+00,3.480780029296875000e+01,-1.537292938232421875e+02,6.622257232666015625e+01,1.191414108276367188e+02
5.879999995231628418e-01,1.000000000000000000e+00,-3.893220901489257812e+01,3.965560150146484375e+01,3.263281631469726562e+01,1.014878616333007812e+02,9.815046691894531250e+01,-4.097031593322753906e+00,1.166222991943359375e+02,8.770228385925292969e+00,3.480780029296875000e+01,-1.537292938232421875e+02,6.622257232666015625e+01,1.191414108276367188e+02
5.920000076293945312e-01,1.000000000000000000e+00,-3.897414016723632812e+01,3.957448196411132812e+01,3.265410995483398438e+01,1.014134368896484375e+02,9.816917419433593750e+01,-4.122335433959960938e+00,1.166222991943359375e+02,8.770228385925292969e+00,3.480780029296875000e+01,-1.537292938232421875e+02,6.622257232666015625e+01,1.191414108276367188e+02
5.960000157356262207e-01,1.000000000000000000e+00,-3.901609420776367188e+01,3.949331665039062500e+01,3.267541885375976562e+01,1.013389663696289062e+02,9.818788909912109375e+01,-4.147654533386230469e+00,1.166222991943359375e+02,8.770228385925292969e+00,3.480780029296875000e+01,-1.537292938232421875e+02,6.622257232666015625e+01,1.191414108276367188e+02
6.000000238418579102e-01,1.000000000000000000e+00,-3.905807495117187500e+01,3.941209793090820312e+01,3.269673919677734375e+01,1.012644424438476562e+02,9.820661926269531250e+01,-4.172988891601562500e+00,1.166222991943359375e+02,8.770228385925292969e+00,3.480780029296875000e+01,-1.537292938232421875e+02,6.622257232666015625e+01,1.191414108276367188e+02
6.039999723434448242e-01,1.000000000000000000e+00,-3.910008239746093750e+01,3.933083724975585938e+01,3.271806716918945312e+01,1.011898803710937500e+02,9.822536468505859375e+01,-4.198338508605957031e+00,1.166222991943359375e+02,8.770228385925292969e+00,3.480780029296875000e+01,-1.537292938232421875e+02,6.622257232666015625e+01,1.191414108276367188e+02
6.079999804496765137e-01,1.000000000000000000e+00,-3.914210891723632812e+01,3.924952316284179688e+01,3.273941421508789062e+01,1.011152725219726562e+02,9.824411773681640625e+01,-4.223702907562255859e+00,1.166222991943359375e+02,8.770228385925292969e+00,3.480780029296875000e+01,-1.537292938232421875e+02,6.622257232666015625e+01,1.191414108276367188e+02
6.119999885559082031e-01,1.000000000000000000e+00,-3.918416595458984375e+01,3.916815948486328125e+01,3.276077270507812500e+01,1.010406188964843750e+02,9.826287841796875000e+01,-4.249082565307617188e+00,1.166222991943359375e+02,8.770228385925292969e+00,3.480780029296875000e+01,-1.537292938232421875e+02,6.622257232666015625e+01,1.191414108276367188e+02
6.159999966621398926e-01,1.000000000000000000e+00,-3.922624969482421875e+01,3.908675003051757812e+01,3.278214263916015625e+01,1.009659271240234375e+02,9.828164672851562500e+01,-4.274477005004882812e+00,1.166222991943359375e+02,8.770228385925292969e+00,3.480780029296875000e+01,-1.537292938232421875e+02,6.622257232666015625e+01,1.191414108276367188e+02
6.200000047683715820e-01,1.000000000000000000e+00,-3.926835250854492188e+01,3.900528335571289062e+01,3.280352783203125000e+01,1.008911819458007812e+02,9.830043029785156250e+01,-4.299887180328369141e+00,1.166222991943359375e+02,8.770228385925292969e+00,3.480780029296875000e+01,-1.537292938232421875e+02,6.622257232666015625e+01,1.191414108276367188e+02
6.240000128746032715e-01,1.000000000000000000e+00,-3.931048583984375000e+01,3.892377471923828125e+01,3.282492446899414062e+01,1.008163986206054688e+02,9.831922912597656250e+01,-4.325312137603759766e+00,1.166222991943359375e+02,8.770228385925292969e+00,3.480780029296875000e+01,-1.537292938232421875e+02,6.622257232666015625e+01,1.191414108276367188e+02
6.280000209808349609e-01,1.000000000000000000e+00,-3.935264205932617188e+01,3.884221267700195312e+01,3.284633255004882812e+01,1.007415695190429688e+02,9.833803558349609375e+01,-4.350752353668212891e+00,1.166222991943359375e+02,8.770228385925292969e+00,3.480780029296875000e+01,-1.537292938232421875e+02,6.622257232666015625e+01,1.191414108276367188e+02
6.320000290870666504e-01,1.000000000000000000e+00,-3.939482498168945312e+01,3.876060485839843750e+01,3.286775207519531250e+01,1.006666870117187500e+02,9.835685729980468750e+01,-4.376207828521728516e+00,1.166222991943359375e+02,8.770228385925292969e+00,3.480780029296875000e+01,-1.537292938232421875e+02,6.622257232666015625e+01,1.191414108276367188e+02
6.359999775886535645e-01,1.000000000000000000e+00,-3.943702697753906250e+01,3.867893981933593750e+01,3.288918685913085938e+01,1.005917739868164062e+02,9.837568664550781250e+01,-4.401678085327148438e+00,1.166222991943359375e+02,8.770228385925292969e+00,3.480780029296875000e+01,-1.537292938232421875e+02,6.622257232666015625e+01,1.191414108276367188e+02
6.399999856948852539e-01,1.000000000000000000e+00,-3.947926330566406250e+01,3.859723281860351562e+01,3.291063690185546875e+01,1.005168075561523438e+02,9.839452362060546875e+01,-4.427164554595947266e+00,1.166222991943359375e+02,8.770228385925292969e+00,3.480780029296875000e+01,-1.537292938232421875e+02,6.622257232666015625e+01,1.191414108276367188e+02
6.439999938011169434e-01,1.000000000000000000e+00,-3.952151870727539062e+01,3.851546478271484375e+01,3.293209457397460938e+01,1.004417953491210938e+02,9.841338348388671875e+01,-4.452665805816650391e+00,1.166222991943359375e+02,8.770228385925292969e+00,3.480780029296875000e+01,-1.537292938232421875e+02,6.622257232666015625e+01,1.191414108276367188e+02
6.480000019073486328e-01,1.000000000000000000e+00,-3.956380081176757812e+01,3.843364715576171875e+01,3.295357131958007812e+01,1.003667449951171875e+02,9.843224334716796875e+01,-4.478181838989257812e+00,1.166222991943359375e+02,8.770228385925292969e+00,3.480780029296875000e+01,-1.537292938232421875e+02,6.622257232666015625e+01,1.191414108276367188e+02
6.520000100135803223e-01,1.000000000000000000e+00,-3.960610961914062500e+01,3.835177993774414062e+01,3.297505569458007812e+01,1.002916412353515625e+02,9.845111846923828125e+01,-4.503713607788085938e+00,1.166222991943359375e+02,8.770228385925292969e+00,3.480780029296875000e+01,-1.537292938232421875e+02,6.622257232666015625e+01,1.191414108276367188e+02
6.560000181198120117e-01,1.000000000000000000e+00,-3.964844131469726562e+01,3.826985931396484375e+01,3.299655151367187500e+01,1.002164993286132812e+02,9.847000885009765625e+01,-4.529260635375976562e+00,1.166222991943359375e+02,8.770228385925292969e+00,3.480780029296875000e+01,-1.537292938232421875e+02,6.622257232666015625e+01,1.191414108276367188e+02
6.600000262260437012e-01,1.000000000000000000e+00,-3.969079971313476562e+01,3.818789672851562500e+01,3.301806259155273438e+01,1.001413116455078125e+02,9.848890686035156250e+01,-4.554822921752929688e+00,1.166222991943359375e+02,8.770228385925292969e+00,3.480780029296875000e+01,-1.537292938232421875e+02,6.622257232666015625e+01,1.191414108276367188e+02
6.639999747276306152e-01,1.000000000000000000e+00,-3.973318481445312500e+01,3.810588836669921875e+01,3.303958892822265625e+01,1.000660781860351562e+02,9.850781250000000000e+01,-4.580400466918945312e+00,1.166222991943359375e+02,8.770228385925292969e+00,3.480780029296875000e+01,-1.537292938232421875e+02,6.622257232666015625e+01,1.191414108276367188e+02
6.679999828338623047e-01,1.000000000000000000e+00,-3.977559280395507812e+01,3.802384185791015625e+01,3.306112289428710938e+01,9.999079132080078125e+01,9.852673339843750000e+01,-4.605993747711181641e+00,1.166222991943359375e+02,8.770228385925292969e+00,3.480780029296875000e+01,-1.537292938232421875e+02,6.622257232666015625e+01,1.191414108276367188e+02
6.719999909400939941e-01,1.000000000000000000e+00,-3.981802749633789062e+01,3.794175338745117188e+01,3.308267593383789062e+01,9.991547393798828125e+01,9.854566192626953125e+01,-4.631602287292480469e+00,1.166222991943359375e+02,8.770228385925292969e+00,3.480780029296875000e+01,-1.537292938232421875e+02,6.622257232666015625e+01,1.191414108276367188e+02
6.759999990463256836e-01,1.000000000000000000e+00,-3.986048889160156250e+01,3.785961914062500000e+01,3.310424041748046875e+01,9.984010314941406250e+01,9.856460571289062500e+01,-4.657225608825683594e+00,1.166222991943359375e+02,8.770228385925292969e+00,3.480780029296875000e+01,-1.537292938232421875e+02,6.622257232666015625e+01,1.191414108276367188e+02
6.800000071525573730e-01,1.000000000000000000e+00,-3.990297317504882812e+01,3.777743530273437500e+01,3.312581634521484375e+01,9.976468658447265625e+01,9.858355712890625000e+01,-4.682864665985107422e+00,1.166222991943359375e+02,8.770228385925292969e+00,3.480780029296875000e+01,-1.537292938232421875e+02,6.622257232666015625e+01,1.191414108276367188e+02
6.840000152587890625e-01,1.000000000000000000e+00,-3.994548416137695312e+01,3.769519805908203125e+01,3.314740371704101562e+01,9.968923187255859375e+01,9.860252380371093750e+01,-4.708519458770751953e+00,1.166222991943359375e+02,8.770228385925292969e+00,3.480780029296875000e+01,-1.537292938232421875e+02,6.622257232666015625e+01,1.191414108276367188e+02
6.880000233650207520e-01,1.000000000000000000e+00,-3.998802185058593750e+01,3.761291503906250000e+01,3.316900634765625000e+01,9.961372375488281250e+01,9.862150573730468750e+01,-4.734189510345458984e+00,1.166222991943359375e+02,8.770228385925292969e+00,3.480780029296875000e+01,-1.537292938232421875e+02,6.622257232666015625e+01,1.191414108276367188e+02
6.919999718666076660e-01,1.000000000000000000e+00,-4.003058624267578125e+01,3.753058624267578125e+01,3.319062042236328125e+01,9.953816986083984375e+01,9.864049530029296875e+01,-4.759874820709228516e+00,1.166222991943359375e+02,8.770228385925292969e+00,3.480780029296875000e+01,-1.537292938232421875e+02,6.622257232666015625e+01,1.191414108276367188e+02
6.959999799728393555e-01,1.000000000000000000e+00,-4.007316970825195312e+01,3.744820404052734375e+01,3.321224975585937500e+01,9.946257781982421875e+01,9.865948486328125000e+01,-4.785575389862060547e+00,1.166222991943359375e+02,8.770228385925292969e+00,3.480780029296875000e+01,-1.537292938232421875e+02,6.622257232666015625e+01,1.191414108276367188e+02
6.999999880790710449e-01,1.000000000000000000e+00,-4.011578369140625000e+01,3.736577224731445312e+01,3.323389053344726562e+01,9.938693237304687500e+01,9.867850494384765625e+01,-4.811292171478271484e+00,1.166222991943359375e+02,8.770228385925292969e+00,3.480780029296875000e+01,-1.537292938232421875e+02,6.622257232666015625e+01,1.191414108276367188e+02
7.039999961853027344e-01,1.000000000000000000e+00,-4.015842437744140625e+01,3.728329086303710938e+01,3.325554656982421875e+01,9.931124877929687500e+01,9.869752502441406250e+01,-4.837023735046386719e+00,1.166222991943359375e+02,8.770228385925292969e+00,3.480780029296875000e+01,-1.537292938232421875e+02,6.622257232666015625e+01,1.191414108276367188e+02
7.080000042915344238e-01,1.000000000000000000e+00,-4.020109176635742188e+01,3.720076370239257812e+01,3.327721405029296875e+01,9.923551177978515625e+01,9.871656036376953125e+01,-4.862771034240722656e+00,1.166222991943359375e+02,8.770228385925292969e+00,3.480780029296875000e+01,-1.537292938232421875e+02,6.622257232666015625e+01,1.191414108276367188e+02
7.120000123977661133e-01,1.000000000000000000e+00,-4.024377822875976562e+01,3.711818313598632812e+01,3.329889297485351562e+01,9.915972900390625000e+01,9.873560333251953125e+01,-4.888533592224121094e+00,1.166222991943359375e+02,8.770228385925292969e+00,3.480780029296875000e+01,-1.537292938232421875e+02,6.622257232666015625e+01,1.191414108276367188e+02
7.160000205039978027e-01,1.000000000000000000e+00,-4.028649902343750000e+01,3.703554916381835938e+01,3.332058715820312500e+01,9.908390045166015625e+01,9.875466156005859375e+01,-4.914312362670898438e+00,1.166222991943359375e+02,8.770228385925292969e+00,3.480780029296875000e+01,-1.537292938232421875e+02,6.622257232666015625e+01,1.191414108276367188e+02
7.200000286102294922e-01,1.000000000000000000e+00,-4.032923889160156250e+01,3.695286941528320312e+01,3.334229278564453125e+01,9.900803375244140625e+01,9.877372741699218750e+01,-4.940106391906738281e+00,1.166222991943359375e+02,8.770228385925292969e+00,3.480780029296875000e+01,-1.537292938232421875e+02,6.622257232666015625e+01,1.191414108276367188e+02
7.239999771118164062e-01,1.000000000000000000e+00,-4.037200546264648438e+01,3.687014007568359375e+01,3.336401367187500000e+01,9.893211364746093750e+01,9.879281616210937500e+01,-4.965916156768798828e+00,1.166222991943359375e+02,8.770228385925292969e+00,3.480780029296875000e+01,-1.537292938232421875e+02,6.622257232666015625e+01,1.191414108276367188e+02
7.279999852180480957e-01,1.000000000000000000e+00,-4.041479873657226562e+01,3.678735733032226562e+01,3.338574600219726562e+01,9.885615539550781250e+01,9.881190490722656250e+01,-4.991740703582763672e+00,1.166222991943359375e+02,8.770228385925292969e+00,3.480780029296875000e+01,-1.537292938232421875e+02,6.622257232666015625e+01,1.191414108276367188e+02
7.319999933242797852e-01,1.000000000000000000e+00,-4.045761871337890625e+01,3.670452880859375000e+01,3.340749359130859375e+01,9.878015136718750000e+01,9.883100891113281250e+01,-5.017581462860107422e+00,1.166222991943359375e+02,8.770228385925292969e+00,3.480780029296875000e+01,-1.537292938232421875e+02,6.622257232666015625e+01,1.191414108276367188e+02
7.360000014305114746e-01,1.000000000000000000e+00,-4.050046539306640625e+01,3.662165069580078125e+01,3.342925262451171875e+01,9.870409393310546875e+01,9.885012054443359375e+01,-5.043437957763671875e+00,1.166222991943359375e+02,8.770228385925292969e+00,3.480780029296875000e+01,-1.537292938232421875e+02,6.622257232666015625e+01,1.191414108276367188e+02
7.400000095367431641e-01,1.000000000000000000e+00,-4.054333877563476562e+01,3.653871917724609375e+01,3.345102310180664062e+01,9.862799072265625000e+01,9.886924743652343750e+01,-5.069310188293457031e+00,1.166222991943359375e+02,8.770228385925292969e+00,3.480780029296875000e+01,-1.537292938232421875e+02,6.622257232666015625e+01,1.191414108276367188e+02
7.440000176429748535e-01,1.000000000000000000e+00,-4.058623504638671875e+01,3.645573806762695312e+01,3.347280883789062500e+01,9.855184173583984375e+01,9.888838958740234375e+01,-5.095197200775146484e+00,1.166222991943359375e+02,8.770228385925292969e+00,3.480780029296875000e+01,-1.537292938232421875e+02,6.622257232666015625e+01,1.191414108276367188e+02
7.480000257492065430e-01,1.000000000000000000e+00,-4.062915802001953125e+01,3.637270736694335938e+01,3.349460601806640625e+01,9.847565460205078125e+01,9.890753173828125000e+01,-5.121100902557373047e+00,1.166222991943359375e+02,8.770228385925292969e+00,3.480780029296875000e+01,-1.537292938232421875e+02,6.622257232666015625e+01,1.191414108276367188e+02
7.519999742507934570e-01,1.000000000000000000e+00,-4.067210769653320312e+01,3.628962707519531250e+01,3.351641845703125000e+01,9.839941406250000000e+01,9.892669677734375000e+01,-5.147019863128662109e+00,1.166222991943359375e+02,8.770228385925292969e+00,3.480780029296875000e+01,-1.537292938232421875e+02,6.622257232666015625e+01,1.191414108276367188e+02
7.559999823570251465e-01,1.000000000000000000e+00,-4.071508407592773438e+01,3.620649719238281250e+01,3.353824234008789062e+01,9.832312774658203125e+01,9.894586944580078125e+01,-5.172954559326171875e+00,1.166222991943359375e+02,8.770228385925292969e+00,3.480780029296875000e+01,-1.537292938232421875e+02,6.622257232666015625e+01,1.191414108276367188e+02
7.599999904632568359e-01,1.000000000000000000e+00,-4.075808334350585938e+01,3.612332153320312500e+01,3.356008529663085938e+01,9.824680328369140625e+01,9.896505737304687500e+01,-5.198904991149902344e+00,1.166222991943359375e+02,8.770228385925292969e+00,3.480780029296875000e+01,-1.537292938232421875e+02,6.622257232666015625e+01,1.191414108276367188e+02
7.639999985694885254e-01,1.000000000000000000e+00,-4.080110931396484375e+01,3.604009628295898438e+01,3.358193206787109375e+01,9.817042541503906250e+01,9.898425292968750000e+01,-5.224871158599853516e+00,1.166222991943359375e+02,8.770228385925292969e+00,3.480780029296875000e+01,-1.537292938232421875e+02,6.622257232666015625e+01,1.191414108276367188e+02
7.680000066757202148e-01,1.000000000000000000e+00,-4.084416198730468750e+01,3.595682525634765625e+01,3.360379791259765625e+01,9.809400177001953125e+01,9.900345611572265625e+01,-5.250852584838867188e+00,1.166222991943359375e+02,8.770228385925292969e+00,3.480780029296875000e+01,-1.537292938232421875e+02,6.622257232666015625e+01,1.191414108276367188e+02
7.720000147819519043e-01,1.000000000000000000e+00,-4.088724136352539062e+01,3.587350463867187500e+01,3.362567901611328125e+01,9.801753234863281250e+01,9.902267456054687500e+01,-5.276850700378417969e+00,1.166222991943359375e+02,8.770228385925292969e+00,3.480780029296875000e+01,-1.537292938232421875e+02,6.622257232666015625e+01,1.191414108276367188e+02
7.760000228881835938e-01,1.000000000000000000e+00,-4.093035125732421875e+01,3.579013061523437500e+01,3.364756774902343750e+01,9.794101715087890625e+01,9.904190826416015625e+01,-5.302863597869873047e+00,1.166222991943359375e+02,8.770228385925292969e+00,3.480780029296875000e+01,-1.537292938232421875e+02,6.622257232666015625e+01,1.191414108276367188e+02
7.799999713897705078e-01,1.000000000000000000e+00,-4.097348022460937500e+01,3.570671081542968750e+01,3.366947174072265625e+01,9.786445617675781250e+01,9.906114959716796875e+01,-5.328893184661865234e+00,1.166222991943359375e+02,8.770228385925292969e+00,3.480780029296875000e+01,-1.537292938232421875e+02,6.622257232666015625e+01,1.191414108276367188e+02
7.839999794960021973e-01,1.000000000000000000e+00,-4.101663970947265625e+01,3.562324142456054688e+01,3.369139099121093750e+01,9.778784179687500000e+01,9.908040618896484375e+01,-5.354938030242919922e+00,1.166222991943359375e+02,8.770228385925292969e+00,3.480780029296875000e+01,-1.537292938232421875e+02,6.622257232666015625e+01,1.191414108276367188e+02
7.879999876022338867e-01,1.000000000000000000e+00,-4.105982208251953125e+01,3.553973388671875000e+01,3.371332168579101562e+01,9.771118164062500000e+01,9.909967041015625000e+01,-5.380999088287353516e+00,1.166222991943359375e+02,8.770228385925292969e+00,3.480780029296875000e+01,-1.537292938232421875e+02,6.622257232666015625e+01,1.191414108276367188e+02
7.919999957084655762e-01,1.000000000000000000e+00,-4.110303497314453125e+01,3.545617675781250000e+01,3.373526382446289062e+01,9.763448333740234375e+01,9.911894989013671875e+01,-5.407075881958007812e+00,1.166222991943359375e+02,8.770228385925292969e+00,3.480780029296875000e+01,-1.537292938232421875e+02,6.622257232666015625e+01,1.191414108276367188e+02
7.960000038146972656e-01,1.000000000000000000e+00,-4.114627075195312500e+01,3.537256622314453125e+01,3.375722503662109375e+01,9.755773925781250000e+01,9.913823699951171875e+01,-5.433167934417724609e+00,1.166222991943359375e+02,8.770228385925292969e+00,3.480780029296875000e+01,-1.537292938232421875e+02,6.622257232666015625e+01,1.191414108276367188e+02
8.000000119209289551e-01,1.000000000000000000e+00,-4.118953323364257812e+01,3.528890991210937500e+01,3.377919769287109375e+01,9.748094177246093750e+01,9.915753936767578125e+01,-5.459276199340820312e+00,1.166222991943359375e+02,8.770228385925292969e+00,3.480780029296875000e+01,-1.537292938232421875e+02,6.622257232666015625e+01,1.191414108276367188e+02
8.040000200271606445e-01,1.000000000000000000e+00,-4.123282241821289062e+01,3.520520019531250000e+01,3.380117797851562500e+01,9.740409851074218750e+01,9.917685699462890625e+01,-5.485401153564453125e+00,1.166222991943359375e+02,8.770228385925292969e+00,3.480780029296875000e+01,-1.537292938232421875e+02,6.622257232666015625e+01,1.191414108276367188e+02
8.080000281333923340e-01,1.000000000000000000e+00,-4.127613830566406250e+01,3.512143325805664062e+01,3.382317733764648438e+01,9.732720184326171875e+01,9.919617462158203125e+01,-5.511540889739990234e+00,1.166222991943359375e+02,8.770228385925292969e+00,3.480780029296875000e+01,-1.537292938232421875e+02,6.622257232666015625e+01,1.191414108276367188e+02
8.119999766349792480e-01,1.000000000000000000e+00,-4.131948089599609375e+01,3.503760910034179688e+01,3.384518814086914062e+01,9.725026702880859375e+01,9.921551513671875000e+01,-5.537697315216064453e+00,1.166222991943359375e+02,8.770228385925292969e+00,3.480780029296875000e+01,-1.537292938232421875e+02,6.622257232666015625e+01,1.191414108276367188e+02
8.159999847412109375e-01,1.000000000000000000e+00,-4.136284637451171875e+01,3.495372772216796875e+01,3.386721420288085938e+01,9.717328643798828125e+01,9.923486328125000000e+01,-5.563869476318359375e+00,1.166222991943359375e+02,8.770228385925292969e+00,3.480780029296875000e+01,-1.537292938232421875e+02,6.622257232666015625e+01,1.191414108276367188e+02
8.199999928474426270e-01,1.000000000000000000e+00,-4.140624237060546875e+01,3.486979675292968750e+01,3.388925170898437500e+01,9.709625244140625000e+01,9.925421905517578125e+01,-5.590057373046875000e+00,1.166222991943359375e+02,8.770228385925292969e+00,3.480780029296875000e+01,-1.537292938232421875e+02,6.622257232666015625e+01,1.191414108276367188e+02
8.240000009536743164e-01,1.000000000000000000e+00,-4.144966125488281250e+01,3.478581237792968750e+01,3.391130065917968750e+01,9.701918792724609375e+01,9.927359771728515625e+01,-5.616261482238769531e+00,1.166222991943359375e+02,8.770228385925292969e+00,3.480780029296875000e+01,-1.537292938232421875e+02,6.622257232666015625e+01,1.191414108276367188e+02
8.280000090599060059e-01,1.000000000000000000e+00,-4.149311065673828125e+01,3.470177841186523438e+01,3.393336868286132812e+01,9.694205474853515625e+01,9.929298400878906250e+01,-5.642481803894042969e+00,1.166222991943359375e+02,8.770228385925292969e+00,3.480780029296875000e+01,-1.537292938232421875e+02,6.622257232666015625e+01,1.191414108276367188e+02
8.320000171661376953e-01,1.000000000000000000e+00,-4.153658294677734375e+01,3.461769104003906250e+01,3.395544433593750000e+01,9.686489105224609375e+01,9.931237030029296875e+01,-5.668717861175537109e+00,1.166222991943359375e+02,8.770228385925292969e+00,3.480780029296875000e+01,-1.537292938232421875e+02,6.622257232666015625e+01,1.191414108276367188e+02
8.360000252723693848e-01,1.000000000000000000e+00,-4.158008575439453125e+01,3.453355407714843750e+01,3.397753906250000000e+01,9.678766632080078125e+01,9.933178710937500000e+01,-5.694969654083251953e+00,1.166222991943359375e+02,8.770228385925292969e+00,3.480780029296875000e+01,-1.537292938232421875e+02,6.622257232666015625e+01,1.191414108276367188e+02
8.399999737739562988e-01,1.000000000000000000e+00,-4.162361526489257812e+01,3.444936370849609375e+01,3.399964523315429688e+01,9.671040344238281250e+01,9.935120391845703125e+01,-5.721238136291503906e+00,1.166222991943359375e+02,8.770228385925292969e+00,3.480780029296875000e+01,-1.537292938232421875e+02,6.622257232666015625e+01,1.191414108276367188e+02
8.439999818801879883e-01,1.000000000000000000e+00,-4.166716766357421875e+01,3.436512374877929688e+01,3.402176284790039062e+01,9.663309478759765625e+01,9.937063598632812500e+01,-5.747521877288818359e+00,1.166222991943359375e+02,8.770228385925292969e+00,3.480780029296875000e+01,-1.537292938232421875e+02,6.622257232666015625e+01,1.191414108276367188e+02
8.479999899864196777e-01,1.000000000000000000e+00,-4.171074676513671875e+01,3.428083419799804688e+01,3.404389572143554688e+01,9.655572509765625000e+01,9.939007568359375000e+01,-5.773822307586669922e+00,1.166222991943359375e+02,8.770228385925292969e+00,3.480780029296875000e+01,-1.537292938232421875e+02,6.622257232666015625e+01,1.191414108276367188e+02
8.519999980926513672e-01,1.000000000000000000e+00,-4.175435256958007812e+01,3.419648742675781250e+01,3.406604385375976562e+01,9.647832489013671875e+01,9.940953063964843750e+01,-5.800138473510742188e+00,1.166222991943359375e+02,8.770228385925292969e+00,3.480780029296875000e+01,-1.537292938232421875e+02,6.622257232666015625e+01,1.191414108276367188e+02
8.560000061988830566e-01,1.000000000000000000e+00,-4.179798507690429688e+01,3.411209106445312500e+01,3.408820343017578125e+01,9.640087127685546875e+01,9.942900085449218750e+01,-5.826471328735351562e+00,1.166222991943359375e+02,8.770228385925292969e+00,3.480780029296875000e+01,-1.537292938232421875e+02,6.622257232666015625e+01,1.191414108276367188e+02
8.600000143051147461e-01,1.000000000000000000e+00,-4.184164810180664062e+01,3.402764511108398438e+01,3.411037445068359375e+01,9.632336425781250000e+01,9.944847869873046875e+01,-5.852819442749023438e+00,1.166222991943359375e+02,8.770228385925292969e+00,3.480780029296875000e+01,-1.537292938232421875e+02,6.622257232666015625e+01,1.191414108276367188e+02
8.640000224113464355e-01,1.000000000000000000e+00,-4.188533401489257812e+01,3.394314575195312500e+01,3.413256454467773438e+01,9.624581909179687500e+01,9.946796417236328125e+01,-5.879184246063232422e+00,1.166222991943359375e+02,8.770228385925292969e+00,3.480780029296875000e+01,-1.537292938232421875e+02,6.622257232666015625e+01,1.191414108276367188e+02
8.679999709129333496e-01,1.000000000000000000e+00,-4.192905044555664062e+01,3.385859298706054688e+01,3.415476608276367188e+01,9.616822052001953125e+01,9.948747253417968750e+01,-5.905565261840820312e+00,1.166222991943359375e+02,8.770228385925292969e+00,3.480780029296875000e+01,-1.537292938232421875e+02,6.622257232666015625e+01,1.191414108276367188e+02
8.719999790191650391e-01,1.000000000000000000e+00,-4.197278976440429688e+01,3.377398681640625000e+01,3.417697525024414062e+01,9.609057617187500000e+01,9.950698852539062500e+01,-5.931962013244628906e+00,1.166222991943359375e+02,8.770228385925292969e+00,3.480780029296875000e+01,-1.537292938232421875e+02,6.622257232666015625e+01,1.191414108276367188e+02
8.759999871253967285e-01,1.000000000000000000e+00,-4.201655960083007812e+01,3.368933486938476562e+01,3.419920349121093750e+01,9.601288604736328125e+01,9.952651214599609375e+01,-5.958375453948974609e+00,1.166222991943359375e+02,8.770228385925292969e+00,3.480780029296875000e+01,-1.537292938232421875e+02,6.622257232666015625e+01,1.191414108276367188e+02
8.799999952316284180e-01,1.000000000000000000e+00,-4.206035232543945312e+01,3.360462188720703125e+01,3.422144699096679688e+01,9.593514251708984375e+01,9.954604339599609375e+01,-5.984805107116699219e+00,1.166222991943359375e+02,8.770228385925292969e+00,3.480780029296875000e+01,-1.537292938232421875e+02,6.622257232666015625e+01,1.191414108276367188e+02
8.840000033378601074e-01,1.000000000000000000e+00,-4.210417938232421875e+01,3.351985549926757812e+01,3.424370193481445312e+01,9.585735321044921875e+01,9.956560516357421875e+01,-6.011250972747802734e+00,1.166222991943359375e+02,8.770228385925292969e+00,3.480780029296875000e+01,-1.537292938232421875e+02,6.622257232666015625e+01,1.191414108276367188e+02
8.880000114440917969e-01,1.000000000000000000e+00,-4.214802932739257812e+01,3.343503952026367188e+01,3.426596832275390625e+01,9.577951812744140625e+01,9.958516693115234375e+01,-6.037712574005126953e+00,1.166222991943359375e+02,8.770228385925292969e+00,3.480780029296875000e+01,-1.537292938232421875e+02,6.622257232666015625e+01,1.191414108276367188e+02
8.920000195503234863e-01,1.000000000000000000e+00,-4.219190216064453125e+01,3.335017013549804688e+01,3.428825378417968750e+01,9.570163726806640625e+01,9.960473632812500000e+01,-6.064190864562988281e+00,1.166222991943359375e+02,8.770228385925292969e+00,3.480780029296875000e+01,-1.537292938232421875e+02,6.622257232666015625e+01,1.191414108276367188e+02
8.960000276565551758e-01,1.000000000000000000e+00,-4.223580551147460938e+01,3.326525115966796875e+01,3.431054687500000000e+01,9.562371063232421875e+01,9.962432098388671875e+01,-6.090684890747070312e+00,1.166222991943359375e+02,8.770228385925292969e+00,3.480780029296875000e+01,-1.537292938232421875e+02,6.622257232666015625e+01,1.191414108276367188e+02
8.999999761581420898e-01,1.000000000000000000e+00,-4.227973556518554688e+01,3.318028259277343750e+01,3.433285903930664062e+01,9.554573059082031250e+01,9.964392089843750000e+01,-6.117196083068847656e+00,1.166222991943359375e+02,8.770228385925292969e+00,3.480780029296875000e+01,-1.537292938232421875e+02,6.622257232666015625e+01,1.191414108276367188e+02
9.039999842643737793e-01,1.000000000000000000e+00,-4.232369232177734375e+01,3.309525680541992188e+01,3.435518264770507812e+01,9.546769714355468750e+01,9.966353607177734375e+01,-6.143723011016845703e+00,1.166222991943359375e+02,8.770228385925292969e+00,3.480780029296875000e+01,-1.537292938232421875e+02,6.622257232666015625e+01,1.191414108276367188e+02
9.079999923706054688e-01,1.000000000000000000e+00,-4.236767578125000000e+01,3.301018142700195312e+01,3.437752151489257812e+01,9.538962554931640625e+01,9.968315887451171875e+01,-6.170266628265380859e+00,1.166222991943359375e+02,8.770228385925292969e+00,3.480780029296875000e+01,-1.537292938232421875e+02,6.622257232666015625e+01,1.191414108276367188e+02
9.120000004768371582e-01,1.000000000000000000e+00,-4.241168594360351562e+01,3.292505264282226562e+01,3.439986801147460938e+01,9.531150054931640625e+01,9.970278930664062500e+01,-6.196826457977294922e+00,1.166222991943359375e+02,8.770228385925292969e+00,3.480780029296875000e+01,-1.537292938232421875e+02,6.622257232666015625e+01,1.191414108276367188e+02
9.160000085830688477e-01,1.000000000000000000e+00,-4.245572662353515625e+01,3.283987045288085938e+01,3.442223358154296875e+01,9.523332977294921875e+01,9.972243499755859375e+01,-6.223402500152587891e+00,1.166222991943359375e+02,8.770228385925292969e+00,3.480780029296875000e+01,-1.537292938232421875e+02,6.622257232666015625e+01,1.191414108276367188e+02
9.200000166893005371e-01,1.000000000000000000e+00,-4.249979400634765625e+01,3.275463485717773438e+01,3.444461441040039062e+01,9.515510559082031250e+01,9.974210357666015625e+01,-6.249995231628417969e+00,1.166222991943359375e+02,8.770228385925292969e+00,3.480780029296875000e+01,-1.537292938232421875e+02,6.622257232666015625e+01,1.191414108276367188e+02
9.240000247955322266e-01,1.000000000000000000e+00,-4.254388809204101562e+01,3.266934585571289062e+01,3.446700668334960938e+01,9.507684326171875000e+01,9.976177215576171875e+01,-6.276604652404785156e+00,1.166222991943359375e+02,8.770228385925292969e+00,3.480780029296875000e+01,-1.537292938232421875e+02,6.622257232666015625e+01,1.191414108276367188e+02
9.279999732971191406e-01,1.000000000000000000e+00,-4.258801269531250000e+01,3.258400344848632812e+01,3.448941421508789062e+01,9.499851989746093750e+01,9.978144836425781250e+01,-6.303230285644531250e+00,1.166222991943359375e+02,8.770228385925292969e+00,3.480780029296875000e+01,-1.537292938232421875e+02,6.622257232666015625e+01,1.191414108276367188e+02
9.319999814033508301e-01,1.000000000000000000e+00,-4.263216400146484375e+01,3.249860763549804688e+01,3.451183319091796875e+01,9.492015838623046875e+01,9.980114746093750000e+01,-6.329872131347656250e+00,1.166222991943359375e+02,8.770228385925292969e+00,3.480780029296875000e+01,-1.537292938232421875e+02,6.622257232666015625e+01,1.191414108276367188e+02
9.359999895095825195e-01,1.000000000000000000e+00,-4.267634201049804688e+01,3.241315841674804688e+01,3.453426742553710938e+01,9.484174346923828125e+01,9.982086181640625000e+01,-6.356531620025634766e+00,1.166222991943359375e+02,8.770228385925292969e+00,3.480780029296875000e+01,-1.537292938232421875e+02,6.622257232666015625e+01,1.191414108276367188e+02
9.399999976158142090e-01,1.000000000000000000e+00,-4.272054672241210938e+01,3.232765960693359375e+01,3.455671310424804688e+01,9.476328277587890625e+01,9.984057617187500000e+01,-6.383207321166992188e+00,1.166222991943359375e+02,8.770228385925292969e+00,3.480780029296875000e+01,-1.537292938232421875e+02,6.622257232666015625e+01,1.191414108276367188e+02
9.440000057220458984e-01,1.000000000000000000e+00,-4.276477813720703125e+01,3.224210357666015625e+01,3.457917785644531250e+01,9.468476867675781250e+01,9.986031341552734375e+01,-6.409899234771728516e+00,1.166222991943359375e+02,8.770228385925292969e+00,3.480780029296875000e+01,-1.537292938232421875e+02,6.622257232666015625e+01,1.191414108276367188e+02
9.480000138282775879e-01,1.000000000000000000e+00,-4.280903625488281250e+01,3.215649414062500000e+01,3.460165405273437500e+01,9.460620117187500000e+01,9.988005828857421875e+01,-6.436608314514160156e+00,1.166222991943359375e+02,8.770228385925292969e+00,3.480780029296875000e+01,-1.537292938232421875e+02,6.622257232666015625e+01,1.191414108276367188e+02
9.520000219345092773e-01,1.000000000000000000e+00,-4.285332489013671875e+01,3.207083129882812500e+01,3.462414550781250000e+01,9.452759552001953125e+01,9.989981842041015625e+01,-6.463334083557128906e+00,1.166222991943359375e+02,8.770228385925292969e+00,3.480780029296875000e+01,-1.537292938232421875e+02,6.622257232666015625e+01,1.191414108276367188e+02
9.559999704360961914e-01,1.000000000000000000e+00,-4.289764022827148438e+01,3.198511695861816406e+01,3.464665222167968750e+01,9.444892883300781250e+01,9.991958618164062500e+01,-6.490076541900634766e+00,1.166222991943359375e+02,8.770228385925292969e+00,3.480780029296875000e+01,-1.537292938232421875e+02,6.622257232666015625e+01,1.191414108276367188e+02
9.599999785423278809e-01,1.000000000000000000e+00,-4.294198226928710938e+01,3.189934730529785156e+01,3.466917037963867188e+01,9.437021636962890625e+01,9.993936157226562500e+01,-6.516836166381835938e+00,1.166222991943359375e+02,8.770228385925292969e+00,3.480780029296875000e+01,-1.537292938232421875e+02,6.622257232666015625e+01,1.191414108276367188e+02
9.639999866485595703e-01,1.000000000000000000e+00,-4.298635101318359375e+01,3.181352615356445312e+01,3.469170379638671875e+01,9.429145812988281250e+01,9.995916748046875000e+01,-6.543612480163574219e+00,1.166222991943359375e+02,8.770228385925292969e+00,3.480780029296875000e+01,-1.537292938232421875e+02,6.622257232666015625e+01,1.191414108276367188e+02
9.679999947547912598e-01,1.000000000000000000e+00,-4.303075408935546875e+01,3.172764587402343750e+01,3.471424865722656250e+01,9.421265411376953125e+01,9.997896575927734375e+01,-6.570405006408691406e+00,1.166222991943359375e+02,8.770228385925292969e+00,3.480780029296875000e+01,-1.537292938232421875e+02,6.622257232666015625e+01,1.191414108276367188e+02
9.720000028610229492e-01,1.000000000000000000e+00,-4.307517623901367188e+01,3.164171600341796875e+01,3.473680877685546875e+01,9.413378906250000000e+01,9.999878692626953125e+01,-6.597215175628662109e+00,1.166222991943359375e+02,8.770228385925292969e+00,3.480780029296875000e+01,-1.537292938232421875e+02,6.622257232666015625e+01,1.191414108276367188e+02
9.760000109672546387e-01,1.000000000000000000e+00,-4.311962890625000000e+01,3.155573081970214844e+01,3.475938796997070312e+01,9.405487823486328125e+01,1.000186233520507812e+02,-6.624042034149169922e+00,1.166222991943359375e+02,8.770228385925292969e+00,3.480780029296875000e+01,-1.537292938232421875e+02,6.622257232666015625e+01,1.191414108276367188e+02
9.800000190734863281e-01,1.000000000000000000e+00,-4.316411209106445312e+01,3.146969413757324219e+01,3.478197860717773438e+01,9.397592163085937500e+01,1.000384597778320312e+02,-6.650885581970214844e+00,1.166222991943359375e+02,8.770228385925292969e+00,3.480780029296875000e+01,-1.537292938232421875e+02,6.622257232666015625e+01,1.191414108276367188e+02
9.840000271797180176e-01,1.000000000000000000e+00,-4.320862579345703125e+01,3.138360023498535156e+01,3.480458068847656250e+01,9.389691925048828125e+01,1.000583267211914062e+02,-6.677746295928955078e+00,1.166222991943359375e+02,8.770228385925292969e+00,3.480780029296875000e+01,-1.537292938232421875e+02,6.622257232666015625e+01,1.191414108276367188e+02
9.879999756813049316e-01,1.000000000000000000e+00,-4.325315856933593750e+01,3.129745101928710938e+01,3.482719802856445312e+01,9.381786346435546875e+01,1.000781936645507812e+02,-6.704623699188232422e+00,1.166222991943359375e+02,8.770228385925292969e+00,3.480780029296875000e+01,-1.537292938232421875e+02,6.622257232666015625e+01,1.191414108276367188e+02
9.919999837875366211e-01,1.000000000000000000e+00,-4.329772567749023438e+01,3.121125030517578125e+01,3.484983062744140625e+01,9.373875427246093750e+01,1.000980758666992188e+02,-6.731518268585205078e+00,1.166222991943359375e+02,8.770228385925292969e+00,3.480780029296875000e+01,-1.537292938232421875e+02,6.622257232666015625e+01,1.191414108276367188e+02
9.959999918937683105e-01,1.000000000000000000e+00,-4.334231948852539062e+01,3.112499046325683594e+01,3.487247848510742188e+01,9.365959167480468750e+01,1.001179656982421875e+02,-6.758429527282714844e+00,1.166222991943359375e+02,8.770228385925292969e+00,3.480780029296875000e+01,-1.537292938232421875e+02,6.622257232666015625e+01,1.191414108276367188e+02
1.000000000000000000e+00,1.000000000000000000e+00,-4.338694000244140625e+01,3.103868103027343750e+01,3.489514160156250000e+01,9.358039093017578125e+01,1.001378784179687500e+02,-6.785357952117919922e+00,1.166222991943359375e+02,8.770228385925292969e+00,3.480780029296875000e+01,-1.537292938232421875e+02,6.622257232666015625e+01,1.191414108276367188e+02
1.003999948501586914e+00,1.000000000000000000e+00,-4.343158721923828125e+01,3.095231819152832031e+01,3.491781616210937500e+01,9.350112915039062500e+01,1.001577987670898438e+02,-6.812303066253662109e+00,1.166222991943359375e+02,8.770228385925292969e+00,3.480780029296875000e+01,-1.537292938232421875e+02,6.622257232666015625e+01,1.191414108276367188e+02
1.008000016212463379e+00,1.000000000000000000e+00,-4.347626495361328125e+01,3.086589813232421875e+01,3.494050598144531250e+01,9.342182922363281250e+01,1.001777267456054688e+02,-6.839265346527099609e+00,1.166222991943359375e+02,8.770228385925292969e+00,3.480780029296875000e+01,-1.537292938232421875e+02,6.622257232666015625e+01,1.191414108276367188e+02
1.011999964714050293e+00,1.000000000000000000e+00,-4.352097320556640625e+01,3.077942085266113281e+01,3.496321105957031250e+01,9.334246826171875000e+01,1.001976776123046875e+02,-6.866244316101074219e+00,1.166222991943359375e+02,8.770228385925292969e+00,3.480780029296875000e+01,-1.537292938232421875e+02,6.622257232666015625e+01,1.191414108276367188e+02
1.016000032424926758e+00,1.000000000000000000e+00,-4.356570816040039062e+01,3.069289398193359375e+01,3.498592758178710938e+01,9.326306152343750000e+01,1.002176284790039062e+02,-6.893240928649902344e+00,1.166222991943359375e+02,8.770228385925292969e+00,3.480780029296875000e+01,-1.537292938232421875e+02,6.622257232666015625e+01,1.191414108276367188e+02
1.019999980926513672e+00,1.000000000000000000e+00,-4.361046981811523438e+01,3.060630989074707031e+01,3.500865936279296875e+01,9.318360137939453125e+01,1.002376022338867188e+02,-6.920253753662109375e+00,1.166222991943359375e+02,8.770228385925292969e+00,3.480780029296875000e+01,-1.537292938232421875e+02,6.622257232666015625e+01,1.191414108276367188e+02
1.024000048637390137e+00,1.000000000000000000e+00,-4.365525817871093750e+01,3.051966857910156250e+01,3.503140640258789062e+01,9.310409545898437500e+01,1.002575836181640625e+02,-6.947283744812011719e+00,1.166222991943359375e+02,8.770228385925292969e+00,3.480780029296875000e+01,-1.537292938232421875e+02,6.622257232666015625e+01,1.191414108276367188e+02
1.026999950408935547e+00,1.000000000000000000e+00,-4.370007705688476562e+01,3.043297767639160156e+01,3.505416870117187500e+01,9.302454376220703125e+01,1.002775802612304688e+02,-6.974330902099609375e+00,1.166222991943359375e+02,8.770228385925292969e+00,3.480780029296875000e+01,-1.537292938232421875e+02,6.622257232666015625e+01,1.191414108276367188e+02
1.031999945640563965e+00,1.000000000000000000e+00,-4.374492263793945312e+01,3.034622955322265625e+01,3.507694244384765625e+01,9.294493103027343750e+01,1.002975845336914062e+02,-7.001395702362060547e+00,1.166222991943359375e+02,8.770228385925292969e+00,3.480780029296875000e+01,-1.537292938232421875e+02,6.622257232666015625e+01,1.191414108276367188e+02
1.036000013351440430e+00,1.000000000000000000e+00,-4.378979873657226562e+01,3.025942611694335938e+01,3.509973144531250000e+01,9.286527252197265625e+01,1.003176040649414062e+02,-7.028476238250732422e+00,1.166222991943359375e+02,8.770228385925292969e+00,3.480780029296875000e+01,-1.537292938232421875e+02,6.622257232666015625e+01,1.191414108276367188e+02
1.039999961853027344e+00,1.000000000000000000e+00,-4.383470153808593750e+01,3.017256927490234375e+01,3.512253570556640625e+01,9.278556823730468750e+01,1.003376388549804688e+02,-7.055574893951416016e+00,1.166222991943359375e+02,8.770228385925292969e+00,3.480780029296875000e+01,-1.537292938232421875e+02,6.622257232666015625e+01,1.191414108276367188e+02
1.044000029563903809e+00,1.000000000000000000e+00,-4.387963485717773438e+01,3.008565902709960938e+01,3.514535522460937500e+01,9.270581054687500000e+01,1.003576812744140625e+02,-7.082690238952636719e+00,1.166222991943359375e+02,8.770228385925292969e+00,3.480780029296875000e+01,-1.537292938232421875e+02,6.622257232666015625e+01,1.191414108276367188e+02
1.047999978065490723e+00,1.000000000000000000e+00,-4.392459487915039062e+01,2.999868965148925781e+01,3.516818618774414062e+01,9.262599945068359375e+01,1.003777465820312500e+02,-7.109822750091552734e+00,1.166222991943359375e+02,8.770228385925292969e+00,3.480780029296875000e+01,-1.537292938232421875e+02,6.622257232666015625e+01,1.191414108276367188e+02
1.052000045776367188e+00,1.000000000000000000e+00,-4.396958160400390625e+01,2.991167068481445312e+01,3.519103240966796875e+01,9.254614257812500000e+01,1.003978118896484375e+02,-7.136972427368164062e+00,1.166222991943359375e+02,8.770228385925292969e+00,3.480780029296875000e+01,-1.537292938232421875e+02,6.622257232666015625e+01,1.191414108276367188e+02
1.054999947547912598e+00,1.000000000000000000e+00,-4.401459884643554688e+01,2.982459449768066406e+01,3.521389770507812500e+01,9.246623229980468750e+01,1.004179000854492188e+02,-7.164138317108154297e+00,1.166222991943359375e+02,8.770228385925292969e+00,3.480780029296875000e+01,-1.537292938232421875e+02,6.622257232666015625e+01,1.191414108276367188e+02
1.059999942779541016e+00,1.000000000000000000e+00,-4.405964279174804688e+01,2.973746299743652344e+01,3.523677062988281250e+01,9.238628387451171875e+01,1.004379959106445312e+02,-7.191322803497314453e+00,1.166222991943359375e+02,8.770228385925292969e+00,3.480780029296875000e+01,-1.537292938232421875e+02,6.622257232666015625e+01,1.191414108276367188e+02
1.064000010490417480e+00,1.000000000000000000e+00,-4.410471725463867188e+01,2.965027809143066406e+01,3.525966262817382812e+01,9.230627441406250000e+01,1.004580993652343750e+02,-7.218523025512695312e+00,1.166222991943359375e+02,8.770228385925292969e+00,3.480780029296875000e+01,-1.537292938232421875e+02,6.622257232666015625e+01,1.191414108276367188e+02
1.067999958992004395e+00,1.000000000000000000e+00,-4.414981842041015625e+01,2.956303596496582031e+01,3.528256988525390625e+01,9.222621154785156250e+01,1.004782257080078125e+02,-7.245741367340087891e+00,1.166222991943359375e+02,8.770228385925292969e+00,3.480780029296875000e+01,-1.537292938232421875e+02,6.622257232666015625e+01,1.191414108276367188e+02
1.072000026702880859e+00,1.000000000000000000e+00,-4.419494628906250000e+01,2.947574043273925781e+01,3.530548858642578125e+01,9.214609527587890625e+01,1.004983596801757812e+02,-7.272976875305175781e+00,1.166222991943359375e+02,8.770228385925292969e+00,3.480780029296875000e+01,-1.537292938232421875e+02,6.622257232666015625e+01,1.191414108276367188e+02
1.075999975204467773e+00,1.000000000000000000e+00,-4.424010467529296875e+01,2.938839149475097656e+01,3.532841873168945312e+01,9.206594085693359375e+01,1.005185089111328125e+02,-7.300228595733642578e+00,1.166222991943359375e+02,8.770228385925292969e+00,3.480780029296875000e+01,-1.537292938232421875e+02,6.622257232666015625e+01,1.191414108276367188e+02
1.080000042915344238e+00,1.000000000000000000e+00,-4.428529357910156250e+01,2.930098533630371094e+01,3.535136795043945312e+01,9.198573303222656250e+01,1.005386657714843750e+02,-7.327497959136962891e+00,1.166222991943359375e+02,8.770228385925292969e+00,3.480780029296875000e+01,-1.537292938232421875e+02,6.622257232666015625e+01,1.191414108276367188e+02
1.083999991416931152e+00,1.000000000000000000e+00,-4.433050537109375000e+01,2.921352577209472656e+01,3.537433242797851562e+01,9.190547180175781250e+01,1.005588378906250000e+02,-7.354784488677978516e+00,1.166222991943359375e+02,8.770228385925292969e+00,3.480780029296875000e+01,-1.537292938232421875e+02,6.622257232666015625e+01,1.191414108276367188e+02
1.088000059127807617e+00,1.000000000000000000e+00,-4.437575149536132812e+01,2.912601089477539062e+01,3.539730834960937500e+01,9.182515716552734375e+01,1.005790252685546875e+02,-7.382088184356689453e+00,1.166222991943359375e+02,8.770228385925292969e+00,3.480780029296875000e+01,-1.537292938232421875e+02,6.622257232666015625e+01,1.191414108276367188e+02
1.090999960899353027e+00,1.000000000000000000e+00,-4.442102432250976562e+01,2.903843688964843750e+01,3.542029953002929688e+01,9.174479675292968750e+01,1.005992202758789062e+02,-7.409409046173095703e+00,1.166222991943359375e+02,8.770228385925292969e+00,3.480780029296875000e+01,-1.537292938232421875e+02,6.622257232666015625e+01,1.191414108276367188e+02
1.095999956130981445e+00,1.000000000000000000e+00,-4.446632385253906250e+01,2.895081329345703125e+01,3.544330596923828125e+01,9.166438293457031250e+01,1.006194305419921875e+02,-7.436747550964355469e+00,1.166222991943359375e+02,8.770228385925292969e+00,3.480780029296875000e+01,-1.537292938232421875e+02,6.622257232666015625e+01,1.191414108276367188e+02
1.100000023841857910e+00,1.000000000000000000e+00,-4.451165390014648438e+01,2.886313247680664062e+01,3.546632766723632812e+01,9.158391571044921875e+01,1.006396560668945312e+02,-7.464102745056152344e+00,1.166222991943359375e+02,8.770228385925292969e+00,3.480780029296875000e+01,-1.537292938232421875e+02,6.622257232666015625e+01,1.191414108276367188e+02
1.103999972343444824e+00,1.000000000000000000e+00,-4.455701065063476562e+01,2.877539634704589844e+01,3.548936462402343750e+01,9.150340270996093750e+01,1.006598892211914062e+02,-7.491475582122802734e+00,1.166222991943359375e+02,8.770228385925292969e+00,3.480780029296875000e+01,-1.537292938232421875e+02,6.622257232666015625e+01,1.191414108276367188e+02
1.108000040054321289e+00,1.000000000000000000e+00,-4.460239410400390625e+01,2.868760490417480469e+01,3.551241302490234375e+01,9.142284393310546875e+01,1.006801376342773438e+02,-7.518865108489990234e+00,1.166222991943359375e+02,8.770228385925292969e+00,3.480780029296875000e+01,-1.537292938232421875e+02,6.622257232666015625e+01,1.191414108276367188e+02
1.111999988555908203e+00,1.000000000000000000e+00,-4.464780807495117188e+01,2.859975814819335938e+01,3.553547286987304688e+01,9.134222412109375000e+01,1.007003936767578125e+02,-7.546272277832031250e+00,1.166222991943359375e+02,8.770228385925292969e+00,3.480780029296875000e+01,-1.537292938232421875e+02,6.622257232666015625e+01,1.191414108276367188e+02
1.116000056266784668e+00,1.000000000000000000e+00,-4.469325637817382812e+01,2.851185607910156250e+01,3.555855178833007812e+01,9.126155853271484375e+01,1.007206726074218750e+02,-7.573696136474609375e+00,1.166222991943359375e+02,8.770228385925292969e+00,3.480780029296875000e+01,-1.537292938232421875e+02,6.622257232666015625e+01,1.191414108276367188e+02
1.118999958038330078e+00,1.000000000000000000e+00,-4.473872756958007812e+01,2.842389869689941406e+01,3.558164596557617188e+01,9.118083953857421875e+01,1.007409591674804688e+02,-7.601137638092041016e+00,1.166222991943359375e+02,8.770228385925292969e+00,3.480780029296875000e+01,-1.537292938232421875e+02,6.622257232666015625e+01,1.191414108276367188e+02
1.123999953269958496e+00,1.000000000000000000e+00,-4.478422546386718750e+01,2.833588790893554688e+01,3.560475158691406250e+01,9.110007476806640625e+01,1.007612609863281250e+02,-7.628596305847167969e+00,1.166222991943359375e+02,8.770228385925292969e+00,3.480780029296875000e+01,-1.537292938232421875e+02,6.622257232666015625e+01,1.191414108276367188e+02
