rpiRobotics/ARM-21-02-F-19-Robot-Motion-Program/data_performance_abb/curve_1/baseline/100L/curve_exe_v123.046875_z10.csv
timestamp, cmd_num, J1, J2, J3, J4, J5, J6
0, -1, 11.3784, 13.6124, 17.34, -145.519, -97.9231, 142.516
0.002, -1, 11.3784, 13.6124, 17.34, -145.519, -97.9231, 142.516
0.006, -1, 11.3784, 13.6124, 17.34, -145.519, -97.9231, 142.516
0.008, -1, 11.3784, 13.6124, 17.34, -145.519, -97.9231, 142.516
0.011, -1, 11.3784, 13.6124, 17.34, -145.519, -97.9231, 142.516
0.016, -1, 11.3784, 13.6124, 17.34, -145.519, -97.9231, 142.516
0.02, -1, 11.3784, 13.6124, 17.34, -145.519, -97.9231, 142.516
0.024, -1, 11.3784, 13.6124, 17.34, -145.519, -97.9231, 142.516
0.028, -1, 11.3784, 13.6124, 17.34, -145.519, -97.9231, 142.516
0.032, -1, 11.3783, 13.6124, 17.34, -145.519, -97.9231, 142.516
0.036, -1, 11.3783, 13.6124, 17.34, -145.519, -97.9231, 142.516
0.04, -1, 11.378, 13.6124, 17.34, -145.519, -97.9231, 142.516
0.044, -1, 11.3773, 13.6123, 17.3399, -145.519, -97.9231, 142.516
0.048, -1, 11.376, 13.6121, 17.3397, -145.519, -97.9231, 142.516
0.052, -1, 11.3739, 13.6118, 17.3395, -145.519, -97.9231, 142.515
0.056, -1, 11.3709, 13.6113, 17.3392, -145.519, -97.9231, 142.515
0.06, -1, 11.3669, 13.6105, 17.3388, -145.519, -97.923, 142.514
0.064, -1, 11.3616, 13.6095, 17.3382, -145.52, -97.9229, 142.511
0.068, -1, 11.355, 13.6082, 17.3376, -145.52, -97.9228, 142.508
0.072, -1, 11.3469, 13.6064, 17.3369, -145.521, -97.9225, 142.503
0.076, -1, 11.3368, 13.604, 17.3361, -145.523, -97.9221, 142.496
0.08, -1, 11.3245, 13.6011, 17.3353, -145.524, -97.9216, 142.485
0.084, -1, 11.3095, 13.5974, 17.3345, -145.527, -97.9208, 142.471
0.088, -1, 11.2916, 13.593, 17.3339, -145.53, -97.9197, 142.452
0.092, -1, 11.2709, 13.5878, 17.3334, -145.534, -97.9183, 142.428
0.096, -1, 11.2473, 13.5818, 17.3333, -145.54, -97.9165, 142.397
0.1, -1, 11.2208, 13.5749, 17.3336, -145.546, -97.9143, 142.359
0.104, -1, 11.1915, 13.5672, 17.3345, -145.554, -97.9116, 142.313
0.108, -1, 11.1592, 13.5586, 17.336, -145.563, -97.9083, 142.259
0.112, -1, 11.1237, 13.549, 17.3382, -145.574, -97.9045, 142.197
0.116, -1, 11.085, 13.5386, 17.341, -145.586, -97.9002, 142.125
0.12, -1, 11.0431, 13.5272, 17.3444, -145.6, -97.8953, 142.045
0.124, -1, 10.9978, 13.5148, 17.3483, -145.615, -97.8899, 141.956
0.128, -1, 10.9493, 13.5015, 17.3528, -145.632, -97.884, 141.86
0.131, -1, 10.8979, 13.4874, 17.3577, -145.65, -97.8777, 141.756
0.136, -1, 10.8436, 13.4725, 17.3631, -145.669, -97.8709, 141.645
0.139, -1, 10.7865, 13.4568, 17.3687, -145.689, -97.8638, 141.529
0.144, -1, 10.7267, 13.4404, 17.3745, -145.709, -97.8564, 141.407
0.148, -1, 10.6642, 13.4233, 17.3803, -145.731, -97.8487, 141.281
0.152, -1, 10.5993, 13.4055, 17.3861, -145.753, -97.8408, 141.152
0.156, -1, 10.5321, 13.3871, 17.3919, -145.776, -97.8328, 141.02
0.16, -1, 10.4629, 13.3682, 17.3975, -145.799, -97.8246, 140.886
0.164, -1, 10.3921, 13.3489, 17.4031, -145.822, -97.8164, 140.751
0.168, -1, 10.32, 13.3293, 17.4085, -145.845, -97.8081, 140.614
0.172, -1, 10.2468, 13.3094, 17.4139, -145.869, -97.7998, 140.477
0.176, -1, 10.1727, 13.2894, 17.4192, -145.893, -97.7914, 140.339
0.18, -1, 10.0979, 13.2692, 17.4245, -145.916, -97.783, 140.2
0.184, -1, 10.0225, 13.2488, 17.4297, -145.94, -97.7746, 140.062
0.188, -1, 9.94654, 13.2284, 17.4348, -145.964, -97.7661, 139.922
0.192, -1, 9.87027, 13.2079, 17.44, -145.988, -97.7577, 139.783
0.196, -1, 9.79375, 13.1874, 17.4451, -146.012, -97.7493, 139.644
0.2, -1, 9.71706, 13.1669, 17.4502, -146.036, -97.7408, 139.504
0.204, -1, 9.64025, 13.1463, 17.4553, -146.06, -97.7324, 139.365
0.208, -1, 9.56336, 13.1258, 17.4604, -146.084, -97.7239, 139.225
0.212, -1, 9.48641, 13.1052, 17.4655, -146.108, -97.7155, 139.086
0.216, -1, 9.40942, 13.0846, 17.4706, -146.131, -97.707, 138.946
0.22, -1, 9.3324, 13.064, 17.4757, -146.155, -97.6986, 138.807
0.224, -1, 9.25536, 13.0434, 17.4808, -146.179, -97.6901, 138.667
0.228, -1, 9.1783, 13.0228, 17.4859, -146.203, -97.6816, 138.527
0.232, -1, 9.10122, 13.0022, 17.491, -146.227, -97.6732, 138.388
0.236, -1, 9.02413, 12.9816, 17.4961, -146.251, -97.6647, 138.248
0.24, -1, 8.94703, 12.9609, 17.5012, -146.275, -97.6563, 138.108
0.244, -1, 8.86993, 12.9403, 17.5063, -146.299, -97.6478, 137.969
0.248, -1, 8.79281, 12.9197, 17.5114, -146.323, -97.6394, 137.829
0.252, -1, 8.71568, 12.8991, 17.5165, -146.347, -97.6309, 137.689
0.256, -1, 8.63855, 12.8785, 17.5216, -146.371, -97.6224, 137.55
0.26, -1, 8.56141, 12.8578, 17.5267, -146.395, -97.614, 137.41
0.264, -1, 8.48426, 12.8372, 17.5318, -146.419, -97.6055, 137.27
0.268, -1, 8.40711, 12.8166, 17.5369, -146.443, -97.597, 137.13
0.272, -1, 8.32994, 12.7959, 17.542, -146.467, -97.5886, 136.99
0.276, -1, 8.25277, 12.7753, 17.5471, -146.491, -97.5801, 136.851
0.28, -1, 8.1756, 12.7547, 17.5522, -146.515, -97.5716, 136.711
0.284, -1, 8.09841, 12.734, 17.5573, -146.539, -97.5632, 136.571
0.288, -1, 8.02122, 12.7134, 17.5624, -146.563, -97.5547, 136.431
0.292, -1, 7.94402, 12.6928, 17.5675, -146.587, -97.5462, 136.291
0.296, -1, 7.86681, 12.6721, 17.5726, -146.611, -97.5378, 136.151
0.3, -1, 7.7896, 12.6515, 17.5777, -146.635, -97.5293, 136.012
0.304, -1, 7.71238, 12.6308, 17.5828, -146.659, -97.5208, 135.872
0.308, -1, 7.63515, 12.6102, 17.5879, -146.683, -97.5123, 135.732
0.312, -1, 7.55791, 12.5895, 17.593, -146.707, -97.5039, 135.592
0.316, -1, 7.48067, 12.5689, 17.5981, -146.731, -97.4954, 135.452
0.32, -1, 7.40342, 12.5482, 17.6032, -146.755, -97.4869, 135.312
0.324, -1, 7.32616, 12.5276, 17.6083, -146.779, -97.4784, 135.172
0.328, -1, 7.24889, 12.5069, 17.6134, -146.803, -97.47, 135.032
0.332, -1, 7.17162, 12.4862, 17.6185, -146.827, -97.4615, 134.892
0.336, -1, 7.09434, 12.4656, 17.6236, -146.851, -97.453, 134.752
0.34, -1, 7.01705, 12.4449, 17.6287, -146.875, -97.4445, 134.612
0.344, -1, 6.93976, 12.4243, 17.6339, -146.899, -97.4361, 134.472
0.348, -1, 6.86246, 12.4036, 17.639, -146.923, -97.4276, 134.332
0.352, -1, 6.78515, 12.3829, 17.6441, -146.947, -97.4191, 134.192
0.356, -1, 6.70783, 12.3622, 17.6492, -146.971, -97.4106, 134.052
0.36, -1, 6.63051, 12.3416, 17.6543, -146.995, -97.4021, 133.912
0.364, -1, 6.55317, 12.3209, 17.6594, -147.019, -97.3936, 133.772
0.368, -1, 6.47583, 12.3002, 17.6645, -147.043, -97.3852, 133.631
0.372, -1, 6.39849, 12.2795, 17.6696, -147.067, -97.3767, 133.491
0.376, -1, 6.32113, 12.2589, 17.6747, -147.091, -97.3682, 133.351
0.38, -1, 6.24377, 12.2382, 17.6798, -147.115, -97.3597, 133.211
0.384, -1, 6.1664, 12.2175, 17.6849, -147.14, -97.3512, 133.071
0.388, -1, 6.08903, 12.1968, 17.6901, -147.164, -97.3427, 132.931
0.392, -1, 6.01164, 12.1761, 17.6952, -147.188, -97.3342, 132.79
0.396, -1, 5.93425, 12.1554, 17.7003, -147.212, -97.3257, 132.65
0.4, -1, 5.85685, 12.1347, 17.7054, -147.236, -97.3173, 132.51
0.404, -1, 5.77945, 12.114, 17.7105, -147.26, -97.3088, 132.37
0.408, -1, 5.70203, 12.0933, 17.7156, -147.284, -97.3003, 132.23
0.412, -1, 5.62461, 12.0726, 17.7207, -147.308, -97.2918, 132.089
0.416, -1, 5.54718, 12.0519, 17.7259, -147.332, -97.2833, 131.949
0.42, -1, 5.46975, 12.0312, 17.731, -147.356, -97.2748, 131.809
0.424, -1, 5.3923, 12.0105, 17.7361, -147.38, -97.2663, 131.668
0.428, -1, 5.31485, 11.9898, 17.7412, -147.404, -97.2578, 131.528
0.432, -1, 5.23739, 11.9691, 17.7463, -147.428, -97.2493, 131.388
0.436, -1, 5.15992, 11.9484, 17.7514, -147.452, -97.2408, 131.247
0.44, -1, 5.08245, 11.9277, 17.7566, -147.476, -97.2323, 131.107
0.444, -1, 5.00497, 11.9069, 17.7617, -147.501, -97.2238, 130.967
0.448, -1, 4.92748, 11.8862, 17.7668, -147.525, -97.2153, 130.826
0.452, -1, 4.84998, 11.8655, 17.7719, -147.549, -97.2068, 130.686
0.456, -1, 4.77248, 11.8448, 17.7771, -147.573, -97.1983, 130.545
0.46, -1, 4.69496, 11.8241, 17.7822, -147.597, -97.1898, 130.405
0.464, -1, 4.61744, 11.8033, 17.7873, -147.621, -97.1813, 130.265
0.468, -1, 4.53991, 11.7826, 17.7924, -147.645, -97.1728, 130.124
0.472, -1, 4.46238, 11.7619, 17.7975, -147.669, -97.1643, 129.984
0.476, -1, 4.38483, 11.7411, 17.8027, -147.693, -97.1558, 129.843
0.48, -1, 4.30728, 11.7204, 17.8078, -147.717, -97.1472, 129.703
0.484, -1, 4.22972, 11.6997, 17.8129, -147.741, -97.1387, 129.562
0.488, -1, 4.15215, 11.6789, 17.818, -147.766, -97.1302, 129.422
0.492, -1, 4.07458, 11.6582, 17.8232, -147.79, -97.1217, 129.281
0.496, -1, 3.997, 11.6374, 17.8283, -147.814, -97.1132, 129.141
0.5, -1, 3.91941, 11.6167, 17.8334, -147.838, -97.1047, 129
0.504, -1, 3.84181, 11.596, 17.8385, -147.862, -97.0962, 128.859
0.508, -1, 3.7642, 11.5752, 17.8437, -147.886, -97.0877, 128.719
0.512, -1, 3.68659, 11.5544, 17.8488, -147.91, -97.0791, 128.578
0.516, -1, 3.60896, 11.5337, 17.8539, -147.934, -97.0706, 128.438
0.52, -1, 3.53133, 11.5129, 17.8591, -147.959, -97.0621, 128.297
0.524, -1, 3.4537, 11.4922, 17.8642, -147.983, -97.0536, 128.156
0.528, -1, 3.37605, 11.4714, 17.8693, -148.007, -97.0451, 128.016
0.532, -1, 3.2984, 11.4507, 17.8745, -148.031, -97.0366, 127.875
0.536, -1, 3.22074, 11.4299, 17.8796, -148.055, -97.028, 127.734
0.54, -1, 3.14307, 11.4091, 17.8847, -148.079, -97.0195, 127.594
0.544, -1, 3.06539, 11.3884, 17.8898, -148.103, -97.011, 127.453
0.548, -1, 2.9877, 11.3676, 17.895, -148.128, -97.0025, 127.312
0.552, -1, 2.91001, 11.3468, 17.9001, -148.152, -96.9939, 127.171
0.556, -1, 2.83231, 11.326, 17.9052, -148.176, -96.9854, 127.031
0.56, -1, 2.7546, 11.3053, 17.9104, -148.2, -96.9769, 126.89
0.564, -1, 2.67688, 11.2845, 17.9155, -148.224, -96.9684, 126.749
0.568, -1, 2.59916, 11.2637, 17.9207, -148.248, -96.9598, 126.608
0.572, -1, 2.52143, 11.2429, 17.9258, -148.272, -96.9513, 126.467
0.576, -1, 2.44369, 11.2221, 17.9309, -148.297, -96.9428, 126.326
0.58, -1, 2.36594, 11.2013, 17.9361, -148.321, -96.9343, 126.186
0.584, -1, 2.28818, 11.1806, 17.9412, -148.345, -96.9257, 126.045
0.588, -1, 2.21042, 11.1598, 17.9463, -148.369, -96.9172, 125.904
0.592, -1, 2.13264, 11.139, 17.9515, -148.393, -96.9087, 125.763
0.596, -1, 2.05486, 11.1182, 17.9566, -148.417, -96.9001, 125.622
0.6, -1, 1.97708, 11.0974, 17.9618, -148.442, -96.8916, 125.481
0.604, -1, 1.89928, 11.0766, 17.9669, -148.466, -96.8831, 125.34
0.608, -1, 1.82147, 11.0558, 17.972, -148.49, -96.8745, 125.199
0.612, -1, 1.74366, 11.035, 17.9772, -148.514, -96.866, 125.058
0.616, -1, 1.66584, 11.0142, 17.9823, -148.538, -96.8575, 124.917
0.62, -1, 1.58801, 10.9934, 17.9875, -148.563, -96.8489, 124.776
0.624, -1, 1.51018, 10.9725, 17.9926, -148.587, -96.8404, 124.635
0.628, -1, 1.43233, 10.9517, 17.9977, -148.611, -96.8318, 124.494
0.632, -1, 1.35448, 10.9309, 18.0029, -148.635, -96.8233, 124.353
0.636, -1, 1.27662, 10.9101, 18.008, -148.659, -96.8148, 124.212
0.64, -1, 1.19875, 10.8893, 18.0132, -148.684, -96.8062, 124.071
0.644, -1, 1.12087, 10.8685, 18.0183, -148.708, -96.7977, 123.93
0.648, -1, 1.04299, 10.8476, 18.0235, -148.732, -96.7891, 123.789
0.652, -1, 0.965097, 10.8268, 18.0286, -148.756, -96.7806, 123.648
0.656, -1, 0.887196, 10.806, 18.0338, -148.78, -96.772, 123.507
0.66, -1, 0.809287, 10.7851, 18.0389, -148.805, -96.7635, 123.366
0.664, -1, 0.731371, 10.7643, 18.0441, -148.829, -96.7549, 123.224
0.668, -1, 0.653446, 10.7435, 18.0492, -148.853, -96.7464, 123.083
0.672, -1, 0.575512, 10.7226, 18.0544, -148.877, -96.7378, 122.942
0.676, -1, 0.497571, 10.7018, 18.0595, -148.902, -96.7293, 122.801
0.68, -1, 0.419622, 10.681, 18.0647, -148.926, -96.7207, 122.66
0.684, -1, 0.341664, 10.6601, 18.0698, -148.95, -96.7122, 122.518
0.688, -1, 0.263698, 10.6393, 18.075, -148.974, -96.7036, 122.377
0.692, -1, 0.185724, 10.6184, 18.0801, -148.998, -96.6951, 122.236
0.696, -1, 0.107742, 10.5976, 18.0853, -149.023, -96.6865, 122.095
0.7, -1, 0.0297513, 10.5767, 18.0904, -149.047, -96.678, 121.953
0.704, -1, -0.0482477, 10.5559, 18.0956, -149.071, -96.6694, 121.812
0.708, -1, -0.126255, 10.535, 18.1007, -149.095, -96.6608, 121.671
0.712, -1, -0.204271, 10.5141, 18.1059, -149.12, -96.6523, 121.529
0.716, -1, -0.282295, 10.4933, 18.111, -149.144, -96.6437, 121.388
0.72, -1, -0.360327, 10.4724, 18.1162, -149.168, -96.6352, 121.247
0.724, -1, -0.438368, 10.4516, 18.1214, -149.192, -96.6266, 121.105
0.728, -1, -0.516417, 10.4307, 18.1265, -149.217, -96.618, 120.964
0.732, -1, -0.594474, 10.4098, 18.1317, -149.241, -96.6095, 120.822
0.736, -1, -0.67254, 10.3889, 18.1368, -149.265, -96.6009, 120.681
0.74, -1, -0.750614, 10.3681, 18.142, -149.29, -96.5923, 120.54
0.744, -1, -0.828697, 10.3472, 18.1471, -149.314, -96.5838, 120.398
0.748, -1, -0.906788, 10.3263, 18.1523, -149.338, -96.5752, 120.257
0.752, -1, -0.984887, 10.3054, 18.1575, -149.362, -96.5666, 120.115
0.756, -1, -1.063, 10.2846, 18.1626, -149.387, -96.5581, 119.974
0.76, -1, -1.14111, 10.2637, 18.1678, -149.411, -96.5495, 119.832
0.764, -1, -1.21924, 10.2428, 18.1729, -149.435, -96.5409, 119.691
0.768, -1, -1.29737, 10.2219, 18.1781, -149.459, -96.5324, 119.549
0.772, -1, -1.37551, 10.201, 18.1833, -149.484, -96.5238, 119.407
0.776, -1, -1.45366, 10.1801, 18.1884, -149.508, -96.5152, 119.266
0.78, -1, -1.53182, 10.1592, 18.1936, -149.532, -96.5066, 119.124
0.784, -1, -1.60999, 10.1383, 18.1988, -149.557, -96.4981, 118.983
0.788, -1, -1.68817, 10.1174, 18.2039, -149.581, -96.4895, 118.841
0.792, -1, -1.76635, 10.0965, 18.2091, -149.605, -96.4809, 118.699
0.796, -1, -1.84455, 10.0756, 18.2143, -149.63, -96.4723, 118.558
0.8, -1, -1.92275, 10.0547, 18.2194, -149.654, -96.4637, 118.416
0.804, -1, -2.00096, 10.0338, 18.2246, -149.678, -96.4552, 118.274
0.808, -1, -2.07918, 10.0129, 18.2298, -149.702, -96.4466, 118.133
0.812, -1, -2.15741, 9.99194, 18.2349, -149.727, -96.438, 117.991
0.816, -1, -2.23565, 9.97102, 18.2401, -149.751, -96.4294, 117.849
0.82, -1, -2.31389, 9.9501, 18.2453, -149.775, -96.4208, 117.707
0.824, -1, -2.39215, 9.92917, 18.2504, -149.8, -96.4122, 117.566
0.828, -1, -2.47041, 9.90825, 18.2556, -149.824, -96.4037, 117.424
0.832, -1, -2.54868, 9.88732, 18.2608, -149.848, -96.3951, 117.282
0.836, -1, -2.62697, 9.86639, 18.266, -149.873, -96.3865, 117.14
0.84, -1, -2.70526, 9.84546, 18.2711, -149.897, -96.3779, 116.998
0.844, -1, -2.78355, 9.82452, 18.2763, -149.921, -96.3693, 116.857
0.848, -1, -2.86186, 9.80359, 18.2815, -149.946, -96.3607, 116.715
0.852, -1, -2.94018, 9.78265, 18.2867, -149.97, -96.3521, 116.573
0.856, -1, -3.0185, 9.76171, 18.2918, -149.994, -96.3435, 116.431
0.86, -1, -3.09684, 9.74076, 18.297, -150.019, -96.3349, 116.289
0.864, -1, -3.17518, 9.71982, 18.3022, -150.043, -96.3263, 116.147
0.868, -1, -3.25353, 9.69887, 18.3074, -150.067, -96.3177, 116.005
0.872, -1, -3.33189, 9.67791, 18.3125, -150.092, -96.3092, 115.863
0.876, -1, -3.41026, 9.65696, 18.3177, -150.116, -96.3006, 115.721
0.88, -1, -3.48864, 9.63601, 18.3229, -150.141, -96.2919, 115.579
0.884, -1, -3.56702, 9.61505, 18.3281, -150.165, -96.2833, 115.437
0.888, -1, -3.64542, 9.59409, 18.3333, -150.189, -96.2748, 115.295
0.892, -1, -3.72382, 9.57312, 18.3384, -150.214, -96.2662, 115.153
0.896, -1, -3.80223, 9.55216, 18.3436, -150.238, -96.2576, 115.011
0.9, -1, -3.88066, 9.53119, 18.3488, -150.262, -96.2489, 114.869
0.904, -1, -3.95909, 9.51022, 18.354, -150.287, -96.2403, 114.727
0.908, -1, -4.03753, 9.48925, 18.3592, -150.311, -96.2317, 114.585
0.912, -1, -4.11597, 9.46827, 18.3643, -150.336, -96.2231, 114.443
0.916, -1, -4.19443, 9.4473, 18.3695, -150.36, -96.2145, 114.3
0.92, -1, -4.2729, 9.42632, 18.3747, -150.384, -96.2059, 114.158
0.924, -1, -4.35137, 9.40534, 18.3799, -150.409, -96.1973, 114.016
0.928, -1, -4.42986, 9.38435, 18.3851, -150.433, -96.1887, 113.874
0.932, -1, -4.50835, 9.36336, 18.3903, -150.458, -96.1801, 113.732
0.936, -1, -4.58685, 9.34238, 18.3955, -150.482, -96.1715, 113.59
0.94, -1, -4.66536, 9.32138, 18.4007, -150.506, -96.1628, 113.447
0.944, -1, -4.74388, 9.30039, 18.4058, -150.531, -96.1542, 113.305
0.948, -1, -4.82241, 9.27939, 18.411, -150.555, -96.1456, 113.163
0.952, -1, -4.90095, 9.2584, 18.4162, -150.58, -96.137, 113.021
0.956, -1, -4.97949, 9.23739, 18.4214, -150.604, -96.1284, 112.878
0.96, -1, -5.05805, 9.21639, 18.4266, -150.628, -96.1198, 112.736
0.964, -1, -5.13661, 9.19538, 18.4318, -150.653, -96.1112, 112.594
0.968, -1, -5.21519, 9.17438, 18.437, -150.677, -96.1025, 112.451
0.972, -1, -5.29377, 9.15337, 18.4422, -150.702, -96.0939, 112.309
0.976, -1, -5.37236, 9.13235, 18.4474, -150.726, -96.0853, 112.166
0.98, -1, -5.45096, 9.11134, 18.4526, -150.751, -96.0767, 112.024
0.984, -1, -5.52957, 9.09032, 18.4578, -150.775, -96.068, 111.882
0.988, -1, -5.60819, 9.0693, 18.4629, -150.799, -96.0594, 111.739
0.992, -1, -5.68681, 9.04828, 18.4681, -150.824, -96.0508, 111.597
0.996, -1, -5.76545, 9.02725, 18.4733, -150.848, -96.0422, 111.454
1, -1, -5.8441, 9.00622, 18.4785, -150.873, -96.0335, 111.312
1.004, -1, -5.92275, 8.9852, 18.4837, -150.897, -96.0249, 111.169
1.008, -1, -6.00141, 8.96416, 18.4889, -150.922, -96.0163, 111.027
1.012, -1, -6.08009, 8.94313, 18.4941, -150.946, -96.0076, 110.884
1.016, -1, -6.15877, 8.92209, 18.4993, -150.971, -95.999, 110.742
1.02, -1, -6.23746, 8.90105, 18.5045, -150.995, -95.9904, 110.599
1.024, -1, -6.31616, 8.88001, 18.5097, -151.019, -95.9818, 110.457
1.027, -1, -6.39487, 8.85896, 18.5149, -151.044, -95.9731, 110.314
1.032, -1, -6.47358, 8.83792, 18.5201, -151.068, -95.9645, 110.171
1.036, -1, -6.55231, 8.81687, 18.5253, -151.093, -95.9558, 110.029
1.04, -1, -6.63105, 8.79582, 18.5305, -151.117, -95.9472, 109.886
1.044, -1, -6.70979, 8.77476, 18.5357, -151.142, -95.9386, 109.743
1.048, -1, -6.78854, 8.75371, 18.5409, -151.166, -95.9299, 109.601
1.052, -1, -6.86731, 8.73265, 18.5461, -151.191, -95.9213, 109.458
1.055, -1, -6.94608, 8.71159, 18.5513, -151.215, -95.9126, 109.315
1.06, -1, -7.02486, 8.69052, 18.5566, -151.24, -95.904, 109.173
1.064, -1, -7.10365, 8.66946, 18.5618, -151.264, -95.8954, 109.03
1.068, -1, -7.18245, 8.64839, 18.567, -151.289, -95.8867, 108.887
1.072, -1, -7.26126, 8.62732, 18.5722, -151.313, -95.8781, 108.744
1.076, -1, -7.34008, 8.60624, 18.5774, -151.338, -95.8694, 108.602
1.08, -1, -7.41891, 8.58517, 18.5826, -151.362, -95.8608, 108.459
1.084, -1, -7.49775, 8.56409, 18.5878, -151.387, -95.8521, 108.316
1.088, -1, -7.5766, 8.543, 18.593, -151.411, -95.8435, 108.173
1.091, -1, -7.65545, 8.52192, 18.5982, -151.436, -95.8348, 108.03
1.096, -1, -7.73432, 8.50084, 18.6034, -151.46, -95.8262, 107.887
1.1, -1, -7.81319, 8.47975, 18.6086, -151.485, -95.8175, 107.744
1.104, -1, -7.89208, 8.45866, 18.6139, -151.509, -95.8089, 107.602
1.108, -1, -7.97097, 8.43756, 18.6191, -151.534, -95.8002, 107.459
1.112, -1, -8.04988, 8.41646, 18.6243, -151.558, -95.7915, 107.316
1.116, -1, -8.12879, 8.39537, 18.6295, -151.583, -95.7829, 107.173
1.119, -1, -8.20771, 8.37426, 18.6347, -151.607, -95.7742, 107.03
1.124, -1, -8.28665, 8.35316, 18.6399, -151.632, -95.7656, 106.887
1.128, -1, -8.36559, 8.33205, 18.6451, -151.656, -95.7569, 106.744
1.132, -1, -8.44454, 8.31094, 18.6504, -151.681, -95.7482, 106.601
1.136, -1, -8.5235, 8.28983, 18.6556, -151.706, -95.7396, 106.458
1.14, -1, -8.60247, 8.26872, 18.6608, -151.73, -95.7309, 106.315
1.144, -1, -8.68145, 8.2476, 18.666, -151.755, -95.7222, 106.172
1.147, -1, -8.76044, 8.22648, 18.6712, -151.779, -95.7136, 106.028
1.152, -1, -8.83944, 8.20536, 18.6764, -151.804, -95.7049, 105.885
1.156, -1, -8.91845, 8.18423, 18.6817, -151.828, -95.6963, 105.742
1.16, -1, -8.99747, 8.16311, 18.6869, -151.853, -95.6876, 105.599
1.164, -1, -9.0765, 8.14198, 18.6921, -151.877, -95.6789, 105.456
1.168, -1, -9.15554, 8.12084, 18.6973, -151.902, -95.6702, 105.313
1.172, -1, -9.23459, 8.09971, 18.7026, -151.927, -95.6616, 105.169
1.175, -1, -9.31365, 8.07857, 18.7078, -151.951, -95.6529, 105.026
1.18, -1, -9.39271, 8.05743, 18.713, -151.976, -95.6442, 104.883
1.184, -1, -9.47179, 8.03629, 18.7182, -152, -95.6355, 104.74
1.188, -1, -9.55088, 8.01514, 18.7235, -152.025, -95.6269, 104.596
1.192, -1, -9.62998, 7.99399, 18.7287, -152.049, -95.6182, 104.453
1.196, -1, -9.70908, 7.97284, 18.7339, -152.074, -95.6095, 104.31
1.2, -1, -9.7882, 7.95169, 18.7391, -152.099, -95.6008, 104.166
1.204, -1, -9.86733, 7.93053, 18.7444, -152.123, -95.5921, 104.023
1.208, -1, -9.94647, 7.90937, 18.7496, -152.148, -95.5835, 103.88
1.212, -1, -10.0256, 7.88821, 18.7548, -152.172, -95.5748, 103.736
1.216, -1, -10.1048, 7.86705, 18.7601, -152.197, -95.5661, 103.593
1.22, -1, -10.1839, 7.84588, 18.7653, -152.222, -95.5574, 103.449
1.224, -1, -10.2631, 7.82471, 18.7705, -152.246, -95.5487, 103.306
1.228, -1, -10.3423, 7.80354, 18.7757, -152.271, -95.54, 103.163
1.232, -1, -10.4215, 7.78236, 18.781, -152.295, -95.5313, 103.019
1.236, -1, -10.5007, 7.76119, 18.7862, -152.32, -95.5227, 102.876
1.24, -1, -10.5799, 7.74001, 18.7915, -152.345, -95.514, 102.732
1.244, -1, -10.6591, 7.71882, 18.7967, -152.369, -95.5053, 102.589
1.248, -1, -10.7384, 7.69764, 18.8019, -152.394, -95.4966, 102.445
1.252, -1, -10.8176, 7.67645, 18.8072, -152.419, -95.4879, 102.301
1.256, -1, -10.8969, 7.65526, 18.8124, -152.443, -95.4792, 102.158
1.26, -1, -10.9761, 7.63407, 18.8176, -152.468, -95.4705, 102.014
1.264, -1, -11.0554, 7.61287, 18.8229, -152.493, -95.4618, 101.871
1.267, -1, -11.1347, 7.59167, 18.8281, -152.517, -95.4531, 101.727
1.272, -1, -11.214, 7.57047, 18.8333, -152.542, -95.4444, 101.583
1.276, -1, -11.2933, 7.54927, 18.8386, -152.566, -95.4357, 101.44
1.28, -1, -11.3726, 7.52806, 18.8438, -152.591, -95.427, 101.296
1.284, -1, -11.4519, 7.50685, 18.8491, -152.616, -95.4183, 101.152
1.288, -1, -11.5313, 7.48564, 18.8543, -152.64, -95.4096, 101.009
1.292, -1, -11.6106, 7.46442, 18.8596, -152.665, -95.4009, 100.865
1.295, -1, -11.69, 7.44321, 18.8648, -152.69, -95.3922, 100.721
1.3, -1, -11.7693, 7.42199, 18.87, -152.714, -95.3835, 100.577
1.304, -1, -11.8487, 7.40076, 18.8753, -152.739, -95.3748, 100.433
1.308, -1, -11.9281, 7.37954, 18.8805, -152.764, -95.3661, 100.29
1.312, -1, -12.0075, 7.35831, 18.8858, -152.788, -95.3573, 100.146
1.316, -1, -12.0869, 7.33708, 18.891, -152.813, -95.3486, 100.002
1.32, -1, -12.1663, 7.31585, 18.8963, -152.838, -95.3399, 99.8581
1.324, -1, -12.2457, 7.29461, 18.9015, -152.863, -95.3312, 99.7142
1.328, -1, -12.3252, 7.27337, 18.9068, -152.887, -95.3225, 99.5703
1.332, -1, -12.4046, 7.25213, 18.912, -152.912, -95.3138, 99.4263
1.336, -1, -12.4841, 7.23089, 18.9173, -152.937, -95.3051, 99.2824
1.34, -1, -12.5635, 7.20964, 18.9225, -152.961, -95.2963, 99.1384
1.344, -1, -12.643, 7.18839, 18.9278, -152.986, -95.2876, 98.9945
1.348, -1, -12.7225, 7.16714, 18.933, -153.011, -95.2789, 98.8505
1.352, -1, -12.802, 7.14589, 18.9383, -153.035, -95.2702, 98.7064
1.356, -1, -12.8815, 7.12463, 18.9435, -153.06, -95.2615, 98.5624
1.36, -1, -12.961, 7.10337, 18.9488, -153.085, -95.2527, 98.4183
1.364, -1, -13.0405, 7.0821, 18.954, -153.11, -95.244, 98.2743
1.368, -1, -13.1201, 7.06084, 18.9593, -153.134, -95.2353, 98.1302
1.372, -1, -13.1996, 7.03957, 18.9645, -153.159, -95.2266, 97.9861
1.376, -1, -13.2792, 7.0183, 18.9698, -153.184, -95.2178, 97.8419
1.38, -1, -13.3588, 6.99703, 18.9751, -153.208, -95.2091, 97.6978
1.384, -1, -13.4383, 6.97575, 18.9803, -153.233, -95.2004, 97.5536
1.388, -1, -13.5179, 6.95447, 18.9856, -153.258, -95.1916, 97.4094
1.392, -1, -13.5975, 6.93319, 18.9908, -153.283, -95.1829, 97.2652
1.396, -1, -13.6771, 6.9119, 18.9961, -153.307, -95.1742, 97.121
1.4, -1, -13.7567, 6.89062, 19.0014, -153.332, -95.1654, 96.9768
1.404, -1, -13.8364, 6.86933, 19.0066, -153.357, -95.1567, 96.8325
1.408, -1, -13.916, 6.84803, 19.0119, -153.382, -95.148, 96.6882
1.412, -1, -13.9957, 6.82674, 19.0171, -153.406, -95.1392, 96.5439
1.416, -1, -14.0753, 6.80544, 19.0224, -153.431, -95.1305, 96.3996
1.42, -1, -14.155, 6.78414, 19.0277, -153.456, -95.1217, 96.2553
1.424, -1, -14.2347, 6.76284, 19.0329, -153.481, -95.113, 96.1109
1.428, -1, -14.3143, 6.74153, 19.0382, -153.505, -95.1043, 95.9666
1.432, -1, -14.394, 6.72022, 19.0435, -153.53, -95.0955, 95.8222
1.436, -1, -14.4738, 6.69891, 19.0487, -153.555, -95.0868, 95.6778
1.44, -1, -14.5535, 6.67759, 19.054, -153.58, -95.078, 95.5334
1.444, -1, -14.6332, 6.65628, 19.0593, -153.605, -95.0693, 95.3889
1.448, -1, -14.7129, 6.63496, 19.0645, -153.629, -95.0605, 95.2444
1.452, -1, -14.7927, 6.61363, 19.0698, -153.654, -95.0518, 95.1
1.456, -1, -14.8725, 6.59231, 19.0751, -153.679, -95.043, 94.9555
1.46, -1, -14.9522, 6.57098, 19.0803, -153.704, -95.0343, 94.811
1.464, -1, -15.032, 6.54965, 19.0856, -153.729, -95.0255, 94.6664
1.468, -1, -15.1118, 6.52831, 19.0909, -153.753, -95.0168, 94.5219
1.472, -1, -15.1916, 6.50698, 19.0962, -153.778, -95.008, 94.3773
1.476, -1, -15.2714, 6.48564, 19.1014, -153.803, -94.9993, 94.2327
1.48, -1, -15.3513, 6.46429, 19.1067, -153.828, -94.9905, 94.0881
1.484, -1, -15.4311, 6.44295, 19.112, -153.853, -94.9818, 93.9434
1.488, -1, -15.5109, 6.4216, 19.1173, -153.877, -94.973, 93.7988
1.492, -1, -15.5908, 6.40025, 19.1225, -153.902, -94.9642, 93.6541
1.496, -1, -15.6707, 6.37889, 19.1278, -153.927, -94.9555, 93.5094
1.5, -1, -15.7505, 6.35754, 19.1331, -153.952, -94.9467, 93.3647
1.504, -1, -15.8304, 6.33618, 19.1384, -153.977, -94.9379, 93.22
1.508, -1, -15.9103, 6.31481, 19.1437, -154.002, -94.9292, 93.0752
1.512, -1, -15.9902, 6.29345, 19.1489, -154.026, -94.9204, 92.9304
1.516, -1, -16.0702, 6.27208, 19.1542, -154.051, -94.9116, 92.7857
1.52, -1, -16.1501, 6.25071, 19.1595, -154.076, -94.9029, 92.6408
1.524, -1, -16.23, 6.22933, 19.1648, -154.101, -94.8941, 92.496
1.528, -1, -16.31, 6.20796, 19.1701, -154.126, -94.8853, 92.3512
1.532, -1, -16.3899, 6.18658, 19.1753, -154.151, -94.8766, 92.2063
1.536, -1, -16.4699, 6.16519, 19.1806, -154.176, -94.8678, 92.0614
1.54, -1, -16.5499, 6.14381, 19.1859, -154.2, -94.859, 91.9165
1.544, -1, -16.6299, 6.12242, 19.1912, -154.225, -94.8502, 91.7716
1.548, -1, -16.7099, 6.10103, 19.1965, -154.25, -94.8414, 91.6266
1.552, -1, -16.7899, 6.07963, 19.2018, -154.275, -94.8327, 91.4816
1.556, -1, -16.87, 6.05823, 19.2071, -154.3, -94.8239, 91.3367
1.56, -1, -16.95, 6.03683, 19.2124, -154.325, -94.8151, 91.1917
1.564, -1, -17.0301, 6.01543, 19.2176, -154.35, -94.8063, 91.0466
1.568, -1, -17.1101, 5.99402, 19.2229, -154.374, -94.7975, 90.9016
1.572, -1, -17.1902, 5.97261, 19.2282, -154.399, -94.7888, 90.7565
1.576, -1, -17.2703, 5.9512, 19.2335, -154.424, -94.78, 90.6114
1.58, -1, -17.3504, 5.92979, 19.2388, -154.449, -94.7712, 90.4663
1.584, -1, -17.4305, 5.90837, 19.2441, -154.474, -94.7624, 90.3212
1.588, -1, -17.5106, 5.88695, 19.2494, -154.499, -94.7536, 90.176
1.592, -1, -17.5907, 5.86552, 19.2547, -154.524, -94.7448, 90.0309
1.596, -1, -17.6709, 5.8441, 19.26, -154.549, -94.736, 89.8857
1.6, -1, -17.751, 5.82267, 19.2653, -154.574, -94.7272, 89.7405
1.604, -1, -17.8312, 5.80123, 19.2706, -154.599, -94.7184, 89.5953
1.608, -1, -17.9114, 5.7798, 19.2759, -154.624, -94.7096, 89.45
1.612, -1, -17.9915, 5.75836, 19.2812, -154.648, -94.7008, 89.3047
1.616, -1, -18.0717, 5.73692, 19.2865, -154.673, -94.692, 89.1595
1.62, -1, -18.1519, 5.71547, 19.2918, -154.698, -94.6832, 89.0142
1.624, -1, -18.2321, 5.69403, 19.2971, -154.723, -94.6744, 88.8688
1.628, -1, -18.3124, 5.67257, 19.3024, -154.748, -94.6656, 88.7235
1.632, -1, -18.3926, 5.65112, 19.3077, -154.773, -94.6568, 88.5781
1.636, -1, -18.4729, 5.62967, 19.313, -154.798, -94.648, 88.4327
1.64, -1, -18.5531, 5.60821, 19.3183, -154.823, -94.6392, 88.2873
1.644, -1, -18.6334, 5.58674, 19.3236, -154.848, -94.6304, 88.1419
1.648, -1, -18.7137, 5.56528, 19.3289, -154.873, -94.6216, 87.9965
1.652, -1, -18.794, 5.54381, 19.3342, -154.898, -94.6128, 87.851
1.656, -1, -18.8743, 5.52234, 19.3395, -154.923, -94.604, 87.7055
1.66, -1, -18.9546, 5.50087, 19.3448, -154.948, -94.5952, 87.56
1.664, -1, -19.0349, 5.47939, 19.3501, -154.973, -94.5864, 87.4145
1.668, -1, -19.1153, 5.45791, 19.3554, -154.998, -94.5776, 87.2689
1.672, -1, -19.1956, 5.43643, 19.3607, -155.023, -94.5687, 87.1234
1.676, -1, -19.276, 5.41494, 19.366, -155.048, -94.5599, 86.9778
1.68, -1, -19.3563, 5.39345, 19.3713, -155.073, -94.5511, 86.8322
1.684, -1, -19.4367, 5.37196, 19.3767, -155.098, -94.5423, 86.6866
1.688, -1, -19.5171, 5.35047, 19.382, -155.123, -94.5335, 86.5409
1.692, -1, -19.5975, 5.32897, 19.3873, -155.148, -94.5247, 86.3953
1.696, -1, -19.6779, 5.30747, 19.3926, -155.173, -94.5158, 86.2496
1.7, -1, -19.7583, 5.28596, 19.3979, -155.198, -94.507, 86.1039
1.704, -1, -19.8388, 5.26446, 19.4032, -155.223, -94.4982, 85.9581
1.708, -1, -19.9192, 5.24295, 19.4085, -155.248, -94.4893, 85.8124
1.712, -1, -19.9997, 5.22144, 19.4139, -155.273, -94.4805, 85.6666
1.716, -1, -20.0802, 5.19992, 19.4192, -155.298, -94.4717, 85.5208
1.72, -1, -20.1606, 5.1784, 19.4245, -155.323, -94.4629, 85.375
1.724, -1, -20.2411, 5.15688, 19.4298, -155.348, -94.454, 85.2292
1.728, -1, -20.3216, 5.13536, 19.4351, -155.373, -94.4452, 85.0834
1.732, -1, -20.4022, 5.11383, 19.4405, -155.398, -94.4364, 84.9375
1.736, -1, -20.4827, 5.0923, 19.4458, -155.423, -94.4275, 84.7916
1.74, -1, -20.5632, 5.07077, 19.4511, -155.448, -94.4187, 84.6457
1.744, -1, -20.6438, 5.04923, 19.4564, -155.473, -94.4099, 84.4998
1.748, -1, -20.7243, 5.02769, 19.4617, -155.498, -94.401, 84.3538
1.752, -1, -20.8049, 5.00615, 19.4671, -155.523, -94.3922, 84.2079
1.756, -1, -20.8855, 4.9846, 19.4724, -155.548, -94.3833, 84.0619
1.76, -1, -20.9661, 4.96306, 19.4777, -155.573, -94.3745, 83.9159
1.764, -1, -21.0467, 4.9415, 19.483, -155.598, -94.3657, 83.7698
1.768, -1, -21.1273, 4.91995, 19.4884, -155.623, -94.3568, 83.6238
1.772, -1, -21.2079, 4.89839, 19.4937, -155.648, -94.348, 83.4777
1.776, -1, -21.2886, 4.87683, 19.499, -155.673, -94.3391, 83.3316
1.78, -1, -21.3692, 4.85527, 19.5043, -155.698, -94.3303, 83.1855
1.784, -1, -21.4499, 4.8337, 19.5097, -155.723, -94.3214, 83.0394
1.788, -1, -21.5305, 4.81213, 19.515, -155.748, -94.3126, 82.8933
1.792, -1, -21.6112, 4.79056, 19.5203, -155.774, -94.3037, 82.7471
1.796, -1, -21.6919, 4.76899, 19.5257, -155.799, -94.2949, 82.6009
1.8, -1, -21.7726, 4.74741, 19.531, -155.824, -94.286, 82.4547
1.804, -1, -21.8533, 4.72583, 19.5363, -155.849, -94.2772, 82.3084
1.808, -1, -21.9341, 4.70424, 19.5417, -155.874, -94.2683, 82.1622
1.812, -1, -22.0148, 4.68266, 19.547, -155.899, -94.2595, 82.0159
1.816, -1, -22.0956, 4.66107, 19.5523, -155.924, -94.2506, 81.8696
1.82, -1, -22.1763, 4.63947, 19.5577, -155.949, -94.2417, 81.7233
1.824, -1, -22.2571, 4.61788, 19.563, -155.974, -94.2329, 81.577
1.828, -1, -22.3379, 4.59628, 19.5684, -155.999, -94.224, 81.4306
1.832, -1, -22.4187, 4.57467, 19.5737, -156.025, -94.2151, 81.2843
1.836, -1, -22.4995, 4.55307, 19.579, -156.05, -94.2063, 81.1379
1.84, -1, -22.5803, 4.53146, 19.5844, -156.075, -94.1974, 80.9914
1.844, -1, -22.6611, 4.50985, 19.5897, -156.1, -94.1885, 80.845
1.848, -1, -22.742, 4.48823, 19.5951, -156.125, -94.1797, 80.6985
1.852, -1, -22.8228, 4.46661, 19.6004, -156.15, -94.1708, 80.5521
1.856, -1, -22.9037, 4.44499, 19.6057, -156.175, -94.1619, 80.4055
1.86, -1, -22.9846, 4.42337, 19.6111, -156.2, -94.1531, 80.259
1.864, -1, -23.0655, 4.40174, 19.6164, -156.226, -94.1442, 80.1125
1.868, -1, -23.1464, 4.38011, 19.6218, -156.251, -94.1353, 79.9659
1.872, -1, -23.2273, 4.35848, 19.6271, -156.276, -94.1264, 79.8193
1.876, -1, -23.3082, 4.33684, 19.6325, -156.301, -94.1175, 79.6727
1.88, -1, -23.3891, 4.3152, 19.6378, -156.326, -94.1087, 79.5261
1.884, -1, -23.4701, 4.29355, 19.6432, -156.351, -94.0998, 79.3794
1.888, -1, -23.5511, 4.27191, 19.6485, -156.377, -94.0909, 79.2328
1.892, -1, -23.632, 4.25026, 19.6539, -156.402, -94.082, 79.0861
1.896, -1, -23.713, 4.22861, 19.6592, -156.427, -94.0731, 78.9393
1.9, -1, -23.794, 4.20695, 19.6646, -156.452, -94.0643, 78.7926
1.904, -1, -23.875, 4.18529, 19.6699, -156.477, -94.0554, 78.6458
1.908, -1, -23.956, 4.16363, 19.6753, -156.502, -94.0465, 78.4991
1.912, -1, -24.0371, 4.14196, 19.6806, -156.528, -94.0376, 78.3523
1.916, -1, -24.1181, 4.12029, 19.686, -156.553, -94.0287, 78.2054
1.92, -1, -24.1992, 4.09862, 19.6913, -156.578, -94.0198, 78.0586
1.924, -1, -24.2802, 4.07695, 19.6967, -156.603, -94.0109, 77.9117
1.928, -1, -24.3613, 4.05527, 19.702, -156.628, -94.002, 77.7648
1.932, -1, -24.4424, 4.03359, 19.7074, -156.654, -93.9931, 77.6179
1.936, -1, -24.5235, 4.0119, 19.7128, -156.679, -93.9842, 77.471
1.94, -1, -24.6046, 3.99021, 19.7181, -156.704, -93.9753, 77.324
1.944, -1, -24.6857, 3.96852, 19.7235, -156.729, -93.9664, 77.1771
1.948, -1, -24.7669, 3.94683, 19.7288, -156.754, -93.9575, 77.0301
1.952, -1, -24.848, 3.92513, 19.7342, -156.78, -93.9486, 76.883
1.956, -1, -24.9292, 3.90343, 19.7396, -156.805, -93.9397, 76.736
1.96, -1, -25.0104, 3.88173, 19.7449, -156.83, -93.9308, 76.5889
1.964, -1, -25.0916, 3.86002, 19.7503, -156.855, -93.9219, 76.4419
1.968, -1, -25.1728, 3.83831, 19.7557, -156.881, -93.913, 76.2948
1.972, -1, -25.254, 3.8166, 19.761, -156.906, -93.9041, 76.1476
1.976, -1, -25.3352, 3.79488, 19.7664, -156.931, -93.8952, 76.0005
1.98, -1, -25.4164, 3.77316, 19.7718, -156.956, -93.8863, 75.8533
1.984, -1, -25.4977, 3.75144, 19.7771, -156.982, -93.8773, 75.7061
1.988, -1, -25.5789, 3.72971, 19.7825, -157.007, -93.8684, 75.5589
1.992, -1, -25.6602, 3.70798, 19.7879, -157.032, -93.8595, 75.4117
1.996, -1, -25.7415, 3.68625, 19.7932, -157.057, -93.8506, 75.2644
1.999, -1, -25.8228, 3.66452, 19.7986, -157.083, -93.8417, 75.1171
2.004, -1, -25.9041, 3.64278, 19.804, -157.108, -93.8328, 74.9699
2.008, -1, -25.9854, 3.62104, 19.8094, -157.133, -93.8238, 74.8225
2.012, -1, -26.0667, 3.59929, 19.8147, -157.158, -93.8149, 74.6752
2.015, -1, -26.1481, 3.57754, 19.8201, -157.184, -93.806, 74.5278
2.019, -1, -26.2294, 3.55579, 19.8255, -157.209, -93.7971, 74.3804
2.024, -1, -26.3108, 3.53404, 19.8309, -157.234, -93.7881, 74.233
2.028, -1, -26.3922, 3.51228, 19.8362, -157.26, -93.7792, 74.0856
2.031, -1, -26.4735, 3.49052, 19.8416, -157.285, -93.7703, 73.9382
2.036, -1, -26.5549, 3.46876, 19.847, -157.31, -93.7614, 73.7907
2.04, -1, -26.6364, 3.44699, 19.8524, -157.335, -93.7524, 73.6432
2.044, -1, -26.7178, 3.42522, 19.8578, -157.361, -93.7435, 73.4957
2.048, -1, -26.7992, 3.40344, 19.8631, -157.386, -93.7346, 73.3482
2.051, -1, -26.8807, 3.38167, 19.8685, -157.411, -93.7256, 73.2006
2.055, -1, -26.9621, 3.35989, 19.8739, -157.437, -93.7167, 73.053
2.06, -1, -27.0436, 3.3381, 19.8793, -157.462, -93.7077, 72.9054
2.064, -1, -27.1251, 3.31632, 19.8847, -157.487, -93.6988, 72.7578
2.068, -1, -27.2066, 3.29453, 19.8901, -157.513, -93.6899, 72.6102
2.071, -1, -27.2881, 3.27274, 19.8954, -157.538, -93.6809, 72.4625
2.076, -1, -27.3696, 3.25094, 19.9008, -157.563, -93.672, 72.3148
2.08, -1, -27.4511, 3.22914, 19.9062, -157.589, -93.663, 72.1671
2.084, -1, -27.5327, 3.20734, 19.9116, -157.614, -93.6541, 72.0194
2.087, -1, -27.6142, 3.18553, 19.917, -157.639, -93.6451, 71.8716
2.092, -1, -27.6958, 3.16372, 19.9224, -157.665, -93.6362, 71.7238
2.096, -1, -27.7774, 3.14191, 19.9278, -157.69, -93.6272, 71.576
2.1, -1, -27.859, 3.1201, 19.9332, -157.716, -93.6183, 71.4282
2.104, -1, -27.9406, 3.09828, 19.9385, -157.741, -93.6093, 71.2804
2.107, -1, -28.0222, 3.07646, 19.9439, -157.766, -93.6004, 71.1325
2.111, -1, -28.1038, 3.05463, 19.9493, -157.792, -93.5914, 70.9846
2.116, -1, -28.1855, 3.0328, 19.9547, -157.817, -93.5825, 70.8367
2.12, -1, -28.2671, 3.01097, 19.9601, -157.842, -93.5735, 70.6888
2.124, -1, -28.3488, 2.98914, 19.9655, -157.868, -93.5646, 70.5409
2.127, -1, -28.4304, 2.9673, 19.9709, -157.893, -93.5556, 70.3929
2.132, -1, -28.5121, 2.94546, 19.9763, -157.919, -93.5466, 70.2449
2.136, -1, -28.5938, 2.92362, 19.9817, -157.944, -93.5377, 70.0969
2.14, -1, -28.6755, 2.90177, 19.9871, -157.969, -93.5287, 69.9489
2.143, -1, -28.7573, 2.87992, 19.9925, -157.995, -93.5197, 69.8008
2.148, -1, -28.839, 2.85806, 19.9979, -158.02, -93.5108, 69.6527
2.152, -1, -28.9208, 2.83621, 20.0033, -158.046, -93.5018, 69.5046
2.156, -1, -29.0025, 2.81435, 20.0087, -158.071, -93.4928, 69.3565
2.16, -1, -29.0843, 2.79248, 20.0141, -158.096, -93.4839, 69.2084
2.163, -1, -29.1661, 2.77062, 20.0195, -158.122, -93.4749, 69.0602
2.168, -1, -29.2479, 2.74875, 20.0249, -158.147, -93.4659, 68.912
2.172, -1, -29.3297, 2.72688, 20.0303, -158.173, -93.4569, 68.7638
2.176, -1, -29.4115, 2.705, 20.0357, -158.198, -93.448, 68.6156
2.179, -1, -29.4933, 2.68312, 20.0411, -158.224, -93.439, 68.4673
2.184, -1, -29.5752, 2.66124, 20.0466, -158.249, -93.43, 68.319
2.188, -1, -29.657, 2.63935, 20.052, -158.274, -93.421, 68.1708
2.192, -1, -29.7389, 2.61746, 20.0574, -158.3, -93.412, 68.0224
2.196, -1, -29.8208, 2.59557, 20.0628, -158.325, -93.4031, 67.8741
2.199, -1, -29.9027, 2.57367, 20.0682, -158.351, -93.3941, 67.7257
2.204, -1, -29.9846, 2.55177, 20.0736, -158.376, -93.3851, 67.5773
2.208, -1, -30.0665, 2.52987, 20.079, -158.402, -93.3761, 67.4289
2.212, -1, -30.1484, 2.50797, 20.0844, -158.427, -93.3671, 67.2805
2.216, -1, -30.2304, 2.48606, 20.0898, -158.453, -93.3581, 67.1321
2.219, -1, -30.3123, 2.46414, 20.0953, -158.478, -93.3491, 66.9836
2.224, -1, -30.3943, 2.44223, 20.1007, -158.504, -93.3401, 66.8351
2.228, -1, -30.4763, 2.42031, 20.1061, -158.529, -93.3311, 66.6866
2.232, -1, -30.5583, 2.39839, 20.1115, -158.555, -93.3222, 66.538
2.235, -1, -30.6403, 2.37646, 20.1169, -158.58, -93.3132, 66.3895
2.24, -1, -30.7223, 2.35453, 20.1224, -158.606, -93.3041, 66.2409
2.244, -1, -30.8043, 2.3326, 20.1278, -158.631, -93.2952, 66.0922
2.248, -1, -30.8864, 2.31067, 20.1332, -158.657, -93.2861, 65.9436
2.252, -1, -30.9684, 2.28873, 20.1386, -158.682, -93.2771, 65.795
2.255, -1, -31.0505, 2.26678, 20.144, -158.708, -93.2681, 65.6463
2.259, -1, -31.1326, 2.24484, 20.1495, -158.733, -93.2591, 65.4976
2.264, -1, -31.2146, 2.22289, 20.1549, -158.759, -93.2501, 65.3489
2.268, -1, -31.2968, 2.20094, 20.1603, -158.784, -93.2411, 65.2001
2.272, -1, -31.3789, 2.17898, 20.1657, -158.81, -93.2321, 65.0513
2.275, -1, -31.461, 2.15702, 20.1712, -158.835, -93.2231, 64.9025
2.28, -1, -31.5431, 2.13506, 20.1766, -158.861, -93.2141, 64.7537
2.284, -1, -31.6253, 2.11309, 20.182, -158.886, -93.2051, 64.6049
2.288, -1, -31.7075, 2.09113, 20.1874, -158.912, -93.1961, 64.456
2.291, -1, -31.7896, 2.06915, 20.1929, -158.937, -93.187, 64.3072
2.296, -1, -31.8718, 2.04718, 20.1983, -158.963, -93.178, 64.1582
2.3, -1, -31.954, 2.0252, 20.2037, -158.988, -93.169, 64.0093
2.304, -1, -32.0363, 2.00322, 20.2092, -159.014, -93.16, 63.8604
2.308, -1, -32.1185, 1.98123, 20.2146, -159.04, -93.151, 63.7114
2.311, -1, -32.2007, 1.95924, 20.22, -159.065, -93.142, 63.5624
2.316, -1, -32.283, 1.93725, 20.2255, -159.091, -93.1329, 63.4134
2.32, -1, -32.3652, 1.91525, 20.2309, -159.116, -93.1239, 63.2644
2.324, -1, -32.4475, 1.89326, 20.2363, -159.142, -93.1149, 63.1153
2.328, -1, -32.5298, 1.87125, 20.2418, -159.167, -93.1059, 62.9662
2.331, -1, -32.6121, 1.84925, 20.2472, -159.193, -93.0968, 62.8171
2.336, -1, -32.6944, 1.82724, 20.2527, -159.219, -93.0878, 62.668
2.34, -1, -32.7768, 1.80523, 20.2581, -159.244, -93.0788, 62.5188
2.344, -1, -32.8591, 1.78321, 20.2635, -159.27, -93.0697, 62.3696
2.347, -1, -32.9415, 1.76119, 20.269, -159.295, -93.0607, 62.2205
2.352, -1, -33.0238, 1.73917, 20.2744, -159.321, -93.0517, 62.0712
2.356, -1, -33.1062, 1.71714, 20.2799, -159.347, -93.0426, 61.922
2.36, -1, -33.1886, 1.69512, 20.2853, -159.372, -93.0336, 61.7727
2.364, -1, -33.271, 1.67308, 20.2908, -159.398, -93.0245, 61.6234
2.367, -1, -33.3534, 1.65105, 20.2962, -159.423, -93.0155, 61.4741
2.372, -1, -33.4358, 1.62901, 20.3016, -159.449, -93.0064, 61.3248
2.376, -1, -33.5183, 1.60697, 20.3071, -159.475, -92.9974, 61.1754
2.38, -1, -33.6007, 1.58492, 20.3125, -159.5, -92.9884, 61.0261
2.383, -1, -33.6832, 1.56287, 20.318, -159.526, -92.9793, 60.8767
2.388, -1, -33.7657, 1.54082, 20.3234, -159.551, -92.9703, 60.7272
2.392, -1, -33.8482, 1.51877, 20.3289, -159.577, -92.9612, 60.5778
2.396, -1, -33.9307, 1.49671, 20.3343, -159.603, -92.9522, 60.4283
2.4, -1, -34.0132, 1.47465, 20.3398, -159.628, -92.9431, 60.2788
2.403, -1, -34.0957, 1.45258, 20.3452, -159.654, -92.9341, 60.1293
2.408, -1, -34.1782, 1.43051, 20.3507, -159.68, -92.925, 59.9798
2.412, -1, -34.2608, 1.40844, 20.3562, -159.705, -92.9159, 59.8302
2.416, -1, -34.3434, 1.38637, 20.3616, -159.731, -92.9069, 59.6807
2.42, -1, -34.4259, 1.36429, 20.3671, -159.757, -92.8978, 59.5311
2.423, -1, -34.5085, 1.3422, 20.3725, -159.782, -92.8888, 59.3814
2.428, -1, -34.5911, 1.32012, 20.378, -159.808, -92.8797, 59.2318
2.432, -1, -34.6737, 1.29803, 20.3834, -159.834, -92.8706, 59.0821
2.436, -1, -34.7564, 1.27594, 20.3889, -159.859, -92.8616, 58.9324
2.439, -1, -34.839, 1.25384, 20.3944, -159.885, -92.8525, 58.7827
2.444, -1, -34.9217, 1.23174, 20.3998, -159.911, -92.8434, 58.633
2.448, -1, -35.0043, 1.20964, 20.4053, -159.937, -92.8344, 58.4832
2.452, -1, -35.087, 1.18754, 20.4107, -159.962, -92.8253, 58.3334
2.456, -1, -35.1697, 1.16543, 20.4162, -159.988, -92.8162, 58.1836
2.459, -1, -35.2524, 1.14332, 20.4217, -160.014, -92.8071, 58.0338
2.464, -1, -35.3351, 1.12121, 20.4271, -160.039, -92.7981, 57.8839
2.468, -1, -35.4176, 1.09912, 20.4326, -160.065, -92.789, 57.7341
2.472, -1, -35.4998, 1.07708, 20.4381, -160.091, -92.7799, 57.5842
2.476, -1, -35.5816, 1.05512, 20.4437, -160.116, -92.7708, 57.4344
2.479, -1, -35.6629, 1.03329, 20.4493, -160.142, -92.7618, 57.2847
2.484, -1, -35.7434, 1.01162, 20.455, -160.168, -92.7527, 57.1353
2.488, -1, -35.8231, 0.990159, 20.4608, -160.193, -92.7437, 56.9863
2.492, -1, -35.9018, 0.968943, 20.4666, -160.219, -92.7347, 56.8381
2.495, -1, -35.9795, 0.948033, 20.4725, -160.244, -92.7257, 56.691
2.5, -1, -36.056, 0.927506, 20.4784, -160.269, -92.7169, 56.5453
2.504, -1, -36.1308, 0.907454, 20.4844, -160.293, -92.7082, 56.4017
2.508, -1, -36.2037, 0.887966, 20.4903, -160.318, -92.6996, 56.2606
2.512, -1, -36.2743, 0.869119, 20.4963, -160.341, -92.6912, 56.1228
2.515, -1, -36.3425, 0.850974, 20.5022, -160.364, -92.683, 55.989
2.52, -1, -36.408, 0.833573, 20.5079, -160.386, -92.6751, 55.8601
2.524, -1, -36.4706, 0.816949, 20.5133, -160.407, -92.6676, 55.7367
2.528, -1, -36.5302, 0.801134, 20.5185, -160.427, -92.6605, 55.6198
2.531, -1, -36.5866, 0.786178, 20.5232, -160.446, -92.6538, 55.5101
2.536, -1, -36.6395, 0.772138, 20.5276, -160.463, -92.6476, 55.4081
2.54, -1, -36.6888, 0.759062, 20.5314, -160.48, -92.6419, 55.3144
2.544, -1, -36.7343, 0.74697, 20.5348, -160.494, -92.6367, 55.2294
2.548, -1, -36.7761, 0.735854, 20.5376, -160.507, -92.6321, 55.1531
2.551, -1, -36.8143, 0.725688, 20.5398, -160.519, -92.628, 55.0858
2.556, -1, -36.8489, 0.716444, 20.5415, -160.529, -92.6245, 55.0273
2.56, -1, -36.8801, 0.708104, 20.5427, -160.537, -92.6215, 54.9771
2.564, -1, -36.9079, 0.700658, 20.5434, -160.545, -92.619, 54.9348
2.568, -1, -36.9323, 0.694098, 20.5438, -160.551, -92.6169, 54.8999
2.571, -1, -36.9535, 0.688406, 20.5438, -160.556, -92.6152, 54.8714
2.576, -1, -36.9717, 0.683543, 20.5436, -160.56, -92.6139, 54.8487
2.58, -1, -36.9872, 0.679445, 20.5433, -160.563, -92.6129, 54.8309
2.584, -1, -37.0002, 0.676033, 20.5429, -160.565, -92.6121, 54.8173
2.587, -1, -37.0112, 0.67323, 20.5424, -160.567, -92.6115, 54.8072
2.592, -1, -37.0203, 0.670964, 20.5419, -160.568, -92.6111, 54.7997
2.596, -1, -37.0277, 0.669174, 20.5414, -160.569, -92.6108, 54.7944
2.6, -1, -37.0336, 0.667799, 20.541, -160.57, -92.6106, 54.7907
2.604, 2, -37.038, 0.666779, 20.5407, -160.57, -92.6105, 54.7881
2.607, 2, -37.0413, 0.66605, 20.5404, -160.571, -92.6104, 54.7864
2.612, 2, -37.0436, 0.665545, 20.5402, -160.571, -92.6103, 54.7852
2.616, 2, -37.0451, 0.665202, 20.5401, -160.571, -92.6103, 54.7844
2.62, 2, -37.0462, 0.664969, 20.54, -160.571, -92.6102, 54.7839
2.624, 2, -37.0469, 0.664811, 20.54, -160.571, -92.6102, 54.7835
2.627, 2, -37.0474, 0.664704, 20.5399, -160.571, -92.6102, 54.7832
2.632, 2, -37.0477, 0.664632, 20.5399, -160.571, -92.6102, 54.7831
2.636, 2, -37.048, 0.664583, 20.5399, -160.571, -92.6102, 54.783
2.64, 2, -37.0481, 0.664549, 20.5399, -160.571, -92.6102, 54.7829
2.643, 2, -37.0482, 0.664527, 20.5399, -160.571, -92.6102, 54.7828
2.648, 2, -37.0483, 0.664512, 20.5399, -160.571, -92.6102, 54.7828
2.652, 2, -37.0483, 0.664501, 20.5399, -160.571, -92.6102, 54.7828
2.656, 2, -37.0484, 0.664494, 20.5399, -160.571, -92.6102, 54.7827
2.66, 2, -37.0484, 0.66449, 20.5399, -160.571, -92.6102, 54.7827
2.663, 2, -37.0484, 0.664486, 20.5399, -160.571, -92.6102, 54.7827
2.668, 2, -37.0484, 0.664484, 20.5399, -160.571, -92.6102, 54.7827
2.672, 2, -37.0484, 0.664483, 20.5399, -160.571, -92.6102, 54.7827
2.676, 2, -37.0484, 0.664482, 20.5399, -160.571, -92.6102, 54.7827
2.679, 2, -37.0484, 0.664481, 20.5399, -160.571, -92.6102, 54.7827
2.684, 2, -37.0484, 0.664481, 20.5399, -160.571, -92.6102, 54.7827
2.688, 2, -37.0484, 0.66448, 20.5399, -160.571, -92.6102, 54.7827
2.692, 2, -37.0484, 0.66448, 20.5399, -160.571, -92.6102, 54.7827
2.696, 2, -37.0484, 0.66448, 20.5399, -160.571, -92.6102, 54.7827
2.699, 2, -37.0484, 0.66448, 20.5399, -160.571, -92.6102, 54.7827
2.704, 2, -37.0484, 0.66448, 20.5399, -160.571, -92.6102, 54.7827
2.708, 2, -37.0484, 0.66448, 20.5399, -160.571, -92.6102, 54.7827
2.712, 2, -37.0484, 0.66448, 20.5399, -160.571, -92.6102, 54.7827
2.716, 2, -37.0484, 0.66448, 20.5399, -160.571, -92.6102, 54.7827
2.719, 2, -37.0484, 0.66448, 20.5399, -160.571, -92.6102, 54.7827
2.724, 2, -37.0484, 0.66448, 20.5399, -160.571, -92.6102, 54.7827
2.728, 2, -37.0484, 0.66448, 20.5399, -160.571, -92.6102, 54.7827
2.732, 2, -37.0484, 0.66448, 20.5399, -160.571, -92.6102, 54.7827
2.735, 2, -37.0484, 0.66448, 20.5399, -160.571, -92.6102, 54.7827
2.74, 2, -37.0484, 0.66448, 20.5399, -160.571, -92.6102, 54.7827
2.744, 2, -37.0484, 0.66448, 20.5399, -160.571, -92.6102, 54.7827
2.748, 2, -37.0484, 0.66448, 20.5399, -160.571, -92.6102, 54.7827
2.752, 2, -37.0484, 0.66448, 20.5399, -160.571, -92.6102, 54.7827
2.755, 2, -37.0484, 0.66448, 20.5399, -160.571, -92.6102, 54.7827
2.76, 2, -37.0484, 0.66448, 20.5399, -160.571, -92.6102, 54.7827
2.764, 2, -37.0484, 0.66448, 20.5399, -160.571, -92.6102, 54.7827
2.768, 2, -37.0484, 0.66448, 20.5399, -160.571, -92.6102, 54.7827
2.772, 2, -37.0484, 0.66448, 20.5399, -160.571, -92.6102, 54.7827
2.775, 2, -37.0484, 0.66448, 20.5399, -160.571, -92.6102, 54.7827
2.78, 2, -37.0484, 0.66448, 20.5399, -160.571, -92.6102, 54.7827
2.784, 2, -37.0484, 0.66448, 20.5399, -160.571, -92.6102, 54.7827
2.788, 2, -37.0484, 0.66448, 20.5399, -160.571, -92.6102, 54.7827
2.791, 2, -37.0484, 0.66448, 20.5399, -160.571, -92.6102, 54.7827
2.796, 2, -37.0484, 0.66448, 20.5399, -160.571, -92.6102, 54.7827
2.8, 2, -37.0484, 0.66448, 20.5399, -160.571, -92.6102, 54.7827
2.804, 2, -37.0484, 0.66448, 20.5399, -160.571, -92.6102, 54.7827
2.808, 2, -37.0484, 0.66448, 20.5399, -160.571, -92.6102, 54.7827
2.811, 2, -37.0484, 0.66448, 20.5399, -160.571, -92.6102, 54.7827
2.816, 2, -37.0484, 0.66448, 20.5399, -160.571, -92.6102, 54.7827
2.82, 2, -37.0484, 0.66448, 20.5399, -160.571, -92.6102, 54.7827
2.824, 2, -37.0484, 0.66448, 20.5399, -160.571, -92.6102, 54.7827
2.828, 2, -37.0484, 0.66448, 20.5399, -160.571, -92.6102, 54.7827
2.831, 2, -37.0484, 0.66448, 20.5399, -160.571, -92.6102, 54.7827
2.836, 2, -37.0484, 0.66448, 20.5399, -160.571, -92.6102, 54.7827
2.84, 2, -37.0484, 0.66448, 20.5399, -160.571, -92.6102, 54.7827
2.844, 2, -37.0484, 0.66448, 20.5399, -160.571, -92.6102, 54.7827
2.847, 2, -37.0484, 0.66448, 20.5399, -160.571, -92.6102, 54.7827
2.852, 2, -37.0484, 0.66448, 20.5399, -160.571, -92.6102, 54.7827
2.856, 2, -37.0484, 0.66448, 20.5399, -160.571, -92.6102, 54.7827
2.86, 2, -37.0484, 0.66448, 20.5399, -160.571, -92.6102, 54.7827
2.864, 2, -37.0484, 0.66448, 20.5399, -160.571, -92.6102, 54.7827
2.867, 2, -37.0484, 0.66448, 20.5399, -160.571, -92.6102, 54.7827
2.872, 2, -37.0484, 0.66448, 20.5399, -160.571, -92.6102, 54.7827
2.876, 2, -37.0484, 0.66448, 20.5399, -160.571, -92.6102, 54.7827
2.88, 2, -37.0484, 0.66448, 20.5399, -160.571, -92.6102, 54.7827
2.883, 2, -37.0484, 0.66448, 20.5399, -160.571, -92.6102, 54.7827
2.888, 2, -37.0484, 0.66448, 20.5399, -160.571, -92.6102, 54.7827
2.892, 2, -37.0484, 0.66448, 20.5399, -160.571, -92.6102, 54.7827
2.896, 2, -37.0484, 0.66448, 20.5399, -160.571, -92.6102, 54.7827
2.9, 2, -37.0484, 0.66448, 20.5399, -160.571, -92.6102, 54.7827
2.903, 2, -37.0484, 0.66448, 20.5399, -160.571, -92.6102, 54.7827
2.908, 2, -37.0484, 0.66448, 20.5399, -160.571, -92.6102, 54.7827
2.912, 2, -37.0484, 0.66448, 20.5399, -160.571, -92.6102, 54.7827
2.916, 2, -37.0484, 0.66448, 20.5399, -160.571, -92.6102, 54.7827
2.92, 2, -37.0484, 0.66448, 20.5399, -160.571, -92.6102, 54.7827
2.923, 2, -37.0484, 0.66448, 20.5399, -160.571, -92.6102, 54.7827
2.928, 2, -37.0484, 0.66448, 20.5399, -160.571, -92.6102, 54.7827
2.932, 2, -37.0484, 0.66448, 20.5399, -160.571, -92.6102, 54.7827
2.936, 2, -37.0484, 0.66448, 20.5399, -160.571, -92.6102, 54.7827
2.939, 2, -37.0484, 0.66448, 20.5399, -160.571, -92.6102, 54.7827
2.944, 2, -37.0484, 0.66448, 20.5399, -160.571, -92.6102, 54.7827
2.948, 2, -37.0484, 0.66448, 20.5399, -160.571, -92.6102, 54.7827
2.952, 2, -37.0484, 0.66448, 20.5399, -160.571, -92.6102, 54.7827
2.956, 2, -37.0484, 0.66448, 20.5399, -160.571, -92.6102, 54.7827
2.959, 2, -37.0484, 0.66448, 20.5399, -160.571, -92.6102, 54.7827
2.964, 2, -37.0484, 0.66448, 20.5399, -160.571, -92.6102, 54.7827
2.968, 2, -37.0484, 0.66448, 20.5399, -160.571, -92.6102, 54.7827
2.972, 2, -37.0484, 0.66448, 20.5399, -160.571, -92.6102, 54.7827
2.976, 2, -37.0484, 0.66448, 20.5399, -160.571, -92.6102, 54.7827
2.98, 2, -37.0484, 0.66448, 20.5399, -160.571, -92.6102, 54.7827
2.984, 2, -37.0484, 0.66448, 20.5399, -160.571, -92.6102, 54.7827
2.988, 2, -37.0484, 0.66448, 20.5399, -160.571, -92.6102, 54.7827
2.992, 2, -37.0484, 0.66448, 20.5399, -160.571, -92.6102, 54.7827
2.995, 2, -37.0484, 0.66448, 20.5399, -160.571, -92.6102, 54.7827
3, 2, -37.0484, 0.66448, 20.5399, -160.571, -92.6102, 54.7827
3.004, 2, -37.0484, 0.66448, 20.5399, -160.571, -92.6102, 54.7827
3.008, 2, -37.0484, 0.66448, 20.5399, -160.571, -92.6102, 54.7827
3.012, 2, -37.0484, 0.66448, 20.5399, -160.571, -92.6102, 54.7827
3.015, 2, -37.0484, 0.66448, 20.5399, -160.571, -92.6102, 54.7827
3.02, 2, -37.0484, 0.66448, 20.5399, -160.571, -92.6102, 54.7827
3.024, 2, -37.0484, 0.66448, 20.5399, -160.571, -92.6102, 54.7827
3.028, 2, -37.0484, 0.66448, 20.5399, -160.571, -92.6102, 54.7827
3.031, 2, -37.0484, 0.66448, 20.5399, -160.571, -92.6102, 54.7827
3.036, 2, -37.0484, 0.66448, 20.5399, -160.571, -92.6102, 54.7827
3.04, 2, -37.0484, 0.66448, 20.5399, -160.571, -92.6102, 54.7827
3.044, 2, -37.0484, 0.66448, 20.5399, -160.571, -92.6102, 54.7827
3.048, 2, -37.0484, 0.66448, 20.5399, -160.571, -92.6102, 54.7827
3.051, 2, -37.0484, 0.66448, 20.5399, -160.571, -92.6102, 54.7827
3.056, 2, -37.0484, 0.66448, 20.5399, -160.571, -92.6102, 54.7827
3.06, 2, -37.0484, 0.66448, 20.5399, -160.571, -92.6102, 54.7827
3.064, 2, -37.0484, 0.66448, 20.5399, -160.571, -92.6102, 54.7827
3.068, 2, -37.0484, 0.66448, 20.5399, -160.571, -92.6102, 54.7827
3.071, 2, -37.0484, 0.66448, 20.5399, -160.571, -92.6102, 54.7827
3.076, 2, -37.0484, 0.66448, 20.5399, -160.571, -92.6102, 54.7827
3.08, 2, -37.0484, 0.66448, 20.5399, -160.571, -92.6102, 54.7827
3.084, 2, -37.0484, 0.66448, 20.5399, -160.571, -92.6102, 54.7827
3.087, 2, -37.0484, 0.66448, 20.5399, -160.571, -92.6102, 54.7827
3.092, 2, -37.0484, 0.66448, 20.5399, -160.571, -92.6102, 54.7827
3.096, 2, -37.0484, 0.66448, 20.5399, -160.571, -92.6102, 54.7827
3.1, 2, -37.0484, 0.66448, 20.5399, -160.571, -92.6102, 54.7827
3.104, 2, -37.0484, 0.66448, 20.5399, -160.571, -92.6102, 54.7827
3.107, 2, -37.0484, 0.66448, 20.5399, -160.571, -92.6102, 54.7827
3.112, 2, -37.0484, 0.66448, 20.5399, -160.571, -92.6102, 54.7827
3.116, 2, -37.0484, 0.66448, 20.5399, -160.571, -92.6102, 54.7827
3.12, 2, -37.0484, 0.66448, 20.5399, -160.571, -92.6102, 54.7827
3.124, 2, -37.0484, 0.66448, 20.5399, -160.571, -92.6102, 54.7827
3.128, 2, -37.0484, 0.66448, 20.5399, -160.571, -92.6102, 54.7827
3.132, 2, -37.0484, 0.66448, 20.5399, -160.571, -92.6102, 54.7827
3.136, 2, -37.0484, 0.66448, 20.5399, -160.571, -92.6102, 54.7827
3.14, 2, -37.0484, 0.66448, 20.5399, -160.571, -92.6102, 54.7827
3.143, 2, -37.0484, 0.66448, 20.5399, -160.571, -92.6102, 54.7827
3.148, 2, -37.0484, 0.66448, 20.5399, -160.571, -92.6102, 54.7827
3.152, 2, -37.0484, 0.66448, 20.5399, -160.571, -92.6102, 54.7827
3.156, 2, -37.0484, 0.66448, 20.5399, -160.571, -92.6102, 54.7827
3.16, 2, -37.0484, 0.66448, 20.5399, -160.571, -92.6102, 54.7827
3.163, 2, -37.0484, 0.66448, 20.5399, -160.571, -92.6102, 54.7827
3.168, 2, -37.0484, 0.66448, 20.5399, -160.571, -92.6102, 54.7827
3.172, 2, -37.0484, 0.66448, 20.5399, -160.571, -92.6102, 54.7827
3.176, 2, -37.0484, 0.66448, 20.5399, -160.571, -92.6102, 54.7827
3.179, 2, -37.0484, 0.66448, 20.5399, -160.571, -92.6102, 54.7827
3.184, 2, -37.0484, 0.66448, 20.5399, -160.571, -92.6102, 54.7827
3.188, 2, -37.0484, 0.66448, 20.5399, -160.571, -92.6102, 54.7827
3.192, 2, -37.0484, 0.66448, 20.5399, -160.571, -92.6102, 54.7827
3.196, 2, -37.0484, 0.66448, 20.5399, -160.571, -92.6102, 54.7827
3.199, 2, -37.0484, 0.66448, 20.5399, -160.571, -92.6102, 54.7827
3.204, 2, -37.0484, 0.66448, 20.5399, -160.571, -92.6102, 54.7827
3.208, 2, -37.0484, 0.66448, 20.5399, -160.571, -92.6102, 54.7827
3.212, 2, -37.0484, 0.66448, 20.5399, -160.571, -92.6102, 54.7827
3.216, 2, -37.0484, 0.66448, 20.5399, -160.571, -92.6102, 54.7827
3.22, 2, -37.0484, 0.66448, 20.5399, -160.571, -92.6102, 54.7827
3.224, 2, -37.0484, 0.66448, 20.5399, -160.571, -92.6102, 54.7827
3.228, 2, -37.0484, 0.66448, 20.5399, -160.571, -92.6102, 54.7827
3.232, 2, -37.0484, 0.66448, 20.5399, -160.571, -92.6102, 54.7827
3.235, 2, -37.0484, 0.66448, 20.5399, -160.571, -92.6102, 54.7827
3.24, 2, -37.0484, 0.66448, 20.5399, -160.571, -92.6102, 54.7827
3.244, 2, -37.0484, 0.66448, 20.5399, -160.571, -92.6102, 54.7827
3.248, 2, -37.0484, 0.66448, 20.5399, -160.571, -92.6102, 54.7827
3.252, 2, -37.0484, 0.66448, 20.5399, -160.571, -92.6102, 54.7827
3.255, 2, -37.0484, 0.66448, 20.5399, -160.571, -92.6102, 54.7827
3.26, 2, -37.0484, 0.66448, 20.5399, -160.571, -92.6102, 54.7827
3.264, 2, -37.0484, 0.66448, 20.5399, -160.571, -92.6102, 54.7827
3.268, 2, -37.0484, 0.66448, 20.5399, -160.571, -92.6102, 54.7827
3.272, 2, -37.0484, 0.66448, 20.5399, -160.571, -92.6102, 54.7827
3.276, 2, -37.0484, 0.66448, 20.5399, -160.571, -92.6102, 54.7827
3.28, 2, -37.0484, 0.66448, 20.5399, -160.571, -92.6102, 54.7827
3.284, 2, -37.0484, 0.66448, 20.5399, -160.571, -92.6102, 54.7827
3.288, 2, -37.0484, 0.66448, 20.5399, -160.571, -92.6102, 54.7827
3.291, 2, -37.0484, 0.66448, 20.5399, -160.571, -92.6102, 54.7827
3.296, 2, -37.0484, 0.66448, 20.5399, -160.571, -92.6102, 54.7827
3.3, 2, -37.0484, 0.66448, 20.5399, -160.571, -92.6102, 54.7827
3.304, 2, -37.0484, 0.66448, 20.5399, -160.571, -92.6102, 54.7827
3.308, 2, -37.0484, 0.66448, 20.5399, -160.571, -92.6102, 54.7827
3.312, 2, -37.0484, 0.66448, 20.5399, -160.571, -92.6102, 54.7827
3.316, 2, -37.0484, 0.66448, 20.5399, -160.571, -92.6102, 54.7827
3.32, 2, -37.0484, 0.66448, 20.5399, -160.571, -92.6102, 54.7827
3.324, 2, -37.0484, 0.66448, 20.5399, -160.571, -92.6102, 54.7827
3.328, 2, -37.0484, 0.66448, 20.5399, -160.571, -92.6102, 54.7827
3.332, 2, -37.0484, 0.66448, 20.5399, -160.571, -92.6102, 54.7827
3.336, 2, -37.0484, 0.66448, 20.5399, -160.571, -92.6102, 54.7827
3.34, 2, -37.0484, 0.66448, 20.5399, -160.571, -92.6102, 54.7827
3.344, 2, -37.0484, 0.66448, 20.5399, -160.571, -92.6102, 54.7827
3.347, 2, -37.0484, 0.66448, 20.5399, -160.571, -92.6102, 54.7827
3.352, 2, -37.0484, 0.66448, 20.5399, -160.571, -92.6102, 54.7827
3.356, 2, -37.0484, 0.66448, 20.5399, -160.571, -92.6102, 54.7827
3.36, 2, -37.0484, 0.66448, 20.5399, -160.571, -92.6102, 54.7827
3.364, 2, -37.0484, 0.66448, 20.5399, -160.571, -92.6102, 54.7827
3.368, 2, -37.0484, 0.66448, 20.5399, -160.571, -92.6102, 54.7827
3.372, 2, -37.0484, 0.66448, 20.5399, -160.571, -92.6102, 54.7827
3.376, 2, -37.0484, 0.66448, 20.5399, -160.571, -92.6102, 54.7827
3.38, 2, -37.0484, 0.66448, 20.5399, -160.571, -92.6102, 54.7827
3.383, 2, -37.0484, 0.66448, 20.5399, -160.571, -92.6102, 54.7827
3.388, 2, -37.0484, 0.66448, 20.5399, -160.571, -92.6102, 54.7827
3.392, 2, -37.0484, 0.66448, 20.5399, -160.571, -92.6102, 54.7827
3.396, 2, -37.0484, 0.66448, 20.5399, -160.571, -92.6102, 54.7827
3.4, 2, -37.0484, 0.66448, 20.5399, -160.571, -92.6102, 54.7827
3.403, 2, -37.0484, 0.66448, 20.5399, -160.571, -92.6102, 54.7827
3.408, 2, -37.0484, 0.66448, 20.5399, -160.571, -92.6102, 54.7827
3.412, 2, -37.0484, 0.66448, 20.5399, -160.571, -92.6102, 54.7827
3.416, 2, -37.0484, 0.66448, 20.5399, -160.571, -92.6102, 54.7827
3.42, 2, -37.0484, 0.66448, 20.5399, -160.571, -92.6102, 54.7827
3.424, 2, -37.0484, 0.66448, 20.5399, -160.571, -92.6102, 54.7827
3.428, 2, -37.0484, 0.66448, 20.5399, -160.571, -92.6102, 54.7827
3.432, 2, -37.0484, 0.66448, 20.5399, -160.571, -92.6102, 54.7827
3.436, 2, -37.0484, 0.66448, 20.5399, -160.571, -92.6102, 54.7827
3.439, 2, -37.0484, 0.66448, 20.5399, -160.571, -92.6102, 54.7827
3.444, 2, -37.0484, 0.66448, 20.5399, -160.571, -92.6102, 54.7827
3.448, 2, -37.0484, 0.66448, 20.5399, -160.571, -92.6102, 54.7827
3.452, 2, -37.0484, 0.66448, 20.5399, -160.571, -92.6102, 54.7827
3.456, 2, -37.0484, 0.66448, 20.5399, -160.571, -92.6102, 54.7827
3.46, 2, -37.0484, 0.66448, 20.5399, -160.571, -92.6102, 54.7827
3.464, 2, -37.0484, 0.66448, 20.5399, -160.571, -92.6102, 54.7827
3.468, 2, -37.0484, 0.66448, 20.5399, -160.571, -92.6102, 54.7827
3.472, 2, -37.0484, 0.66448, 20.5399, -160.571, -92.6102, 54.7827
3.476, 2, -37.0484, 0.66448, 20.5399, -160.571, -92.6102, 54.7827
3.48, 2, -37.0484, 0.66448, 20.5399, -160.571, -92.6102, 54.7827
3.484, 2, -37.0484, 0.66448, 20.5399, -160.571, -92.6102, 54.7827
3.488, 2, -37.0484, 0.66448, 20.5399, -160.571, -92.6102, 54.7827
3.492, 2, -37.0484, 0.66448, 20.5399, -160.571, -92.6102, 54.7827
3.495, 2, -37.0484, 0.66448, 20.5399, -160.571, -92.6102, 54.7827
3.5, 2, -37.0484, 0.66448, 20.5399, -160.571, -92.6102, 54.7827
3.504, 2, -37.0484, 0.66448, 20.5399, -160.571, -92.6102, 54.7827
3.508, 2, -37.0484, 0.66448, 20.5399, -160.571, -92.6102, 54.7827
3.512, 2, -37.0484, 0.66448, 20.5399, -160.571, -92.6102, 54.7827
3.516, 2, -37.0484, 0.66448, 20.5399, -160.571, -92.6102, 54.7827
3.52, 2, -37.0484, 0.66448, 20.5399, -160.571, -92.6102, 54.7827
3.524, 2, -37.0484, 0.66448, 20.5399, -160.571, -92.6102, 54.7827
3.528, 2, -37.0484, 0.66448, 20.5399, -160.571, -92.6102, 54.7827
3.531, 2, -37.0484, 0.66448, 20.5399, -160.571, -92.6102, 54.7827
3.536, 2, -37.0484, 0.66448, 20.5399, -160.571, -92.6102, 54.7827
3.54, 2, -37.0484, 0.66448, 20.5399, -160.571, -92.6102, 54.7827
3.544, 2, -37.0484, 0.66448, 20.5399, -160.571, -92.6102, 54.7827
3.548, 2, -37.0484, 0.66448, 20.5399, -160.571, -92.6102, 54.7827
3.552, 2, -37.0484, 0.66448, 20.5399, -160.571, -92.6102, 54.7827
3.556, 2, -37.0484, 0.66448, 20.5399, -160.571, -92.6102, 54.7827
3.56, 2, -37.0484, 0.66448, 20.5399, -160.571, -92.6102, 54.7827
3.564, 2, -37.0484, 0.66448, 20.5399, -160.571, -92.6102, 54.7827
3.568, 2, -37.0484, 0.66448, 20.5399, -160.571, -92.6102, 54.7827
3.572, 2, -37.0484, 0.66448, 20.5399, -160.571, -92.6102, 54.7827
3.576, 2, -37.0484, 0.66448, 20.5399, -160.571, -92.6102, 54.7827
3.58, 2, -37.0484, 0.66448, 20.5399, -160.571, -92.6102, 54.7827
3.584, 2, -37.0484, 0.66448, 20.5399, -160.571, -92.6102, 54.7827
3.587, 2, -37.0484, 0.66448, 20.5399, -160.571, -92.6102, 54.7827
3.592, 2, -37.0484, 0.66448, 20.5399, -160.571, -92.6102, 54.7827
3.596, 2, -37.0484, 0.66448, 20.5399, -160.571, -92.6102, 54.7827
3.6, 2, -37.0484, 0.66448, 20.5399, -160.571, -92.6102, 54.7827
3.604, 2, -37.0484, 0.66448, 20.5399, -160.571, -92.6102, 54.7827
3.608, 2, -37.0484, 0.66448, 20.5399, -160.571, -92.6102, 54.7827
3.612, 2, -37.0484, 0.66448, 20.5399, -160.571, -92.6102, 54.7827
3.616, 2, -37.0484, 0.66448, 20.5399, -160.571, -92.6102, 54.7827
3.62, 2, -37.0484, 0.66448, 20.5399, -160.571, -92.6102, 54.7827
3.624, 2, -37.0484, 0.66448, 20.5399, -160.571, -92.6102, 54.7827
3.628, 2, -37.0484, 0.66448, 20.5399, -160.571, -92.6102, 54.7827
3.632, 2, -37.0484, 0.66448, 20.5399, -160.571, -92.6102, 54.7827
3.636, 2, -37.0484, 0.66448, 20.5399, -160.571, -92.6102, 54.7827
3.64, 2, -37.0484, 0.66448, 20.5399, -160.571, -92.6102, 54.7827
3.644, 2, -37.0484, 0.66448, 20.5399, -160.571, -92.6102, 54.7827
3.648, 2, -37.0484, 0.66448, 20.5399, -160.571, -92.6102, 54.7827
3.652, 2, -37.0484, 0.66448, 20.5399, -160.571, -92.6102, 54.7827
3.656, 2, -37.0484, 0.66448, 20.5399, -160.571, -92.6102, 54.7827
3.66, 2, -37.0484, 0.66448, 20.5399, -160.571, -92.6102, 54.7827
3.664, 2, -37.0484, 0.66448, 20.5399, -160.571, -92.6102, 54.7827
3.668, 2, -37.0484, 0.66448, 20.5399, -160.571, -92.6102, 54.7827
3.672, 2, -37.0484, 0.66448, 20.5399, -160.571, -92.6102, 54.7827
3.676, 4, -37.0484, 0.66448, 20.5399, -160.571, -92.6102, 54.7827
3.679, 4, -37.0484, 0.66448, 20.5399, -160.571, -92.6102, 54.7827
3.684, 4, -37.0484, 0.66448, 20.5399, -160.571, -92.6102, 54.7827
3.688, 4, -37.0484, 0.66448, 20.5399, -160.571, -92.6102, 54.7827
3.692, 4, -37.0484, 0.66448, 20.5399, -160.571, -92.6102, 54.7827
3.696, 4, -37.0484, 0.66448, 20.5399, -160.571, -92.6102, 54.7827
3.7, 4, -37.0484, 0.66448, 20.5399, -160.571, -92.6102, 54.7827
3.704, 4, -37.0484, 0.66448, 20.5399, -160.571, -92.6102, 54.7827
3.708, 4, -37.0484, 0.66448, 20.5399, -160.571, -92.6102, 54.7827
3.712, 4, -37.0484, 0.66448, 20.5399, -160.571, -92.6102, 54.7827
3.716, 4, -37.0484, 0.66448, 20.5399, -160.571, -92.6102, 54.7827
3.72, 4, -37.0484, 0.66448, 20.5399, -160.571, -92.6102, 54.7827
3.724, 4, -37.0484, 0.66448, 20.5399, -160.571, -92.6102, 54.7827
3.728, 4, -37.0484, 0.66448, 20.5399, -160.571, -92.6102, 54.7827
3.732, 4, -37.0484, 0.66448, 20.5399, -160.571, -92.6102, 54.7827
3.735, 4, -37.0484, 0.66448, 20.5399, -160.571, -92.6102, 54.7827
3.74, 4, -37.0484, 0.66448, 20.5399, -160.571, -92.6102, 54.7827
3.744, 4, -37.0484, 0.66448, 20.5399, -160.571, -92.6102, 54.7827
3.748, 4, -37.0484, 0.66448, 20.5399, -160.571, -92.6102, 54.7827
3.752, 4, -37.0484, 0.66448, 20.5399, -160.571, -92.6102, 54.7827
3.756, 4, -37.0484, 0.66448, 20.5399, -160.571, -92.6102, 54.7827
3.76, 4, -37.0484, 0.66448, 20.5399, -160.571, -92.6102, 54.7827
3.764, 4, -37.0484, 0.66448, 20.5399, -160.571, -92.6102, 54.7827
3.768, 4, -37.0484, 0.66448, 20.5399, -160.571, -92.6102, 54.7827
3.772, 4, -37.0484, 0.66448, 20.5399, -160.571, -92.6102, 54.7827
3.776, 4, -37.0484, 0.66448, 20.5399, -160.571, -92.6102, 54.7827
3.78, 4, -37.0484, 0.66448, 20.5399, -160.571, -92.6102, 54.7827
3.784, 4, -37.0484, 0.66448, 20.5399, -160.571, -92.6102, 54.7827
3.788, 4, -37.0484, 0.66448, 20.5399, -160.571, -92.6102, 54.7827
3.792, 4, -37.0484, 0.66448, 20.5399, -160.571, -92.6102, 54.7827
3.796, 4, -37.0484, 0.66448, 20.5399, -160.571, -92.6102, 54.7827
3.8, 4, -37.0484, 0.66448, 20.5399, -160.571, -92.6102, 54.7827
3.804, 4, -37.0484, 0.66448, 20.5399, -160.571, -92.6102, 54.7827
3.808, 4, -37.0484, 0.664476, 20.5399, -160.571, -92.6102, 54.7827
3.812, 4, -37.0483, 0.664449, 20.5399, -160.571, -92.6102, 54.7827
3.816, 4, -37.0481, 0.664341, 20.5399, -160.571, -92.6102, 54.7827
3.82, 4, -37.0475, 0.664058, 20.54, -160.571, -92.6102, 54.7827
3.824, 4, -37.0463, 0.663477, 20.5403, -160.571, -92.6102, 54.7827
3.828, 4, -37.0445, 0.662477, 20.5407, -160.571, -92.6103, 54.7827
3.832, 4, -37.0417, 0.660966, 20.5414, -160.571, -92.6103, 54.7827
3.836, 4, -37.0382, 0.658898, 20.5425, -160.571, -92.6103, 54.7827
3.84, 4, -37.034, 0.65628, 20.544, -160.571, -92.6104, 54.7826
3.844, 4, -37.0291, 0.653149, 20.546, -160.571, -92.6104, 54.7826
3.848, 4, -37.0238, 0.649539, 20.5485, -160.57, -92.6105, 54.7825
3.852, 4, -37.0181, 0.645454, 20.5518, -160.57, -92.6104, 54.7825
3.856, 5, -37.0119, 0.640854, 20.5558, -160.569, -92.6104, 54.7823
3.86, 5, -37.0051, 0.635672, 20.5607, -160.568, -92.6103, 54.7822
3.864, 5, -36.9977, 0.629849, 20.5665, -160.567, -92.6102, 54.782
3.868, 5, -36.9895, 0.623369, 20.5732, -160.565, -92.61, 54.7818
3.872, 5, -36.9807, 0.616267, 20.5808, -160.564, -92.6098, 54.7816
3.876, 5, -36.9714, 0.6086, 20.5893, -160.562, -92.6095, 54.7813
3.88, 5, -36.9616, 0.600423, 20.5987, -160.56, -92.6092, 54.781
3.884, 5, -36.9514, 0.591751, 20.6089, -160.558, -92.6089, 54.7807
3.888, 5, -36.9408, 0.58256, 20.6197, -160.556, -92.6085, 54.7803
3.892, 5, -36.9296, 0.5728, 20.6312, -160.553, -92.6081, 54.78
3.896, 5, -36.9175, 0.562428, 20.6432, -160.551, -92.6077, 54.7796
3.9, 5, -36.9047, 0.551435, 20.6558, -160.548, -92.6073, 54.7792
3.904, 5, -36.8909, 0.539861, 20.6687, -160.545, -92.6069, 54.7788
3.908, 5, -36.8764, 0.527791, 20.6819, -160.542, -92.6065, 54.7784
3.912, 5, -36.8612, 0.515339, 20.6954, -160.54, -92.6061, 54.778
3.916, 5, -36.8455, 0.502616, 20.709, -160.537, -92.6057, 54.7777
3.92, 5, -36.8294, 0.48971, 20.7227, -160.534, -92.6053, 54.7773
3.924, 5, -36.8132, 0.47668, 20.7364, -160.531, -92.605, 54.7769
3.928, 5, -36.7968, 0.463569, 20.7502, -160.528, -92.6046, 54.7765
3.932, 5, -36.7803, 0.450404, 20.7641, -160.525, -92.6042, 54.7762
3.936, 5, -36.7637, 0.437205, 20.7779, -160.522, -92.6039, 54.7758
3.94, 5, -36.7471, 0.423984, 20.7918, -160.52, -92.6035, 54.7755
3.944, 5, -36.7304, 0.410751, 20.8056, -160.517, -92.6031, 54.7751
3.948, 5, -36.7137, 0.39751, 20.8195, -160.514, -92.6027, 54.7748
3.952, 5, -36.6969, 0.384267, 20.8333, -160.511, -92.6024, 54.7744
3.956, 5, -36.6802, 0.371023, 20.8472, -160.508, -92.602, 54.7741
3.96, 5, -36.6635, 0.357781, 20.861, -160.505, -92.6016, 54.7738
3.964, 5, -36.6467, 0.344542, 20.8748, -160.502, -92.6013, 54.7735
3.968, 5, -36.6299, 0.331307, 20.8887, -160.499, -92.6009, 54.7732
3.972, 5, -36.6131, 0.318076, 20.9025, -160.496, -92.6005, 54.7729
3.976, 5, -36.5963, 0.30485, 20.9163, -160.493, -92.6002, 54.7726
3.98, 5, -36.5795, 0.291628, 20.9301, -160.491, -92.5998, 54.7723
3.984, 5, -36.5627, 0.278412, 20.9439, -160.488, -92.5994, 54.772
3.988, 5, -36.5459, 0.265201, 20.9577, -160.485, -92.599, 54.7717
3.992, 5, -36.5291, 0.251996, 20.9714, -160.482, -92.5987, 54.7714
3.996, 5, -36.5123, 0.238795, 20.9852, -160.479, -92.5983, 54.7712
3.999, 5, -36.4955, 0.225601, 20.999, -160.476, -92.5979, 54.7709
4.004, 5, -36.4786, 0.212412, 21.0127, -160.473, -92.5976, 54.7706
4.008, 5, -36.4618, 0.199228, 21.0264, -160.47, -92.5972, 54.7704
4.012, 5, -36.4449, 0.18605, 21.0402, -160.467, -92.5968, 54.7702
4.016, 5, -36.4281, 0.172878, 21.0539, -160.464, -92.5965, 54.7699
4.02, 5, -36.4112, 0.159711, 21.0676, -160.461, -92.5961, 54.7697
4.024, 5, -36.3943, 0.146549, 21.0813, -160.458, -92.5957, 54.7695
4.028, 5, -36.3775, 0.133394, 21.095, -160.455, -92.5954, 54.7692
4.032, 5, -36.3606, 0.120243, 21.1087, -160.452, -92.595, 54.769
4.036, 5, -36.3437, 0.107099, 21.1224, -160.449, -92.5946, 54.7688
4.04, 5, -36.3268, 0.0939598, 21.1361, -160.447, -92.5943, 54.7686
4.044, 5, -36.3099, 0.0808265, 21.1497, -160.444, -92.5939, 54.7684
4.048, 5, -36.293, 0.0676988, 21.1634, -160.441, -92.5935, 54.7682
4.052, 5, -36.2761, 0.0545767, 21.177, -160.438, -92.5932, 54.7681
4.056, 5, -36.2592, 0.0414602, 21.1907, -160.435, -92.5928, 54.7679
4.06, 5, -36.2423, 0.0283494, 21.2043, -160.432, -92.5924, 54.7677
4.064, 5, -36.2253, 0.0152442, 21.2179, -160.429, -92.5921, 54.7676
4.068, 5, -36.2084, 0.00214468, 21.2315, -160.426, -92.5917, 54.7674
4.072, 5, -36.1914, -0.0109492, 21.2452, -160.423, -92.5913, 54.7673
4.076, 5, -36.1745, -0.0240374, 21.2588, -160.42, -92.591, 54.7671
4.08, 5, -36.1575, -0.03712, 21.2723, -160.417, -92.5906, 54.767
4.084, 5, -36.1406, -0.0501968, 21.2859, -160.414, -92.5902, 54.7668
4.088, 5, -36.1236, -0.063268, 21.2995, -160.411, -92.5899, 54.7667
4.092, 5, -36.1066, -0.0763336, 21.3131, -160.408, -92.5895, 54.7666
4.096, 5, -36.0897, -0.0893934, 21.3266, -160.405, -92.5891, 54.7665
4.1, 5, -36.0727, -0.102448, 21.3402, -160.402, -92.5888, 54.7664
4.104, 5, -36.0557, -0.115496, 21.3537, -160.399, -92.5884, 54.7663
4.108, 5, -36.0387, -0.128539, 21.3672, -160.396, -92.588, 54.7662
4.112, 5, -36.0217, -0.141576, 21.3807, -160.393, -92.5877, 54.7661
4.116, 5, -36.0047, -0.154607, 21.3942, -160.39, -92.5873, 54.766
4.12, 5, -35.9876, -0.167633, 21.4077, -160.387, -92.5869, 54.7659
4.124, 5, -35.9706, -0.180652, 21.4212, -160.384, -92.5866, 54.7659
4.128, 5, -35.9536, -0.193666, 21.4347, -160.381, -92.5862, 54.7658
4.132, 5, -35.9365, -0.206675, 21.4482, -160.378, -92.5858, 54.7657
4.136, 5, -35.9195, -0.219677, 21.4617, -160.375, -92.5855, 54.7657
4.14, 5, -35.9025, -0.232674, 21.4751, -160.372, -92.5851, 54.7656
4.144, 5, -35.8854, -0.245665, 21.4886, -160.369, -92.5847, 54.7656
4.148, 5, -35.8683, -0.258651, 21.502, -160.366, -92.5844, 54.7656
4.152, 5, -35.8513, -0.27163, 21.5155, -160.363, -92.584, 54.7655
4.156, 5, -35.8342, -0.284604, 21.5289, -160.36, -92.5836, 54.7655
4.16, 5, -35.8171, -0.297572, 21.5423, -160.357, -92.5833, 54.7655
4.164, 5, -35.8, -0.310534, 21.5557, -160.354, -92.5829, 54.7655
4.168, 5, -35.7829, -0.323491, 21.5691, -160.351, -92.5825, 54.7655
4.172, 5, -35.7658, -0.336441, 21.5825, -160.348, -92.5822, 54.7655
4.176, 5, -35.7487, -0.349386, 21.5959, -160.345, -92.5818, 54.7655
4.18, 5, -35.7316, -0.362325, 21.6092, -160.342, -92.5814, 54.7655
4.184, 5, -35.7145, -0.375258, 21.6226, -160.338, -92.581, 54.7656
4.188, 5, -35.6974, -0.388186, 21.636, -160.335, -92.5807, 54.7656
4.192, 5, -35.6802, -0.401107, 21.6493, -160.332, -92.5803, 54.7656
4.196, 5, -35.6631, -0.414023, 21.6627, -160.329, -92.5799, 54.7657
4.2, 5, -35.6459, -0.426933, 21.676, -160.326, -92.5796, 54.7657
4.204, 5, -35.6288, -0.439837, 21.6893, -160.323, -92.5792, 54.7658
4.208, 5, -35.6116, -0.452735, 21.7026, -160.32, -92.5788, 54.7658
4.212, 5, -35.5945, -0.465627, 21.7159, -160.317, -92.5785, 54.7659
4.216, 5, -35.5773, -0.478514, 21.7292, -160.314, -92.5781, 54.766
4.22, 5, -35.5601, -0.491395, 21.7425, -160.311, -92.5777, 54.766
4.224, 5, -35.5429, -0.504269, 21.7558, -160.308, -92.5774, 54.7661
4.228, 5, -35.5257, -0.517138, 21.7691, -160.305, -92.577, 54.7662
4.232, 5, -35.5085, -0.530001, 21.7823, -160.302, -92.5766, 54.7663
4.236, 5, -35.4913, -0.542858, 21.7956, -160.299, -92.5762, 54.7664
4.24, 5, -35.4741, -0.55571, 21.8088, -160.296, -92.5759, 54.7665
4.244, 5, -35.4569, -0.568555, 21.822, -160.292, -92.5755, 54.7667
4.248, 5, -35.4397, -0.581394, 21.8353, -160.289, -92.5751, 54.7668
4.252, 5, -35.4225, -0.594228, 21.8485, -160.286, -92.5748, 54.7669
4.256, 5, -35.4052, -0.607056, 21.8617, -160.283, -92.5744, 54.767
4.26, 5, -35.388, -0.619878, 21.8749, -160.28, -92.574, 54.7672
4.264, 5, -35.3707, -0.632693, 21.8881, -160.277, -92.5736, 54.7673
4.268, 5, -35.3535, -0.645504, 21.9013, -160.274, -92.5733, 54.7675
4.272, 5, -35.3362, -0.658308, 21.9144, -160.271, -92.5729, 54.7676
4.276, 5, -35.319, -0.671106, 21.9276, -160.268, -92.5725, 54.7678
4.28, 5, -35.3017, -0.683898, 21.9408, -160.265, -92.5722, 54.768
4.284, 5, -35.2844, -0.696685, 21.9539, -160.261, -92.5718, 54.7682
4.288, 5, -35.2671, -0.709465, 21.9671, -160.258, -92.5714, 54.7683
4.292, 5, -35.2498, -0.72224, 21.9802, -160.255, -92.571, 54.7685
4.296, 5, -35.2325, -0.735009, 21.9933, -160.252, -92.5707, 54.7687
4.3, 5, -35.2152, -0.747772, 22.0064, -160.249, -92.5703, 54.7689
4.304, 5, -35.1979, -0.760528, 22.0195, -160.246, -92.5699, 54.7691
4.308, 5, -35.1806, -0.773279, 22.0326, -160.243, -92.5695, 54.7693
4.312, 5, -35.1633, -0.786025, 22.0457, -160.24, -92.5692, 54.7696
4.316, 5, -35.146, -0.798764, 22.0588, -160.236, -92.5688, 54.7698
4.32, 5, -35.1286, -0.811497, 22.0719, -160.233, -92.5684, 54.77
4.324, 5, -35.1113, -0.824224, 22.0849, -160.23, -92.568, 54.7703
4.328, 5, -35.0939, -0.836946, 22.098, -160.227, -92.5677, 54.7705
4.332, 5, -35.0766, -0.849661, 22.111, -160.224, -92.5673, 54.7708
4.336, 5, -35.0592, -0.86237, 22.1241, -160.221, -92.5669, 54.771
4.34, 5, -35.0418, -0.875074, 22.1371, -160.218, -92.5665, 54.7713
4.344, 5, -35.0245, -0.887772, 22.1501, -160.214, -92.5662, 54.7716
4.348, 5, -35.0071, -0.900463, 22.1631, -160.211, -92.5658, 54.7718
4.352, 5, -34.9897, -0.913149, 22.1761, -160.208, -92.5654, 54.7721
4.356, 5, -34.9723, -0.925828, 22.1891, -160.205, -92.565, 54.7724
4.36, 5, -34.9549, -0.938502, 22.2021, -160.202, -92.5647, 54.7727
4.364, 5, -34.9375, -0.95117, 22.2151, -160.199, -92.5643, 54.773
4.368, 5, -34.9201, -0.963832, 22.2281, -160.195, -92.5639, 54.7733
4.372, 5, -34.9027, -0.976487, 22.241, -160.192, -92.5635, 54.7736
4.376, 5, -34.8852, -0.989137, 22.254, -160.189, -92.5631, 54.7739
4.38, 5, -34.8678, -1.00178, 22.2669, -160.186, -92.5627, 54.7743
4.384, 5, -34.8504, -1.01442, 22.2798, -160.183, -92.5624, 54.7746
4.388, 5, -34.8329, -1.02705, 22.2928, -160.18, -92.562, 54.7749
4.392, 5, -34.8155, -1.03968, 22.3057, -160.176, -92.5616, 54.7753
4.396, 5, -34.798, -1.0523, 22.3186, -160.173, -92.5612, 54.7756
4.4, 5, -34.7806, -1.06491, 22.3315, -160.17, -92.5608, 54.776
4.404, 5, -34.7631, -1.07752, 22.3444, -160.167, -92.5605, 54.7763
4.408, 5, -34.7456, -1.09012, 22.3573, -160.164, -92.5601, 54.7767
4.412, 5, -34.7281, -1.10271, 22.3701, -160.16, -92.5597, 54.7771
4.416, 5, -34.7106, -1.1153, 22.383, -160.157, -92.5593, 54.7775
4.42, 5, -34.6931, -1.12789, 22.3958, -160.154, -92.5589, 54.7779
4.424, 5, -34.6756, -1.14047, 22.4087, -160.151, -92.5585, 54.7782
4.428, 5, -34.6581, -1.15304, 22.4215, -160.148, -92.5582, 54.7786
4.432, 5, -34.6406, -1.1656, 22.4344, -160.144, -92.5578, 54.779
4.436, 5, -34.6231, -1.17816, 22.4472, -160.141, -92.5574, 54.7795
4.44, 5, -34.6056, -1.19072, 22.46, -160.138, -92.557, 54.7799
4.444, 5, -34.588, -1.20326, 22.4728, -160.135, -92.5566, 54.7803
4.448, 5, -34.5705, -1.2158, 22.4856, -160.132, -92.5562, 54.7807
4.452, 5, -34.553, -1.22834, 22.4984, -160.128, -92.5558, 54.7812
4.456, 5, -34.5354, -1.24087, 22.5112, -160.125, -92.5555, 54.7816
4.46, 5, -34.5179, -1.25339, 22.5239, -160.122, -92.5551, 54.7821
4.464, 5, -34.5003, -1.26591, 22.5367, -160.119, -92.5547, 54.7825
4.468, 5, -34.4827, -1.27842, 22.5494, -160.115, -92.5543, 54.783
4.472, 5, -34.4651, -1.29092, 22.5622, -160.112, -92.5539, 54.7834
4.476, 5, -34.4476, -1.30342, 22.5749, -160.109, -92.5535, 54.7839
4.48, 5, -34.43, -1.31591, 22.5877, -160.106, -92.5531, 54.7844
4.484, 5, -34.4124, -1.3284, 22.6004, -160.103, -92.5527, 54.7849
4.488, 5, -34.3948, -1.34088, 22.6131, -160.099, -92.5523, 54.7854
4.492, 5, -34.3772, -1.35336, 22.6258, -160.096, -92.5519, 54.7859
4.496, 5, -34.3595, -1.36582, 22.6385, -160.093, -92.5516, 54.7864
4.5, 5, -34.3419, -1.37829, 22.6512, -160.09, -92.5512, 54.7869
4.504, 5, -34.3243, -1.39074, 22.6638, -160.086, -92.5508, 54.7874
4.508, 5, -34.3067, -1.40319, 22.6765, -160.083, -92.5504, 54.7879
4.512, 5, -34.289, -1.41563, 22.6892, -160.08, -92.55, 54.7884
4.516, 5, -34.2714, -1.42807, 22.7018, -160.076, -92.5496, 54.789
4.52, 5, -34.2537, -1.4405, 22.7144, -160.073, -92.5492, 54.7895
4.524, 5, -34.2361, -1.45293, 22.7271, -160.07, -92.5488, 54.79
4.528, 5, -34.2184, -1.46535, 22.7397, -160.067, -92.5484, 54.7906
4.532, 5, -34.2007, -1.47776, 22.7523, -160.063, -92.548, 54.7911
4.536, 5, -34.183, -1.49017, 22.7649, -160.06, -92.5476, 54.7917
4.54, 5, -34.1654, -1.50257, 22.7775, -160.057, -92.5472, 54.7923
4.544, 5, -34.1477, -1.51496, 22.7901, -160.054, -92.5468, 54.7929
4.548, 5, -34.13, -1.52735, 22.8027, -160.05, -92.5464, 54.7934
4.552, 5, -34.1123, -1.53973, 22.8153, -160.047, -92.546, 54.794
4.556, 5, -34.0946, -1.55211, 22.8278, -160.044, -92.5456, 54.7946
4.56, 5, -34.0768, -1.56448, 22.8404, -160.04, -92.5452, 54.7952
4.564, 5, -34.0591, -1.57684, 22.8529, -160.037, -92.5448, 54.7958
4.568, 5, -34.0414, -1.5892, 22.8655, -160.034, -92.5444, 54.7964
4.572, 5, -34.0236, -1.60155, 22.878, -160.031, -92.544, 54.7971
4.576, 5, -34.0059, -1.61389, 22.8905, -160.027, -92.5436, 54.7977
4.58, 5, -33.9882, -1.62623, 22.903, -160.024, -92.5432, 54.7983
4.584, 5, -33.9704, -1.63857, 22.9155, -160.021, -92.5428, 54.7989
4.588, 5, -33.9526, -1.65089, 22.928, -160.017, -92.5424, 54.7996
4.592, 5, -33.9349, -1.66321, 22.9405, -160.014, -92.542, 54.8002
4.596, 5, -33.9171, -1.67553, 22.953, -160.011, -92.5416, 54.8009
4.6, 5, -33.8993, -1.68783, 22.9654, -160.007, -92.5412, 54.8015
4.604, 5, -33.8815, -1.70013, 22.9779, -160.004, -92.5408, 54.8022
4.608, 5, -33.8637, -1.71243, 22.9903, -160.001, -92.5404, 54.8029
4.612, 5, -33.8459, -1.72472, 23.0028, -159.997, -92.54, 54.8036
4.616, 5, -33.8281, -1.737, 23.0152, -159.994, -92.5395, 54.8043
4.62, 5, -33.8103, -1.74928, 23.0276, -159.991, -92.5391, 54.8049
4.624, 5, -33.7925, -1.76155, 23.0401, -159.987, -92.5387, 54.8056
4.628, 5, -33.7747, -1.77381, 23.0525, -159.984, -92.5383, 54.8063
4.632, 5, -33.7568, -1.78607, 23.0649, -159.981, -92.5379, 54.8071
4.636, 5, -33.739, -1.79832, 23.0773, -159.977, -92.5375, 54.8078
4.64, 5, -33.7212, -1.81056, 23.0896, -159.974, -92.5371, 54.8085
4.644, 5, -33.7033, -1.8228, 23.102, -159.971, -92.5367, 54.8092
4.648, 5, -33.6855, -1.83504, 23.1144, -159.967, -92.5363, 54.8099
4.652, 5, -33.6676, -1.84726, 23.1267, -159.964, -92.5358, 54.8107
4.656, 5, -33.6497, -1.85948, 23.1391, -159.961, -92.5354, 54.8114
4.66, 5, -33.6319, -1.8717, 23.1514, -159.957, -92.535, 54.8122
4.664, 5, -33.614, -1.8839, 23.1637, -159.954, -92.5346, 54.8129
4.668, 5, -33.5961, -1.8961, 23.1761, -159.951, -92.5342, 54.8137
4.672, 5, -33.5782, -1.9083, 23.1884, -159.947, -92.5338, 54.8145
4.676, 5, -33.5603, -1.9205, 23.2007, -159.944, -92.5333, 54.8152
4.68, 5, -33.5424, -1.93269, 23.213, -159.941, -92.5329, 54.816
4.684, 5, -33.5245, -1.94489, 23.2253, -159.937, -92.5325, 54.8168
4.688, 5, -33.5066, -1.9571, 23.2375, -159.934, -92.5321, 54.8176
4.692, 5, -33.4887, -1.96933, 23.2498, -159.93, -92.5316, 54.8184
4.696, 5, -33.4709, -1.98157, 23.2621, -159.927, -92.5312, 54.8191
4.7, 5, -33.453, -1.99382, 23.2744, -159.924, -92.5307, 54.8199
4.704, 5, -33.4351, -2.0061, 23.2867, -159.92, -92.5303, 54.8207
4.708, 5, -33.4173, -2.01841, 23.299, -159.917, -92.5298, 54.8214
4.712, 5, -33.3995, -2.03074, 23.3113, -159.913, -92.5292, 54.8221
4.716, 5, -33.3816, -2.04311, 23.3237, -159.91, -92.5287, 54.8227
4.72, 5, -33.3638, -2.05552, 23.336, -159.906, -92.528, 54.8233
4.724, 5, -33.346, -2.06797, 23.3484, -159.903, -92.5274, 54.8238
4.728, 6, -33.3283, -2.08046, 23.3609, -159.899, -92.5266, 54.8243
4.732, 6, -33.3105, -2.09301, 23.3734, -159.895, -92.5259, 54.8247
4.736, 6, -33.2928, -2.1056, 23.3859, -159.892, -92.525, 54.825
4.74, 6, -33.2751, -2.11826, 23.3985, -159.888, -92.5241, 54.8253
4.744, 6, -33.2574, -2.13097, 23.4111, -159.884, -92.5231, 54.8254
4.748, 6, -33.2397, -2.14374, 23.4238, -159.88, -92.522, 54.8255
4.752, 6, -33.222, -2.15659, 23.4365, -159.876, -92.5209, 54.8254
4.756, 6, -33.2044, -2.16951, 23.4494, -159.872, -92.5196, 54.8253
4.76, 6, -33.1868, -2.1825, 23.4622, -159.868, -92.5183, 54.825
4.764, 6, -33.1693, -2.19556, 23.4751, -159.864, -92.5169, 54.8247
4.768, 6, -33.1518, -2.20871, 23.4881, -159.86, -92.5154, 54.8242
4.772, 6, -33.1343, -2.22194, 23.5012, -159.856, -92.5139, 54.8237
4.776, 6, -33.1168, -2.23524, 23.5143, -159.851, -92.5122, 54.8231
4.78, 6, -33.0994, -2.24862, 23.5274, -159.847, -92.5105, 54.8223
4.784, 6, -33.082, -2.26209, 23.5407, -159.843, -92.5087, 54.8215
4.788, 6, -33.0647, -2.27563, 23.554, -159.838, -92.5068, 54.8206
4.792, 6, -33.0473, -2.28926, 23.5673, -159.833, -92.5048, 54.8195
4.796, 6, -33.0301, -2.30296, 23.5807, -159.829, -92.5028, 54.8184
4.8, 6, -33.0128, -2.31675, 23.5942, -159.824, -92.5006, 54.8172
4.804, 6, -32.9956, -2.33062, 23.6077, -159.819, -92.4984, 54.8158
4.808, 6, -32.9784, -2.34457, 23.6213, -159.815, -92.4961, 54.8144
4.812, 7, -32.9613, -2.3586, 23.6349, -159.81, -92.4937, 54.8129
4.816, 7, -32.9442, -2.37271, 23.6486, -159.805, -92.4912, 54.8112
4.82, 7, -32.9271, -2.3869, 23.6624, -159.8, -92.4887, 54.8095
4.824, 7, -32.91, -2.40118, 23.6763, -159.795, -92.486, 54.8077
4.828, 7, -32.893, -2.41554, 23.6901, -159.79, -92.4833, 54.8057
4.832, 7, -32.8761, -2.42997, 23.7041, -159.785, -92.4805, 54.8037
4.836, 7, -32.8591, -2.44449, 23.7181, -159.779, -92.4776, 54.8016
4.84, 7, -32.8422, -2.4591, 23.7322, -159.774, -92.4746, 54.7994
4.844, 7, -32.8254, -2.47378, 23.7463, -159.769, -92.4716, 54.7971
4.848, 7, -32.8085, -2.48854, 23.7605, -159.763, -92.4684, 54.7946
4.852, 7, -32.7917, -2.50339, 23.7748, -159.758, -92.4652, 54.7921
4.856, 7, -32.775, -2.51832, 23.7891, -159.752, -92.4619, 54.7895
4.86, 7, -32.7582, -2.53333, 23.8035, -159.747, -92.4585, 54.7868
4.864, 7, -32.7415, -2.54843, 23.8179, -159.741, -92.455, 54.784
4.868, 7, -32.7249, -2.56361, 23.8324, -159.735, -92.4515, 54.7811
4.872, 7, -32.7082, -2.57886, 23.847, -159.729, -92.4478, 54.7781
4.876, 7, -32.6917, -2.59421, 23.8616, -159.724, -92.4441, 54.775
4.88, 7, -32.6751, -2.60963, 23.8763, -159.718, -92.4403, 54.7718
4.884, 7, -32.6586, -2.62514, 23.891, -159.712, -92.4364, 54.7685
4.888, 7, -32.6421, -2.64072, 23.9058, -159.706, -92.4324, 54.7651
4.892, 7, -32.6256, -2.6564, 23.9207, -159.7, -92.4283, 54.7616
4.896, 8, -32.6092, -2.67215, 23.9356, -159.694, -92.4242, 54.758
4.9, 8, -32.5928, -2.68799, 23.9506, -159.687, -92.4199, 54.7543
4.904, 8, -32.5764, -2.70391, 23.9656, -159.681, -92.4156, 54.7505
4.908, 8, -32.5601, -2.71991, 23.9807, -159.675, -92.4112, 54.7466
4.912, 8, -32.5438, -2.73599, 23.9959, -159.668, -92.4067, 54.7427
4.916, 8, -32.5276, -2.75216, 24.0111, -159.662, -92.4022, 54.7386
4.92, 8, -32.5114, -2.76841, 24.0264, -159.655, -92.3975, 54.7344
4.924, 8, -32.4952, -2.78475, 24.0418, -159.649, -92.3928, 54.7301
4.928, 8, -32.479, -2.80117, 24.0572, -159.642, -92.3879, 54.7258
4.932, 8, -32.4629, -2.81767, 24.0727, -159.636, -92.383, 54.7213
4.936, 8, -32.4468, -2.83425, 24.0882, -159.629, -92.3781, 54.7167
4.94, 8, -32.4308, -2.85092, 24.1038, -159.622, -92.373, 54.7121
4.944, 8, -32.4147, -2.86767, 24.1194, -159.615, -92.3678, 54.7073
4.948, 8, -32.3988, -2.8845, 24.1352, -159.608, -92.3626, 54.7025
4.952, 8, -32.3828, -2.90142, 24.1509, -159.601, -92.3573, 54.6975
4.956, 8, -32.3669, -2.91842, 24.1668, -159.594, -92.3518, 54.6925
4.96, 8, -32.351, -2.93551, 24.1827, -159.587, -92.3464, 54.6873
4.964, 8, -32.3352, -2.95267, 24.1986, -159.58, -92.3408, 54.6821
4.968, 8, -32.3193, -2.96993, 24.2146, -159.573, -92.3351, 54.6767
4.972, 8, -32.3035, -2.98726, 24.2307, -159.566, -92.3294, 54.6713
4.976, 9, -32.2878, -3.00468, 24.2469, -159.558, -92.3235, 54.6658
4.98, 9, -32.2721, -3.02219, 24.2631, -159.551, -92.3176, 54.6601
4.984, 9, -32.2564, -3.03977, 24.2793, -159.543, -92.3116, 54.6544
4.988, 9, -32.2407, -3.05744, 24.2956, -159.536, -92.3055, 54.6486
4.992, 9, -32.2251, -3.0752, 24.312, -159.528, -92.2994, 54.6427
4.996, 9, -32.2095, -3.09304, 24.3285, -159.521, -92.2931, 54.6367
5, 9, -32.194, -3.11096, 24.345, -159.513, -92.2868, 54.6306
5.004, 9, -32.1785, -3.12897, 24.3615, -159.505, -92.2804, 54.6244
5.008, 9, -32.163, -3.14706, 24.3782, -159.498, -92.2739, 54.6181
5.012, 9, -32.1475, -3.16524, 24.3949, -159.49, -92.2673, 54.6117
5.016, 9, -32.1321, -3.1835, 24.4116, -159.482, -92.2606, 54.6052
5.02, 9, -32.1167, -3.20184, 24.4284, -159.474, -92.2539, 54.5986
5.024, 9, -32.1014, -3.22027, 24.4453, -159.466, -92.247, 54.5919
5.028, 9, -32.0861, -3.23879, 24.4622, -159.458, -92.2401, 54.5851
5.032, 9, -32.0708, -3.25739, 24.4792, -159.45, -92.2331, 54.5782
5.036, 9, -32.0555, -3.27607, 24.4963, -159.441, -92.226, 54.5712
5.04, 9, -32.0403, -3.29484, 24.5134, -159.433, -92.2188, 54.5642
5.044, 9, -32.0251, -3.31369, 24.5306, -159.425, -92.2116, 54.557
5.048, 9, -32.01, -3.33263, 24.5478, -159.416, -92.2043, 54.5497
5.052, 9, -31.9949, -3.35165, 24.5651, -159.408, -92.1968, 54.5424
5.056, 9, -31.9798, -3.37076, 24.5824, -159.4, -92.1893, 54.5349
5.06, 10, -31.9647, -3.38995, 24.5999, -159.391, -92.1817, 54.5274
5.064, 10, -31.9497, -3.40923, 24.6173, -159.382, -92.1741, 54.5197
5.068, 10, -31.9347, -3.42859, 24.6349, -159.374, -92.1663, 54.512
5.072, 10, -31.9198, -3.44803, 24.6525, -159.365, -92.1585, 54.5042
5.076, 10, -31.9048, -3.46757, 24.6702, -159.356, -92.1505, 54.4962
5.08, 10, -31.89, -3.48718, 24.6879, -159.347, -92.1425, 54.4882
5.084, 10, -31.8751, -3.50689, 24.7057, -159.338, -92.1344, 54.4801
5.088, 10, -31.8603, -3.52667, 24.7235, -159.33, -92.1262, 54.4719
5.092, 10, -31.8455, -3.54655, 24.7414, -159.321, -92.118, 54.4635
5.096, 10, -31.8307, -3.56651, 24.7594, -159.311, -92.1096, 54.4551
5.1, 10, -31.816, -3.58655, 24.7774, -159.302, -92.1012, 54.4466
5.104, 10, -31.8013, -3.60668, 24.7955, -159.293, -92.0927, 54.438
5.108, 10, -31.7867, -3.62689, 24.8137, -159.284, -92.0841, 54.4293
5.112, 10, -31.772, -3.64719, 24.8319, -159.275, -92.0754, 54.4205
5.116, 10, -31.7574, -3.66758, 24.8501, -159.265, -92.0666, 54.4117
5.12, 10, -31.7429, -3.68805, 24.8685, -159.256, -92.0578, 54.4027
5.124, 10, -31.7283, -3.70861, 24.8869, -159.246, -92.0488, 54.3936
5.128, 10, -31.7138, -3.72925, 24.9053, -159.237, -92.0398, 54.3844
5.132, 10, -31.6994, -3.74998, 24.9238, -159.227, -92.0307, 54.3752
5.136, 10, -31.6849, -3.7708, 24.9424, -159.218, -92.0215, 54.3658
5.14, 10, -31.6705, -3.7917, 24.9611, -159.208, -92.0122, 54.3564
5.144, 11, -31.6562, -3.81268, 24.9798, -159.198, -92.0029, 54.3468
5.148, 11, -31.6418, -3.83376, 24.9985, -159.188, -91.9934, 54.3372
5.152, 11, -31.6275, -3.85491, 25.0174, -159.179, -91.9839, 54.3274
5.156, 11, -31.6133, -3.87616, 25.0362, -159.169, -91.9743, 54.3176
5.16, 11, -31.599, -3.89749, 25.0552, -159.159, -91.9646, 54.3077
5.164, 11, -31.5848, -3.91891, 25.0742, -159.149, -91.9548, 54.2977
5.168, 11, -31.5707, -3.94041, 25.0933, -159.139, -91.945, 54.2875
5.172, 11, -31.5565, -3.962, 25.1124, -159.128, -91.935, 54.2773
5.176, 11, -31.5424, -3.98368, 25.1316, -159.118, -91.925, 54.267
5.18, 11, -31.5283, -4.00544, 25.1508, -159.108, -91.9149, 54.2566
5.184, 11, -31.5143, -4.02728, 25.1702, -159.098, -91.9047, 54.2461
5.188, 11, -31.5003, -4.04922, 25.1895, -159.087, -91.8944, 54.2355
5.192, 11, -31.4863, -4.07124, 25.209, -159.077, -91.8841, 54.2249
5.196, 11, -31.4724, -4.09335, 25.2285, -159.066, -91.8736, 54.2141
5.2, 11, -31.4585, -4.11554, 25.248, -159.056, -91.8631, 54.2032
5.204, 11, -31.4446, -4.13782, 25.2677, -159.045, -91.8525, 54.1923
5.208, 11, -31.4307, -4.16019, 25.2873, -159.035, -91.8418, 54.1812
5.212, 11, -31.4169, -4.18264, 25.3071, -159.024, -91.831, 54.17
5.216, 11, -31.4031, -4.20519, 25.3269, -159.013, -91.8202, 54.1588
5.22, 11, -31.3894, -4.22781, 25.3468, -159.002, -91.8092, 54.1475
5.224, 12, -31.3756, -4.25053, 25.3667, -158.992, -91.7982, 54.136
5.228, 12, -31.362, -4.27333, 25.3867, -158.981, -91.7871, 54.1245
5.232, 12, -31.3483, -4.29622, 25.4067, -158.97, -91.7759, 54.1129
5.236, 12, -31.3347, -4.31919, 25.4268, -158.959, -91.7646, 54.1012
5.24, 12, -31.3211, -4.34225, 25.447, -158.947, -91.7532, 54.0894
5.244, 12, -31.3075, -4.3654, 25.4673, -158.936, -91.7418, 54.0775
5.248, 12, -31.294, -4.38864, 25.4876, -158.925, -91.7302, 54.0655
5.252, 12, -31.2805, -4.41196, 25.5079, -158.914, -91.7186, 54.0534
5.256, 12, -31.267, -4.43537, 25.5283, -158.903, -91.7069, 54.0412
5.26, 12, -31.2536, -4.45887, 25.5488, -158.891, -91.6951, 54.0289
5.264, 12, -31.2402, -4.48245, 25.5694, -158.88, -91.6833, 54.0166
5.268, 12, -31.2268, -4.50612, 25.59, -158.868, -91.6713, 54.0041
5.272, 12, -31.2135, -4.52988, 25.6106, -158.857, -91.6593, 53.9916
5.276, 12, -31.2002, -4.55372, 25.6314, -158.845, -91.6472, 53.9789
5.28, 12, -31.1869, -4.57766, 25.6522, -158.833, -91.635, 53.9662
5.284, 12, -31.1737, -4.60168, 25.673, -158.822, -91.6227, 53.9533
5.288, 12, -31.1605, -4.62579, 25.6939, -158.81, -91.6103, 53.9404
5.292, 12, -31.1473, -4.64998, 25.7149, -158.798, -91.5979, 53.9274
5.296, 12, -31.1341, -4.67426, 25.736, -158.786, -91.5853, 53.9143
5.3, 12, -31.121, -4.69863, 25.7571, -158.774, -91.5727, 53.9011
5.304, 12, -31.1079, -4.72309, 25.7782, -158.762, -91.56, 53.8878
5.308, 13, -31.0949, -4.74764, 25.7994, -158.75, -91.5472, 53.8744
5.312, 13, -31.0819, -4.77227, 25.8207, -158.738, -91.5344, 53.8609
5.316, 13, -31.0689, -4.79699, 25.8421, -158.726, -91.5214, 53.8474
5.32, 13, -31.0559, -4.82179, 25.8635, -158.714, -91.5084, 53.8337
5.324, 13, -31.043, -4.84669, 25.885, -158.702, -91.4953, 53.8199
5.328, 13, -31.0301, -4.87167, 25.9065, -158.689, -91.4821, 53.8061
5.332, 13, -31.0173, -4.89674, 25.9281, -158.677, -91.4688, 53.7921
5.336, 13, -31.0044, -4.9219, 25.9498, -158.664, -91.4554, 53.7781
5.34, 13, -30.9916, -4.94715, 25.9715, -158.652, -91.442, 53.764
5.344, 13, -30.9789, -4.97248, 25.9933, -158.639, -91.4285, 53.7498
5.348, 13, -30.9661, -4.9979, 26.0151, -158.627, -91.4149, 53.7355
5.352, 13, -30.9534, -5.02341, 26.037, -158.614, -91.4012, 53.7211
5.356, 13, -30.9408, -5.04901, 26.059, -158.602, -91.3874, 53.7066
5.36, 13, -30.9281, -5.07469, 26.081, -158.589, -91.3735, 53.692
5.364, 13, -30.9155, -5.10047, 26.1031, -158.576, -91.3596, 53.6773
5.368, 13, -30.9029, -5.12633, 26.1253, -158.563, -91.3456, 53.6625
5.372, 13, -30.8904, -5.15227, 26.1475, -158.55, -91.3315, 53.6477
5.376, 13, -30.8779, -5.17831, 26.1698, -158.537, -91.3173, 53.6327
5.38, 13, -30.8654, -5.20443, 26.1921, -158.524, -91.303, 53.6177
5.384, 13, -30.853, -5.23065, 26.2145, -158.511, -91.2886, 53.6026
5.388, 13, -30.8405, -5.25695, 26.237, -158.498, -91.2742, 53.5873
5.392, 14, -30.8282, -5.28334, 26.2595, -158.485, -91.2597, 53.572
5.396, 14, -30.8158, -5.30981, 26.2821, -158.471, -91.2451, 53.5566
5.4, 14, -30.8035, -5.33638, 26.3047, -158.458, -91.2304, 53.5411
5.404, 14, -30.7912, -5.36303, 26.3274, -158.445, -91.2156, 53.5256
5.408, 14, -30.7789, -5.38977, 26.3502, -158.431, -91.2008, 53.5099
5.412, 14, -30.7667, -5.4166, 26.3731, -158.418, -91.1858, 53.4941
5.416, 14, -30.7545, -5.44351, 26.396, -158.404, -91.1708, 53.4783
5.42, 14, -30.7423, -5.47052, 26.4189, -158.391, -91.1557, 53.4623
5.424, 14, -30.7302, -5.49761, 26.4419, -158.377, -91.1406, 53.4463
5.428, 14, -30.7181, -5.52479, 26.465, -158.363, -91.1253, 53.4302
5.432, 14, -30.706, -5.55206, 26.4882, -158.35, -91.1099, 53.4139
5.436, 14, -30.694, -5.57942, 26.5114, -158.336, -91.0945, 53.3976
5.44, 14, -30.682, -5.60686, 26.5347, -158.322, -91.079, 53.3812
5.444, 14, -30.67, -5.63439, 26.558, -158.308, -91.0634, 53.3648
5.448, 14, -30.658, -5.66201, 26.5814, -158.294, -91.0478, 53.3482
5.452, 14, -30.6461, -5.68972, 26.6049, -158.28, -91.032, 53.3315
5.456, 14, -30.6342, -5.71752, 26.6284, -158.266, -91.0162, 53.3148
5.46, 14, -30.6224, -5.74541, 26.652, -158.252, -91.0003, 53.2979
5.464, 14, -30.6105, -5.77338, 26.6756, -158.238, -90.9843, 53.281
5.468, 14, -30.5987, -5.80144, 26.6993, -158.223, -90.9682, 53.264
5.472, 14, -30.587, -5.82959, 26.7231, -158.209, -90.952, 53.2468
5.476, 15, -30.5752, -5.85783, 26.7469, -158.195, -90.9358, 53.2296
5.48, 15, -30.5635, -5.88616, 26.7708, -158.18, -90.9195, 53.2124
5.484, 15, -30.5519, -5.91457, 26.7948, -158.166, -90.9031, 53.195
5.488, 15, -30.5402, -5.94308, 26.8188, -158.151, -90.8866, 53.1775
5.492, 15, -30.5286, -5.97167, 26.8429, -158.137, -90.87, 53.16
5.496, 15, -30.517, -6.00035, 26.867, -158.122, -90.8534, 53.1423
5.5, 15, -30.5055, -6.02911, 26.8912, -158.107, -90.8367, 53.1246
5.504, 15, -30.494, -6.05797, 26.9155, -158.093, -90.8199, 53.1068
5.508, 15, -30.4825, -6.08691, 26.9398, -158.078, -90.803, 53.0889
5.512, 15, -30.4711, -6.11594, 26.9642, -158.063, -90.786, 53.0709
5.516, 15, -30.4596, -6.14506, 26.9887, -158.048, -90.769, 53.0528
5.52, 15, -30.4482, -6.17427, 27.0132, -158.033, -90.7518, 53.0346
5.524, 15, -30.4369, -6.20357, 27.0378, -158.018, -90.7346, 53.0163
5.528, 15, -30.4255, -6.23295, 27.0624, -158.003, -90.7173, 52.998
5.532, 15, -30.4142, -6.26243, 27.0872, -157.988, -90.6999, 52.9796
5.536, 15, -30.403, -6.29199, 27.1119, -157.973, -90.6825, 52.961
5.54, 15, -30.3917, -6.32164, 27.1368, -157.957, -90.665, 52.9424
5.544, 15, -30.3805, -6.35137, 27.1616, -157.942, -90.6473, 52.9237
5.548, 15, -30.3693, -6.3812, 27.1866, -157.927, -90.6297, 52.905
5.552, 15, -30.3582, -6.41111, 27.2116, -157.911, -90.6119, 52.8861
5.556, 16, -30.3471, -6.44111, 27.2367, -157.896, -90.594, 52.8671
5.56, 16, -30.336, -6.4712, 27.2618, -157.881, -90.5761, 52.8481
5.564, 16, -30.3249, -6.50138, 27.2871, -157.865, -90.5581, 52.829
5.568, 16, -30.3139, -6.53164, 27.3123, -157.849, -90.54, 52.8097
5.572, 16, -30.3029, -6.562, 27.3377, -157.834, -90.5218, 52.7905
5.576, 16, -30.292, -6.59244, 27.363, -157.818, -90.5036, 52.7711
5.58, 16, -30.281, -6.62297, 27.3885, -157.802, -90.4852, 52.7516
5.584, 16, -30.2701, -6.65358, 27.414, -157.786, -90.4668, 52.732
5.588, 16, -30.2593, -6.68429, 27.4396, -157.77, -90.4483, 52.7124
5.592, 16, -30.2484, -6.71508, 27.4652, -157.754, -90.4298, 52.6927
5.596, 16, -30.2376, -6.74596, 27.4909, -157.738, -90.4111, 52.6729
5.6, 16, -30.2268, -6.77693, 27.5167, -157.722, -90.3924, 52.653
5.604, 16, -30.2161, -6.80798, 27.5425, -157.706, -90.3736, 52.633
5.608, 16, -30.2053, -6.83913, 27.5684, -157.69, -90.3547, 52.6129
5.612, 16, -30.1947, -6.87036, 27.5944, -157.674, -90.3357, 52.5928
5.616, 16, -30.184, -6.90168, 27.6204, -157.658, -90.3167, 52.5725
5.62, 16, -30.1734, -6.93308, 27.6465, -157.641, -90.2976, 52.5522
5.624, 16, -30.1628, -6.96458, 27.6726, -157.625, -90.2784, 52.5318
5.628, 16, -30.1522, -6.99616, 27.6988, -157.609, -90.2591, 52.5113
5.632, 16, -30.1417, -7.02783, 27.7251, -157.592, -90.2397, 52.4907
5.636, 16, -30.1311, -7.05959, 27.7514, -157.575, -90.2203, 52.4701
5.64, 17, -30.1207, -7.09143, 27.7778, -157.559, -90.2008, 52.4493
5.644, 17, -30.1102, -7.12336, 27.8043, -157.542, -90.1812, 52.4285
5.648, 17, -30.0998, -7.15538, 27.8308, -157.525, -90.1615, 52.4076
5.652, 17, -30.0894, -7.18749, 27.8574, -157.509, -90.1418, 52.3866
5.656, 17, -30.079, -7.21968, 27.884, -157.492, -90.122, 52.3655
5.66, 17, -30.0687, -7.25196, 27.9107, -157.475, -90.1021, 52.3444
5.664, 17, -30.0584, -7.28433, 27.9375, -157.458, -90.0821, 52.3231
5.668, 17, -30.0481, -7.31679, 27.9643, -157.441, -90.062, 52.3018
5.672, 17, -30.0379, -7.34933, 27.9912, -157.424, -90.0419, 52.2804
5.676, 17, -30.0277, -7.38196, 28.0181, -157.407, -90.0217, 52.2589
5.68, 17, -30.0175, -7.41467, 28.0451, -157.39, -90.0014, 52.2374
5.684, 17, -30.0074, -7.44748, 28.0722, -157.373, -89.981, 52.2157
5.688, 17, -29.9972, -7.48037, 28.0993, -157.355, -89.9606, 52.194
5.692, 17, -29.9871, -7.51334, 28.1265, -157.338, -89.9401, 52.1722
5.696, 17, -29.9771, -7.54641, 28.1538, -157.321, -89.9195, 52.1503
5.7, 17, -29.9671, -7.57956, 28.1811, -157.303, -89.8988, 52.1283
5.704, 17, -29.957, -7.6128, 28.2085, -157.286, -89.878, 52.1063
5.708, 17, -29.9471, -7.64612, 28.2359, -157.268, -89.8572, 52.0841
5.712, 17, -29.9371, -7.67953, 28.2634, -157.251, -89.8363, 52.0619
5.716, 17, -29.9272, -7.71303, 28.291, -157.233, -89.8153, 52.0396
5.72, 17, -29.9173, -7.74661, 28.3186, -157.215, -89.7943, 52.0172
5.724, 18, -29.9075, -7.78028, 28.3463, -157.198, -89.7732, 51.9948
5.728, 18, -29.8976, -7.81403, 28.3741, -157.18, -89.752, 51.9722
5.732, 18, -29.8878, -7.84788, 28.4019, -157.162, -89.7307, 51.9496
5.736, 18, -29.8781, -7.8818, 28.4298, -157.144, -89.7093, 51.9269
5.74, 18, -29.8683, -7.91582, 28.4577, -157.126, -89.6879, 51.9042
5.744, 18, -29.8586, -7.94992, 28.4857, -157.108, -89.6664, 51.8813
5.748, 18, -29.8489, -7.98411, 28.5138, -157.09, -89.6448, 51.8584
5.752, 18, -29.8393, -8.01838, 28.5419, -157.072, -89.6232, 51.8354
5.756, 18, -29.8297, -8.05274, 28.5701, -157.054, -89.6014, 51.8123
5.76, 18, -29.8201, -8.08718, 28.5983, -157.036, -89.5796, 51.7892
5.764, 18, -29.8105, -8.12171, 28.6266, -157.017, -89.5577, 51.7659
5.768, 18, -29.801, -8.15632, 28.655, -156.999, -89.5358, 51.7426
5.772, 18, -29.7915, -8.19102, 28.6834, -156.98, -89.5138, 51.7192
5.776, 18, -29.782, -8.22581, 28.7119, -156.962, -89.4917, 51.6958
5.78, 18, -29.7725, -8.26068, 28.7405, -156.944, -89.4695, 51.6722
5.784, 18, -29.7631, -8.29564, 28.7691, -156.925, -89.4472, 51.6486
5.788, 18, -29.7537, -8.33068, 28.7977, -156.906, -89.4249, 51.6249
5.792, 18, -29.7444, -8.3658, 28.8265, -156.888, -89.4025, 51.6011
5.796, 18, -29.735, -8.40101, 28.8553, -156.869, -89.38, 51.5773
5.8, 18, -29.7257, -8.43631, 28.8841, -156.85, -89.3575, 51.5533
5.804, 19, -29.7164, -8.47169, 28.913, -156.831, -89.3349, 51.5293
5.808, 19, -29.7072, -8.50716, 28.942, -156.812, -89.3122, 51.5053
5.812, 19, -29.698, -8.54271, 28.9711, -156.794, -89.2894, 51.4811
5.816, 19, -29.6888, -8.57834, 29.0002, -156.775, -89.2666, 51.4569
5.82, 19, -29.6796, -8.61406, 29.0293, -156.755, -89.2437, 51.4326
5.824, 19, -29.6705, -8.64987, 29.0585, -156.736, -89.2207, 51.4082
5.828, 19, -29.6614, -8.68575, 29.0878, -156.717, -89.1976, 51.3838
5.832, 19, -29.6523, -8.72172, 29.1172, -156.698, -89.1745, 51.3593
5.836, 19, -29.6433, -8.75778, 29.1466, -156.679, -89.1513, 51.3347
5.84, 19, -29.6342, -8.79392, 29.176, -156.659, -89.1281, 51.31
5.844, 19, -29.6252, -8.83014, 29.2056, -156.64, -89.1047, 51.2853
5.848, 19, -29.6163, -8.86645, 29.2351, -156.621, -89.0813, 51.2605
5.852, 19, -29.6073, -8.90284, 29.2648, -156.601, -89.0578, 51.2356
5.856, 19, -29.5984, -8.93931, 29.2945, -156.582, -89.0343, 51.2107
