rpiRobotics/ARM-21-02-F-19-Robot-Motion-Program/data_performance_abb/curve_1/dual_arm/diffevo_pose3/grad_result/sim/dual_iteration_4.csv
timestamp,cmd_num,J1,J2,J3,J4,J5,J6,J1_2,J2_2,J3_2,J4_2,J5_2,J6_2
0.000000000000000000e+00,-1.000000000000000000e+00,-1.949767875671386719e+01,-5.659262180328369141e+00,5.048783493041992188e+01,9.457490539550781250e+01,8.538657379150390625e+01,1.357216644287109375e+02,2.836658716201782227e+00,-3.305561065673828125e+01,-1.849506835937500000e+02,3.603968811035156250e+01,2.112337684631347656e+01,3.339060211181640625e+01
2.000000094994902611e-03,-1.000000000000000000e+00,-1.949767875671386719e+01,-5.659262180328369141e+00,5.048783493041992188e+01,9.457490539550781250e+01,8.538657379150390625e+01,1.357216644287109375e+02,2.836658716201782227e+00,-3.305561065673828125e+01,-1.849506835937500000e+02,3.603968811035156250e+01,2.112337684631347656e+01,3.339060211181640625e+01
6.000000052154064178e-03,-1.000000000000000000e+00,-1.949767875671386719e+01,-5.659262180328369141e+00,5.048783493041992188e+01,9.457490539550781250e+01,8.538657379150390625e+01,1.357216644287109375e+02,2.836658716201782227e+00,-3.305561065673828125e+01,-1.849506835937500000e+02,3.603968811035156250e+01,2.112337684631347656e+01,3.339060211181640625e+01
8.000000379979610443e-03,-1.000000000000000000e+00,-1.949767875671386719e+01,-5.659262180328369141e+00,5.048783493041992188e+01,9.457490539550781250e+01,8.538657379150390625e+01,1.357216644287109375e+02,2.836658716201782227e+00,-3.305561065673828125e+01,-1.849506835937500000e+02,3.603968811035156250e+01,2.112337684631347656e+01,3.339060211181640625e+01
1.099999994039535522e-02,-1.000000000000000000e+00,-1.949767875671386719e+01,-5.659262180328369141e+00,5.048783493041992188e+01,9.457490539550781250e+01,8.538657379150390625e+01,1.357216644287109375e+02,2.836658716201782227e+00,-3.305561065673828125e+01,-1.849506835937500000e+02,3.603968811035156250e+01,2.112337684631347656e+01,3.339060211181640625e+01
1.600000075995922089e-02,-1.000000000000000000e+00,-1.949767875671386719e+01,-5.659262180328369141e+00,5.048783493041992188e+01,9.457490539550781250e+01,8.538657379150390625e+01,1.357216644287109375e+02,2.836658716201782227e+00,-3.305561065673828125e+01,-1.849506835937500000e+02,3.603968811035156250e+01,2.112337684631347656e+01,3.339060211181640625e+01
1.999999955296516418e-02,-1.000000000000000000e+00,-1.949767875671386719e+01,-5.659262180328369141e+00,5.048783493041992188e+01,9.457490539550781250e+01,8.538657379150390625e+01,1.357216644287109375e+02,2.836658716201782227e+00,-3.305561065673828125e+01,-1.849506835937500000e+02,3.603968811035156250e+01,2.112337684631347656e+01,3.339060211181640625e+01
2.400000020861625671e-02,-1.000000000000000000e+00,-1.949767875671386719e+01,-5.659262180328369141e+00,5.048783493041992188e+01,9.457490539550781250e+01,8.538657379150390625e+01,1.357216644287109375e+02,2.836658716201782227e+00,-3.305561065673828125e+01,-1.849506835937500000e+02,3.603968811035156250e+01,2.112337684631347656e+01,3.339060211181640625e+01
2.800000086426734924e-02,-1.000000000000000000e+00,-1.949767875671386719e+01,-5.659262180328369141e+00,5.048783493041992188e+01,9.457490539550781250e+01,8.538657379150390625e+01,1.357216644287109375e+02,2.836658716201782227e+00,-3.305561065673828125e+01,-1.849506835937500000e+02,3.603968811035156250e+01,2.112337684631347656e+01,3.339060211181640625e+01
3.200000151991844177e-02,2.000000000000000000e+00,-1.949767875671386719e+01,-5.659262180328369141e+00,5.048783493041992188e+01,9.457490539550781250e+01,8.538657379150390625e+01,1.357216644287109375e+02,2.836658716201782227e+00,-3.305561065673828125e+01,-1.849506835937500000e+02,3.603968811035156250e+01,2.112337684631347656e+01,3.339060211181640625e+01
3.599999845027923584e-02,2.000000000000000000e+00,-1.949767875671386719e+01,-5.659262180328369141e+00,5.048783493041992188e+01,9.457490539550781250e+01,8.538657379150390625e+01,1.357216644287109375e+02,2.836658716201782227e+00,-3.305561065673828125e+01,-1.849506835937500000e+02,3.603968811035156250e+01,2.112337684631347656e+01,3.339060211181640625e+01
4.199999943375587463e-02,2.000000000000000000e+00,-1.949767875671386719e+01,-5.659262180328369141e+00,5.048783493041992188e+01,9.457490539550781250e+01,8.538657379150390625e+01,1.357216644287109375e+02,2.836658716201782227e+00,-3.305561065673828125e+01,-1.849506835937500000e+02,3.603968811035156250e+01,2.112337684631347656e+01,3.339060211181640625e+01
4.399999976158142090e-02,2.000000000000000000e+00,-1.949767875671386719e+01,-5.659262180328369141e+00,5.048783493041992188e+01,9.457490539550781250e+01,8.538657379150390625e+01,1.357216644287109375e+02,2.836658716201782227e+00,-3.305561065673828125e+01,-1.849506835937500000e+02,3.603968811035156250e+01,2.112337684631347656e+01,3.339060211181640625e+01
4.800000041723251343e-02,2.000000000000000000e+00,-1.949767875671386719e+01,-5.659262180328369141e+00,5.048783493041992188e+01,9.457490539550781250e+01,8.538657379150390625e+01,1.357216644287109375e+02,2.836658716201782227e+00,-3.305561065673828125e+01,-1.849506835937500000e+02,3.603968811035156250e+01,2.112337684631347656e+01,3.339060211181640625e+01
5.200000107288360596e-02,2.000000000000000000e+00,-1.949767875671386719e+01,-5.659262180328369141e+00,5.048783493041992188e+01,9.457490539550781250e+01,8.538657379150390625e+01,1.357216644287109375e+02,2.836658716201782227e+00,-3.305561065673828125e+01,-1.849506835937500000e+02,3.603968811035156250e+01,2.112337684631347656e+01,3.339060211181640625e+01
5.600000172853469849e-02,2.000000000000000000e+00,-1.949767875671386719e+01,-5.659262180328369141e+00,5.048783493041992188e+01,9.457490539550781250e+01,8.538657379150390625e+01,1.357216644287109375e+02,2.836658716201782227e+00,-3.305561065673828125e+01,-1.849506835937500000e+02,3.603968811035156250e+01,2.112337684631347656e+01,3.339060211181640625e+01
5.999999865889549255e-02,2.000000000000000000e+00,-1.949767875671386719e+01,-5.659262180328369141e+00,5.048783493041992188e+01,9.457490539550781250e+01,8.538657379150390625e+01,1.357216644287109375e+02,2.836658716201782227e+00,-3.305561065673828125e+01,-1.849506835937500000e+02,3.603968811035156250e+01,2.112337684631347656e+01,3.339060211181640625e+01
6.400000303983688354e-02,2.000000000000000000e+00,-1.949767875671386719e+01,-5.659262180328369141e+00,5.048783493041992188e+01,9.457490539550781250e+01,8.538657379150390625e+01,1.357216644287109375e+02,2.836658716201782227e+00,-3.305561065673828125e+01,-1.849506835937500000e+02,3.603968811035156250e+01,2.112337684631347656e+01,3.339060211181640625e+01
6.800000369548797607e-02,2.000000000000000000e+00,-1.949767875671386719e+01,-5.659262180328369141e+00,5.048783493041992188e+01,9.457490539550781250e+01,8.538657379150390625e+01,1.357216644287109375e+02,2.836658716201782227e+00,-3.305561065673828125e+01,-1.849506835937500000e+02,3.603968811035156250e+01,2.112337684631347656e+01,3.339060211181640625e+01
7.199999690055847168e-02,2.000000000000000000e+00,-1.949767875671386719e+01,-5.659262180328369141e+00,5.048783493041992188e+01,9.457490539550781250e+01,8.538657379150390625e+01,1.357216644287109375e+02,2.836658716201782227e+00,-3.305561065673828125e+01,-1.849506835937500000e+02,3.603968811035156250e+01,2.112337684631347656e+01,3.339060211181640625e+01
7.599999755620956421e-02,2.000000000000000000e+00,-1.949774742126464844e+01,-5.659236907958984375e+00,5.048781967163085938e+01,9.457490539550781250e+01,8.538656616210937500e+01,1.357216644287109375e+02,2.836658716201782227e+00,-3.305561065673828125e+01,-1.849506835937500000e+02,3.603968811035156250e+01,2.112337684631347656e+01,3.339060211181640625e+01
7.999999821186065674e-02,2.000000000000000000e+00,-1.949812507629394531e+01,-5.659081459045410156e+00,5.048773574829101562e+01,9.457490539550781250e+01,8.538655853271484375e+01,1.357216644287109375e+02,2.836658716201782227e+00,-3.305561065673828125e+01,-1.849506835937500000e+02,3.603968811035156250e+01,2.112337684631347656e+01,3.339060211181640625e+01
8.399999886751174927e-02,2.000000000000000000e+00,-1.949920272827148438e+01,-5.658598899841308594e+00,5.048745346069335938e+01,9.457492065429687500e+01,8.538653564453125000e+01,1.357216491699218750e+02,2.836658716201782227e+00,-3.305561065673828125e+01,-1.849506835937500000e+02,3.603968811035156250e+01,2.112337684631347656e+01,3.339060211181640625e+01
8.799999952316284180e-02,2.000000000000000000e+00,-1.950134658813476562e+01,-5.657558441162109375e+00,5.048682785034179688e+01,9.457494354248046875e+01,8.538648986816406250e+01,1.357216339111328125e+02,2.836631774902343750e+00,-3.305561065673828125e+01,-1.849506835937500000e+02,3.603968811035156250e+01,2.112337875366210938e+01,3.339060211181640625e+01
9.200000017881393433e-02,2.000000000000000000e+00,-1.950477790832519531e+01,-5.655764102935791016e+00,5.048569107055664062e+01,9.457500457763671875e+01,8.538639831542968750e+01,1.357215881347656250e+02,2.836455345153808594e+00,-3.305559921264648438e+01,-1.849506530761718750e+02,3.603969192504882812e+01,2.112339401245117188e+01,3.339060211181640625e+01
9.600000083446502686e-02,2.000000000000000000e+00,-1.950966262817382812e+01,-5.653049468994140625e+00,5.048386001586914062e+01,9.457512664794921875e+01,8.538626861572265625e+01,1.357214813232421875e+02,2.835873126983642578e+00,-3.305556869506835938e+01,-1.849505767822265625e+02,3.603970336914062500e+01,2.112345504760742188e+01,3.339059066772460938e+01
1.000000014901161194e-01,2.000000000000000000e+00,-1.951613998413085938e+01,-5.649257183074951172e+00,5.048112106323242188e+01,9.457534027099609375e+01,8.538607788085937500e+01,1.357212524414062500e+02,2.834536552429199219e+00,-3.305548477172851562e+01,-1.849503784179687500e+02,3.603973007202148438e+01,2.112361526489257812e+01,3.339056396484375000e+01
1.040000021457672119e-01,2.000000000000000000e+00,-1.952424430847167969e+01,-5.644289970397949219e+00,5.047725296020507812e+01,9.457569122314453125e+01,8.538582611083984375e+01,1.357208709716796875e+02,2.832065105438232422e+00,-3.305532073974609375e+01,-1.849500274658203125e+02,3.603978347778320312e+01,2.112396621704101562e+01,3.339049148559570312e+01
1.080000028014183044e-01,2.000000000000000000e+00,-1.953389739990234375e+01,-5.638122081756591797e+00,5.047205352783203125e+01,9.457622528076171875e+01,8.538550567626953125e+01,1.357202911376953125e+02,2.828037261962890625e+00,-3.305502700805664062e+01,-1.849494781494140625e+02,3.603989028930664062e+01,2.112464141845703125e+01,3.339032745361328125e+01
1.120000034570693970e-01,2.000000000000000000e+00,-1.954511642456054688e+01,-5.630719184875488281e+00,5.046528625488281250e+01,9.457698822021484375e+01,8.538510894775390625e+01,1.357194061279296875e+02,2.821988105773925781e+00,-3.305454635620117188e+01,-1.849486694335937500e+02,3.604006576538085938e+01,2.112581634521484375e+01,3.339000701904296875e+01
1.159999966621398926e-01,2.000000000000000000e+00,-1.955816078186035156e+01,-5.621944427490234375e+00,5.045668792724609375e+01,9.457804107666015625e+01,8.538463592529296875e+01,1.357182159423828125e+02,2.813529968261718750e+00,-3.305382537841796875e+01,-1.849476013183593750e+02,3.604033279418945312e+01,2.112769508361816406e+01,3.338947296142578125e+01
1.199999973177909851e-01,2.000000000000000000e+00,-1.957345581054687500e+01,-5.611570358276367188e+00,5.044593048095703125e+01,9.457942962646484375e+01,8.538405609130859375e+01,1.357165832519531250e+02,2.802441120147705078e+00,-3.305280685424804688e+01,-1.849462738037109375e+02,3.604072952270507812e+01,2.113049507141113281e+01,3.338862609863281250e+01
1.239999979734420776e-01,2.000000000000000000e+00,-1.959136009216308594e+01,-5.599390029907226562e+00,5.043273162841796875e+01,9.458119964599609375e+01,8.538337707519531250e+01,1.357145080566406250e+02,2.788564682006835938e+00,-3.305144119262695312e+01,-1.849447021484375000e+02,3.604127502441406250e+01,2.113442039489746094e+01,3.338739013671875000e+01
1.280000060796737671e-01,2.000000000000000000e+00,-1.961203384399414062e+01,-5.585326194763183594e+00,5.041688156127929688e+01,9.458339691162109375e+01,8.538257598876953125e+01,1.357119293212890625e+02,2.771667480468750000e+00,-3.304967880249023438e+01,-1.849428710937500000e+02,3.604199600219726562e+01,2.113964843750000000e+01,3.338570022583007812e+01
1.309999972581863403e-01,2.000000000000000000e+00,-1.963544082641601562e+01,-5.569423198699951172e+00,5.039828109741210938e+01,9.458604431152343750e+01,8.538166046142578125e+01,1.357087860107421875e+02,2.751464366912841797e+00,-3.304748535156250000e+01,-1.849407958984375000e+02,3.604290390014648438e+01,2.114631462097167969e+01,3.338351058959960938e+01
1.360000073909759521e-01,2.000000000000000000e+00,-1.966148948669433594e+01,-5.551762104034423828e+00,5.037687683105468750e+01,9.458916473388671875e+01,8.538063049316406250e+01,1.357050476074218750e+02,2.727761268615722656e+00,-3.304484558105468750e+01,-1.849384002685546875e+02,3.604401397705078125e+01,2.115448379516601562e+01,3.338079452514648438e+01
1.389999985694885254e-01,2.000000000000000000e+00,-1.969009590148925781e+01,-5.532397747039794922e+00,5.035266876220703125e+01,9.459278106689453125e+01,8.537948608398437500e+01,1.357007446289062500e+02,2.700476169586181641e+00,-3.304174804687500000e+01,-1.849356994628906250e+02,3.604531860351562500e+01,2.116415786743164062e+01,3.337755584716796875e+01
1.439999938011169434e-01,2.000000000000000000e+00,-1.972117424011230469e+01,-5.511383056640625000e+00,5.032569503784179688e+01,9.459687805175781250e+01,8.537824249267578125e+01,1.356958465576171875e+02,2.669578790664672852e+00,-3.303821182250976562e+01,-1.849327087402343750e+02,3.604682159423828125e+01,2.117528343200683594e+01,3.337382125854492188e+01
1.480000019073486328e-01,2.000000000000000000e+00,-1.975463294982910156e+01,-5.488769054412841797e+00,5.029607009887695312e+01,9.460143280029296875e+01,8.537688446044921875e+01,1.356903839111328125e+02,2.635126113891601562e+00,-3.303425598144531250e+01,-1.849293823242187500e+02,3.604850387573242188e+01,2.118776702880859375e+01,3.336962509155273438e+01
1.519999951124191284e-01,2.000000000000000000e+00,-1.979048728942871094e+01,-5.464524269104003906e+00,5.026390457153320312e+01,9.460641479492187500e+01,8.537542724609375000e+01,1.356844024658203125e+02,2.597343921661376953e+00,-3.302991867065429688e+01,-1.849257202148437500e+02,3.605035018920898438e+01,2.120147132873535156e+01,3.336501693725585938e+01
1.560000032186508179e-01,2.000000000000000000e+00,-1.982886314392089844e+01,-5.438532829284667969e+00,5.022932434082031250e+01,9.461177825927734375e+01,8.537386322021484375e+01,1.356779632568359375e+02,2.556635618209838867e+00,-3.302524566650390625e+01,-1.849217834472656250e+02,3.605234146118164062e+01,2.121623611450195312e+01,3.336005020141601562e+01
1.599999964237213135e-01,2.000000000000000000e+00,-1.986982727050781250e+01,-5.410727977752685547e+00,5.019248962402343750e+01,9.461747741699218750e+01,8.537218475341796875e+01,1.356711273193359375e+02,2.513449907302856445e+00,-3.302029418945312500e+01,-1.849175872802734375e+02,3.605444717407226562e+01,2.123188781738281250e+01,3.335478973388671875e+01
1.640000045299530029e-01,2.000000000000000000e+00,-1.991321754455566406e+01,-5.381202697753906250e+00,5.015365600585937500e+01,9.462345886230468750e+01,8.537042236328125000e+01,1.356639556884765625e+02,2.468159675598144531e+00,-3.301511764526367188e+01,-1.849131927490234375e+02,3.605665588378906250e+01,2.124825096130371094e+01,3.334928894042968750e+01
1.679999977350234985e-01,2.000000000000000000e+00,-1.995866203308105469e+01,-5.350179195404052734e+00,5.011313247680664062e+01,9.462968444824218750e+01,8.536856842041015625e+01,1.356564941406250000e+02,2.421073913574218750e+00,-3.300975799560546875e+01,-1.849085998535156250e+02,3.605893325805664062e+01,2.126516342163085938e+01,3.334361648559570312e+01
1.720000058412551880e-01,2.000000000000000000e+00,-2.000577735900878906e+01,-5.317887306213378906e+00,5.007123184204101562e+01,9.463608551025390625e+01,8.536664581298828125e+01,1.356488342285156250e+02,2.372500658035278320e+00,-3.300425720214843750e+01,-1.849038391113281250e+02,3.606126785278320312e+01,2.128247261047363281e+01,3.333782196044921875e+01
1.759999990463256836e-01,2.000000000000000000e+00,-2.005430221557617188e+01,-5.284508228302001953e+00,5.002820968627929688e+01,9.464263153076171875e+01,8.536465454101562500e+01,1.356409912109375000e+02,2.322767019271850586e+00,-3.299866104125976562e+01,-1.848989257812500000e+02,3.606364059448242188e+01,2.130004882812500000e+01,3.333194732666015625e+01
1.800000071525573730e-01,2.000000000000000000e+00,-2.010408401489257812e+01,-5.250195026397705078e+00,4.998429489135742188e+01,9.464928436279296875e+01,8.536261749267578125e+01,1.356330261230468750e+02,2.272167921066284180e+00,-3.299298858642578125e+01,-1.848938751220703125e+02,3.606604385375976562e+01,2.131779289245605469e+01,3.332603073120117188e+01
1.840000003576278687e-01,2.000000000000000000e+00,-2.015501213073730469e+01,-5.215095043182373047e+00,4.993968963623046875e+01,9.465601348876953125e+01,8.536053466796875000e+01,1.356249847412109375e+02,2.220942258834838867e+00,-3.298728179931640625e+01,-1.848887634277343750e+02,3.606845474243164062e+01,2.133563041687011719e+01,3.332009124755859375e+01
1.879999935626983643e-01,2.000000000000000000e+00,-2.020694923400878906e+01,-5.179349422454833984e+00,4.989456558227539062e+01,9.466279602050781250e+01,8.535842895507812500e+01,1.356168975830078125e+02,2.169310808181762695e+00,-3.298154449462890625e+01,-1.848835754394531250e+02,3.607087326049804688e+01,2.135351181030273438e+01,3.331414413452148438e+01
1.920000016689300537e-01,2.000000000000000000e+00,-2.025978469848632812e+01,-5.143073558807373047e+00,4.984906387329101562e+01,9.466960906982421875e+01,8.535628509521484375e+01,1.356087646484375000e+02,2.117475032806396484e+00,-3.297579574584960938e+01,-1.848783569335937500e+02,3.607329940795898438e+01,2.137141036987304688e+01,3.330819702148437500e+01
1.959999948740005493e-01,2.000000000000000000e+00,-2.031342124938964844e+01,-5.106374263763427734e+00,4.980328750610351562e+01,9.467642211914062500e+01,8.535412597656250000e+01,1.356006164550781250e+02,2.065577745437622070e+00,-3.297003936767578125e+01,-1.848731231689453125e+02,3.607572937011718750e+01,2.138931083679199219e+01,3.330224990844726562e+01
2.000000029802322388e-01,2.000000000000000000e+00,-2.036767578125000000e+01,-5.069384574890136719e+00,4.975733947753906250e+01,9.468325042724609375e+01,8.535195922851562500e+01,1.355924835205078125e+02,2.013680696487426758e+00,-3.296429061889648438e+01,-1.848678894042968750e+02,3.607815170288085938e+01,2.140720748901367188e+01,3.329630661010742188e+01
2.039999961853027344e-01,2.000000000000000000e+00,-2.042228317260742188e+01,-5.032246112823486328e+00,4.971131515502929688e+01,9.469008636474609375e+01,8.534977722167968750e+01,1.355843353271484375e+02,1.961795091629028320e+00,-3.295853805541992188e+01,-1.848626708984375000e+02,3.608057785034179688e+01,2.142510032653808594e+01,3.329035949707031250e+01
2.080000042915344238e-01,2.000000000000000000e+00,-2.047700691223144531e+01,-4.995065212249755859e+00,4.966527175903320312e+01,9.469692230224609375e+01,8.534759521484375000e+01,1.355762023925781250e+02,1.909921526908874512e+00,-3.295278930664062500e+01,-1.848574523925781250e+02,3.608300018310546875e+01,2.144298934936523438e+01,3.328441619873046875e+01
2.119999974966049194e-01,2.000000000000000000e+00,-2.053173637390136719e+01,-4.957885265350341797e+00,4.961923599243164062e+01,9.470374298095703125e+01,8.534541320800781250e+01,1.355680541992187500e+02,1.858060121536254883e+00,-3.294704055786132812e+01,-1.848522338867187500e+02,3.608542251586914062e+01,2.146087455749511719e+01,3.327847671508789062e+01
2.160000056028366089e-01,2.000000000000000000e+00,-2.058645629882812500e+01,-4.920713901519775391e+00,4.957320785522460938e+01,9.471057128906250000e+01,8.534323120117187500e+01,1.355599060058593750e+02,1.806210637092590332e+00,-3.294129180908203125e+01,-1.848470001220703125e+02,3.608784866333007812e+01,2.147875404357910156e+01,3.327253723144531250e+01
2.199999988079071045e-01,2.000000000000000000e+00,-2.064116287231445312e+01,-4.883550167083740234e+00,4.952718734741210938e+01,9.471739959716796875e+01,8.534104919433593750e+01,1.355517730712890625e+02,1.754373192787170410e+00,-3.293554687500000000e+01,-1.848417816162109375e+02,3.609027099609375000e+01,2.149663162231445312e+01,3.326659774780273438e+01
2.240000069141387939e-01,2.000000000000000000e+00,-2.069585609436035156e+01,-4.846395969390869141e+00,4.948118209838867188e+01,9.472422790527343750e+01,8.533886718750000000e+01,1.355436401367187500e+02,1.702547669410705566e+00,-3.292980575561523438e+01,-1.848365631103515625e+02,3.609268951416015625e+01,2.151450347900390625e+01,3.326065826416015625e+01
2.280000001192092896e-01,2.000000000000000000e+00,-2.075053596496582031e+01,-4.809250354766845703e+00,4.943518829345703125e+01,9.473104858398437500e+01,8.533668518066406250e+01,1.355355224609375000e+02,1.650734305381774902e+00,-3.292406082153320312e+01,-1.848313446044921875e+02,3.609511184692382812e+01,2.153237152099609375e+01,3.325472259521484375e+01
2.319999933242797852e-01,2.000000000000000000e+00,-2.080520629882812500e+01,-4.772113323211669922e+00,4.938920211791992188e+01,9.473786926269531250e+01,8.533450317382812500e+01,1.355273742675781250e+02,1.598933100700378418e+00,-3.291831970214843750e+01,-1.848261108398437500e+02,3.609753417968750000e+01,2.155023574829101562e+01,3.324878692626953125e+01
2.360000014305114746e-01,2.000000000000000000e+00,-2.085986137390136719e+01,-4.734984874725341797e+00,4.934322738647460938e+01,9.474468994140625000e+01,8.533232879638671875e+01,1.355192413330078125e+02,1.547143936157226562e+00,-3.291257858276367188e+01,-1.848209075927734375e+02,3.609995269775390625e+01,2.156809425354003906e+01,3.324285507202148438e+01
2.399999946355819702e-01,2.000000000000000000e+00,-2.091450309753417969e+01,-4.697865009307861328e+00,4.929726791381835938e+01,9.475150299072265625e+01,8.533014678955078125e+01,1.355111236572265625e+02,1.495366811752319336e+00,-3.290683746337890625e+01,-1.848156890869140625e+02,3.610237503051757812e+01,2.158595085144042969e+01,3.323692321777343750e+01
2.440000027418136597e-01,2.000000000000000000e+00,-2.096913528442382812e+01,-4.660753726959228516e+00,4.925131225585937500e+01,9.475832366943359375e+01,8.532798004150390625e+01,1.355030059814453125e+02,1.443601846694946289e+00,-3.290110015869140625e+01,-1.848104705810546875e+02,3.610479354858398438e+01,2.160380363464355469e+01,3.323099136352539062e+01
2.479999959468841553e-01,2.000000000000000000e+00,-2.102375221252441406e+01,-4.623651504516601562e+00,4.920536804199218750e+01,9.476513671875000000e+01,8.532579803466796875e+01,1.354948730468750000e+02,1.391848921775817871e+00,-3.289536666870117188e+01,-1.848052520751953125e+02,3.610721206665039062e+01,2.162164878845214844e+01,3.322506332397460938e+01
2.520000040531158447e-01,2.000000000000000000e+00,-2.107835769653320312e+01,-4.586556911468505859e+00,4.915943908691406250e+01,9.477194976806640625e+01,8.532361602783203125e+01,1.354867553710937500e+02,1.340108036994934082e+00,-3.288962936401367188e+01,-1.848000488281250000e+02,3.610963058471679688e+01,2.163949203491210938e+01,3.321913528442382812e+01
2.560000121593475342e-01,2.000000000000000000e+00,-2.113294982910156250e+01,-4.549471855163574219e+00,4.911351776123046875e+01,9.477876281738281250e+01,8.532144165039062500e+01,1.354786376953125000e+02,1.288379073143005371e+00,-3.288389587402343750e+01,-1.847948303222656250e+02,3.611204910278320312e+01,2.165733146667480469e+01,3.321320724487304688e+01
2.599999904632568359e-01,2.000000000000000000e+00,-2.118753051757812500e+01,-4.512394905090332031e+00,4.906760787963867188e+01,9.478557586669921875e+01,8.531926727294921875e+01,1.354705200195312500e+02,1.236662268638610840e+00,-3.287816619873046875e+01,-1.847896270751953125e+02,3.611446380615234375e+01,2.167516708374023438e+01,3.320728302001953125e+01
2.639999985694885254e-01,2.000000000000000000e+00,-2.124209594726562500e+01,-4.475326538085937500e+00,4.902170944213867188e+01,9.479238128662109375e+01,8.531709289550781250e+01,1.354624023437500000e+02,1.184957385063171387e+00,-3.287243270874023438e+01,-1.847844085693359375e+02,3.611687850952148438e+01,2.169299697875976562e+01,3.320135879516601562e+01
2.680000066757202148e-01,2.000000000000000000e+00,-2.129665184020996094e+01,-4.438266754150390625e+00,4.897582244873046875e+01,9.479918670654296875e+01,8.531491851806640625e+01,1.354542846679687500e+02,1.133264422416687012e+00,-3.286670303344726562e+01,-1.847792053222656250e+02,3.611929702758789062e+01,2.171082305908203125e+01,3.319543838500976562e+01
2.720000147819519043e-01,2.000000000000000000e+00,-2.135119438171386719e+01,-4.401216030120849609e+00,4.892994308471679688e+01,9.480599212646484375e+01,8.531273651123046875e+01,1.354461822509765625e+02,1.081583380699157715e+00,-3.286097717285156250e+01,-1.847740020751953125e+02,3.612171173095703125e+01,2.172864532470703125e+01,3.318951416015625000e+01
2.759999930858612061e-01,2.000000000000000000e+00,-2.140572357177734375e+01,-4.364173412322998047e+00,4.888407516479492188e+01,9.481279754638671875e+01,8.531056976318359375e+01,1.354380645751953125e+02,1.029914379119873047e+00,-3.285524749755859375e+01,-1.847687835693359375e+02,3.612412643432617188e+01,2.174646377563476562e+01,3.318359756469726562e+01
2.800000011920928955e-01,2.000000000000000000e+00,-2.146024131774902344e+01,-4.327139377593994141e+00,4.883821487426757812e+01,9.481959533691406250e+01,8.530839538574218750e+01,1.354299468994140625e+02,9.782571792602539062e-01,-3.284952163696289062e+01,-1.847635803222656250e+02,3.612654113769531250e+01,2.176427841186523438e+01,3.317767715454101562e+01
2.840000092983245850e-01,2.000000000000000000e+00,-2.151474380493164062e+01,-4.290113449096679688e+00,4.879237365722656250e+01,9.482640075683593750e+01,8.530622100830078125e+01,1.354218444824218750e+02,9.266118407249450684e-01,-3.284379959106445312e+01,-1.847583770751953125e+02,3.612895202636718750e+01,2.178208732604980469e+01,3.317176055908203125e+01
2.879999876022338867e-01,2.000000000000000000e+00,-2.156923675537109375e+01,-4.253096580505371094e+00,4.874653625488281250e+01,9.483320617675781250e+01,8.530404663085937500e+01,1.354137420654296875e+02,8.749783039093017578e-01,-3.283807373046875000e+01,-1.847531738281250000e+02,3.613136672973632812e+01,2.179989433288574219e+01,3.316584396362304688e+01
2.919999957084655762e-01,2.000000000000000000e+00,-2.162371635437011719e+01,-4.216087818145751953e+00,4.870071029663085938e+01,9.483999633789062500e+01,8.530187988281250000e+01,1.354056396484375000e+02,8.233566284179687500e-01,-3.283235549926757812e+01,-1.847479858398437500e+02,3.613377761840820312e+01,2.181769561767578125e+01,3.315993118286132812e+01
2.960000038146972656e-01,2.000000000000000000e+00,-2.167818260192871094e+01,-4.179088115692138672e+00,4.865489578247070312e+01,9.484679412841796875e+01,8.529970550537109375e+01,1.353975524902343750e+02,7.717466950416564941e-01,-3.282663345336914062e+01,-1.847427825927734375e+02,3.613619232177734375e+01,2.183549499511718750e+01,3.315401840209960938e+01
3.000000119209289551e-01,2.000000000000000000e+00,-2.173263549804687500e+01,-4.142096042633056641e+00,4.860909271240234375e+01,9.485359191894531250e+01,8.529753112792968750e+01,1.353894500732421875e+02,7.201485037803649902e-01,-3.282091522216796875e+01,-1.847375793457031250e+02,3.613860321044921875e+01,2.185328865051269531e+01,3.314810562133789062e+01
3.039999902248382568e-01,2.000000000000000000e+00,-2.178707695007324219e+01,-4.105113029479980469e+00,4.856329345703125000e+01,9.486038208007812500e+01,8.529536437988281250e+01,1.353813476562500000e+02,6.685621142387390137e-01,-3.281519699096679688e+01,-1.847323913574218750e+02,3.614101409912109375e+01,2.187107849121093750e+01,3.314219665527343750e+01
3.079999983310699463e-01,2.000000000000000000e+00,-2.184150695800781250e+01,-4.068138599395751953e+00,4.851751327514648438e+01,9.486717224121093750e+01,8.529319763183593750e+01,1.353732452392578125e+02,6.169875264167785645e-01,-3.280947875976562500e+01,-1.847271881103515625e+02,3.614342117309570312e+01,2.188886451721191406e+01,3.313628768920898438e+01
3.120000064373016357e-01,2.000000000000000000e+00,-2.189592552185058594e+01,-4.031172275543212891e+00,4.847174072265625000e+01,9.487395477294921875e+01,8.529102325439453125e+01,1.353651580810546875e+02,5.654247403144836426e-01,-3.280376434326171875e+01,-1.847219848632812500e+02,3.614583206176757812e+01,2.190664482116699219e+01,3.313037872314453125e+01
3.160000145435333252e-01,2.000000000000000000e+00,-2.195032882690429688e+01,-3.994214534759521484e+00,4.842597579956054688e+01,9.488074493408203125e+01,8.528885650634765625e+01,1.353570556640625000e+02,5.138736367225646973e-01,-3.279804992675781250e+01,-1.847167968750000000e+02,3.614823913574218750e+01,2.192442321777343750e+01,3.312447357177734375e+01
3.199999928474426270e-01,2.000000000000000000e+00,-2.200472259521484375e+01,-3.957265138626098633e+00,4.838022613525390625e+01,9.488753509521484375e+01,8.528668975830078125e+01,1.353489685058593750e+02,4.623343348503112793e-01,-3.279233551025390625e+01,-1.847116088867187500e+02,3.615065002441406250e+01,2.194219589233398438e+01,3.311856842041015625e+01
3.240000009536743164e-01,2.000000000000000000e+00,-2.205910110473632812e+01,-3.920324087142944336e+00,4.833448410034179688e+01,9.489431762695312500e+01,8.528451538085937500e+01,1.353408813476562500e+02,4.108067452907562256e-01,-3.278662490844726562e+01,-1.847064208984375000e+02,3.615306091308593750e+01,2.195996665954589844e+01,3.311266708374023438e+01
3.280000090599060059e-01,2.000000000000000000e+00,-2.211346817016601562e+01,-3.883391618728637695e+00,4.828874969482421875e+01,9.490110778808593750e+01,8.528234863281250000e+01,1.353327941894531250e+02,3.592909574508666992e-01,-3.278091430664062500e+01,-1.847012329101562500e+02,3.615546798706054688e+01,2.197773170471191406e+01,3.310676574707031250e+01
3.319999873638153076e-01,2.000000000000000000e+00,-2.216782379150390625e+01,-3.846467494964599609e+00,4.824303054809570312e+01,9.490789031982421875e+01,8.528018188476562500e+01,1.353247070312500000e+02,3.077868819236755371e-01,-3.277520751953125000e+01,-1.846960296630859375e+02,3.615787124633789062e+01,2.199549484252929688e+01,3.310086441040039062e+01
3.359999954700469971e-01,2.000000000000000000e+00,-2.222216415405273438e+01,-3.809551715850830078e+00,4.819731903076171875e+01,9.491466522216796875e+01,8.527802276611328125e+01,1.353166351318359375e+02,2.562945485115051270e-01,-3.276950073242187500e+01,-1.846908416748046875e+02,3.616027832031250000e+01,2.201325035095214844e+01,3.309496307373046875e+01
3.400000035762786865e-01,2.000000000000000000e+00,-2.227649497985839844e+01,-3.772644281387329102e+00,4.815161895751953125e+01,9.492144775390625000e+01,8.527585601806640625e+01,1.353085479736328125e+02,2.048139870166778564e-01,-3.276379394531250000e+01,-1.846856689453125000e+02,3.616268157958984375e+01,2.203100395202636719e+01,3.308906555175781250e+01
3.440000116825103760e-01,2.000000000000000000e+00,-2.233081245422363281e+01,-3.735745429992675781e+00,4.810592651367187500e+01,9.492822265625000000e+01,8.527368927001953125e+01,1.353004760742187500e+02,1.533451378345489502e-01,-3.275809097290039062e+01,-1.846804809570312500e+02,3.616508865356445312e+01,2.204875183105468750e+01,3.308316802978515625e+01
3.479999899864196777e-01,2.000000000000000000e+00,-2.238511657714843750e+01,-3.698855161666870117e+00,4.806024932861328125e+01,9.493499755859375000e+01,8.527152252197265625e+01,1.352923889160156250e+02,1.018880382180213928e-01,-3.275238800048828125e+01,-1.846752929687500000e+02,3.616749572753906250e+01,2.206649971008300781e+01,3.307727432250976562e+01
3.519999980926513672e-01,2.000000000000000000e+00,-2.243941116333007812e+01,-3.661972999572753906e+00,4.801457977294921875e+01,9.494177246093750000e+01,8.526936340332031250e+01,1.352843170166015625e+02,5.044266209006309509e-02,-3.274668502807617188e+01,-1.846701049804687500e+02,3.616989898681640625e+01,2.208423995971679688e+01,3.307138061523437500e+01
3.560000061988830566e-01,2.000000000000000000e+00,-2.249369239807128906e+01,-3.625099420547485352e+00,4.796892166137695312e+01,9.494854736328125000e+01,8.526719665527343750e+01,1.352762451171875000e+02,-9.909858927130699158e-04,-3.274098205566406250e+01,-1.846649322509765625e+02,3.617230224609375000e+01,2.210197639465332031e+01,3.306548690795898438e+01
3.600000143051147461e-01,2.000000000000000000e+00,-2.254795837402343750e+01,-3.588234424591064453e+00,4.792327499389648438e+01,9.495532226562500000e+01,8.526502990722656250e+01,1.352681732177734375e+02,-5.241291224956512451e-02,-3.273528289794921875e+01,-1.846597595214843750e+02,3.617470550537109375e+01,2.211970901489257812e+01,3.305959320068359375e+01
3.639999926090240479e-01,2.000000000000000000e+00,-2.260221481323242188e+01,-3.551377296447753906e+00,4.787763595581054688e+01,9.496208953857421875e+01,8.526286315917968750e+01,1.352601165771484375e+02,-1.038231179118156433e-01,-3.272958374023437500e+01,-1.846545562744140625e+02,3.617710876464843750e+01,2.213743972778320312e+01,3.305370712280273438e+01
3.680000007152557373e-01,2.000000000000000000e+00,-2.265645790100097656e+01,-3.514528989791870117e+00,4.783200836181640625e+01,9.496885681152343750e+01,8.526070404052734375e+01,1.352520294189453125e+02,-1.552215963602066040e-01,-3.272388839721679688e+01,-1.846493835449218750e+02,3.617950820922851562e+01,2.215516281127929688e+01,3.304781723022460938e+01
3.720000088214874268e-01,2.000000000000000000e+00,-2.271068954467773438e+01,-3.477689027786254883e+00,4.778639221191406250e+01,9.497562408447265625e+01,8.525853729248046875e+01,1.352439727783203125e+02,-2.066083848476409912e-01,-3.271818923950195312e+01,-1.846442108154296875e+02,3.618191146850585938e+01,2.217288398742675781e+01,3.304192733764648438e+01
3.759999871253967285e-01,2.000000000000000000e+00,-2.276490783691406250e+01,-3.440857172012329102e+00,4.774078750610351562e+01,9.498239135742187500e+01,8.525638580322265625e+01,1.352359008789062500e+02,-2.579834461212158203e-01,-3.271249771118164062e+01,-1.846390380859375000e+02,3.618431091308593750e+01,2.219060134887695312e+01,3.303604507446289062e+01
3.799999952316284180e-01,2.000000000000000000e+00,-2.281911468505859375e+01,-3.404033899307250977e+00,4.769519042968750000e+01,9.498915100097656250e+01,8.525421905517578125e+01,1.352278442382812500e+02,-3.093468248844146729e-01,-3.270680618286132812e+01,-1.846338653564453125e+02,3.618671035766601562e+01,2.220831489562988281e+01,3.303015899658203125e+01
3.840000033378601074e-01,2.000000000000000000e+00,-2.287330818176269531e+01,-3.367219209671020508e+00,4.764960479736328125e+01,9.499591064453125000e+01,8.525205993652343750e+01,1.352197875976562500e+02,-3.606984913349151611e-01,-3.270111083984375000e+01,-1.846286926269531250e+02,3.618911361694335938e+01,2.222602272033691406e+01,3.302427673339843750e+01
3.880000114440917969e-01,2.000000000000000000e+00,-2.292749023437500000e+01,-3.330412626266479492e+00,4.760402679443359375e+01,9.500267028808593750e+01,8.524990081787109375e+01,1.352117309570312500e+02,-4.120384156703948975e-01,-3.269542312622070312e+01,-1.846235198974609375e+02,3.619150924682617188e+01,2.224372863769531250e+01,3.301839447021484375e+01
3.919999897480010986e-01,2.000000000000000000e+00,-2.298165893554687500e+01,-3.293614625930786133e+00,4.755846405029296875e+01,9.500943756103515625e+01,8.524774169921875000e+01,1.352036590576171875e+02,-4.633667171001434326e-01,-3.268973159790039062e+01,-1.846183471679687500e+02,3.619390869140625000e+01,2.226142883300781250e+01,3.301251602172851562e+01
3.959999978542327881e-01,2.000000000000000000e+00,-2.303581619262695312e+01,-3.256824731826782227e+00,4.751290893554687500e+01,9.501618957519531250e+01,8.524557495117187500e+01,1.351956176757812500e+02,-5.146832466125488281e-01,-3.268404388427734375e+01,-1.846131744384765625e+02,3.619630813598632812e+01,2.227912712097167969e+01,3.300663375854492188e+01
4.000000059604644775e-01,2.000000000000000000e+00,-2.308996009826660156e+01,-3.220043659210205078e+00,4.746736526489257812e+01,9.502294158935546875e+01,8.524341583251953125e+01,1.351875610351562500e+02,-5.659881830215454102e-01,-3.267835617065429688e+01,-1.846080017089843750e+02,3.619870376586914062e+01,2.229681777954101562e+01,3.300075531005859375e+01
4.040000140666961670e-01,2.000000000000000000e+00,-2.314409255981445312e+01,-3.183270692825317383e+00,4.742183303833007812e+01,9.502970123291015625e+01,8.524125671386718750e+01,1.351795196533203125e+02,-6.172813177108764648e-01,-3.267267227172851562e+01,-1.846028442382812500e+02,3.620110321044921875e+01,2.231450843811035156e+01,3.299487686157226562e+01
4.079999923706054688e-01,2.000000000000000000e+00,-2.319821357727050781e+01,-3.146506071090698242e+00,4.737630844116210938e+01,9.503645324707031250e+01,8.523910522460937500e+01,1.351714630126953125e+02,-6.685628890991210938e-01,-3.266698837280273438e+01,-1.845976715087890625e+02,3.620349884033203125e+01,2.233219146728515625e+01,3.298900604248046875e+01
4.120000004768371582e-01,2.000000000000000000e+00,-2.325232124328613281e+01,-3.109750032424926758e+00,4.733079528808593750e+01,9.504320526123046875e+01,8.523695373535156250e+01,1.351634063720703125e+02,-7.198327183723449707e-01,-3.266130447387695312e+01,-1.845924987792968750e+02,3.620589447021484375e+01,2.234987258911132812e+01,3.298313140869140625e+01
4.160000085830688477e-01,2.000000000000000000e+00,-2.330641555786132812e+01,-3.073002099990844727e+00,4.728528976440429688e+01,9.504994964599609375e+01,8.523479461669921875e+01,1.351553649902343750e+02,-7.710908651351928711e-01,-3.265562438964843750e+01,-1.845873413085937500e+02,3.620829010009765625e+01,2.236754989624023438e+01,3.297725677490234375e+01
4.199999868869781494e-01,2.000000000000000000e+00,-2.336049842834472656e+01,-3.036262750625610352e+00,4.723979949951171875e+01,9.505670166015625000e+01,8.523263549804687500e+01,1.351473236083984375e+02,-8.223373889923095703e-01,-3.264994430541992188e+01,-1.845821685791015625e+02,3.621068572998046875e+01,2.238522148132324219e+01,3.297138595581054688e+01
4.239999949932098389e-01,2.000000000000000000e+00,-2.341456985473632812e+01,-2.999531507492065430e+00,4.719432067871093750e+01,9.506344604492187500e+01,8.523048400878906250e+01,1.351392822265625000e+02,-8.735721707344055176e-01,-3.264426422119140625e+01,-1.845770111083984375e+02,3.621307754516601562e+01,2.240289115905761719e+01,3.296551513671875000e+01
4.280000030994415283e-01,2.000000000000000000e+00,-2.346862792968750000e+01,-2.962808609008789062e+00,4.714884948730468750e+01,9.507019805908203125e+01,8.522832489013671875e+01,1.351312408447265625e+02,-9.247953295707702637e-01,-3.263858795166015625e+01,-1.845718688964843750e+02,3.621547317504882812e+01,2.242055511474609375e+01,3.295964813232421875e+01
4.320000112056732178e-01,2.000000000000000000e+00,-2.352267456054687500e+01,-2.926094293594360352e+00,4.710338592529296875e+01,9.507693481445312500e+01,8.522617340087890625e+01,1.351231994628906250e+02,-9.760069251060485840e-01,-3.263290786743164062e+01,-1.845666961669921875e+02,3.621786880493164062e+01,2.243821525573730469e+01,3.295378112792968750e+01
4.359999895095825195e-01,2.000000000000000000e+00,-2.357670783996582031e+01,-2.889388322830200195e+00,4.705793380737304688e+01,9.508367919921875000e+01,8.522401428222656250e+01,1.351151733398437500e+02,-1.027206778526306152e+00,-3.262723541259765625e+01,-1.845615386962890625e+02,3.622025680541992188e+01,2.245587348937988281e+01,3.294791412353515625e+01
4.399999976158142090e-01,2.000000000000000000e+00,-2.363072776794433594e+01,-2.852690696716308594e+00,4.701249313354492188e+01,9.509042358398437500e+01,8.522186279296875000e+01,1.351071319580078125e+02,-1.078394889831542969e+00,-3.262155914306640625e+01,-1.845563812255859375e+02,3.622265243530273438e+01,2.247352600097656250e+01,3.294205093383789062e+01
4.440000057220458984e-01,2.000000000000000000e+00,-2.368473815917968750e+01,-2.816001176834106445e+00,4.696706390380859375e+01,9.509716033935546875e+01,8.521971130371093750e+01,1.350990905761718750e+02,-1.129571437835693359e+00,-3.261588668823242188e+01,-1.845512237548828125e+02,3.622504425048828125e+01,2.249117279052734375e+01,3.293618774414062500e+01
4.480000138282775879e-01,2.000000000000000000e+00,-2.373873519897460938e+01,-2.779320240020751953e+00,4.692164611816406250e+01,9.510389709472656250e+01,8.521755981445312500e+01,1.350910644531250000e+02,-1.180736422538757324e+00,-3.261021804809570312e+01,-1.845460662841796875e+02,3.622743225097656250e+01,2.250881767272949219e+01,3.293032836914062500e+01
4.519999921321868896e-01,2.000000000000000000e+00,-2.379272079467773438e+01,-2.742647647857666016e+00,4.687623596191406250e+01,9.511063385009765625e+01,8.521540069580078125e+01,1.350830383300781250e+02,-1.231889605522155762e+00,-3.260454940795898438e+01,-1.845409240722656250e+02,3.622982406616210938e+01,2.252645683288574219e+01,3.292446517944335938e+01
4.560000002384185791e-01,2.000000000000000000e+00,-2.384669303894042969e+01,-2.705983400344848633e+00,4.683083343505859375e+01,9.511736297607421875e+01,8.521324920654296875e+01,1.350750122070312500e+02,-1.283031344413757324e+00,-3.259888076782226562e+01,-1.845357666015625000e+02,3.623221588134765625e+01,2.254409408569335938e+01,3.291860580444335938e+01
4.600000083446502686e-01,2.000000000000000000e+00,-2.390065193176269531e+01,-2.669327497482299805e+00,4.678544235229492188e+01,9.512409973144531250e+01,8.521109771728515625e+01,1.350669860839843750e+02,-1.334161281585693359e+00,-3.259321212768554688e+01,-1.845306243896484375e+02,3.623460388183593750e+01,2.256172752380371094e+01,3.291275024414062500e+01
4.639999866485595703e-01,2.000000000000000000e+00,-2.395460128784179688e+01,-2.632679700851440430e+00,4.674006652832031250e+01,9.513082885742187500e+01,8.520895385742187500e+01,1.350589599609375000e+02,-1.385279655456542969e+00,-3.258754730224609375e+01,-1.845254669189453125e+02,3.623699188232421875e+01,2.257935523986816406e+01,3.290689086914062500e+01
4.679999947547912598e-01,2.000000000000000000e+00,-2.400853538513183594e+01,-2.596040487289428711e+00,4.669469833374023438e+01,9.513756561279296875e+01,8.520680236816406250e+01,1.350509490966796875e+02,-1.436386346817016602e+00,-3.258188247680664062e+01,-1.845203247070312500e+02,3.623938369750976562e+01,2.259697914123535156e+01,3.290103530883789062e+01
4.720000028610229492e-01,2.000000000000000000e+00,-2.406245803833007812e+01,-2.559409618377685547e+00,4.664934158325195312e+01,9.514428710937500000e+01,8.520465087890625000e+01,1.350429229736328125e+02,-1.487481474876403809e+00,-3.257621765136718750e+01,-1.845151672363281250e+02,3.624176788330078125e+01,2.261459922790527344e+01,3.289518356323242188e+01
4.760000109672546387e-01,2.000000000000000000e+00,-2.411637115478515625e+01,-2.522786855697631836e+00,4.660399246215820312e+01,9.515101623535156250e+01,8.520249938964843750e+01,1.350348968505859375e+02,-1.538564920425415039e+00,-3.257055664062500000e+01,-1.845100250244140625e+02,3.624415588378906250e+01,2.263221549987792969e+01,3.288932800292968750e+01
4.799999892711639404e-01,2.000000000000000000e+00,-2.417026901245117188e+01,-2.486172676086425781e+00,4.655865478515625000e+01,9.515773773193359375e+01,8.520035552978515625e+01,1.350268859863281250e+02,-1.589636802673339844e+00,-3.256489562988281250e+01,-1.845048675537109375e+02,3.624654388427734375e+01,2.264982986450195312e+01,3.288348007202148438e+01
4.839999973773956299e-01,2.000000000000000000e+00,-2.422415351867675781e+01,-2.449566602706909180e+00,4.651332855224609375e+01,9.516446685791015625e+01,8.519820404052734375e+01,1.350188598632812500e+02,-1.640697002410888672e+00,-3.255923461914062500e+01,-1.844997406005859375e+02,3.624892807006835938e+01,2.266743850708007812e+01,3.287762832641601562e+01
4.880000054836273193e-01,2.000000000000000000e+00,-2.427802848815917969e+01,-2.412969112396240234e+00,4.646800994873046875e+01,9.517118835449218750e+01,8.519606018066406250e+01,1.350108642578125000e+02,-1.691745758056640625e+00,-3.255357742309570312e+01,-1.844945831298828125e+02,3.625131607055664062e+01,2.268504142761230469e+01,3.287177658081054688e+01
4.920000135898590088e-01,2.000000000000000000e+00,-2.433189010620117188e+01,-2.376379728317260742e+00,4.642270660400390625e+01,9.517790985107421875e+01,8.519390869140625000e+01,1.350028381347656250e+02,-1.742782711982727051e+00,-3.254792022705078125e+01,-1.844894561767578125e+02,3.625370025634765625e+01,2.270264244079589844e+01,3.286593246459960938e+01
4.959999918937683105e-01,2.000000000000000000e+00,-2.438574028015136719e+01,-2.339798688888549805e+00,4.637740707397460938e+01,9.518463134765625000e+01,8.519176483154296875e+01,1.349948425292968750e+02,-1.793808102607727051e+00,-3.254226684570312500e+01,-1.844843139648437500e+02,3.625608444213867188e+01,2.272023773193359375e+01,3.286008834838867188e+01
5.000000000000000000e-01,2.000000000000000000e+00,-2.443957901000976562e+01,-2.303225994110107422e+00,4.633212280273437500e+01,9.519134521484375000e+01,8.518962097167968750e+01,1.349868316650390625e+02,-1.844821929931640625e+00,-3.253660964965820312e+01,-1.844791564941406250e+02,3.625846862792968750e+01,2.273783111572265625e+01,3.285424041748046875e+01
5.040000081062316895e-01,2.000000000000000000e+00,-2.449340438842773438e+01,-2.266661643981933594e+00,4.628684616088867188e+01,9.519805908203125000e+01,8.518746948242187500e+01,1.349788208007812500e+02,-1.895824313163757324e+00,-3.253096008300781250e+01,-1.844740295410156250e+02,3.626085281372070312e+01,2.275541877746582031e+01,3.284840011596679688e+01
5.080000162124633789e-01,2.000000000000000000e+00,-2.454721641540527344e+01,-2.230105638504028320e+00,4.624158477783203125e+01,9.520477294921875000e+01,8.518531799316406250e+01,1.349708251953125000e+02,-1.946815013885498047e+00,-3.252530670166015625e+01,-1.844688873291015625e+02,3.626323318481445312e+01,2.277300262451171875e+01,3.284255981445312500e+01
5.120000243186950684e-01,2.000000000000000000e+00,-2.460101699829101562e+01,-2.193557977676391602e+00,4.619632720947265625e+01,9.521148681640625000e+01,8.518317413330078125e+01,1.349628143310546875e+02,-1.997794032096862793e+00,-3.251965332031250000e+01,-1.844637603759765625e+02,3.626561737060546875e+01,2.279058456420898438e+01,3.283671569824218750e+01
5.159999728202819824e-01,2.000000000000000000e+00,-2.465480613708496094e+01,-2.157018661499023438e+00,4.615108489990234375e+01,9.521820068359375000e+01,8.518103027343750000e+01,1.349548187255859375e+02,-2.048761606216430664e+00,-3.251400756835937500e+01,-1.844586181640625000e+02,3.626799774169921875e+01,2.280816078186035156e+01,3.283087539672851562e+01
5.199999809265136719e-01,2.000000000000000000e+00,-2.470858192443847656e+01,-2.120487213134765625e+00,4.610585021972656250e+01,9.522490692138671875e+01,8.517889404296875000e+01,1.349468231201171875e+02,-2.099717378616333008e+00,-3.250835800170898438e+01,-1.844534759521484375e+02,3.627038192749023438e+01,2.282573318481445312e+01,3.282503890991210938e+01
5.239999890327453613e-01,2.000000000000000000e+00,-2.476234817504882812e+01,-2.083964586257934570e+00,4.606062316894531250e+01,9.523161315917968750e+01,8.517675018310546875e+01,1.349388122558593750e+02,-2.150661706924438477e+00,-3.250271224975585938e+01,-1.844483642578125000e+02,3.627276229858398438e+01,2.284330177307128906e+01,3.281920242309570312e+01
5.279999971389770508e-01,2.000000000000000000e+00,-2.481609916687011719e+01,-2.047450065612792969e+00,4.601541137695312500e+01,9.523831939697265625e+01,8.517460632324218750e+01,1.349308319091796875e+02,-2.201594591140747070e+00,-3.249706649780273438e+01,-1.844432220458984375e+02,3.627514266967773438e+01,2.286086463928222656e+01,3.281336593627929688e+01
5.320000052452087402e-01,2.000000000000000000e+00,-2.486983871459960938e+01,-2.010943651199340820e+00,4.597020721435546875e+01,9.524502563476562500e+01,8.517246246337890625e+01,1.349228363037109375e+02,-2.252515554428100586e+00,-3.249142074584960938e+01,-1.844380950927734375e+02,3.627752304077148438e+01,2.287842559814453125e+01,3.280753326416015625e+01
5.360000133514404297e-01,2.000000000000000000e+00,-2.492356681823730469e+01,-1.974445700645446777e+00,4.592501449584960938e+01,9.525173950195312500e+01,8.517031860351562500e+01,1.349148406982421875e+02,-2.303425073623657227e+00,-3.248577880859375000e+01,-1.844329681396484375e+02,3.627989959716796875e+01,2.289598274230957031e+01,3.280170059204101562e+01
5.400000214576721191e-01,2.000000000000000000e+00,-2.497728157043457031e+01,-1.937956094741821289e+00,4.587983322143554688e+01,9.525843811035156250e+01,8.516817474365234375e+01,1.349068450927734375e+02,-2.354323387145996094e+00,-3.248013687133789062e+01,-1.844278411865234375e+02,3.628227996826171875e+01,2.291353607177734375e+01,3.279587173461914062e+01
5.440000295639038086e-01,2.000000000000000000e+00,-2.503098487854003906e+01,-1.901474714279174805e+00,4.583465957641601562e+01,9.526513671875000000e+01,8.516603851318359375e+01,1.348988800048828125e+02,-2.405209779739379883e+00,-3.247449493408203125e+01,-1.844226989746093750e+02,3.628465652465820312e+01,2.293108558654785156e+01,3.279003906250000000e+01
5.479999780654907227e-01,2.000000000000000000e+00,-2.508467674255371094e+01,-1.865001559257507324e+00,4.578949737548828125e+01,9.527183532714843750e+01,8.516389465332031250e+01,1.348908843994140625e+02,-2.456084728240966797e+00,-3.246885681152343750e+01,-1.844175872802734375e+02,3.628703308105468750e+01,2.294862937927246094e+01,3.278421020507812500e+01
5.519999861717224121e-01,2.000000000000000000e+00,-2.513835525512695312e+01,-1.828536868095397949e+00,4.574434280395507812e+01,9.527853393554687500e+01,8.516175842285156250e+01,1.348829040527343750e+02,-2.506947994232177734e+00,-3.246321868896484375e+01,-1.844124603271484375e+02,3.628940963745117188e+01,2.296617126464843750e+01,3.277838134765625000e+01
5.559999942779541016e-01,2.000000000000000000e+00,-2.519202041625976562e+01,-1.792080283164978027e+00,4.569919967651367188e+01,9.528523254394531250e+01,8.515962219238281250e+01,1.348749084472656250e+02,-2.557799816131591797e+00,-3.245758438110351562e+01,-1.844073333740234375e+02,3.629178619384765625e+01,2.298370933532714844e+01,3.277255630493164062e+01
5.600000023841857910e-01,2.000000000000000000e+00,-2.524567604064941406e+01,-1.755631923675537109e+00,4.565407180786132812e+01,9.529192352294921875e+01,8.515747833251953125e+01,1.348669433593750000e+02,-2.608640193939208984e+00,-3.245195007324218750e+01,-1.844022216796875000e+02,3.629416275024414062e+01,2.300124359130859375e+01,3.276673507690429688e+01
5.640000104904174805e-01,2.000000000000000000e+00,-2.529931831359863281e+01,-1.719192028045654297e+00,4.560894775390625000e+01,9.529862213134765625e+01,8.515533447265625000e+01,1.348589630126953125e+02,-2.659468889236450195e+00,-3.244631576538085938e+01,-1.843970947265625000e+02,3.629653930664062500e+01,2.301877021789550781e+01,3.276091003417968750e+01
5.680000185966491699e-01,2.000000000000000000e+00,-2.535294914245605469e+01,-1.682760357856750488e+00,4.556383895874023438e+01,9.530531311035156250e+01,8.515319824218750000e+01,1.348509826660156250e+02,-2.710286140441894531e+00,-3.244068527221679688e+01,-1.843919677734375000e+02,3.629891586303710938e+01,2.303629493713378906e+01,3.275508880615234375e+01
5.720000267028808594e-01,2.000000000000000000e+00,-2.540656661987304688e+01,-1.646336913108825684e+00,4.551873779296875000e+01,9.531199645996093750e+01,8.515106201171875000e+01,1.348430023193359375e+02,-2.761091947555541992e+00,-3.243505096435546875e+01,-1.843868560791015625e+02,3.630128860473632812e+01,2.305381584167480469e+01,3.274926376342773438e+01
5.759999752044677734e-01,2.000000000000000000e+00,-2.546017265319824219e+01,-1.609921693801879883e+00,4.547364425659179688e+01,9.531868743896484375e+01,8.514893341064453125e+01,1.348350372314453125e+02,-2.811885833740234375e+00,-3.242942047119140625e+01,-1.843817443847656250e+02,3.630366134643554688e+01,2.307133293151855469e+01,3.274344635009765625e+01
5.799999833106994629e-01,2.000000000000000000e+00,-2.551376533508300781e+01,-1.573514819145202637e+00,4.542856597900390625e+01,9.532537078857421875e+01,8.514678955078125000e+01,1.348270568847656250e+02,-2.862668514251708984e+00,-3.242379379272460938e+01,-1.843766326904296875e+02,3.630603408813476562e+01,2.308884429931640625e+01,3.273762893676757812e+01
5.839999914169311523e-01,2.000000000000000000e+00,-2.556734848022460938e+01,-1.537116050720214844e+00,4.538349151611328125e+01,9.533206176757812500e+01,8.514465332031250000e+01,1.348190917968750000e+02,-2.913439750671386719e+00,-3.241816329956054688e+01,-1.843715057373046875e+02,3.630840682983398438e+01,2.310635375976562500e+01,3.273181533813476562e+01
5.879999995231628418e-01,2.000000000000000000e+00,-2.562091827392578125e+01,-1.500725626945495605e+00,4.533843612670898438e+01,9.533874511718750000e+01,8.514251708984375000e+01,1.348111267089843750e+02,-2.964199304580688477e+00,-3.241254043579101562e+01,-1.843663940429687500e+02,3.631077957153320312e+01,2.312385749816894531e+01,3.272599792480468750e+01
5.920000076293945312e-01,2.000000000000000000e+00,-2.567447471618652344e+01,-1.464343547821044922e+00,4.529338455200195312e+01,9.534542846679687500e+01,8.514038848876953125e+01,1.348031616210937500e+02,-3.014947175979614258e+00,-3.240691375732421875e+01,-1.843612823486328125e+02,3.631315231323242188e+01,2.314135932922363281e+01,3.272018051147460938e+01
5.960000157356262207e-01,2.000000000000000000e+00,-2.572801780700683594e+01,-1.427969574928283691e+00,4.524834442138671875e+01,9.535210418701171875e+01,8.513824462890625000e+01,1.347951965332031250e+02,-3.065683603286743164e+00,-3.240129089355468750e+01,-1.843561706542968750e+02,3.631552124023437500e+01,2.315885543823242188e+01,3.271437072753906250e+01
6.000000238418579102e-01,2.000000000000000000e+00,-2.578155136108398438e+01,-1.391604065895080566e+00,4.520331573486328125e+01,9.535878753662109375e+01,8.513611602783203125e+01,1.347872314453125000e+02,-3.116408824920654297e+00,-3.239566802978515625e+01,-1.843510589599609375e+02,3.631789398193359375e+01,2.317634963989257812e+01,3.270855712890625000e+01
6.039999723434448242e-01,2.000000000000000000e+00,-2.583507347106933594e+01,-1.355246782302856445e+00,4.515829467773437500e+01,9.536546325683593750e+01,8.513397979736328125e+01,1.347792816162109375e+02,-3.167122364044189453e+00,-3.239004898071289062e+01,-1.843459472656250000e+02,3.632026290893554688e+01,2.319383811950683594e+01,3.270274734497070312e+01
6.079999804496765137e-01,2.000000000000000000e+00,-2.588858222961425781e+01,-1.318897962570190430e+00,4.511328887939453125e+01,9.537213897705078125e+01,8.513185119628906250e+01,1.347713165283203125e+02,-3.217824220657348633e+00,-3.238442611694335938e+01,-1.843408355712890625e+02,3.632263183593750000e+01,2.321132278442382812e+01,3.269693756103515625e+01
6.119999885559082031e-01,2.000000000000000000e+00,-2.594207763671875000e+01,-1.282557010650634766e+00,4.506828689575195312e+01,9.537882232666015625e+01,8.512971496582031250e+01,1.347633666992187500e+02,-3.268514871597290039e+00,-3.237881088256835938e+01,-1.843357238769531250e+02,3.632500076293945312e+01,2.322880363464355469e+01,3.269113159179687500e+01
6.159999966621398926e-01,2.000000000000000000e+00,-2.599556350708007812e+01,-1.246224403381347656e+00,4.502330017089843750e+01,9.538549041748046875e+01,8.512758636474609375e+01,1.347554016113281250e+02,-3.319193840026855469e+00,-3.237319183349609375e+01,-1.843306274414062500e+02,3.632736968994140625e+01,2.324628067016601562e+01,3.268532562255859375e+01
6.200000047683715820e-01,2.000000000000000000e+00,-2.604903602600097656e+01,-1.209899783134460449e+00,4.497832107543945312e+01,9.539216613769531250e+01,8.512545013427734375e+01,1.347474517822265625e+02,-3.369861364364624023e+00,-3.236757659912109375e+01,-1.843255310058593750e+02,3.632973480224609375e+01,2.326375389099121094e+01,3.267952346801757812e+01
6.240000128746032715e-01,2.000000000000000000e+00,-2.610249519348144531e+01,-1.173583388328552246e+00,4.493335342407226562e+01,9.539883422851562500e+01,8.512331390380859375e+01,1.347395019531250000e+02,-3.420517444610595703e+00,-3.236195755004882812e+01,-1.843204193115234375e+02,3.633210372924804688e+01,2.328122329711914062e+01,3.267371749877929688e+01
6.280000209808349609e-01,2.000000000000000000e+00,-2.615594291687011719e+01,-1.137275218963623047e+00,4.488839340209960938e+01,9.540550231933593750e+01,8.512118530273437500e+01,1.347315521240234375e+02,-3.471162080764770508e+00,-3.235634994506835938e+01,-1.843153228759765625e+02,3.633447265625000000e+01,2.329868698120117188e+01,3.266791534423828125e+01
6.320000290870666504e-01,2.000000000000000000e+00,-2.620938110351562500e+01,-1.100975155830383301e+00,4.484344863891601562e+01,9.541217041015625000e+01,8.511905670166015625e+01,1.347236022949218750e+02,-3.521795272827148438e+00,-3.235073471069335938e+01,-1.843102111816406250e+02,3.633683395385742188e+01,2.331614875793457031e+01,3.266211700439453125e+01
6.359999775886535645e-01,2.000000000000000000e+00,-2.626280593872070312e+01,-1.064683437347412109e+00,4.479850769042968750e+01,9.541883850097656250e+01,8.511692810058593750e+01,1.347156677246093750e+02,-3.572417259216308594e+00,-3.234512329101562500e+01,-1.843051147460937500e+02,3.633920288085937500e+01,2.333360481262207031e+01,3.265631484985351562e+01
6.399999856948852539e-01,2.000000000000000000e+00,-2.631621742248535156e+01,-1.028399705886840820e+00,4.475358200073242188e+01,9.542549896240234375e+01,8.511479949951171875e+01,1.347077178955078125e+02,-3.623027324676513672e+00,-3.233951568603515625e+01,-1.843000183105468750e+02,3.634156799316406250e+01,2.335105895996093750e+01,3.265051651000976562e+01
6.439999938011169434e-01,2.000000000000000000e+00,-2.636961746215820312e+01,-9.921241402626037598e-01,4.470866394042968750e+01,9.543215942382812500e+01,8.511267089843750000e+01,1.346997680664062500e+02,-3.673626661300659180e+00,-3.233390808105468750e+01,-1.842949218750000000e+02,3.634393310546875000e+01,2.336850929260253906e+01,3.264471817016601562e+01
6.480000019073486328e-01,2.000000000000000000e+00,-2.642300605773925781e+01,-9.558566808700561523e-01,4.466375350952148438e+01,9.543881988525390625e+01,8.511054229736328125e+01,1.346918182373046875e+02,-3.724214553833007812e+00,-3.232830047607421875e+01,-1.842898254394531250e+02,3.634629440307617188e+01,2.338595390319824219e+01,3.263892364501953125e+01
6.520000100135803223e-01,2.000000000000000000e+00,-2.647638320922851562e+01,-9.195973873138427734e-01,4.461885833740234375e+01,9.544548034667968750e+01,8.510841369628906250e+01,1.346838836669921875e+02,-3.774790763854980469e+00,-3.232269287109375000e+01,-1.842847290039062500e+02,3.634865951538085938e+01,2.340339660644531250e+01,3.263312911987304688e+01
6.560000181198120117e-01,2.000000000000000000e+00,-2.652974700927734375e+01,-8.833461999893188477e-01,4.457396697998046875e+01,9.545214080810546875e+01,8.510629272460937500e+01,1.346759490966796875e+02,-3.825356006622314453e+00,-3.231708908081054688e+01,-1.842796325683593750e+02,3.635102081298828125e+01,2.342083358764648438e+01,3.262733459472656250e+01
6.600000262260437012e-01,2.000000000000000000e+00,-2.658309936523437500e+01,-8.471029996871948242e-01,4.452909088134765625e+01,9.545880126953125000e+01,8.510415649414062500e+01,1.346680145263671875e+02,-3.875910043716430664e+00,-3.231148529052734375e+01,-1.842745513916015625e+02,3.635338592529296875e+01,2.343826484680175781e+01,3.262154388427734375e+01
6.639999747276306152e-01,2.000000000000000000e+00,-2.663644027709960938e+01,-8.108679652214050293e-01,4.448422241210937500e+01,9.546545410156250000e+01,8.510203552246093750e+01,1.346600952148437500e+02,-3.926452636718750000e+00,-3.230588150024414062e+01,-1.842694549560546875e+02,3.635574722290039062e+01,2.345569610595703125e+01,3.261575317382812500e+01
6.679999828338623047e-01,2.000000000000000000e+00,-2.668976974487304688e+01,-7.746409773826599121e-01,4.443936538696289062e+01,9.547210693359375000e+01,8.509989929199218750e+01,1.346521606445312500e+02,-3.976984500885009766e+00,-3.230028152465820312e+01,-1.842643585205078125e+02,3.635810852050781250e+01,2.347312164306640625e+01,3.260996246337890625e+01
6.719999909400939941e-01,2.000000000000000000e+00,-2.674308776855468750e+01,-7.384219765663146973e-01,4.439451980590820312e+01,9.547875976562500000e+01,8.509777832031250000e+01,1.346442108154296875e+02,-4.027504444122314453e+00,-3.229468154907226562e+01,-1.842592773437500000e+02,3.636046981811523438e+01,2.349054336547851562e+01,3.260417556762695312e+01
6.759999990463256836e-01,2.000000000000000000e+00,-2.679639053344726562e+01,-7.022110819816589355e-01,4.434968185424804688e+01,9.548541259765625000e+01,8.509565734863281250e+01,1.346362915039062500e+02,-4.078013420104980469e+00,-3.228908538818359375e+01,-1.842541809082031250e+02,3.636283111572265625e+01,2.350796318054199219e+01,3.259838867187500000e+01
6.800000071525573730e-01,2.000000000000000000e+00,-2.684968566894531250e+01,-6.660081744194030762e-01,4.430485153198242188e+01,9.549206542968750000e+01,8.509352874755859375e+01,1.346283721923828125e+02,-4.128511905670166016e+00,-3.228348541259765625e+01,-1.842490997314453125e+02,3.636519241333007812e+01,2.352537727355957031e+01,3.259260559082031250e+01
6.840000152587890625e-01,2.000000000000000000e+00,-2.690296554565429688e+01,-6.298133134841918945e-01,4.426003646850585938e+01,9.549871063232421875e+01,8.509140777587890625e+01,1.346204528808593750e+02,-4.178998470306396484e+00,-3.227788925170898438e+01,-1.842440185546875000e+02,3.636754989624023438e+01,2.354278755187988281e+01,3.258681869506835938e+01
6.880000233650207520e-01,2.000000000000000000e+00,-2.695623588562011719e+01,-5.936264991760253906e-01,4.421522521972656250e+01,9.550535583496093750e+01,8.508927917480468750e+01,1.346125183105468750e+02,-4.229474067687988281e+00,-3.227229690551757812e+01,-1.842389221191406250e+02,3.636990737915039062e+01,2.356019401550292969e+01,3.258103561401367188e+01
6.919999718666076660e-01,2.000000000000000000e+00,-2.700949287414550781e+01,-5.574475526809692383e-01,4.417042922973632812e+01,9.551200103759765625e+01,8.508715820312500000e+01,1.346045989990234375e+02,-4.279938697814941406e+00,-3.226670074462890625e+01,-1.842338409423828125e+02,3.637226867675781250e+01,2.357759857177734375e+01,3.257525634765625000e+01
6.959999799728393555e-01,2.000000000000000000e+00,-2.706274032592773438e+01,-5.212766528129577637e-01,4.412564086914062500e+01,9.551864624023437500e+01,8.508503723144531250e+01,1.345966796875000000e+02,-4.330391883850097656e+00,-3.226111221313476562e+01,-1.842287597656250000e+02,3.637462234497070312e+01,2.359499549865722656e+01,3.256947326660156250e+01
6.999999880790710449e-01,2.000000000000000000e+00,-2.711597442626953125e+01,-4.851137697696685791e-01,4.408086395263671875e+01,9.552528381347656250e+01,8.508291625976562500e+01,1.345887603759765625e+02,-4.380834102630615234e+00,-3.225551605224609375e+01,-1.842236785888671875e+02,3.637697982788085938e+01,2.361239051818847656e+01,3.256369400024414062e+01
7.039999961853027344e-01,2.000000000000000000e+00,-2.716919708251953125e+01,-4.489588439464569092e-01,4.403609466552734375e+01,9.553192901611328125e+01,8.508079528808593750e+01,1.345808410644531250e+02,-4.431265354156494141e+00,-3.224993133544921875e+01,-1.842185974121093750e+02,3.637934112548828125e+01,2.362978172302246094e+01,3.255791854858398438e+01
7.080000042915344238e-01,2.000000000000000000e+00,-2.722240829467773438e+01,-4.128119051456451416e-01,4.399133682250976562e+01,9.553856658935546875e+01,8.507867431640625000e+01,1.345729370117187500e+02,-4.481685638427734375e+00,-3.224433898925781250e+01,-1.842135162353515625e+02,3.638169479370117188e+01,2.364717102050781250e+01,3.255214309692382812e+01
7.120000123977661133e-01,2.000000000000000000e+00,-2.727560806274414062e+01,-3.766729533672332764e-01,4.394659042358398438e+01,9.554521179199218750e+01,8.507655334472656250e+01,1.345650177001953125e+02,-4.532094001770019531e+00,-3.223875427246093750e+01,-1.842084350585937500e+02,3.638404846191406250e+01,2.366455459594726562e+01,3.254636383056640625e+01
7.160000205039978027e-01,2.000000000000000000e+00,-2.732879447937011719e+01,-3.405419886112213135e-01,4.390184783935546875e+01,9.555184173583984375e+01,8.507443237304687500e+01,1.345570983886718750e+02,-4.582491874694824219e+00,-3.223316574096679688e+01,-1.842033538818359375e+02,3.638640594482421875e+01,2.368193435668945312e+01,3.254059219360351562e+01
7.200000286102294922e-01,2.000000000000000000e+00,-2.738196945190429688e+01,-3.044189512729644775e-01,4.385712051391601562e+01,9.555847930908203125e+01,8.507231140136718750e+01,1.345491943359375000e+02,-4.632878303527832031e+00,-3.222758102416992188e+01,-1.841982727050781250e+02,3.638875961303710938e+01,2.369931030273437500e+01,3.253481674194335938e+01
7.239999771118164062e-01,2.000000000000000000e+00,-2.743513298034667969e+01,-2.683039307594299316e-01,4.381240081787109375e+01,9.556510925292968750e+01,8.507019042968750000e+01,1.345413055419921875e+02,-4.683253765106201172e+00,-3.222200012207031250e+01,-1.841932067871093750e+02,3.639111328125000000e+01,2.371668243408203125e+01,3.252904510498046875e+01
7.279999852180480957e-01,2.000000000000000000e+00,-2.748828697204589844e+01,-2.321968525648117065e-01,4.376769256591796875e+01,9.557174682617187500e+01,8.506807708740234375e+01,1.345333862304687500e+02,-4.733618259429931641e+00,-3.221641540527343750e+01,-1.841881256103515625e+02,3.639346694946289062e+01,2.373405075073242188e+01,3.252327728271484375e+01
7.319999933242797852e-01,2.000000000000000000e+00,-2.754142761230468750e+01,-1.960977166891098022e-01,4.372299194335937500e+01,9.557836914062500000e+01,8.506594848632812500e+01,1.345254821777343750e+02,-4.783971309661865234e+00,-3.221083450317382812e+01,-1.841830596923828125e+02,3.639582061767578125e+01,2.375141716003417969e+01,3.251750946044921875e+01
7.360000014305114746e-01,2.000000000000000000e+00,-2.759455490112304688e+01,-1.600065678358078003e-01,4.367830276489257812e+01,9.558499908447265625e+01,8.506383514404296875e+01,1.345175781250000000e+02,-4.834313392639160156e+00,-3.220525360107421875e+01,-1.841779785156250000e+02,3.639817428588867188e+01,2.376877593994140625e+01,3.251174163818359375e+01
7.400000095367431641e-01,2.000000000000000000e+00,-2.764767265319824219e+01,-1.239233762025833130e-01,4.363362121582031250e+01,9.559162902832031250e+01,8.506171417236328125e+01,1.345096740722656250e+02,-4.884644508361816406e+00,-3.219967651367187500e+01,-1.841729125976562500e+02,3.640052795410156250e+01,2.378613281250000000e+01,3.250597381591796875e+01
7.440000176429748535e-01,2.000000000000000000e+00,-2.770077705383300781e+01,-8.784814924001693726e-02,4.358895111083984375e+01,9.559825897216796875e+01,8.505960083007812500e+01,1.345017852783203125e+02,-4.934964656829833984e+00,-3.219409942626953125e+01,-1.841678466796875000e+02,3.640287780761718750e+01,2.380348587036132812e+01,3.250020980834960938e+01
7.480000257492065430e-01,2.000000000000000000e+00,-2.775387191772460938e+01,-5.178086459636688232e-02,4.354429244995117188e+01,9.560487365722656250e+01,8.505747985839843750e+01,1.344938812255859375e+02,-4.985273361206054688e+00,-3.218852233886718750e+01,-1.841627807617187500e+02,3.640523147583007812e+01,2.382083511352539062e+01,3.249444580078125000e+01
7.519999742507934570e-01,2.000000000000000000e+00,-2.780695152282714844e+01,-1.572153531014919281e-02,4.349964141845703125e+01,9.561150360107421875e+01,8.505536651611328125e+01,1.344859924316406250e+02,-5.035571098327636719e+00,-3.218294525146484375e+01,-1.841577148437500000e+02,3.640757751464843750e+01,2.383818054199218750e+01,3.248868179321289062e+01
7.559999823570251465e-01,2.000000000000000000e+00,-2.786002349853515625e+01,2.032984606921672821e-02,4.345500183105468750e+01,9.561812591552734375e+01,8.505325317382812500e+01,1.344780883789062500e+02,-5.085857868194580078e+00,-3.217737197875976562e+01,-1.841526336669921875e+02,3.640992736816406250e+01,2.385552215576171875e+01,3.248292160034179688e+01
7.599999904632568359e-01,2.000000000000000000e+00,-2.791308212280273438e+01,5.637327954173088074e-02,4.341036987304687500e+01,9.562474822998046875e+01,8.505113220214843750e+01,1.344702148437500000e+02,-5.136133193969726562e+00,-3.217179870605468750e+01,-1.841475830078125000e+02,3.641227722167968750e+01,2.387285995483398438e+01,3.247716140747070312e+01
7.639999985694885254e-01,2.000000000000000000e+00,-2.796612739562988281e+01,9.240877628326416016e-02,4.336574935913085938e+01,9.563136291503906250e+01,8.504901885986328125e+01,1.344623107910156250e+02,-5.186398029327392578e+00,-3.216622924804687500e+01,-1.841425170898437500e+02,3.641462707519531250e+01,2.389019393920898438e+01,3.247140121459960938e+01
7.680000066757202148e-01,2.000000000000000000e+00,-2.801916313171386719e+01,1.284363269805908203e-01,4.332114028930664062e+01,9.563798522949218750e+01,8.504690551757812500e+01,1.344544372558593750e+02,-5.236651420593261719e+00,-3.216065979003906250e+01,-1.841374511718750000e+02,3.641697311401367188e+01,2.390752410888671875e+01,3.246564483642578125e+01
7.720000147819519043e-01,2.000000000000000000e+00,-2.807218742370605469e+01,1.644559502601623535e-01,4.327653884887695312e+01,9.564459228515625000e+01,8.504479217529296875e+01,1.344465332031250000e+02,-5.286893367767333984e+00,-3.215509033203125000e+01,-1.841324005126953125e+02,3.641932296752929688e+01,2.392485046386718750e+01,3.245989227294921875e+01
7.760000228881835938e-01,2.000000000000000000e+00,-2.812519836425781250e+01,2.004676312208175659e-01,4.323194885253906250e+01,9.565121459960937500e+01,8.504267883300781250e+01,1.344386596679687500e+02,-5.337124824523925781e+00,-3.214952468872070312e+01,-1.841273193359375000e+02,3.642166900634765625e+01,2.394217300415039062e+01,3.245413589477539062e+01
7.799999713897705078e-01,2.000000000000000000e+00,-2.817819786071777344e+01,2.364713698625564575e-01,4.318736648559570312e+01,9.565782165527343750e+01,8.504056549072265625e+01,1.344307708740234375e+02,-5.387344837188720703e+00,-3.214395523071289062e+01,-1.841222686767578125e+02,3.642401885986328125e+01,2.395949172973632812e+01,3.244838333129882812e+01
7.839999794960021973e-01,2.000000000000000000e+00,-2.823118782043457031e+01,2.724671959877014160e-01,4.314279556274414062e+01,9.566443634033203125e+01,8.503845214843750000e+01,1.344228973388671875e+02,-5.437554359436035156e+00,-3.213839340209960938e+01,-1.841172027587890625e+02,3.642636489868164062e+01,2.397680664062500000e+01,3.244262695312500000e+01
7.879999876022338867e-01,2.000000000000000000e+00,-2.828416442871093750e+01,3.084550797939300537e-01,4.309823608398437500e+01,9.567105102539062500e+01,8.503633880615234375e+01,1.344150085449218750e+02,-5.487752437591552734e+00,-3.213282775878906250e+01,-1.841121520996093750e+02,3.642871093750000000e+01,2.399411773681640625e+01,3.243687438964843750e+01
7.919999957084655762e-01,2.000000000000000000e+00,-2.833712768554687500e+01,3.444350659847259521e-01,4.305368041992187500e+01,9.567765045166015625e+01,8.503423309326171875e+01,1.344071350097656250e+02,-5.537939548492431641e+00,-3.212726211547851562e+01,-1.841071014404296875e+02,3.643105316162109375e+01,2.401142501831054688e+01,3.243112945556640625e+01
7.960000038146972656e-01,2.000000000000000000e+00,-2.839008140563964844e+01,3.804070949554443359e-01,4.300914001464843750e+01,9.568426513671875000e+01,8.503211975097656250e+01,1.343992614746093750e+02,-5.588115692138671875e+00,-3.212170410156250000e+01,-1.841020355224609375e+02,3.643339920043945312e+01,2.402872848510742188e+01,3.242537689208984375e+01
8.000000119209289551e-01,2.000000000000000000e+00,-2.844302368164062500e+01,4.163712263107299805e-01,4.296460723876953125e+01,9.569087219238281250e+01,8.503000640869140625e+01,1.343913879394531250e+02,-5.638280391693115234e+00,-3.211614227294921875e+01,-1.840969848632812500e+02,3.643574523925781250e+01,2.404602813720703125e+01,3.241963195800781250e+01
8.040000200271606445e-01,2.000000000000000000e+00,-2.849595260620117188e+01,4.523274302482604980e-01,4.292008590698242188e+01,9.569747161865234375e+01,8.502790069580078125e+01,1.343835144042968750e+02,-5.688434123992919922e+00,-3.211058425903320312e+01,-1.840919342041015625e+02,3.643809127807617188e+01,2.406332397460937500e+01,3.241388702392578125e+01
8.080000281333923340e-01,2.000000000000000000e+00,-2.854887199401855469e+01,4.882757067680358887e-01,4.287557220458984375e+01,9.570407867431640625e+01,8.502578735351562500e+01,1.343756408691406250e+02,-5.738577365875244141e+00,-3.210502624511718750e+01,-1.840868835449218750e+02,3.644043350219726562e+01,2.408061599731445312e+01,3.240814208984375000e+01
8.119999766349792480e-01,2.000000000000000000e+00,-2.860177803039550781e+01,5.242161154747009277e-01,4.283106994628906250e+01,9.571067810058593750e+01,8.502368164062500000e+01,1.343677673339843750e+02,-5.788709163665771484e+00,-3.209946823120117188e+01,-1.840818328857421875e+02,3.644277572631835938e+01,2.409790229797363281e+01,3.240239715576171875e+01
8.159999847412109375e-01,2.000000000000000000e+00,-2.865467262268066406e+01,5.601485967636108398e-01,4.278657531738281250e+01,9.571727752685546875e+01,8.502156829833984375e+01,1.343599090576171875e+02,-5.838829994201660156e+00,-3.209391403198242188e+01,-1.840767822265625000e+02,3.644511795043945312e+01,2.411518859863281250e+01,3.239665603637695312e+01
8.199999928474426270e-01,2.000000000000000000e+00,-2.870755767822265625e+01,5.960731506347656250e-01,4.274209213256835938e+01,9.572386932373046875e+01,8.501946258544921875e+01,1.343520507812500000e+02,-5.888939857482910156e+00,-3.208835983276367188e+01,-1.840717315673828125e+02,3.644745635986328125e+01,2.413246917724609375e+01,3.239091110229492188e+01
8.240000009536743164e-01,2.000000000000000000e+00,-2.876042747497558594e+01,6.319898366928100586e-01,4.269762039184570312e+01,9.573046875000000000e+01,8.501735687255859375e+01,1.343441772460937500e+02,-5.939038276672363281e+00,-3.208280563354492188e+01,-1.840666809082031250e+02,3.644979858398437500e+01,2.414974594116210938e+01,3.238517379760742188e+01
8.280000090599060059e-01,2.000000000000000000e+00,-2.881328964233398438e+01,6.678986549377441406e-01,4.265315628051757812e+01,9.573706817626953125e+01,8.501525115966796875e+01,1.343363189697265625e+02,-5.989126205444335938e+00,-3.207725524902343750e+01,-1.840616455078125000e+02,3.645214080810546875e+01,2.416701698303222656e+01,3.237943267822265625e+01
8.320000171661376953e-01,2.000000000000000000e+00,-2.886613845825195312e+01,7.037994861602783203e-01,4.260869979858398438e+01,9.574365997314453125e+01,8.501313781738281250e+01,1.343284606933593750e+02,-6.039203166961669922e+00,-3.207170486450195312e+01,-1.840565948486328125e+02,3.645448303222656250e+01,2.418428802490234375e+01,3.237369918823242188e+01
8.360000252723693848e-01,2.000000000000000000e+00,-2.891897392272949219e+01,7.396924495697021484e-01,4.256425857543945312e+01,9.575025939941406250e+01,8.501103210449218750e+01,1.343206024169921875e+02,-6.089268684387207031e+00,-3.206615447998046875e+01,-1.840515594482421875e+02,3.645682144165039062e+01,2.420155334472656250e+01,3.236796188354492188e+01
8.399999737739562988e-01,2.000000000000000000e+00,-2.897180175781250000e+01,7.755776047706604004e-01,4.251982498168945312e+01,9.575685119628906250e+01,8.500892639160156250e+01,1.343127288818359375e+02,-6.139323234558105469e+00,-3.206060791015625000e+01,-1.840465087890625000e+02,3.645915985107421875e+01,2.421881484985351562e+01,3.236222839355468750e+01
8.439999818801879883e-01,2.000000000000000000e+00,-2.902461242675781250e+01,8.114547729492187500e-01,4.247539901733398438e+01,9.576343536376953125e+01,8.500682067871093750e+01,1.343048858642578125e+02,-6.189366817474365234e+00,-3.205506134033203125e+01,-1.840414733886718750e+02,3.646149826049804688e+01,2.423607254028320312e+01,3.235649490356445312e+01
8.479999899864196777e-01,2.000000000000000000e+00,-2.907741737365722656e+01,8.473240733146667480e-01,4.243098449707031250e+01,9.577002716064453125e+01,8.500471496582031250e+01,1.342970428466796875e+02,-6.239399433135986328e+00,-3.204951477050781250e+01,-1.840364379882812500e+02,3.646383666992187500e+01,2.425332641601562500e+01,3.235076141357421875e+01
8.519999980926513672e-01,2.000000000000000000e+00,-2.913020706176757812e+01,8.831855058670043945e-01,4.238658142089843750e+01,9.577661132812500000e+01,8.500261688232421875e+01,1.342891845703125000e+02,-6.289421558380126953e+00,-3.204396820068359375e+01,-1.840313873291015625e+02,3.646617507934570312e+01,2.427057647705078125e+01,3.234503173828125000e+01
8.560000061988830566e-01,2.000000000000000000e+00,-2.918298339843750000e+01,9.190391302108764648e-01,4.234218215942382812e+01,9.578320312500000000e+01,8.500051116943359375e+01,1.342813262939453125e+02,-6.339432239532470703e+00,-3.203842544555664062e+01,-1.840263519287109375e+02,3.646850967407226562e+01,2.428782272338867188e+01,3.233930206298828125e+01
8.600000143051147461e-01,2.000000000000000000e+00,-2.923575019836425781e+01,9.548847675323486328e-01,4.229779815673828125e+01,9.578977966308593750e+01,8.499840545654296875e+01,1.342734832763671875e+02,-6.389431476593017578e+00,-3.203288269042968750e+01,-1.840213012695312500e+02,3.647084808349609375e+01,2.430506706237792969e+01,3.233357238769531250e+01
8.640000224113464355e-01,2.000000000000000000e+00,-2.928850746154785156e+01,9.907225966453552246e-01,4.225342178344726562e+01,9.579636383056640625e+01,8.499629974365234375e+01,1.342656402587890625e+02,-6.439420700073242188e+00,-3.202734375000000000e+01,-1.840162811279296875e+02,3.647318267822265625e+01,2.432230567932128906e+01,3.232784652709960938e+01
8.679999709129333496e-01,2.000000000000000000e+00,-2.934125328063964844e+01,1.026552438735961914e+00,4.220905685424804688e+01,9.580294799804687500e+01,8.499420166015625000e+01,1.342577972412109375e+02,-6.489398002624511719e+00,-3.202180480957031250e+01,-1.840112457275390625e+02,3.647552108764648438e+01,2.433954048156738281e+01,3.232211685180664062e+01
8.719999790191650391e-01,2.000000000000000000e+00,-2.939398574829101562e+01,1.062374591827392578e+00,4.216469955444335938e+01,9.580952453613281250e+01,8.499209594726562500e+01,1.342499542236328125e+02,-6.539364814758300781e+00,-3.201626586914062500e+01,-1.840062103271484375e+02,3.647785568237304688e+01,2.435677146911621094e+01,3.231639480590820312e+01
8.759999871253967285e-01,2.000000000000000000e+00,-2.944670486450195312e+01,1.098188638687133789e+00,4.212035369873046875e+01,9.581610107421875000e+01,8.498999023437500000e+01,1.342421112060546875e+02,-6.589321136474609375e+00,-3.201073074340820312e+01,-1.840011749267578125e+02,3.648018646240234375e+01,2.437399864196777344e+01,3.231067276000976562e+01
8.799999952316284180e-01,2.000000000000000000e+00,-2.949941635131835938e+01,1.133995056152343750e+00,4.207601547241210938e+01,9.582267761230468750e+01,8.498789215087890625e+01,1.342342681884765625e+02,-6.639266014099121094e+00,-3.200519561767578125e+01,-1.839961395263671875e+02,3.648252487182617188e+01,2.439122200012207031e+01,3.230495071411132812e+01
8.840000033378601074e-01,2.000000000000000000e+00,-2.955211067199707031e+01,1.169793486595153809e+00,4.203168869018554688e+01,9.582925415039062500e+01,8.498579406738281250e+01,1.342264251708984375e+02,-6.689199447631835938e+00,-3.199965858459472656e+01,-1.839911041259765625e+02,3.648485565185546875e+01,2.440844345092773438e+01,3.229923248291015625e+01
8.880000114440917969e-01,2.000000000000000000e+00,-2.960479927062988281e+01,1.205584168434143066e+00,4.198737335205078125e+01,9.583582305908203125e+01,8.498369598388671875e+01,1.342185821533203125e+02,-6.739122390747070312e+00,-3.199412536621093750e+01,-1.839860839843750000e+02,3.648719024658203125e+01,2.442565917968750000e+01,3.229351043701171875e+01
8.920000195503234863e-01,2.000000000000000000e+00,-2.965747451782226562e+01,1.241366863250732422e+00,4.194306564331054688e+01,9.584239959716796875e+01,8.498159027099609375e+01,1.342107543945312500e+02,-6.789034366607666016e+00,-3.198859405517578125e+01,-1.839810485839843750e+02,3.648952102661132812e+01,2.444287109375000000e+01,3.228778839111328125e+01
8.960000276565551758e-01,2.000000000000000000e+00,-2.971013832092285156e+01,1.277141809463500977e+00,4.189876556396484375e+01,9.584897613525390625e+01,8.497949218750000000e+01,1.342029266357421875e+02,-6.838935375213623047e+00,-3.198306083679199219e+01,-1.839760284423828125e+02,3.649185180664062500e+01,2.446007919311523438e+01,3.228207397460937500e+01
8.999999761581420898e-01,2.000000000000000000e+00,-2.976278877258300781e+01,1.312908768653869629e+00,4.185447692871093750e+01,9.585553741455078125e+01,8.497738647460937500e+01,1.341950988769531250e+02,-6.888825416564941406e+00,-3.197753143310546875e+01,-1.839709930419921875e+02,3.649418640136718750e+01,2.447728347778320312e+01,3.227635955810546875e+01
9.039999842643737793e-01,2.000000000000000000e+00,-2.981542968750000000e+01,1.348667979240417480e+00,4.181019973754882812e+01,9.586210632324218750e+01,8.497529602050781250e+01,1.341872711181640625e+02,-6.938704490661621094e+00,-3.197200393676757812e+01,-1.839659729003906250e+02,3.649651336669921875e+01,2.449448394775390625e+01,3.227064132690429688e+01
9.079999923706054688e-01,2.000000000000000000e+00,-2.986805534362792969e+01,1.384419322013854980e+00,4.176593017578125000e+01,9.586867523193359375e+01,8.497319793701171875e+01,1.341794433593750000e+02,-6.988572597503662109e+00,-3.196647834777832031e+01,-1.839609527587890625e+02,3.649884796142578125e+01,2.451168251037597656e+01,3.226493072509765625e+01
9.120000004768371582e-01,2.000000000000000000e+00,-2.992067527770996094e+01,1.420162796974182129e+00,4.172167205810546875e+01,9.587524414062500000e+01,8.497109985351562500e+01,1.341716156005859375e+02,-7.038429737091064453e+00,-3.196095275878906250e+01,-1.839559326171875000e+02,3.650117492675781250e+01,2.452887535095214844e+01,3.225922012329101562e+01
9.160000085830688477e-01,2.000000000000000000e+00,-2.997327804565429688e+01,1.455898523330688477e+00,4.167742156982421875e+01,9.588180541992187500e+01,8.496900177001953125e+01,1.341637878417968750e+02,-7.088275909423828125e+00,-3.195542716979980469e+01,-1.839508972167968750e+02,3.650350570678710938e+01,2.454606628417968750e+01,3.225350952148437500e+01
9.200000166893005371e-01,2.000000000000000000e+00,-3.002587318420410156e+01,1.491626262664794922e+00,4.163318252563476562e+01,9.588836669921875000e+01,8.496690368652343750e+01,1.341559753417968750e+02,-7.138111114501953125e+00,-3.194990158081054688e+01,-1.839458923339843750e+02,3.650583648681640625e+01,2.456325149536132812e+01,3.224779891967773438e+01
9.240000247955322266e-01,2.000000000000000000e+00,-3.007845687866210938e+01,1.527346372604370117e+00,4.158895492553710938e+01,9.589492797851562500e+01,8.496480560302734375e+01,1.341481475830078125e+02,-7.187935829162597656e+00,-3.194437789916992188e+01,-1.839408569335937500e+02,3.650816345214843750e+01,2.458043479919433594e+01,3.224208831787109375e+01
9.279999732971191406e-01,2.000000000000000000e+00,-3.013102531433105469e+01,1.563058376312255859e+00,4.154473114013671875e+01,9.590148162841796875e+01,8.496271514892578125e+01,1.341403198242187500e+02,-7.237749099731445312e+00,-3.193885612487792969e+01,-1.839358520507812500e+02,3.651049041748046875e+01,2.459761238098144531e+01,3.223638153076171875e+01
9.319999814033508301e-01,2.000000000000000000e+00,-3.018358612060546875e+01,1.598762750625610352e+00,4.150051879882812500e+01,9.590805053710937500e+01,8.496061706542968750e+01,1.341325073242187500e+02,-7.287551403045654297e+00,-3.193333816528320312e+01,-1.839308319091796875e+02,3.651281738281250000e+01,2.461478614807128906e+01,3.223067474365234375e+01
9.359999895095825195e-01,2.000000000000000000e+00,-3.023613357543945312e+01,1.634459257125854492e+00,4.145632171630859375e+01,9.591459655761718750e+01,8.495852661132812500e+01,1.341246948242187500e+02,-7.337343692779541016e+00,-3.192781829833984375e+01,-1.839258117675781250e+02,3.651514434814453125e+01,2.463195800781250000e+01,3.222497177124023438e+01
9.399999976158142090e-01,2.000000000000000000e+00,-3.028866958618164062e+01,1.670148015022277832e+00,4.141213226318359375e+01,9.592115783691406250e+01,8.495642852783203125e+01,1.341168823242187500e+02,-7.387124538421630859e+00,-3.192230033874511719e+01,-1.839207916259765625e+02,3.651747512817382812e+01,2.464912414550781250e+01,3.221926879882812500e+01
9.440000057220458984e-01,2.000000000000000000e+00,-3.034119224548339844e+01,1.705828785896301270e+00,4.136795043945312500e+01,9.592771148681640625e+01,8.495433044433593750e+01,1.341090698242187500e+02,-7.436893463134765625e+00,-3.191678428649902344e+01,-1.839157867431640625e+02,3.651979827880859375e+01,2.466628837585449219e+01,3.221356582641601562e+01
9.480000138282775879e-01,2.000000000000000000e+00,-3.039370727539062500e+01,1.741501808166503906e+00,4.132377624511718750e+01,9.593426513671875000e+01,8.495223999023437500e+01,1.341012573242187500e+02,-7.486653327941894531e+00,-3.191126823425292969e+01,-1.839107666015625000e+02,3.652212142944335938e+01,2.468344879150390625e+01,3.220786666870117188e+01
9.520000219345092773e-01,2.000000000000000000e+00,-3.044620704650878906e+01,1.777166962623596191e+00,4.127961349487304688e+01,9.594081115722656250e+01,8.495014190673828125e+01,1.340934448242187500e+02,-7.536400794982910156e+00,-3.190575408935546875e+01,-1.839057617187500000e+02,3.652444839477539062e+01,2.470060348510742188e+01,3.220216751098632812e+01
9.559999704360961914e-01,2.000000000000000000e+00,-3.049869728088378906e+01,1.812824487686157227e+00,4.123546218872070312e+01,9.594736480712890625e+01,8.494805145263671875e+01,1.340856475830078125e+02,-7.586138248443603516e+00,-3.190024185180664062e+01,-1.839007415771484375e+02,3.652677154541015625e+01,2.471775436401367188e+01,3.219646835327148438e+01
9.599999785423278809e-01,2.000000000000000000e+00,-3.055117607116699219e+01,1.848474025726318359e+00,4.119132232666015625e+01,9.595391082763671875e+01,8.494596099853515625e+01,1.340778350830078125e+02,-7.635863780975341797e+00,-3.189472961425781250e+01,-1.838957366943359375e+02,3.652909469604492188e+01,2.473490333557128906e+01,3.219076919555664062e+01
9.639999866485595703e-01,2.000000000000000000e+00,-3.060364341735839844e+01,1.884115815162658691e+00,4.114718627929687500e+01,9.596045684814453125e+01,8.494387054443359375e+01,1.340700378417968750e+02,-7.685579299926757812e+00,-3.188922119140625000e+01,-1.838907318115234375e+02,3.653142166137695312e+01,2.475204849243164062e+01,3.218507385253906250e+01
9.679999947547912598e-01,2.000000000000000000e+00,-3.065609931945800781e+01,1.919749736785888672e+00,4.110306167602539062e+01,9.596700286865234375e+01,8.494178009033203125e+01,1.340622253417968750e+02,-7.735284328460693359e+00,-3.188370895385742188e+01,-1.838857116699218750e+02,3.653374481201171875e+01,2.476918983459472656e+01,3.217938232421875000e+01
9.720000028610229492e-01,2.000000000000000000e+00,-3.070854377746582031e+01,1.955376029014587402e+00,4.105894851684570312e+01,9.597354125976562500e+01,8.493968963623046875e+01,1.340544281005859375e+02,-7.784976959228515625e+00,-3.187820434570312500e+01,-1.838807220458984375e+02,3.653606414794921875e+01,2.478632736206054688e+01,3.217368698120117188e+01
9.760000109672546387e-01,2.000000000000000000e+00,-3.076097679138183594e+01,1.990994453430175781e+00,4.101484680175781250e+01,9.598008728027343750e+01,8.493759918212890625e+01,1.340466308593750000e+02,-7.834660053253173828e+00,-3.187269592285156250e+01,-1.838757171630859375e+02,3.653838729858398438e+01,2.480345916748046875e+01,3.216799545288085938e+01
9.800000190734863281e-01,2.000000000000000000e+00,-3.081339836120605469e+01,2.026604890823364258e+00,4.097074890136718750e+01,9.598663330078125000e+01,8.493550872802734375e+01,1.340388336181640625e+02,-7.884331703186035156e+00,-3.186719131469726562e+01,-1.838706970214843750e+02,3.654070663452148438e+01,2.482058906555175781e+01,3.216230773925781250e+01
9.840000271797180176e-01,2.000000000000000000e+00,-3.086581039428710938e+01,2.062207698822021484e+00,4.092666625976562500e+01,9.599316406250000000e+01,8.493341827392578125e+01,1.340310363769531250e+02,-7.933992862701416016e+00,-3.186168479919433594e+01,-1.838657073974609375e+02,3.654302978515625000e+01,2.483771514892578125e+01,3.215661621093750000e+01
9.879999756813049316e-01,2.000000000000000000e+00,-3.091820716857910156e+01,2.097802877426147461e+00,4.088259124755859375e+01,9.599971008300781250e+01,8.493132781982421875e+01,1.340232391357421875e+02,-7.983642578125000000e+00,-3.185618400573730469e+01,-1.838607025146484375e+02,3.654534912109375000e+01,2.485483741760253906e+01,3.215092849731445312e+01
9.919999837875366211e-01,2.000000000000000000e+00,-3.097059249877929688e+01,2.133389949798583984e+00,4.083852386474609375e+01,9.600624847412109375e+01,8.492924499511718750e+01,1.340154571533203125e+02,-8.033282279968261719e+00,-3.185068130493164062e+01,-1.838556976318359375e+02,3.654766845703125000e+01,2.487195396423339844e+01,3.214524078369140625e+01
9.959999918937683105e-01,2.000000000000000000e+00,-3.102296829223632812e+01,2.168969392776489258e+00,4.079447174072265625e+01,9.601277923583984375e+01,8.492715454101562500e+01,1.340076751708984375e+02,-8.082909584045410156e+00,-3.184518051147460938e+01,-1.838507080078125000e+02,3.654998779296875000e+01,2.488907051086425781e+01,3.213955307006835938e+01
1.000000000000000000e+00,2.000000000000000000e+00,-3.107533264160156250e+01,2.204540967941284180e+00,4.075042343139648438e+01,9.601930999755859375e+01,8.492506408691406250e+01,1.339998779296875000e+02,-8.132528305053710938e+00,-3.183967781066894531e+01,-1.838457031250000000e+02,3.655230712890625000e+01,2.490618133544921875e+01,3.213386917114257812e+01
1.003999948501586914e+00,2.000000000000000000e+00,-3.112768554687500000e+01,2.240104913711547852e+00,4.070638656616210938e+01,9.602584075927734375e+01,8.492298126220703125e+01,1.339920806884765625e+02,-8.182134628295898438e+00,-3.183418083190917969e+01,-1.838406982421875000e+02,3.655462265014648438e+01,2.492328643798828125e+01,3.212818527221679688e+01
1.008000016212463379e+00,2.000000000000000000e+00,-3.118002510070800781e+01,2.275660991668701172e+00,4.066236114501953125e+01,9.603237915039062500e+01,8.492089080810546875e+01,1.339843139648437500e+02,-8.231730461120605469e+00,-3.182868576049804688e+01,-1.838357086181640625e+02,3.655694198608398438e+01,2.494039154052734375e+01,3.212250137329101562e+01
1.011999964714050293e+00,2.000000000000000000e+00,-3.123235511779785156e+01,2.311209201812744141e+00,4.061834335327148438e+01,9.603890228271484375e+01,8.491880798339843750e+01,1.339765319824218750e+02,-8.281314849853515625e+00,-3.182318687438964844e+01,-1.838307037353515625e+02,3.655926132202148438e+01,2.495749092102050781e+01,3.211682510375976562e+01
1.016000032424926758e+00,2.000000000000000000e+00,-3.128467369079589844e+01,2.346749782562255859e+00,4.057433319091796875e+01,9.604543304443359375e+01,8.491671752929687500e+01,1.339687347412109375e+02,-8.330889701843261719e+00,-3.181769180297851562e+01,-1.838257141113281250e+02,3.656157684326171875e+01,2.497458648681640625e+01,3.211114501953125000e+01
1.019999980926513672e+00,2.000000000000000000e+00,-3.133698081970214844e+01,2.382282495498657227e+00,4.053033447265625000e+01,9.605196380615234375e+01,8.491463470458984375e+01,1.339609680175781250e+02,-8.380453109741210938e+00,-3.181220054626464844e+01,-1.838207244873046875e+02,3.656389236450195312e+01,2.499167823791503906e+01,3.210546493530273438e+01
1.024000048637390137e+00,2.000000000000000000e+00,-3.138927459716796875e+01,2.417807340621948242e+00,4.048634719848632812e+01,9.605848693847656250e+01,8.491255187988281250e+01,1.339531860351562500e+02,-8.430005073547363281e+00,-3.180670928955078125e+01,-1.838157348632812500e+02,3.656620788574218750e+01,2.500876617431640625e+01,3.209978866577148438e+01
1.026999950408935547e+00,2.000000000000000000e+00,-3.144156074523925781e+01,2.453324794769287109e+00,4.044237136840820312e+01,9.606501007080078125e+01,8.491046905517578125e+01,1.339454040527343750e+02,-8.479545593261718750e+00,-3.180121803283691406e+01,-1.838107299804687500e+02,3.656852340698242188e+01,2.502585029602050781e+01,3.209411239624023438e+01
1.031999945640563965e+00,2.000000000000000000e+00,-3.149383163452148438e+01,2.488834142684936523e+00,4.039839935302734375e+01,9.607153320312500000e+01,8.490837860107421875e+01,1.339376373291015625e+02,-8.529076576232910156e+00,-3.179572677612304688e+01,-1.838057403564453125e+02,3.657083892822265625e+01,2.504293251037597656e+01,3.208843612670898438e+01
1.036000013351440430e+00,2.000000000000000000e+00,-3.154609298706054688e+01,2.524335861206054688e+00,4.035443878173828125e+01,9.607804870605468750e+01,8.490629577636718750e+01,1.339298553466796875e+02,-8.578597068786621094e+00,-3.179023742675781250e+01,-1.838007659912109375e+02,3.657315444946289062e+01,2.506001091003417969e+01,3.208276367187500000e+01
1.039999961853027344e+00,2.000000000000000000e+00,-3.159834098815917969e+01,2.559829950332641602e+00,4.031048965454101562e+01,9.608457183837890625e+01,8.490421295166015625e+01,1.339220886230468750e+02,-8.628106117248535156e+00,-3.178474998474121094e+01,-1.837957763671875000e+02,3.657546615600585938e+01,2.507708168029785156e+01,3.207709121704101562e+01
1.044000029563903809e+00,2.000000000000000000e+00,-3.165058135986328125e+01,2.595315933227539062e+00,4.026655197143554688e+01,9.609109497070312500e+01,8.490213012695312500e+01,1.339143218994140625e+02,-8.677604675292968750e+00,-3.177926635742187500e+01,-1.837907867431640625e+02,3.657777786254882812e+01,2.509415245056152344e+01,3.207141876220703125e+01
1.047999978065490723e+00,2.000000000000000000e+00,-3.170280838012695312e+01,2.630794525146484375e+00,4.022261810302734375e+01,9.609761047363281250e+01,8.490005493164062500e+01,1.339065551757812500e+02,-8.727091789245605469e+00,-3.177377700805664062e+01,-1.837857971191406250e+02,3.658009338378906250e+01,2.511121749877929688e+01,3.206575012207031250e+01
1.052000045776367188e+00,2.000000000000000000e+00,-3.175502204895019531e+01,2.666265010833740234e+00,4.017869567871093750e+01,9.610412597656250000e+01,8.489797210693359375e+01,1.338987884521484375e+02,-8.776568412780761719e+00,-3.176829528808593750e+01,-1.837808227539062500e+02,3.658240509033203125e+01,2.512828254699707031e+01,3.206008148193359375e+01
1.054999947547912598e+00,2.000000000000000000e+00,-3.180722427368164062e+01,2.701728105545043945e+00,4.013478469848632812e+01,9.611063385009765625e+01,8.489588165283203125e+01,1.338910217285156250e+02,-8.826034545898437500e+00,-3.176281166076660156e+01,-1.837758331298828125e+02,3.658471679687500000e+01,2.514533996582031250e+01,3.205441665649414062e+01
1.059999942779541016e+00,2.000000000000000000e+00,-3.185941696166992188e+01,2.737183094024658203e+00,4.009088516235351562e+01,9.611714935302734375e+01,8.489379882812500000e+01,1.338832550048828125e+02,-8.875489234924316406e+00,-3.175732994079589844e+01,-1.837708435058593750e+02,3.658702468872070312e+01,2.516239547729492188e+01,3.204875183105468750e+01
1.064000010490417480e+00,2.000000000000000000e+00,-3.191160011291503906e+01,2.772630691528320312e+00,4.004698944091796875e+01,9.612365722656250000e+01,8.489172363281250000e+01,1.338754882812500000e+02,-8.924933433532714844e+00,-3.175184822082519531e+01,-1.837658691406250000e+02,3.658933639526367188e+01,2.517944526672363281e+01,3.204308319091796875e+01
1.067999958992004395e+00,2.000000000000000000e+00,-3.196376991271972656e+01,2.808070421218872070e+00,4.000310516357421875e+01,9.613016510009765625e+01,8.488964080810546875e+01,1.338677368164062500e+02,-8.974366188049316406e+00,-3.174637222290039062e+01,-1.837608795166015625e+02,3.659164428710937500e+01,2.519649314880371094e+01,3.203742218017578125e+01
1.072000026702880859e+00,2.000000000000000000e+00,-3.201592636108398438e+01,2.843502283096313477e+00,3.995923233032226562e+01,9.613667297363281250e+01,8.488756561279296875e+01,1.338599700927734375e+02,-9.023790359497070312e+00,-3.174089431762695312e+01,-1.837559204101562500e+02,3.659395980834960938e+01,2.521353530883789062e+01,3.203176116943359375e+01
1.075999975204467773e+00,2.000000000000000000e+00,-3.206807327270507812e+01,2.878926753997802734e+00,3.991537094116210938e+01,9.614318084716796875e+01,8.488549041748046875e+01,1.338522338867187500e+02,-9.073201179504394531e+00,-3.173541641235351562e+01,-1.837509307861328125e+02,3.659626770019531250e+01,2.523057556152343750e+01,3.202610015869140625e+01
1.080000042915344238e+00,2.000000000000000000e+00,-3.212020874023437500e+01,2.914343118667602539e+00,3.987151718139648438e+01,9.614968872070312500e+01,8.488340759277343750e+01,1.338444671630859375e+02,-9.122602462768554688e+00,-3.172994041442871094e+01,-1.837459564208984375e+02,3.659857559204101562e+01,2.524761199951171875e+01,3.202043914794921875e+01
1.083999991416931152e+00,2.000000000000000000e+00,-3.217233276367187500e+01,2.949751853942871094e+00,3.982767486572265625e+01,9.615618896484375000e+01,8.488133239746093750e+01,1.338367156982421875e+02,-9.171993255615234375e+00,-3.172446632385253906e+01,-1.837409820556640625e+02,3.660088348388671875e+01,2.526464462280273438e+01,3.201478195190429688e+01
1.088000059127807617e+00,2.000000000000000000e+00,-3.222444534301757812e+01,2.985152959823608398e+00,3.978383636474609375e+01,9.616268920898437500e+01,8.487925720214843750e+01,1.338289642333984375e+02,-9.221372604370117188e+00,-3.171899223327636719e+01,-1.837359924316406250e+02,3.660318756103515625e+01,2.528167343139648438e+01,3.200912094116210938e+01
1.090999960899353027e+00,2.000000000000000000e+00,-3.227654647827148438e+01,3.020546436309814453e+00,3.974001312255859375e+01,9.616919708251953125e+01,8.487717437744140625e+01,1.338212280273437500e+02,-9.270741462707519531e+00,-3.171352195739746094e+01,-1.837310180664062500e+02,3.660549926757812500e+01,2.529869842529296875e+01,3.200346755981445312e+01
1.095999956130981445e+00,2.000000000000000000e+00,-3.232863998413085938e+01,3.055932044982910156e+00,3.969619750976562500e+01,9.617568969726562500e+01,8.487509918212890625e+01,1.338134765625000000e+02,-9.320098876953125000e+00,-3.170804977416992188e+01,-1.837260589599609375e+02,3.660780334472656250e+01,2.531572151184082031e+01,3.199781036376953125e+01
1.100000023841857910e+00,2.000000000000000000e+00,-3.238071823120117188e+01,3.091310024261474609e+00,3.965238952636718750e+01,9.618218994140625000e+01,8.487302398681640625e+01,1.338057250976562500e+02,-9.369445800781250000e+00,-3.170257949829101562e+01,-1.837210845947265625e+02,3.661011123657226562e+01,2.533273887634277344e+01,3.199215888977050781e+01
1.103999972343444824e+00,2.000000000000000000e+00,-3.243278503417968750e+01,3.126680135726928711e+00,3.960859298706054688e+01,9.618869018554687500e+01,8.487094879150390625e+01,1.337979888916015625e+02,-9.418783187866210938e+00,-3.169711112976074219e+01,-1.837161102294921875e+02,3.661241531372070312e+01,2.534975242614746094e+01,3.198650360107421875e+01
1.108000040054321289e+00,2.000000000000000000e+00,-3.248484039306640625e+01,3.162042617797851562e+00,3.956480789184570312e+01,9.619518280029296875e+01,8.486887359619140625e+01,1.337902374267578125e+02,-9.468108177185058594e+00,-3.169164466857910156e+01,-1.837111511230468750e+02,3.661472320556640625e+01,2.536676025390625000e+01,3.198085594177246094e+01
1.111999988555908203e+00,2.000000000000000000e+00,-3.253688430786132812e+01,3.197397232055664062e+00,3.952103042602539062e+01,9.620167541503906250e+01,8.486679840087890625e+01,1.337824859619140625e+02,-9.517423629760742188e+00,-3.168617630004882812e+01,-1.837061767578125000e+02,3.661702728271484375e+01,2.538376808166503906e+01,3.197520256042480469e+01
1.116000056266784668e+00,2.000000000000000000e+00,-3.258892059326171875e+01,3.232744455337524414e+00,3.947726058959960938e+01,9.620816802978515625e+01,8.486471557617187500e+01,1.337747650146484375e+02,-9.566727638244628906e+00,-3.168071174621582031e+01,-1.837012023925781250e+02,3.661932754516601562e+01,2.540077018737792969e+01,3.196955490112304688e+01
