rpiRobotics/ARM-21-02-F-19-Robot-Motion-Program/data_performance_abb/curve_1/dual_arm/diffevo_pose3/grad_result/sim/dual_iteration_3.csv
timestamp,cmd_num,J1,J2,J3,J4,J5,J6,J1_2,J2_2,J3_2,J4_2,J5_2,J6_2
0.000000000000000000e+00,-1.000000000000000000e+00,-1.952008438110351562e+01,-5.485588550567626953e+00,5.054055023193359375e+01,9.474714660644531250e+01,8.561058807373046875e+01,1.353297119140625000e+02,2.778314828872680664e+00,-3.302160644531250000e+01,-1.849823760986328125e+02,3.591089248657226562e+01,2.109450912475585938e+01,3.349015426635742188e+01
2.000000094994902611e-03,-1.000000000000000000e+00,-1.952008438110351562e+01,-5.485588550567626953e+00,5.054055023193359375e+01,9.474714660644531250e+01,8.561058807373046875e+01,1.353297119140625000e+02,2.778314828872680664e+00,-3.302160644531250000e+01,-1.849823760986328125e+02,3.591089248657226562e+01,2.109450912475585938e+01,3.349015426635742188e+01
4.000000189989805222e-03,-1.000000000000000000e+00,-1.952008438110351562e+01,-5.485588550567626953e+00,5.054055023193359375e+01,9.474714660644531250e+01,8.561058807373046875e+01,1.353297119140625000e+02,2.778314828872680664e+00,-3.302160644531250000e+01,-1.849823760986328125e+02,3.591089248657226562e+01,2.109450912475585938e+01,3.349015426635742188e+01
9.999999776482582092e-03,-1.000000000000000000e+00,-1.952008438110351562e+01,-5.485588550567626953e+00,5.054055023193359375e+01,9.474714660644531250e+01,8.561058807373046875e+01,1.353297119140625000e+02,2.778314828872680664e+00,-3.302160644531250000e+01,-1.849823760986328125e+02,3.591089248657226562e+01,2.109450912475585938e+01,3.349015426635742188e+01
1.200000010430812836e-02,-1.000000000000000000e+00,-1.952008438110351562e+01,-5.485588550567626953e+00,5.054055023193359375e+01,9.474714660644531250e+01,8.561058807373046875e+01,1.353297119140625000e+02,2.778314828872680664e+00,-3.302160644531250000e+01,-1.849823760986328125e+02,3.591089248657226562e+01,2.109450912475585938e+01,3.349015426635742188e+01
1.600000075995922089e-02,-1.000000000000000000e+00,-1.952008438110351562e+01,-5.485588550567626953e+00,5.054055023193359375e+01,9.474714660644531250e+01,8.561058807373046875e+01,1.353297119140625000e+02,2.778314828872680664e+00,-3.302160644531250000e+01,-1.849823760986328125e+02,3.591089248657226562e+01,2.109450912475585938e+01,3.349015426635742188e+01
1.999999955296516418e-02,-1.000000000000000000e+00,-1.952008438110351562e+01,-5.485588550567626953e+00,5.054055023193359375e+01,9.474714660644531250e+01,8.561058807373046875e+01,1.353297119140625000e+02,2.778314828872680664e+00,-3.302160644531250000e+01,-1.849823760986328125e+02,3.591089248657226562e+01,2.109450912475585938e+01,3.349015426635742188e+01
2.400000020861625671e-02,-1.000000000000000000e+00,-1.952008438110351562e+01,-5.485588550567626953e+00,5.054055023193359375e+01,9.474714660644531250e+01,8.561058807373046875e+01,1.353297119140625000e+02,2.778314828872680664e+00,-3.302160644531250000e+01,-1.849823760986328125e+02,3.591089248657226562e+01,2.109450912475585938e+01,3.349015426635742188e+01
2.800000086426734924e-02,-1.000000000000000000e+00,-1.952008438110351562e+01,-5.485588550567626953e+00,5.054055023193359375e+01,9.474714660644531250e+01,8.561058807373046875e+01,1.353297119140625000e+02,2.778314828872680664e+00,-3.302160644531250000e+01,-1.849823760986328125e+02,3.591089248657226562e+01,2.109450912475585938e+01,3.349015426635742188e+01
3.200000151991844177e-02,2.000000000000000000e+00,-1.952008438110351562e+01,-5.485588550567626953e+00,5.054055023193359375e+01,9.474714660644531250e+01,8.561058807373046875e+01,1.353297119140625000e+02,2.778314828872680664e+00,-3.302160644531250000e+01,-1.849823760986328125e+02,3.591089248657226562e+01,2.109450912475585938e+01,3.349015426635742188e+01
3.700000047683715820e-02,2.000000000000000000e+00,-1.952008438110351562e+01,-5.485588550567626953e+00,5.054055023193359375e+01,9.474714660644531250e+01,8.561058807373046875e+01,1.353297119140625000e+02,2.778314828872680664e+00,-3.302160644531250000e+01,-1.849823760986328125e+02,3.591089248657226562e+01,2.109450912475585938e+01,3.349015426635742188e+01
4.100000113248825073e-02,2.000000000000000000e+00,-1.952008438110351562e+01,-5.485588550567626953e+00,5.054055023193359375e+01,9.474714660644531250e+01,8.561058807373046875e+01,1.353297119140625000e+02,2.778314828872680664e+00,-3.302160644531250000e+01,-1.849823760986328125e+02,3.591089248657226562e+01,2.109450912475585938e+01,3.349015426635742188e+01
4.399999976158142090e-02,2.000000000000000000e+00,-1.952008438110351562e+01,-5.485588550567626953e+00,5.054055023193359375e+01,9.474714660644531250e+01,8.561058807373046875e+01,1.353297119140625000e+02,2.778314828872680664e+00,-3.302160644531250000e+01,-1.849823760986328125e+02,3.591089248657226562e+01,2.109450912475585938e+01,3.349015426635742188e+01
5.000000074505805969e-02,2.000000000000000000e+00,-1.952008438110351562e+01,-5.485588550567626953e+00,5.054055023193359375e+01,9.474714660644531250e+01,8.561058807373046875e+01,1.353297119140625000e+02,2.778314828872680664e+00,-3.302160644531250000e+01,-1.849823760986328125e+02,3.591089248657226562e+01,2.109450912475585938e+01,3.349015426635742188e+01
5.200000107288360596e-02,2.000000000000000000e+00,-1.952008438110351562e+01,-5.485588550567626953e+00,5.054055023193359375e+01,9.474714660644531250e+01,8.561058807373046875e+01,1.353297119140625000e+02,2.778314828872680664e+00,-3.302160644531250000e+01,-1.849823760986328125e+02,3.591089248657226562e+01,2.109450912475585938e+01,3.349015426635742188e+01
5.600000172853469849e-02,2.000000000000000000e+00,-1.952008438110351562e+01,-5.485588550567626953e+00,5.054055023193359375e+01,9.474714660644531250e+01,8.561058807373046875e+01,1.353297119140625000e+02,2.778314828872680664e+00,-3.302160644531250000e+01,-1.849823760986328125e+02,3.591089248657226562e+01,2.109450912475585938e+01,3.349015426635742188e+01
5.999999865889549255e-02,2.000000000000000000e+00,-1.952008438110351562e+01,-5.485588550567626953e+00,5.054055023193359375e+01,9.474714660644531250e+01,8.561058807373046875e+01,1.353297119140625000e+02,2.778314828872680664e+00,-3.302160644531250000e+01,-1.849823760986328125e+02,3.591089248657226562e+01,2.109450912475585938e+01,3.349015426635742188e+01
6.400000303983688354e-02,2.000000000000000000e+00,-1.952008438110351562e+01,-5.485588550567626953e+00,5.054055023193359375e+01,9.474714660644531250e+01,8.561058807373046875e+01,1.353297119140625000e+02,2.778314828872680664e+00,-3.302160644531250000e+01,-1.849823760986328125e+02,3.591089248657226562e+01,2.109450912475585938e+01,3.349015426635742188e+01
6.800000369548797607e-02,2.000000000000000000e+00,-1.952008438110351562e+01,-5.485588550567626953e+00,5.054055023193359375e+01,9.474714660644531250e+01,8.561058807373046875e+01,1.353297119140625000e+02,2.778314828872680664e+00,-3.302160644531250000e+01,-1.849823760986328125e+02,3.591089248657226562e+01,2.109450912475585938e+01,3.349015426635742188e+01
7.199999690055847168e-02,2.000000000000000000e+00,-1.952008438110351562e+01,-5.485588550567626953e+00,5.054055023193359375e+01,9.474714660644531250e+01,8.561058807373046875e+01,1.353297119140625000e+02,2.778314828872680664e+00,-3.302160644531250000e+01,-1.849823760986328125e+02,3.591089248657226562e+01,2.109450912475585938e+01,3.349015426635742188e+01
7.599999755620956421e-02,2.000000000000000000e+00,-1.952015113830566406e+01,-5.485563755035400391e+00,5.054053115844726562e+01,9.474714660644531250e+01,8.561058807373046875e+01,1.353297119140625000e+02,2.778314828872680664e+00,-3.302160644531250000e+01,-1.849823760986328125e+02,3.591089248657226562e+01,2.109450912475585938e+01,3.349015426635742188e+01
7.999999821186065674e-02,2.000000000000000000e+00,-1.952053070068359375e+01,-5.485410213470458984e+00,5.054044723510742188e+01,9.474714660644531250e+01,8.561058044433593750e+01,1.353297119140625000e+02,2.778314828872680664e+00,-3.302160644531250000e+01,-1.849823760986328125e+02,3.591089248657226562e+01,2.109450912475585938e+01,3.349015426635742188e+01
8.399999886751174927e-02,2.000000000000000000e+00,-1.952160835266113281e+01,-5.484933853149414062e+00,5.054016494750976562e+01,9.474716186523437500e+01,8.561055755615234375e+01,1.353297119140625000e+02,2.778314828872680664e+00,-3.302160644531250000e+01,-1.849823760986328125e+02,3.591089248657226562e+01,2.109450912475585938e+01,3.349015426635742188e+01
8.799999952316284180e-02,2.000000000000000000e+00,-1.952374839782714844e+01,-5.483907699584960938e+00,5.053954315185546875e+01,9.474719238281250000e+01,8.561050415039062500e+01,1.353296813964843750e+02,2.778287887573242188e+00,-3.302160263061523438e+01,-1.849823608398437500e+02,3.591089248657226562e+01,2.109451103210449219e+01,3.349015426635742188e+01
9.200000017881393433e-02,2.000000000000000000e+00,-1.952717781066894531e+01,-5.482137203216552734e+00,5.053840255737304688e+01,9.474724578857421875e+01,8.561042022705078125e+01,1.353296356201171875e+02,2.778112411499023438e+00,-3.302159500122070312e+01,-1.849823303222656250e+02,3.591089630126953125e+01,2.109452629089355469e+01,3.349015426635742188e+01
9.600000083446502686e-02,2.000000000000000000e+00,-1.953205299377441406e+01,-5.479456901550292969e+00,5.053657150268554688e+01,9.474736022949218750e+01,8.561028289794921875e+01,1.353295288085937500e+02,2.777533054351806641e+00,-3.302156066894531250e+01,-1.849822540283203125e+02,3.591090393066406250e+01,2.109458732604980469e+01,3.349014282226562500e+01
1.000000014901161194e-01,2.000000000000000000e+00,-1.953852081298828125e+01,-5.475713729858398438e+00,5.053382873535156250e+01,9.474756622314453125e+01,8.561007690429687500e+01,1.353293457031250000e+02,2.776203393936157227e+00,-3.302148056030273438e+01,-1.849820556640625000e+02,3.591093444824218750e+01,2.109474754333496094e+01,3.349011230468750000e+01
1.040000021457672119e-01,2.000000000000000000e+00,-1.954661178588867188e+01,-5.470809459686279297e+00,5.052995681762695312e+01,9.474790191650390625e+01,8.560980987548828125e+01,1.353289947509765625e+02,2.773745059967041016e+00,-3.302131652832031250e+01,-1.849817047119140625e+02,3.591099548339843750e+01,2.109510040283203125e+01,3.349003219604492188e+01
1.080000028014183044e-01,2.000000000000000000e+00,-1.955624771118164062e+01,-5.464717388153076172e+00,5.052474975585937500e+01,9.474840545654296875e+01,8.560945892333984375e+01,1.353284606933593750e+02,2.769737958908081055e+00,-3.302103042602539062e+01,-1.849811401367187500e+02,3.591111373901367188e+01,2.109577560424804688e+01,3.348986053466796875e+01
1.120000034570693970e-01,2.000000000000000000e+00,-1.956744956970214844e+01,-5.457402229309082031e+00,5.051797866821289062e+01,9.474913787841796875e+01,8.560900878906250000e+01,1.353276824951171875e+02,2.763719558715820312e+00,-3.302056121826171875e+01,-1.849803466796875000e+02,3.591131210327148438e+01,2.109695434570312500e+01,3.348952484130859375e+01
1.159999966621398926e-01,2.000000000000000000e+00,-1.958047485351562500e+01,-5.448729038238525391e+00,5.050936889648437500e+01,9.475013732910156250e+01,8.560846710205078125e+01,1.353265991210937500e+02,2.755304098129272461e+00,-3.301985168457031250e+01,-1.849792633056640625e+02,3.591162490844726562e+01,2.109883880615234375e+01,3.348894882202148438e+01
1.199999973177909851e-01,2.000000000000000000e+00,-1.959575080871582031e+01,-5.438470840454101562e+00,5.049860000610351562e+01,9.475145721435546875e+01,8.560780334472656250e+01,1.353251342773437500e+02,2.744269847869873047e+00,-3.301884841918945312e+01,-1.849779205322265625e+02,3.591208648681640625e+01,2.110164833068847656e+01,3.348805618286132812e+01
1.239999979734420776e-01,2.000000000000000000e+00,-1.961363601684570312e+01,-5.426424026489257812e+00,5.048538970947265625e+01,9.475314331054687500e+01,8.560699462890625000e+01,1.353232421875000000e+02,2.730459690093994141e+00,-3.301750183105468750e+01,-1.849763183593750000e+02,3.591272735595703125e+01,2.110559082031250000e+01,3.348674392700195312e+01
1.280000060796737671e-01,2.000000000000000000e+00,-1.963428688049316406e+01,-5.412511825561523438e+00,5.046951675415039062e+01,9.475523376464843750e+01,8.560604858398437500e+01,1.353209075927734375e+02,2.713640213012695312e+00,-3.301577377319335938e+01,-1.849744720458984375e+02,3.591357803344726562e+01,2.111084365844726562e+01,3.348495101928710938e+01
1.309999972581863403e-01,2.000000000000000000e+00,-1.965767288208007812e+01,-5.396776676177978516e+00,5.045089721679687500e+01,9.475775146484375000e+01,8.560495758056640625e+01,1.353180694580078125e+02,2.693526029586791992e+00,-3.301361846923828125e+01,-1.849723358154296875e+02,3.591465377807617188e+01,2.111754226684570312e+01,3.348262786865234375e+01
1.360000073909759521e-01,2.000000000000000000e+00,-1.968369293212890625e+01,-5.379299163818359375e+00,5.042946243286132812e+01,9.476072692871093750e+01,8.560370635986328125e+01,1.353147125244140625e+02,2.669923543930053711e+00,-3.301101684570312500e+01,-1.849698944091796875e+02,3.591596984863281250e+01,2.112575149536132812e+01,3.347975158691406250e+01
1.389999985694885254e-01,2.000000000000000000e+00,-1.971227264404296875e+01,-5.360133647918701172e+00,5.040521621704101562e+01,9.476416015625000000e+01,8.560231018066406250e+01,1.353108215332031250e+02,2.642749309539794922e+00,-3.300797271728515625e+01,-1.849671478271484375e+02,3.591752624511718750e+01,2.113547515869140625e+01,3.347631835937500000e+01
1.439999938011169434e-01,2.000000000000000000e+00,-1.974332809448242188e+01,-5.339331626892089844e+00,5.037820053100585938e+01,9.476805114746093750e+01,8.560077667236328125e+01,1.353063964843750000e+02,2.611974716186523438e+00,-3.300448989868164062e+01,-1.849640960693359375e+02,3.591931152343750000e+01,2.114666366577148438e+01,3.347235488891601562e+01
1.480000019073486328e-01,2.000000000000000000e+00,-1.977676391601562500e+01,-5.316943645477294922e+00,5.034853363037109375e+01,9.477237701416015625e+01,8.559909820556640625e+01,1.353014526367187500e+02,2.577655553817749023e+00,-3.300059509277343750e+01,-1.849606781005859375e+02,3.592131805419921875e+01,2.115921592712402344e+01,3.346789932250976562e+01
1.519999951124191284e-01,2.000000000000000000e+00,-1.981259536743164062e+01,-5.292938232421875000e+00,5.031631851196289062e+01,9.477711486816406250e+01,8.559729003906250000e+01,1.352960510253906250e+02,2.540017843246459961e+00,-3.299632263183593750e+01,-1.849569396972656250e+02,3.592351531982421875e+01,2.117300033569335938e+01,3.346300888061523438e+01
1.560000032186508179e-01,2.000000000000000000e+00,-1.985095024108886719e+01,-5.267201423645019531e+00,5.028167724609375000e+01,9.478221893310546875e+01,8.559535217285156250e+01,1.352902374267578125e+02,2.499461889266967773e+00,-3.299172210693359375e+01,-1.849529113769531250e+02,3.592589187622070312e+01,2.118785476684570312e+01,3.345773696899414062e+01
1.599999964237213135e-01,2.000000000000000000e+00,-1.989189529418945312e+01,-5.239668369293212891e+00,5.024477767944335938e+01,9.478762817382812500e+01,8.559327697753906250e+01,1.352840576171875000e+02,2.456434965133666992e+00,-3.298684692382812500e+01,-1.849486236572265625e+02,3.592840576171875000e+01,2.120360183715820312e+01,3.345214843750000000e+01
1.640000045299530029e-01,2.000000000000000000e+00,-1.993526077270507812e+01,-5.210431575775146484e+00,5.020586776733398438e+01,9.479332733154296875e+01,8.559107971191406250e+01,1.352775726318359375e+02,2.411308050155639648e+00,-3.298174667358398438e+01,-1.849441375732421875e+02,3.593103408813476562e+01,2.122006797790527344e+01,3.344631195068359375e+01
1.679999977350234985e-01,2.000000000000000000e+00,-1.998068237304687500e+01,-5.179711818695068359e+00,5.016527175903320312e+01,9.479923248291015625e+01,8.558879089355468750e+01,1.352708282470703125e+02,2.364388227462768555e+00,-3.297646713256835938e+01,-1.849394378662109375e+02,3.593375015258789062e+01,2.123708724975585938e+01,3.344028854370117188e+01
1.720000058412551880e-01,2.000000000000000000e+00,-2.002777099609375000e+01,-5.147735118865966797e+00,5.012328720092773438e+01,9.480532836914062500e+01,8.558641815185546875e+01,1.352639007568359375e+02,2.315981864929199219e+00,-3.297104644775390625e+01,-1.849345550537109375e+02,3.593653106689453125e+01,2.125450515747070312e+01,3.343413162231445312e+01
1.759999990463256836e-01,2.000000000000000000e+00,-2.007626914978027344e+01,-5.114682197570800781e+00,5.008017349243164062e+01,9.481155395507812500e+01,8.558396911621093750e+01,1.352568206787109375e+02,2.266416072845458984e+00,-3.296553421020507812e+01,-1.849295349121093750e+02,3.593935775756835938e+01,2.127219581604003906e+01,3.342789077758789062e+01
1.800000071525573730e-01,2.000000000000000000e+00,-2.012602806091308594e+01,-5.080704689025878906e+00,5.003617095947265625e+01,9.481788635253906250e+01,8.558146667480468750e+01,1.352496185302734375e+02,2.215984821319580078e+00,-3.295995330810546875e+01,-1.849243774414062500e+02,3.594221496582031250e+01,2.129005241394042969e+01,3.342160797119140625e+01
1.840000003576278687e-01,2.000000000000000000e+00,-2.017693328857421875e+01,-5.045947074890136719e+00,4.999147033691406250e+01,9.482428741455078125e+01,8.557891845703125000e+01,1.352423553466796875e+02,2.164927244186401367e+00,-3.295432662963867188e+01,-1.849191436767578125e+02,3.594508743286132812e+01,2.130800247192382812e+01,3.341530227661132812e+01
1.879999935626983643e-01,2.000000000000000000e+00,-2.022884941101074219e+01,-5.010548591613769531e+00,4.994625091552734375e+01,9.483073425292968750e+01,8.557633209228515625e+01,1.352350311279296875e+02,2.113464355468750000e+00,-3.294867706298828125e+01,-1.849138641357421875e+02,3.594796752929687500e+01,2.132599830627441406e+01,3.340898513793945312e+01
1.920000016689300537e-01,2.000000000000000000e+00,-2.028166770935058594e+01,-4.974624156951904297e+00,4.990065002441406250e+01,9.483721160888671875e+01,8.557371520996093750e+01,1.352276916503906250e+02,2.061797142028808594e+00,-3.294300842285156250e+01,-1.849085388183593750e+02,3.595085525512695312e+01,2.134401130676269531e+01,3.340266799926757812e+01
1.959999948740005493e-01,2.000000000000000000e+00,-2.033529090881347656e+01,-4.938279151916503906e+00,4.985477447509765625e+01,9.484370422363281250e+01,8.557108306884765625e+01,1.352203369140625000e+02,2.010068655014038086e+00,-3.293734359741210938e+01,-1.849031982421875000e+02,3.595373535156250000e+01,2.136202812194824219e+01,3.339635086059570312e+01
2.000000029802322388e-01,2.000000000000000000e+00,-2.038953018188476562e+01,-4.901647090911865234e+00,4.980872344970703125e+01,9.485020446777343750e+01,8.556843566894531250e+01,1.352129669189453125e+02,1.958340167999267578e+00,-3.293167877197265625e+01,-1.848978576660156250e+02,3.595662307739257812e+01,2.138003921508789062e+01,3.339003753662109375e+01
2.039999961853027344e-01,2.000000000000000000e+00,-2.044412422180175781e+01,-4.864867210388183594e+00,4.976259613037109375e+01,9.485670471191406250e+01,8.556577301025390625e+01,1.352055969238281250e+02,1.906623244285583496e+00,-3.292601394653320312e+01,-1.848925170898437500e+02,3.595950698852539062e+01,2.139804458618164062e+01,3.338372039794921875e+01
2.080000042915344238e-01,2.000000000000000000e+00,-2.049883651733398438e+01,-4.828045368194580078e+00,4.971644973754882812e+01,9.486320495605468750e+01,8.556311035156250000e+01,1.351982421875000000e+02,1.854918241500854492e+00,-3.292034912109375000e+01,-1.848871917724609375e+02,3.596239089965820312e+01,2.141604995727539062e+01,3.337741088867187500e+01
2.119999974966049194e-01,2.000000000000000000e+00,-2.055355453491210938e+01,-4.791224479675292969e+00,4.967030715942382812e+01,9.486970520019531250e+01,8.556045532226562500e+01,1.351908721923828125e+02,1.803225278854370117e+00,-3.291468429565429688e+01,-1.848818511962890625e+02,3.596527481079101562e+01,2.143404960632324219e+01,3.337109756469726562e+01
2.160000056028366089e-01,2.000000000000000000e+00,-2.060826110839843750e+01,-4.754411697387695312e+00,4.962417984008789062e+01,9.487619781494140625e+01,8.555780029296875000e+01,1.351835327148437500e+02,1.751544117927551270e+00,-3.290902328491210938e+01,-1.848765106201171875e+02,3.596815490722656250e+01,2.145204353332519531e+01,3.336478805541992188e+01
2.199999988079071045e-01,2.000000000000000000e+00,-2.066295242309570312e+01,-4.717607498168945312e+00,4.957806015014648438e+01,9.488269042968750000e+01,8.555514526367187500e+01,1.351761627197265625e+02,1.699874997138977051e+00,-3.290336608886718750e+01,-1.848711700439453125e+02,3.597103881835937500e+01,2.147003364562988281e+01,3.335847854614257812e+01
2.240000069141387939e-01,2.000000000000000000e+00,-2.071763420104980469e+01,-4.680811405181884766e+00,4.953195190429687500e+01,9.488919067382812500e+01,8.555248260498046875e+01,1.351688232421875000e+02,1.648217797279357910e+00,-3.289770507812500000e+01,-1.848658447265625000e+02,3.597391510009765625e+01,2.148802185058593750e+01,3.335217285156250000e+01
2.280000001192092896e-01,2.000000000000000000e+00,-2.077230262756347656e+01,-4.644023895263671875e+00,4.948585128784179688e+01,9.489567565917968750e+01,8.554982757568359375e+01,1.351614685058593750e+02,1.596572756767272949e+00,-3.289204788208007812e+01,-1.848605194091796875e+02,3.597679901123046875e+01,2.150600433349609375e+01,3.334586715698242188e+01
2.319999933242797852e-01,2.000000000000000000e+00,-2.082695960998535156e+01,-4.607245445251464844e+00,4.943976593017578125e+01,9.490217590332031250e+01,8.554718017578125000e+01,1.351541137695312500e+02,1.544939756393432617e+00,-3.288639068603515625e+01,-1.848551788330078125e+02,3.597967910766601562e+01,2.152398109436035156e+01,3.333956527709960938e+01
2.360000014305114746e-01,2.000000000000000000e+00,-2.088160324096679688e+01,-4.570475578308105469e+00,4.939368820190429688e+01,9.490866088867187500e+01,8.554451751708984375e+01,1.351467742919921875e+02,1.493318676948547363e+00,-3.288073730468750000e+01,-1.848498535156250000e+02,3.598255538940429688e+01,2.154195594787597656e+01,3.333326339721679688e+01
2.399999946355819702e-01,2.000000000000000000e+00,-2.093623352050781250e+01,-4.533714294433593750e+00,4.934762573242187500e+01,9.491515350341796875e+01,8.554186248779296875e+01,1.351394195556640625e+02,1.441709637641906738e+00,-3.287508392333984375e+01,-1.848445281982421875e+02,3.598543167114257812e+01,2.155992507934570312e+01,3.332696151733398438e+01
2.440000027418136597e-01,2.000000000000000000e+00,-2.099085235595703125e+01,-4.496961593627929688e+00,4.930157089233398438e+01,9.492163085937500000e+01,8.553921508789062500e+01,1.351320648193359375e+02,1.390112638473510742e+00,-3.286943054199218750e+01,-1.848392028808593750e+02,3.598831176757812500e+01,2.157789039611816406e+01,3.332066345214843750e+01
2.479999959468841553e-01,2.000000000000000000e+00,-2.104545783996582031e+01,-4.460217475891113281e+00,4.925552368164062500e+01,9.492812347412109375e+01,8.553656005859375000e+01,1.351247253417968750e+02,1.338527798652648926e+00,-3.286378097534179688e+01,-1.848338775634765625e+02,3.599118804931640625e+01,2.159585189819335938e+01,3.331436538696289062e+01
2.520000040531158447e-01,2.000000000000000000e+00,-2.110005187988281250e+01,-4.423480987548828125e+00,4.920949172973632812e+01,9.493460083007812500e+01,8.553390502929687500e+01,1.351173858642578125e+02,1.286954879760742188e+00,-3.285813140869140625e+01,-1.848285522460937500e+02,3.599406433105468750e+01,2.161380958557128906e+01,3.330807113647460938e+01
2.560000121593475342e-01,2.000000000000000000e+00,-2.115463066101074219e+01,-4.386754035949707031e+00,4.916346740722656250e+01,9.494108581542968750e+01,8.553125762939453125e+01,1.351100463867187500e+02,1.235393881797790527e+00,-3.285248184204101562e+01,-1.848232269287109375e+02,3.599693679809570312e+01,2.163176345825195312e+01,3.330177307128906250e+01
2.599999904632568359e-01,2.000000000000000000e+00,-2.120919799804687500e+01,-4.350034713745117188e+00,4.911745452880859375e+01,9.494756317138671875e+01,8.552861022949218750e+01,1.351027069091796875e+02,1.183844804763793945e+00,-3.284683609008789062e+01,-1.848179168701171875e+02,3.599981307983398438e+01,2.164970970153808594e+01,3.329548263549804688e+01
2.639999985694885254e-01,2.000000000000000000e+00,-2.126375389099121094e+01,-4.313324928283691406e+00,4.907145309448242188e+01,9.495404052734375000e+01,8.552595520019531250e+01,1.350953674316406250e+02,1.132307648658752441e+00,-3.284119033813476562e+01,-1.848126068115234375e+02,3.600268936157226562e+01,2.166765594482421875e+01,3.328918838500976562e+01
2.680000066757202148e-01,2.000000000000000000e+00,-2.131829643249511719e+01,-4.276622772216796875e+00,4.902546310424804688e+01,9.496051788330078125e+01,8.552330780029296875e+01,1.350880279541015625e+02,1.080782413482666016e+00,-3.283554840087890625e+01,-1.848072662353515625e+02,3.600556182861328125e+01,2.168559646606445312e+01,3.328289794921875000e+01
2.720000147819519043e-01,2.000000000000000000e+00,-2.137282752990722656e+01,-4.239928722381591797e+00,4.897948074340820312e+01,9.496699523925781250e+01,8.552065277099609375e+01,1.350806884765625000e+02,1.029269099235534668e+00,-3.282990264892578125e+01,-1.848019561767578125e+02,3.600843429565429688e+01,2.170353317260742188e+01,3.327661132812500000e+01
2.759999930858612061e-01,2.000000000000000000e+00,-2.142734336853027344e+01,-4.203243732452392578e+00,4.893351364135742188e+01,9.497346496582031250e+01,8.551800537109375000e+01,1.350733642578125000e+02,9.777676463127136230e-01,-3.282426071166992188e+01,-1.847966461181640625e+02,3.601130676269531250e+01,2.172146606445312500e+01,3.327032470703125000e+01
2.800000011920928955e-01,2.000000000000000000e+00,-2.148184776306152344e+01,-4.166567325592041016e+00,4.888755416870117188e+01,9.497994232177734375e+01,8.551536560058593750e+01,1.350660400390625000e+02,9.262780547142028809e-01,-3.281862258911132812e+01,-1.847913360595703125e+02,3.601417922973632812e+01,2.173939323425292969e+01,3.326403427124023438e+01
2.840000092983245850e-01,2.000000000000000000e+00,-2.153633880615234375e+01,-4.129899024963378906e+00,4.884160232543945312e+01,9.498641204833984375e+01,8.551271057128906250e+01,1.350587005615234375e+02,8.748002052307128906e-01,-3.281298446655273438e+01,-1.847860107421875000e+02,3.601704788208007812e+01,2.175731658935546875e+01,3.325775146484375000e+01
2.879999876022338867e-01,2.000000000000000000e+00,-2.159082031250000000e+01,-4.093239307403564453e+00,4.879566955566406250e+01,9.499288177490234375e+01,8.551006317138671875e+01,1.350513763427734375e+02,8.233340978622436523e-01,-3.280734634399414062e+01,-1.847807006835937500e+02,3.601991653442382812e+01,2.177523803710937500e+01,3.325146865844726562e+01
2.919999957084655762e-01,2.000000000000000000e+00,-2.164528846740722656e+01,-4.056587696075439453e+00,4.874973678588867188e+01,9.499934387207031250e+01,8.550741577148437500e+01,1.350440521240234375e+02,7.718797922134399414e-01,-3.280170822143554688e+01,-1.847753906250000000e+02,3.602278518676757812e+01,2.179315376281738281e+01,3.324518966674804688e+01
2.960000038146972656e-01,2.000000000000000000e+00,-2.169974136352539062e+01,-4.019944667816162109e+00,4.870382308959960938e+01,9.500581359863281250e+01,8.550477600097656250e+01,1.350367279052734375e+02,7.204372286796569824e-01,-3.279607391357421875e+01,-1.847700805664062500e+02,3.602565383911132812e+01,2.181106567382812500e+01,3.323890686035156250e+01
3.000000119209289551e-01,2.000000000000000000e+00,-2.175418281555175781e+01,-3.983309984207153320e+00,4.865791702270507812e+01,9.501228332519531250e+01,8.550213623046875000e+01,1.350294189453125000e+02,6.690063476562500000e-01,-3.279043579101562500e+01,-1.847647705078125000e+02,3.602852249145507812e+01,2.182897186279296875e+01,3.323262786865234375e+01
3.039999902248382568e-01,2.000000000000000000e+00,-2.180861282348632812e+01,-3.946683883666992188e+00,4.861201858520507812e+01,9.501874542236328125e+01,8.549948120117187500e+01,1.350220947265625000e+02,6.175872087478637695e-01,-3.278480529785156250e+01,-1.847594604492187500e+02,3.603139114379882812e+01,2.184687614440917969e+01,3.322634887695312500e+01
3.079999983310699463e-01,2.000000000000000000e+00,-2.186303138732910156e+01,-3.910066127777099609e+00,4.856613159179687500e+01,9.502520751953125000e+01,8.549684143066406250e+01,1.350147705078125000e+02,5.661798119544982910e-01,-3.277917480468750000e+01,-1.847541656494140625e+02,3.603425979614257812e+01,2.186477661132812500e+01,3.322007369995117188e+01
3.120000064373016357e-01,2.000000000000000000e+00,-2.191743469238281250e+01,-3.873456716537475586e+00,4.852025604248046875e+01,9.503166961669921875e+01,8.549419403076171875e+01,1.350074462890625000e+02,5.147840976715087891e-01,-3.277354812622070312e+01,-1.847488555908203125e+02,3.603712463378906250e+01,2.188267135620117188e+01,3.321379852294921875e+01
3.160000145435333252e-01,2.000000000000000000e+00,-2.197182846069335938e+01,-3.836855411529541016e+00,4.847439193725585938e+01,9.503813171386718750e+01,8.549155426025390625e+01,1.350001373291015625e+02,4.634001255035400391e-01,-3.276791381835937500e+01,-1.847435455322265625e+02,3.603999328613281250e+01,2.190056228637695312e+01,3.320752716064453125e+01
3.199999928474426270e-01,2.000000000000000000e+00,-2.202620887756347656e+01,-3.800262212753295898e+00,4.842853927612304688e+01,9.504458618164062500e+01,8.548891448974609375e+01,1.349928283691406250e+02,4.120278060436248779e-01,-3.276228713989257812e+01,-1.847382507324218750e+02,3.604285430908203125e+01,2.191844940185546875e+01,3.320125198364257812e+01
3.240000009536743164e-01,2.000000000000000000e+00,-2.208057594299316406e+01,-3.763677597045898438e+00,4.838269424438476562e+01,9.505104827880859375e+01,8.548627471923828125e+01,1.349855041503906250e+02,3.606672286987304688e-01,-3.275666046142578125e+01,-1.847329406738281250e+02,3.604571914672851562e+01,2.193633270263671875e+01,3.319498443603515625e+01
3.280000090599060059e-01,2.000000000000000000e+00,-2.213493156433105469e+01,-3.727101564407348633e+00,4.833686065673828125e+01,9.505750274658203125e+01,8.548362731933593750e+01,1.349781951904296875e+02,3.093183338642120361e-01,-3.275103759765625000e+01,-1.847276458740234375e+02,3.604858398437500000e+01,2.195421218872070312e+01,3.318871688842773438e+01
3.319999873638153076e-01,2.000000000000000000e+00,-2.218927574157714844e+01,-3.690533638000488281e+00,4.829103851318359375e+01,9.506395721435546875e+01,8.548099517822265625e+01,1.349708862304687500e+02,2.579811215400695801e-01,-3.274541473388671875e+01,-1.847223510742187500e+02,3.605144500732421875e+01,2.197208786010742188e+01,3.318244552612304688e+01
3.359999954700469971e-01,2.000000000000000000e+00,-2.224360656738281250e+01,-3.653974056243896484e+00,4.824522781372070312e+01,9.507040405273437500e+01,8.547834777832031250e+01,1.349635772705078125e+02,2.066556364297866821e-01,-3.273979187011718750e+01,-1.847170410156250000e+02,3.605430984497070312e+01,2.198995780944824219e+01,3.317618179321289062e+01
3.400000035762786865e-01,2.000000000000000000e+00,-2.229792213439941406e+01,-3.617422819137573242e+00,4.819942474365234375e+01,9.507685852050781250e+01,8.547571563720703125e+01,1.349562683105468750e+02,1.553418040275573730e-01,-3.273416900634765625e+01,-1.847117614746093750e+02,3.605717086791992188e+01,2.200782585144042969e+01,3.316991424560546875e+01
3.440000116825103760e-01,2.000000000000000000e+00,-2.235223007202148438e+01,-3.580879926681518555e+00,4.815362930297851562e+01,9.508330535888671875e+01,8.547307586669921875e+01,1.349489746093750000e+02,1.040396764874458313e-01,-3.272854995727539062e+01,-1.847064514160156250e+02,3.606003189086914062e+01,2.202568817138671875e+01,3.316365432739257812e+01
3.479999899864196777e-01,2.000000000000000000e+00,-2.240652275085449219e+01,-3.544345378875732422e+00,4.810784912109375000e+01,9.508975219726562500e+01,8.547044372558593750e+01,1.349416656494140625e+02,5.274922028183937073e-02,-3.272293090820312500e+01,-1.847011566162109375e+02,3.606288909912109375e+01,2.204354667663574219e+01,3.315739440917968750e+01
3.519999980926513672e-01,2.000000000000000000e+00,-2.246080398559570312e+01,-3.507819175720214844e+00,4.806207656860351562e+01,9.509619903564453125e+01,8.546780395507812500e+01,1.349343719482421875e+02,1.470446237362921238e-03,-3.271731185913085938e+01,-1.846958770751953125e+02,3.606575393676757812e+01,2.206140136718750000e+01,3.315113067626953125e+01
3.560000061988830566e-01,2.000000000000000000e+00,-2.251507377624511719e+01,-3.471301078796386719e+00,4.801631927490234375e+01,9.510263824462890625e+01,8.546516418457031250e+01,1.349270629882812500e+02,-4.979665577411651611e-02,-3.271170043945312500e+01,-1.846905822753906250e+02,3.606861114501953125e+01,2.207925224304199219e+01,3.314487457275390625e+01
3.600000143051147461e-01,2.000000000000000000e+00,-2.256932830810546875e+01,-3.434791564941406250e+00,4.797056579589843750e+01,9.510907745361328125e+01,8.546253204345703125e+01,1.349197692871093750e+02,-1.010520905256271362e-01,-3.270608520507812500e+01,-1.846852874755859375e+02,3.607146835327148438e+01,2.209709739685058594e+01,3.313861465454101562e+01
3.639999926090240479e-01,2.000000000000000000e+00,-2.262357330322265625e+01,-3.398290157318115234e+00,4.792482757568359375e+01,9.511553192138671875e+01,8.545989227294921875e+01,1.349124755859375000e+02,-1.522958576679229736e-01,-3.270046997070312500e+01,-1.846799926757812500e+02,3.607432556152343750e+01,2.211494255065917969e+01,3.313235855102539062e+01
3.680000007152557373e-01,2.000000000000000000e+00,-2.267780494689941406e+01,-3.361797094345092773e+00,4.787910079956054688e+01,9.512196350097656250e+01,8.545726013183593750e+01,1.349051818847656250e+02,-2.035279572010040283e-01,-3.269485855102539062e+01,-1.846747131347656250e+02,3.607718276977539062e+01,2.213278007507324219e+01,3.312610244750976562e+01
3.720000088214874268e-01,2.000000000000000000e+00,-2.273202323913574219e+01,-3.325312376022338867e+00,4.783337783813476562e+01,9.512840270996093750e+01,8.545462036132812500e+01,1.348978881835937500e+02,-2.547484040260314941e-01,-3.268924713134765625e+01,-1.846694183349609375e+02,3.608003616333007812e+01,2.215061378479003906e+01,3.311985015869140625e+01
3.759999871253967285e-01,2.000000000000000000e+00,-2.278623199462890625e+01,-3.288836002349853516e+00,4.778767013549804688e+01,9.513484191894531250e+01,8.545199584960937500e+01,1.348906097412109375e+02,-3.059571683406829834e-01,-3.268363571166992188e+01,-1.846641387939453125e+02,3.608289718627929688e+01,2.216844558715820312e+01,3.311359786987304688e+01
3.799999952316284180e-01,2.000000000000000000e+00,-2.284042549133300781e+01,-3.252367973327636719e+00,4.774197387695312500e+01,9.514128112792968750e+01,8.544935607910156250e+01,1.348833160400390625e+02,-3.571543395519256592e-01,-3.267802810668945312e+01,-1.846588592529296875e+02,3.608575057983398438e+01,2.218627166748046875e+01,3.310734939575195312e+01
3.840000033378601074e-01,2.000000000000000000e+00,-2.289460754394531250e+01,-3.215908050537109375e+00,4.769628906250000000e+01,9.514771270751953125e+01,8.544672393798828125e+01,1.348760375976562500e+02,-4.083398282527923584e-01,-3.267242050170898438e+01,-1.846535644531250000e+02,3.608860397338867188e+01,2.220409393310546875e+01,3.310109710693359375e+01
3.880000114440917969e-01,2.000000000000000000e+00,-2.294877815246582031e+01,-3.179456472396850586e+00,4.765061187744140625e+01,9.515414428710937500e+01,8.544409942626953125e+01,1.348687438964843750e+02,-4.595136344432830811e-01,-3.266681671142578125e+01,-1.846482849121093750e+02,3.609145736694335938e+01,2.222191238403320312e+01,3.309485244750976562e+01
3.919999897480010986e-01,2.000000000000000000e+00,-2.300293540954589844e+01,-3.143013238906860352e+00,4.760493850708007812e+01,9.516057586669921875e+01,8.544145965576171875e+01,1.348614654541015625e+02,-5.106758475303649902e-01,-3.266120910644531250e+01,-1.846430053710937500e+02,3.609431457519531250e+01,2.223972702026367188e+01,3.308860778808593750e+01
3.959999978542327881e-01,2.000000000000000000e+00,-2.305708122253417969e+01,-3.106578350067138672e+00,4.755928421020507812e+01,9.516700744628906250e+01,8.543882751464843750e+01,1.348541717529296875e+02,-5.618264079093933105e-01,-3.265560913085937500e+01,-1.846377258300781250e+02,3.609716415405273438e+01,2.225753593444824219e+01,3.308235931396484375e+01
4.000000059604644775e-01,2.000000000000000000e+00,-2.311121368408203125e+01,-3.070151805877685547e+00,4.751363754272460938e+01,9.517343139648437500e+01,8.543620300292968750e+01,1.348468933105468750e+02,-6.129653453826904297e-01,-3.265000534057617188e+01,-1.846324462890625000e+02,3.610001754760742188e+01,2.227534294128417969e+01,3.307611846923828125e+01
4.040000140666961670e-01,2.000000000000000000e+00,-2.316533470153808594e+01,-3.033733367919921875e+00,4.746800613403320312e+01,9.517986297607421875e+01,8.543357086181640625e+01,1.348396148681640625e+02,-6.640926599502563477e-01,-3.264440536499023438e+01,-1.846271667480468750e+02,3.610286712646484375e+01,2.229314422607421875e+01,3.306987762451171875e+01
4.079999923706054688e-01,2.000000000000000000e+00,-2.321944427490234375e+01,-2.997323036193847656e+00,4.742237854003906250e+01,9.518628692626953125e+01,8.543094635009765625e+01,1.348323516845703125e+02,-7.152082920074462891e-01,-3.263880538940429688e+01,-1.846219024658203125e+02,3.610571670532226562e+01,2.231094360351562500e+01,3.306363296508789062e+01
4.120000004768371582e-01,2.000000000000000000e+00,-2.327354049682617188e+01,-2.960921287536621094e+00,4.737676239013671875e+01,9.519271087646484375e+01,8.542832183837890625e+01,1.348250732421875000e+02,-7.663123607635498047e-01,-3.263320922851562500e+01,-1.846166229248046875e+02,3.610856628417968750e+01,2.232873535156250000e+01,3.305739593505859375e+01
4.160000085830688477e-01,2.000000000000000000e+00,-2.332762336730957031e+01,-2.924527883529663086e+00,4.733115768432617188e+01,9.519913482666015625e+01,8.542568969726562500e+01,1.348177947998046875e+02,-8.174047470092773438e-01,-3.262761306762695312e+01,-1.846113586425781250e+02,3.611141586303710938e+01,2.234652709960937500e+01,3.305115890502929688e+01
4.199999868869781494e-01,2.000000000000000000e+00,-2.338169479370117188e+01,-2.888142585754394531e+00,4.728556442260742188e+01,9.520555877685546875e+01,8.542305755615234375e+01,1.348105163574218750e+02,-8.684855699539184570e-01,-3.262201690673828125e+01,-1.846060791015625000e+02,3.611426544189453125e+01,2.236431312561035156e+01,3.304492187500000000e+01
4.239999949932098389e-01,2.000000000000000000e+00,-2.343575477600097656e+01,-2.851765632629394531e+00,4.723997879028320312e+01,9.521197509765625000e+01,8.542043304443359375e+01,1.348032531738281250e+02,-9.195547699928283691e-01,-3.261642074584960938e+01,-1.846008148193359375e+02,3.611711120605468750e+01,2.238209342956542969e+01,3.303868865966796875e+01
4.280000030994415283e-01,2.000000000000000000e+00,-2.348980140686035156e+01,-2.815396785736083984e+00,4.719440841674804688e+01,9.521839141845703125e+01,8.541781616210937500e+01,1.347959899902343750e+02,-9.706123471260070801e-01,-3.261082839965820312e+01,-1.845955352783203125e+02,3.611996078491210938e+01,2.239987182617187500e+01,3.303245544433593750e+01
4.320000112056732178e-01,2.000000000000000000e+00,-2.354383659362792969e+01,-2.779036521911621094e+00,4.714884567260742188e+01,9.522480773925781250e+01,8.541518402099609375e+01,1.347887115478515625e+02,-1.021658301353454590e+00,-3.260523605346679688e+01,-1.845902557373046875e+02,3.612280654907226562e+01,2.241764640808105469e+01,3.302622222900390625e+01
4.359999895095825195e-01,2.000000000000000000e+00,-2.359785842895507812e+01,-2.742684364318847656e+00,4.710329055786132812e+01,9.523122406005859375e+01,8.541255950927734375e+01,1.347814483642578125e+02,-1.072692632675170898e+00,-3.259964752197265625e+01,-1.845850067138671875e+02,3.612565231323242188e+01,2.243541526794433594e+01,3.301999282836914062e+01
4.399999976158142090e-01,2.000000000000000000e+00,-2.365186882019042969e+01,-2.706340074539184570e+00,4.705775070190429688e+01,9.523764038085937500e+01,8.540993499755859375e+01,1.347741851806640625e+02,-1.123715400695800781e+00,-3.259405517578125000e+01,-1.845797271728515625e+02,3.612849807739257812e+01,2.245318031311035156e+01,3.301376342773437500e+01
4.440000057220458984e-01,2.000000000000000000e+00,-2.370586585998535156e+01,-2.670004606246948242e+00,4.701221466064453125e+01,9.524404907226562500e+01,8.540731811523437500e+01,1.347669219970703125e+02,-1.174726605415344238e+00,-3.258847045898437500e+01,-1.845744781494140625e+02,3.613134384155273438e+01,2.247094154357910156e+01,3.300753402709960938e+01
4.480000138282775879e-01,2.000000000000000000e+00,-2.375985145568847656e+01,-2.633677244186401367e+00,4.696669387817382812e+01,9.525046539306640625e+01,8.540469360351562500e+01,1.347596588134765625e+02,-1.225726246833801270e+00,-3.258288192749023438e+01,-1.845691986083984375e+02,3.613418579101562500e+01,2.248870086669921875e+01,3.300130844116210938e+01
4.519999921321868896e-01,2.000000000000000000e+00,-2.381382560729980469e+01,-2.597358226776123047e+00,4.692118453979492188e+01,9.525687408447265625e+01,8.540206909179687500e+01,1.347524108886718750e+02,-1.276714205741882324e+00,-3.257729721069335938e+01,-1.845639343261718750e+02,3.613702774047851562e+01,2.250645446777343750e+01,3.299508285522460938e+01
4.560000002384185791e-01,2.000000000000000000e+00,-2.386778640747070312e+01,-2.561047077178955078e+00,4.687568283081054688e+01,9.526328277587890625e+01,8.539944458007812500e+01,1.347451477050781250e+02,-1.327690601348876953e+00,-3.257171249389648438e+01,-1.845586853027343750e+02,3.613987350463867188e+01,2.252420234680175781e+01,3.298886108398437500e+01
4.600000083446502686e-01,2.000000000000000000e+00,-2.392173576354980469e+01,-2.524744510650634766e+00,4.683019256591796875e+01,9.526968383789062500e+01,8.539682769775390625e+01,1.347378845214843750e+02,-1.378655433654785156e+00,-3.256613159179687500e+01,-1.845534210205078125e+02,3.614271545410156250e+01,2.254194831848144531e+01,3.298263931274414062e+01
4.639999866485595703e-01,2.000000000000000000e+00,-2.397567176818847656e+01,-2.488450050354003906e+00,4.678470993041992188e+01,9.527609252929687500e+01,8.539421081542968750e+01,1.347306365966796875e+02,-1.429608702659606934e+00,-3.256054687500000000e+01,-1.845481567382812500e+02,3.614555740356445312e+01,2.255969047546386719e+01,3.297641754150390625e+01
4.679999947547912598e-01,2.000000000000000000e+00,-2.402959632873535156e+01,-2.452163934707641602e+00,4.673924255371093750e+01,9.528250122070312500e+01,8.539158630371093750e+01,1.347233734130859375e+02,-1.480550289154052734e+00,-3.255496597290039062e+01,-1.845429077148437500e+02,3.614839935302734375e+01,2.257742691040039062e+01,3.297019958496093750e+01
4.720000028610229492e-01,2.000000000000000000e+00,-2.408350944519042969e+01,-2.415885925292968750e+00,4.669378280639648438e+01,9.528890228271484375e+01,8.538896942138671875e+01,1.347161407470703125e+02,-1.531480550765991211e+00,-3.254938888549804688e+01,-1.845376434326171875e+02,3.615123748779296875e+01,2.259516143798828125e+01,3.296398162841796875e+01
4.760000109672546387e-01,2.000000000000000000e+00,-2.413740730285644531e+01,-2.379616260528564453e+00,4.664833068847656250e+01,9.529529571533203125e+01,8.538634490966796875e+01,1.347088928222656250e+02,-1.582399010658264160e+00,-3.254380798339843750e+01,-1.845323791503906250e+02,3.615407562255859375e+01,2.261289024353027344e+01,3.295776367187500000e+01
4.799999892711639404e-01,2.000000000000000000e+00,-2.419129562377929688e+01,-2.343354940414428711e+00,4.660289382934570312e+01,9.530169677734375000e+01,8.538372802734375000e+01,1.347016296386718750e+02,-1.633305907249450684e+00,-3.253823089599609375e+01,-1.845271453857421875e+02,3.615691375732421875e+01,2.263061523437500000e+01,3.295154953002929688e+01
4.839999973773956299e-01,2.000000000000000000e+00,-2.424517059326171875e+01,-2.307101488113403320e+00,4.655746459960937500e+01,9.530809783935546875e+01,8.538111877441406250e+01,1.346943969726562500e+02,-1.684201359748840332e+00,-3.253265762329101562e+01,-1.845218811035156250e+02,3.615975189208984375e+01,2.264833641052246094e+01,3.294533538818359375e+01
4.880000054836273193e-01,2.000000000000000000e+00,-2.429903411865234375e+01,-2.270856618881225586e+00,4.651204681396484375e+01,9.531449127197265625e+01,8.537850189208984375e+01,1.346871490478515625e+02,-1.735085248947143555e+00,-3.252708435058593750e+01,-1.845166320800781250e+02,3.616259002685546875e+01,2.266605377197265625e+01,3.293912506103515625e+01
4.920000135898590088e-01,2.000000000000000000e+00,-2.435288429260253906e+01,-2.234619855880737305e+00,4.646663665771484375e+01,9.532088470458984375e+01,8.537588500976562500e+01,1.346799011230468750e+02,-1.785957574844360352e+00,-3.252151107788085938e+01,-1.845113677978515625e+02,3.616542816162109375e+01,2.268376731872558594e+01,3.293291091918945312e+01
4.959999918937683105e-01,2.000000000000000000e+00,-2.440672302246093750e+01,-2.198391437530517578e+00,4.642124176025390625e+01,9.532727813720703125e+01,8.537326812744140625e+01,1.346726531982421875e+02,-1.836818218231201172e+00,-3.251594161987304688e+01,-1.845061340332031250e+02,3.616826629638671875e+01,2.270147705078125000e+01,3.292670440673828125e+01
5.000000000000000000e-01,2.000000000000000000e+00,-2.446054840087890625e+01,-2.162171125411987305e+00,4.637585067749023438e+01,9.533367156982421875e+01,8.537065124511718750e+01,1.346654205322265625e+02,-1.887667536735534668e+00,-3.251036834716796875e+01,-1.845008850097656250e+02,3.617110061645507812e+01,2.271918106079101562e+01,3.292049407958984375e+01
5.040000081062316895e-01,2.000000000000000000e+00,-2.451436424255371094e+01,-2.125958919525146484e+00,4.633047485351562500e+01,9.534006500244140625e+01,8.536803436279296875e+01,1.346581878662109375e+02,-1.938505291938781738e+00,-3.250480270385742188e+01,-1.844956207275390625e+02,3.617393493652343750e+01,2.273688125610351562e+01,3.291428756713867188e+01
5.080000162124633789e-01,2.000000000000000000e+00,-2.456816482543945312e+01,-2.089755058288574219e+00,4.628511047363281250e+01,9.534645080566406250e+01,8.536541748046875000e+01,1.346509552001953125e+02,-1.989331245422363281e+00,-3.249923324584960938e+01,-1.844903717041015625e+02,3.617676925659179688e+01,2.275457954406738281e+01,3.290808486938476562e+01
5.120000243186950684e-01,2.000000000000000000e+00,-2.462195396423339844e+01,-2.053559303283691406e+00,4.623975372314453125e+01,9.535284423828125000e+01,8.536280822753906250e+01,1.346437072753906250e+02,-2.040145874023437500e+00,-3.249366760253906250e+01,-1.844851379394531250e+02,3.617960357666015625e+01,2.277227210998535156e+01,3.290188217163085938e+01
5.159999728202819824e-01,2.000000000000000000e+00,-2.467573165893554688e+01,-2.017371892929077148e+00,4.619440460205078125e+01,9.535923004150390625e+01,8.536019134521484375e+01,1.346364898681640625e+02,-2.090948820114135742e+00,-3.248810195922851562e+01,-1.844799041748046875e+02,3.618243408203125000e+01,2.278996276855468750e+01,3.289567565917968750e+01
5.199999809265136719e-01,2.000000000000000000e+00,-2.472949790954589844e+01,-1.981192827224731445e+00,4.614906692504882812e+01,9.536560821533203125e+01,8.535758209228515625e+01,1.346292572021484375e+02,-2.141740560531616211e+00,-3.248254013061523438e+01,-1.844746551513671875e+02,3.618526840209960938e+01,2.280764770507812500e+01,3.288947677612304688e+01
5.239999890327453613e-01,2.000000000000000000e+00,-2.478325080871582031e+01,-1.945021867752075195e+00,4.610374450683593750e+01,9.537199401855468750e+01,8.535497283935546875e+01,1.346220245361328125e+02,-2.192520380020141602e+00,-3.247697448730468750e+01,-1.844694061279296875e+02,3.618810272216796875e+01,2.282533073425292969e+01,3.288327789306640625e+01
5.279999971389770508e-01,2.000000000000000000e+00,-2.483699226379394531e+01,-1.908859014511108398e+00,4.605842971801757812e+01,9.537837219238281250e+01,8.535236358642578125e+01,1.346147918701171875e+02,-2.243288993835449219e+00,-3.247141265869140625e+01,-1.844641723632812500e+02,3.619093322753906250e+01,2.284300804138183594e+01,3.287707901000976562e+01
5.320000052452087402e-01,2.000000000000000000e+00,-2.489072227478027344e+01,-1.872704505920410156e+00,4.601312255859375000e+01,9.538475799560546875e+01,8.534975433349609375e+01,1.346075592041015625e+02,-2.294045925140380859e+00,-3.246585464477539062e+01,-1.844589385986328125e+02,3.619376373291015625e+01,2.286068344116210938e+01,3.287088394165039062e+01
5.360000133514404297e-01,2.000000000000000000e+00,-2.494443893432617188e+01,-1.836558103561401367e+00,4.596783065795898438e+01,9.539114379882812500e+01,8.534714508056640625e+01,1.346003417968750000e+02,-2.344791412353515625e+00,-3.246029663085937500e+01,-1.844537048339843750e+02,3.619659042358398438e+01,2.287835311889648438e+01,3.286468887329101562e+01
5.400000214576721191e-01,2.000000000000000000e+00,-2.499814224243164062e+01,-1.800419688224792480e+00,4.592254257202148438e+01,9.539751434326171875e+01,8.534453582763671875e+01,1.345931243896484375e+02,-2.395525217056274414e+00,-3.245473861694335938e+01,-1.844484558105468750e+02,3.619942092895507812e+01,2.289601707458496094e+01,3.285849380493164062e+01
5.440000295639038086e-01,2.000000000000000000e+00,-2.505183410644531250e+01,-1.764289855957031250e+00,4.587726974487304688e+01,9.540389251708984375e+01,8.534192657470703125e+01,1.345859069824218750e+02,-2.446247577667236328e+00,-3.244918060302734375e+01,-1.844432220458984375e+02,3.620225143432617188e+01,2.291367721557617188e+01,3.285230255126953125e+01
5.479999780654907227e-01,2.000000000000000000e+00,-2.510551643371582031e+01,-1.728168010711669922e+00,4.583200454711914062e+01,9.541026306152343750e+01,8.533931732177734375e+01,1.345786743164062500e+02,-2.496958494186401367e+00,-3.244362640380859375e+01,-1.844379882812500000e+02,3.620507812500000000e+01,2.293133544921875000e+01,3.284611129760742188e+01
5.519999861717224121e-01,2.000000000000000000e+00,-2.515918350219726562e+01,-1.692054390907287598e+00,4.578675079345703125e+01,9.541663360595703125e+01,8.533671569824218750e+01,1.345714569091796875e+02,-2.547657966613769531e+00,-3.243807220458984375e+01,-1.844327545166015625e+02,3.620790481567382812e+01,2.294898796081542969e+01,3.283992385864257812e+01
5.559999942779541016e-01,2.000000000000000000e+00,-2.521283912658691406e+01,-1.655948996543884277e+00,4.574150848388671875e+01,9.542301177978515625e+01,8.533410644531250000e+01,1.345642547607421875e+02,-2.598345994949340820e+00,-3.243251800537109375e+01,-1.844275207519531250e+02,3.621073150634765625e+01,2.296663856506347656e+01,3.283373260498046875e+01
5.600000023841857910e-01,2.000000000000000000e+00,-2.526648330688476562e+01,-1.619851708412170410e+00,4.569627380371093750e+01,9.542938232421875000e+01,8.533149719238281250e+01,1.345570373535156250e+02,-2.649022340774536133e+00,-3.242696762084960938e+01,-1.844223022460937500e+02,3.621355819702148438e+01,2.298428344726562500e+01,3.282754516601562500e+01
5.640000104904174805e-01,2.000000000000000000e+00,-2.532011413574218750e+01,-1.583762645721435547e+00,4.565105056762695312e+01,9.543574523925781250e+01,8.532889556884765625e+01,1.345498199462890625e+02,-2.699687480926513672e+00,-3.242142105102539062e+01,-1.844170684814453125e+02,3.621638488769531250e+01,2.300192451477050781e+01,3.282136154174804688e+01
5.680000185966491699e-01,2.000000000000000000e+00,-2.537373542785644531e+01,-1.547681689262390137e+00,4.560583877563476562e+01,9.544211578369140625e+01,8.532628631591796875e+01,1.345426177978515625e+02,-2.750340938568115234e+00,-3.241587066650390625e+01,-1.844118347167968750e+02,3.621920776367187500e+01,2.301956176757812500e+01,3.281517791748046875e+01
5.720000267028808594e-01,2.000000000000000000e+00,-2.542734146118164062e+01,-1.511609077453613281e+00,4.556063842773437500e+01,9.544848632812500000e+01,8.532367706298828125e+01,1.345354003906250000e+02,-2.800982713699340820e+00,-3.241032409667968750e+01,-1.844066162109375000e+02,3.622203445434570312e+01,2.303719329833984375e+01,3.280899429321289062e+01
5.759999752044677734e-01,2.000000000000000000e+00,-2.548093605041503906e+01,-1.475544571876525879e+00,4.551544189453125000e+01,9.545484161376953125e+01,8.532107543945312500e+01,1.345281829833984375e+02,-2.851613283157348633e+00,-3.240477752685546875e+01,-1.844013824462890625e+02,3.622485733032226562e+01,2.305482292175292969e+01,3.280281448364257812e+01
5.799999833106994629e-01,2.000000000000000000e+00,-2.553451919555664062e+01,-1.439488172531127930e+00,4.547026062011718750e+01,9.546121215820312500e+01,8.531847381591796875e+01,1.345209808349609375e+02,-2.902232408523559570e+00,-3.239923095703125000e+01,-1.843961639404296875e+02,3.622768020629882812e+01,2.307244682312011719e+01,3.279663085937500000e+01
5.839999914169311523e-01,2.000000000000000000e+00,-2.558809089660644531e+01,-1.403439998626708984e+00,4.542508697509765625e+01,9.546756744384765625e+01,8.531587219238281250e+01,1.345137786865234375e+02,-2.952839851379394531e+00,-3.239368820190429688e+01,-1.843909301757812500e+02,3.623050308227539062e+01,2.309006881713867188e+01,3.279045486450195312e+01
5.879999995231628418e-01,2.000000000000000000e+00,-2.564164924621582031e+01,-1.367400050163269043e+00,4.537992858886718750e+01,9.547393798828125000e+01,8.531327056884765625e+01,1.345065765380859375e+02,-3.003435850143432617e+00,-3.238814544677734375e+01,-1.843857116699218750e+02,3.623332595825195312e+01,2.310768699645996094e+01,3.278427505493164062e+01
5.920000076293945312e-01,2.000000000000000000e+00,-2.569519615173339844e+01,-1.331368088722229004e+00,4.533477783203125000e+01,9.548029327392578125e+01,8.531066894531250000e+01,1.344993743896484375e+02,-3.054020404815673828e+00,-3.238260269165039062e+01,-1.843804931640625000e+02,3.623614501953125000e+01,2.312529945373535156e+01,3.277810287475585938e+01
5.960000157356262207e-01,2.000000000000000000e+00,-2.574873161315917969e+01,-1.295344471931457520e+00,4.528963470458984375e+01,9.548664855957031250e+01,8.530806732177734375e+01,1.344921722412109375e+02,-3.104593753814697266e+00,-3.237706375122070312e+01,-1.843752746582031250e+02,3.623896408081054688e+01,2.314290809631347656e+01,3.277192687988281250e+01
6.000000238418579102e-01,2.000000000000000000e+00,-2.580225181579589844e+01,-1.259328961372375488e+00,4.524450683593750000e+01,9.549300384521484375e+01,8.530547332763671875e+01,1.344849853515625000e+02,-3.155155420303344727e+00,-3.237152481079101562e+01,-1.843700408935546875e+02,3.624178314208984375e+01,2.316051292419433594e+01,3.276575469970703125e+01
6.039999723434448242e-01,2.000000000000000000e+00,-2.585576248168945312e+01,-1.223321557044982910e+00,4.519938659667968750e+01,9.549935913085937500e+01,8.530287170410156250e+01,1.344777832031250000e+02,-3.205705642700195312e+00,-3.236598587036132812e+01,-1.843648376464843750e+02,3.624460601806640625e+01,2.317811393737792969e+01,3.275958251953125000e+01
6.079999804496765137e-01,2.000000000000000000e+00,-2.590926170349121094e+01,-1.187322378158569336e+00,4.515427017211914062e+01,9.550570678710937500e+01,8.530027008056640625e+01,1.344705810546875000e+02,-3.256244421005249023e+00,-3.236045074462890625e+01,-1.843596191406250000e+02,3.624742126464843750e+01,2.319571113586425781e+01,3.275341415405273438e+01
6.119999885559082031e-01,2.000000000000000000e+00,-2.596274566650390625e+01,-1.151331305503845215e+00,4.510917282104492188e+01,9.551206207275390625e+01,8.529766845703125000e+01,1.344633941650390625e+02,-3.306771993637084961e+00,-3.235491561889648438e+01,-1.843544006347656250e+02,3.625024032592773438e+01,2.321330451965332031e+01,3.274724197387695312e+01
6.159999966621398926e-01,2.000000000000000000e+00,-2.601622009277343750e+01,-1.115348219871520996e+00,4.506408309936523438e+01,9.551841735839843750e+01,8.529507446289062500e+01,1.344561920166015625e+02,-3.357287645339965820e+00,-3.234938049316406250e+01,-1.843491821289062500e+02,3.625305557250976562e+01,2.323089408874511719e+01,3.274107742309570312e+01
6.200000047683715820e-01,2.000000000000000000e+00,-2.606968116760253906e+01,-1.079373478889465332e+00,4.501900482177734375e+01,9.552476501464843750e+01,8.529248046875000000e+01,1.344490051269531250e+02,-3.407792329788208008e+00,-3.234384918212890625e+01,-1.843439788818359375e+02,3.625587463378906250e+01,2.324847793579101562e+01,3.273491287231445312e+01
6.240000128746032715e-01,2.000000000000000000e+00,-2.612313270568847656e+01,-1.043406605720520020e+00,4.497393417358398438e+01,9.553111267089843750e+01,8.528987884521484375e+01,1.344418182373046875e+02,-3.458285331726074219e+00,-3.233832168579101562e+01,-1.843387603759765625e+02,3.625868988037109375e+01,2.326605987548828125e+01,3.272874832153320312e+01
6.280000209808349609e-01,2.000000000000000000e+00,-2.617657089233398438e+01,-1.007447957992553711e+00,4.492887496948242188e+01,9.553746032714843750e+01,8.528728485107421875e+01,1.344346466064453125e+02,-3.508766889572143555e+00,-3.233278656005859375e+01,-1.843335571289062500e+02,3.626150131225585938e+01,2.328363609313964844e+01,3.272258377075195312e+01
6.320000290870666504e-01,2.000000000000000000e+00,-2.622999572753906250e+01,-9.714972972869873047e-01,4.488382339477539062e+01,9.554380035400390625e+01,8.528468322753906250e+01,1.344274597167968750e+02,-3.559237241744995117e+00,-3.232725906372070312e+01,-1.843283386230468750e+02,3.626432037353515625e+01,2.330121040344238281e+01,3.271642303466796875e+01
6.359999775886535645e-01,2.000000000000000000e+00,-2.628340911865234375e+01,-9.355548024177551270e-01,4.483878707885742188e+01,9.555014801025390625e+01,8.528208923339843750e+01,1.344202728271484375e+02,-3.609696149826049805e+00,-3.232173156738281250e+01,-1.843231353759765625e+02,3.626713180541992188e+01,2.331878089904785156e+01,3.271026229858398438e+01
6.399999856948852539e-01,2.000000000000000000e+00,-2.633681106567382812e+01,-8.996203541755676270e-01,4.479375839233398438e+01,9.555648803710937500e+01,8.527950286865234375e+01,1.344130859375000000e+02,-3.660143852233886719e+00,-3.231620788574218750e+01,-1.843179321289062500e+02,3.626994323730468750e+01,2.333634567260742188e+01,3.270410537719726562e+01
6.439999938011169434e-01,2.000000000000000000e+00,-2.639020156860351562e+01,-8.636939525604248047e-01,4.474873733520507812e+01,9.556282043457031250e+01,8.527690887451171875e+01,1.344058990478515625e+02,-3.710580110549926758e+00,-3.231068038940429688e+01,-1.843127288818359375e+02,3.627275848388671875e+01,2.335390663146972656e+01,3.269794464111328125e+01
6.480000019073486328e-01,2.000000000000000000e+00,-2.644358062744140625e+01,-8.277756571769714355e-01,4.470372772216796875e+01,9.556916046142578125e+01,8.527431488037109375e+01,1.343987274169921875e+02,-3.761005401611328125e+00,-3.230515670776367188e+01,-1.843075256347656250e+02,3.627556991577148438e+01,2.337146568298339844e+01,3.269178771972656250e+01
6.520000100135803223e-01,2.000000000000000000e+00,-2.649694633483886719e+01,-7.918652892112731934e-01,4.465872955322265625e+01,9.557550048828125000e+01,8.527172088623046875e+01,1.343915405273437500e+02,-3.811419010162353516e+00,-3.229963302612304688e+01,-1.843023223876953125e+02,3.627838134765625000e+01,2.338901901245117188e+01,3.268563461303710938e+01
6.560000181198120117e-01,2.000000000000000000e+00,-2.655030059814453125e+01,-7.559630274772644043e-01,4.461373901367187500e+01,9.558184051513671875e+01,8.526912689208984375e+01,1.343843688964843750e+02,-3.861821413040161133e+00,-3.229411315917968750e+01,-1.842971038818359375e+02,3.628119277954101562e+01,2.340656661987304688e+01,3.267948150634765625e+01
6.600000262260437012e-01,2.000000000000000000e+00,-2.660364341735839844e+01,-7.200686335563659668e-01,4.456875991821289062e+01,9.558817291259765625e+01,8.526654052734375000e+01,1.343771972656250000e+02,-3.912212848663330078e+00,-3.228859329223632812e+01,-1.842919006347656250e+02,3.628400039672851562e+01,2.342411422729492188e+01,3.267333221435546875e+01
6.639999747276306152e-01,2.000000000000000000e+00,-2.665697288513183594e+01,-6.841822862625122070e-01,4.452379226684570312e+01,9.559450531005859375e+01,8.526394653320312500e+01,1.343700256347656250e+02,-3.962592840194702148e+00,-3.228307342529296875e+01,-1.842866973876953125e+02,3.628681182861328125e+01,2.344165611267089844e+01,3.266717910766601562e+01
6.679999828338623047e-01,2.000000000000000000e+00,-2.671029090881347656e+01,-6.483039259910583496e-01,4.447883605957031250e+01,9.560083007812500000e+01,8.526135253906250000e+01,1.343628540039062500e+02,-4.012961864471435547e+00,-3.227755737304687500e+01,-1.842815093994140625e+02,3.628962326049804688e+01,2.345919418334960938e+01,3.266102981567382812e+01
6.719999909400939941e-01,2.000000000000000000e+00,-2.676359748840332031e+01,-6.124334931373596191e-01,4.443388366699218750e+01,9.560716247558593750e+01,8.525876617431640625e+01,1.343556823730468750e+02,-4.063319683074951172e+00,-3.227204132080078125e+01,-1.842763061523437500e+02,3.629243087768554688e+01,2.347672653198242188e+01,3.265488052368164062e+01
6.759999990463256836e-01,2.000000000000000000e+00,-2.681689453125000000e+01,-5.765710473060607910e-01,4.438894653320312500e+01,9.561349487304687500e+01,8.525617980957031250e+01,1.343485107421875000e+02,-4.113666534423828125e+00,-3.226652526855468750e+01,-1.842711181640625000e+02,3.629523468017578125e+01,2.349425697326660156e+01,3.264873504638671875e+01
6.800000071525573730e-01,2.000000000000000000e+00,-2.687017631530761719e+01,-5.407165884971618652e-01,4.434401702880859375e+01,9.561981964111328125e+01,8.525358581542968750e+01,1.343413543701171875e+02,-4.164001941680908203e+00,-3.226101303100585938e+01,-1.842659301757812500e+02,3.629804229736328125e+01,2.351178359985351562e+01,3.264258956909179688e+01
6.840000152587890625e-01,2.000000000000000000e+00,-2.692344665527343750e+01,-5.048699975013732910e-01,4.429909896850585938e+01,9.562615203857421875e+01,8.525099945068359375e+01,1.343341827392578125e+02,-4.214326858520507812e+00,-3.225550079345703125e+01,-1.842607269287109375e+02,3.630084991455078125e+01,2.352930450439453125e+01,3.263644790649414062e+01
6.880000233650207520e-01,2.000000000000000000e+00,-2.697670745849609375e+01,-4.690313339233398438e-01,4.425418853759765625e+01,9.563247680664062500e+01,8.524841308593750000e+01,1.343270263671875000e+02,-4.264639854431152344e+00,-3.224998855590820312e+01,-1.842555236816406250e+02,3.630365371704101562e+01,2.354682540893554688e+01,3.263030242919921875e+01
6.919999718666076660e-01,2.000000000000000000e+00,-2.702995491027832031e+01,-4.332005679607391357e-01,4.420928955078125000e+01,9.563879394531250000e+01,8.524582672119140625e+01,1.343198699951171875e+02,-4.314942359924316406e+00,-3.224447631835937500e+01,-1.842503356933593750e+02,3.630646133422851562e+01,2.356433868408203125e+01,3.262416458129882812e+01
6.959999799728393555e-01,2.000000000000000000e+00,-2.708318901062011719e+01,-3.973777294158935547e-01,4.416439819335937500e+01,9.564511871337890625e+01,8.524324035644531250e+01,1.343127136230468750e+02,-4.365233421325683594e+00,-3.223896789550781250e+01,-1.842451477050781250e+02,3.630926513671875000e+01,2.358185005187988281e+01,3.261802291870117188e+01
6.999999880790710449e-01,2.000000000000000000e+00,-2.713641357421875000e+01,-3.615627288818359375e-01,4.411951828002929688e+01,9.565143585205078125e+01,8.524065399169921875e+01,1.343055419921875000e+02,-4.415513515472412109e+00,-3.223345947265625000e+01,-1.842399597167968750e+02,3.631206893920898438e+01,2.359935760498046875e+01,3.261188507080078125e+01
7.039999961853027344e-01,2.000000000000000000e+00,-2.718962669372558594e+01,-3.257556855678558350e-01,4.407464981079101562e+01,9.565775299072265625e+01,8.523806762695312500e+01,1.342983856201171875e+02,-4.465782642364501953e+00,-3.222795486450195312e+01,-1.842347717285156250e+02,3.631487274169921875e+01,2.361685943603515625e+01,3.260574722290039062e+01
7.080000042915344238e-01,2.000000000000000000e+00,-2.724282836914062500e+01,-2.899565398693084717e-01,4.402978897094726562e+01,9.566407775878906250e+01,8.523548126220703125e+01,1.342912292480468750e+02,-4.516040325164794922e+00,-3.222245025634765625e+01,-1.842295837402343750e+02,3.631767654418945312e+01,2.363436126708984375e+01,3.259961318969726562e+01
7.120000123977661133e-01,2.000000000000000000e+00,-2.729601669311523438e+01,-2.541652321815490723e-01,4.398493957519531250e+01,9.567039489746093750e+01,8.523290252685546875e+01,1.342840728759765625e+02,-4.566287517547607422e+00,-3.221694564819335938e+01,-1.842243957519531250e+02,3.632047653198242188e+01,2.365185356140136719e+01,3.259347915649414062e+01
7.160000205039978027e-01,2.000000000000000000e+00,-2.734919357299804688e+01,-2.183818519115447998e-01,4.394010162353515625e+01,9.567671203613281250e+01,8.523031616210937500e+01,1.342769317626953125e+02,-4.616523265838623047e+00,-3.221144104003906250e+01,-1.842192077636718750e+02,3.632327651977539062e+01,2.366934585571289062e+01,3.258734512329101562e+01
7.200000286102294922e-01,2.000000000000000000e+00,-2.740235900878906250e+01,-1.826063543558120728e-01,4.389527130126953125e+01,9.568302154541015625e+01,8.522773742675781250e+01,1.342697753906250000e+02,-4.666748046875000000e+00,-3.220593643188476562e+01,-1.842140350341796875e+02,3.632608032226562500e+01,2.368683433532714844e+01,3.258121109008789062e+01
7.239999771118164062e-01,2.000000000000000000e+00,-2.745551300048828125e+01,-1.468387246131896973e-01,4.385044860839843750e+01,9.568933105468750000e+01,8.522515106201171875e+01,1.342626342773437500e+02,-4.716961383819580078e+00,-3.220043945312500000e+01,-1.842088317871093750e+02,3.632888031005859375e+01,2.370431900024414062e+01,3.257508087158203125e+01
7.279999852180480957e-01,2.000000000000000000e+00,-2.750865364074707031e+01,-1.110789775848388672e-01,4.380564117431640625e+01,9.569564056396484375e+01,8.522257232666015625e+01,1.342554779052734375e+02,-4.767164230346679688e+00,-3.219493865966796875e+01,-1.842036590576171875e+02,3.633168029785156250e+01,2.372179794311523438e+01,3.256895446777343750e+01
7.319999933242797852e-01,2.000000000000000000e+00,-2.756178474426269531e+01,-7.532711327075958252e-02,4.376083755493164062e+01,9.570195770263671875e+01,8.521999359130859375e+01,1.342483367919921875e+02,-4.817356109619140625e+00,-3.218944168090820312e+01,-1.841984863281250000e+02,3.633448028564453125e+01,2.373927307128906250e+01,3.256282424926757812e+01
7.360000014305114746e-01,2.000000000000000000e+00,-2.761490440368652344e+01,-3.958312422037124634e-02,4.371604919433593750e+01,9.570826721191406250e+01,8.521740722656250000e+01,1.342411956787109375e+02,-4.867536067962646484e+00,-3.218394470214843750e+01,-1.841933135986328125e+02,3.633727645874023438e+01,2.375674629211425781e+01,3.255669784545898438e+01
7.400000095367431641e-01,2.000000000000000000e+00,-2.766801071166992188e+01,-3.847006475552916527e-03,4.367126846313476562e+01,9.571456909179687500e+01,8.521482849121093750e+01,1.342340545654296875e+02,-4.917705535888671875e+00,-3.217844772338867188e+01,-1.841881256103515625e+02,3.634007263183593750e+01,2.377421569824218750e+01,3.255057525634765625e+01
7.440000176429748535e-01,2.000000000000000000e+00,-2.772110557556152344e+01,3.188124299049377441e-02,4.362649536132812500e+01,9.572087097167968750e+01,8.521224975585937500e+01,1.342269134521484375e+02,-4.967864036560058594e+00,-3.217295455932617188e+01,-1.841829528808593750e+02,3.634287261962890625e+01,2.379167938232421875e+01,3.254445266723632812e+01
7.480000257492065430e-01,2.000000000000000000e+00,-2.777418899536132812e+01,6.760162115097045898e-02,4.358173751831054688e+01,9.572718048095703125e+01,8.520967102050781250e+01,1.342197570800781250e+02,-5.018011569976806641e+00,-3.216745758056640625e+01,-1.841777801513671875e+02,3.634566879272460938e+01,2.380914115905761719e+01,3.253833007812500000e+01
7.519999742507934570e-01,2.000000000000000000e+00,-2.782726097106933594e+01,1.033141463994979858e-01,4.353698730468750000e+01,9.573348236083984375e+01,8.520709228515625000e+01,1.342126312255859375e+02,-5.068147659301757812e+00,-3.216196823120117188e+01,-1.841725921630859375e+02,3.634846496582031250e+01,2.382659721374511719e+01,3.253220748901367188e+01
7.559999823570251465e-01,2.000000000000000000e+00,-2.788032150268554688e+01,1.390188038349151611e-01,4.349224472045898438e+01,9.573977661132812500e+01,8.520451354980468750e+01,1.342055053710937500e+02,-5.118273258209228516e+00,-3.215647506713867188e+01,-1.841674194335937500e+02,3.635126113891601562e+01,2.384405136108398438e+01,3.252608871459960938e+01
7.599999904632568359e-01,2.000000000000000000e+00,-2.793337059020996094e+01,1.747155934572219849e-01,4.344750976562500000e+01,9.574608612060546875e+01,8.520194244384765625e+01,1.341983489990234375e+02,-5.168386936187744141e+00,-3.215098953247070312e+01,-1.841622467041015625e+02,3.635405349731445312e+01,2.386149978637695312e+01,3.251996994018554688e+01
7.639999985694885254e-01,2.000000000000000000e+00,-2.798640632629394531e+01,2.104045599699020386e-01,4.340279006958007812e+01,9.575238037109375000e+01,8.519936370849609375e+01,1.341912231445312500e+02,-5.218490600585937500e+00,-3.214550018310546875e+01,-1.841570739746093750e+02,3.635684967041015625e+01,2.387894630432128906e+01,3.251385116577148438e+01
7.680000066757202148e-01,2.000000000000000000e+00,-2.803943061828613281e+01,2.460856288671493530e-01,4.335807800292968750e+01,9.575868225097656250e+01,8.519678497314453125e+01,1.341840972900390625e+02,-5.268582820892333984e+00,-3.214001083374023438e+01,-1.841519012451171875e+02,3.635964202880859375e+01,2.389638710021972656e+01,3.250774002075195312e+01
7.720000147819519043e-01,2.000000000000000000e+00,-2.809244537353515625e+01,2.817588746547698975e-01,4.331337356567382812e+01,9.576496887207031250e+01,8.519420623779296875e+01,1.341769714355468750e+02,-5.318663597106933594e+00,-3.213452529907226562e+01,-1.841467437744140625e+02,3.636243438720703125e+01,2.391382408142089844e+01,3.250162124633789062e+01
7.760000228881835938e-01,2.000000000000000000e+00,-2.814544677734375000e+01,3.174242675304412842e-01,4.326868438720703125e+01,9.577127075195312500e+01,8.519163513183593750e+01,1.341698303222656250e+02,-5.368733882904052734e+00,-3.212903976440429688e+01,-1.841415710449218750e+02,3.636522674560546875e+01,2.393125915527343750e+01,3.249551010131835938e+01
7.799999713897705078e-01,2.000000000000000000e+00,-2.819843864440917969e+01,3.530817925930023193e-01,4.322400283813476562e+01,9.577755737304687500e+01,8.518905639648437500e+01,1.341627197265625000e+02,-5.418793201446533203e+00,-3.212355804443359375e+01,-1.841363983154296875e+02,3.636801910400390625e+01,2.394868850708007812e+01,3.248939895629882812e+01
7.839999794960021973e-01,2.000000000000000000e+00,-2.825141716003417969e+01,3.887315094470977783e-01,4.317932891845703125e+01,9.578385162353515625e+01,8.518649291992187500e+01,1.341555786132812500e+02,-5.468841075897216797e+00,-3.211807250976562500e+01,-1.841312408447265625e+02,3.637080764770507812e+01,2.396611404418945312e+01,3.248329162597656250e+01
7.879999876022338867e-01,2.000000000000000000e+00,-2.830438232421875000e+01,4.243733584880828857e-01,4.313466644287109375e+01,9.579013824462890625e+01,8.518391418457031250e+01,1.341484527587890625e+02,-5.518878459930419922e+00,-3.211259078979492188e+01,-1.841260681152343750e+02,3.637360000610351562e+01,2.398353767395019531e+01,3.247718048095703125e+01
7.919999957084655762e-01,2.000000000000000000e+00,-2.835733795166015625e+01,4.600074291229248047e-01,4.309001541137695312e+01,9.579643249511718750e+01,8.518133544921875000e+01,1.341413421630859375e+02,-5.568904399871826172e+00,-3.210711288452148438e+01,-1.841209106445312500e+02,3.637638854980468750e+01,2.400095558166503906e+01,3.247107315063476562e+01
7.960000038146972656e-01,2.000000000000000000e+00,-2.841028213500976562e+01,4.956336021423339844e-01,4.304536819458007812e+01,9.580271148681640625e+01,8.517877197265625000e+01,1.341342163085937500e+02,-5.618919849395751953e+00,-3.210163497924804688e+01,-1.841157379150390625e+02,3.637918090820312500e+01,2.401837158203125000e+01,3.246496582031250000e+01
8.000000119209289551e-01,2.000000000000000000e+00,-2.846321296691894531e+01,5.312519669532775879e-01,4.300073623657226562e+01,9.580900573730468750e+01,8.517619323730468750e+01,1.341271057128906250e+02,-5.668923377990722656e+00,-3.209615707397460938e+01,-1.841105804443359375e+02,3.638196563720703125e+01,2.403578186035156250e+01,3.245886230468750000e+01
8.040000200271606445e-01,2.000000000000000000e+00,-2.851613426208496094e+01,5.668624639511108398e-01,4.295611572265625000e+01,9.581528472900390625e+01,8.517362976074218750e+01,1.341199798583984375e+02,-5.718916416168212891e+00,-3.209068298339843750e+01,-1.841054229736328125e+02,3.638475799560546875e+01,2.405319023132324219e+01,3.245275878906250000e+01
8.080000281333923340e-01,2.000000000000000000e+00,-2.856904220581054688e+01,6.024652123451232910e-01,4.291149902343750000e+01,9.582157135009765625e+01,8.517105102539062500e+01,1.341128692626953125e+02,-5.768898487091064453e+00,-3.208520507812500000e+01,-1.841002655029296875e+02,3.638754272460937500e+01,2.407059288024902344e+01,3.244665527343750000e+01
8.119999766349792480e-01,2.000000000000000000e+00,-2.862193870544433594e+01,6.380600333213806152e-01,4.286689758300781250e+01,9.582785034179687500e+01,8.516848754882812500e+01,1.341057586669921875e+02,-5.818870067596435547e+00,-3.207973098754882812e+01,-1.840951080322265625e+02,3.639033126831054688e+01,2.408799171447753906e+01,3.244055938720703125e+01
8.159999847412109375e-01,2.000000000000000000e+00,-2.867482566833496094e+01,6.736471652984619141e-01,4.282229995727539062e+01,9.583412933349609375e+01,8.516591644287109375e+01,1.340986328125000000e+02,-5.868830204010009766e+00,-3.207425689697265625e+01,-1.840899505615234375e+02,3.639311599731445312e+01,2.410538673400878906e+01,3.243445968627929688e+01
8.199999928474426270e-01,2.000000000000000000e+00,-2.872769737243652344e+01,7.092263698577880859e-01,4.277771759033203125e+01,9.584040832519531250e+01,8.516334533691406250e+01,1.340915374755859375e+02,-5.918779373168945312e+00,-3.206878662109375000e+01,-1.840848083496093750e+02,3.639590072631835938e+01,2.412277793884277344e+01,3.242835998535156250e+01
8.240000009536743164e-01,2.000000000000000000e+00,-2.878055953979492188e+01,7.447978258132934570e-01,4.273314285278320312e+01,9.584668731689453125e+01,8.516078186035156250e+01,1.340844116210937500e+02,-5.968717575073242188e+00,-3.206331634521484375e+01,-1.840796356201171875e+02,3.639868545532226562e+01,2.414016723632812500e+01,3.242226409912109375e+01
8.280000090599060059e-01,2.000000000000000000e+00,-2.883341217041015625e+01,7.803614139556884766e-01,4.268857955932617188e+01,9.585296630859375000e+01,8.515821075439453125e+01,1.340773162841796875e+02,-6.018644809722900391e+00,-3.205784606933593750e+01,-1.840744934082031250e+02,3.640147018432617188e+01,2.415755081176757812e+01,3.241616821289062500e+01
8.320000171661376953e-01,2.000000000000000000e+00,-2.888624954223632812e+01,8.159172534942626953e-01,4.264402389526367188e+01,9.585923767089843750e+01,8.515564727783203125e+01,1.340702056884765625e+02,-6.068561077117919922e+00,-3.205237579345703125e+01,-1.840693359375000000e+02,3.640425109863281250e+01,2.417493247985839844e+01,3.241007232666015625e+01
8.360000252723693848e-01,2.000000000000000000e+00,-2.893907737731933594e+01,8.514652252197265625e-01,4.259947967529296875e+01,9.586550903320312500e+01,8.515307617187500000e+01,1.340631103515625000e+02,-6.118466377258300781e+00,-3.204691314697265625e+01,-1.840641937255859375e+02,3.640703582763671875e+01,2.419230842590332031e+01,3.240398025512695312e+01
8.399999737739562988e-01,2.000000000000000000e+00,-2.899189186096191406e+01,8.870053887367248535e-01,4.255494308471679688e+01,9.587178802490234375e+01,8.515051269531250000e+01,1.340559997558593750e+02,-6.168360710144042969e+00,-3.204144668579101562e+01,-1.840590362548828125e+02,3.640982055664062500e+01,2.420968055725097656e+01,3.239788818359375000e+01
8.439999818801879883e-01,2.000000000000000000e+00,-2.904469680786132812e+01,9.225377440452575684e-01,4.251041793823242188e+01,9.587805938720703125e+01,8.514794921875000000e+01,1.340489044189453125e+02,-6.218244075775146484e+00,-3.203598022460937500e+01,-1.840538940429687500e+02,3.641259765625000000e+01,2.422705078125000000e+01,3.239179611206054688e+01
8.479999899864196777e-01,2.000000000000000000e+00,-2.909749031066894531e+01,9.580623507499694824e-01,4.246590423583984375e+01,9.588433074951171875e+01,8.514538574218750000e+01,1.340417938232421875e+02,-6.268116950988769531e+00,-3.203051757812500000e+01,-1.840487365722656250e+02,3.641538238525390625e+01,2.424441337585449219e+01,3.238571166992187500e+01
8.519999980926513672e-01,2.000000000000000000e+00,-2.915027046203613281e+01,9.935792088508605957e-01,4.242139816284179688e+01,9.589059448242187500e+01,8.514281463623046875e+01,1.340346984863281250e+02,-6.317977905273437500e+00,-3.202505493164062500e+01,-1.840435943603515625e+02,3.641816329956054688e+01,2.426177597045898438e+01,3.237962341308593750e+01
8.560000061988830566e-01,2.000000000000000000e+00,-2.920304107666015625e+01,1.029088139533996582e+00,4.237690353393554688e+01,9.589685821533203125e+01,8.514025878906250000e+01,1.340276031494140625e+02,-6.367828369140625000e+00,-3.201959609985351562e+01,-1.840384521484375000e+02,3.642094421386718750e+01,2.427913284301757812e+01,3.237353515625000000e+01
8.600000143051147461e-01,2.000000000000000000e+00,-2.925579833984375000e+01,1.064589381217956543e+00,4.233241271972656250e+01,9.590312194824218750e+01,8.513769531250000000e+01,1.340204925537109375e+02,-6.417668342590332031e+00,-3.201413345336914062e+01,-1.840332946777343750e+02,3.642372131347656250e+01,2.429648780822753906e+01,3.236745071411132812e+01
8.640000224113464355e-01,2.000000000000000000e+00,-2.930854415893554688e+01,1.100082755088806152e+00,4.228793716430664062e+01,9.590938568115234375e+01,8.513513183593750000e+01,1.340134124755859375e+02,-6.467496871948242188e+00,-3.200867843627929688e+01,-1.840281524658203125e+02,3.642650222778320312e+01,2.431383705139160156e+01,3.236137008666992188e+01
8.679999709129333496e-01,2.000000000000000000e+00,-2.936127853393554688e+01,1.135568380355834961e+00,4.224346923828125000e+01,9.591564941406250000e+01,8.513256835937500000e+01,1.340063171386718750e+02,-6.517314910888671875e+00,-3.200321960449218750e+01,-1.840230102539062500e+02,3.642927932739257812e+01,2.433118247985839844e+01,3.235528564453125000e+01
8.719999790191650391e-01,2.000000000000000000e+00,-2.941400146484375000e+01,1.171046137809753418e+00,4.219901275634765625e+01,9.592191314697265625e+01,8.513000488281250000e+01,1.339992218017578125e+02,-6.567121505737304688e+00,-3.199776268005371094e+01,-1.840178833007812500e+02,3.643205642700195312e+01,2.434852409362792969e+01,3.234920883178710938e+01
8.759999871253967285e-01,2.000000000000000000e+00,-2.946671295166015625e+01,1.206516265869140625e+00,4.215456390380859375e+01,9.592816925048828125e+01,8.512744903564453125e+01,1.339921417236328125e+02,-6.616917610168457031e+00,-3.199230957031250000e+01,-1.840127258300781250e+02,3.643483352661132812e+01,2.436586380004882812e+01,3.234312438964843750e+01
8.799999952316284180e-01,2.000000000000000000e+00,-2.951941490173339844e+01,1.241978526115417480e+00,4.211012649536132812e+01,9.593443298339843750e+01,8.512488555908203125e+01,1.339850463867187500e+02,-6.666702270507812500e+00,-3.198685455322265625e+01,-1.840075988769531250e+02,3.643760681152343750e+01,2.438319778442382812e+01,3.233704757690429688e+01
8.840000033378601074e-01,2.000000000000000000e+00,-2.957210350036621094e+01,1.277433156967163086e+00,4.206570053100585938e+01,9.594068908691406250e+01,8.512232971191406250e+01,1.339779663085937500e+02,-6.716476440429687500e+00,-3.198140144348144531e+01,-1.840024566650390625e+02,3.644038391113281250e+01,2.440052986145019531e+01,3.233097076416015625e+01
8.880000114440917969e-01,2.000000000000000000e+00,-2.962477874755859375e+01,1.312879920005798340e+00,4.202128601074218750e+01,9.594693756103515625e+01,8.511976623535156250e+01,1.339708862304687500e+02,-6.766240119934082031e+00,-3.197595024108886719e+01,-1.839973144531250000e+02,3.644316101074218750e+01,2.441785621643066406e+01,3.232489395141601562e+01
8.920000195503234863e-01,2.000000000000000000e+00,-2.967744636535644531e+01,1.348318696022033691e+00,4.197687530517578125e+01,9.595319366455078125e+01,8.511721038818359375e+01,1.339637908935546875e+02,-6.815991878509521484e+00,-3.197050094604492188e+01,-1.839921875000000000e+02,3.644593429565429688e+01,2.443517875671386719e+01,3.231882476806640625e+01
8.960000276565551758e-01,2.000000000000000000e+00,-2.973009872436523438e+01,1.383750081062316895e+00,4.193247604370117188e+01,9.595944976806640625e+01,8.511464691162109375e+01,1.339567108154296875e+02,-6.865733146667480469e+00,-3.196505355834960938e+01,-1.839870452880859375e+02,3.644871139526367188e+01,2.445249938964843750e+01,3.231275177001953125e+01
8.999999761581420898e-01,2.000000000000000000e+00,-2.978273963928222656e+01,1.419173359870910645e+00,4.188808822631835938e+01,9.596570587158203125e+01,8.511209106445312500e+01,1.339496307373046875e+02,-6.915463924407958984e+00,-3.195960617065429688e+01,-1.839819183349609375e+02,3.645148468017578125e+01,2.446981620788574219e+01,3.230667877197265625e+01
9.039999842643737793e-01,2.000000000000000000e+00,-2.983536911010742188e+01,1.454589128494262695e+00,4.184370803833007812e+01,9.597195434570312500e+01,8.510953521728515625e+01,1.339425506591796875e+02,-6.965183258056640625e+00,-3.195415878295898438e+01,-1.839767913818359375e+02,3.645425415039062500e+01,2.448712730407714844e+01,3.230060577392578125e+01
9.079999923706054688e-01,2.000000000000000000e+00,-2.988798904418945312e+01,1.489997029304504395e+00,4.179933929443359375e+01,9.597820281982421875e+01,8.510697937011718750e+01,1.339354705810546875e+02,-7.014892101287841797e+00,-3.194871139526367188e+01,-1.839716491699218750e+02,3.645702743530273438e+01,2.450443458557128906e+01,3.229453659057617188e+01
9.120000004768371582e-01,2.000000000000000000e+00,-2.994059944152832031e+01,1.525397181510925293e+00,4.175497817993164062e+01,9.598444366455078125e+01,8.510442352294921875e+01,1.339284057617187500e+02,-7.064589977264404297e+00,-3.194326782226562500e+01,-1.839665374755859375e+02,3.645980072021484375e+01,2.452173805236816406e+01,3.228847503662109375e+01
9.160000085830688477e-01,2.000000000000000000e+00,-2.999319458007812500e+01,1.560789465904235840e+00,4.171063232421875000e+01,9.599069213867187500e+01,8.510186767578125000e+01,1.339213256835937500e+02,-7.114276409149169922e+00,-3.193782424926757812e+01,-1.839613952636718750e+02,3.646257019042968750e+01,2.453903961181640625e+01,3.228240966796875000e+01
9.200000166893005371e-01,2.000000000000000000e+00,-3.004577636718750000e+01,1.596174120903015137e+00,4.166629028320312500e+01,9.599694061279296875e+01,8.509931182861328125e+01,1.339142608642578125e+02,-7.163952350616455078e+00,-3.193238449096679688e+01,-1.839562683105468750e+02,3.646533966064453125e+01,2.455633544921875000e+01,3.227634429931640625e+01
9.240000247955322266e-01,2.000000000000000000e+00,-3.009835243225097656e+01,1.631551146507263184e+00,4.162195587158203125e+01,9.600318145751953125e+01,8.509676361083984375e+01,1.339071807861328125e+02,-7.213617324829101562e+00,-3.192694473266601562e+01,-1.839511413574218750e+02,3.646810913085937500e+01,2.457362937927246094e+01,3.227027893066406250e+01
9.279999732971191406e-01,2.000000000000000000e+00,-3.015091514587402344e+01,1.666920185089111328e+00,4.157763671875000000e+01,9.600942230224609375e+01,8.509420776367187500e+01,1.339001159667968750e+02,-7.263271808624267578e+00,-3.192150497436523438e+01,-1.839460296630859375e+02,3.647087860107421875e+01,2.459091758728027344e+01,3.226421737670898438e+01
9.319999814033508301e-01,2.000000000000000000e+00,-3.020346260070800781e+01,1.702281713485717773e+00,4.153332519531250000e+01,9.601566314697265625e+01,8.509165191650390625e+01,1.338930511474609375e+02,-7.312915325164794922e+00,-3.191606712341308594e+01,-1.839408874511718750e+02,3.647364807128906250e+01,2.460820388793945312e+01,3.225815582275390625e+01
9.359999895095825195e-01,2.000000000000000000e+00,-3.025600433349609375e+01,1.737635254859924316e+00,4.148902511596679688e+01,9.602190399169921875e+01,8.508910369873046875e+01,1.338859863281250000e+02,-7.362547874450683594e+00,-3.191063117980957031e+01,-1.839357604980468750e+02,3.647641372680664062e+01,2.462548637390136719e+01,3.225209426879882812e+01
9.399999976158142090e-01,2.000000000000000000e+00,-3.030852699279785156e+01,1.772981166839599609e+00,4.144473266601562500e+01,9.602814483642578125e+01,8.508654785156250000e+01,1.338789215087890625e+02,-7.412168979644775391e+00,-3.190519332885742188e+01,-1.839306488037109375e+02,3.647917938232421875e+01,2.464276313781738281e+01,3.224603652954101562e+01
9.440000057220458984e-01,2.000000000000000000e+00,-3.036104583740234375e+01,1.808319330215454102e+00,4.140045166015625000e+01,9.603437805175781250e+01,8.508399200439453125e+01,1.338718566894531250e+02,-7.461780071258544922e+00,-3.189976119995117188e+01,-1.839255371093750000e+02,3.648194885253906250e+01,2.466003608703613281e+01,3.223998260498046875e+01
9.480000138282775879e-01,2.000000000000000000e+00,-3.041354942321777344e+01,1.843649983406066895e+00,4.135617828369140625e+01,9.604061126708984375e+01,8.508145141601562500e+01,1.338647918701171875e+02,-7.511380195617675781e+00,-3.189432716369628906e+01,-1.839204101562500000e+02,3.648471450805664062e+01,2.467730712890625000e+01,3.223392868041992188e+01
9.520000219345092773e-01,2.000000000000000000e+00,-3.046604156494140625e+01,1.878972411155700684e+00,4.131191635131835938e+01,9.604684448242187500e+01,8.507890319824218750e+01,1.338577423095703125e+02,-7.560969352722167969e+00,-3.188889312744140625e+01,-1.839152832031250000e+02,3.648748016357421875e+01,2.469457244873046875e+01,3.222787094116210938e+01
9.559999704360961914e-01,2.000000000000000000e+00,-3.051852226257324219e+01,1.914287567138671875e+00,4.126766204833984375e+01,9.605307769775390625e+01,8.507634735107421875e+01,1.338506774902343750e+02,-7.610547065734863281e+00,-3.188346290588378906e+01,-1.839101867675781250e+02,3.649024581909179688e+01,2.471183586120605469e+01,3.222182083129882812e+01
9.599999785423278809e-01,2.000000000000000000e+00,-3.057099151611328125e+01,1.949594974517822266e+00,4.122341918945312500e+01,9.605931091308593750e+01,8.507379913330078125e+01,1.338436279296875000e+02,-7.660114288330078125e+00,-3.187803268432617188e+01,-1.839050598144531250e+02,3.649300765991210938e+01,2.472909545898437500e+01,3.221577072143554688e+01
9.639999866485595703e-01,2.000000000000000000e+00,-3.062345123291015625e+01,1.984894394874572754e+00,4.117918395996093750e+01,9.606553649902343750e+01,8.507125091552734375e+01,1.338365631103515625e+02,-7.709671020507812500e+00,-3.187260437011718750e+01,-1.838999481201171875e+02,3.649576950073242188e+01,2.474634933471679688e+01,3.220971679687500000e+01
9.679999947547912598e-01,2.000000000000000000e+00,-3.067589569091796875e+01,2.020186185836791992e+00,4.113496017456054688e+01,9.607176971435546875e+01,8.506870269775390625e+01,1.338295135498046875e+02,-7.759217262268066406e+00,-3.186717605590820312e+01,-1.838948211669921875e+02,3.649853515625000000e+01,2.476360130310058594e+01,3.220367050170898438e+01
9.720000028610229492e-01,2.000000000000000000e+00,-3.072833251953125000e+01,2.055470228195190430e+00,4.109074783325195312e+01,9.607798767089843750e+01,8.506615447998046875e+01,1.338224639892578125e+02,-7.808751106262207031e+00,-3.186174964904785156e+01,-1.838897247314453125e+02,3.650129699707031250e+01,2.478084945678710938e+01,3.219762039184570312e+01
9.760000109672546387e-01,2.000000000000000000e+00,-3.078075599670410156e+01,2.090746641159057617e+00,4.104654312133789062e+01,9.608422088623046875e+01,8.506360626220703125e+01,1.338154144287109375e+02,-7.858275413513183594e+00,-3.185632705688476562e+01,-1.838846130371093750e+02,3.650405883789062500e+01,2.479809379577636719e+01,3.219157791137695312e+01
9.800000190734863281e-01,2.000000000000000000e+00,-3.083316802978515625e+01,2.126015186309814453e+00,4.100234603881835938e+01,9.609043884277343750e+01,8.506105804443359375e+01,1.338083648681640625e+02,-7.907789230346679688e+00,-3.185090065002441406e+01,-1.838795013427734375e+02,3.650682067871093750e+01,2.481533241271972656e+01,3.218553161621093750e+01
9.840000271797180176e-01,2.000000000000000000e+00,-3.088556861877441406e+01,2.161276340484619141e+00,4.095816040039062500e+01,9.609666442871093750e+01,8.505851745605468750e+01,1.338013153076171875e+02,-7.957290649414062500e+00,-3.184547996520996094e+01,-1.838743896484375000e+02,3.650958251953125000e+01,2.483256912231445312e+01,3.217948913574218750e+01
9.879999756813049316e-01,2.000000000000000000e+00,-3.093795776367187500e+01,2.196529626846313477e+00,4.091398620605468750e+01,9.610289001464843750e+01,8.505596923828125000e+01,1.337942657470703125e+02,-8.006782531738281250e+00,-3.184005737304687500e+01,-1.838692779541015625e+02,3.651234054565429688e+01,2.484980201721191406e+01,3.217344665527343750e+01
9.919999837875366211e-01,2.000000000000000000e+00,-3.099033355712890625e+01,2.231775283813476562e+00,4.086981964111328125e+01,9.610910797119140625e+01,8.505342102050781250e+01,1.337872161865234375e+02,-8.056263923645019531e+00,-3.183463859558105469e+01,-1.838641662597656250e+02,3.651509857177734375e+01,2.486703109741210938e+01,3.216740417480468750e+01
9.959999918937683105e-01,2.000000000000000000e+00,-3.104270172119140625e+01,2.267013072967529297e+00,4.082566452026367188e+01,9.611532592773437500e+01,8.505088043212890625e+01,1.337801818847656250e+02,-8.105732917785644531e+00,-3.182921791076660156e+01,-1.838590698242187500e+02,3.651786041259765625e+01,2.488425445556640625e+01,3.216136169433593750e+01
1.000000000000000000e+00,2.000000000000000000e+00,-3.109505844116210938e+01,2.302243232727050781e+00,4.078151702880859375e+01,9.612154388427734375e+01,8.504833984375000000e+01,1.337731323242187500e+02,-8.155192375183105469e+00,-3.182380104064941406e+01,-1.838539581298828125e+02,3.652061843872070312e+01,2.490147590637207031e+01,3.215532684326171875e+01
1.003999948501586914e+00,2.000000000000000000e+00,-3.114740180969238281e+01,2.337465524673461914e+00,4.073738098144531250e+01,9.612776184082031250e+01,8.504579162597656250e+01,1.337660980224609375e+02,-8.204641342163085938e+00,-3.181838226318359375e+01,-1.838488616943359375e+02,3.652337646484375000e+01,2.491869354248046875e+01,3.214929199218750000e+01
1.008000016212463379e+00,2.000000000000000000e+00,-3.119973373413085938e+01,2.372680425643920898e+00,4.069325256347656250e+01,9.613397979736328125e+01,8.504325103759765625e+01,1.337590637207031250e+02,-8.254077911376953125e+00,-3.181296920776367188e+01,-1.838437500000000000e+02,3.652613067626953125e+01,2.493590736389160156e+01,3.214325332641601562e+01
1.011999964714050293e+00,2.000000000000000000e+00,-3.125205421447753906e+01,2.407887697219848633e+00,4.064913177490234375e+01,9.614019012451171875e+01,8.504071044921875000e+01,1.337520294189453125e+02,-8.303504943847656250e+00,-3.180755233764648438e+01,-1.838386535644531250e+02,3.652888870239257812e+01,2.495311546325683594e+01,3.213721847534179688e+01
1.016000032424926758e+00,2.000000000000000000e+00,-3.130436325073242188e+01,2.443086862564086914e+00,4.060502624511718750e+01,9.614640045166015625e+01,8.503816986083984375e+01,1.337449951171875000e+02,-8.352921485900878906e+00,-3.180213928222656250e+01,-1.838335418701171875e+02,3.653164291381835938e+01,2.497032356262207031e+01,3.213118743896484375e+01
1.019999980926513672e+00,2.000000000000000000e+00,-3.135666084289550781e+01,2.478278636932373047e+00,4.056092834472656250e+01,9.615261077880859375e+01,8.503562927246093750e+01,1.337379608154296875e+02,-8.402325630187988281e+00,-3.179672622680664062e+01,-1.838284454345703125e+02,3.653439712524414062e+01,2.498752593994140625e+01,3.212515640258789062e+01
1.024000048637390137e+00,2.000000000000000000e+00,-3.140894699096679688e+01,2.513462781906127930e+00,4.051683807373046875e+01,9.615882110595703125e+01,8.503308868408203125e+01,1.337309265136718750e+02,-8.451720237731933594e+00,-3.179131698608398438e+01,-1.838233489990234375e+02,3.653715515136718750e+01,2.500472259521484375e+01,3.211912536621093750e+01
1.026999950408935547e+00,2.000000000000000000e+00,-3.146122169494628906e+01,2.548639059066772461e+00,4.047275924682617188e+01,9.616503143310546875e+01,8.503054809570312500e+01,1.337238922119140625e+02,-8.501103401184082031e+00,-3.178590774536132812e+01,-1.838182525634765625e+02,3.653990554809570312e+01,2.502191925048828125e+01,3.211309432983398438e+01
1.031999945640563965e+00,2.000000000000000000e+00,-3.151348495483398438e+01,2.583807706832885742e+00,4.042868804931640625e+01,9.617123413085937500e+01,8.502800750732421875e+01,1.337168731689453125e+02,-8.550477027893066406e+00,-3.178049850463867188e+01,-1.838131561279296875e+02,3.654265975952148438e+01,2.503911018371582031e+01,3.210706710815429688e+01
1.036000013351440430e+00,2.000000000000000000e+00,-3.156573677062988281e+01,2.618968725204467773e+00,4.038463211059570312e+01,9.617743682861328125e+01,8.502547454833984375e+01,1.337098388671875000e+02,-8.599838256835937500e+00,-3.177509307861328125e+01,-1.838080596923828125e+02,3.654541397094726562e+01,2.505629730224609375e+01,3.210104370117187500e+01
1.039999961853027344e+00,2.000000000000000000e+00,-3.161797714233398438e+01,2.654121875762939453e+00,4.034057998657226562e+01,9.618363952636718750e+01,8.502293395996093750e+01,1.337028198242187500e+02,-8.649189949035644531e+00,-3.176968574523925781e+01,-1.838029785156250000e+02,3.654816436767578125e+01,2.507348060607910156e+01,3.209501647949218750e+01
1.044000029563903809e+00,2.000000000000000000e+00,-3.167020797729492188e+01,2.689267635345458984e+00,4.029653930664062500e+01,9.618984222412109375e+01,8.502040100097656250e+01,1.336957855224609375e+02,-8.698530197143554688e+00,-3.176428031921386719e+01,-1.837978820800781250e+02,3.655091857910156250e+01,2.509066009521484375e+01,3.208899307250976562e+01
1.047999978065490723e+00,2.000000000000000000e+00,-3.172242546081542969e+01,2.724405527114868164e+00,4.025250625610351562e+01,9.619604492187500000e+01,8.501786041259765625e+01,1.336887664794921875e+02,-8.747859954833984375e+00,-3.175887680053710938e+01,-1.837927856445312500e+02,3.655366516113281250e+01,2.510783767700195312e+01,3.208296966552734375e+01
1.052000045776367188e+00,2.000000000000000000e+00,-3.177463150024414062e+01,2.759535789489746094e+00,4.020848846435546875e+01,9.620224761962890625e+01,8.501532745361328125e+01,1.336817474365234375e+02,-8.797178268432617188e+00,-3.175347518920898438e+01,-1.837876892089843750e+02,3.655641937255859375e+01,2.512500953674316406e+01,3.207695007324218750e+01
1.054999947547912598e+00,2.000000000000000000e+00,-3.182682800292968750e+01,2.794658660888671875e+00,4.016447448730468750e+01,9.620845031738281250e+01,8.501278686523437500e+01,1.336747283935546875e+02,-8.846487045288085938e+00,-3.174807167053222656e+01,-1.837826080322265625e+02,3.655916976928710938e+01,2.514217758178710938e+01,3.207092666625976562e+01
1.059999942779541016e+00,2.000000000000000000e+00,-3.187900924682617188e+01,2.829773664474487305e+00,4.012047195434570312e+01,9.621464538574218750e+01,8.501025390625000000e+01,1.336677093505859375e+02,-8.895784378051757812e+00,-3.174267196655273438e+01,-1.837775115966796875e+02,3.656191635131835938e+01,2.515934181213378906e+01,3.206491088867187500e+01
1.064000010490417480e+00,2.000000000000000000e+00,-3.193118286132812500e+01,2.864880800247192383e+00,4.007648086547851562e+01,9.622084045410156250e+01,8.500772094726562500e+01,1.336606903076171875e+02,-8.945071220397949219e+00,-3.173727416992187500e+01,-1.837724304199218750e+02,3.656466674804687500e+01,2.517650413513183594e+01,3.205889511108398438e+01
1.067999958992004395e+00,2.000000000000000000e+00,-3.198334503173828125e+01,2.899980545043945312e+00,4.003249359130859375e+01,9.622703552246093750e+01,8.500518798828125000e+01,1.336536712646484375e+02,-8.994346618652343750e+00,-3.173187828063964844e+01,-1.837673492431640625e+02,3.656741333007812500e+01,2.519366264343261719e+01,3.205287933349609375e+01
1.072000026702880859e+00,2.000000000000000000e+00,-3.203549194335937500e+01,2.935072660446166992e+00,3.998852157592773438e+01,9.623323059082031250e+01,8.500265502929687500e+01,1.336466522216796875e+02,-9.043611526489257812e+00,-3.172647857666015625e+01,-1.837622528076171875e+02,3.657015991210937500e+01,2.521081352233886719e+01,3.204686737060546875e+01
1.075999975204467773e+00,2.000000000000000000e+00,-3.208763504028320312e+01,2.970157146453857422e+00,3.994455718994140625e+01,9.623941802978515625e+01,8.500012207031250000e+01,1.336396484375000000e+02,-9.092866897583007812e+00,-3.172108268737792969e+01,-1.837571716308593750e+02,3.657290649414062500e+01,2.522796440124511719e+01,3.204085159301757812e+01
1.080000042915344238e+00,2.000000000000000000e+00,-3.213975906372070312e+01,3.005233764648437500e+00,3.990060424804687500e+01,9.624560546875000000e+01,8.499758911132812500e+01,1.336326446533203125e+02,-9.142109870910644531e+00,-3.171569061279296875e+01,-1.837520904541015625e+02,3.657565307617187500e+01,2.524510955810546875e+01,3.203483581542968750e+01
1.083999991416931152e+00,2.000000000000000000e+00,-3.219187545776367188e+01,3.040302991867065430e+00,3.985665893554687500e+01,9.625179290771484375e+01,8.499505615234375000e+01,1.336256256103515625e+02,-9.191343307495117188e+00,-3.171029853820800781e+01,-1.837470092773437500e+02,3.657839965820312500e+01,2.526225471496582031e+01,3.202882766723632812e+01
1.088000059127807617e+00,2.000000000000000000e+00,-3.224398040771484375e+01,3.075364112854003906e+00,3.981272125244140625e+01,9.625798034667968750e+01,8.499252319335937500e+01,1.336186218261718750e+02,-9.240565299987792969e+00,-3.170490455627441406e+01,-1.837419281005859375e+02,3.658114624023437500e+01,2.527939224243164062e+01,3.202281951904296875e+01
1.090999960899353027e+00,2.000000000000000000e+00,-3.229607009887695312e+01,3.110418081283569336e+00,3.976879882812500000e+01,9.626416778564453125e+01,8.498999023437500000e+01,1.336116180419921875e+02,-9.289776802062988281e+00,-3.169951248168945312e+01,-1.837368469238281250e+02,3.658388900756835938e+01,2.529652595520019531e+01,3.201680755615234375e+01
1.095999956130981445e+00,2.000000000000000000e+00,-3.234815597534179688e+01,3.145464420318603516e+00,3.972488403320312500e+01,9.627035522460937500e+01,8.498746490478515625e+01,1.336046142578125000e+02,-9.338977813720703125e+00,-3.169412422180175781e+01,-1.837317810058593750e+02,3.658663177490234375e+01,2.531365776062011719e+01,3.201080703735351562e+01
1.100000023841857910e+00,2.000000000000000000e+00,-3.240022659301757812e+01,3.180502891540527344e+00,3.968097305297851562e+01,9.627653503417968750e+01,8.498493194580078125e+01,1.335975952148437500e+02,-9.388167381286621094e+00,-3.168873405456542969e+01,-1.837266998291015625e+02,3.658937454223632812e+01,2.533078575134277344e+01,3.200479888916015625e+01
1.103999972343444824e+00,2.000000000000000000e+00,-3.245228576660156250e+01,3.215533733367919922e+00,3.963707733154296875e+01,9.628272247314453125e+01,8.498240661621093750e+01,1.335906066894531250e+02,-9.437347412109375000e+00,-3.168334960937500000e+01,-1.837216186523437500e+02,3.659211730957031250e+01,2.534790992736816406e+01,3.199879455566406250e+01
1.108000040054321289e+00,2.000000000000000000e+00,-3.250432968139648438e+01,3.250557184219360352e+00,3.959318923950195312e+01,9.628890228271484375e+01,8.497987365722656250e+01,1.335836029052734375e+02,-9.486515998840332031e+00,-3.167795944213867188e+01,-1.837165527343750000e+02,3.659486007690429688e+01,2.536503028869628906e+01,3.199279022216796875e+01
1.111999988555908203e+00,2.000000000000000000e+00,-3.255636596679687500e+01,3.285572767257690430e+00,3.954931259155273438e+01,9.629508209228515625e+01,8.497734832763671875e+01,1.335765991210937500e+02,-9.535674095153808594e+00,-3.167257881164550781e+01,-1.837114562988281250e+02,3.659760284423828125e+01,2.538214683532714844e+01,3.198678970336914062e+01
1.116000056266784668e+00,2.000000000000000000e+00,-3.260839080810546875e+01,3.320580720901489258e+00,3.950544357299804688e+01,9.630125427246093750e+01,8.497482299804687500e+01,1.335696105957031250e+02,-9.584821701049804688e+00,-3.166719245910644531e+01,-1.837063903808593750e+02,3.660034179687500000e+01,2.539925956726074219e+01,3.198079109191894531e+01
1.118999958038330078e+00,2.000000000000000000e+00,-3.266040802001953125e+01,3.355581283569335938e+00,3.946158599853515625e+01,9.630743408203125000e+01,8.497229766845703125e+01,1.335626220703125000e+02,-9.633957862854003906e+00,-3.166180992126464844e+01,-1.837013244628906250e+02,3.660308456420898438e+01,2.541636657714843750e+01,3.197479248046875000e+01
