rpiRobotics/ARM-21-02-F-19-Robot-Motion-Program/data_performance_abb/curve_1/dual_arm/diffevo_pose3/grad_result/sim/dual_iteration_2.csv
timestamp,cmd_num,J1,J2,J3,J4,J5,J6,J1_2,J2_2,J3_2,J4_2,J5_2,J6_2
0.000000000000000000e+00,-1.000000000000000000e+00,-1.953649330139160156e+01,-5.344750404357910156e+00,5.057703018188476562e+01,9.488351440429687500e+01,8.578683471679687500e+01,1.350222778320312500e+02,2.724792003631591797e+00,-3.300199890136718750e+01,-1.850005187988281250e+02,3.579150390625000000e+01,2.106861305236816406e+01,3.358278656005859375e+01
2.000000094994902611e-03,-1.000000000000000000e+00,-1.953649330139160156e+01,-5.344750404357910156e+00,5.057703018188476562e+01,9.488351440429687500e+01,8.578683471679687500e+01,1.350222778320312500e+02,2.724792003631591797e+00,-3.300199890136718750e+01,-1.850005187988281250e+02,3.579150390625000000e+01,2.106861305236816406e+01,3.358278656005859375e+01
4.000000189989805222e-03,-1.000000000000000000e+00,-1.953649330139160156e+01,-5.344750404357910156e+00,5.057703018188476562e+01,9.488351440429687500e+01,8.578683471679687500e+01,1.350222778320312500e+02,2.724792003631591797e+00,-3.300199890136718750e+01,-1.850005187988281250e+02,3.579150390625000000e+01,2.106861305236816406e+01,3.358278656005859375e+01
9.999999776482582092e-03,-1.000000000000000000e+00,-1.953649330139160156e+01,-5.344750404357910156e+00,5.057703018188476562e+01,9.488351440429687500e+01,8.578683471679687500e+01,1.350222778320312500e+02,2.724792003631591797e+00,-3.300199890136718750e+01,-1.850005187988281250e+02,3.579150390625000000e+01,2.106861305236816406e+01,3.358278656005859375e+01
1.200000010430812836e-02,-1.000000000000000000e+00,-1.953649330139160156e+01,-5.344750404357910156e+00,5.057703018188476562e+01,9.488351440429687500e+01,8.578683471679687500e+01,1.350222778320312500e+02,2.724792003631591797e+00,-3.300199890136718750e+01,-1.850005187988281250e+02,3.579150390625000000e+01,2.106861305236816406e+01,3.358278656005859375e+01
1.600000075995922089e-02,-1.000000000000000000e+00,-1.953649330139160156e+01,-5.344750404357910156e+00,5.057703018188476562e+01,9.488351440429687500e+01,8.578683471679687500e+01,1.350222778320312500e+02,2.724792003631591797e+00,-3.300199890136718750e+01,-1.850005187988281250e+02,3.579150390625000000e+01,2.106861305236816406e+01,3.358278656005859375e+01
1.999999955296516418e-02,-1.000000000000000000e+00,-1.953649330139160156e+01,-5.344750404357910156e+00,5.057703018188476562e+01,9.488351440429687500e+01,8.578683471679687500e+01,1.350222778320312500e+02,2.724792003631591797e+00,-3.300199890136718750e+01,-1.850005187988281250e+02,3.579150390625000000e+01,2.106861305236816406e+01,3.358278656005859375e+01
2.400000020861625671e-02,-1.000000000000000000e+00,-1.953649330139160156e+01,-5.344750404357910156e+00,5.057703018188476562e+01,9.488351440429687500e+01,8.578683471679687500e+01,1.350222778320312500e+02,2.724792003631591797e+00,-3.300199890136718750e+01,-1.850005187988281250e+02,3.579150390625000000e+01,2.106861305236816406e+01,3.358278656005859375e+01
2.800000086426734924e-02,-1.000000000000000000e+00,-1.953649330139160156e+01,-5.344750404357910156e+00,5.057703018188476562e+01,9.488351440429687500e+01,8.578683471679687500e+01,1.350222778320312500e+02,2.724792003631591797e+00,-3.300199890136718750e+01,-1.850005187988281250e+02,3.579150390625000000e+01,2.106861305236816406e+01,3.358278656005859375e+01
3.200000151991844177e-02,2.000000000000000000e+00,-1.953649330139160156e+01,-5.344750404357910156e+00,5.057703018188476562e+01,9.488351440429687500e+01,8.578683471679687500e+01,1.350222778320312500e+02,2.724792003631591797e+00,-3.300199890136718750e+01,-1.850005187988281250e+02,3.579150390625000000e+01,2.106861305236816406e+01,3.358278656005859375e+01
3.700000047683715820e-02,2.000000000000000000e+00,-1.953649330139160156e+01,-5.344750404357910156e+00,5.057703018188476562e+01,9.488351440429687500e+01,8.578683471679687500e+01,1.350222778320312500e+02,2.724792003631591797e+00,-3.300199890136718750e+01,-1.850005187988281250e+02,3.579150390625000000e+01,2.106861305236816406e+01,3.358278656005859375e+01
4.300000146031379700e-02,2.000000000000000000e+00,-1.953649330139160156e+01,-5.344750404357910156e+00,5.057703018188476562e+01,9.488351440429687500e+01,8.578683471679687500e+01,1.350222778320312500e+02,2.724792003631591797e+00,-3.300199890136718750e+01,-1.850005187988281250e+02,3.579150390625000000e+01,2.106861305236816406e+01,3.358278656005859375e+01
4.399999976158142090e-02,2.000000000000000000e+00,-1.953649330139160156e+01,-5.344750404357910156e+00,5.057703018188476562e+01,9.488351440429687500e+01,8.578683471679687500e+01,1.350222778320312500e+02,2.724792003631591797e+00,-3.300199890136718750e+01,-1.850005187988281250e+02,3.579150390625000000e+01,2.106861305236816406e+01,3.358278656005859375e+01
5.000000074505805969e-02,2.000000000000000000e+00,-1.953649330139160156e+01,-5.344750404357910156e+00,5.057703018188476562e+01,9.488351440429687500e+01,8.578683471679687500e+01,1.350222778320312500e+02,2.724792003631591797e+00,-3.300199890136718750e+01,-1.850005187988281250e+02,3.579150390625000000e+01,2.106861305236816406e+01,3.358278656005859375e+01
5.200000107288360596e-02,2.000000000000000000e+00,-1.953649330139160156e+01,-5.344750404357910156e+00,5.057703018188476562e+01,9.488351440429687500e+01,8.578683471679687500e+01,1.350222778320312500e+02,2.724792003631591797e+00,-3.300199890136718750e+01,-1.850005187988281250e+02,3.579150390625000000e+01,2.106861305236816406e+01,3.358278656005859375e+01
5.600000172853469849e-02,2.000000000000000000e+00,-1.953649330139160156e+01,-5.344750404357910156e+00,5.057703018188476562e+01,9.488351440429687500e+01,8.578683471679687500e+01,1.350222778320312500e+02,2.724792003631591797e+00,-3.300199890136718750e+01,-1.850005187988281250e+02,3.579150390625000000e+01,2.106861305236816406e+01,3.358278656005859375e+01
5.999999865889549255e-02,2.000000000000000000e+00,-1.953649330139160156e+01,-5.344750404357910156e+00,5.057703018188476562e+01,9.488351440429687500e+01,8.578683471679687500e+01,1.350222778320312500e+02,2.724792003631591797e+00,-3.300199890136718750e+01,-1.850005187988281250e+02,3.579150390625000000e+01,2.106861305236816406e+01,3.358278656005859375e+01
6.400000303983688354e-02,2.000000000000000000e+00,-1.953649330139160156e+01,-5.344750404357910156e+00,5.057703018188476562e+01,9.488351440429687500e+01,8.578683471679687500e+01,1.350222778320312500e+02,2.724792003631591797e+00,-3.300199890136718750e+01,-1.850005187988281250e+02,3.579150390625000000e+01,2.106861305236816406e+01,3.358278656005859375e+01
6.800000369548797607e-02,2.000000000000000000e+00,-1.953649330139160156e+01,-5.344750404357910156e+00,5.057703018188476562e+01,9.488351440429687500e+01,8.578683471679687500e+01,1.350222778320312500e+02,2.724792003631591797e+00,-3.300199890136718750e+01,-1.850005187988281250e+02,3.579150390625000000e+01,2.106861305236816406e+01,3.358278656005859375e+01
7.199999690055847168e-02,2.000000000000000000e+00,-1.953649330139160156e+01,-5.344750404357910156e+00,5.057703018188476562e+01,9.488351440429687500e+01,8.578683471679687500e+01,1.350222778320312500e+02,2.724792003631591797e+00,-3.300199890136718750e+01,-1.850005187988281250e+02,3.579150390625000000e+01,2.106861305236816406e+01,3.358278656005859375e+01
7.599999755620956421e-02,2.000000000000000000e+00,-1.953656196594238281e+01,-5.344726085662841797e+00,5.057701492309570312e+01,9.488351440429687500e+01,8.578682708740234375e+01,1.350222778320312500e+02,2.724792003631591797e+00,-3.300199890136718750e+01,-1.850005187988281250e+02,3.579150390625000000e+01,2.106861305236816406e+01,3.358278656005859375e+01
7.999999821186065674e-02,2.000000000000000000e+00,-1.953693962097167969e+01,-5.344574451446533203e+00,5.057692718505859375e+01,9.488351440429687500e+01,8.578681945800781250e+01,1.350222778320312500e+02,2.724792003631591797e+00,-3.300199890136718750e+01,-1.850005187988281250e+02,3.579150390625000000e+01,2.106861305236816406e+01,3.358278656005859375e+01
8.399999886751174927e-02,2.000000000000000000e+00,-1.953801727294921875e+01,-5.344102859497070312e+00,5.057664489746093750e+01,9.488352203369140625e+01,8.578680419921875000e+01,1.350222778320312500e+02,2.724792003631591797e+00,-3.300199890136718750e+01,-1.850005187988281250e+02,3.579150390625000000e+01,2.106861305236816406e+01,3.358278656005859375e+01
8.799999952316284180e-02,2.000000000000000000e+00,-1.954015541076660156e+01,-5.343086719512939453e+00,5.057602310180664062e+01,9.488354492187500000e+01,8.578675079345703125e+01,1.350222625732421875e+02,2.724765300750732422e+00,-3.300199890136718750e+01,-1.850005187988281250e+02,3.579150390625000000e+01,2.106861495971679688e+01,3.358278656005859375e+01
9.200000017881393433e-02,2.000000000000000000e+00,-1.954358100891113281e+01,-5.341333866119384766e+00,5.057488250732421875e+01,9.488360595703125000e+01,8.578665924072265625e+01,1.350222167968750000e+02,2.724590301513671875e+00,-3.300198745727539062e+01,-1.850005035400390625e+02,3.579150772094726562e+01,2.106863212585449219e+01,3.358278656005859375e+01
9.600000083446502686e-02,2.000000000000000000e+00,-1.954845237731933594e+01,-5.338680267333984375e+00,5.057305145263671875e+01,9.488372039794921875e+01,8.578652191162109375e+01,1.350221252441406250e+02,2.724012613296508789e+00,-3.300195693969726562e+01,-1.850003967285156250e+02,3.579151535034179688e+01,2.106869125366210938e+01,3.358277511596679688e+01
1.000000014901161194e-01,2.000000000000000000e+00,-1.955491256713867188e+01,-5.334974288940429688e+00,5.057030487060546875e+01,9.488391876220703125e+01,8.578630828857421875e+01,1.350219421386718750e+02,2.722687005996704102e+00,-3.300188064575195312e+01,-1.850002136230468750e+02,3.579154586791992188e+01,2.106885337829589844e+01,3.358274459838867188e+01
1.040000021457672119e-01,2.000000000000000000e+00,-1.956299018859863281e+01,-5.330117225646972656e+00,5.056642913818359375e+01,9.488423919677734375e+01,8.578602600097656250e+01,1.350216369628906250e+02,2.720235586166381836e+00,-3.300172042846679688e+01,-1.849998626708984375e+02,3.579161071777343750e+01,2.106920433044433594e+01,3.358266448974609375e+01
1.080000028014183044e-01,2.000000000000000000e+00,-1.957261466979980469e+01,-5.324082374572753906e+00,5.056121444702148438e+01,9.488471984863281250e+01,8.578564453125000000e+01,1.350211486816406250e+02,2.716240406036376953e+00,-3.300143051147460938e+01,-1.849993133544921875e+02,3.579173660278320312e+01,2.106988143920898438e+01,3.358248138427734375e+01
1.120000034570693970e-01,2.000000000000000000e+00,-1.958380317687988281e+01,-5.316833496093750000e+00,5.055443954467773438e+01,9.488542938232421875e+01,8.578517150878906250e+01,1.350204315185546875e+02,2.710239410400390625e+00,-3.300096893310546875e+01,-1.849985046386718750e+02,3.579194259643554688e+01,2.107105827331542969e+01,3.358214187622070312e+01
1.159999966621398926e-01,2.000000000000000000e+00,-1.959681510925292969e+01,-5.308236122131347656e+00,5.054581832885742188e+01,9.488638305664062500e+01,8.578457641601562500e+01,1.350194244384765625e+02,2.701847791671752930e+00,-3.300026321411132812e+01,-1.849974212646484375e+02,3.579227828979492188e+01,2.107294464111328125e+01,3.358155822753906250e+01
1.199999973177909851e-01,2.000000000000000000e+00,-1.961207580566406250e+01,-5.298065185546875000e+00,5.053503799438476562e+01,9.488764953613281250e+01,8.578383636474609375e+01,1.350180969238281250e+02,2.690843820571899414e+00,-3.299927139282226562e+01,-1.849960784912109375e+02,3.579277038574218750e+01,2.107575798034667969e+01,3.358063507080078125e+01
1.239999979734420776e-01,2.000000000000000000e+00,-1.962994384765625000e+01,-5.286118030548095703e+00,5.052180480957031250e+01,9.488925933837890625e+01,8.578294372558593750e+01,1.350163879394531250e+02,2.677069664001464844e+00,-3.299793624877929688e+01,-1.849944763183593750e+02,3.579345321655273438e+01,2.107970428466796875e+01,3.357929229736328125e+01
1.280000060796737671e-01,2.000000000000000000e+00,-1.965057754516601562e+01,-5.272319316864013672e+00,5.050591278076171875e+01,9.489125061035156250e+01,8.578188323974609375e+01,1.350142517089843750e+02,2.660291433334350586e+00,-3.299621582031250000e+01,-1.849926147460937500e+02,3.579436111450195312e+01,2.108496475219726562e+01,3.357745742797851562e+01
1.309999972581863403e-01,2.000000000000000000e+00,-1.967394256591796875e+01,-5.256710052490234375e+00,5.048725891113281250e+01,9.489366149902343750e+01,8.578064727783203125e+01,1.350116577148437500e+02,2.640224456787109375e+00,-3.299407958984375000e+01,-1.849904785156250000e+02,3.579551696777343750e+01,2.109167480468750000e+01,3.357507705688476562e+01
1.360000073909759521e-01,2.000000000000000000e+00,-1.969994354248046875e+01,-5.239369869232177734e+00,5.046579742431640625e+01,9.489650726318359375e+01,8.577924346923828125e+01,1.350085906982421875e+02,2.616672992706298828e+00,-3.299150085449218750e+01,-1.849880218505859375e+02,3.579692459106445312e+01,2.109989738464355469e+01,3.357212448120117188e+01
1.389999985694885254e-01,2.000000000000000000e+00,-1.972850227355957031e+01,-5.220353126525878906e+00,5.044150924682617188e+01,9.489978790283203125e+01,8.577765655517578125e+01,1.350050354003906250e+02,2.589554786682128906e+00,-3.298847579956054688e+01,-1.849852600097656250e+02,3.579859542846679688e+01,2.110963821411132812e+01,3.356860351562500000e+01
1.439999938011169434e-01,2.000000000000000000e+00,-1.975953865051269531e+01,-5.199709892272949219e+00,5.041445159912109375e+01,9.490350341796875000e+01,8.577590179443359375e+01,1.350009918212890625e+02,2.558840274810791016e+00,-3.298501968383789062e+01,-1.849821624755859375e+02,3.580051422119140625e+01,2.112084960937500000e+01,3.356454086303710938e+01
1.480000019073486328e-01,2.000000000000000000e+00,-1.979295349121093750e+01,-5.177490711212158203e+00,5.038473129272460938e+01,9.490764617919921875e+01,8.577397918701171875e+01,1.349964752197265625e+02,2.524586200714111328e+00,-3.298115158081054688e+01,-1.849787292480468750e+02,3.580266952514648438e+01,2.113343048095703125e+01,3.355997467041015625e+01
1.519999951124191284e-01,2.000000000000000000e+00,-1.982876396179199219e+01,-5.153663158416748047e+00,5.035245895385742188e+01,9.491217041015625000e+01,8.577190399169921875e+01,1.349915466308593750e+02,2.487017631530761719e+00,-3.297691345214843750e+01,-1.849749603271484375e+02,3.580503463745117188e+01,2.114724540710449219e+01,3.355495452880859375e+01
1.560000032186508179e-01,2.000000000000000000e+00,-1.986710166931152344e+01,-5.128116130828857422e+00,5.031775665283203125e+01,9.491704559326171875e+01,8.576967620849609375e+01,1.349862365722656250e+02,2.446534156799316406e+00,-3.297234725952148438e+01,-1.849709014892578125e+02,3.580758285522460938e+01,2.116213417053222656e+01,3.354954910278320312e+01
1.599999964237213135e-01,2.000000000000000000e+00,-1.990802574157714844e+01,-5.100784778594970703e+00,5.028078460693359375e+01,9.492222595214843750e+01,8.576729583740234375e+01,1.349805755615234375e+02,2.403581380844116211e+00,-3.296750259399414062e+01,-1.849665985107421875e+02,3.581027984619140625e+01,2.117792129516601562e+01,3.354381942749023438e+01
1.640000045299530029e-01,2.000000000000000000e+00,-1.995137405395507812e+01,-5.071763038635253906e+00,5.024180221557617188e+01,9.492766571044921875e+01,8.576478576660156250e+01,1.349746551513671875e+02,2.358529567718505859e+00,-3.296243667602539062e+01,-1.849620513916015625e+02,3.581310272216796875e+01,2.119443130493164062e+01,3.353782653808593750e+01
1.679999977350234985e-01,2.000000000000000000e+00,-1.999677467346191406e+01,-5.041268825531005859e+00,5.020112228393554688e+01,9.493331909179687500e+01,8.576216125488281250e+01,1.349685058593750000e+02,2.311684608459472656e+00,-3.295719146728515625e+01,-1.849573211669921875e+02,3.581602478027343750e+01,2.121149444580078125e+01,3.353164291381835938e+01
1.720000058412551880e-01,2.000000000000000000e+00,-2.004384231567382812e+01,-5.009527683258056641e+00,5.015905380249023438e+01,9.493914794921875000e+01,8.575943756103515625e+01,1.349621582031250000e+02,2.263352632522583008e+00,-3.295181274414062500e+01,-1.849523925781250000e+02,3.581901550292968750e+01,2.122896194458007812e+01,3.352532958984375000e+01
1.759999990463256836e-01,2.000000000000000000e+00,-2.009231948852539062e+01,-4.976718425750732422e+00,5.011585235595703125e+01,9.494509887695312500e+01,8.575664520263671875e+01,1.349556884765625000e+02,2.213859796524047852e+00,-3.294633483886718750e+01,-1.849473419189453125e+02,3.582205200195312500e+01,2.124670028686523438e+01,3.351892471313476562e+01
1.800000071525573730e-01,2.000000000000000000e+00,-2.014205741882324219e+01,-4.942989826202392578e+00,5.007175064086914062e+01,9.495115661621093750e+01,8.575378417968750000e+01,1.349491119384765625e+02,2.163501024246215820e+00,-3.294078826904296875e+01,-1.849421691894531250e+02,3.582511901855468750e+01,2.126460647583007812e+01,3.351247406005859375e+01
1.840000003576278687e-01,2.000000000000000000e+00,-2.019294357299804688e+01,-4.908486366271972656e+00,5.002695465087890625e+01,9.495728302001953125e+01,8.575088500976562500e+01,1.349424591064453125e+02,2.112515449523925781e+00,-3.293519973754882812e+01,-1.849368896484375000e+02,3.582820129394531250e+01,2.128260612487792969e+01,3.350600051879882812e+01
1.879999935626983643e-01,2.000000000000000000e+00,-2.024484443664550781e+01,-4.873346328735351562e+00,4.998163604736328125e+01,9.496344757080078125e+01,8.574793243408203125e+01,1.349357757568359375e+02,2.061123847961425781e+00,-3.292958450317382812e+01,-1.849315490722656250e+02,3.583129501342773438e+01,2.130065345764160156e+01,3.349951934814453125e+01
1.920000016689300537e-01,2.000000000000000000e+00,-2.029764747619628906e+01,-4.837683677673339844e+00,4.993593597412109375e+01,9.496964263916015625e+01,8.574494934082031250e+01,1.349290618896484375e+02,2.009527921676635742e+00,-3.292396163940429688e+01,-1.849261779785156250e+02,3.583439254760742188e+01,2.131871604919433594e+01,3.349303436279296875e+01
1.959999948740005493e-01,2.000000000000000000e+00,-2.035125541687011719e+01,-4.801602363586425781e+00,4.988996124267578125e+01,9.497585296630859375e+01,8.574195861816406250e+01,1.349223480224609375e+02,1.957870602607727051e+00,-3.291833114624023438e+01,-1.849208221435546875e+02,3.583749008178710938e+01,2.133678054809570312e+01,3.348655319213867188e+01
2.000000029802322388e-01,2.000000000000000000e+00,-2.040548324584960938e+01,-4.765235424041748047e+00,4.984380722045898438e+01,9.498206329345703125e+01,8.573895263671875000e+01,1.349156036376953125e+02,1.906213402748107910e+00,-3.291270065307617188e+01,-1.849154357910156250e+02,3.584058761596679688e+01,2.135484123229980469e+01,3.348007202148437500e+01
2.039999961853027344e-01,2.000000000000000000e+00,-2.046006584167480469e+01,-4.728722572326660156e+00,4.979757308959960938e+01,9.498828887939453125e+01,8.573592376708984375e+01,1.349088745117187500e+02,1.854567527770996094e+00,-3.290707397460937500e+01,-1.849100494384765625e+02,3.584368515014648438e+01,2.137289810180664062e+01,3.347359466552734375e+01
2.080000042915344238e-01,2.000000000000000000e+00,-2.051476669311523438e+01,-4.692167758941650391e+00,4.975132369995117188e+01,9.499450683593750000e+01,8.573290252685546875e+01,1.349021453857421875e+02,1.802933931350708008e+00,-3.290144729614257812e+01,-1.849046783447265625e+02,3.584677886962890625e+01,2.139095306396484375e+01,3.346711349487304688e+01
2.119999974966049194e-01,2.000000000000000000e+00,-2.056947517395019531e+01,-4.655613422393798828e+00,4.970508193969726562e+01,9.500071716308593750e+01,8.572988891601562500e+01,1.348954162597656250e+02,1.751312017440795898e+00,-3.289582443237304688e+01,-1.848993072509765625e+02,3.584987640380859375e+01,2.140900039672851562e+01,3.346063613891601562e+01
2.160000056028366089e-01,2.000000000000000000e+00,-2.062417221069335938e+01,-4.619067668914794922e+00,4.965884780883789062e+01,9.500693511962890625e+01,8.572686767578125000e+01,1.348887023925781250e+02,1.699702024459838867e+00,-3.289019775390625000e+01,-1.848939361572265625e+02,3.585297012329101562e+01,2.142704391479492188e+01,3.345416259765625000e+01
2.199999988079071045e-01,2.000000000000000000e+00,-2.067885398864746094e+01,-4.582530021667480469e+00,4.961262512207031250e+01,9.501315307617187500e+01,8.572384643554687500e+01,1.348819732666015625e+02,1.648103952407836914e+00,-3.288457870483398438e+01,-1.848885650634765625e+02,3.585606384277343750e+01,2.144508743286132812e+01,3.344768524169921875e+01
2.240000069141387939e-01,2.000000000000000000e+00,-2.073352432250976562e+01,-4.546001434326171875e+00,4.956641387939453125e+01,9.501935577392578125e+01,8.572082519531250000e+01,1.348752593994140625e+02,1.596517920494079590e+00,-3.287895584106445312e+01,-1.848831939697265625e+02,3.585915756225585938e+01,2.146312141418457031e+01,3.344121551513671875e+01
2.280000001192092896e-01,2.000000000000000000e+00,-2.078818321228027344e+01,-4.509480953216552734e+00,4.952021026611328125e+01,9.502557373046875000e+01,8.571781158447265625e+01,1.348685302734375000e+02,1.544943928718566895e+00,-3.287333679199218750e+01,-1.848778228759765625e+02,3.586225128173828125e+01,2.148115348815917969e+01,3.343474197387695312e+01
2.319999933242797852e-01,2.000000000000000000e+00,-2.084282875061035156e+01,-4.472969055175781250e+00,4.947402191162109375e+01,9.503178405761718750e+01,8.571479034423828125e+01,1.348618164062500000e+02,1.493381857872009277e+00,-3.286771774291992188e+01,-1.848724517822265625e+02,3.586534118652343750e+01,2.149918174743652344e+01,3.342827606201171875e+01
2.360000014305114746e-01,2.000000000000000000e+00,-2.089746093750000000e+01,-4.436465740203857422e+00,4.942784118652343750e+01,9.503798675537109375e+01,8.571177673339843750e+01,1.348550872802734375e+02,1.441831827163696289e+00,-3.286209869384765625e+01,-1.848670959472656250e+02,3.586843109130859375e+01,2.151720619201660156e+01,3.342180633544921875e+01
2.399999946355819702e-01,2.000000000000000000e+00,-2.095208168029785156e+01,-4.399971008300781250e+00,4.938167190551757812e+01,9.504419708251953125e+01,8.570876312255859375e+01,1.348483734130859375e+02,1.390293836593627930e+00,-3.285648727416992188e+01,-1.848617248535156250e+02,3.587152099609375000e+01,2.153522491455078125e+01,3.341534042358398438e+01
2.440000027418136597e-01,2.000000000000000000e+00,-2.100668907165527344e+01,-4.363484382629394531e+00,4.933551406860351562e+01,9.505039978027343750e+01,8.570574951171875000e+01,1.348416595458984375e+02,1.338767886161804199e+00,-3.285087203979492188e+01,-1.848563537597656250e+02,3.587461090087890625e+01,2.155324172973632812e+01,3.340887832641601562e+01
2.479999959468841553e-01,2.000000000000000000e+00,-2.106128501892089844e+01,-4.327006340026855469e+00,4.928936767578125000e+01,9.505660247802734375e+01,8.570272827148437500e+01,1.348349609375000000e+02,1.287253856658935547e+00,-3.284525680541992188e+01,-1.848509979248046875e+02,3.587770080566406250e+01,2.157125282287597656e+01,3.340241241455078125e+01
2.520000040531158447e-01,2.000000000000000000e+00,-2.111586570739746094e+01,-4.290536403656005859e+00,4.924322891235351562e+01,9.506280517578125000e+01,8.569971466064453125e+01,1.348282318115234375e+02,1.235751748085021973e+00,-3.283964538574218750e+01,-1.848456268310546875e+02,3.588078689575195312e+01,2.158925819396972656e+01,3.339595031738281250e+01
2.560000121593475342e-01,2.000000000000000000e+00,-2.117043685913085938e+01,-4.254075527191162109e+00,4.919710159301757812e+01,9.506900787353515625e+01,8.569670104980468750e+01,1.348215332031250000e+02,1.184261679649353027e+00,-3.283403396606445312e+01,-1.848402709960937500e+02,3.588387298583984375e+01,2.160726165771484375e+01,3.338948822021484375e+01
2.599999904632568359e-01,2.000000000000000000e+00,-2.122499465942382812e+01,-4.217622756958007812e+00,4.915098953247070312e+01,9.507520294189453125e+01,8.569369506835937500e+01,1.348148193359375000e+02,1.132783412933349609e+00,-3.282842254638671875e+01,-1.848348999023437500e+02,3.588696289062500000e+01,2.162525939941406250e+01,3.338302993774414062e+01
2.639999985694885254e-01,2.000000000000000000e+00,-2.127953910827636719e+01,-4.181178569793701172e+00,4.910488510131835938e+01,9.508140563964843750e+01,8.569068145751953125e+01,1.348081207275390625e+02,1.081317305564880371e+00,-3.282281494140625000e+01,-1.848295593261718750e+02,3.589004516601562500e+01,2.164325523376464844e+01,3.337657165527343750e+01
2.680000066757202148e-01,2.000000000000000000e+00,-2.133407020568847656e+01,-4.144742488861083984e+00,4.905878829956054688e+01,9.508760070800781250e+01,8.568766784667968750e+01,1.348014068603515625e+02,1.029862880706787109e+00,-3.281720733642578125e+01,-1.848242034912109375e+02,3.589313125610351562e+01,2.166124343872070312e+01,3.337011718750000000e+01
2.720000147819519043e-01,2.000000000000000000e+00,-2.138858985900878906e+01,-4.108314990997314453e+00,4.901270294189453125e+01,9.509379577636718750e+01,8.568466186523437500e+01,1.347946929931640625e+02,9.784203171730041504e-01,-3.281160354614257812e+01,-1.848188476562500000e+02,3.589621734619140625e+01,2.167923164367675781e+01,3.336366271972656250e+01
2.759999930858612061e-01,2.000000000000000000e+00,-2.144309806823730469e+01,-4.071896076202392578e+00,4.896662902832031250e+01,9.509999084472656250e+01,8.568164825439453125e+01,1.347880096435546875e+02,9.269896745681762695e-01,-3.280599975585937500e+01,-1.848134918212890625e+02,3.589929962158203125e+01,2.169721221923828125e+01,3.335721206665039062e+01
2.800000011920928955e-01,2.000000000000000000e+00,-2.149759292602539062e+01,-4.035484790802001953e+00,4.892057037353515625e+01,9.510617828369140625e+01,8.567863464355468750e+01,1.347812957763671875e+02,8.755707740783691406e-01,-3.280039596557617188e+01,-1.848081359863281250e+02,3.590238571166992188e+01,2.171519088745117188e+01,3.335076141357421875e+01
2.840000092983245850e-01,2.000000000000000000e+00,-2.155207443237304688e+01,-3.999082565307617188e+00,4.887451934814453125e+01,9.511237335205078125e+01,8.567563629150390625e+01,1.347746124267578125e+02,8.241636753082275391e-01,-3.279479598999023438e+01,-1.848027801513671875e+02,3.590546417236328125e+01,2.173316383361816406e+01,3.334431076049804688e+01
2.879999876022338867e-01,2.000000000000000000e+00,-2.160654449462890625e+01,-3.962688446044921875e+00,4.882847595214843750e+01,9.511856079101562500e+01,8.567263031005859375e+01,1.347679138183593750e+02,7.727683186531066895e-01,-3.278919601440429688e+01,-1.847974395751953125e+02,3.590854644775390625e+01,2.175113296508789062e+01,3.333786392211914062e+01
2.919999957084655762e-01,2.000000000000000000e+00,-2.166100120544433594e+01,-3.926302671432495117e+00,4.878244400024414062e+01,9.512474822998046875e+01,8.566961669921875000e+01,1.347612152099609375e+02,7.213847041130065918e-01,-3.278359603881835938e+01,-1.847920837402343750e+02,3.591162872314453125e+01,2.176909828186035156e+01,3.333141708374023438e+01
2.960000038146972656e-01,2.000000000000000000e+00,-2.171544456481933594e+01,-3.889925003051757812e+00,4.873642730712890625e+01,9.513092803955078125e+01,8.566661071777343750e+01,1.347545166015625000e+02,6.700127720832824707e-01,-3.277799987792968750e+01,-1.847867279052734375e+02,3.591470718383789062e+01,2.178705978393554688e+01,3.332497024536132812e+01
3.000000119209289551e-01,2.000000000000000000e+00,-2.176987648010253906e+01,-3.853556156158447266e+00,4.869041442871093750e+01,9.513711547851562500e+01,8.566360473632812500e+01,1.347478332519531250e+02,6.186525821685791016e-01,-3.277240371704101562e+01,-1.847813873291015625e+02,3.591778564453125000e+01,2.180501747131347656e+01,3.331852722167968750e+01
3.039999902248382568e-01,2.000000000000000000e+00,-2.182429504394531250e+01,-3.817195177078247070e+00,4.864441680908203125e+01,9.514330291748046875e+01,8.566059875488281250e+01,1.347411346435546875e+02,5.673040151596069336e-01,-3.276680755615234375e+01,-1.847760467529296875e+02,3.592086791992187500e+01,2.182296943664550781e+01,3.331208419799804688e+01
3.079999983310699463e-01,2.000000000000000000e+00,-2.187870216369628906e+01,-3.780842781066894531e+00,4.859843063354492188e+01,9.514948272705078125e+01,8.565760040283203125e+01,1.347344512939453125e+02,5.159671902656555176e-01,-3.276121520996093750e+01,-1.847706909179687500e+02,3.592394256591796875e+01,2.184091949462890625e+01,3.330564117431640625e+01
3.120000064373016357e-01,2.000000000000000000e+00,-2.193309783935546875e+01,-3.744498491287231445e+00,4.855244827270507812e+01,9.515566253662109375e+01,8.565459442138671875e+01,1.347277526855468750e+02,4.646420478820800781e-01,-3.275561904907226562e+01,-1.847653503417968750e+02,3.592702102661132812e+01,2.185886383056640625e+01,3.329920578002929688e+01
3.160000145435333252e-01,2.000000000000000000e+00,-2.198748016357421875e+01,-3.708162307739257812e+00,4.850648117065429688e+01,9.516184234619140625e+01,8.565158843994140625e+01,1.347210693359375000e+02,4.133285582065582275e-01,-3.275003051757812500e+01,-1.847600097656250000e+02,3.593009948730468750e+01,2.187680625915527344e+01,3.329276275634765625e+01
3.199999928474426270e-01,2.000000000000000000e+00,-2.204184913635253906e+01,-3.671834707260131836e+00,4.846052551269531250e+01,9.516802215576171875e+01,8.564859008789062500e+01,1.347143859863281250e+02,3.620267510414123535e-01,-3.274443817138671875e+01,-1.847546691894531250e+02,3.593317413330078125e+01,2.189474105834960938e+01,3.328633117675781250e+01
3.240000009536743164e-01,2.000000000000000000e+00,-2.209620666503906250e+01,-3.635515451431274414e+00,4.841457748413085938e+01,9.517420196533203125e+01,8.564558410644531250e+01,1.347077026367187500e+02,3.107366561889648438e-01,-3.273884963989257812e+01,-1.847493286132812500e+02,3.593624877929687500e+01,2.191267395019531250e+01,3.327989196777343750e+01
3.280000090599060059e-01,2.000000000000000000e+00,-2.215055084228515625e+01,-3.599204063415527344e+00,4.836864089965820312e+01,9.518037414550781250e+01,8.564258575439453125e+01,1.347010192871093750e+02,2.594582438468933105e-01,-3.273326110839843750e+01,-1.847439880371093750e+02,3.593932342529296875e+01,2.193060302734375000e+01,3.327345657348632812e+01
3.319999873638153076e-01,2.000000000000000000e+00,-2.220488548278808594e+01,-3.562901258468627930e+00,4.832271575927734375e+01,9.518654632568359375e+01,8.563958740234375000e+01,1.346943359375000000e+02,2.081914842128753662e-01,-3.272767639160156250e+01,-1.847386627197265625e+02,3.594239425659179688e+01,2.194852828979492188e+01,3.326702880859375000e+01
3.359999954700469971e-01,2.000000000000000000e+00,-2.225920677185058594e+01,-3.526606559753417969e+00,4.827679824829101562e+01,9.519271850585937500e+01,8.563658905029296875e+01,1.346876525878906250e+02,1.569363772869110107e-01,-3.272209167480468750e+01,-1.847333221435546875e+02,3.594546890258789062e+01,2.196644783020019531e+01,3.326059722900390625e+01
3.400000035762786865e-01,2.000000000000000000e+00,-2.231351280212402344e+01,-3.490320205688476562e+00,4.823089218139648438e+01,9.519889068603515625e+01,8.563359069824218750e+01,1.346809844970703125e+02,1.056929454207420349e-01,-3.271650695800781250e+01,-1.847279815673828125e+02,3.594854354858398438e+01,2.198436546325683594e+01,3.325416564941406250e+01
3.440000116825103760e-01,2.000000000000000000e+00,-2.236780929565429688e+01,-3.454041957855224609e+00,4.818499755859375000e+01,9.520505523681640625e+01,8.563059234619140625e+01,1.346743164062500000e+02,5.446116998791694641e-02,-3.271092224121093750e+01,-1.847226409912109375e+02,3.595161437988281250e+01,2.200227737426757812e+01,3.324773788452148438e+01
3.479999899864196777e-01,2.000000000000000000e+00,-2.242209243774414062e+01,-3.417772054672241211e+00,4.813911437988281250e+01,9.521122741699218750e+01,8.562759399414062500e+01,1.346676330566406250e+02,3.241055179387331009e-03,-3.270534515380859375e+01,-1.847173156738281250e+02,3.595468521118164062e+01,2.202018737792968750e+01,3.324131011962890625e+01
3.519999980926513672e-01,2.000000000000000000e+00,-2.247636413574218750e+01,-3.381510496139526367e+00,4.809324264526367188e+01,9.521739196777343750e+01,8.562459564208984375e+01,1.346609497070312500e+02,-4.796740785241127014e-02,-3.269976425170898438e+01,-1.847119750976562500e+02,3.595775604248046875e+01,2.203808975219726562e+01,3.323488998413085938e+01
3.560000061988830566e-01,2.000000000000000000e+00,-2.253062248229980469e+01,-3.345257043838500977e+00,4.804737472534179688e+01,9.522356414794921875e+01,8.562160491943359375e+01,1.346542816162109375e+02,-9.916422516107559204e-02,-3.269418716430664062e+01,-1.847066497802734375e+02,3.596082687377929688e+01,2.205599021911621094e+01,3.322846603393554688e+01
3.600000143051147461e-01,2.000000000000000000e+00,-2.258486747741699219e+01,-3.309011936187744141e+00,4.800152587890625000e+01,9.522972106933593750e+01,8.561860656738281250e+01,1.346476135253906250e+02,-1.503493934869766235e-01,-3.268860626220703125e+01,-1.847013244628906250e+02,3.596389389038085938e+01,2.207388687133789062e+01,3.322204208374023438e+01
3.639999926090240479e-01,2.000000000000000000e+00,-2.263910102844238281e+01,-3.272774934768676758e+00,4.795568084716796875e+01,9.523588562011718750e+01,8.561561584472656250e+01,1.346409454345703125e+02,-2.015229165554046631e-01,-3.268303298950195312e+01,-1.846959991455078125e+02,3.596696472167968750e+01,2.209177970886230469e+01,3.321562194824218750e+01
3.680000007152557373e-01,2.000000000000000000e+00,-2.269332504272460938e+01,-3.236546516418457031e+00,4.790985107421875000e+01,9.524204254150390625e+01,8.561262512207031250e+01,1.346342926025390625e+02,-2.526848018169403076e-01,-3.267745590209960938e+01,-1.846906738281250000e+02,3.597003173828125000e+01,2.210966682434082031e+01,3.320920181274414062e+01
3.720000088214874268e-01,2.000000000000000000e+00,-2.274753189086914062e+01,-3.200325965881347656e+00,4.786402893066406250e+01,9.524820709228515625e+01,8.560962677001953125e+01,1.346276245117187500e+02,-3.038350641727447510e-01,-3.267188262939453125e+01,-1.846853332519531250e+02,3.597309875488281250e+01,2.212755012512207031e+01,3.320278549194335938e+01
3.759999871253967285e-01,2.000000000000000000e+00,-2.280172920227050781e+01,-3.164113759994506836e+00,4.781821823120117188e+01,9.525436401367187500e+01,8.560663604736328125e+01,1.346209564208984375e+02,-3.549736738204956055e-01,-3.266630935668945312e+01,-1.846800231933593750e+02,3.597616577148437500e+01,2.214542961120605469e+01,3.319636917114257812e+01
3.799999952316284180e-01,2.000000000000000000e+00,-2.285591316223144531e+01,-3.127909898757934570e+00,4.777241516113281250e+01,9.526052093505859375e+01,8.560364532470703125e+01,1.346142883300781250e+02,-4.061006903648376465e-01,-3.266073989868164062e+01,-1.846746978759765625e+02,3.597922897338867188e+01,2.216330718994140625e+01,3.318995666503906250e+01
3.840000033378601074e-01,2.000000000000000000e+00,-2.291008758544921875e+01,-3.091714143753051758e+00,4.772662734985351562e+01,9.526667022705078125e+01,8.560065460205078125e+01,1.346076354980468750e+02,-4.572160840034484863e-01,-3.265517044067382812e+01,-1.846693725585937500e+02,3.598229598999023438e+01,2.218117713928222656e+01,3.318354034423828125e+01
3.880000114440917969e-01,2.000000000000000000e+00,-2.296424674987792969e+01,-3.055526494979858398e+00,4.768084335327148438e+01,9.527282714843750000e+01,8.559765625000000000e+01,1.346009674072265625e+02,-5.083197951316833496e-01,-3.264960098266601562e+01,-1.846640625000000000e+02,3.598535919189453125e+01,2.219904518127441406e+01,3.317712783813476562e+01
3.919999897480010986e-01,2.000000000000000000e+00,-2.301839256286621094e+01,-3.019347429275512695e+00,4.763507461547851562e+01,9.527898406982421875e+01,8.559467315673828125e+01,1.345943145751953125e+02,-5.594119429588317871e-01,-3.264403152465820312e+01,-1.846587371826171875e+02,3.598842239379882812e+01,2.221690940856933594e+01,3.317071914672851562e+01
3.959999978542327881e-01,2.000000000000000000e+00,-2.307252883911132812e+01,-2.983176231384277344e+00,4.758931732177734375e+01,9.528513336181640625e+01,8.559168243408203125e+01,1.345876464843750000e+02,-6.104924678802490234e-01,-3.263846969604492188e+01,-1.846534118652343750e+02,3.599148559570312500e+01,2.223476982116699219e+01,3.316430664062500000e+01
4.000000059604644775e-01,2.000000000000000000e+00,-2.312665176391601562e+01,-2.947013616561889648e+00,4.754356765747070312e+01,9.529128265380859375e+01,8.558869934082031250e+01,1.345809936523437500e+02,-6.615613698959350586e-01,-3.263290405273437500e+01,-1.846481018066406250e+02,3.599454498291015625e+01,2.225262260437011719e+01,3.315790176391601562e+01
4.040000140666961670e-01,2.000000000000000000e+00,-2.318076324462890625e+01,-2.910858869552612305e+00,4.749782943725585938e+01,9.529743194580078125e+01,8.558570861816406250e+01,1.345743408203125000e+02,-7.126186490058898926e-01,-3.262733840942382812e+01,-1.846427917480468750e+02,3.599760818481445312e+01,2.227047538757324219e+01,3.315149307250976562e+01
4.079999923706054688e-01,2.000000000000000000e+00,-2.323486137390136719e+01,-2.874712467193603516e+00,4.745210266113281250e+01,9.530357360839843750e+01,8.558272552490234375e+01,1.345676879882812500e+02,-7.636643648147583008e-01,-3.262177658081054688e+01,-1.846374664306640625e+02,3.600066757202148438e+01,2.228832244873046875e+01,3.314509201049804688e+01
4.120000004768371582e-01,2.000000000000000000e+00,-2.328894805908203125e+01,-2.838574409484863281e+00,4.740638351440429688e+01,9.530972290039062500e+01,8.557973480224609375e+01,1.345610351562500000e+02,-8.146984577178955078e-01,-3.261621475219726562e+01,-1.846321563720703125e+02,3.600372695922851562e+01,2.230616760253906250e+01,3.313868713378906250e+01
4.160000085830688477e-01,2.000000000000000000e+00,-2.334302139282226562e+01,-2.802444458007812500e+00,4.736067581176757812e+01,9.531587219238281250e+01,8.557675170898437500e+01,1.345543975830078125e+02,-8.657209873199462891e-01,-3.261065673828125000e+01,-1.846268463134765625e+02,3.600678634643554688e+01,2.232400512695312500e+01,3.313228988647460938e+01
4.199999868869781494e-01,2.000000000000000000e+00,-2.339708328247070312e+01,-2.766322612762451172e+00,4.731498336791992188e+01,9.532201385498046875e+01,8.557376861572265625e+01,1.345477447509765625e+02,-9.167318940162658691e-01,-3.260509872436523438e+01,-1.846215362548828125e+02,3.600984191894531250e+01,2.234184074401855469e+01,3.312588882446289062e+01
4.239999949932098389e-01,2.000000000000000000e+00,-2.345113182067871094e+01,-2.730209112167358398e+00,4.726929473876953125e+01,9.532815551757812500e+01,8.557078552246093750e+01,1.345411071777343750e+02,-9.677311778068542480e-01,-3.259954071044921875e+01,-1.846162261962890625e+02,3.601290512084960938e+01,2.235967063903808594e+01,3.311948776245117188e+01
4.280000030994415283e-01,2.000000000000000000e+00,-2.350516891479492188e+01,-2.694103956222534180e+00,4.722361755371093750e+01,9.533428955078125000e+01,8.556779479980468750e+01,1.345344543457031250e+02,-1.018718838691711426e+00,-3.259398269653320312e+01,-1.846109161376953125e+02,3.601596069335937500e+01,2.237749862670898438e+01,3.311309051513671875e+01
4.320000112056732178e-01,2.000000000000000000e+00,-2.355919456481933594e+01,-2.658006668090820312e+00,4.717795181274414062e+01,9.534043121337890625e+01,8.556481170654296875e+01,1.345278167724609375e+02,-1.069694995880126953e+00,-3.258843231201171875e+01,-1.846056060791015625e+02,3.601901626586914062e+01,2.239532089233398438e+01,3.310669708251953125e+01
4.359999895095825195e-01,2.000000000000000000e+00,-2.361320686340332031e+01,-2.621917724609375000e+00,4.713229751586914062e+01,9.534656524658203125e+01,8.556183624267578125e+01,1.345211791992187500e+02,-1.120659708976745605e+00,-3.258287811279296875e+01,-1.846002960205078125e+02,3.602206802368164062e+01,2.241314125061035156e+01,3.310030364990234375e+01
4.399999976158142090e-01,2.000000000000000000e+00,-2.366720771789550781e+01,-2.585837125778198242e+00,4.708665084838867188e+01,9.535270690917968750e+01,8.555885314941406250e+01,1.345145416259765625e+02,-1.171612620353698730e+00,-3.257732391357421875e+01,-1.845950012207031250e+02,3.602512741088867188e+01,2.243095588684082031e+01,3.309391021728515625e+01
4.440000057220458984e-01,2.000000000000000000e+00,-2.372119522094726562e+01,-2.549764394760131836e+00,4.704101562500000000e+01,9.535884094238281250e+01,8.555587005615234375e+01,1.345079040527343750e+02,-1.222554087638854980e+00,-3.257177352905273438e+01,-1.845896911621093750e+02,3.602817916870117188e+01,2.244876670837402344e+01,3.308751678466796875e+01
4.480000138282775879e-01,2.000000000000000000e+00,-2.377516937255859375e+01,-2.513700008392333984e+00,4.699539566040039062e+01,9.536497497558593750e+01,8.555288696289062500e+01,1.345012664794921875e+02,-1.273483991622924805e+00,-3.256622314453125000e+01,-1.845843963623046875e+02,3.603123474121093750e+01,2.246657371520996094e+01,3.308112716674804688e+01
4.519999921321868896e-01,2.000000000000000000e+00,-2.382913398742675781e+01,-2.477643966674804688e+00,4.694977951049804688e+01,9.537110900878906250e+01,8.554991149902343750e+01,1.344946289062500000e+02,-1.324402332305908203e+00,-3.256067657470703125e+01,-1.845790863037109375e+02,3.603428649902343750e+01,2.248437690734863281e+01,3.307473754882812500e+01
4.560000002384185791e-01,2.000000000000000000e+00,-2.388308525085449219e+01,-2.441595792770385742e+00,4.690417480468750000e+01,9.537723541259765625e+01,8.554692840576171875e+01,1.344879913330078125e+02,-1.375308990478515625e+00,-3.255512619018554688e+01,-1.845737915039062500e+02,3.603733825683593750e+01,2.250217437744140625e+01,3.306835174560546875e+01
4.600000083446502686e-01,2.000000000000000000e+00,-2.393702507019042969e+01,-2.405556201934814453e+00,4.685858154296875000e+01,9.538336181640625000e+01,8.554395294189453125e+01,1.344813537597656250e+02,-1.426204085350036621e+00,-3.254958343505859375e+01,-1.845684814453125000e+02,3.604039001464843750e+01,2.251996803283691406e+01,3.306196594238281250e+01
4.639999866485595703e-01,2.000000000000000000e+00,-2.399095153808593750e+01,-2.369524478912353516e+00,4.681299972534179688e+01,9.538949584960937500e+01,8.554097747802734375e+01,1.344747314453125000e+02,-1.477087736129760742e+00,-3.254403686523437500e+01,-1.845632019042968750e+02,3.604344177246093750e+01,2.253775978088378906e+01,3.305558013916015625e+01
4.679999947547912598e-01,2.000000000000000000e+00,-2.404486465454101562e+01,-2.333501100540161133e+00,4.676742553710937500e+01,9.539561462402343750e+01,8.553799438476562500e+01,1.344680938720703125e+02,-1.527959823608398438e+00,-3.253849411010742188e+01,-1.845579071044921875e+02,3.604648971557617188e+01,2.255554771423339844e+01,3.304919815063476562e+01
4.720000028610229492e-01,2.000000000000000000e+00,-2.409876632690429688e+01,-2.297485589981079102e+00,4.672186660766601562e+01,9.540174102783203125e+01,8.553501892089843750e+01,1.344614715576171875e+02,-1.578820347785949707e+00,-3.253295135498046875e+01,-1.845525970458984375e+02,3.604954147338867188e+01,2.257332992553710938e+01,3.304281616210937500e+01
4.760000109672546387e-01,2.000000000000000000e+00,-2.415265655517578125e+01,-2.261478662490844727e+00,4.667631530761718750e+01,9.540786743164062500e+01,8.553205108642578125e+01,1.344548492431640625e+02,-1.629669427871704102e+00,-3.252741241455078125e+01,-1.845473175048828125e+02,3.605258941650390625e+01,2.259110832214355469e+01,3.303643798828125000e+01
4.799999892711639404e-01,2.000000000000000000e+00,-2.420653533935546875e+01,-2.225479602813720703e+00,4.663077163696289062e+01,9.541398620605468750e+01,8.552906799316406250e+01,1.344482116699218750e+02,-1.680506825447082520e+00,-3.252187347412109375e+01,-1.845420074462890625e+02,3.605563735961914062e+01,2.260888290405273438e+01,3.303005599975585938e+01
4.839999973773956299e-01,2.000000000000000000e+00,-2.426040077209472656e+01,-2.189489126205444336e+00,4.658523941040039062e+01,9.542010498046875000e+01,8.552610015869140625e+01,1.344415893554687500e+02,-1.731332659721374512e+00,-3.251633453369140625e+01,-1.845367279052734375e+02,3.605868530273437500e+01,2.262665367126464844e+01,3.302368164062500000e+01
4.880000054836273193e-01,2.000000000000000000e+00,-2.431425476074218750e+01,-2.153506278991699219e+00,4.653972244262695312e+01,9.542622375488281250e+01,8.552312469482421875e+01,1.344349822998046875e+02,-1.782147049903869629e+00,-3.251079559326171875e+01,-1.845314483642578125e+02,3.606173324584960938e+01,2.264442062377929688e+01,3.301730728149414062e+01
4.920000135898590088e-01,2.000000000000000000e+00,-2.436809539794921875e+01,-2.117532014846801758e+00,4.649420928955078125e+01,9.543235015869140625e+01,8.552014923095703125e+01,1.344283599853515625e+02,-1.832949995994567871e+00,-3.250526428222656250e+01,-1.845261383056640625e+02,3.606477737426757812e+01,2.266218185424804688e+01,3.301093292236328125e+01
4.959999918937683105e-01,2.000000000000000000e+00,-2.442192459106445312e+01,-2.081565618515014648e+00,4.644870758056640625e+01,9.543846130371093750e+01,8.551718139648437500e+01,1.344217376708984375e+02,-1.883741259574890137e+00,-3.249972915649414062e+01,-1.845208587646484375e+02,3.606782531738281250e+01,2.267994117736816406e+01,3.300455856323242188e+01
5.000000000000000000e-01,2.000000000000000000e+00,-2.447574043273925781e+01,-2.045607805252075195e+00,4.640322113037109375e+01,9.544457244873046875e+01,8.551420593261718750e+01,1.344151153564453125e+02,-1.934521079063415527e+00,-3.249419403076171875e+01,-1.845155639648437500e+02,3.607086944580078125e+01,2.269769477844238281e+01,3.299818801879882812e+01
5.040000081062316895e-01,2.000000000000000000e+00,-2.452954483032226562e+01,-2.009657621383666992e+00,4.635774230957031250e+01,9.545069122314453125e+01,8.551123809814453125e+01,1.344085083007812500e+02,-1.985289216041564941e+00,-3.248866271972656250e+01,-1.845102844238281250e+02,3.607390975952148438e+01,2.271544647216796875e+01,3.299181747436523438e+01
5.080000162124633789e-01,2.000000000000000000e+00,-2.458333587646484375e+01,-1.973715901374816895e+00,4.631226730346679688e+01,9.545680236816406250e+01,8.550826263427734375e+01,1.344019012451171875e+02,-2.036046028137207031e+00,-3.248313140869140625e+01,-1.845050048828125000e+02,3.607695388793945312e+01,2.273319244384765625e+01,3.298545074462890625e+01
5.120000243186950684e-01,2.000000000000000000e+00,-2.463711738586425781e+01,-1.937782287597656250e+00,4.626681137084960938e+01,9.546291351318359375e+01,8.550530242919921875e+01,1.343952789306640625e+02,-2.086791515350341797e+00,-3.247760009765625000e+01,-1.844997253417968750e+02,3.607999801635742188e+01,2.275093269348144531e+01,3.297908401489257812e+01
5.159999728202819824e-01,2.000000000000000000e+00,-2.469088554382324219e+01,-1.901856780052185059e+00,4.622136306762695312e+01,9.546902465820312500e+01,8.550232696533203125e+01,1.343886718750000000e+02,-2.137525081634521484e+00,-3.247207260131835938e+01,-1.844944305419921875e+02,3.608303833007812500e+01,2.276867294311523438e+01,3.297271728515625000e+01
5.199999809265136719e-01,2.000000000000000000e+00,-2.474464225769042969e+01,-1.865939378738403320e+00,4.617592620849609375e+01,9.547512817382812500e+01,8.549935913085937500e+01,1.343820648193359375e+02,-2.188247203826904297e+00,-3.246654510498046875e+01,-1.844891662597656250e+02,3.608608245849609375e+01,2.278640747070312500e+01,3.296635437011718750e+01
5.239999890327453613e-01,2.000000000000000000e+00,-2.479838562011718750e+01,-1.830030322074890137e+00,4.613049697875976562e+01,9.548123931884765625e+01,8.549639892578125000e+01,1.343754425048828125e+02,-2.238958120346069336e+00,-3.246102142333984375e+01,-1.844838714599609375e+02,3.608912277221679688e+01,2.280413818359375000e+01,3.295999526977539062e+01
5.279999971389770508e-01,2.000000000000000000e+00,-2.485211563110351562e+01,-1.794129133224487305e+00,4.608507919311523438e+01,9.548734283447265625e+01,8.549343109130859375e+01,1.343688354492187500e+02,-2.289657115936279297e+00,-3.245549392700195312e+01,-1.844786071777343750e+02,3.609215927124023438e+01,2.282186698913574219e+01,3.295363235473632812e+01
5.320000052452087402e-01,2.000000000000000000e+00,-2.490583610534667969e+01,-1.758236289024353027e+00,4.603967285156250000e+01,9.549344635009765625e+01,8.549046325683593750e+01,1.343622436523437500e+02,-2.340345144271850586e+00,-3.244997406005859375e+01,-1.844733123779296875e+02,3.609519958496093750e+01,2.283959007263183594e+01,3.294727325439453125e+01
5.360000133514404297e-01,2.000000000000000000e+00,-2.495954132080078125e+01,-1.722351431846618652e+00,4.599427413940429688e+01,9.549954986572265625e+01,8.548749542236328125e+01,1.343556213378906250e+02,-2.391021251678466797e+00,-3.244445037841796875e+01,-1.844680480957031250e+02,3.609823989868164062e+01,2.285730934143066406e+01,3.294091415405273438e+01
5.400000214576721191e-01,2.000000000000000000e+00,-2.501323699951171875e+01,-1.686474800109863281e+00,4.594889068603515625e+01,9.550564575195312500e+01,8.548452758789062500e+01,1.343490295410156250e+02,-2.441686153411865234e+00,-3.243893051147460938e+01,-1.844627685546875000e+02,3.610127639770507812e+01,2.287502288818359375e+01,3.293455886840820312e+01
5.440000295639038086e-01,2.000000000000000000e+00,-2.506692123413085938e+01,-1.650606274604797363e+00,4.590351104736328125e+01,9.551174926757812500e+01,8.548156738281250000e+01,1.343424377441406250e+02,-2.492339372634887695e+00,-3.243341064453125000e+01,-1.844575042724609375e+02,3.610431289672851562e+01,2.289273262023925781e+01,3.292820358276367188e+01
5.479999780654907227e-01,2.000000000000000000e+00,-2.512059020996093750e+01,-1.614745855331420898e+00,4.585814666748046875e+01,9.551784515380859375e+01,8.547859954833984375e+01,1.343358306884765625e+02,-2.542981386184692383e+00,-3.242789459228515625e+01,-1.844522247314453125e+02,3.610734939575195312e+01,2.291043853759765625e+01,3.292184829711914062e+01
5.519999861717224121e-01,2.000000000000000000e+00,-2.517424964904785156e+01,-1.578893542289733887e+00,4.581278991699218750e+01,9.552394866943359375e+01,8.547564697265625000e+01,1.343292388916015625e+02,-2.593611478805541992e+00,-3.242237472534179688e+01,-1.844469451904296875e+02,3.611038589477539062e+01,2.292814064025878906e+01,3.291549301147460938e+01
5.559999942779541016e-01,2.000000000000000000e+00,-2.522789573669433594e+01,-1.543049454689025879e+00,4.576744461059570312e+01,9.553003692626953125e+01,8.547267913818359375e+01,1.343226318359375000e+02,-2.644230604171752930e+00,-3.241685867309570312e+01,-1.844416809082031250e+02,3.611341857910156250e+01,2.294583892822265625e+01,3.290914154052734375e+01
5.600000023841857910e-01,2.000000000000000000e+00,-2.528153038024902344e+01,-1.507213354110717773e+00,4.572211074829101562e+01,9.553613281250000000e+01,8.546971893310546875e+01,1.343160400390625000e+02,-2.694837808609008789e+00,-3.241134643554687500e+01,-1.844364166259765625e+02,3.611645507812500000e+01,2.296353340148925781e+01,3.290279388427734375e+01
5.640000104904174805e-01,2.000000000000000000e+00,-2.533515357971191406e+01,-1.471385478973388672e+00,4.567678451538085938e+01,9.554222869873046875e+01,8.546675872802734375e+01,1.343094635009765625e+02,-2.745433807373046875e+00,-3.240583419799804688e+01,-1.844311523437500000e+02,3.611948776245117188e+01,2.298122406005859375e+01,3.289644622802734375e+01
5.680000185966491699e-01,2.000000000000000000e+00,-2.538876152038574219e+01,-1.435565710067749023e+00,4.563146972656250000e+01,9.554831695556640625e+01,8.546379852294921875e+01,1.343028564453125000e+02,-2.796018123626708984e+00,-3.240032196044921875e+01,-1.844258880615234375e+02,3.612252044677734375e+01,2.299891090393066406e+01,3.289009857177734375e+01
5.720000267028808594e-01,2.000000000000000000e+00,-2.544235992431640625e+01,-1.399754047393798828e+00,4.558616638183593750e+01,9.555441284179687500e+01,8.546083831787109375e+01,1.342962799072265625e+02,-2.846591234207153320e+00,-3.239480972290039062e+01,-1.844206085205078125e+02,3.612555313110351562e+01,2.301659202575683594e+01,3.288375473022460938e+01
5.759999752044677734e-01,2.000000000000000000e+00,-2.549594497680664062e+01,-1.363950490951538086e+00,4.554087066650390625e+01,9.556049346923828125e+01,8.545787811279296875e+01,1.342896728515625000e+02,-2.897152900695800781e+00,-3.238930130004882812e+01,-1.844153594970703125e+02,3.612858581542968750e+01,2.303426933288574219e+01,3.287741088867187500e+01
5.799999833106994629e-01,2.000000000000000000e+00,-2.554951858520507812e+01,-1.328155040740966797e+00,4.549558639526367188e+01,9.556658935546875000e+01,8.545492553710937500e+01,1.342830963134765625e+02,-2.947702884674072266e+00,-3.238379287719726562e+01,-1.844100799560546875e+02,3.613161468505859375e+01,2.305194282531738281e+01,3.287106704711914062e+01
5.839999914169311523e-01,2.000000000000000000e+00,-2.560308074951171875e+01,-1.292367696762084961e+00,4.545031356811523438e+01,9.557266998291015625e+01,8.545196533203125000e+01,1.342765045166015625e+02,-2.998241662979125977e+00,-3.237828445434570312e+01,-1.844048309326171875e+02,3.613464355468750000e+01,2.306961250305175781e+01,3.286473083496093750e+01
5.879999995231628418e-01,2.000000000000000000e+00,-2.565662956237792969e+01,-1.256588459014892578e+00,4.540504837036132812e+01,9.557875823974609375e+01,8.544900512695312500e+01,1.342699279785156250e+02,-3.048768758773803711e+00,-3.237277984619140625e+01,-1.843995666503906250e+02,3.613767242431640625e+01,2.308728027343750000e+01,3.285838699340820312e+01
5.920000076293945312e-01,2.000000000000000000e+00,-2.571016502380371094e+01,-1.220817208290100098e+00,4.535979461669921875e+01,9.558483886718750000e+01,8.544605255126953125e+01,1.342633361816406250e+02,-3.099284648895263672e+00,-3.236727523803710938e+01,-1.843943023681640625e+02,3.614070510864257812e+01,2.310494232177734375e+01,3.285205078125000000e+01
5.960000157356262207e-01,2.000000000000000000e+00,-2.576369094848632812e+01,-1.185054183006286621e+00,4.531455230712890625e+01,9.559091949462890625e+01,8.544309997558593750e+01,1.342567596435546875e+02,-3.149788856506347656e+00,-3.236177062988281250e+01,-1.843890533447265625e+02,3.614373397827148438e+01,2.312260055541992188e+01,3.284571456909179688e+01
6.000000238418579102e-01,2.000000000000000000e+00,-2.581720352172851562e+01,-1.149299144744873047e+00,4.526932144165039062e+01,9.559700012207031250e+01,8.544013977050781250e+01,1.342501831054687500e+02,-3.200281858444213867e+00,-3.235626983642578125e+01,-1.843837890625000000e+02,3.614675903320312500e+01,2.314025497436523438e+01,3.283937835693359375e+01
6.039999723434448242e-01,2.000000000000000000e+00,-2.587070465087890625e+01,-1.113552331924438477e+00,4.522409820556640625e+01,9.560308074951171875e+01,8.543719482421875000e+01,1.342436065673828125e+02,-3.250763177871704102e+00,-3.235076904296875000e+01,-1.843785400390625000e+02,3.614978790283203125e+01,2.315790367126464844e+01,3.283304595947265625e+01
6.079999804496765137e-01,2.000000000000000000e+00,-2.592419242858886719e+01,-1.077813625335693359e+00,4.517888259887695312e+01,9.560916137695312500e+01,8.543423461914062500e+01,1.342370300292968750e+02,-3.301233291625976562e+00,-3.234526824951171875e+01,-1.843732757568359375e+02,3.615281295776367188e+01,2.317554855346679688e+01,3.282671356201171875e+01
6.119999885559082031e-01,2.000000000000000000e+00,-2.597767066955566406e+01,-1.042082786560058594e+00,4.513368225097656250e+01,9.561523437500000000e+01,8.543128204345703125e+01,1.342304382324218750e+02,-3.351691961288452148e+00,-3.233977127075195312e+01,-1.843680419921875000e+02,3.615583801269531250e+01,2.319319152832031250e+01,3.282038116455078125e+01
6.159999966621398926e-01,2.000000000000000000e+00,-2.603113365173339844e+01,-1.006360173225402832e+00,4.508848953247070312e+01,9.562130737304687500e+01,8.542832946777343750e+01,1.342238769531250000e+02,-3.402139186859130859e+00,-3.233427429199218750e+01,-1.843627777099609375e+02,3.615886306762695312e+01,2.321083068847656250e+01,3.281405258178710938e+01
6.200000047683715820e-01,2.000000000000000000e+00,-2.608458709716796875e+01,-9.706455469131469727e-01,4.504330825805664062e+01,9.562738037109375000e+01,8.542538452148437500e+01,1.342173004150390625e+02,-3.452574968338012695e+00,-3.232877731323242188e+01,-1.843575286865234375e+02,3.616188812255859375e+01,2.322846412658691406e+01,3.280772399902343750e+01
6.240000128746032715e-01,2.000000000000000000e+00,-2.613802719116210938e+01,-9.349389076232910156e-01,4.499813842773437500e+01,9.563345336914062500e+01,8.542243194580078125e+01,1.342107391357421875e+02,-3.502999305725097656e+00,-3.232328414916992188e+01,-1.843522644042968750e+02,3.616490936279296875e+01,2.324609565734863281e+01,3.280139541625976562e+01
6.280000209808349609e-01,2.000000000000000000e+00,-2.619145584106445312e+01,-8.992404341697692871e-01,4.495297622680664062e+01,9.563952636718750000e+01,8.541947937011718750e+01,1.342041625976562500e+02,-3.553412437438964844e+00,-3.231779098510742188e+01,-1.843470306396484375e+02,3.616793060302734375e+01,2.326371955871582031e+01,3.279507064819335938e+01
6.320000290870666504e-01,2.000000000000000000e+00,-2.624487304687500000e+01,-8.635498881340026855e-01,4.490782546997070312e+01,9.564559936523437500e+01,8.541652679443359375e+01,1.341975860595703125e+02,-3.603814125061035156e+00,-3.231229782104492188e+01,-1.843417816162109375e+02,3.617095565795898438e+01,2.328134155273437500e+01,3.278874969482421875e+01
6.359999775886535645e-01,2.000000000000000000e+00,-2.629827690124511719e+01,-8.278673887252807617e-01,4.486268234252929688e+01,9.565166473388671875e+01,8.541358184814453125e+01,1.341910247802734375e+02,-3.654204607009887695e+00,-3.230680847167968750e+01,-1.843365325927734375e+02,3.617397689819335938e+01,2.329895973205566406e+01,3.278242492675781250e+01
6.399999856948852539e-01,2.000000000000000000e+00,-2.635166931152343750e+01,-7.921928167343139648e-01,4.481755447387695312e+01,9.565773010253906250e+01,8.541063690185546875e+01,1.341844635009765625e+02,-3.704583644866943359e+00,-3.230131912231445312e+01,-1.843312835693359375e+02,3.617699432373046875e+01,2.331657600402832031e+01,3.277610397338867188e+01
6.439999938011169434e-01,2.000000000000000000e+00,-2.640505027770996094e+01,-7.565263509750366211e-01,4.477243423461914062e+01,9.566379547119140625e+01,8.540768432617187500e+01,1.341778869628906250e+02,-3.754951238632202148e+00,-3.229582977294921875e+01,-1.843260498046875000e+02,3.618001556396484375e+01,2.333418464660644531e+01,3.276978683471679688e+01
6.480000019073486328e-01,2.000000000000000000e+00,-2.645841789245605469e+01,-7.208677530288696289e-01,4.472732162475585938e+01,9.566986083984375000e+01,8.540473937988281250e+01,1.341713409423828125e+02,-3.805307626724243164e+00,-3.229034042358398438e+01,-1.843208007812500000e+02,3.618303680419921875e+01,2.335179138183593750e+01,3.276346969604492188e+01
6.520000100135803223e-01,2.000000000000000000e+00,-2.651177597045898438e+01,-6.852172017097473145e-01,4.468222045898437500e+01,9.567592620849609375e+01,8.540179443359375000e+01,1.341647796630859375e+02,-3.855653047561645508e+00,-3.228485488891601562e+01,-1.843155670166015625e+02,3.618605422973632812e+01,2.336939430236816406e+01,3.275714874267578125e+01
6.560000181198120117e-01,2.000000000000000000e+00,-2.656512069702148438e+01,-6.495745182037353516e-01,4.463713073730468750e+01,9.568198394775390625e+01,8.539884948730468750e+01,1.341582183837890625e+02,-3.905987262725830078e+00,-3.227937316894531250e+01,-1.843103179931640625e+02,3.618907165527343750e+01,2.338699150085449219e+01,3.275083541870117188e+01
6.600000262260437012e-01,2.000000000000000000e+00,-2.661845397949218750e+01,-6.139398217201232910e-01,4.459204864501953125e+01,9.568804168701171875e+01,8.539590454101562500e+01,1.341516723632812500e+02,-3.956309795379638672e+00,-3.227388763427734375e+01,-1.843050689697265625e+02,3.619208908081054688e+01,2.340458679199218750e+01,3.274452209472656250e+01
6.639999747276306152e-01,2.000000000000000000e+00,-2.667177391052246094e+01,-5.783130526542663574e-01,4.454697799682617188e+01,9.569409942626953125e+01,8.539295959472656250e+01,1.341451110839843750e+02,-4.006621360778808594e+00,-3.226840591430664062e+01,-1.842998504638671875e+02,3.619510650634765625e+01,2.342217636108398438e+01,3.273820877075195312e+01
6.679999828338623047e-01,2.000000000000000000e+00,-2.672508430480957031e+01,-5.426941514015197754e-01,4.450191879272460938e+01,9.570015716552734375e+01,8.539001464843750000e+01,1.341385498046875000e+02,-4.056922435760498047e+00,-3.226292419433593750e+01,-1.842946166992187500e+02,3.619812011718750000e+01,2.343976402282714844e+01,3.273189926147460938e+01
6.719999909400939941e-01,2.000000000000000000e+00,-2.677838134765625000e+01,-5.070831775665283203e-01,4.445686721801757812e+01,9.570621490478515625e+01,8.538706970214843750e+01,1.341319885253906250e+02,-4.107211589813232422e+00,-3.225744628906250000e+01,-1.842893676757812500e+02,3.620113754272460938e+01,2.345734786987304688e+01,3.272558975219726562e+01
6.759999990463256836e-01,2.000000000000000000e+00,-2.683166503906250000e+01,-4.714800715446472168e-01,4.441182708740234375e+01,9.571226501464843750e+01,8.538413238525390625e+01,1.341254425048828125e+02,-4.157490253448486328e+00,-3.225196456909179688e+01,-1.842841339111328125e+02,3.620415115356445312e+01,2.347492599487304688e+01,3.271928024291992188e+01
6.800000071525573730e-01,2.000000000000000000e+00,-2.688493919372558594e+01,-4.358848631381988525e-01,4.436679458618164062e+01,9.571833038330078125e+01,8.538118743896484375e+01,1.341188964843750000e+02,-4.207757472991943359e+00,-3.224648666381835938e+01,-1.842789001464843750e+02,3.620716476440429688e+01,2.349250030517578125e+01,3.271297454833984375e+01
6.840000152587890625e-01,2.000000000000000000e+00,-2.693820190429687500e+01,-4.002975225448608398e-01,4.432177352905273438e+01,9.572438049316406250e+01,8.537825012207031250e+01,1.341123504638671875e+02,-4.258013248443603516e+00,-3.224101257324218750e+01,-1.842736663818359375e+02,3.621017837524414062e+01,2.351007270812988281e+01,3.270666885375976562e+01
6.880000233650207520e-01,2.000000000000000000e+00,-2.699145317077636719e+01,-3.647180497646331787e-01,4.427676391601562500e+01,9.573042297363281250e+01,8.537531280517578125e+01,1.341057891845703125e+02,-4.308258533477783203e+00,-3.223553848266601562e+01,-1.842684326171875000e+02,3.621319198608398438e+01,2.352764129638671875e+01,3.270036315917968750e+01
6.919999718666076660e-01,2.000000000000000000e+00,-2.704469108581542969e+01,-3.291463851928710938e-01,4.423176193237304688e+01,9.573647308349609375e+01,8.537237548828125000e+01,1.340992431640625000e+02,-4.358492374420166016e+00,-3.223006439208984375e+01,-1.842631988525390625e+02,3.621620559692382812e+01,2.354520416259765625e+01,3.269406509399414062e+01
6.959999799728393555e-01,2.000000000000000000e+00,-2.709791755676269531e+01,-2.935825884342193604e-01,4.418677139282226562e+01,9.574252319335937500e+01,8.536943054199218750e+01,1.340927124023437500e+02,-4.408715724945068359e+00,-3.222459030151367188e+01,-1.842579956054687500e+02,3.621921157836914062e+01,2.356276321411132812e+01,3.268776321411132812e+01
6.999999880790710449e-01,2.000000000000000000e+00,-2.715113258361816406e+01,-2.580266296863555908e-01,4.414179229736328125e+01,9.574857330322265625e+01,8.536649322509765625e+01,1.340861663818359375e+02,-4.458927154541015625e+00,-3.221912002563476562e+01,-1.842527618408203125e+02,3.622222518920898438e+01,2.358031845092773438e+01,3.268146133422851562e+01
7.039999961853027344e-01,2.000000000000000000e+00,-2.720433425903320312e+01,-2.224784940481185913e-01,4.409682083129882812e+01,9.575461578369140625e+01,8.536355590820312500e+01,1.340796203613281250e+02,-4.509128093719482422e+00,-3.221365356445312500e+01,-1.842475280761718750e+02,3.622523498535156250e+01,2.359786987304687500e+01,3.267516326904296875e+01
7.080000042915344238e-01,2.000000000000000000e+00,-2.725752639770507812e+01,-1.869381666183471680e-01,4.405185699462890625e+01,9.576065826416015625e+01,8.536061859130859375e+01,1.340730743408203125e+02,-4.559317588806152344e+00,-3.220817947387695312e+01,-1.842423095703125000e+02,3.622824096679687500e+01,2.361541938781738281e+01,3.266886520385742188e+01
7.120000123977661133e-01,2.000000000000000000e+00,-2.731070709228515625e+01,-1.514056921005249023e-01,4.400690841674804688e+01,9.576670837402343750e+01,8.535768127441406250e+01,1.340665435791015625e+02,-4.609496593475341797e+00,-3.220271301269531250e+01,-1.842370758056640625e+02,3.623125076293945312e+01,2.363296318054199219e+01,3.266257095336914062e+01
7.160000205039978027e-01,2.000000000000000000e+00,-2.736387443542480469e+01,-1.158810406923294067e-01,4.396196746826171875e+01,9.577274322509765625e+01,8.535475158691406250e+01,1.340599975585937500e+02,-4.659664154052734375e+00,-3.219724655151367188e+01,-1.842318572998046875e+02,3.623426055908203125e+01,2.365050315856933594e+01,3.265627670288085938e+01
7.200000286102294922e-01,2.000000000000000000e+00,-2.741703033447265625e+01,-8.036420494318008423e-02,4.391703414916992188e+01,9.577877807617187500e+01,8.535181427001953125e+01,1.340534667968750000e+02,-4.709821224212646484e+00,-3.219178009033203125e+01,-1.842266387939453125e+02,3.623727035522460938e+01,2.366803932189941406e+01,3.264998245239257812e+01
7.239999771118164062e-01,2.000000000000000000e+00,-2.747017669677734375e+01,-4.485519230365753174e-02,4.387211227416992188e+01,9.578482055664062500e+01,8.534887695312500000e+01,1.340469360351562500e+02,-4.759966373443603516e+00,-3.218631744384765625e+01,-1.842214202880859375e+02,3.624027252197265625e+01,2.368557357788085938e+01,3.264369201660156250e+01
7.279999852180480957e-01,2.000000000000000000e+00,-2.752330780029296875e+01,-9.353995323181152344e-03,4.382720184326171875e+01,9.579085540771484375e+01,8.534594726562500000e+01,1.340404052734375000e+02,-4.810101032257080078e+00,-3.218085479736328125e+01,-1.842161865234375000e+02,3.624327850341796875e+01,2.370310211181640625e+01,3.263740158081054688e+01
7.319999933242797852e-01,2.000000000000000000e+00,-2.757642936706542969e+01,2.613938786089420319e-02,4.378229904174804688e+01,9.579689788818359375e+01,8.534300994873046875e+01,1.340338745117187500e+02,-4.860224246978759766e+00,-3.217539215087890625e+01,-1.842109680175781250e+02,3.624628448486328125e+01,2.372062492370605469e+01,3.263111114501953125e+01
7.360000014305114746e-01,2.000000000000000000e+00,-2.762953948974609375e+01,6.162496283650398254e-02,4.373740768432617188e+01,9.580293273925781250e+01,8.534008026123046875e+01,1.340273437500000000e+02,-4.910336971282958984e+00,-3.216993331909179688e+01,-1.842057495117187500e+02,3.624929046630859375e+01,2.373814773559570312e+01,3.262482452392578125e+01
7.400000095367431641e-01,2.000000000000000000e+00,-2.768263816833496094e+01,9.710272401571273804e-02,4.369252777099609375e+01,9.580895996093750000e+01,8.533715057373046875e+01,1.340208129882812500e+02,-4.960438251495361328e+00,-3.216447448730468750e+01,-1.842005462646484375e+02,3.625229644775390625e+01,2.375566482543945312e+01,3.261853790283203125e+01
7.440000176429748535e-01,2.000000000000000000e+00,-2.773572349548339844e+01,1.325726807117462158e-01,4.364765548706054688e+01,9.581499481201171875e+01,8.533422088623046875e+01,1.340142822265625000e+02,-5.010528564453125000e+00,-3.215901565551757812e+01,-1.841953277587890625e+02,3.625529861450195312e+01,2.377317810058593750e+01,3.261225509643554688e+01
7.480000257492065430e-01,2.000000000000000000e+00,-2.778879737854003906e+01,1.680348366498947144e-01,4.360279083251953125e+01,9.582102203369140625e+01,8.533129119873046875e+01,1.340077514648437500e+02,-5.060607910156250000e+00,-3.215355682373046875e+01,-1.841901092529296875e+02,3.625829696655273438e+01,2.379068565368652344e+01,3.260597229003906250e+01
7.519999742507934570e-01,2.000000000000000000e+00,-2.784186172485351562e+01,2.034891843795776367e-01,4.355793762207031250e+01,9.582705688476562500e+01,8.532836151123046875e+01,1.340012359619140625e+02,-5.110676765441894531e+00,-3.214810180664062500e+01,-1.841849060058593750e+02,3.626129913330078125e+01,2.380819129943847656e+01,3.259968566894531250e+01
7.559999823570251465e-01,2.000000000000000000e+00,-2.789491081237792969e+01,2.389357388019561768e-01,4.351309585571289062e+01,9.583308410644531250e+01,8.532543182373046875e+01,1.339947052001953125e+02,-5.160733699798583984e+00,-3.214264678955078125e+01,-1.841796875000000000e+02,3.626430130004882812e+01,2.382569503784179688e+01,3.259340667724609375e+01
7.599999904632568359e-01,2.000000000000000000e+00,-2.794795036315917969e+01,2.743744850158691406e-01,4.346826171875000000e+01,9.583911132812500000e+01,8.532250213623046875e+01,1.339881896972656250e+02,-5.210780620574951172e+00,-3.213719558715820312e+01,-1.841744842529296875e+02,3.626730346679687500e+01,2.384319114685058594e+01,3.258713150024414062e+01
7.639999985694885254e-01,2.000000000000000000e+00,-2.800097846984863281e+01,3.098054528236389160e-01,4.342343902587890625e+01,9.584513854980468750e+01,8.531956481933593750e+01,1.339816741943359375e+02,-5.260815620422363281e+00,-3.213174057006835938e+01,-1.841692657470703125e+02,3.627030181884765625e+01,2.386068725585937500e+01,3.258084869384765625e+01
7.680000066757202148e-01,2.000000000000000000e+00,-2.805399513244628906e+01,3.452286720275878906e-01,4.337862777709960938e+01,9.585115814208984375e+01,8.531664276123046875e+01,1.339751434326171875e+02,-5.310840129852294922e+00,-3.212628936767578125e+01,-1.841640625000000000e+02,3.627330398559570312e+01,2.387817573547363281e+01,3.257457733154296875e+01
7.720000147819519043e-01,2.000000000000000000e+00,-2.810699844360351562e+01,3.806440532207489014e-01,4.333382415771484375e+01,9.585718536376953125e+01,8.531371307373046875e+01,1.339686279296875000e+02,-5.360853195190429688e+00,-3.212084197998046875e+01,-1.841588592529296875e+02,3.627630233764648438e+01,2.389566230773925781e+01,3.256829833984375000e+01
7.760000228881835938e-01,2.000000000000000000e+00,-2.815999221801757812e+01,4.160516262054443359e-01,4.328902816772460938e+01,9.586320495605468750e+01,8.531079101562500000e+01,1.339621124267578125e+02,-5.410855770111083984e+00,-3.211539459228515625e+01,-1.841536560058593750e+02,3.627929687500000000e+01,2.391314697265625000e+01,3.256202697753906250e+01
7.799999713897705078e-01,2.000000000000000000e+00,-2.821297454833984375e+01,4.514514505863189697e-01,4.324424743652343750e+01,9.586922454833984375e+01,8.530786895751953125e+01,1.339555969238281250e+02,-5.460846900939941406e+00,-3.210994720458984375e+01,-1.841484527587890625e+02,3.628229522705078125e+01,2.393062591552734375e+01,3.255575561523437500e+01
7.839999794960021973e-01,2.000000000000000000e+00,-2.826594161987304688e+01,4.868434965610504150e-01,4.319947433471679688e+01,9.587524414062500000e+01,8.530494689941406250e+01,1.339490966796875000e+02,-5.510827541351318359e+00,-3.210449981689453125e+01,-1.841432342529296875e+02,3.628529357910156250e+01,2.394809913635253906e+01,3.254948043823242188e+01
7.879999876022338867e-01,2.000000000000000000e+00,-2.831890106201171875e+01,5.222277641296386719e-01,4.315470886230468750e+01,9.588126373291015625e+01,8.530201721191406250e+01,1.339425811767578125e+02,-5.560796737670898438e+00,-3.209905624389648438e+01,-1.841380310058593750e+02,3.628829193115234375e+01,2.396557044982910156e+01,3.254321670532226562e+01
7.919999957084655762e-01,2.000000000000000000e+00,-2.837184715270996094e+01,5.576042532920837402e-01,4.310995483398437500e+01,9.588727569580078125e+01,8.529909515380859375e+01,1.339360656738281250e+02,-5.610755443572998047e+00,-3.209361267089843750e+01,-1.841328277587890625e+02,3.629128646850585938e+01,2.398303794860839844e+01,3.253694534301757812e+01
7.960000038146972656e-01,2.000000000000000000e+00,-2.842478179931640625e+01,5.929729938507080078e-01,4.306521224975585938e+01,9.589328765869140625e+01,8.529617309570312500e+01,1.339295654296875000e+02,-5.660702705383300781e+00,-3.208816909790039062e+01,-1.841276397705078125e+02,3.629428100585937500e+01,2.400050163269042969e+01,3.253067779541015625e+01
8.000000119209289551e-01,2.000000000000000000e+00,-2.847770500183105469e+01,6.283339262008666992e-01,4.302047729492187500e+01,9.589930725097656250e+01,8.529325103759765625e+01,1.339230651855468750e+02,-5.710639476776123047e+00,-3.208272552490234375e+01,-1.841224365234375000e+02,3.629727554321289062e+01,2.401796150207519531e+01,3.252441024780273438e+01
8.040000200271606445e-01,2.000000000000000000e+00,-2.853061485290527344e+01,6.636871695518493652e-01,4.297575378417968750e+01,9.590531921386718750e+01,8.529032897949218750e+01,1.339165496826171875e+02,-5.760564327239990234e+00,-3.207728576660156250e+01,-1.841172485351562500e+02,3.630026626586914062e+01,2.403541564941406250e+01,3.251815032958984375e+01
8.080000281333923340e-01,2.000000000000000000e+00,-2.858351516723632812e+01,6.990325450897216797e-01,4.293103790283203125e+01,9.591133117675781250e+01,8.528740692138671875e+01,1.339100341796875000e+02,-5.810479164123535156e+00,-3.207184600830078125e+01,-1.841120452880859375e+02,3.630325698852539062e+01,2.405286788940429688e+01,3.251188659667968750e+01
8.119999766349792480e-01,2.000000000000000000e+00,-2.863640403747558594e+01,7.343702316284179688e-01,4.288632965087890625e+01,9.591733551025390625e+01,8.528449249267578125e+01,1.339035339355468750e+02,-5.860382556915283203e+00,-3.206641006469726562e+01,-1.841068420410156250e+02,3.630625534057617188e+01,2.407031631469726562e+01,3.250562667846679688e+01
8.159999847412109375e-01,2.000000000000000000e+00,-2.868928146362304688e+01,7.697001099586486816e-01,4.284163665771484375e+01,9.592333984375000000e+01,8.528156280517578125e+01,1.338970336914062500e+02,-5.910275459289550781e+00,-3.206097412109375000e+01,-1.841016540527343750e+02,3.630924606323242188e+01,2.408776092529296875e+01,3.249936676025390625e+01
8.199999928474426270e-01,2.000000000000000000e+00,-2.874214744567871094e+01,8.050222992897033691e-01,4.279695129394531250e+01,9.592935180664062500e+01,8.527864837646484375e+01,1.338905334472656250e+02,-5.960157394409179688e+00,-3.205553817749023438e+01,-1.840964508056640625e+02,3.631223297119140625e+01,2.410519981384277344e+01,3.249311065673828125e+01
8.240000009536743164e-01,2.000000000000000000e+00,-2.879499816894531250e+01,8.403366208076477051e-01,4.275227737426757812e+01,9.593535614013671875e+01,8.527573394775390625e+01,1.338840484619140625e+02,-6.010027885437011719e+00,-3.205010223388671875e+01,-1.840912628173828125e+02,3.631522369384765625e+01,2.412263679504394531e+01,3.248685073852539062e+01
8.280000090599060059e-01,2.000000000000000000e+00,-2.884784126281738281e+01,8.756432533264160156e-01,4.270761108398437500e+01,9.594136047363281250e+01,8.527281951904296875e+01,1.338775482177734375e+02,-6.059887409210205078e+00,-3.204467010498046875e+01,-1.840860748291015625e+02,3.631821441650390625e+01,2.414006996154785156e+01,3.248059463500976562e+01
8.320000171661376953e-01,2.000000000000000000e+00,-2.890067291259765625e+01,9.109421372413635254e-01,4.266295623779296875e+01,9.594736480712890625e+01,8.526989746093750000e+01,1.338710327148437500e+02,-6.109735965728759766e+00,-3.203923797607421875e+01,-1.840808868408203125e+02,3.632120132446289062e+01,2.415749740600585938e+01,3.247433853149414062e+01
8.360000252723693848e-01,2.000000000000000000e+00,-2.895348930358886719e+01,9.462332725524902344e-01,4.261831283569335938e+01,9.595336914062500000e+01,8.526698303222656250e+01,1.338645477294921875e+02,-6.159574508666992188e+00,-3.203380966186523438e+01,-1.840756988525390625e+02,3.632418823242187500e+01,2.417492294311523438e+01,3.246808624267578125e+01
8.399999737739562988e-01,2.000000000000000000e+00,-2.900629806518554688e+01,9.815167784690856934e-01,4.257367324829101562e+01,9.595936584472656250e+01,8.526406860351562500e+01,1.338580627441406250e+02,-6.209401130676269531e+00,-3.202838134765625000e+01,-1.840705108642578125e+02,3.632717895507812500e+01,2.419234466552734375e+01,3.246183776855468750e+01
8.439999818801879883e-01,2.000000000000000000e+00,-2.905909156799316406e+01,1.016792297363281250e+00,4.252904891967773438e+01,9.596537017822265625e+01,8.526114654541015625e+01,1.338515625000000000e+02,-6.259216785430908203e+00,-3.202294921875000000e+01,-1.840653228759765625e+02,3.633016586303710938e+01,2.420976066589355469e+01,3.245558547973632812e+01
8.479999899864196777e-01,2.000000000000000000e+00,-2.911187553405761719e+01,1.052060365676879883e+00,4.248442840576171875e+01,9.597136688232421875e+01,8.525823211669921875e+01,1.338450775146484375e+02,-6.309022426605224609e+00,-3.201752471923828125e+01,-1.840601501464843750e+02,3.633314895629882812e+01,2.422717475891113281e+01,3.244933700561523438e+01
8.519999980926513672e-01,2.000000000000000000e+00,-2.916464805603027344e+01,1.087320566177368164e+00,4.243982315063476562e+01,9.597736358642578125e+01,8.525532531738281250e+01,1.338385772705078125e+02,-6.358816623687744141e+00,-3.201209640502929688e+01,-1.840549468994140625e+02,3.633613586425781250e+01,2.424458503723144531e+01,3.244308853149414062e+01
8.560000061988830566e-01,2.000000000000000000e+00,-2.921740913391113281e+01,1.122573018074035645e+00,4.239522552490234375e+01,9.598335266113281250e+01,8.525241088867187500e+01,1.338320922851562500e+02,-6.408599853515625000e+00,-3.200667190551757812e+01,-1.840497741699218750e+02,3.633911895751953125e+01,2.426199150085449219e+01,3.243684005737304688e+01
8.600000143051147461e-01,2.000000000000000000e+00,-2.927015876770019531e+01,1.157817721366882324e+00,4.235063934326171875e+01,9.598934936523437500e+01,8.524949645996093750e+01,1.338256225585937500e+02,-6.458372116088867188e+00,-3.200125122070312500e+01,-1.840445861816406250e+02,3.634210586547851562e+01,2.427939414978027344e+01,3.243059921264648438e+01
8.640000224113464355e-01,2.000000000000000000e+00,-2.932289314270019531e+01,1.193054795265197754e+00,4.230606079101562500e+01,9.599533843994140625e+01,8.524658203125000000e+01,1.338191375732421875e+02,-6.508133411407470703e+00,-3.199582672119140625e+01,-1.840394134521484375e+02,3.634508895874023438e+01,2.429679107666015625e+01,3.242435455322265625e+01
8.679999709129333496e-01,2.000000000000000000e+00,-2.937561988830566406e+01,1.228284001350402832e+00,4.226149368286132812e+01,9.600132751464843750e+01,8.524367523193359375e+01,1.338126373291015625e+02,-6.557884216308593750e+00,-3.199040794372558594e+01,-1.840342254638671875e+02,3.634807205200195312e+01,2.431418609619140625e+01,3.241811370849609375e+01
8.719999790191650391e-01,2.000000000000000000e+00,-2.942833518981933594e+01,1.263505578041076660e+00,4.221693420410156250e+01,9.600731658935546875e+01,8.524076080322265625e+01,1.338061676025390625e+02,-6.607623577117919922e+00,-3.198498725891113281e+01,-1.840290527343750000e+02,3.635105514526367188e+01,2.433157730102539062e+01,3.241186904907226562e+01
8.759999871253967285e-01,2.000000000000000000e+00,-2.948103713989257812e+01,1.298719406127929688e+00,4.217238998413085938e+01,9.601330566406250000e+01,8.523785400390625000e+01,1.337996978759765625e+02,-6.657351970672607422e+00,-3.197956848144531250e+01,-1.840238800048828125e+02,3.635403823852539062e+01,2.434896469116210938e+01,3.240563201904296875e+01
8.799999952316284180e-01,2.000000000000000000e+00,-2.953372764587402344e+01,1.333925485610961914e+00,4.212784957885742188e+01,9.601930236816406250e+01,8.523493957519531250e+01,1.337931976318359375e+02,-6.707070350646972656e+00,-3.197415161132812500e+01,-1.840186920166015625e+02,3.635701370239257812e+01,2.436634635925292969e+01,3.239939498901367188e+01
8.840000033378601074e-01,2.000000000000000000e+00,-2.958640861511230469e+01,1.369123935699462891e+00,4.208332061767578125e+01,9.602528381347656250e+01,8.523203277587890625e+01,1.337867279052734375e+02,-6.756777286529541016e+00,-3.196873474121093750e+01,-1.840135192871093750e+02,3.635999679565429688e+01,2.438372611999511719e+01,3.239315795898437500e+01
8.880000114440917969e-01,2.000000000000000000e+00,-2.963907623291015625e+01,1.404314637184143066e+00,4.203879928588867188e+01,9.603126525878906250e+01,8.522913360595703125e+01,1.337802581787109375e+02,-6.806473255157470703e+00,-3.196331787109375000e+01,-1.840083465576171875e+02,3.636297988891601562e+01,2.440110206604003906e+01,3.238692474365234375e+01
8.920000195503234863e-01,2.000000000000000000e+00,-2.969173431396484375e+01,1.439497590065002441e+00,4.199429321289062500e+01,9.603724670410156250e+01,8.522621917724609375e+01,1.337737731933593750e+02,-6.856158256530761719e+00,-3.195790481567382812e+01,-1.840031738281250000e+02,3.636595535278320312e+01,2.441847229003906250e+01,3.238069152832031250e+01
8.960000276565551758e-01,2.000000000000000000e+00,-2.974437713623046875e+01,1.474672913551330566e+00,4.194979476928710938e+01,9.604323577880859375e+01,8.522331237792968750e+01,1.337673034667968750e+02,-6.905832767486572266e+00,-3.195249366760253906e+01,-1.839980010986328125e+02,3.636893463134765625e+01,2.443584060668945312e+01,3.237445831298828125e+01
8.999999761581420898e-01,2.000000000000000000e+00,-2.979701232910156250e+01,1.509840488433837891e+00,4.190530395507812500e+01,9.604921722412109375e+01,8.522040557861328125e+01,1.337608337402343750e+02,-6.955495834350585938e+00,-3.194708061218261719e+01,-1.839928436279296875e+02,3.637191390991210938e+01,2.445320510864257812e+01,3.236822509765625000e+01
9.039999842643737793e-01,2.000000000000000000e+00,-2.984963417053222656e+01,1.545000433921813965e+00,4.186082458496093750e+01,9.605519104003906250e+01,8.521750640869140625e+01,1.337543640136718750e+02,-7.005148410797119141e+00,-3.194166946411132812e+01,-1.839876556396484375e+02,3.637488937377929688e+01,2.447056579589843750e+01,3.236199569702148438e+01
9.079999923706054688e-01,2.000000000000000000e+00,-2.990224456787109375e+01,1.580152511596679688e+00,4.181635284423828125e+01,9.606116485595703125e+01,8.521459197998046875e+01,1.337478942871093750e+02,-7.054790019989013672e+00,-3.193626022338867188e+01,-1.839824981689453125e+02,3.637786483764648438e+01,2.448792266845703125e+01,3.235576629638671875e+01
9.120000004768371582e-01,2.000000000000000000e+00,-2.995484352111816406e+01,1.615297079086303711e+00,4.177189254760742188e+01,9.606714630126953125e+01,8.521169281005859375e+01,1.337414245605468750e+02,-7.104421138763427734e+00,-3.193085098266601562e+01,-1.839773406982421875e+02,3.638084411621093750e+01,2.450527381896972656e+01,3.234954071044921875e+01
9.160000085830688477e-01,2.000000000000000000e+00,-3.000743293762207031e+01,1.650433897972106934e+00,4.172744369506835938e+01,9.607312011718750000e+01,8.520878601074218750e+01,1.337349548339843750e+02,-7.154040813446044922e+00,-3.192544555664062500e+01,-1.839721527099609375e+02,3.638381576538085938e+01,2.452262306213378906e+01,3.234331512451171875e+01
9.200000166893005371e-01,2.000000000000000000e+00,-3.006000709533691406e+01,1.685562968254089355e+00,4.168300247192382812e+01,9.607909393310546875e+01,8.520588684082031250e+01,1.337285003662109375e+02,-7.203649520874023438e+00,-3.192003822326660156e+01,-1.839669952392578125e+02,3.638679122924804688e+01,2.453996849060058594e+01,3.233708953857421875e+01
9.240000247955322266e-01,2.000000000000000000e+00,-3.011257362365722656e+01,1.720684409141540527e+00,4.163856887817382812e+01,9.608506774902343750e+01,8.520298767089843750e+01,1.337220306396484375e+02,-7.253247737884521484e+00,-3.191463661193847656e+01,-1.839618377685546875e+02,3.638976287841796875e+01,2.455730819702148438e+01,3.233086776733398438e+01
9.279999732971191406e-01,2.000000000000000000e+00,-3.016512489318847656e+01,1.755798101425170898e+00,4.159414672851562500e+01,9.609103393554687500e+01,8.520008087158203125e+01,1.337155761718750000e+02,-7.302835941314697266e+00,-3.190923309326171875e+01,-1.839566650390625000e+02,3.639273834228515625e+01,2.457464790344238281e+01,3.232464599609375000e+01
9.319999814033508301e-01,2.000000000000000000e+00,-3.021766471862792969e+01,1.790904164314270020e+00,4.154973602294921875e+01,9.609700775146484375e+01,8.519718170166015625e+01,1.337091064453125000e+02,-7.352411746978759766e+00,-3.190383148193359375e+01,-1.839515075683593750e+02,3.639570999145507812e+01,2.459197998046875000e+01,3.231842803955078125e+01
9.359999895095825195e-01,2.000000000000000000e+00,-3.027019691467285156e+01,1.826002597808837891e+00,4.150533676147460938e+01,9.610297393798828125e+01,8.519428253173828125e+01,1.337026519775390625e+02,-7.401977539062500000e+00,-3.189842796325683594e+01,-1.839463500976562500e+02,3.639868164062500000e+01,2.460931015014648438e+01,3.231220626831054688e+01
9.399999976158142090e-01,2.000000000000000000e+00,-3.032271385192871094e+01,1.861093401908874512e+00,4.146094131469726562e+01,9.610894775390625000e+01,8.519138336181640625e+01,1.336961975097656250e+02,-7.451532363891601562e+00,-3.189302825927734375e+01,-1.839411926269531250e+02,3.640165328979492188e+01,2.462663650512695312e+01,3.230598831176757812e+01
9.440000057220458984e-01,2.000000000000000000e+00,-3.037522125244140625e+01,1.896176218986511230e+00,4.141656112670898438e+01,9.611491394042968750e+01,8.518848419189453125e+01,1.336897430419921875e+02,-7.501076221466064453e+00,-3.188763046264648438e+01,-1.839360198974609375e+02,3.640462493896484375e+01,2.464395713806152344e+01,3.229977416992187500e+01
9.480000138282775879e-01,2.000000000000000000e+00,-3.042771720886230469e+01,1.931251645088195801e+00,4.137218475341796875e+01,9.612088012695312500e+01,8.518558502197265625e+01,1.336832885742187500e+02,-7.550609588623046875e+00,-3.188223457336425781e+01,-1.839308776855468750e+02,3.640759277343750000e+01,2.466127777099609375e+01,3.229356002807617188e+01
9.520000219345092773e-01,2.000000000000000000e+00,-3.048020172119140625e+01,1.966319322586059570e+00,4.132782363891601562e+01,9.612683868408203125e+01,8.518268585205078125e+01,1.336768341064453125e+02,-7.600131511688232422e+00,-3.187683868408203125e+01,-1.839257202148437500e+02,3.641056442260742188e+01,2.467859268188476562e+01,3.228734588623046875e+01
9.559999704360961914e-01,2.000000000000000000e+00,-3.053267478942871094e+01,2.001379251480102539e+00,4.128347015380859375e+01,9.613280487060546875e+01,8.517978668212890625e+01,1.336703796386718750e+02,-7.649642944335937500e+00,-3.187144279479980469e+01,-1.839205627441406250e+02,3.641353225708007812e+01,2.469590377807617188e+01,3.228113555908203125e+01
9.599999785423278809e-01,2.000000000000000000e+00,-3.058513641357421875e+01,2.036431789398193359e+00,4.123912429809570312e+01,9.613876342773437500e+01,8.517689514160156250e+01,1.336639404296875000e+02,-7.699143886566162109e+00,-3.186605072021484375e+01,-1.839154205322265625e+02,3.641650009155273438e+01,2.471320915222167969e+01,3.227492141723632812e+01
9.639999866485595703e-01,2.000000000000000000e+00,-3.063758659362792969e+01,2.071476459503173828e+00,4.119478988647460938e+01,9.614472198486328125e+01,8.517399597167968750e+01,1.336574707031250000e+02,-7.748633861541748047e+00,-3.186065483093261719e+01,-1.839102630615234375e+02,3.641946792602539062e+01,2.473051452636718750e+01,3.226871490478515625e+01
9.679999947547912598e-01,2.000000000000000000e+00,-3.069002532958984375e+01,2.106513500213623047e+00,4.115046691894531250e+01,9.615068817138671875e+01,8.517110443115234375e+01,1.336510314941406250e+02,-7.798112392425537109e+00,-3.185526466369628906e+01,-1.839051055908203125e+02,3.642243194580078125e+01,2.474781227111816406e+01,3.226250457763671875e+01
9.720000028610229492e-01,2.000000000000000000e+00,-3.074244880676269531e+01,2.141542911529541016e+00,4.110615158081054688e+01,9.615663909912109375e+01,8.516820526123046875e+01,1.336445922851562500e+02,-7.847580909729003906e+00,-3.184987258911132812e+01,-1.838999633789062500e+02,3.642539978027343750e+01,2.476510810852050781e+01,3.225629806518554688e+01
9.760000109672546387e-01,2.000000000000000000e+00,-3.079486465454101562e+01,2.176564693450927734e+00,4.106184387207031250e+01,9.616259765625000000e+01,8.516531372070312500e+01,1.336381378173828125e+02,-7.897038459777832031e+00,-3.184448432922363281e+01,-1.838948059082031250e+02,3.642836380004882812e+01,2.478240013122558594e+01,3.225009536743164062e+01
9.800000190734863281e-01,2.000000000000000000e+00,-3.084726905822753906e+01,2.211578607559204102e+00,4.101755142211914062e+01,9.616854858398437500e+01,8.516242218017578125e+01,1.336316986083984375e+02,-7.946484565734863281e+00,-3.183909797668457031e+01,-1.838896636962890625e+02,3.643132781982421875e+01,2.479968833923339844e+01,3.224388885498046875e+01
9.840000271797180176e-01,2.000000000000000000e+00,-3.089966011047363281e+01,2.246584892272949219e+00,4.097326278686523438e+01,9.617449951171875000e+01,8.515952301025390625e+01,1.336252593994140625e+02,-7.995920658111572266e+00,-3.183370971679687500e+01,-1.838845062255859375e+02,3.643429183959960938e+01,2.481697273254394531e+01,3.223768615722656250e+01
9.879999756813049316e-01,2.000000000000000000e+00,-3.095204162597656250e+01,2.281584024429321289e+00,4.092898559570312500e+01,9.618045806884765625e+01,8.515663146972656250e+01,1.336188201904296875e+02,-8.045345306396484375e+00,-3.182832336425781250e+01,-1.838793640136718750e+02,3.643725585937500000e+01,2.483425331115722656e+01,3.223148727416992188e+01
9.919999837875366211e-01,2.000000000000000000e+00,-3.100441169738769531e+01,2.316575050354003906e+00,4.088471984863281250e+01,9.618640899658203125e+01,8.515374755859375000e+01,1.336123809814453125e+02,-8.094759941101074219e+00,-3.182294082641601562e+01,-1.838742218017578125e+02,3.644021987915039062e+01,2.485153007507324219e+01,3.222528839111328125e+01
9.959999918937683105e-01,2.000000000000000000e+00,-3.105676841735839844e+01,2.351558685302734375e+00,4.084046554565429688e+01,9.619235229492187500e+01,8.515084838867187500e+01,1.336059265136718750e+02,-8.144163131713867188e+00,-3.181755638122558594e+01,-1.838690795898437500e+02,3.644318008422851562e+01,2.486880493164062500e+01,3.221908950805664062e+01
1.000000000000000000e+00,2.000000000000000000e+00,-3.110911369323730469e+01,2.386534214019775391e+00,4.079621887207031250e+01,9.619830322265625000e+01,8.514795684814453125e+01,1.335995025634765625e+02,-8.193555831909179688e+00,-3.181217384338378906e+01,-1.838639373779296875e+02,3.644614410400390625e+01,2.488607215881347656e+01,3.221289062500000000e+01
1.003999948501586914e+00,2.000000000000000000e+00,-3.116145133972167969e+01,2.421502828598022461e+00,4.075197982788085938e+01,9.620424652099609375e+01,8.514507293701171875e+01,1.335930633544921875e+02,-8.242938041687011719e+00,-3.180679512023925781e+01,-1.838587951660156250e+02,3.644910430908203125e+01,2.490333747863769531e+01,3.220669555664062500e+01
1.008000016212463379e+00,2.000000000000000000e+00,-3.121377372741699219e+01,2.456463336944580078e+00,4.070775222778320312e+01,9.621019744873046875e+01,8.514218139648437500e+01,1.335866241455078125e+02,-8.292308807373046875e+00,-3.180141258239746094e+01,-1.838536529541015625e+02,3.645206451416015625e+01,2.492060089111328125e+01,3.220050048828125000e+01
1.011999964714050293e+00,2.000000000000000000e+00,-3.126608657836914062e+01,2.491416215896606445e+00,4.066353607177734375e+01,9.621614074707031250e+01,8.513928985595703125e+01,1.335802001953125000e+02,-8.341669082641601562e+00,-3.179603385925292969e+01,-1.838485107421875000e+02,3.645502090454101562e+01,2.493785858154296875e+01,3.219430923461914062e+01
1.016000032424926758e+00,2.000000000000000000e+00,-3.131838798522949219e+01,2.526361465454101562e+00,4.061932754516601562e+01,9.622208404541015625e+01,8.513641357421875000e+01,1.335737762451171875e+02,-8.391018867492675781e+00,-3.179065895080566406e+01,-1.838433837890625000e+02,3.645798110961914062e+01,2.495511245727539062e+01,3.218811798095703125e+01
1.019999980926513672e+00,2.000000000000000000e+00,-3.137067604064941406e+01,2.561299085617065430e+00,4.057513046264648438e+01,9.622801971435546875e+01,8.513352203369140625e+01,1.335673370361328125e+02,-8.440358161926269531e+00,-3.178528213500976562e+01,-1.838382415771484375e+02,3.646094131469726562e+01,2.497236442565917969e+01,3.218192672729492188e+01
1.024000048637390137e+00,2.000000000000000000e+00,-3.142295455932617188e+01,2.596229314804077148e+00,4.053093719482421875e+01,9.623396301269531250e+01,8.513063049316406250e+01,1.335609130859375000e+02,-8.489685058593750000e+00,-3.177990722656250000e+01,-1.838331146240234375e+02,3.646389770507812500e+01,2.498961067199707031e+01,3.217573928833007812e+01
1.026999950408935547e+00,2.000000000000000000e+00,-3.147522354125976562e+01,2.631151676177978516e+00,4.048675918579101562e+01,9.623989868164062500e+01,8.512774658203125000e+01,1.335544891357421875e+02,-8.539002418518066406e+00,-3.177453231811523438e+01,-1.838279724121093750e+02,3.646685409545898438e+01,2.500685310363769531e+01,3.216954803466796875e+01
1.031999945640563965e+00,2.000000000000000000e+00,-3.152747726440429688e+01,2.666066884994506836e+00,4.044258880615234375e+01,9.624583435058593750e+01,8.512486267089843750e+01,1.335480651855468750e+02,-8.588309288024902344e+00,-3.176915931701660156e+01,-1.838228302001953125e+02,3.646981430053710938e+01,2.502409172058105469e+01,3.216336059570312500e+01
1.036000013351440430e+00,2.000000000000000000e+00,-3.157972145080566406e+01,2.700973987579345703e+00,4.039842987060546875e+01,9.625177764892578125e+01,8.512197875976562500e+01,1.335416259765625000e+02,-8.637604713439941406e+00,-3.176378822326660156e+01,-1.838177185058593750e+02,3.647276687622070312e+01,2.504132843017578125e+01,3.215717697143554688e+01
1.039999961853027344e+00,2.000000000000000000e+00,-3.163195610046386719e+01,2.735873699188232422e+00,4.035427856445312500e+01,9.625770568847656250e+01,8.511909484863281250e+01,1.335352172851562500e+02,-8.686889648437500000e+00,-3.175841712951660156e+01,-1.838125762939453125e+02,3.647571945190429688e+01,2.505855941772460938e+01,3.215099334716796875e+01
1.044000029563903809e+00,2.000000000000000000e+00,-3.168417549133300781e+01,2.770765781402587891e+00,4.031013870239257812e+01,9.626364135742187500e+01,8.511621093750000000e+01,1.335287933349609375e+02,-8.736165046691894531e+00,-3.175304794311523438e+01,-1.838074340820312500e+02,3.647867584228515625e+01,2.507578849792480469e+01,3.214480972290039062e+01
1.047999978065490723e+00,2.000000000000000000e+00,-3.173638534545898438e+01,2.805649995803833008e+00,4.026600265502929688e+01,9.626957702636718750e+01,8.511333465576171875e+01,1.335223693847656250e+02,-8.785427093505859375e+00,-3.174767875671386719e+01,-1.838023223876953125e+02,3.648162841796875000e+01,2.509301185607910156e+01,3.213863372802734375e+01
1.052000045776367188e+00,2.000000000000000000e+00,-3.178858566284179688e+01,2.840527057647705078e+00,4.022188186645507812e+01,9.627550506591796875e+01,8.511045074462890625e+01,1.335159454345703125e+02,-8.834680557250976562e+00,-3.174231338500976562e+01,-1.837971954345703125e+02,3.648458099365234375e+01,2.511023330688476562e+01,3.213245010375976562e+01
1.054999947547912598e+00,2.000000000000000000e+00,-3.184077072143554688e+01,2.875396013259887695e+00,4.017777252197265625e+01,9.628143310546875000e+01,8.510756683349609375e+01,1.335095520019531250e+02,-8.883922576904296875e+00,-3.173694992065429688e+01,-1.837920532226562500e+02,3.648753738403320312e+01,2.512744903564453125e+01,3.212627410888671875e+01
1.059999942779541016e+00,2.000000000000000000e+00,-3.189294624328613281e+01,2.910257816314697266e+00,4.013367080688476562e+01,9.628736114501953125e+01,8.510468292236328125e+01,1.335031280517578125e+02,-8.933154106140136719e+00,-3.173158454895019531e+01,-1.837869415283203125e+02,3.649048614501953125e+01,2.514466285705566406e+01,3.212009429931640625e+01
1.064000010490417480e+00,2.000000000000000000e+00,-3.194511222839355469e+01,2.945111751556396484e+00,4.008957290649414062e+01,9.629328918457031250e+01,8.510179901123046875e+01,1.334967041015625000e+02,-8.982374191284179688e+00,-3.172621917724609375e+01,-1.837818145751953125e+02,3.649343872070312500e+01,2.516187095642089844e+01,3.211392211914062500e+01
1.067999958992004395e+00,2.000000000000000000e+00,-3.199726486206054688e+01,2.979958295822143555e+00,4.004549026489257812e+01,9.629921722412109375e+01,8.509892272949218750e+01,1.334902954101562500e+02,-9.031583786010742188e+00,-3.172085762023925781e+01,-1.837766876220703125e+02,3.649638748168945312e+01,2.517907524108886719e+01,3.210774612426757812e+01
1.072000026702880859e+00,2.000000000000000000e+00,-3.204940795898437500e+01,3.014796972274780273e+00,4.000141525268554688e+01,9.630514526367187500e+01,8.509604644775390625e+01,1.334838867187500000e+02,-9.080783843994140625e+00,-3.171549797058105469e+01,-1.837715759277343750e+02,3.649934005737304688e+01,2.519627761840820312e+01,3.210157394409179688e+01
1.075999975204467773e+00,2.000000000000000000e+00,-3.210153579711914062e+01,3.049628257751464844e+00,3.995735549926757812e+01,9.631106567382812500e+01,8.509317016601562500e+01,1.334774780273437500e+02,-9.129972457885742188e+00,-3.171013641357421875e+01,-1.837664489746093750e+02,3.650228500366210938e+01,2.521347618103027344e+01,3.209540176391601562e+01
1.080000042915344238e+00,2.000000000000000000e+00,-3.215365600585937500e+01,3.084451913833618164e+00,3.991329956054687500e+01,9.631698608398437500e+01,8.509029388427734375e+01,1.334710693359375000e+02,-9.179149627685546875e+00,-3.170477867126464844e+01,-1.837613220214843750e+02,3.650523757934570312e+01,2.523066902160644531e+01,3.208923339843750000e+01
1.083999991416931152e+00,2.000000000000000000e+00,-3.220576477050781250e+01,3.119268178939819336e+00,3.986925125122070312e+01,9.632290649414062500e+01,8.508740997314453125e+01,1.334646606445312500e+02,-9.228316307067871094e+00,-3.169942092895507812e+01,-1.837561950683593750e+02,3.650818634033203125e+01,2.524786186218261719e+01,3.208306121826171875e+01
1.088000059127807617e+00,2.000000000000000000e+00,-3.225785827636718750e+01,3.154076576232910156e+00,3.982521820068359375e+01,9.632882690429687500e+01,8.508453369140625000e+01,1.334582519531250000e+02,-9.277472496032714844e+00,-3.169406509399414062e+01,-1.837510986328125000e+02,3.651113128662109375e+01,2.526504707336425781e+01,3.207689285278320312e+01
1.090999960899353027e+00,2.000000000000000000e+00,-3.230994415283203125e+01,3.188877582550048828e+00,3.978118896484375000e+01,9.633474731445312500e+01,8.508165740966796875e+01,1.334518585205078125e+02,-9.326618194580078125e+00,-3.168871116638183594e+01,-1.837459716796875000e+02,3.651408004760742188e+01,2.528223037719726562e+01,3.207072830200195312e+01
1.095999956130981445e+00,2.000000000000000000e+00,-3.236201858520507812e+01,3.223670959472656250e+00,3.973717880249023438e+01,9.634066772460937500e+01,8.507878112792968750e+01,1.334454498291015625e+02,-9.375753402709960938e+00,-3.168335533142089844e+01,-1.837408599853515625e+02,3.651702117919921875e+01,2.529940986633300781e+01,3.206456756591796875e+01
1.100000023841857910e+00,2.000000000000000000e+00,-3.241407775878906250e+01,3.258456945419311523e+00,3.969316864013671875e+01,9.634658050537109375e+01,8.507590484619140625e+01,1.334390411376953125e+02,-9.424877166748046875e+00,-3.167800140380859375e+01,-1.837357330322265625e+02,3.651996994018554688e+01,2.531658554077148438e+01,3.205840301513671875e+01
1.103999972343444824e+00,2.000000000000000000e+00,-3.246612930297851562e+01,3.293235063552856445e+00,3.964917373657226562e+01,9.635249328613281250e+01,8.507303619384765625e+01,1.334326477050781250e+02,-9.473990440368652344e+00,-3.167264938354492188e+01,-1.837306365966796875e+02,3.652291488647460938e+01,2.533375740051269531e+01,3.205224227905273438e+01
1.108000040054321289e+00,2.000000000000000000e+00,-3.251816940307617188e+01,3.328005552291870117e+00,3.960518264770507812e+01,9.635840606689453125e+01,8.507016754150390625e+01,1.334262390136718750e+02,-9.523094177246093750e+00,-3.166730117797851562e+01,-1.837255249023437500e+02,3.652585601806640625e+01,2.535092544555664062e+01,3.204608154296875000e+01
1.111999988555908203e+00,2.000000000000000000e+00,-3.257019805908203125e+01,3.362768650054931641e+00,3.956120681762695312e+01,9.636431884765625000e+01,8.506729125976562500e+01,1.334198455810546875e+02,-9.572185516357421875e+00,-3.166195106506347656e+01,-1.837204132080078125e+02,3.652880096435546875e+01,2.536808967590332031e+01,3.203992080688476562e+01
1.116000056266784668e+00,2.000000000000000000e+00,-3.262221145629882812e+01,3.397524356842041016e+00,3.951723861694335938e+01,9.637022399902343750e+01,8.506442260742187500e+01,1.334134521484375000e+02,-9.621267318725585938e+00,-3.165660285949707031e+01,-1.837153015136718750e+02,3.653174591064453125e+01,2.538525009155273438e+01,3.203376007080078125e+01
1.118999958038330078e+00,2.000000000000000000e+00,-3.267421722412109375e+01,3.432272434234619141e+00,3.947327804565429688e+01,9.637614440917968750e+01,8.506155395507812500e+01,1.334070587158203125e+02,-9.670338630676269531e+00,-3.165125656127929688e+01,-1.837101898193359375e+02,3.653468704223632812e+01,2.540240669250488281e+01,3.202760314941406250e+01
