rpiRobotics/ARM-21-02-F-19-Robot-Motion-Program/data_performance_abb/curve_1/dual_arm/diffevo_pose3/grad_result/sim/dual_iteration_5.csv
timestamp,cmd_num,J1,J2,J3,J4,J5,J6,J1_2,J2_2,J3_2,J4_2,J5_2,J6_2
0.000000000000000000e+00,-1.000000000000000000e+00,-1.945772933959960938e+01,-5.984972476959228516e+00,5.039681625366210938e+01,9.426414489746093750e+01,8.499446868896484375e+01,1.364331207275390625e+02,2.959168434143066406e+00,-3.312791442871093750e+01,-1.849173583984375000e+02,3.625703048706054688e+01,2.121177482604980469e+01,3.323846054077148438e+01
2.000000094994902611e-03,-1.000000000000000000e+00,-1.945772933959960938e+01,-5.984972476959228516e+00,5.039681625366210938e+01,9.426414489746093750e+01,8.499446868896484375e+01,1.364331207275390625e+02,2.959168434143066406e+00,-3.312791442871093750e+01,-1.849173583984375000e+02,3.625703048706054688e+01,2.121177482604980469e+01,3.323846054077148438e+01
6.000000052154064178e-03,-1.000000000000000000e+00,-1.945772933959960938e+01,-5.984972476959228516e+00,5.039681625366210938e+01,9.426414489746093750e+01,8.499446868896484375e+01,1.364331207275390625e+02,2.959168434143066406e+00,-3.312791442871093750e+01,-1.849173583984375000e+02,3.625703048706054688e+01,2.121177482604980469e+01,3.323846054077148438e+01
8.000000379979610443e-03,-1.000000000000000000e+00,-1.945772933959960938e+01,-5.984972476959228516e+00,5.039681625366210938e+01,9.426414489746093750e+01,8.499446868896484375e+01,1.364331207275390625e+02,2.959168434143066406e+00,-3.312791442871093750e+01,-1.849173583984375000e+02,3.625703048706054688e+01,2.121177482604980469e+01,3.323846054077148438e+01
1.099999994039535522e-02,-1.000000000000000000e+00,-1.945772933959960938e+01,-5.984972476959228516e+00,5.039681625366210938e+01,9.426414489746093750e+01,8.499446868896484375e+01,1.364331207275390625e+02,2.959168434143066406e+00,-3.312791442871093750e+01,-1.849173583984375000e+02,3.625703048706054688e+01,2.121177482604980469e+01,3.323846054077148438e+01
1.600000075995922089e-02,-1.000000000000000000e+00,-1.945772933959960938e+01,-5.984972476959228516e+00,5.039681625366210938e+01,9.426414489746093750e+01,8.499446868896484375e+01,1.364331207275390625e+02,2.959168434143066406e+00,-3.312791442871093750e+01,-1.849173583984375000e+02,3.625703048706054688e+01,2.121177482604980469e+01,3.323846054077148438e+01
1.999999955296516418e-02,-1.000000000000000000e+00,-1.945772933959960938e+01,-5.984972476959228516e+00,5.039681625366210938e+01,9.426414489746093750e+01,8.499446868896484375e+01,1.364331207275390625e+02,2.959168434143066406e+00,-3.312791442871093750e+01,-1.849173583984375000e+02,3.625703048706054688e+01,2.121177482604980469e+01,3.323846054077148438e+01
2.400000020861625671e-02,-1.000000000000000000e+00,-1.945772933959960938e+01,-5.984972476959228516e+00,5.039681625366210938e+01,9.426414489746093750e+01,8.499446868896484375e+01,1.364331207275390625e+02,2.959168434143066406e+00,-3.312791442871093750e+01,-1.849173583984375000e+02,3.625703048706054688e+01,2.121177482604980469e+01,3.323846054077148438e+01
2.800000086426734924e-02,2.000000000000000000e+00,-1.945772933959960938e+01,-5.984972476959228516e+00,5.039681625366210938e+01,9.426414489746093750e+01,8.499446868896484375e+01,1.364331207275390625e+02,2.959168434143066406e+00,-3.312791442871093750e+01,-1.849173583984375000e+02,3.625703048706054688e+01,2.121177482604980469e+01,3.323846054077148438e+01
3.400000184774398804e-02,2.000000000000000000e+00,-1.945772933959960938e+01,-5.984972476959228516e+00,5.039681625366210938e+01,9.426414489746093750e+01,8.499446868896484375e+01,1.364331207275390625e+02,2.959168434143066406e+00,-3.312791442871093750e+01,-1.849173583984375000e+02,3.625703048706054688e+01,2.121177482604980469e+01,3.323846054077148438e+01
3.799999877810478210e-02,2.000000000000000000e+00,-1.945772933959960938e+01,-5.984972476959228516e+00,5.039681625366210938e+01,9.426414489746093750e+01,8.499446868896484375e+01,1.364331207275390625e+02,2.959168434143066406e+00,-3.312791442871093750e+01,-1.849173583984375000e+02,3.625703048706054688e+01,2.121177482604980469e+01,3.323846054077148438e+01
3.999999910593032837e-02,2.000000000000000000e+00,-1.945772933959960938e+01,-5.984972476959228516e+00,5.039681625366210938e+01,9.426414489746093750e+01,8.499446868896484375e+01,1.364331207275390625e+02,2.959168434143066406e+00,-3.312791442871093750e+01,-1.849173583984375000e+02,3.625703048706054688e+01,2.121177482604980469e+01,3.323846054077148438e+01
4.600000008940696716e-02,2.000000000000000000e+00,-1.945772933959960938e+01,-5.984972476959228516e+00,5.039681625366210938e+01,9.426414489746093750e+01,8.499446868896484375e+01,1.364331207275390625e+02,2.959168434143066406e+00,-3.312791442871093750e+01,-1.849173583984375000e+02,3.625703048706054688e+01,2.121177482604980469e+01,3.323846054077148438e+01
4.800000041723251343e-02,2.000000000000000000e+00,-1.945772933959960938e+01,-5.984972476959228516e+00,5.039681625366210938e+01,9.426414489746093750e+01,8.499446868896484375e+01,1.364331207275390625e+02,2.959168434143066406e+00,-3.312791442871093750e+01,-1.849173583984375000e+02,3.625703048706054688e+01,2.121177482604980469e+01,3.323846054077148438e+01
5.200000107288360596e-02,2.000000000000000000e+00,-1.945772933959960938e+01,-5.984972476959228516e+00,5.039681625366210938e+01,9.426414489746093750e+01,8.499446868896484375e+01,1.364331207275390625e+02,2.959168434143066406e+00,-3.312791442871093750e+01,-1.849173583984375000e+02,3.625703048706054688e+01,2.121177482604980469e+01,3.323846054077148438e+01
5.600000172853469849e-02,2.000000000000000000e+00,-1.945772933959960938e+01,-5.984972476959228516e+00,5.039681625366210938e+01,9.426414489746093750e+01,8.499446868896484375e+01,1.364331207275390625e+02,2.959168434143066406e+00,-3.312791442871093750e+01,-1.849173583984375000e+02,3.625703048706054688e+01,2.121177482604980469e+01,3.323846054077148438e+01
5.999999865889549255e-02,2.000000000000000000e+00,-1.945772933959960938e+01,-5.984972476959228516e+00,5.039681625366210938e+01,9.426414489746093750e+01,8.499446868896484375e+01,1.364331207275390625e+02,2.959168434143066406e+00,-3.312791442871093750e+01,-1.849173583984375000e+02,3.625703048706054688e+01,2.121177482604980469e+01,3.323846054077148438e+01
6.400000303983688354e-02,2.000000000000000000e+00,-1.945772933959960938e+01,-5.984972476959228516e+00,5.039681625366210938e+01,9.426414489746093750e+01,8.499446868896484375e+01,1.364331207275390625e+02,2.959168434143066406e+00,-3.312791442871093750e+01,-1.849173583984375000e+02,3.625703048706054688e+01,2.121177482604980469e+01,3.323846054077148438e+01
6.800000369548797607e-02,2.000000000000000000e+00,-1.945772933959960938e+01,-5.984972476959228516e+00,5.039681625366210938e+01,9.426414489746093750e+01,8.499446868896484375e+01,1.364331207275390625e+02,2.959168434143066406e+00,-3.312791442871093750e+01,-1.849173583984375000e+02,3.625703048706054688e+01,2.121177482604980469e+01,3.323846054077148438e+01
7.199999690055847168e-02,2.000000000000000000e+00,-1.945779609680175781e+01,-5.984946727752685547e+00,5.039680480957031250e+01,9.426414489746093750e+01,8.499446105957031250e+01,1.364331207275390625e+02,2.959168434143066406e+00,-3.312791442871093750e+01,-1.849173583984375000e+02,3.625703048706054688e+01,2.121177482604980469e+01,3.323846054077148438e+01
7.599999755620956421e-02,2.000000000000000000e+00,-1.945817565917968750e+01,-5.984787940979003906e+00,5.039671707153320312e+01,9.426414489746093750e+01,8.499445343017578125e+01,1.364331207275390625e+02,2.959168434143066406e+00,-3.312791442871093750e+01,-1.849173583984375000e+02,3.625703048706054688e+01,2.121177482604980469e+01,3.323846054077148438e+01
7.999999821186065674e-02,2.000000000000000000e+00,-1.945925521850585938e+01,-5.984293937683105469e+00,5.039643859863281250e+01,9.426416015625000000e+01,8.499443054199218750e+01,1.364331207275390625e+02,2.959168434143066406e+00,-3.312791442871093750e+01,-1.849173583984375000e+02,3.625703048706054688e+01,2.121177482604980469e+01,3.323846054077148438e+01
8.399999886751174927e-02,2.000000000000000000e+00,-1.946140098571777344e+01,-5.983229160308837891e+00,5.039581680297851562e+01,9.426418304443359375e+01,8.499438476562500000e+01,1.364331054687500000e+02,2.959141016006469727e+00,-3.312791442871093750e+01,-1.849173431396484375e+02,3.625703048706054688e+01,2.121177673339843750e+01,3.323846054077148438e+01
8.799999952316284180e-02,2.000000000000000000e+00,-1.946484184265136719e+01,-5.981393337249755859e+00,5.039468383789062500e+01,9.426424407958984375e+01,8.499429321289062500e+01,1.364330291748046875e+02,2.958963394165039062e+00,-3.312790298461914062e+01,-1.849173278808593750e+02,3.625703430175781250e+01,2.121179389953613281e+01,3.323845672607421875e+01
9.200000017881393433e-02,2.000000000000000000e+00,-1.946973609924316406e+01,-5.978615760803222656e+00,5.039286041259765625e+01,9.426437377929687500e+01,8.499417114257812500e+01,1.364328918457031250e+02,2.958377122879028320e+00,-3.312786865234375000e+01,-1.849172363281250000e+02,3.625704574584960938e+01,2.121185493469238281e+01,3.323844909667968750e+01
9.600000083446502686e-02,2.000000000000000000e+00,-1.947623252868652344e+01,-5.974737644195556641e+00,5.039012527465820312e+01,9.426461029052734375e+01,8.499400329589843750e+01,1.364326477050781250e+02,2.957031726837158203e+00,-3.312778472900390625e+01,-1.849170532226562500e+02,3.625706863403320312e+01,2.121201515197753906e+01,3.323842239379882812e+01
1.000000014901161194e-01,2.000000000000000000e+00,-1.948435974121093750e+01,-5.969659805297851562e+00,5.038626861572265625e+01,9.426498413085937500e+01,8.499378204345703125e+01,1.364321899414062500e+02,2.954543590545654297e+00,-3.312761306762695312e+01,-1.849166870117187500e+02,3.625712203979492188e+01,2.121236610412597656e+01,3.323834991455078125e+01
1.040000021457672119e-01,2.000000000000000000e+00,-1.949404144287109375e+01,-5.963358402252197266e+00,5.038107681274414062e+01,9.426556396484375000e+01,8.499350738525390625e+01,1.364315032958984375e+02,2.950488805770874023e+00,-3.312730789184570312e+01,-1.849161376953125000e+02,3.625721359252929688e+01,2.121303939819335938e+01,3.323819351196289062e+01
1.080000028014183044e-01,2.000000000000000000e+00,-1.950529479980468750e+01,-5.955800533294677734e+00,5.037433624267578125e+01,9.426639556884765625e+01,8.499320220947265625e+01,1.364304809570312500e+02,2.944398641586303711e+00,-3.312681579589843750e+01,-1.849153594970703125e+02,3.625736618041992188e+01,2.121420860290527344e+01,3.323789215087890625e+01
1.120000034570693970e-01,2.000000000000000000e+00,-1.951837348937988281e+01,-5.946848392486572266e+00,5.036576080322265625e+01,9.426755523681640625e+01,8.499283599853515625e+01,1.364290466308593750e+02,2.935884714126586914e+00,-3.312606811523437500e+01,-1.849142913818359375e+02,3.625760269165039062e+01,2.121607971191406250e+01,3.323737716674804688e+01
1.159999966621398926e-01,2.000000000000000000e+00,-1.953370666503906250e+01,-5.936270236968994141e+00,5.035503768920898438e+01,9.426907348632812500e+01,8.499241638183593750e+01,1.364271240234375000e+02,2.924724817276000977e+00,-3.312502288818359375e+01,-1.849129791259765625e+02,3.625793838500976562e+01,2.121886253356933594e+01,3.323656845092773438e+01
1.199999973177909851e-01,2.000000000000000000e+00,-1.955165100097656250e+01,-5.923856258392333984e+00,5.034188079833984375e+01,9.427101135253906250e+01,8.499193572998046875e+01,1.364246673583984375e+02,2.910763025283813477e+00,-3.312361145019531250e+01,-1.849114074707031250e+02,3.625840377807617188e+01,2.122276496887207031e+01,3.323538589477539062e+01
1.239999979734420776e-01,2.000000000000000000e+00,-1.957236480712890625e+01,-5.909527778625488281e+00,5.032608795166015625e+01,9.427340698242187500e+01,8.499138641357421875e+01,1.364216156005859375e+02,2.893766641616821289e+00,-3.312179946899414062e+01,-1.849096069335937500e+02,3.625901412963867188e+01,2.122795677185058594e+01,3.323377609252929688e+01
1.280000060796737671e-01,2.000000000000000000e+00,-1.959581947326660156e+01,-5.893329143524169922e+00,5.030755233764648438e+01,9.427630615234375000e+01,8.499077606201171875e+01,1.364178924560546875e+02,2.873450994491577148e+00,-3.311954879760742188e+01,-1.849075317382812500e+02,3.625977325439453125e+01,2.123457336425781250e+01,3.323168182373046875e+01
1.309999972581863403e-01,2.000000000000000000e+00,-1.962191390991210938e+01,-5.875345706939697266e+00,5.028622817993164062e+01,9.427973937988281250e+01,8.499011230468750000e+01,1.364135131835937500e+02,2.849622726440429688e+00,-3.311683654785156250e+01,-1.849051818847656250e+02,3.626070022583007812e+01,2.124267959594726562e+01,3.322908401489257812e+01
1.360000073909759521e-01,2.000000000000000000e+00,-1.965057182312011719e+01,-5.855633735656738281e+00,5.026210403442382812e+01,9.428369140625000000e+01,8.498940277099609375e+01,1.364084167480468750e+02,2.822200536727905273e+00,-3.311365890502929688e+01,-1.849025268554687500e+02,3.626179122924804688e+01,2.125227355957031250e+01,3.322599411010742188e+01
1.389999985694885254e-01,2.000000000000000000e+00,-1.968170547485351562e+01,-5.834246635437011719e+00,5.023523712158203125e+01,9.428817749023437500e+01,8.498863983154296875e+01,1.364026184082031250e+02,2.791153907775878906e+00,-3.311003112792968750e+01,-1.848995666503906250e+02,3.626304244995117188e+01,2.126330375671386719e+01,3.322243118286132812e+01
1.439999938011169434e-01,2.000000000000000000e+00,-1.971521568298339844e+01,-5.811238765716552734e+00,5.020573043823242188e+01,9.429316711425781250e+01,8.498782348632812500e+01,1.363961791992187500e+02,2.756539583206176758e+00,-3.310597610473632812e+01,-1.848962860107421875e+02,3.626444625854492188e+01,2.127567672729492188e+01,3.321842575073242188e+01
1.480000019073486328e-01,2.000000000000000000e+00,-1.975112152099609375e+01,-5.786577224731445312e+00,5.017370223999023438e+01,9.429862213134765625e+01,8.498696136474609375e+01,1.363891143798828125e+02,2.718585014343261719e+00,-3.310152435302734375e+01,-1.848926696777343750e+02,3.626598358154296875e+01,2.128925704956054688e+01,3.321402740478515625e+01
1.519999951124191284e-01,2.000000000000000000e+00,-1.978954887390136719e+01,-5.760142803192138672e+00,5.013926696777343750e+01,9.430450439453125000e+01,8.498603820800781250e+01,1.363815155029296875e+02,2.677695751190185547e+00,-3.309673309326171875e+01,-1.848887939453125000e+02,3.626763916015625000e+01,2.130388450622558594e+01,3.320929336547851562e+01
1.560000032186508179e-01,2.000000000000000000e+00,-1.983056449890136719e+01,-5.731863498687744141e+00,5.010259628295898438e+01,9.431074523925781250e+01,8.498504638671875000e+01,1.363734436035156250e+02,2.634323596954345703e+00,-3.309165954589843750e+01,-1.848846740722656250e+02,3.626939392089843750e+01,2.131938552856445312e+01,3.320427703857421875e+01
1.599999964237213135e-01,2.000000000000000000e+00,-1.987400627136230469e+01,-5.701833724975585938e+00,5.006393814086914062e+01,9.431729888916015625e+01,8.498398590087890625e+01,1.363649749755859375e+02,2.588843584060668945e+00,-3.308635330200195312e+01,-1.848803253173828125e+02,3.627122879028320312e+01,2.133559036254882812e+01,3.319903182983398438e+01
1.640000045299530029e-01,2.000000000000000000e+00,-1.991950607299804688e+01,-5.670280456542968750e+00,5.002360153198242188e+01,9.432410430908203125e+01,8.498287200927734375e+01,1.363561859130859375e+02,2.541567087173461914e+00,-3.308085632324218750e+01,-1.848758087158203125e+02,3.627312850952148438e+01,2.135233497619628906e+01,3.319362640380859375e+01
1.679999977350234985e-01,2.000000000000000000e+00,-1.996667671203613281e+01,-5.637436389923095703e+00,4.998189926147460938e+01,9.433110809326171875e+01,8.498170471191406250e+01,1.363471527099609375e+02,2.492803812026977539e+00,-3.307522201538085938e+01,-1.848711090087890625e+02,3.627507400512695312e+01,2.136947059631347656e+01,3.318810653686523438e+01
1.720000058412551880e-01,2.000000000000000000e+00,-2.001526069641113281e+01,-5.603486537933349609e+00,4.993908309936523438e+01,9.433827209472656250e+01,8.498049926757812500e+01,1.363379058837890625e+02,2.442881584167480469e+00,-3.306948471069335938e+01,-1.848662567138671875e+02,3.627705001831054688e+01,2.138687133789062500e+01,3.318250656127929688e+01
1.759999990463256836e-01,2.000000000000000000e+00,-2.006510162353515625e+01,-5.568587779998779297e+00,4.989538192749023438e+01,9.434555816650390625e+01,8.497924804687500000e+01,1.363285217285156250e+02,2.392095565795898438e+00,-3.306367874145507812e+01,-1.848612823486328125e+02,3.627904891967773438e+01,2.140443420410156250e+01,3.317686843872070312e+01
1.800000071525573730e-01,2.000000000000000000e+00,-2.011608314514160156e+01,-5.532891273498535156e+00,4.985099792480468750e+01,9.435292053222656250e+01,8.497797393798828125e+01,1.363190307617187500e+02,2.340683937072753906e+00,-3.305782699584960938e+01,-1.848562469482421875e+02,3.628106307983398438e+01,2.142209243774414062e+01,3.317121124267578125e+01
1.840000003576278687e-01,2.000000000000000000e+00,-2.016807174682617188e+01,-5.496539592742919922e+00,4.980610275268554688e+01,9.436032867431640625e+01,8.497666168212890625e+01,1.363094787597656250e+02,2.288866758346557617e+00,-3.305194473266601562e+01,-1.848511199951171875e+02,3.628308105468750000e+01,2.143979454040527344e+01,3.316554260253906250e+01
1.879999935626983643e-01,2.000000000000000000e+00,-2.022095298767089844e+01,-5.459650516510009766e+00,4.976082992553710938e+01,9.436777496337890625e+01,8.497532653808593750e+01,1.362999114990234375e+02,2.236845970153808594e+00,-3.304605484008789062e+01,-1.848459777832031250e+02,3.628510665893554688e+01,2.145751380920410156e+01,3.315987396240234375e+01
1.920000016689300537e-01,2.000000000000000000e+00,-2.027463150024414062e+01,-5.422330856323242188e+00,4.971528625488281250e+01,9.437523651123046875e+01,8.497396850585937500e+01,1.362903137207031250e+02,2.184763193130493164e+00,-3.304016113281250000e+01,-1.848408203125000000e+02,3.628712844848632812e+01,2.147523498535156250e+01,3.315420913696289062e+01
1.959999948740005493e-01,2.000000000000000000e+00,-2.032892608642578125e+01,-5.384716510772705078e+00,4.966957855224609375e+01,9.438270568847656250e+01,8.497260284423828125e+01,1.362807159423828125e+02,2.132681131362915039e+00,-3.303426361083984375e+01,-1.848356781005859375e+02,3.628915405273437500e+01,2.149295234680175781e+01,3.314854431152343750e+01
2.000000029802322388e-01,2.000000000000000000e+00,-2.038356971740722656e+01,-5.346951961517333984e+00,4.962378692626953125e+01,9.439017486572265625e+01,8.497122955322265625e+01,1.362711181640625000e+02,2.080610513687133789e+00,-3.302836990356445312e+01,-1.848305206298828125e+02,3.629117965698242188e+01,2.151066589355468750e+01,3.314287948608398438e+01
2.039999961853027344e-01,2.000000000000000000e+00,-2.043832969665527344e+01,-5.309143066406250000e+00,4.957798004150390625e+01,9.439764404296875000e+01,8.496984863281250000e+01,1.362615051269531250e+02,2.028552055358886719e+00,-3.302247619628906250e+01,-1.848253631591796875e+02,3.629320144653320312e+01,2.152837371826171875e+01,3.313721466064453125e+01
2.080000042915344238e-01,2.000000000000000000e+00,-2.049309921264648438e+01,-5.271336555480957031e+00,4.953218078613281250e+01,9.440510559082031250e+01,8.496847534179687500e+01,1.362519226074218750e+02,1.976505875587463379e+00,-3.301658630371093750e+01,-1.848202056884765625e+02,3.629522323608398438e+01,2.154607963562011719e+01,3.313155364990234375e+01
2.119999974966049194e-01,2.000000000000000000e+00,-2.054785346984863281e+01,-5.233537673950195312e+00,4.948638916015625000e+01,9.441257476806640625e+01,8.496709442138671875e+01,1.362423248291015625e+02,1.924471616744995117e+00,-3.301069641113281250e+01,-1.848150634765625000e+02,3.629724884033203125e+01,2.156377983093261719e+01,3.312589645385742188e+01
2.160000056028366089e-01,2.000000000000000000e+00,-2.060259628295898438e+01,-5.195747375488281250e+00,4.944060897827148438e+01,9.442003631591796875e+01,8.496571350097656250e+01,1.362327270507812500e+02,1.872449398040771484e+00,-3.300481033325195312e+01,-1.848099060058593750e+02,3.629927062988281250e+01,2.158147621154785156e+01,3.312023544311523438e+01
2.199999988079071045e-01,2.000000000000000000e+00,-2.065732765197753906e+01,-5.157966613769531250e+00,4.939484024047851562e+01,9.442750549316406250e+01,8.496434783935546875e+01,1.362231445312500000e+02,1.820439457893371582e+00,-3.299892044067382812e+01,-1.848047637939453125e+02,3.630128860473632812e+01,2.159917068481445312e+01,3.311457824707031250e+01
2.240000069141387939e-01,2.000000000000000000e+00,-2.071204376220703125e+01,-5.120193958282470703e+00,4.934907913208007812e+01,9.443495941162109375e+01,8.496296691894531250e+01,1.362135467529296875e+02,1.768441796302795410e+00,-3.299303436279296875e+01,-1.847996063232421875e+02,3.630331039428710938e+01,2.161685943603515625e+01,3.310892105102539062e+01
2.280000001192092896e-01,2.000000000000000000e+00,-2.076674842834472656e+01,-5.082430362701416016e+00,4.930333328247070312e+01,9.444242095947265625e+01,8.496159362792968750e+01,1.362039642333984375e+02,1.716456174850463867e+00,-3.298715209960937500e+01,-1.847944641113281250e+02,3.630533218383789062e+01,2.163454246520996094e+01,3.310326766967773438e+01
2.319999933242797852e-01,2.000000000000000000e+00,-2.082144165039062500e+01,-5.044676303863525391e+00,4.925759506225585938e+01,9.444987487792968750e+01,8.496022033691406250e+01,1.361943817138671875e+02,1.664482831954956055e+00,-3.298126983642578125e+01,-1.847893218994140625e+02,3.630735015869140625e+01,2.165222358703613281e+01,3.309761047363281250e+01
2.360000014305114746e-01,2.000000000000000000e+00,-2.087611961364746094e+01,-5.006930351257324219e+00,4.921186828613281250e+01,9.445732879638671875e+01,8.495883941650390625e+01,1.361847991943359375e+02,1.612521648406982422e+00,-3.297538757324218750e+01,-1.847841796875000000e+02,3.630936813354492188e+01,2.166989898681640625e+01,3.309196090698242188e+01
2.399999946355819702e-01,2.000000000000000000e+00,-2.093078804016113281e+01,-4.969193458557128906e+00,4.916615295410156250e+01,9.446478271484375000e+01,8.495746612548828125e+01,1.361752166748046875e+02,1.560572624206542969e+00,-3.296950912475585938e+01,-1.847790222167968750e+02,3.631138992309570312e+01,2.168757247924804688e+01,3.308631134033203125e+01
2.440000027418136597e-01,2.000000000000000000e+00,-2.098544120788574219e+01,-4.931465148925781250e+00,4.912044525146484375e+01,9.447223663330078125e+01,8.495609283447265625e+01,1.361656494140625000e+02,1.508635759353637695e+00,-3.296363067626953125e+01,-1.847738800048828125e+02,3.631340789794921875e+01,2.170523834228515625e+01,3.308065795898437500e+01
2.479999959468841553e-01,2.000000000000000000e+00,-2.104008293151855469e+01,-4.893745899200439453e+00,4.907475280761718750e+01,9.447968292236328125e+01,8.495471954345703125e+01,1.361560668945312500e+02,1.456711053848266602e+00,-3.295775222778320312e+01,-1.847687530517578125e+02,3.631542205810546875e+01,2.172290229797363281e+01,3.307501220703125000e+01
2.520000040531158447e-01,2.000000000000000000e+00,-2.109470939636230469e+01,-4.856035232543945312e+00,4.902906799316406250e+01,9.448713684082031250e+01,8.495333862304687500e+01,1.361464843750000000e+02,1.404798507690429688e+00,-3.295187759399414062e+01,-1.847635955810546875e+02,3.631744003295898438e+01,2.174056243896484375e+01,3.306936645507812500e+01
2.560000121593475342e-01,2.000000000000000000e+00,-2.114932632446289062e+01,-4.818333625793457031e+00,4.898339462280273438e+01,9.449458312988281250e+01,8.495196533203125000e+01,1.361369323730468750e+02,1.352898001670837402e+00,-3.294600296020507812e+01,-1.847584686279296875e+02,3.631945800781250000e+01,2.175821685791015625e+01,3.306372070312500000e+01
2.599999904632568359e-01,2.000000000000000000e+00,-2.120392990112304688e+01,-4.780640602111816406e+00,4.893773269653320312e+01,9.450202941894531250e+01,8.495059204101562500e+01,1.361273498535156250e+02,1.301009654998779297e+00,-3.294012832641601562e+01,-1.847533264160156250e+02,3.632147598266601562e+01,2.177586936950683594e+01,3.305807495117187500e+01
2.639999985694885254e-01,2.000000000000000000e+00,-2.125852012634277344e+01,-4.742956638336181641e+00,4.889208221435546875e+01,9.450946807861328125e+01,8.494921875000000000e+01,1.361177825927734375e+02,1.249133348464965820e+00,-3.293425750732421875e+01,-1.847481842041015625e+02,3.632349395751953125e+01,2.179351425170898438e+01,3.305243301391601562e+01
2.680000066757202148e-01,2.000000000000000000e+00,-2.131309890747070312e+01,-4.705280780792236328e+00,4.884643936157226562e+01,9.451690673828125000e+01,8.494784545898437500e+01,1.361082305908203125e+02,1.197268962860107422e+00,-3.292838668823242188e+01,-1.847430572509765625e+02,3.632550811767578125e+01,2.181115913391113281e+01,3.304679107666015625e+01
2.720000147819519043e-01,2.000000000000000000e+00,-2.136766242980957031e+01,-4.667613983154296875e+00,4.880081176757812500e+01,9.452434539794921875e+01,8.494647979736328125e+01,1.360986633300781250e+02,1.145416617393493652e+00,-3.292251586914062500e+01,-1.847379302978515625e+02,3.632752227783203125e+01,2.182879829406738281e+01,3.304114913940429688e+01
2.759999930858612061e-01,2.000000000000000000e+00,-2.142221641540527344e+01,-4.629955768585205078e+00,4.875518798828125000e+01,9.453178405761718750e+01,8.494510650634765625e+01,1.360890960693359375e+02,1.093576312065124512e+00,-3.291664886474609375e+01,-1.847327880859375000e+02,3.632953643798828125e+01,2.184643173217773438e+01,3.303551101684570312e+01
2.800000011920928955e-01,2.000000000000000000e+00,-2.147675514221191406e+01,-4.592306137084960938e+00,4.870957946777343750e+01,9.453922271728515625e+01,8.494374084472656250e+01,1.360795440673828125e+02,1.041748046875000000e+00,-3.291078186035156250e+01,-1.847276611328125000e+02,3.633155059814453125e+01,2.186406326293945312e+01,3.302987289428710938e+01
2.840000092983245850e-01,2.000000000000000000e+00,-2.153128242492675781e+01,-4.554665565490722656e+00,4.866398239135742188e+01,9.454665374755859375e+01,8.494236755371093750e+01,1.360699920654296875e+02,9.899315834045410156e-01,-3.290491867065429688e+01,-1.847225341796875000e+02,3.633356475830078125e+01,2.188169097900390625e+01,3.302423858642578125e+01
2.879999876022338867e-01,2.000000000000000000e+00,-2.158579635620117188e+01,-4.517033576965332031e+00,4.861839294433593750e+01,9.455408477783203125e+01,8.494099426269531250e+01,1.360604400634765625e+02,9.381270408630371094e-01,-3.289905548095703125e+01,-1.847174072265625000e+02,3.633557891845703125e+01,2.189931297302246094e+01,3.301860427856445312e+01
2.919999957084655762e-01,2.000000000000000000e+00,-2.164029884338378906e+01,-4.479410171508789062e+00,4.857281112670898438e+01,9.456151580810546875e+01,8.493962860107421875e+01,1.360508880615234375e+02,8.863344192504882812e-01,-3.289319610595703125e+01,-1.847122802734375000e+02,3.633758926391601562e+01,2.191693115234375000e+01,3.301296997070312500e+01
2.960000038146972656e-01,2.000000000000000000e+00,-2.169478797912597656e+01,-4.441795349121093750e+00,4.852724456787109375e+01,9.456894683837890625e+01,8.493825531005859375e+01,1.360413360595703125e+02,8.345535993576049805e-01,-3.288732910156250000e+01,-1.847071533203125000e+02,3.633960342407226562e+01,2.193454742431640625e+01,3.300733566284179688e+01
3.000000119209289551e-01,2.000000000000000000e+00,-2.174926567077636719e+01,-4.404189109802246094e+00,4.848168563842773438e+01,9.457637023925781250e+01,8.493688201904296875e+01,1.360317993164062500e+02,7.827847003936767578e-01,-3.288147354125976562e+01,-1.847020111083984375e+02,3.634161376953125000e+01,2.195215606689453125e+01,3.300170516967773438e+01
3.039999902248382568e-01,2.000000000000000000e+00,-2.180373001098632812e+01,-4.366591453552246094e+00,4.843614196777343750e+01,9.458380126953125000e+01,8.493551635742187500e+01,1.360222473144531250e+02,7.310276627540588379e-01,-3.287561416625976562e+01,-1.846968994140625000e+02,3.634362411499023438e+01,2.196976280212402344e+01,3.299607467651367188e+01
3.079999983310699463e-01,2.000000000000000000e+00,-2.185818099975585938e+01,-4.329002857208251953e+00,4.839060592651367188e+01,9.459123229980468750e+01,8.493414306640625000e+01,1.360126953125000000e+02,6.792825460433959961e-01,-3.286975479125976562e+01,-1.846917724609375000e+02,3.634563446044921875e+01,2.198736572265625000e+01,3.299044418334960938e+01
3.120000064373016357e-01,2.000000000000000000e+00,-2.191262245178222656e+01,-4.291422843933105469e+00,4.834508132934570312e+01,9.459864807128906250e+01,8.493277740478515625e+01,1.360031585693359375e+02,6.275492310523986816e-01,-3.286390304565429688e+01,-1.846866455078125000e+02,3.634764862060546875e+01,2.200496482849121094e+01,3.298481750488281250e+01
3.160000145435333252e-01,2.000000000000000000e+00,-2.196704864501953125e+01,-4.253851413726806641e+00,4.829956436157226562e+01,9.460607147216796875e+01,8.493141174316406250e+01,1.359936370849609375e+02,5.758277773857116699e-01,-3.285804748535156250e+01,-1.846815338134765625e+02,3.634965896606445312e+01,2.202255821228027344e+01,3.297919464111328125e+01
3.199999928474426270e-01,2.000000000000000000e+00,-2.202146339416503906e+01,-4.216288089752197266e+00,4.825405883789062500e+01,9.461348724365234375e+01,8.493003845214843750e+01,1.359841003417968750e+02,5.241181850433349609e-01,-3.285219573974609375e+01,-1.846764221191406250e+02,3.635166549682617188e+01,2.204014968872070312e+01,3.297356414794921875e+01
3.240000009536743164e-01,2.000000000000000000e+00,-2.207586479187011719e+01,-4.178733825683593750e+00,4.820856475830078125e+01,9.462090301513671875e+01,8.492867279052734375e+01,1.359745635986328125e+02,4.724204540252685547e-01,-3.284634399414062500e+01,-1.846712951660156250e+02,3.635367584228515625e+01,2.205773544311523438e+01,3.296794509887695312e+01
3.280000090599060059e-01,2.000000000000000000e+00,-2.213025283813476562e+01,-4.141188144683837891e+00,4.816307830810546875e+01,9.462831878662109375e+01,8.492730712890625000e+01,1.359650268554687500e+02,4.207345545291900635e-01,-3.284049224853515625e+01,-1.846661682128906250e+02,3.635568237304687500e+01,2.207531929016113281e+01,3.296231842041015625e+01
3.319999873638153076e-01,2.000000000000000000e+00,-2.218463134765625000e+01,-4.103650569915771484e+00,4.811760711669921875e+01,9.463573455810546875e+01,8.492594146728515625e+01,1.359555053710937500e+02,3.690604865550994873e-01,-3.283464431762695312e+01,-1.846610717773437500e+02,3.635769271850585938e+01,2.209289741516113281e+01,3.295670318603515625e+01
3.359999954700469971e-01,2.000000000000000000e+00,-2.223899459838867188e+01,-4.066122055053710938e+00,4.807214355468750000e+01,9.464314270019531250e+01,8.492456817626953125e+01,1.359459686279296875e+02,3.173983097076416016e-01,-3.282879638671875000e+01,-1.846559448242187500e+02,3.635969924926757812e+01,2.211047172546386719e+01,3.295108032226562500e+01
3.400000035762786865e-01,2.000000000000000000e+00,-2.229334831237792969e+01,-4.028602123260498047e+00,4.802669143676757812e+01,9.465055847167968750e+01,8.492320251464843750e+01,1.359364471435546875e+02,2.657479345798492432e-01,-3.282294845581054688e+01,-1.846508331298828125e+02,3.636170959472656250e+01,2.212804222106933594e+01,3.294546127319335938e+01
3.440000116825103760e-01,2.000000000000000000e+00,-2.234768676757812500e+01,-3.991090774536132812e+00,4.798124694824218750e+01,9.465796661376953125e+01,8.492182922363281250e+01,1.359269256591796875e+02,2.141093909740447998e-01,-3.281710433959960938e+01,-1.846457214355468750e+02,3.636371612548828125e+01,2.214560890197753906e+01,3.293984603881835938e+01
3.479999899864196777e-01,2.000000000000000000e+00,-2.240201568603515625e+01,-3.953588008880615234e+00,4.793581390380859375e+01,9.466537475585937500e+01,8.492046356201171875e+01,1.359174041748046875e+02,1.624826788902282715e-01,-3.281126403808593750e+01,-1.846406097412109375e+02,3.636571884155273438e+01,2.216316986083984375e+01,3.293423080444335938e+01
3.519999980926513672e-01,2.000000000000000000e+00,-2.245633125305175781e+01,-3.916093587875366211e+00,4.789039611816406250e+01,9.467277526855468750e+01,8.491909790039062500e+01,1.359078826904296875e+02,1.108677983283996582e-01,-3.280541992187500000e+01,-1.846355133056640625e+02,3.636772918701171875e+01,2.218072891235351562e+01,3.292861557006835938e+01
3.560000061988830566e-01,2.000000000000000000e+00,-2.251063156127929688e+01,-3.878608226776123047e+00,4.784498214721679688e+01,9.468017578125000000e+01,8.491773223876953125e+01,1.358983764648437500e+02,5.926473811268806458e-02,-3.279957962036132812e+01,-1.846304016113281250e+02,3.636973190307617188e+01,2.219828224182128906e+01,3.292300033569335938e+01
3.600000143051147461e-01,2.000000000000000000e+00,-2.256492233276367188e+01,-3.841131210327148438e+00,4.779957962036132812e+01,9.468758392333984375e+01,8.491636657714843750e+01,1.358888549804687500e+02,7.673493120819330215e-03,-3.279373931884765625e+01,-1.846252899169921875e+02,3.637173843383789062e+01,2.221583175659179688e+01,3.291738891601562500e+01
3.639999926090240479e-01,2.000000000000000000e+00,-2.261919975280761719e+01,-3.803662776947021484e+00,4.775418853759765625e+01,9.469498443603515625e+01,8.491500091552734375e+01,1.358793487548828125e+02,-4.390593245625495911e-02,-3.278789901733398438e+01,-1.846201782226562500e+02,3.637374114990234375e+01,2.223337936401367188e+01,3.291177749633789062e+01
3.680000007152557373e-01,2.000000000000000000e+00,-2.267346382141113281e+01,-3.766202688217163086e+00,4.770880889892578125e+01,9.470238494873046875e+01,8.491364288330078125e+01,1.358698425292968750e+02,-9.547354280948638916e-02,-3.278206253051757812e+01,-1.846150665283203125e+02,3.637574768066406250e+01,2.225092124938964844e+01,3.290616989135742188e+01
3.720000088214874268e-01,2.000000000000000000e+00,-2.272771835327148438e+01,-3.728751420974731445e+00,4.766344070434570312e+01,9.470977783203125000e+01,8.491227722167968750e+01,1.358603363037109375e+02,-1.470293551683425903e-01,-3.277622985839843750e+01,-1.846099548339843750e+02,3.637774658203125000e+01,2.226845932006835938e+01,3.290056228637695312e+01
3.759999871253967285e-01,2.000000000000000000e+00,-2.278195762634277344e+01,-3.691308736801147461e+00,4.761808013916015625e+01,9.471717071533203125e+01,8.491091156005859375e+01,1.358508300781250000e+02,-1.985733509063720703e-01,-3.277039337158203125e+01,-1.846048736572265625e+02,3.637975311279296875e+01,2.228599357604980469e+01,3.289495468139648438e+01
3.799999952316284180e-01,2.000000000000000000e+00,-2.283618545532226562e+01,-3.653874635696411133e+00,4.757273101806640625e+01,9.472457122802734375e+01,8.490955352783203125e+01,1.358413238525390625e+02,-2.501055598258972168e-01,-3.276456069946289062e+01,-1.845997619628906250e+02,3.638175582885742188e+01,2.230352401733398438e+01,3.288934707641601562e+01
3.840000033378601074e-01,2.000000000000000000e+00,-2.289039993286132812e+01,-3.616449117660522461e+00,4.752739334106445312e+01,9.473195648193359375e+01,8.490818786621093750e+01,1.358318176269531250e+02,-3.016259670257568359e-01,-3.275873184204101562e+01,-1.845946655273437500e+02,3.638375854492187500e+01,2.232105064392089844e+01,3.288374328613281250e+01
3.880000114440917969e-01,2.000000000000000000e+00,-2.294460296630859375e+01,-3.579032182693481445e+00,4.748206710815429688e+01,9.473934936523437500e+01,8.490682220458984375e+01,1.358223266601562500e+02,-3.531345725059509277e-01,-3.275290298461914062e+01,-1.845895690917968750e+02,3.638576126098632812e+01,2.233857345581054688e+01,3.287813949584960938e+01
3.919999897480010986e-01,2.000000000000000000e+00,-2.299879455566406250e+01,-3.541623592376708984e+00,4.743674850463867188e+01,9.474674224853515625e+01,8.490546417236328125e+01,1.358128356933593750e+02,-4.046314060688018799e-01,-3.274707412719726562e+01,-1.845844573974609375e+02,3.638776016235351562e+01,2.235609054565429688e+01,3.287253952026367188e+01
3.959999978542327881e-01,2.000000000000000000e+00,-2.305297088623046875e+01,-3.504223585128784180e+00,4.739143753051757812e+01,9.475411987304687500e+01,8.490409851074218750e+01,1.358033447265625000e+02,-4.561164677143096924e-01,-3.274124145507812500e+01,-1.845793609619140625e+02,3.638976287841796875e+01,2.237360572814941406e+01,3.286693954467773438e+01
4.000000059604644775e-01,2.000000000000000000e+00,-2.310713768005371094e+01,-3.466832399368286133e+00,4.734614562988281250e+01,9.476151275634765625e+01,8.490273284912109375e+01,1.357938537597656250e+02,-5.075896978378295898e-01,-3.273541641235351562e+01,-1.845742645263671875e+02,3.639176177978515625e+01,2.239111328125000000e+01,3.286133956909179688e+01
4.040000140666961670e-01,2.000000000000000000e+00,-2.316129112243652344e+01,-3.429449796676635742e+00,4.730085754394531250e+01,9.476889801025390625e+01,8.490137481689453125e+01,1.357843475341796875e+02,-5.590511560440063477e-01,-3.272959518432617188e+01,-1.845691680908203125e+02,3.639376068115234375e+01,2.240861892700195312e+01,3.285573959350585938e+01
4.079999923706054688e-01,2.000000000000000000e+00,-2.321543312072753906e+01,-3.392075300216674805e+00,4.725558090209960938e+01,9.477627563476562500e+01,8.490000915527343750e+01,1.357748718261718750e+02,-6.105008721351623535e-01,-3.272377014160156250e+01,-1.845640716552734375e+02,3.639575958251953125e+01,2.242612266540527344e+01,3.285014343261718750e+01
4.120000004768371582e-01,2.000000000000000000e+00,-2.326955986022949219e+01,-3.354709863662719727e+00,4.721031188964843750e+01,9.478365325927734375e+01,8.489865112304687500e+01,1.357653808593750000e+02,-6.619387865066528320e-01,-3.271794891357421875e+01,-1.845589752197265625e+02,3.639776229858398438e+01,2.244362068176269531e+01,3.284455108642578125e+01
4.160000085830688477e-01,2.000000000000000000e+00,-2.332367706298828125e+01,-3.317352771759033203e+00,4.716505813598632812e+01,9.479103088378906250e+01,8.489729309082031250e+01,1.357559051513671875e+02,-7.133649587631225586e-01,-3.271212768554687500e+01,-1.845538940429687500e+02,3.639975738525390625e+01,2.246111488342285156e+01,3.283895492553710938e+01
4.199999868869781494e-01,2.000000000000000000e+00,-2.337778091430664062e+01,-3.280004262924194336e+00,4.711981201171875000e+01,9.479840850830078125e+01,8.489592742919921875e+01,1.357464141845703125e+02,-7.647793292999267578e-01,-3.270630645751953125e+01,-1.845487976074218750e+02,3.640175628662109375e+01,2.247860527038574219e+01,3.283336257934570312e+01
4.239999949932098389e-01,2.000000000000000000e+00,-2.343187332153320312e+01,-3.242664098739624023e+00,4.707457733154296875e+01,9.480578613281250000e+01,8.489456939697265625e+01,1.357369384765625000e+02,-8.161820173263549805e-01,-3.270048904418945312e+01,-1.845437164306640625e+02,3.640375518798828125e+01,2.249608993530273438e+01,3.282777023315429688e+01
4.280000030994415283e-01,2.000000000000000000e+00,-2.348595046997070312e+01,-3.205332517623901367e+00,4.702935409545898438e+01,9.481315612792968750e+01,8.489321136474609375e+01,1.357274780273437500e+02,-8.675729036331176758e-01,-3.269467163085937500e+01,-1.845386199951171875e+02,3.640575408935546875e+01,2.251357269287109375e+01,3.282218170166015625e+01
4.320000112056732178e-01,2.000000000000000000e+00,-2.354001808166503906e+01,-3.168009519577026367e+00,4.698413848876953125e+01,9.482053375244140625e+01,8.489184570312500000e+01,1.357179870605468750e+02,-9.189519882202148438e-01,-3.268885803222656250e+01,-1.845335388183593750e+02,3.640774917602539062e+01,2.253105163574218750e+01,3.281659317016601562e+01
4.359999895095825195e-01,2.000000000000000000e+00,-2.359407234191894531e+01,-3.130695104598999023e+00,4.693893432617187500e+01,9.482790374755859375e+01,8.489048767089843750e+01,1.357085266113281250e+02,-9.703193306922912598e-01,-3.268304443359375000e+01,-1.845284423828125000e+02,3.640974426269531250e+01,2.254852485656738281e+01,3.281100463867187500e+01
4.399999976158142090e-01,2.000000000000000000e+00,-2.364811515808105469e+01,-3.093389272689819336e+00,4.689374160766601562e+01,9.483526611328125000e+01,8.488912963867187500e+01,1.356990509033203125e+02,-1.021674990653991699e+00,-3.267723083496093750e+01,-1.845233612060546875e+02,3.641173934936523438e+01,2.256599426269531250e+01,3.280541992187500000e+01
4.440000057220458984e-01,2.000000000000000000e+00,-2.370214271545410156e+01,-3.056092023849487305e+00,4.684855651855468750e+01,9.484263610839843750e+01,8.488777160644531250e+01,1.356895751953125000e+02,-1.073018908500671387e+00,-3.267141723632812500e+01,-1.845182800292968750e+02,3.641373825073242188e+01,2.258345985412597656e+01,3.279983139038085938e+01
4.480000138282775879e-01,2.000000000000000000e+00,-2.375616073608398438e+01,-3.018803119659423828e+00,4.680338668823242188e+01,9.484999847412109375e+01,8.488641357421875000e+01,1.356801147460937500e+02,-1.124350905418395996e+00,-3.266560745239257812e+01,-1.845131988525390625e+02,3.641572952270507812e+01,2.260092353820800781e+01,3.279425048828125000e+01
4.519999921321868896e-01,2.000000000000000000e+00,-2.381016540527343750e+01,-2.981522798538208008e+00,4.675822067260742188e+01,9.485736083984375000e+01,8.488505554199218750e+01,1.356706542968750000e+02,-1.175671458244323730e+00,-3.265980148315429688e+01,-1.845081176757812500e+02,3.641772460937500000e+01,2.261838150024414062e+01,3.278866958618164062e+01
4.560000002384185791e-01,2.000000000000000000e+00,-2.386415863037109375e+01,-2.944251060485839844e+00,4.671306991577148438e+01,9.486472320556640625e+01,8.488369750976562500e+01,1.356611938476562500e+02,-1.226980090141296387e+00,-3.265399169921875000e+01,-1.845030364990234375e+02,3.641971969604492188e+01,2.263583374023437500e+01,3.278308486938476562e+01
4.600000083446502686e-01,2.000000000000000000e+00,-2.391813850402832031e+01,-2.906987667083740234e+00,4.666792678833007812e+01,9.487207794189453125e+01,8.488233947753906250e+01,1.356517181396484375e+02,-1.278277039527893066e+00,-3.264818572998046875e+01,-1.844979553222656250e+02,3.642171478271484375e+01,2.265328598022460938e+01,3.277750396728515625e+01
4.639999866485595703e-01,2.000000000000000000e+00,-2.397210693359375000e+01,-2.869733095169067383e+00,4.662279510498046875e+01,9.487944030761718750e+01,8.488098144531250000e+01,1.356422729492187500e+02,-1.329562306404113770e+00,-3.264238357543945312e+01,-1.844928894042968750e+02,3.642370605468750000e+01,2.267073249816894531e+01,3.277192687988281250e+01
4.679999947547912598e-01,2.000000000000000000e+00,-2.402606391906738281e+01,-2.832486629486083984e+00,4.657767486572265625e+01,9.488680267333984375e+01,8.487963104248046875e+01,1.356328125000000000e+02,-1.380835771560668945e+00,-3.263657760620117188e+01,-1.844878082275390625e+02,3.642570114135742188e+01,2.268817329406738281e+01,3.276634979248046875e+01
4.720000028610229492e-01,2.000000000000000000e+00,-2.408000564575195312e+01,-2.795248985290527344e+00,4.653256225585937500e+01,9.489414978027343750e+01,8.487827301025390625e+01,1.356233673095703125e+02,-1.432097554206848145e+00,-3.263077545166015625e+01,-1.844827423095703125e+02,3.642769241333007812e+01,2.270561218261718750e+01,3.276077270507812500e+01
4.760000109672546387e-01,2.000000000000000000e+00,-2.413393592834472656e+01,-2.758019924163818359e+00,4.648746490478515625e+01,9.490150451660156250e+01,8.487690734863281250e+01,1.356139068603515625e+02,-1.483347654342651367e+00,-3.262497711181640625e+01,-1.844776611328125000e+02,3.642968368530273438e+01,2.272304534912109375e+01,3.275519561767578125e+01
4.799999892711639404e-01,2.000000000000000000e+00,-2.418785476684570312e+01,-2.720798969268798828e+00,4.644237518310546875e+01,9.490885162353515625e+01,8.487555694580078125e+01,1.356044769287109375e+02,-1.534585952758789062e+00,-3.261917495727539062e+01,-1.844725952148437500e+02,3.643167114257812500e+01,2.274047660827636719e+01,3.274962234497070312e+01
4.839999973773956299e-01,2.000000000000000000e+00,-2.424176025390625000e+01,-2.683586835861206055e+00,4.639729309082031250e+01,9.491620635986328125e+01,8.487419891357421875e+01,1.355950164794921875e+02,-1.585812687873840332e+00,-3.261337661743164062e+01,-1.844675292968750000e+02,3.643366241455078125e+01,2.275790214538574219e+01,3.274405288696289062e+01
4.880000054836273193e-01,2.000000000000000000e+00,-2.429565620422363281e+01,-2.646383285522460938e+00,4.635222244262695312e+01,9.492355346679687500e+01,8.487284851074218750e+01,1.355855865478515625e+02,-1.637027621269226074e+00,-3.260757827758789062e+01,-1.844624481201171875e+02,3.643565368652343750e+01,2.277532386779785156e+01,3.273847961425781250e+01
4.920000135898590088e-01,2.000000000000000000e+00,-2.434953689575195312e+01,-2.609188079833984375e+00,4.630716323852539062e+01,9.493090057373046875e+01,8.487149810791015625e+01,1.355761413574218750e+02,-1.688230872154235840e+00,-3.260178375244140625e+01,-1.844573822021484375e+02,3.643764495849609375e+01,2.279274368286132812e+01,3.273291015625000000e+01
4.959999918937683105e-01,2.000000000000000000e+00,-2.440340805053710938e+01,-2.572001218795776367e+00,4.626211547851562500e+01,9.493824768066406250e+01,8.487013244628906250e+01,1.355666961669921875e+02,-1.739422440528869629e+00,-3.259598922729492188e+01,-1.844523010253906250e+02,3.643963241577148438e+01,2.281015586853027344e+01,3.272734451293945312e+01
5.000000000000000000e-01,2.000000000000000000e+00,-2.445726394653320312e+01,-2.534822940826416016e+00,4.621707534790039062e+01,9.494558715820312500e+01,8.486878204345703125e+01,1.355572662353515625e+02,-1.790602207183837891e+00,-3.259019851684570312e+01,-1.844472351074218750e+02,3.644162368774414062e+01,2.282756614685058594e+01,3.272177505493164062e+01
5.040000081062316895e-01,2.000000000000000000e+00,-2.451110839843750000e+01,-2.497653245925903320e+00,4.617205047607421875e+01,9.495292663574218750e+01,8.486743164062500000e+01,1.355478210449218750e+02,-1.841770529747009277e+00,-3.258440399169921875e+01,-1.844421691894531250e+02,3.644361114501953125e+01,2.284497261047363281e+01,3.271620941162109375e+01
5.080000162124633789e-01,2.000000000000000000e+00,-2.456494140625000000e+01,-2.460492134094238281e+00,4.612702560424804688e+01,9.496027374267578125e+01,8.486608123779296875e+01,1.355383911132812500e+02,-1.892926931381225586e+00,-3.257861709594726562e+01,-1.844371185302734375e+02,3.644559860229492188e+01,2.286237525939941406e+01,3.271064376831054688e+01
5.120000243186950684e-01,2.000000000000000000e+00,-2.461876106262207031e+01,-2.423339366912841797e+00,4.608201980590820312e+01,9.496760559082031250e+01,8.486471557617187500e+01,1.355289611816406250e+02,-1.944071888923645020e+00,-3.257282638549804688e+01,-1.844320526123046875e+02,3.644758605957031250e+01,2.287977409362792969e+01,3.270508193969726562e+01
5.159999728202819824e-01,2.000000000000000000e+00,-2.467256927490234375e+01,-2.386195182800292969e+00,4.603702163696289062e+01,9.497494506835937500e+01,8.486336517333984375e+01,1.355195312500000000e+02,-1.995205044746398926e+00,-3.256703948974609375e+01,-1.844269866943359375e+02,3.644957351684570312e+01,2.289716720581054688e+01,3.269952011108398438e+01
5.199999809265136719e-01,2.000000000000000000e+00,-2.472636604309082031e+01,-2.349059343338012695e+00,4.599203491210937500e+01,9.498227691650390625e+01,8.486201477050781250e+01,1.355101013183593750e+02,-2.046326398849487305e+00,-3.256125259399414062e+01,-1.844219207763671875e+02,3.645156097412109375e+01,2.291455841064453125e+01,3.269395828247070312e+01
5.239999890327453613e-01,2.000000000000000000e+00,-2.478014945983886719e+01,-2.311932086944580078e+00,4.594705963134765625e+01,9.498960876464843750e+01,8.486066436767578125e+01,1.355006866455078125e+02,-2.097436189651489258e+00,-3.255546951293945312e+01,-1.844168701171875000e+02,3.645354461669921875e+01,2.293194580078125000e+01,3.268839645385742188e+01
5.279999971389770508e-01,2.000000000000000000e+00,-2.483391952514648438e+01,-2.274813175201416016e+00,4.590209197998046875e+01,9.499694061279296875e+01,8.485930633544921875e+01,1.354912567138671875e+02,-2.148534297943115234e+00,-3.254968261718750000e+01,-1.844118041992187500e+02,3.645553588867187500e+01,2.294932746887207031e+01,3.268284225463867188e+01
5.320000052452087402e-01,2.000000000000000000e+00,-2.488768005371093750e+01,-2.237702846527099609e+00,4.585713577270507812e+01,9.500427246093750000e+01,8.485795593261718750e+01,1.354818267822265625e+02,-2.199620723724365234e+00,-3.254390335083007812e+01,-1.844067535400390625e+02,3.645751953125000000e+01,2.296670532226562500e+01,3.267728424072265625e+01
5.360000133514404297e-01,2.000000000000000000e+00,-2.494142723083496094e+01,-2.200600862503051758e+00,4.581218719482421875e+01,9.501159667968750000e+01,8.485660552978515625e+01,1.354724121093750000e+02,-2.250695466995239258e+00,-3.253812026977539062e+01,-1.844016876220703125e+02,3.645950317382812500e+01,2.298407936096191406e+01,3.267173004150390625e+01
5.400000214576721191e-01,2.000000000000000000e+00,-2.499515914916992188e+01,-2.163507461547851562e+00,4.576725006103515625e+01,9.501892089843750000e+01,8.485525512695312500e+01,1.354630126953125000e+02,-2.301758527755737305e+00,-3.253234100341796875e+01,-1.843966369628906250e+02,3.646148681640625000e+01,2.300145149230957031e+01,3.266617202758789062e+01
5.440000295639038086e-01,2.000000000000000000e+00,-2.504888153076171875e+01,-2.126422643661499023e+00,4.572232437133789062e+01,9.502625274658203125e+01,8.485390472412109375e+01,1.354535827636718750e+02,-2.352810144424438477e+00,-3.252656173706054688e+01,-1.843915863037109375e+02,3.646347045898437500e+01,2.301881790161132812e+01,3.266061782836914062e+01
5.479999780654907227e-01,2.000000000000000000e+00,-2.510259246826171875e+01,-2.089345932006835938e+00,4.567741012573242188e+01,9.503356933593750000e+01,8.485255432128906250e+01,1.354441680908203125e+02,-2.403850078582763672e+00,-3.252078628540039062e+01,-1.843865356445312500e+02,3.646545410156250000e+01,2.303618049621582031e+01,3.265506744384765625e+01
5.519999861717224121e-01,2.000000000000000000e+00,-2.515629005432128906e+01,-2.052277803421020508e+00,4.563250350952148438e+01,9.504089355468750000e+01,8.485120391845703125e+01,1.354347686767578125e+02,-2.454878330230712891e+00,-3.251501083374023438e+01,-1.843814849853515625e+02,3.646743774414062500e+01,2.305354118347167969e+01,3.264951705932617188e+01
5.559999942779541016e-01,2.000000000000000000e+00,-2.520997619628906250e+01,-2.015218257904052734e+00,4.558760833740234375e+01,9.504821014404296875e+01,8.484985351562500000e+01,1.354253540039062500e+02,-2.505894899368286133e+00,-3.250923538208007812e+01,-1.843764190673828125e+02,3.646942138671875000e+01,2.307089805603027344e+01,3.264396667480468750e+01
5.600000023841857910e-01,2.000000000000000000e+00,-2.526364898681640625e+01,-1.978167295455932617e+00,4.554272460937500000e+01,9.505553436279296875e+01,8.484850311279296875e+01,1.354159393310546875e+02,-2.556899785995483398e+00,-3.250346374511718750e+01,-1.843713684082031250e+02,3.647140502929687500e+01,2.308824729919433594e+01,3.263842010498046875e+01
5.640000104904174805e-01,2.000000000000000000e+00,-2.531730842590332031e+01,-1.941124677658081055e+00,4.549785232543945312e+01,9.506285095214843750e+01,8.484715270996093750e+01,1.354065551757812500e+02,-2.607892990112304688e+00,-3.249769210815429688e+01,-1.843663330078125000e+02,3.647338485717773438e+01,2.310559654235839844e+01,3.263287353515625000e+01
5.680000185966491699e-01,2.000000000000000000e+00,-2.537095832824707031e+01,-1.904090285301208496e+00,4.545298385620117188e+01,9.507015991210937500e+01,8.484580993652343750e+01,1.353971557617187500e+02,-2.658874750137329102e+00,-3.249192047119140625e+01,-1.843612670898437500e+02,3.647536468505859375e+01,2.312294006347656250e+01,3.262732696533203125e+01
5.720000267028808594e-01,2.000000000000000000e+00,-2.542459487915039062e+01,-1.867064476013183594e+00,4.540813064575195312e+01,9.507746887207031250e+01,8.484445190429687500e+01,1.353877563476562500e+02,-2.709844827651977539e+00,-3.248615264892578125e+01,-1.843562316894531250e+02,3.647734451293945312e+01,2.314027786254882812e+01,3.262178421020507812e+01
5.759999752044677734e-01,2.000000000000000000e+00,-2.547821807861328125e+01,-1.830047130584716797e+00,4.536328506469726562e+01,9.508478546142578125e+01,8.484310913085937500e+01,1.353783569335937500e+02,-2.760802984237670898e+00,-3.248038482666015625e+01,-1.843511962890625000e+02,3.647932815551757812e+01,2.315761375427246094e+01,3.261624145507812500e+01
5.799999833106994629e-01,2.000000000000000000e+00,-2.553183174133300781e+01,-1.793038249015808105e+00,4.531845092773437500e+01,9.509209442138671875e+01,8.484176635742187500e+01,1.353689575195312500e+02,-2.811749935150146484e+00,-3.247461700439453125e+01,-1.843461456298828125e+02,3.648130798339843750e+01,2.317494392395019531e+01,3.261069869995117188e+01
5.839999914169311523e-01,2.000000000000000000e+00,-2.558543014526367188e+01,-1.756037712097167969e+00,4.527362823486328125e+01,9.509940338134765625e+01,8.484040832519531250e+01,1.353595733642578125e+02,-2.862685203552246094e+00,-3.246885299682617188e+01,-1.843410949707031250e+02,3.648328399658203125e+01,2.319227218627929688e+01,3.260515975952148438e+01
5.879999995231628418e-01,2.000000000000000000e+00,-2.563901710510253906e+01,-1.719045758247375488e+00,4.522881698608398438e+01,9.510671234130859375e+01,8.483906555175781250e+01,1.353501739501953125e+02,-2.913608789443969727e+00,-3.246308517456054688e+01,-1.843360595703125000e+02,3.648526763916015625e+01,2.320959472656250000e+01,3.259962081909179688e+01
5.920000076293945312e-01,2.000000000000000000e+00,-2.569259262084960938e+01,-1.682062029838562012e+00,4.518401336669921875e+01,9.511401367187500000e+01,8.483772277832031250e+01,1.353407897949218750e+02,-2.964520692825317383e+00,-3.245732498168945312e+01,-1.843310089111328125e+02,3.648724365234375000e+01,2.322691345214843750e+01,3.259407806396484375e+01
5.960000157356262207e-01,2.000000000000000000e+00,-2.574615669250488281e+01,-1.645086884498596191e+00,4.513921737670898438e+01,9.512131500244140625e+01,8.483636474609375000e+01,1.353314056396484375e+02,-3.015420913696289062e+00,-3.245156478881835938e+01,-1.843259735107421875e+02,3.648922348022460938e+01,2.324422836303710938e+01,3.258854293823242188e+01
6.000000238418579102e-01,2.000000000000000000e+00,-2.579970741271972656e+01,-1.608120322227478027e+00,4.509443664550781250e+01,9.512861633300781250e+01,8.483502197265625000e+01,1.353220214843750000e+02,-3.066309690475463867e+00,-3.244580459594726562e+01,-1.843209381103515625e+02,3.649119949340820312e+01,2.326153945922851562e+01,3.258300781250000000e+01
6.039999723434448242e-01,2.000000000000000000e+00,-2.585324668884277344e+01,-1.571162104606628418e+00,4.504966354370117188e+01,9.513591766357421875e+01,8.483367919921875000e+01,1.353126373291015625e+02,-3.117187023162841797e+00,-3.244004440307617188e+01,-1.843159027099609375e+02,3.649317932128906250e+01,2.327884674072265625e+01,3.257747268676757812e+01
6.079999804496765137e-01,2.000000000000000000e+00,-2.590677261352539062e+01,-1.534212231636047363e+00,4.500490188598632812e+01,9.514321136474609375e+01,8.483232879638671875e+01,1.353032531738281250e+02,-3.168052434921264648e+00,-3.243428802490234375e+01,-1.843108673095703125e+02,3.649515151977539062e+01,2.329615211486816406e+01,3.257194137573242188e+01
6.119999885559082031e-01,2.000000000000000000e+00,-2.596028709411621094e+01,-1.497270703315734863e+00,4.496015167236328125e+01,9.515051269531250000e+01,8.483098602294921875e+01,1.352938842773437500e+02,-3.218906402587890625e+00,-3.242853164672851562e+01,-1.843058319091796875e+02,3.649713134765625000e+01,2.331345176696777344e+01,3.256640625000000000e+01
6.159999966621398926e-01,2.000000000000000000e+00,-2.601379013061523438e+01,-1.460337400436401367e+00,4.491540527343750000e+01,9.515780639648437500e+01,8.482963562011718750e+01,1.352845001220703125e+02,-3.269748926162719727e+00,-3.242277526855468750e+01,-1.843007965087890625e+02,3.649910736083984375e+01,2.333074569702148438e+01,3.256087875366210938e+01
6.200000047683715820e-01,2.000000000000000000e+00,-2.606727981567382812e+01,-1.423412442207336426e+00,4.487067413330078125e+01,9.516509246826171875e+01,8.482829284667968750e+01,1.352751312255859375e+02,-3.320579767227172852e+00,-3.241702270507812500e+01,-1.842957763671875000e+02,3.650107955932617188e+01,2.334803771972656250e+01,3.255534744262695312e+01
6.240000128746032715e-01,2.000000000000000000e+00,-2.612075805664062500e+01,-1.386495828628540039e+00,4.482595443725585938e+01,9.517238616943359375e+01,8.482695007324218750e+01,1.352657623291015625e+02,-3.371399164199829102e+00,-3.241127014160156250e+01,-1.842907257080078125e+02,3.650305557250976562e+01,2.336532402038574219e+01,3.254981994628906250e+01
6.280000209808349609e-01,2.000000000000000000e+00,-2.617422485351562500e+01,-1.349587678909301758e+00,4.478124237060546875e+01,9.517967987060546875e+01,8.482559967041015625e+01,1.352563934326171875e+02,-3.422206878662109375e+00,-3.240552139282226562e+01,-1.842857055664062500e+02,3.650503158569335938e+01,2.338260841369628906e+01,3.254429626464843750e+01
6.320000290870666504e-01,2.000000000000000000e+00,-2.622767829895019531e+01,-1.312687873840332031e+00,4.473654174804687500e+01,9.518696594238281250e+01,8.482426452636718750e+01,1.352470245361328125e+02,-3.473003387451171875e+00,-3.239977264404296875e+01,-1.842806854248046875e+02,3.650700759887695312e+01,2.339988899230957031e+01,3.253876876831054688e+01
6.359999775886535645e-01,2.000000000000000000e+00,-2.628112030029296875e+01,-1.275796413421630859e+00,4.469185256958007812e+01,9.519425201416015625e+01,8.482292175292968750e+01,1.352376556396484375e+02,-3.523788213729858398e+00,-3.239402389526367188e+01,-1.842756500244140625e+02,3.650897979736328125e+01,2.341716384887695312e+01,3.253324508666992188e+01
6.399999856948852539e-01,2.000000000000000000e+00,-2.633455085754394531e+01,-1.238913178443908691e+00,4.464716720581054688e+01,9.520153045654296875e+01,8.482157135009765625e+01,1.352282867431640625e+02,-3.574561595916748047e+00,-3.238827514648437500e+01,-1.842706298828125000e+02,3.651095199584960938e+01,2.343443489074707031e+01,3.252772140502929688e+01
6.439999938011169434e-01,2.000000000000000000e+00,-2.638796806335449219e+01,-1.202038288116455078e+00,4.460249710083007812e+01,9.520882415771484375e+01,8.482022857666015625e+01,1.352189331054687500e+02,-3.625323534011840820e+00,-3.238253021240234375e+01,-1.842655944824218750e+02,3.651292419433593750e+01,2.345170402526855469e+01,3.252219772338867188e+01
6.480000019073486328e-01,2.000000000000000000e+00,-2.644137573242187500e+01,-1.165171742439270020e+00,4.455783462524414062e+01,9.521610260009765625e+01,8.481888580322265625e+01,1.352095794677734375e+02,-3.676074504852294922e+00,-3.237678909301757812e+01,-1.842605743408203125e+02,3.651489639282226562e+01,2.346896934509277344e+01,3.251667785644531250e+01
6.520000100135803223e-01,2.000000000000000000e+00,-2.649476814270019531e+01,-1.128313302993774414e+00,4.451318359375000000e+01,9.522338104248046875e+01,8.481754302978515625e+01,1.352002258300781250e+02,-3.726813316345214844e+00,-3.237104415893554688e+01,-1.842555389404296875e+02,3.651686859130859375e+01,2.348622894287109375e+01,3.251115798950195312e+01
6.560000181198120117e-01,2.000000000000000000e+00,-2.654815101623535156e+01,-1.091463208198547363e+00,4.446854400634765625e+01,9.523065948486328125e+01,8.481620788574218750e+01,1.351908721923828125e+02,-3.777541637420654297e+00,-3.236530303955078125e+01,-1.842505340576171875e+02,3.651884078979492188e+01,2.350348472595214844e+01,3.250564193725585938e+01
6.600000262260437012e-01,2.000000000000000000e+00,-2.660152053833007812e+01,-1.054621338844299316e+00,4.442391204833984375e+01,9.523793029785156250e+01,8.481485748291015625e+01,1.351815032958984375e+02,-3.828258275985717773e+00,-3.235956192016601562e+01,-1.842454986572265625e+02,3.652080917358398438e+01,2.352073860168457031e+01,3.250012207031250000e+01
6.639999747276306152e-01,2.000000000000000000e+00,-2.665487861633300781e+01,-1.017787694931030273e+00,4.437929153442382812e+01,9.524521636962890625e+01,8.481352233886718750e+01,1.351721649169921875e+02,-3.878963470458984375e+00,-3.235382080078125000e+01,-1.842404937744140625e+02,3.652278137207031250e+01,2.353798675537109375e+01,3.249460983276367188e+01
6.679999828338623047e-01,2.000000000000000000e+00,-2.670822525024414062e+01,-9.809623360633850098e-01,4.433467864990234375e+01,9.525247955322265625e+01,8.481217193603515625e+01,1.351628265380859375e+02,-3.929657697677612305e+00,-3.234808349609375000e+01,-1.842354583740234375e+02,3.652474975585937500e+01,2.355523109436035156e+01,3.248909378051757812e+01
6.719999909400939941e-01,2.000000000000000000e+00,-2.676155853271484375e+01,-9.441450834274291992e-01,4.429007720947265625e+01,9.525975799560546875e+01,8.481083679199218750e+01,1.351534576416015625e+02,-3.980340242385864258e+00,-3.234234619140625000e+01,-1.842304534912109375e+02,3.652672195434570312e+01,2.357247161865234375e+01,3.248358154296875000e+01
6.759999990463256836e-01,2.000000000000000000e+00,-2.681488227844238281e+01,-9.073361158370971680e-01,4.424548339843750000e+01,9.526702117919921875e+01,8.480949401855468750e+01,1.351441192626953125e+02,-4.031012058258056641e+00,-3.233661270141601562e+01,-1.842254333496093750e+02,3.652869033813476562e+01,2.358971023559570312e+01,3.247806930541992188e+01
6.800000071525573730e-01,2.000000000000000000e+00,-2.686819267272949219e+01,-8.705353140830993652e-01,4.420090484619140625e+01,9.527429962158203125e+01,8.480815124511718750e+01,1.351347961425781250e+02,-4.081672668457031250e+00,-3.233087921142578125e+01,-1.842204132080078125e+02,3.653065872192382812e+01,2.360694313049316406e+01,3.247255706787109375e+01
6.840000152587890625e-01,2.000000000000000000e+00,-2.692149162292480469e+01,-8.337426185607910156e-01,4.415633392333984375e+01,9.528155517578125000e+01,8.480681610107421875e+01,1.351254425048828125e+02,-4.132321357727050781e+00,-3.232514572143554688e+01,-1.842153930664062500e+02,3.653262710571289062e+01,2.362417411804199219e+01,3.246704864501953125e+01
6.880000233650207520e-01,2.000000000000000000e+00,-2.697477722167968750e+01,-7.969581484794616699e-01,4.411177062988281250e+01,9.528882598876953125e+01,8.480547332763671875e+01,1.351161041259765625e+02,-4.182959079742431641e+00,-3.231941223144531250e+01,-1.842103881835937500e+02,3.653459548950195312e+01,2.364139938354492188e+01,3.246154022216796875e+01
6.919999718666076660e-01,2.000000000000000000e+00,-2.702805328369140625e+01,-7.601818442344665527e-01,4.406721496582031250e+01,9.529608917236328125e+01,8.480413818359375000e+01,1.351067657470703125e+02,-4.233585834503173828e+00,-3.231368255615234375e+01,-1.842053680419921875e+02,3.653656387329101562e+01,2.365862083435058594e+01,3.245603561401367188e+01
6.959999799728393555e-01,2.000000000000000000e+00,-2.708131599426269531e+01,-7.234137058258056641e-01,4.402267837524414062e+01,9.530335235595703125e+01,8.480279541015625000e+01,1.350974426269531250e+02,-4.284201145172119141e+00,-3.230795288085937500e+01,-1.842003631591796875e+02,3.653853225708007812e+01,2.367584037780761719e+01,3.245052719116210938e+01
6.999999880790710449e-01,2.000000000000000000e+00,-2.713456726074218750e+01,-6.866536736488342285e-01,4.397814559936523438e+01,9.531061553955078125e+01,8.480145263671875000e+01,1.350881042480468750e+02,-4.334805011749267578e+00,-3.230222702026367188e+01,-1.841953582763671875e+02,3.654049682617187500e+01,2.369305419921875000e+01,3.244502258300781250e+01
7.039999961853027344e-01,2.000000000000000000e+00,-2.718780517578125000e+01,-6.499018669128417969e-01,4.393362045288085938e+01,9.531787109375000000e+01,8.480010986328125000e+01,1.350787811279296875e+02,-4.385397911071777344e+00,-3.229649734497070312e+01,-1.841903381347656250e+02,3.654246139526367188e+01,2.371026420593261719e+01,3.243951797485351562e+01
7.080000042915344238e-01,2.000000000000000000e+00,-2.724103355407714844e+01,-6.131581664085388184e-01,4.388911056518554688e+01,9.532512664794921875e+01,8.479877471923828125e+01,1.350694580078125000e+02,-4.435979843139648438e+00,-3.229077529907226562e+01,-1.841853485107421875e+02,3.654442977905273438e+01,2.372747039794921875e+01,3.243401718139648438e+01
7.120000123977661133e-01,2.000000000000000000e+00,-2.729425048828125000e+01,-5.764225721359252930e-01,4.384460830688476562e+01,9.533238220214843750e+01,8.479743957519531250e+01,1.350601196289062500e+02,-4.486550331115722656e+00,-3.228504943847656250e+01,-1.841803283691406250e+02,3.654639434814453125e+01,2.374467468261718750e+01,3.242851638793945312e+01
7.160000205039978027e-01,2.000000000000000000e+00,-2.734745407104492188e+01,-5.396951436996459961e-01,4.380010986328125000e+01,9.533963012695312500e+01,8.479610443115234375e+01,1.350508117675781250e+02,-4.537109375000000000e+00,-3.227932739257812500e+01,-1.841753234863281250e+02,3.654835891723632812e+01,2.376187324523925781e+01,3.242301940917968750e+01
7.200000286102294922e-01,2.000000000000000000e+00,-2.740064620971679688e+01,-5.029758810997009277e-01,4.375563049316406250e+01,9.534688568115234375e+01,8.479476165771484375e+01,1.350414733886718750e+02,-4.587657451629638672e+00,-3.227360916137695312e+01,-1.841703186035156250e+02,3.655032348632812500e+01,2.377906799316406250e+01,3.241751861572265625e+01
7.239999771118164062e-01,2.000000000000000000e+00,-2.745382690429687500e+01,-4.662647843360900879e-01,4.371115875244140625e+01,9.535414123535156250e+01,8.479342651367187500e+01,1.350321655273437500e+02,-4.638194561004638672e+00,-3.226788711547851562e+01,-1.841653137207031250e+02,3.655228805541992188e+01,2.379625892639160156e+01,3.241202163696289062e+01
7.279999852180480957e-01,2.000000000000000000e+00,-2.750699615478515625e+01,-4.295617938041687012e-01,4.366669464111328125e+01,9.536138916015625000e+01,8.479208374023437500e+01,1.350228424072265625e+02,-4.688720226287841797e+00,-3.226216506958007812e+01,-1.841603088378906250e+02,3.655425262451171875e+01,2.381344795227050781e+01,3.240652465820312500e+01
7.319999933242797852e-01,2.000000000000000000e+00,-2.756015396118164062e+01,-3.928669393062591553e-01,4.362223815917968750e+01,9.536863708496093750e+01,8.479075622558593750e+01,1.350135192871093750e+02,-4.739234447479248047e+00,-3.225645065307617188e+01,-1.841553192138671875e+02,3.655621337890625000e+01,2.383063125610351562e+01,3.240103149414062500e+01
7.360000014305114746e-01,2.000000000000000000e+00,-2.761329650878906250e+01,-3.561801910400390625e-01,4.357779693603515625e+01,9.537588500976562500e+01,8.478941345214843750e+01,1.350042114257812500e+02,-4.789737701416015625e+00,-3.225073242187500000e+01,-1.841503143310546875e+02,3.655817794799804688e+01,2.384781265258789062e+01,3.239553451538085938e+01
7.400000095367431641e-01,2.000000000000000000e+00,-2.766643142700195312e+01,-3.195016086101531982e-01,4.353336334228515625e+01,9.538312530517578125e+01,8.478807830810546875e+01,1.349949035644531250e+02,-4.840229988098144531e+00,-3.224501800537109375e+01,-1.841453247070312500e+02,3.656013870239257812e+01,2.386498832702636719e+01,3.239004516601562500e+01
7.440000176429748535e-01,2.000000000000000000e+00,-2.771955299377441406e+01,-2.828311324119567871e-01,4.348893737792968750e+01,9.539036560058593750e+01,8.478674316406250000e+01,1.349855957031250000e+02,-4.890710353851318359e+00,-3.223930740356445312e+01,-1.841403198242187500e+02,3.656210327148437500e+01,2.388216209411621094e+01,3.238455200195312500e+01
7.480000257492065430e-01,2.000000000000000000e+00,-2.777266311645507812e+01,-2.461687922477722168e-01,4.344452667236328125e+01,9.539760589599609375e+01,8.478540802001953125e+01,1.349762878417968750e+02,-4.941180229187011719e+00,-3.223359298706054688e+01,-1.841353149414062500e+02,3.656406402587890625e+01,2.389932823181152344e+01,3.237906265258789062e+01
7.519999742507934570e-01,2.000000000000000000e+00,-2.782575988769531250e+01,-2.095145583152770996e-01,4.340012359619140625e+01,9.540484619140625000e+01,8.478407287597656250e+01,1.349669799804687500e+02,-4.991639137268066406e+00,-3.222787857055664062e+01,-1.841303253173828125e+02,3.656602096557617188e+01,2.391649246215820312e+01,3.237357330322265625e+01
7.559999823570251465e-01,2.000000000000000000e+00,-2.787884712219238281e+01,-1.728684455156326294e-01,4.335572433471679688e+01,9.541208648681640625e+01,8.478273773193359375e+01,1.349576873779296875e+02,-5.042086124420166016e+00,-3.222216796875000000e+01,-1.841253356933593750e+02,3.656798171997070312e+01,2.393365669250488281e+01,3.236808395385742188e+01
7.599999904632568359e-01,2.000000000000000000e+00,-2.793192100524902344e+01,-1.362304389476776123e-01,4.331134414672851562e+01,9.541931915283203125e+01,8.478140258789062500e+01,1.349483795166015625e+02,-5.092522621154785156e+00,-3.221646118164062500e+01,-1.841203308105468750e+02,3.656994247436523438e+01,2.395081138610839844e+01,3.236260223388671875e+01
7.639999985694885254e-01,2.000000000000000000e+00,-2.798498344421386719e+01,-9.960056096315383911e-02,4.326696777343750000e+01,9.542655181884765625e+01,8.478006744384765625e+01,1.349390869140625000e+02,-5.142947196960449219e+00,-3.221075439453125000e+01,-1.841153411865234375e+02,3.657190322875976562e+01,2.396796607971191406e+01,3.235711288452148438e+01
7.680000066757202148e-01,2.000000000000000000e+00,-2.803803443908691406e+01,-6.297878921031951904e-02,4.322260284423828125e+01,9.543378448486328125e+01,8.477873229980468750e+01,1.349297943115234375e+02,-5.193361282348632812e+00,-3.220504760742187500e+01,-1.841103515625000000e+02,3.657386398315429688e+01,2.398511695861816406e+01,3.235163116455078125e+01
7.720000147819519043e-01,2.000000000000000000e+00,-2.809107398986816406e+01,-2.636511437594890594e-02,4.317824935913085938e+01,9.544102478027343750e+01,8.477740478515625000e+01,1.349205017089843750e+02,-5.243763923645019531e+00,-3.219934082031250000e+01,-1.841053619384765625e+02,3.657582092285156250e+01,2.400226211547851562e+01,3.234614562988281250e+01
7.760000228881835938e-01,2.000000000000000000e+00,-2.814410209655761719e+01,1.024045422673225403e-02,4.313390350341796875e+01,9.544825744628906250e+01,8.477606964111328125e+01,1.349111938476562500e+02,-5.294155120849609375e+00,-3.219363784790039062e+01,-1.841003723144531250e+02,3.657778167724609375e+01,2.401940345764160156e+01,3.234066772460937500e+01
7.799999713897705078e-01,2.000000000000000000e+00,-2.819711875915527344e+01,4.683791846036911011e-02,4.308956527709960938e+01,9.545548248291015625e+01,8.477473449707031250e+01,1.349019012451171875e+02,-5.344535350799560547e+00,-3.218793487548828125e+01,-1.840953826904296875e+02,3.657973861694335938e+01,2.403654289245605469e+01,3.233518600463867188e+01
7.839999794960021973e-01,2.000000000000000000e+00,-2.825012207031250000e+01,8.342729508876800537e-02,4.304524230957031250e+01,9.546270751953125000e+01,8.477339935302734375e+01,1.348926239013671875e+02,-5.394904613494873047e+00,-3.218223571777343750e+01,-1.840904083251953125e+02,3.658169555664062500e+01,2.405367660522460938e+01,3.232970809936523438e+01
7.879999876022338867e-01,2.000000000000000000e+00,-2.830311393737792969e+01,1.200085580348968506e-01,4.300092697143554688e+01,9.546993255615234375e+01,8.477206420898437500e+01,1.348833465576171875e+02,-5.445262908935546875e+00,-3.217653656005859375e+01,-1.840854187011718750e+02,3.658365249633789062e+01,2.407080841064453125e+01,3.232423019409179688e+01
7.919999957084655762e-01,2.000000000000000000e+00,-2.835609626770019531e+01,1.565817445516586304e-01,4.295661926269531250e+01,9.547714996337890625e+01,8.477073669433593750e+01,1.348740539550781250e+02,-5.495609760284423828e+00,-3.217083740234375000e+01,-1.840804290771484375e+02,3.658560943603515625e+01,2.408793449401855469e+01,3.231875228881835938e+01
7.960000038146972656e-01,2.000000000000000000e+00,-2.840906333923339844e+01,1.931468397378921509e-01,4.291232299804687500e+01,9.548438262939453125e+01,8.476940155029296875e+01,1.348647613525390625e+02,-5.545946121215820312e+00,-3.216514205932617188e+01,-1.840754394531250000e+02,3.658756637573242188e+01,2.410505867004394531e+01,3.231327819824218750e+01
8.000000119209289551e-01,2.000000000000000000e+00,-2.846202278137207031e+01,2.297038584947586060e-01,4.286803817749023438e+01,9.549160003662109375e+01,8.476807403564453125e+01,1.348554840087890625e+02,-5.596270084381103516e+00,-3.215944290161132812e+01,-1.840704650878906250e+02,3.658952331542968750e+01,2.412217521667480469e+01,3.230780410766601562e+01
8.040000200271606445e-01,2.000000000000000000e+00,-2.851496696472167969e+01,2.662527859210968018e-01,4.282376480102539062e+01,9.549881744384765625e+01,8.476673889160156250e+01,1.348462066650390625e+02,-5.646584033966064453e+00,-3.215374755859375000e+01,-1.840654907226562500e+02,3.659147644042968750e+01,2.413929176330566406e+01,3.230233001708984375e+01
8.080000281333923340e-01,2.000000000000000000e+00,-2.856789970397949219e+01,3.027935922145843506e-01,4.277949523925781250e+01,9.550602722167968750e+01,8.476541137695312500e+01,1.348369445800781250e+02,-5.696886062622070312e+00,-3.214805603027343750e+01,-1.840605010986328125e+02,3.659343338012695312e+01,2.415640449523925781e+01,3.229685592651367188e+01
8.119999766349792480e-01,2.000000000000000000e+00,-2.862082290649414062e+01,3.393263816833496094e-01,4.273523712158203125e+01,9.551325225830078125e+01,8.476407623291015625e+01,1.348276672363281250e+02,-5.747177600860595703e+00,-3.214236068725585938e+01,-1.840555114746093750e+02,3.659538650512695312e+01,2.417351150512695312e+01,3.229138565063476562e+01
8.159999847412109375e-01,2.000000000000000000e+00,-2.867373275756835938e+01,3.758510649204254150e-01,4.269099044799804688e+01,9.552046203613281250e+01,8.476274108886718750e+01,1.348183898925781250e+02,-5.797457695007324219e+00,-3.213667297363281250e+01,-1.840505371093750000e+02,3.659733963012695312e+01,2.419061660766601562e+01,3.228591918945312500e+01
8.199999928474426270e-01,2.000000000000000000e+00,-2.872663116455078125e+01,4.123677015304565430e-01,4.264675140380859375e+01,9.552767944335937500e+01,8.476142120361328125e+01,1.348091278076171875e+02,-5.847726821899414062e+00,-3.213098144531250000e+01,-1.840455627441406250e+02,3.659929275512695312e+01,2.420771598815917969e+01,3.228045272827148438e+01
8.240000009536743164e-01,2.000000000000000000e+00,-2.877951812744140625e+01,4.488762617111206055e-01,4.260252761840820312e+01,9.553488159179687500e+01,8.476008605957031250e+01,1.347998504638671875e+02,-5.897984981536865234e+00,-3.212529373168945312e+01,-1.840405883789062500e+02,3.660124588012695312e+01,2.422481346130371094e+01,3.227498245239257812e+01
8.280000090599060059e-01,2.000000000000000000e+00,-2.883239364624023438e+01,4.853767156600952148e-01,4.255830764770507812e+01,9.554209136962890625e+01,8.475875854492187500e+01,1.347905883789062500e+02,-5.948231697082519531e+00,-3.211960601806640625e+01,-1.840356140136718750e+02,3.660319900512695312e+01,2.424190521240234375e+01,3.226951599121093750e+01
8.320000171661376953e-01,2.000000000000000000e+00,-2.888525581359863281e+01,5.218691229820251465e-01,4.251409912109375000e+01,9.554930114746093750e+01,8.475743103027343750e+01,1.347813262939453125e+02,-5.998467445373535156e+00,-3.211392211914062500e+01,-1.840306396484375000e+02,3.660514831542968750e+01,2.425899505615234375e+01,3.226405334472656250e+01
8.360000252723693848e-01,2.000000000000000000e+00,-2.893810844421386719e+01,5.583534836769104004e-01,4.246990203857421875e+01,9.555650329589843750e+01,8.475609588623046875e+01,1.347720642089843750e+02,-6.048692226409912109e+00,-3.210823440551757812e+01,-1.840256652832031250e+02,3.660710144042968750e+01,2.427608108520507812e+01,3.225859069824218750e+01
8.399999737739562988e-01,2.000000000000000000e+00,-2.899094963073730469e+01,5.948297381401062012e-01,4.242571258544921875e+01,9.556371307373046875e+01,8.475477600097656250e+01,1.347628021240234375e+02,-6.098905563354492188e+00,-3.210255050659179688e+01,-1.840206909179687500e+02,3.660905456542968750e+01,2.429316139221191406e+01,3.225312805175781250e+01
8.439999818801879883e-01,2.000000000000000000e+00,-2.904377746582031250e+01,6.312980055809020996e-01,4.238153076171875000e+01,9.557090759277343750e+01,8.475344085693359375e+01,1.347535400390625000e+02,-6.149107933044433594e+00,-3.209687042236328125e+01,-1.840157165527343750e+02,3.661100769042968750e+01,2.431023979187011719e+01,3.224766540527343750e+01
8.479999899864196777e-01,2.000000000000000000e+00,-2.909659576416015625e+01,6.677582263946533203e-01,4.233736419677734375e+01,9.557811737060546875e+01,8.475211334228515625e+01,1.347442932128906250e+02,-6.199299812316894531e+00,-3.209119033813476562e+01,-1.840107574462890625e+02,3.661295700073242188e+01,2.432731437683105469e+01,3.224220657348632812e+01
8.519999980926513672e-01,2.000000000000000000e+00,-2.914940071105957031e+01,7.042103409767150879e-01,4.229320526123046875e+01,9.558531188964843750e+01,8.475078582763671875e+01,1.347350463867187500e+02,-6.249479770660400391e+00,-3.208551025390625000e+01,-1.840057830810546875e+02,3.661490631103515625e+01,2.434438514709472656e+01,3.223674774169921875e+01
8.560000061988830566e-01,2.000000000000000000e+00,-2.920219421386718750e+01,7.406544089317321777e-01,4.224905776977539062e+01,9.559251403808593750e+01,8.474945831298828125e+01,1.347257843017578125e+02,-6.299649238586425781e+00,-3.207983016967773438e+01,-1.840008239746093750e+02,3.661685562133789062e+01,2.436145019531250000e+01,3.223129272460937500e+01
8.600000143051147461e-01,2.000000000000000000e+00,-2.925497817993164062e+01,7.770904898643493652e-01,4.220491790771484375e+01,9.559970855712890625e+01,8.474813079833984375e+01,1.347165374755859375e+02,-6.349807262420654297e+00,-3.207415390014648438e+01,-1.839958648681640625e+02,3.661880493164062500e+01,2.437851333618164062e+01,3.222583389282226562e+01
8.640000224113464355e-01,2.000000000000000000e+00,-2.930774879455566406e+01,8.135184645652770996e-01,4.216078948974609375e+01,9.560690307617187500e+01,8.474680328369140625e+01,1.347072906494140625e+02,-6.399954319000244141e+00,-3.206847763061523438e+01,-1.839908905029296875e+02,3.662075424194335938e+01,2.439557075500488281e+01,3.222037887573242188e+01
8.679999709129333496e-01,2.000000000000000000e+00,-2.936050415039062500e+01,8.499383926391601562e-01,4.211666488647460938e+01,9.561409759521484375e+01,8.474547576904296875e+01,1.346980438232421875e+02,-6.450089931488037109e+00,-3.206280517578125000e+01,-1.839859313964843750e+02,3.662270355224609375e+01,2.441262626647949219e+01,3.221492385864257812e+01
8.719999790191650391e-01,2.000000000000000000e+00,-2.941325378417968750e+01,8.863503336906433105e-01,4.207255554199218750e+01,9.562129211425781250e+01,8.474415588378906250e+01,1.346888122558593750e+02,-6.500215053558349609e+00,-3.205712890625000000e+01,-1.839809722900390625e+02,3.662464904785156250e+01,2.442967796325683594e+01,3.220947647094726562e+01
8.759999871253967285e-01,2.000000000000000000e+00,-2.946598625183105469e+01,9.227541685104370117e-01,4.202845764160156250e+01,9.562847900390625000e+01,8.474282073974609375e+01,1.346795501708984375e+02,-6.550329208374023438e+00,-3.205145645141601562e+01,-1.839760131835937500e+02,3.662659454345703125e+01,2.444672584533691406e+01,3.220402145385742188e+01
8.799999952316284180e-01,2.000000000000000000e+00,-2.951871109008789062e+01,9.591501355171203613e-01,4.198436355590820312e+01,9.563566589355468750e+01,8.474149322509765625e+01,1.346703186035156250e+02,-6.600431919097900391e+00,-3.204578781127929688e+01,-1.839710388183593750e+02,3.662854766845703125e+01,2.446376991271972656e+01,3.219857025146484375e+01
8.840000033378601074e-01,2.000000000000000000e+00,-2.957142448425292969e+01,9.955379962921142578e-01,4.194028091430664062e+01,9.564285278320312500e+01,8.474017333984375000e+01,1.346610870361328125e+02,-6.650523662567138672e+00,-3.204011535644531250e+01,-1.839660797119140625e+02,3.663049316406250000e+01,2.448081016540527344e+01,3.219312286376953125e+01
8.880000114440917969e-01,2.000000000000000000e+00,-2.962412643432617188e+01,1.031917691230773926e+00,4.189620971679687500e+01,9.565003967285156250e+01,8.473884582519531250e+01,1.346518554687500000e+02,-6.700604438781738281e+00,-3.203444671630859375e+01,-1.839611206054687500e+02,3.663243484497070312e+01,2.449784660339355469e+01,3.218767547607421875e+01
8.920000195503234863e-01,2.000000000000000000e+00,-2.967681312561035156e+01,1.068289518356323242e+00,4.185214996337890625e+01,9.565722656250000000e+01,8.473751831054687500e+01,1.346426239013671875e+02,-6.750673770904541016e+00,-3.202877807617187500e+01,-1.839561767578125000e+02,3.663438415527343750e+01,2.451487922668457031e+01,3.218222808837890625e+01
8.960000276565551758e-01,2.000000000000000000e+00,-2.972949218750000000e+01,1.104653358459472656e+00,4.180809783935546875e+01,9.566440582275390625e+01,8.473619842529296875e+01,1.346333770751953125e+02,-6.800732612609863281e+00,-3.202311325073242188e+01,-1.839512176513671875e+02,3.663632965087890625e+01,2.453190612792968750e+01,3.217678070068359375e+01
8.999999761581420898e-01,2.000000000000000000e+00,-2.978215599060058594e+01,1.141009092330932617e+00,4.176405334472656250e+01,9.567158508300781250e+01,8.473487091064453125e+01,1.346241607666015625e+02,-6.850780010223388672e+00,-3.201744842529296875e+01,-1.839462585449218750e+02,3.663827133178710938e+01,2.454893302917480469e+01,3.217133712768554688e+01
9.039999842643737793e-01,2.000000000000000000e+00,-2.983481025695800781e+01,1.177356719970703125e+00,4.172002029418945312e+01,9.567876434326171875e+01,8.473355102539062500e+01,1.346149291992187500e+02,-6.900816917419433594e+00,-3.201178741455078125e+01,-1.839412994384765625e+02,3.664022064208984375e+01,2.456595420837402344e+01,3.216589736938476562e+01
9.079999923706054688e-01,2.000000000000000000e+00,-2.988745307922363281e+01,1.213696479797363281e+00,4.167599868774414062e+01,9.568593597412109375e+01,8.473222351074218750e+01,1.346057128906250000e+02,-6.950842380523681641e+00,-3.200612258911132812e+01,-1.839363555908203125e+02,3.664216232299804688e+01,2.458297157287597656e+01,3.216045379638671875e+01
9.120000004768371582e-01,2.000000000000000000e+00,-2.994008255004882812e+01,1.250028252601623535e+00,4.163198471069335938e+01,9.569311523437500000e+01,8.473090362548828125e+01,1.345964813232421875e+02,-7.000856876373291016e+00,-3.200046157836914062e+01,-1.839313964843750000e+02,3.664410400390625000e+01,2.459998512268066406e+01,3.215501403808593750e+01
9.160000085830688477e-01,2.000000000000000000e+00,-2.999270248413085938e+01,1.286351919174194336e+00,4.158798217773437500e+01,9.570028686523437500e+01,8.472957611083984375e+01,1.345872650146484375e+02,-7.050860404968261719e+00,-3.199480247497558594e+01,-1.839264526367187500e+02,3.664604949951171875e+01,2.461699676513671875e+01,3.214957427978515625e+01
9.200000166893005371e-01,2.000000000000000000e+00,-3.004530906677246094e+01,1.322667598724365234e+00,4.154398727416992188e+01,9.570746612548828125e+01,8.472824859619140625e+01,1.345780487060546875e+02,-7.100852966308593750e+00,-3.198914337158203125e+01,-1.839215087890625000e+02,3.664799118041992188e+01,2.463400077819824219e+01,3.214413833618164062e+01
9.240000247955322266e-01,2.000000000000000000e+00,-3.009790420532226562e+01,1.358975291252136230e+00,4.150000000000000000e+01,9.571463012695312500e+01,8.472693634033203125e+01,1.345688323974609375e+02,-7.150834083557128906e+00,-3.198348808288574219e+01,-1.839165496826171875e+02,3.664993667602539062e+01,2.465100479125976562e+01,3.213870239257812500e+01
9.279999732971191406e-01,2.000000000000000000e+00,-3.015048980712890625e+01,1.395274996757507324e+00,4.145602798461914062e+01,9.572180175781250000e+01,8.472560882568359375e+01,1.345596160888671875e+02,-7.200804710388183594e+00,-3.197783279418945312e+01,-1.839116058349609375e+02,3.665187835693359375e+01,2.466800308227539062e+01,3.213326263427734375e+01
9.319999814033508301e-01,2.000000000000000000e+00,-3.020306205749511719e+01,1.431566834449768066e+00,4.141206359863281250e+01,9.572896575927734375e+01,8.472428894042968750e+01,1.345503997802734375e+02,-7.250763893127441406e+00,-3.197217750549316406e+01,-1.839066619873046875e+02,3.665381622314453125e+01,2.468499946594238281e+01,3.212783050537109375e+01
9.359999895095825195e-01,2.000000000000000000e+00,-3.025562477111816406e+01,1.467850446701049805e+00,4.136810684204101562e+01,9.573613739013671875e+01,8.472296142578125000e+01,1.345411834716796875e+02,-7.300712585449218750e+00,-3.196652221679687500e+01,-1.839017181396484375e+02,3.665575790405273438e+01,2.470199012756347656e+01,3.212239837646484375e+01
9.399999976158142090e-01,2.000000000000000000e+00,-3.030817604064941406e+01,1.504126191139221191e+00,4.132416152954101562e+01,9.574330139160156250e+01,8.472164916992187500e+01,1.345319824218750000e+02,-7.350650310516357422e+00,-3.196087074279785156e+01,-1.838967742919921875e+02,3.665769958496093750e+01,2.471897697448730469e+01,3.211696243286132812e+01
9.440000057220458984e-01,2.000000000000000000e+00,-3.036071395874023438e+01,1.540394067764282227e+00,4.128022766113281250e+01,9.575046539306640625e+01,8.472032165527343750e+01,1.345227813720703125e+02,-7.400576591491699219e+00,-3.195521736145019531e+01,-1.838918151855468750e+02,3.665964126586914062e+01,2.473596000671386719e+01,3.211153411865234375e+01
9.480000138282775879e-01,2.000000000000000000e+00,-3.041323852539062500e+01,1.576653718948364258e+00,4.123630142211914062e+01,9.575762939453125000e+01,8.471900177001953125e+01,1.345135650634765625e+02,-7.450491905212402344e+00,-3.194956970214843750e+01,-1.838868713378906250e+02,3.666157913208007812e+01,2.475294303894042969e+01,3.210610198974609375e+01
9.520000219345092773e-01,2.000000000000000000e+00,-3.046575546264648438e+01,1.612905502319335938e+00,4.119238281250000000e+01,9.576478576660156250e+01,8.471768188476562500e+01,1.345043640136718750e+02,-7.500396251678466797e+00,-3.194392013549804688e+01,-1.838819427490234375e+02,3.666352081298828125e+01,2.476991844177246094e+01,3.210067749023437500e+01
9.559999704360961914e-01,2.000000000000000000e+00,-3.051825904846191406e+01,1.649149298667907715e+00,4.114847564697265625e+01,9.577194213867187500e+01,8.471636199951171875e+01,1.344951629638671875e+02,-7.550290107727050781e+00,-3.193827247619628906e+01,-1.838769989013671875e+02,3.666545867919921875e+01,2.478689002990722656e+01,3.209524536132812500e+01
9.599999785423278809e-01,2.000000000000000000e+00,-3.057074928283691406e+01,1.685385107994079590e+00,4.110457611083984375e+01,9.577909851074218750e+01,8.471504211425781250e+01,1.344859771728515625e+02,-7.600172519683837891e+00,-3.193262672424316406e+01,-1.838720703125000000e+02,3.666739654541015625e+01,2.480385971069335938e+01,3.208982467651367188e+01
9.639999866485595703e-01,2.000000000000000000e+00,-3.062322807312011719e+01,1.721613049507141113e+00,4.106069183349609375e+01,9.578626251220703125e+01,8.471372222900390625e+01,1.344767608642578125e+02,-7.650043964385986328e+00,-3.192698287963867188e+01,-1.838671264648437500e+02,3.666933441162109375e+01,2.482082366943359375e+01,3.208439636230468750e+01
9.679999947547912598e-01,2.000000000000000000e+00,-3.067569732666015625e+01,1.757832884788513184e+00,4.101681137084960938e+01,9.579341125488281250e+01,8.471240234375000000e+01,1.344675750732421875e+02,-7.699904441833496094e+00,-3.192134094238281250e+01,-1.838621978759765625e+02,3.667127227783203125e+01,2.483778762817382812e+01,3.207897567749023438e+01
9.720000028610229492e-01,2.000000000000000000e+00,-3.072815704345703125e+01,1.794044852256774902e+00,4.097294616699218750e+01,9.580055999755859375e+01,8.471108245849609375e+01,1.344583740234375000e+02,-7.749753952026367188e+00,-3.191569900512695312e+01,-1.838572540283203125e+02,3.667321014404296875e+01,2.485474395751953125e+01,3.207355117797851562e+01
9.760000109672546387e-01,2.000000000000000000e+00,-3.078060340881347656e+01,1.830248713493347168e+00,4.092908477783203125e+01,9.580771636962890625e+01,8.470976257324218750e+01,1.344492034912109375e+02,-7.799592971801757812e+00,-3.191005706787109375e+01,-1.838523101806640625e+02,3.667514801025390625e+01,2.487169647216796875e+01,3.206813049316406250e+01
9.800000190734863281e-01,2.000000000000000000e+00,-3.083303451538085938e+01,1.866444826126098633e+00,4.088523483276367188e+01,9.581486511230468750e+01,8.470844268798828125e+01,1.344400024414062500e+02,-7.849421024322509766e+00,-3.190441513061523438e+01,-1.838473815917968750e+02,3.667708587646484375e+01,2.488864707946777344e+01,3.206270980834960938e+01
9.840000271797180176e-01,2.000000000000000000e+00,-3.088545989990234375e+01,1.902632832527160645e+00,4.084139633178710938e+01,9.582200622558593750e+01,8.470712280273437500e+01,1.344308319091796875e+02,-7.899237632751464844e+00,-3.189877700805664062e+01,-1.838424530029296875e+02,3.667901611328125000e+01,2.490559577941894531e+01,3.205729293823242188e+01
9.879999756813049316e-01,2.000000000000000000e+00,-3.093786811828613281e+01,1.938812851905822754e+00,4.079756546020507812e+01,9.582915496826171875e+01,8.470581054687500000e+01,1.344216308593750000e+02,-7.949043273925781250e+00,-3.189313888549804688e+01,-1.838375244140625000e+02,3.668095397949218750e+01,2.492253684997558594e+01,3.205187225341796875e+01
9.919999837875366211e-01,2.000000000000000000e+00,-3.099026870727539062e+01,1.974985122680664062e+00,4.075374984741210938e+01,9.583629608154296875e+01,8.470449066162109375e+01,1.344124603271484375e+02,-7.998837947845458984e+00,-3.188750267028808594e+01,-1.838325958251953125e+02,3.668289184570312500e+01,2.493947601318359375e+01,3.204645538330078125e+01
9.959999918937683105e-01,2.000000000000000000e+00,-3.104265594482421875e+01,2.011149168014526367e+00,4.070993804931640625e+01,9.584344482421875000e+01,8.470317077636718750e+01,1.344032745361328125e+02,-8.048621177673339844e+00,-3.188186836242675781e+01,-1.838276519775390625e+02,3.668482208251953125e+01,2.495641136169433594e+01,3.204104232788085938e+01
1.000000000000000000e+00,2.000000000000000000e+00,-3.109503364562988281e+01,2.047305583953857422e+00,4.066613769531250000e+01,9.585058593750000000e+01,8.470185852050781250e+01,1.343940887451171875e+02,-8.098395347595214844e+00,-3.187623405456542969e+01,-1.838227386474609375e+02,3.668675994873046875e+01,2.497334480285644531e+01,3.203562545776367188e+01
1.003999948501586914e+00,2.000000000000000000e+00,-3.114739799499511719e+01,2.083453655242919922e+00,4.062234497070312500e+01,9.585772705078125000e+01,8.470053863525390625e+01,1.343849182128906250e+02,-8.148156166076660156e+00,-3.187060165405273438e+01,-1.838178100585937500e+02,3.668869400024414062e+01,2.499027061462402344e+01,3.203021240234375000e+01
1.008000016212463379e+00,2.000000000000000000e+00,-3.119975090026855469e+01,2.119594097137451172e+00,4.057856369018554688e+01,9.586486053466796875e+01,8.469922637939453125e+01,1.343757476806640625e+02,-8.197907447814941406e+00,-3.186497116088867188e+01,-1.838128814697265625e+02,3.669062423706054688e+01,2.500719642639160156e+01,3.202479934692382812e+01
1.011999964714050293e+00,2.000000000000000000e+00,-3.125209426879882812e+01,2.155726432800292969e+00,4.053479385375976562e+01,9.587200164794921875e+01,8.469790649414062500e+01,1.343665771484375000e+02,-8.247648239135742188e+00,-3.185934257507324219e+01,-1.838079681396484375e+02,3.669255828857421875e+01,2.502411651611328125e+01,3.201939010620117188e+01
1.016000032424926758e+00,2.000000000000000000e+00,-3.130442428588867188e+01,2.191850900650024414e+00,4.049103164672851562e+01,9.587912750244140625e+01,8.469659423828125000e+01,1.343574066162109375e+02,-8.297376632690429688e+00,-3.185371398925781250e+01,-1.838030395507812500e+02,3.669449234008789062e+01,2.504103279113769531e+01,3.201398086547851562e+01
1.019999980926513672e+00,2.000000000000000000e+00,-3.135674285888671875e+01,2.227967500686645508e+00,4.044727706909179688e+01,9.588626861572265625e+01,8.469527435302734375e+01,1.343482360839843750e+02,-8.347094535827636719e+00,-3.184808731079101562e+01,-1.837981109619140625e+02,3.669642639160156250e+01,2.505794525146484375e+01,3.200857543945312500e+01
1.024000048637390137e+00,2.000000000000000000e+00,-3.140905189514160156e+01,2.264075994491577148e+00,4.040353393554687500e+01,9.589339447021484375e+01,8.469395446777343750e+01,1.343390655517578125e+02,-8.396802902221679688e+00,-3.184245872497558594e+01,-1.837931976318359375e+02,3.669835662841796875e+01,2.507485580444335938e+01,3.200316619873046875e+01
1.026999950408935547e+00,2.000000000000000000e+00,-3.146134757995605469e+01,2.300176858901977539e+00,4.035979843139648438e+01,9.590052795410156250e+01,8.469264221191406250e+01,1.343299102783203125e+02,-8.446498870849609375e+00,-3.183683395385742188e+01,-1.837882690429687500e+02,3.670028686523437500e+01,2.509176063537597656e+01,3.199776077270507812e+01
1.031999945640563965e+00,2.000000000000000000e+00,-3.151363182067871094e+01,2.336269378662109375e+00,4.031607818603515625e+01,9.590765380859375000e+01,8.469132995605468750e+01,1.343207397460937500e+02,-8.496184349060058594e+00,-3.183120918273925781e+01,-1.837833557128906250e+02,3.670221710205078125e+01,2.510866355895996094e+01,3.199235725402832031e+01
1.036000013351440430e+00,2.000000000000000000e+00,-3.156590652465820312e+01,2.372354269027709961e+00,4.027236175537109375e+01,9.591478729248046875e+01,8.469001770019531250e+01,1.343115844726562500e+02,-8.545859336853027344e+00,-3.182558822631835938e+01,-1.837784423828125000e+02,3.670415115356445312e+01,2.512556076049804688e+01,3.198695182800292969e+01
1.039999961853027344e+00,2.000000000000000000e+00,-3.161816787719726562e+01,2.408431291580200195e+00,4.022865676879882812e+01,9.592190551757812500e+01,8.468869781494140625e+01,1.343024139404296875e+02,-8.595523834228515625e+00,-3.181996726989746094e+01,-1.837735290527343750e+02,3.670607757568359375e+01,2.514245605468750000e+01,3.198155212402343750e+01
1.044000029563903809e+00,2.000000000000000000e+00,-3.167041587829589844e+01,2.444500207901000977e+00,4.018496322631835938e+01,9.592903137207031250e+01,8.468738555908203125e+01,1.342932739257812500e+02,-8.645174980163574219e+00,-3.181434440612792969e+01,-1.837686004638671875e+02,3.670800781250000000e+01,2.515934753417968750e+01,3.197614860534667969e+01
1.047999978065490723e+00,2.000000000000000000e+00,-3.172265625000000000e+01,2.480561256408691406e+00,4.014127731323242188e+01,9.593615722656250000e+01,8.468607330322265625e+01,1.342841186523437500e+02,-8.694818496704101562e+00,-3.180872726440429688e+01,-1.837636871337890625e+02,3.670993804931640625e+01,2.517623329162597656e+01,3.197074890136718750e+01
1.052000045776367188e+00,2.000000000000000000e+00,-3.177488327026367188e+01,2.516614437103271484e+00,4.009760284423828125e+01,9.594327545166015625e+01,8.468475341796875000e+01,1.342749633789062500e+02,-8.744448661804199219e+00,-3.180311012268066406e+01,-1.837587738037109375e+02,3.671186828613281250e+01,2.519311714172363281e+01,3.196535110473632812e+01
1.054999947547912598e+00,2.000000000000000000e+00,-3.182710075378417969e+01,2.552659749984741211e+00,4.005393218994140625e+01,9.595039367675781250e+01,8.468344879150390625e+01,1.342658081054687500e+02,-8.794069290161132812e+00,-3.179749488830566406e+01,-1.837538604736328125e+02,3.671379470825195312e+01,2.520999717712402344e+01,3.195995140075683594e+01
1.059999942779541016e+00,2.000000000000000000e+00,-3.187930297851562500e+01,2.588696956634521484e+00,4.001028060913085938e+01,9.595751190185546875e+01,8.468213653564453125e+01,1.342566680908203125e+02,-8.843678474426269531e+00,-3.179187774658203125e+01,-1.837489471435546875e+02,3.671572494506835938e+01,2.522687149047851562e+01,3.195455551147460938e+01
1.064000010490417480e+00,2.000000000000000000e+00,-3.193149757385253906e+01,2.624726533889770508e+00,3.996662902832031250e+01,9.596463012695312500e+01,8.468082427978515625e+01,1.342475128173828125e+02,-8.893277168273925781e+00,-3.178626632690429688e+01,-1.837440490722656250e+02,3.671764755249023438e+01,2.524374389648437500e+01,3.194915962219238281e+01
1.067999958992004395e+00,2.000000000000000000e+00,-3.198367881774902344e+01,2.660748004913330078e+00,3.992299270629882812e+01,9.597174072265625000e+01,8.467951202392578125e+01,1.342383880615234375e+02,-8.942864418029785156e+00,-3.178065109252929688e+01,-1.837391204833984375e+02,3.671957397460937500e+01,2.526061248779296875e+01,3.194376754760742188e+01
1.072000026702880859e+00,2.000000000000000000e+00,-3.203584671020507812e+01,2.696761608123779297e+00,3.987936401367187500e+01,9.597885894775390625e+01,8.467819976806640625e+01,1.342292327880859375e+02,-8.992441177368164062e+00,-3.177504158020019531e+01,-1.837342224121093750e+02,3.672150421142578125e+01,2.527747917175292969e+01,3.193837547302246094e+01
1.075999975204467773e+00,2.000000000000000000e+00,-3.208800888061523438e+01,2.732767581939697266e+00,3.983574676513671875e+01,9.598596954345703125e+01,8.467688751220703125e+01,1.342200927734375000e+02,-9.042006492614746094e+00,-3.176943016052246094e+01,-1.837293243408203125e+02,3.672343063354492188e+01,2.529433822631835938e+01,3.193298149108886719e+01
1.080000042915344238e+00,2.000000000000000000e+00,-3.214015579223632812e+01,2.768765211105346680e+00,3.979213714599609375e+01,9.599308013916015625e+01,8.467557525634765625e+01,1.342109527587890625e+02,-9.091561317443847656e+00,-3.176382255554199219e+01,-1.837244110107421875e+02,3.672535705566406250e+01,2.531119728088378906e+01,3.192759323120117188e+01
1.083999991416931152e+00,2.000000000000000000e+00,-3.219229125976562500e+01,2.804755210876464844e+00,3.974853897094726562e+01,9.600018310546875000e+01,8.467426300048828125e+01,1.342018280029296875e+02,-9.141105651855468750e+00,-3.175821495056152344e+01,-1.837195129394531250e+02,3.672727966308593750e+01,2.532805061340332031e+01,3.192220497131347656e+01
1.088000059127807617e+00,2.000000000000000000e+00,-3.224441528320312500e+01,2.840737104415893555e+00,3.970494842529296875e+01,9.600729370117187500e+01,8.467295074462890625e+01,1.341926879882812500e+02,-9.190638542175292969e+00,-3.175260734558105469e+01,-1.837145996093750000e+02,3.672920608520507812e+01,2.534490013122558594e+01,3.191681480407714844e+01
1.090999960899353027e+00,2.000000000000000000e+00,-3.229652786254882812e+01,2.876711606979370117e+00,3.966136932373046875e+01,9.601439666748046875e+01,8.467164611816406250e+01,1.341835479736328125e+02,-9.240160942077636719e+00,-3.174700355529785156e+01,-1.837097015380859375e+02,3.673113250732421875e+01,2.536174774169921875e+01,3.191142654418945312e+01
1.095999956130981445e+00,2.000000000000000000e+00,-3.234862899780273438e+01,2.912677764892578125e+00,3.961779785156250000e+01,9.602149963378906250e+01,8.467033386230468750e+01,1.341744232177734375e+02,-9.289672851562500000e+00,-3.174139976501464844e+01,-1.837048034667968750e+02,3.673305511474609375e+01,2.537858963012695312e+01,3.190604019165039062e+01
1.100000023841857910e+00,2.000000000000000000e+00,-3.240071868896484375e+01,2.948636293411254883e+00,3.957423782348632812e+01,9.602860260009765625e+01,8.466902160644531250e+01,1.341652984619140625e+02,-9.339173316955566406e+00,-3.173579406738281250e+01,-1.836998901367187500e+02,3.673497772216796875e+01,2.539542961120605469e+01,3.190065765380859375e+01
1.103999972343444824e+00,2.000000000000000000e+00,-3.245279693603515625e+01,2.984586715698242188e+00,3.953068161010742188e+01,9.603570556640625000e+01,8.466770935058593750e+01,1.341561737060546875e+02,-9.388663291931152344e+00,-3.173019409179687500e+01,-1.836949920654296875e+02,3.673690414428710938e+01,2.541226387023925781e+01,3.189527320861816406e+01
1.108000040054321289e+00,2.000000000000000000e+00,-3.250486373901367188e+01,3.020529508590698242e+00,3.948714065551757812e+01,9.604280090332031250e+01,8.466640472412109375e+01,1.341470489501953125e+02,-9.438141822814941406e+00,-3.172459411621093750e+01,-1.836900939941406250e+02,3.673882675170898438e+01,2.542909431457519531e+01,3.188989067077636719e+01
1.111999988555908203e+00,2.000000000000000000e+00,-3.255691909790039062e+01,3.056464195251464844e+00,3.944360733032226562e+01,9.604989624023437500e+01,8.466509246826171875e+01,1.341379241943359375e+02,-9.487609863281250000e+00,-3.171899223327636719e+01,-1.836851959228515625e+02,3.674074554443359375e+01,2.544592475891113281e+01,3.188451194763183594e+01
1.116000056266784668e+00,2.000000000000000000e+00,-3.260896682739257812e+01,3.092391252517700195e+00,3.940008544921875000e+01,9.605699157714843750e+01,8.466378021240234375e+01,1.341288146972656250e+02,-9.537067413330078125e+00,-3.171339607238769531e+01,-1.836802978515625000e+02,3.674266815185546875e+01,2.546274757385253906e+01,3.187912940979003906e+01
