rpiRobotics/ARM-21-02-F-19-Robot-Motion-Program/data_performance_abb/curve_1/dual_arm/diffevo_pose3/grad_result/sim/dual_iteration_0.csv
timestamp,cmd_num,J1,J2,J3,J4,J5,J6,J1_2,J2_2,J3_2,J4_2,J5_2,J6_2
0.000000000000000000e+00,-1.000000000000000000e+00,-1.942915153503417969e+01,-6.251700401306152344e+00,5.030247116088867188e+01,9.398061370849609375e+01,8.465342712402343750e+01,1.370592651367187500e+02,3.032961368560791016e+00,-3.317707443237304688e+01,-1.848945617675781250e+02,3.638277816772460938e+01,2.126744079589843750e+01,3.315235519409179688e+01
2.000000094994902611e-03,-1.000000000000000000e+00,-1.942915153503417969e+01,-6.251700401306152344e+00,5.030247116088867188e+01,9.398061370849609375e+01,8.465342712402343750e+01,1.370592651367187500e+02,3.032961368560791016e+00,-3.317707443237304688e+01,-1.848945617675781250e+02,3.638277816772460938e+01,2.126744079589843750e+01,3.315235519409179688e+01
6.000000052154064178e-03,-1.000000000000000000e+00,-1.942915153503417969e+01,-6.251700401306152344e+00,5.030247116088867188e+01,9.398061370849609375e+01,8.465342712402343750e+01,1.370592651367187500e+02,3.032961368560791016e+00,-3.317707443237304688e+01,-1.848945617675781250e+02,3.638277816772460938e+01,2.126744079589843750e+01,3.315235519409179688e+01
8.000000379979610443e-03,-1.000000000000000000e+00,-1.942915153503417969e+01,-6.251700401306152344e+00,5.030247116088867188e+01,9.398061370849609375e+01,8.465342712402343750e+01,1.370592651367187500e+02,3.032961368560791016e+00,-3.317707443237304688e+01,-1.848945617675781250e+02,3.638277816772460938e+01,2.126744079589843750e+01,3.315235519409179688e+01
1.099999994039535522e-02,-1.000000000000000000e+00,-1.942915153503417969e+01,-6.251700401306152344e+00,5.030247116088867188e+01,9.398061370849609375e+01,8.465342712402343750e+01,1.370592651367187500e+02,3.032961368560791016e+00,-3.317707443237304688e+01,-1.848945617675781250e+02,3.638277816772460938e+01,2.126744079589843750e+01,3.315235519409179688e+01
1.600000075995922089e-02,-1.000000000000000000e+00,-1.942915153503417969e+01,-6.251700401306152344e+00,5.030247116088867188e+01,9.398061370849609375e+01,8.465342712402343750e+01,1.370592651367187500e+02,3.032961368560791016e+00,-3.317707443237304688e+01,-1.848945617675781250e+02,3.638277816772460938e+01,2.126744079589843750e+01,3.315235519409179688e+01
1.999999955296516418e-02,-1.000000000000000000e+00,-1.942915153503417969e+01,-6.251700401306152344e+00,5.030247116088867188e+01,9.398061370849609375e+01,8.465342712402343750e+01,1.370592651367187500e+02,3.032961368560791016e+00,-3.317707443237304688e+01,-1.848945617675781250e+02,3.638277816772460938e+01,2.126744079589843750e+01,3.315235519409179688e+01
2.400000020861625671e-02,-1.000000000000000000e+00,-1.942915153503417969e+01,-6.251700401306152344e+00,5.030247116088867188e+01,9.398061370849609375e+01,8.465342712402343750e+01,1.370592651367187500e+02,3.032961368560791016e+00,-3.317707443237304688e+01,-1.848945617675781250e+02,3.638277816772460938e+01,2.126744079589843750e+01,3.315235519409179688e+01
2.800000086426734924e-02,2.000000000000000000e+00,-1.942915153503417969e+01,-6.251700401306152344e+00,5.030247116088867188e+01,9.398061370849609375e+01,8.465342712402343750e+01,1.370592651367187500e+02,3.032961368560791016e+00,-3.317707443237304688e+01,-1.848945617675781250e+02,3.638277816772460938e+01,2.126744079589843750e+01,3.315235519409179688e+01
3.400000184774398804e-02,2.000000000000000000e+00,-1.942915153503417969e+01,-6.251700401306152344e+00,5.030247116088867188e+01,9.398061370849609375e+01,8.465342712402343750e+01,1.370592651367187500e+02,3.032961368560791016e+00,-3.317707443237304688e+01,-1.848945617675781250e+02,3.638277816772460938e+01,2.126744079589843750e+01,3.315235519409179688e+01
3.799999877810478210e-02,2.000000000000000000e+00,-1.942915153503417969e+01,-6.251700401306152344e+00,5.030247116088867188e+01,9.398061370849609375e+01,8.465342712402343750e+01,1.370592651367187500e+02,3.032961368560791016e+00,-3.317707443237304688e+01,-1.848945617675781250e+02,3.638277816772460938e+01,2.126744079589843750e+01,3.315235519409179688e+01
3.999999910593032837e-02,2.000000000000000000e+00,-1.942915153503417969e+01,-6.251700401306152344e+00,5.030247116088867188e+01,9.398061370849609375e+01,8.465342712402343750e+01,1.370592651367187500e+02,3.032961368560791016e+00,-3.317707443237304688e+01,-1.848945617675781250e+02,3.638277816772460938e+01,2.126744079589843750e+01,3.315235519409179688e+01
4.600000008940696716e-02,2.000000000000000000e+00,-1.942915153503417969e+01,-6.251700401306152344e+00,5.030247116088867188e+01,9.398061370849609375e+01,8.465342712402343750e+01,1.370592651367187500e+02,3.032961368560791016e+00,-3.317707443237304688e+01,-1.848945617675781250e+02,3.638277816772460938e+01,2.126744079589843750e+01,3.315235519409179688e+01
4.800000041723251343e-02,2.000000000000000000e+00,-1.942915153503417969e+01,-6.251700401306152344e+00,5.030247116088867188e+01,9.398061370849609375e+01,8.465342712402343750e+01,1.370592651367187500e+02,3.032961368560791016e+00,-3.317707443237304688e+01,-1.848945617675781250e+02,3.638277816772460938e+01,2.126744079589843750e+01,3.315235519409179688e+01
5.200000107288360596e-02,2.000000000000000000e+00,-1.942915153503417969e+01,-6.251700401306152344e+00,5.030247116088867188e+01,9.398061370849609375e+01,8.465342712402343750e+01,1.370592651367187500e+02,3.032961368560791016e+00,-3.317707443237304688e+01,-1.848945617675781250e+02,3.638277816772460938e+01,2.126744079589843750e+01,3.315235519409179688e+01
5.600000172853469849e-02,2.000000000000000000e+00,-1.942915153503417969e+01,-6.251700401306152344e+00,5.030247116088867188e+01,9.398061370849609375e+01,8.465342712402343750e+01,1.370592651367187500e+02,3.032961368560791016e+00,-3.317707443237304688e+01,-1.848945617675781250e+02,3.638277816772460938e+01,2.126744079589843750e+01,3.315235519409179688e+01
5.999999865889549255e-02,2.000000000000000000e+00,-1.942915153503417969e+01,-6.251700401306152344e+00,5.030247116088867188e+01,9.398061370849609375e+01,8.465342712402343750e+01,1.370592651367187500e+02,3.032961368560791016e+00,-3.317707443237304688e+01,-1.848945617675781250e+02,3.638277816772460938e+01,2.126744079589843750e+01,3.315235519409179688e+01
6.400000303983688354e-02,2.000000000000000000e+00,-1.942915153503417969e+01,-6.251700401306152344e+00,5.030247116088867188e+01,9.398061370849609375e+01,8.465342712402343750e+01,1.370592651367187500e+02,3.032961368560791016e+00,-3.317707443237304688e+01,-1.848945617675781250e+02,3.638277816772460938e+01,2.126744079589843750e+01,3.315235519409179688e+01
6.800000369548797607e-02,2.000000000000000000e+00,-1.942915153503417969e+01,-6.251700401306152344e+00,5.030247116088867188e+01,9.398061370849609375e+01,8.465342712402343750e+01,1.370592651367187500e+02,3.032961368560791016e+00,-3.317707443237304688e+01,-1.848945617675781250e+02,3.638277816772460938e+01,2.126744079589843750e+01,3.315235519409179688e+01
7.199999690055847168e-02,2.000000000000000000e+00,-1.942921829223632812e+01,-6.251673698425292969e+00,5.030245971679687500e+01,9.398061370849609375e+01,8.465342712402343750e+01,1.370592651367187500e+02,3.032961368560791016e+00,-3.317707443237304688e+01,-1.848945617675781250e+02,3.638277816772460938e+01,2.126744079589843750e+01,3.315235519409179688e+01
7.599999755620956421e-02,2.000000000000000000e+00,-1.942959594726562500e+01,-6.251512050628662109e+00,5.030236816406250000e+01,9.398062133789062500e+01,8.465341949462890625e+01,1.370592651367187500e+02,3.032961368560791016e+00,-3.317707443237304688e+01,-1.848945617675781250e+02,3.638277816772460938e+01,2.126744079589843750e+01,3.315235519409179688e+01
7.999999821186065674e-02,2.000000000000000000e+00,-1.943067741394042969e+01,-6.251008987426757812e+00,5.030209350585937500e+01,9.398062896728515625e+01,8.465339660644531250e+01,1.370592651367187500e+02,3.032961368560791016e+00,-3.317707443237304688e+01,-1.848945617675781250e+02,3.638277816772460938e+01,2.126744079589843750e+01,3.315235519409179688e+01
8.399999886751174927e-02,2.000000000000000000e+00,-1.943282699584960938e+01,-6.249924182891845703e+00,5.030147171020507812e+01,9.398065948486328125e+01,8.465334320068359375e+01,1.370592346191406250e+02,3.032934188842773438e+00,-3.317707443237304688e+01,-1.848945465087890625e+02,3.638277816772460938e+01,2.126744270324707031e+01,3.315235519409179688e+01
8.799999952316284180e-02,2.000000000000000000e+00,-1.943627357482910156e+01,-6.248054504394531250e+00,5.030034637451171875e+01,9.398073577880859375e+01,8.465326690673828125e+01,1.370591583251953125e+02,3.032755851745605469e+00,-3.317706298828125000e+01,-1.848945159912109375e+02,3.638278198242187500e+01,2.126745986938476562e+01,3.315235137939453125e+01
9.200000017881393433e-02,2.000000000000000000e+00,-1.944117736816406250e+01,-6.245226383209228516e+00,5.029852294921875000e+01,9.398087310791015625e+01,8.465314483642578125e+01,1.370590057373046875e+02,3.032167434692382812e+00,-3.317702865600585938e+01,-1.848944396972656250e+02,3.638279342651367188e+01,2.126751899719238281e+01,3.315234375000000000e+01
9.600000083446502686e-02,2.000000000000000000e+00,-1.944768905639648438e+01,-6.241278171539306641e+00,5.029580307006835938e+01,9.398111724853515625e+01,8.465299224853515625e+01,1.370587158203125000e+02,3.030816555023193359e+00,-3.317694091796875000e+01,-1.848942413330078125e+02,3.638281631469726562e+01,2.126768112182617188e+01,3.315231704711914062e+01
1.000000014901161194e-01,2.000000000000000000e+00,-1.945583534240722656e+01,-6.236110687255859375e+00,5.029195404052734375e+01,9.398152160644531250e+01,8.465280151367187500e+01,1.370582122802734375e+02,3.028319120407104492e+00,-3.317676544189453125e+01,-1.848938903808593750e+02,3.638286590576171875e+01,2.126803207397460938e+01,3.315224456787109375e+01
1.040000021457672119e-01,2.000000000000000000e+00,-1.946553993225097656e+01,-6.229701042175292969e+00,5.028678512573242188e+01,9.398213958740234375e+01,8.465257263183593750e+01,1.370574188232421875e+02,3.024249076843261719e+00,-3.317645645141601562e+01,-1.848933410644531250e+02,3.638295745849609375e+01,2.126870536804199219e+01,3.315209197998046875e+01
1.080000028014183044e-01,2.000000000000000000e+00,-1.947681808471679688e+01,-6.222017288208007812e+00,5.028006362915039062e+01,9.398303222656250000e+01,8.465232849121093750e+01,1.370562591552734375e+02,3.018136262893676758e+00,-3.317595291137695312e+01,-1.848925323486328125e+02,3.638310241699218750e+01,2.126987266540527344e+01,3.315179061889648438e+01
1.120000034570693970e-01,2.000000000000000000e+00,-1.948992538452148438e+01,-6.212921619415283203e+00,5.027151489257812500e+01,9.398426818847656250e+01,8.465206909179687500e+01,1.370546112060546875e+02,3.009591341018676758e+00,-3.317519760131835938e+01,-1.848914794921875000e+02,3.638332748413085938e+01,2.127173995971679688e+01,3.315127944946289062e+01
1.159999966621398926e-01,2.000000000000000000e+00,-1.950528907775878906e+01,-6.202178478240966797e+00,5.026083374023437500e+01,9.398590850830078125e+01,8.465177154541015625e+01,1.370524597167968750e+02,2.998392343521118164e+00,-3.317412948608398438e+01,-1.848901519775390625e+02,3.638365554809570312e+01,2.127451896667480469e+01,3.315047836303710938e+01
1.199999973177909851e-01,2.000000000000000000e+00,-1.952326583862304688e+01,-6.189575672149658203e+00,5.024772262573242188e+01,9.398799896240234375e+01,8.465145874023437500e+01,1.370496673583984375e+02,2.984385013580322266e+00,-3.317269897460937500e+01,-1.848885803222656250e+02,3.638410186767578125e+01,2.127840995788574219e+01,3.314930343627929688e+01
1.239999979734420776e-01,2.000000000000000000e+00,-1.954401779174804688e+01,-6.175032138824462891e+00,5.023198699951171875e+01,9.399059295654296875e+01,8.465112304687500000e+01,1.370461883544921875e+02,2.967336416244506836e+00,-3.317086029052734375e+01,-1.848867645263671875e+02,3.638467788696289062e+01,2.128359031677246094e+01,3.314769744873046875e+01
1.280000060796737671e-01,2.000000000000000000e+00,-1.956751060485839844e+01,-6.158596515655517578e+00,5.021352386474609375e+01,9.399372100830078125e+01,8.465077972412109375e+01,1.370419769287109375e+02,2.946963310241699219e+00,-3.316857910156250000e+01,-1.848846893310546875e+02,3.638540649414062500e+01,2.129018592834472656e+01,3.314561843872070312e+01
1.309999972581863403e-01,2.000000000000000000e+00,-1.959364700317382812e+01,-6.140352725982666016e+00,5.019227981567382812e+01,9.399742126464843750e+01,8.465042114257812500e+01,1.370370025634765625e+02,2.923073053359985352e+00,-3.316583251953125000e+01,-1.848823394775390625e+02,3.638629150390625000e+01,2.129826354980468750e+01,3.314303970336914062e+01
1.360000073909759521e-01,2.000000000000000000e+00,-1.962234687805175781e+01,-6.120359420776367188e+00,5.016825103759765625e+01,9.400168609619140625e+01,8.465007019042968750e+01,1.370312194824218750e+02,2.895584344863891602e+00,-3.316261291503906250e+01,-1.848796844482421875e+02,3.638732910156250000e+01,2.130782318115234375e+01,3.313996887207031250e+01
1.389999985694885254e-01,2.000000000000000000e+00,-1.965352439880371094e+01,-6.098672389984130859e+00,5.014149093627929688e+01,9.400653076171875000e+01,8.464970397949218750e+01,1.370246582031250000e+02,2.864467144012451172e+00,-3.315893554687500000e+01,-1.848767242431640625e+02,3.638851547241210938e+01,2.131881523132324219e+01,3.313642501831054688e+01
1.439999938011169434e-01,2.000000000000000000e+00,-1.968708038330078125e+01,-6.075347423553466797e+00,5.011210632324218750e+01,9.401190948486328125e+01,8.464935302734375000e+01,1.370173492431640625e+02,2.829777717590332031e+00,-3.315482330322265625e+01,-1.848734283447265625e+02,3.638985061645507812e+01,2.133113670349121094e+01,3.313244628906250000e+01
1.480000019073486328e-01,2.000000000000000000e+00,-1.972302818298339844e+01,-6.050349712371826172e+00,5.008021545410156250e+01,9.401780700683593750e+01,8.464897918701171875e+01,1.370093688964843750e+02,2.791744470596313477e+00,-3.315032196044921875e+01,-1.848698272705078125e+02,3.639131164550781250e+01,2.134465980529785156e+01,3.312808227539062500e+01
1.519999951124191284e-01,2.000000000000000000e+00,-1.976149940490722656e+01,-6.023557662963867188e+00,5.004593276977539062e+01,9.402414703369140625e+01,8.464859008789062500e+01,1.370007476806640625e+02,2.750773668289184570e+00,-3.314546966552734375e+01,-1.848659362792968750e+02,3.639288711547851562e+01,2.135922050476074219e+01,3.312337875366210938e+01
1.560000032186508179e-01,2.000000000000000000e+00,-1.980256080627441406e+01,-5.994895935058593750e+00,5.000942230224609375e+01,9.403088378906250000e+01,8.464817047119140625e+01,1.369916076660156250e+02,2.707319259643554688e+00,-3.314033126831054688e+01,-1.848618164062500000e+02,3.639455413818359375e+01,2.137465095520019531e+01,3.311839675903320312e+01
1.599999964237213135e-01,2.000000000000000000e+00,-1.984605026245117188e+01,-5.964460372924804688e+00,4.997093963623046875e+01,9.403794860839843750e+01,8.464771270751953125e+01,1.369819946289062500e+02,2.661757707595825195e+00,-3.313496017456054688e+01,-1.848574676513671875e+02,3.639629745483398438e+01,2.139077568054199219e+01,3.311319351196289062e+01
1.640000045299530029e-01,2.000000000000000000e+00,-1.989159774780273438e+01,-5.932478904724121094e+00,4.993078994750976562e+01,9.404529571533203125e+01,8.464720916748046875e+01,1.369720458984375000e+02,2.614401102066040039e+00,-3.312939453125000000e+01,-1.848529357910156250e+02,3.639810180664062500e+01,2.140744018554687500e+01,3.310783004760742188e+01
1.679999977350234985e-01,2.000000000000000000e+00,-1.993881988525390625e+01,-5.899188995361328125e+00,4.988927841186523438e+01,9.405285644531250000e+01,8.464667510986328125e+01,1.369617919921875000e+02,2.565560340881347656e+00,-3.312369155883789062e+01,-1.848482360839843750e+02,3.639995193481445312e+01,2.142449188232421875e+01,3.310234832763671875e+01
1.720000058412551880e-01,2.000000000000000000e+00,-1.998745346069335938e+01,-5.864778518676757812e+00,4.984666824340820312e+01,9.406057739257812500e+01,8.464611816406250000e+01,1.369513397216796875e+02,2.515563726425170898e+00,-3.311788558959960938e+01,-1.848433837890625000e+02,3.640183258056640625e+01,2.144180679321289062e+01,3.309679412841796875e+01
1.759999990463256836e-01,2.000000000000000000e+00,-2.003734588623046875e+01,-5.829406738281250000e+00,4.980317687988281250e+01,9.406842803955078125e+01,8.464553070068359375e+01,1.369407043457031250e+02,2.464704751968383789e+00,-3.311201095581054688e+01,-1.848384246826171875e+02,3.640373229980468750e+01,2.145928192138671875e+01,3.309120178222656250e+01
1.800000071525573730e-01,2.000000000000000000e+00,-2.008837699890136719e+01,-5.793227672576904297e+00,4.975900268554687500e+01,9.407636260986328125e+01,8.464492034912109375e+01,1.369299621582031250e+02,2.413221836090087891e+00,-3.310608291625976562e+01,-1.848333587646484375e+02,3.640564727783203125e+01,2.147685050964355469e+01,3.308558273315429688e+01
1.840000003576278687e-01,2.000000000000000000e+00,-2.014041328430175781e+01,-5.756386280059814453e+00,4.971432876586914062e+01,9.408435058593750000e+01,8.464427185058593750e+01,1.369191436767578125e+02,2.361334562301635742e+00,-3.310013580322265625e+01,-1.848282470703125000e+02,3.640756988525390625e+01,2.149446296691894531e+01,3.307996368408203125e+01
1.879999935626983643e-01,2.000000000000000000e+00,-2.019333839416503906e+01,-5.719000339508056641e+00,4.966928100585937500e+01,9.409237670898437500e+01,8.464361572265625000e+01,1.369082946777343750e+02,2.309243917465209961e+00,-3.309416961669921875e+01,-1.848231048583984375e+02,3.640949249267578125e+01,2.151209449768066406e+01,3.307434082031250000e+01
1.920000016689300537e-01,2.000000000000000000e+00,-2.024705696105957031e+01,-5.681179523468017578e+00,4.962396621704101562e+01,9.410042572021484375e+01,8.464292907714843750e+01,1.368974304199218750e+02,2.257091760635375977e+00,-3.308820343017578125e+01,-1.848179473876953125e+02,3.641141891479492188e+01,2.152972602844238281e+01,3.306871795654296875e+01
1.959999948740005493e-01,2.000000000000000000e+00,-2.030138969421386719e+01,-5.643060207366943359e+00,4.957847976684570312e+01,9.410847473144531250e+01,8.464223480224609375e+01,1.368865509033203125e+02,2.204940080642700195e+00,-3.308223724365234375e+01,-1.848127899169921875e+02,3.641334152221679688e+01,2.154735565185546875e+01,3.306309509277343750e+01
2.000000029802322388e-01,2.000000000000000000e+00,-2.035607147216796875e+01,-5.604788303375244141e+00,4.953291702270507812e+01,9.411652374267578125e+01,8.464153289794921875e+01,1.368756866455078125e+02,2.152800083160400391e+00,-3.307627105712890625e+01,-1.848076324462890625e+02,3.641526794433593750e+01,2.156497955322265625e+01,3.305747604370117188e+01
2.039999961853027344e-01,2.000000000000000000e+00,-2.041086769104003906e+01,-5.566472530364990234e+00,4.948733901977539062e+01,9.412458038330078125e+01,8.464082336425781250e+01,1.368648223876953125e+02,2.100672245025634766e+00,-3.307030868530273438e+01,-1.848024749755859375e+02,3.641719055175781250e+01,2.158259963989257812e+01,3.305185699462890625e+01
2.080000042915344238e-01,2.000000000000000000e+00,-2.046567153930664062e+01,-5.528157711029052734e+00,4.944176483154296875e+01,9.413262176513671875e+01,8.464012145996093750e+01,1.368539428710937500e+02,2.048556566238403320e+00,-3.306434631347656250e+01,-1.847973327636718750e+02,3.641911315917968750e+01,2.160021591186523438e+01,3.304623794555664062e+01
2.119999974966049194e-01,2.000000000000000000e+00,-2.052046394348144531e+01,-5.489851474761962891e+00,4.939620590209960938e+01,9.414067077636718750e+01,8.463941955566406250e+01,1.368430786132812500e+02,1.996453166007995605e+00,-3.305838394165039062e+01,-1.847921600341796875e+02,3.642103576660156250e+01,2.161782646179199219e+01,3.304062271118164062e+01
2.160000056028366089e-01,2.000000000000000000e+00,-2.057524299621582031e+01,-5.451554298400878906e+00,4.935065460205078125e+01,9.414871215820312500e+01,8.463871002197265625e+01,1.368322143554687500e+02,1.944362163543701172e+00,-3.305242156982421875e+01,-1.847870178222656250e+02,3.642295837402343750e+01,2.163543510437011719e+01,3.303501129150390625e+01
2.199999988079071045e-01,2.000000000000000000e+00,-2.063000869750976562e+01,-5.413266181945800781e+00,4.930511093139648438e+01,9.415676116943359375e+01,8.463800811767578125e+01,1.368213500976562500e+02,1.892283201217651367e+00,-3.304646301269531250e+01,-1.847818603515625000e+02,3.642488098144531250e+01,2.165303993225097656e+01,3.302939605712890625e+01
2.240000069141387939e-01,2.000000000000000000e+00,-2.068476104736328125e+01,-5.374987125396728516e+00,4.925958251953125000e+01,9.416480255126953125e+01,8.463729858398437500e+01,1.368105010986328125e+02,1.840216517448425293e+00,-3.304050827026367188e+01,-1.847767181396484375e+02,3.642680358886718750e+01,2.167064094543457031e+01,3.302378463745117188e+01
2.280000001192092896e-01,2.000000000000000000e+00,-2.073950195312500000e+01,-5.336716651916503906e+00,4.921406555175781250e+01,9.417283630371093750e+01,8.463659667968750000e+01,1.367996368408203125e+02,1.788162112236022949e+00,-3.303455352783203125e+01,-1.847715606689453125e+02,3.642872238159179688e+01,2.168823432922363281e+01,3.301817321777343750e+01
2.319999933242797852e-01,2.000000000000000000e+00,-2.079423141479492188e+01,-5.298455715179443359e+00,4.916855621337890625e+01,9.418087768554687500e+01,8.463589477539062500e+01,1.367887878417968750e+02,1.736119985580444336e+00,-3.302859878540039062e+01,-1.847664337158203125e+02,3.643064498901367188e+01,2.170582580566406250e+01,3.301256179809570312e+01
2.360000014305114746e-01,2.000000000000000000e+00,-2.084894561767578125e+01,-5.260203838348388672e+00,4.912305450439453125e+01,9.418891143798828125e+01,8.463519287109375000e+01,1.367779235839843750e+02,1.684090137481689453e+00,-3.302264785766601562e+01,-1.847612762451171875e+02,3.643256378173828125e+01,2.172341346740722656e+01,3.300695419311523438e+01
2.399999946355819702e-01,2.000000000000000000e+00,-2.090364837646484375e+01,-5.221960544586181641e+00,4.907757186889648438e+01,9.419694519042968750e+01,8.463448333740234375e+01,1.367670745849609375e+02,1.632072567939758301e+00,-3.301669311523437500e+01,-1.847561340332031250e+02,3.643448257446289062e+01,2.174099540710449219e+01,3.300134658813476562e+01
2.440000027418136597e-01,2.000000000000000000e+00,-2.095833778381347656e+01,-5.183726310729980469e+00,4.903209304809570312e+01,9.420497894287109375e+01,8.463378143310546875e+01,1.367562408447265625e+02,1.580067276954650879e+00,-3.301074600219726562e+01,-1.847509918212890625e+02,3.643640136718750000e+01,2.175857543945312500e+01,3.299574279785156250e+01
2.479999959468841553e-01,2.000000000000000000e+00,-2.101301574707031250e+01,-5.145501136779785156e+00,4.898662567138671875e+01,9.421300506591796875e+01,8.463307189941406250e+01,1.367453918457031250e+02,1.528074145317077637e+00,-3.300479507446289062e+01,-1.847458343505859375e+02,3.643832015991210938e+01,2.177615165710449219e+01,3.299013900756835938e+01
2.520000040531158447e-01,2.000000000000000000e+00,-2.106768035888671875e+01,-5.107284545898437500e+00,4.894116973876953125e+01,9.422103118896484375e+01,8.463236999511718750e+01,1.367345581054687500e+02,1.476093173027038574e+00,-3.299884796142578125e+01,-1.847407073974609375e+02,3.644024276733398438e+01,2.179372215270996094e+01,3.298453903198242188e+01
2.560000121593475342e-01,2.000000000000000000e+00,-2.112233161926269531e+01,-5.069077491760253906e+00,4.889572525024414062e+01,9.422905731201171875e+01,8.463166809082031250e+01,1.367237091064453125e+02,1.424124598503112793e+00,-3.299290084838867188e+01,-1.847355651855468750e+02,3.644215774536132812e+01,2.181128692626953125e+01,3.297893524169921875e+01
2.599999904632568359e-01,2.000000000000000000e+00,-2.117696952819824219e+01,-5.030879020690917969e+00,4.885029220581054688e+01,9.423708343505859375e+01,8.463096618652343750e+01,1.367128753662109375e+02,1.372167944908142090e+00,-3.298695755004882812e+01,-1.847304229736328125e+02,3.644407653808593750e+01,2.182884979248046875e+01,3.297333145141601562e+01
2.639999985694885254e-01,2.000000000000000000e+00,-2.123159599304199219e+01,-4.992689609527587891e+00,4.880486679077148438e+01,9.424510955810546875e+01,8.463026428222656250e+01,1.367020416259765625e+02,1.320223450660705566e+00,-3.298101806640625000e+01,-1.847252807617187500e+02,3.644599151611328125e+01,2.184640884399414062e+01,3.296773529052734375e+01
2.680000066757202148e-01,2.000000000000000000e+00,-2.128620719909667969e+01,-4.954508781433105469e+00,4.875945663452148438e+01,9.425312805175781250e+01,8.462956237792968750e+01,1.366912078857421875e+02,1.268291234970092773e+00,-3.297507476806640625e+01,-1.847201385498046875e+02,3.644790649414062500e+01,2.186396217346191406e+01,3.296213912963867188e+01
2.720000147819519043e-01,2.000000000000000000e+00,-2.134080886840820312e+01,-4.916337013244628906e+00,4.871405410766601562e+01,9.426114654541015625e+01,8.462886047363281250e+01,1.366803741455078125e+02,1.216371059417724609e+00,-3.296913146972656250e+01,-1.847150115966796875e+02,3.644982528686523438e+01,2.188151168823242188e+01,3.295653915405273438e+01
2.759999930858612061e-01,2.000000000000000000e+00,-2.139539718627929688e+01,-4.878174304962158203e+00,4.866866302490234375e+01,9.426916503906250000e+01,8.462815856933593750e+01,1.366695556640625000e+02,1.164462804794311523e+00,-3.296319198608398438e+01,-1.847098846435546875e+02,3.645174026489257812e+01,2.189905929565429688e+01,3.295094680786132812e+01
2.800000011920928955e-01,2.000000000000000000e+00,-2.144997215270996094e+01,-4.840020179748535156e+00,4.862327957153320312e+01,9.427717590332031250e+01,8.462744903564453125e+01,1.366587219238281250e+02,1.112566709518432617e+00,-3.295725631713867188e+01,-1.847047576904296875e+02,3.645365524291992188e+01,2.191660118103027344e+01,3.294535446166992188e+01
2.840000092983245850e-01,2.000000000000000000e+00,-2.150453376770019531e+01,-4.801875114440917969e+00,4.857791137695312500e+01,9.428518676757812500e+01,8.462674713134765625e+01,1.366479034423828125e+02,1.060682654380798340e+00,-3.295132064819335938e+01,-1.846996154785156250e+02,3.645557022094726562e+01,2.193413925170898438e+01,3.293975830078125000e+01
2.879999876022338867e-01,2.000000000000000000e+00,-2.155908203125000000e+01,-4.763739109039306641e+00,4.853255081176757812e+01,9.429319763183593750e+01,8.462604522705078125e+01,1.366370849609375000e+02,1.008810520172119141e+00,-3.294538879394531250e+01,-1.846944885253906250e+02,3.645748519897460938e+01,2.195167350769042969e+01,3.293416976928710938e+01
2.919999957084655762e-01,2.000000000000000000e+00,-2.161362075805664062e+01,-4.725611686706542969e+00,4.848720169067382812e+01,9.430121612548828125e+01,8.462535095214843750e+01,1.366262817382812500e+02,9.569503664970397949e-01,-3.293945312500000000e+01,-1.846893615722656250e+02,3.645940017700195312e+01,2.196920204162597656e+01,3.292857742309570312e+01
2.960000038146972656e-01,2.000000000000000000e+00,-2.166814422607421875e+01,-4.687492847442626953e+00,4.844186401367187500e+01,9.430921936035156250e+01,8.462464141845703125e+01,1.366154632568359375e+02,9.051021933555603027e-01,-3.293352127075195312e+01,-1.846842346191406250e+02,3.646131134033203125e+01,2.198672676086425781e+01,3.292299270629882812e+01
3.000000119209289551e-01,2.000000000000000000e+00,-2.172265625000000000e+01,-4.649383068084716797e+00,4.839653396606445312e+01,9.431722259521484375e+01,8.462393951416015625e+01,1.366046600341796875e+02,8.532659411430358887e-01,-3.292758941650390625e+01,-1.846790924072265625e+02,3.646322631835937500e+01,2.200424957275390625e+01,3.291740417480468750e+01
3.039999902248382568e-01,2.000000000000000000e+00,-2.177715492248535156e+01,-4.611281871795654297e+00,4.835121536254882812e+01,9.432522583007812500e+01,8.462323760986328125e+01,1.365938415527343750e+02,8.014416694641113281e-01,-3.292166137695312500e+01,-1.846739807128906250e+02,3.646513748168945312e+01,2.202176856994628906e+01,3.291181564331054688e+01
3.079999983310699463e-01,2.000000000000000000e+00,-2.183164215087890625e+01,-4.573189735412597656e+00,4.830590820312500000e+01,9.433322906494140625e+01,8.462254333496093750e+01,1.365830383300781250e+02,7.496292591094970703e-01,-3.291573333740234375e+01,-1.846688537597656250e+02,3.646704864501953125e+01,2.203927993774414062e+01,3.290623474121093750e+01
3.120000064373016357e-01,2.000000000000000000e+00,-2.188611602783203125e+01,-4.535106658935546875e+00,4.826061248779296875e+01,9.434123229980468750e+01,8.462183380126953125e+01,1.365722351074218750e+02,6.978288888931274414e-01,-3.290980529785156250e+01,-1.846637268066406250e+02,3.646896362304687500e+01,2.205679130554199219e+01,3.290065002441406250e+01
3.160000145435333252e-01,2.000000000000000000e+00,-2.194057655334472656e+01,-4.497031688690185547e+00,4.821532440185546875e+01,9.434922790527343750e+01,8.462113189697265625e+01,1.365614318847656250e+02,6.460404396057128906e-01,-3.290388107299804688e+01,-1.846585998535156250e+02,3.647087478637695312e+01,2.207429695129394531e+01,3.289506912231445312e+01
3.199999928474426270e-01,2.000000000000000000e+00,-2.199502372741699219e+01,-4.458965778350830078e+00,4.817004776000976562e+01,9.435722351074218750e+01,8.462043762207031250e+01,1.365506286621093750e+02,5.942639112472534180e-01,-3.289795684814453125e+01,-1.846534881591796875e+02,3.647278213500976562e+01,2.209179878234863281e+01,3.288948440551757812e+01
3.240000009536743164e-01,2.000000000000000000e+00,-2.204946136474609375e+01,-4.420908927917480469e+00,4.812478256225585938e+01,9.436521911621093750e+01,8.461973571777343750e+01,1.365398406982421875e+02,5.424993634223937988e-01,-3.289203643798828125e+01,-1.846483612060546875e+02,3.647469329833984375e+01,2.210929489135742188e+01,3.288390731811523438e+01
3.280000090599060059e-01,2.000000000000000000e+00,-2.210388374328613281e+01,-4.382860183715820312e+00,4.807952499389648438e+01,9.437320709228515625e+01,8.461903381347656250e+01,1.365290527343750000e+02,4.907467067241668701e-01,-3.288611602783203125e+01,-1.846432495117187500e+02,3.647660446166992188e+01,2.212678909301757812e+01,3.287832641601562500e+01
3.319999873638153076e-01,2.000000000000000000e+00,-2.215829467773437500e+01,-4.344820976257324219e+00,4.803427886962890625e+01,9.438120269775390625e+01,8.461833190917968750e+01,1.365182647705078125e+02,4.390059709548950195e-01,-3.288019180297851562e+01,-1.846381225585937500e+02,3.647851562500000000e+01,2.214427947998046875e+01,3.287275314331054688e+01
3.359999954700469971e-01,2.000000000000000000e+00,-2.221269416809082031e+01,-4.306789875030517578e+00,4.798904800415039062e+01,9.438918304443359375e+01,8.461763763427734375e+01,1.365074615478515625e+02,3.872771561145782471e-01,-3.287427902221679688e+01,-1.846330261230468750e+02,3.648042297363281250e+01,2.216176414489746094e+01,3.286717987060546875e+01
3.400000035762786865e-01,2.000000000000000000e+00,-2.226708030700683594e+01,-4.268767833709716797e+00,4.794382095336914062e+01,9.439717864990234375e+01,8.461693572998046875e+01,1.364966735839843750e+02,3.355602622032165527e-01,-3.286835861206054688e+01,-1.846278991699218750e+02,3.648233413696289062e+01,2.217924499511718750e+01,3.286160278320312500e+01
3.440000116825103760e-01,2.000000000000000000e+00,-2.232145309448242188e+01,-4.230754375457763672e+00,4.789860916137695312e+01,9.440515899658203125e+01,8.461623382568359375e+01,1.364859008789062500e+02,2.838552892208099365e-01,-3.286244583129882812e+01,-1.846227874755859375e+02,3.648424148559570312e+01,2.219672393798828125e+01,3.285602951049804688e+01
3.479999899864196777e-01,2.000000000000000000e+00,-2.237581443786621094e+01,-4.192749977111816406e+00,4.785340499877929688e+01,9.441314697265625000e+01,8.461553192138671875e+01,1.364751129150390625e+02,2.321622073650360107e-01,-3.285652923583984375e+01,-1.846176605224609375e+02,3.648614883422851562e+01,2.221419715881347656e+01,3.285045623779296875e+01
3.519999980926513672e-01,2.000000000000000000e+00,-2.243016242980957031e+01,-4.154754161834716797e+00,4.780820846557617188e+01,9.442112731933593750e+01,8.461483764648437500e+01,1.364643402099609375e+02,1.804810613393783569e-01,-3.285061645507812500e+01,-1.846125640869140625e+02,3.648805618286132812e+01,2.223166656494140625e+01,3.284488677978515625e+01
3.560000061988830566e-01,2.000000000000000000e+00,-2.248449897766113281e+01,-4.116767406463623047e+00,4.776302719116210938e+01,9.442910766601562500e+01,8.461413574218750000e+01,1.364535675048828125e+02,1.288118213415145874e-01,-3.284470748901367188e+01,-1.846074523925781250e+02,3.648996353149414062e+01,2.224913215637207031e+01,3.283931732177734375e+01
3.600000143051147461e-01,2.000000000000000000e+00,-2.253882217407226562e+01,-4.078788757324218750e+00,4.771785736083984375e+01,9.443708801269531250e+01,8.461343383789062500e+01,1.364427795410156250e+02,7.715447247028350830e-02,-3.283879470825195312e+01,-1.846023406982421875e+02,3.649186706542968750e+01,2.226659202575683594e+01,3.283375167846679688e+01
3.639999926090240479e-01,2.000000000000000000e+00,-2.259313201904296875e+01,-4.040819168090820312e+00,4.767269515991210938e+01,9.444505310058593750e+01,8.461273956298828125e+01,1.364320220947265625e+02,2.550901658833026886e-02,-3.283288574218750000e+01,-1.845972290039062500e+02,3.649377441406250000e+01,2.228404998779296875e+01,3.282818603515625000e+01
3.680000007152557373e-01,2.000000000000000000e+00,-2.264743041992187500e+01,-4.002858638763427734e+00,4.762754440307617188e+01,9.445303344726562500e+01,8.461203765869140625e+01,1.364212341308593750e+02,-2.612454444169998169e-02,-3.282698059082031250e+01,-1.845921173095703125e+02,3.649567794799804688e+01,2.230150413513183594e+01,3.282261657714843750e+01
3.720000088214874268e-01,2.000000000000000000e+00,-2.270171737670898438e+01,-3.964906454086303711e+00,4.758240127563476562e+01,9.446100616455078125e+01,8.461133575439453125e+01,1.364104766845703125e+02,-7.774621993303298950e-02,-3.282107543945312500e+01,-1.845870208740234375e+02,3.649758529663085938e+01,2.231895256042480469e+01,3.281705474853515625e+01
3.759999871253967285e-01,2.000000000000000000e+00,-2.275599098205566406e+01,-3.926963090896606445e+00,4.753726959228515625e+01,9.446897888183593750e+01,8.461064147949218750e+01,1.363997192382812500e+02,-1.293560117483139038e-01,-3.281517028808593750e+01,-1.845819091796875000e+02,3.649948883056640625e+01,2.233639717102050781e+01,3.281149291992187500e+01
3.799999952316284180e-01,2.000000000000000000e+00,-2.281025123596191406e+01,-3.889028549194335938e+00,4.749214935302734375e+01,9.447694396972656250e+01,8.460994720458984375e+01,1.363889465332031250e+02,-1.809539049863815308e-01,-3.280926513671875000e+01,-1.845768127441406250e+02,3.650139617919921875e+01,2.235383796691894531e+01,3.280592727661132812e+01
3.840000033378601074e-01,2.000000000000000000e+00,-2.286449813842773438e+01,-3.851102828979492188e+00,4.744704055786132812e+01,9.448490905761718750e+01,8.460924530029296875e+01,1.363782043457031250e+02,-2.325399369001388550e-01,-3.280336380004882812e+01,-1.845717163085937500e+02,3.650329589843750000e+01,2.237127494812011719e+01,3.280036926269531250e+01
3.880000114440917969e-01,2.000000000000000000e+00,-2.291873550415039062e+01,-3.813185691833496094e+00,4.740194320678710938e+01,9.449287414550781250e+01,8.460854339599609375e+01,1.363674316406250000e+02,-2.841140627861022949e-01,-3.279746246337890625e+01,-1.845666046142578125e+02,3.650519943237304688e+01,2.238871002197265625e+01,3.279480743408203125e+01
3.919999897480010986e-01,2.000000000000000000e+00,-2.297295951843261719e+01,-3.775277376174926758e+00,4.735685348510742188e+01,9.450083923339843750e+01,8.460784912109375000e+01,1.363566894531250000e+02,-3.356763422489166260e-01,-3.279156112670898438e+01,-1.845615081787109375e+02,3.650710678100585938e+01,2.240613937377929688e+01,3.278925323486328125e+01
3.959999978542327881e-01,2.000000000000000000e+00,-2.302717018127441406e+01,-3.737377643585205078e+00,4.731177520751953125e+01,9.450880432128906250e+01,8.460715484619140625e+01,1.363459320068359375e+02,-3.872267603874206543e-01,-3.278566360473632812e+01,-1.845564117431640625e+02,3.650900650024414062e+01,2.242356491088867188e+01,3.278369522094726562e+01
4.000000059604644775e-01,2.000000000000000000e+00,-2.308136749267578125e+01,-3.699486732482910156e+00,4.726670455932617188e+01,9.451676177978515625e+01,8.460645294189453125e+01,1.363351745605468750e+02,-4.387653172016143799e-01,-3.277976989746093750e+01,-1.845513153076171875e+02,3.651091003417968750e+01,2.244098472595214844e+01,3.277814102172851562e+01
4.040000140666961670e-01,2.000000000000000000e+00,-2.313555526733398438e+01,-3.661604166030883789e+00,4.722164535522460938e+01,9.452471923828125000e+01,8.460575866699218750e+01,1.363244476318359375e+02,-4.902920126914978027e-01,-3.277387237548828125e+01,-1.845462188720703125e+02,3.651280975341796875e+01,2.245840072631835938e+01,3.277258682250976562e+01
4.079999923706054688e-01,2.000000000000000000e+00,-2.318972778320312500e+01,-3.623730897903442383e+00,4.717660140991210938e+01,9.453267669677734375e+01,8.460505676269531250e+01,1.363136901855468750e+02,-5.418068170547485352e-01,-3.276797866821289062e+01,-1.845411224365234375e+02,3.651470947265625000e+01,2.247581481933593750e+01,3.276703262329101562e+01
4.120000004768371582e-01,2.000000000000000000e+00,-2.324388885498046875e+01,-3.585865974426269531e+00,4.713156509399414062e+01,9.454062652587890625e+01,8.460436248779296875e+01,1.363029632568359375e+02,-5.933098196983337402e-01,-3.276208496093750000e+01,-1.845360260009765625e+02,3.651661300659179688e+01,2.249322319030761719e+01,3.276148605346679688e+01
4.160000085830688477e-01,2.000000000000000000e+00,-2.329803657531738281e+01,-3.548009872436523438e+00,4.708653640747070312e+01,9.454858398437500000e+01,8.460366058349609375e+01,1.362922210693359375e+02,-6.448009610176086426e-01,-3.275619506835937500e+01,-1.845309295654296875e+02,3.651851272583007812e+01,2.251062774658203125e+01,3.275593185424804688e+01
4.199999868869781494e-01,2.000000000000000000e+00,-2.335217285156250000e+01,-3.510162591934204102e+00,4.704152297973632812e+01,9.455653381347656250e+01,8.460296630859375000e+01,1.362814788818359375e+02,-6.962803006172180176e-01,-3.275030517578125000e+01,-1.845258483886718750e+02,3.652041244506835938e+01,2.252803039550781250e+01,3.275038528442382812e+01
4.239999949932098389e-01,2.000000000000000000e+00,-2.340629768371582031e+01,-3.472323894500732422e+00,4.699651336669921875e+01,9.456447601318359375e+01,8.460227203369140625e+01,1.362707519531250000e+02,-7.477477192878723145e-01,-3.274441528320312500e+01,-1.845207519531250000e+02,3.652231216430664062e+01,2.254542732238769531e+01,3.274483489990234375e+01
4.280000030994415283e-01,2.000000000000000000e+00,-2.346040916442871094e+01,-3.434493780136108398e+00,4.695151519775390625e+01,9.457242584228515625e+01,8.460157012939453125e+01,1.362600097656250000e+02,-7.992033362388610840e-01,-3.273853302001953125e+01,-1.845156707763671875e+02,3.652421188354492188e+01,2.256282043457031250e+01,3.273928833007812500e+01
4.320000112056732178e-01,2.000000000000000000e+00,-2.351450729370117188e+01,-3.396672725677490234e+00,4.690653228759765625e+01,9.458036804199218750e+01,8.460087585449218750e+01,1.362492828369140625e+02,-8.506470918655395508e-01,-3.273264312744140625e+01,-1.845105895996093750e+02,3.652611160278320312e+01,2.258020973205566406e+01,3.273374557495117188e+01
4.359999895095825195e-01,2.000000000000000000e+00,-2.356859397888183594e+01,-3.358860254287719727e+00,4.686155700683593750e+01,9.458831024169921875e+01,8.460018157958984375e+01,1.362385559082031250e+02,-9.020789861679077148e-01,-3.272676086425781250e+01,-1.845054931640625000e+02,3.652800750732421875e+01,2.259759330749511719e+01,3.272819900512695312e+01
4.399999976158142090e-01,2.000000000000000000e+00,-2.362266731262207031e+01,-3.321056127548217773e+00,4.681659317016601562e+01,9.459626007080078125e+01,8.459948730468750000e+01,1.362278442382812500e+02,-9.534991383552551270e-01,-3.272087478637695312e+01,-1.845004119873046875e+02,3.652990341186523438e+01,2.261497497558593750e+01,3.272265625000000000e+01
4.440000057220458984e-01,2.000000000000000000e+00,-2.367672729492187500e+01,-3.283261060714721680e+00,4.677163696289062500e+01,9.460419464111328125e+01,8.459879302978515625e+01,1.362171173095703125e+02,-1.004907488822937012e+00,-3.271499633789062500e+01,-1.844953308105468750e+02,3.653180313110351562e+01,2.263235282897949219e+01,3.271711730957031250e+01
4.480000138282775879e-01,2.000000000000000000e+00,-2.373077774047851562e+01,-3.245474576950073242e+00,4.672669601440429688e+01,9.461212921142578125e+01,8.459809875488281250e+01,1.362063903808593750e+02,-1.056303977966308594e+00,-3.270911407470703125e+01,-1.844902343750000000e+02,3.653369903564453125e+01,2.264972496032714844e+01,3.271157836914062500e+01
4.519999921321868896e-01,2.000000000000000000e+00,-2.378481483459472656e+01,-3.207696676254272461e+00,4.668176269531250000e+01,9.462006378173828125e+01,8.459739685058593750e+01,1.361956634521484375e+02,-1.107688665390014648e+00,-3.270323562622070312e+01,-1.844851531982421875e+02,3.653559494018554688e+01,2.266709518432617188e+01,3.270603942871093750e+01
4.560000002384185791e-01,2.000000000000000000e+00,-2.383883857727050781e+01,-3.169927597045898438e+00,4.663683700561523438e+01,9.462800598144531250e+01,8.459670257568359375e+01,1.361849517822265625e+02,-1.159061431884765625e+00,-3.269735717773437500e+01,-1.844800720214843750e+02,3.653749465942382812e+01,2.268445968627929688e+01,3.270050048828125000e+01
4.600000083446502686e-01,2.000000000000000000e+00,-2.389285087585449219e+01,-3.132167100906372070e+00,4.659192276000976562e+01,9.463593292236328125e+01,8.459600830078125000e+01,1.361742553710937500e+02,-1.210422396659851074e+00,-3.269148254394531250e+01,-1.844749908447265625e+02,3.653938674926757812e+01,2.270182037353515625e+01,3.269496536254882812e+01
4.639999866485595703e-01,2.000000000000000000e+00,-2.394684982299804688e+01,-3.094415426254272461e+00,4.654702377319335938e+01,9.464385986328125000e+01,8.459531402587890625e+01,1.361635437011718750e+02,-1.261771678924560547e+00,-3.268560791015625000e+01,-1.844699096679687500e+02,3.654128265380859375e+01,2.271917915344238281e+01,3.268943405151367188e+01
4.679999947547912598e-01,2.000000000000000000e+00,-2.400083732604980469e+01,-3.056672096252441406e+00,4.650212860107421875e+01,9.465179443359375000e+01,8.459461975097656250e+01,1.361528320312500000e+02,-1.313109159469604492e+00,-3.267973327636718750e+01,-1.844648284912109375e+02,3.654317474365234375e+01,2.273653221130371094e+01,3.268389511108398438e+01
4.720000028610229492e-01,2.000000000000000000e+00,-2.405481147766113281e+01,-3.018937826156616211e+00,4.645724487304687500e+01,9.465971374511718750e+01,8.459392547607421875e+01,1.361421203613281250e+02,-1.364434838294982910e+00,-3.267386245727539062e+01,-1.844597625732421875e+02,3.654507064819335938e+01,2.275388145446777344e+01,3.267836761474609375e+01
4.760000109672546387e-01,2.000000000000000000e+00,-2.410877418518066406e+01,-2.981211900711059570e+00,4.641237640380859375e+01,9.466764068603515625e+01,8.459322357177734375e+01,1.361314239501953125e+02,-1.415748596191406250e+00,-3.266798782348632812e+01,-1.844546813964843750e+02,3.654696655273437500e+01,2.277122688293457031e+01,3.267283630371093750e+01
4.799999892711639404e-01,2.000000000000000000e+00,-2.416272354125976562e+01,-2.943495035171508789e+00,4.636751174926757812e+01,9.467555999755859375e+01,8.459253692626953125e+01,1.361207275390625000e+02,-1.467050671577453613e+00,-3.266212081909179688e+01,-1.844496154785156250e+02,3.654885864257812500e+01,2.278856849670410156e+01,3.266730499267578125e+01
4.839999973773956299e-01,2.000000000000000000e+00,-2.421666145324707031e+01,-2.905786514282226562e+00,4.632266235351562500e+01,9.468348693847656250e+01,8.459184265136718750e+01,1.361100311279296875e+02,-1.518341064453125000e+00,-3.265625000000000000e+01,-1.844445343017578125e+02,3.655075073242187500e+01,2.280590438842773438e+01,3.266177749633789062e+01
4.880000054836273193e-01,2.000000000000000000e+00,-2.427058601379394531e+01,-2.868086814880371094e+00,4.627782058715820312e+01,9.469140625000000000e+01,8.459114837646484375e+01,1.360993347167968750e+02,-1.569619536399841309e+00,-3.265038681030273438e+01,-1.844394683837890625e+02,3.655264282226562500e+01,2.282323837280273438e+01,3.265625000000000000e+01
4.920000135898590088e-01,2.000000000000000000e+00,-2.432449722290039062e+01,-2.830395698547363281e+00,4.623299026489257812e+01,9.469932556152343750e+01,8.459045410156250000e+01,1.360886383056640625e+02,-1.620886206626892090e+00,-3.264451980590820312e+01,-1.844344024658203125e+02,3.655453491210937500e+01,2.284056854248046875e+01,3.265072250366210938e+01
4.959999918937683105e-01,2.000000000000000000e+00,-2.437839889526367188e+01,-2.792713165283203125e+00,4.618817138671875000e+01,9.470723724365234375e+01,8.458975219726562500e+01,1.360779571533203125e+02,-1.672141075134277344e+00,-3.263865661621093750e+01,-1.844293365478515625e+02,3.655642700195312500e+01,2.285789299011230469e+01,3.264519882202148438e+01
5.000000000000000000e-01,2.000000000000000000e+00,-2.443228721618652344e+01,-2.755039453506469727e+00,4.614336013793945312e+01,9.471514892578125000e+01,8.458906555175781250e+01,1.360672607421875000e+02,-1.723384261131286621e+00,-3.263279342651367188e+01,-1.844242553710937500e+02,3.655831909179687500e+01,2.287521362304687500e+01,3.263967514038085938e+01
5.040000081062316895e-01,2.000000000000000000e+00,-2.448616218566894531e+01,-2.717374086380004883e+00,4.609856033325195312e+01,9.472306823730468750e+01,8.458837127685546875e+01,1.360565795898437500e+02,-1.774615764617919922e+00,-3.262693405151367188e+01,-1.844191894531250000e+02,3.656021118164062500e+01,2.289253234863281250e+01,3.263415527343750000e+01
5.080000162124633789e-01,2.000000000000000000e+00,-2.454002380371093750e+01,-2.679717779159545898e+00,4.605377197265625000e+01,9.473097229003906250e+01,8.458767700195312500e+01,1.360458984375000000e+02,-1.825835347175598145e+00,-3.262107086181640625e+01,-1.844141235351562500e+02,3.656209945678710938e+01,2.290984535217285156e+01,3.262863540649414062e+01
5.120000243186950684e-01,2.000000000000000000e+00,-2.459387588500976562e+01,-2.642069816589355469e+00,4.600899124145507812e+01,9.473888397216796875e+01,8.458698272705078125e+01,1.360352172851562500e+02,-1.877043128013610840e+00,-3.261521148681640625e+01,-1.844090576171875000e+02,3.656399154663085938e+01,2.292715454101562500e+01,3.262311553955078125e+01
5.159999728202819824e-01,2.000000000000000000e+00,-2.464771461486816406e+01,-2.604430675506591797e+00,4.596422195434570312e+01,9.474678802490234375e+01,8.458629608154296875e+01,1.360245513916015625e+02,-1.928239464759826660e+00,-3.260935592651367188e+01,-1.844040069580078125e+02,3.656587982177734375e+01,2.294445991516113281e+01,3.261759567260742188e+01
5.199999809265136719e-01,2.000000000000000000e+00,-2.470154190063476562e+01,-2.566800117492675781e+00,4.591946411132812500e+01,9.475469970703125000e+01,8.458559417724609375e+01,1.360138549804687500e+02,-1.979423880577087402e+00,-3.260350036621093750e+01,-1.843989410400390625e+02,3.656776809692382812e+01,2.296176147460937500e+01,3.261207580566406250e+01
5.239999890327453613e-01,2.000000000000000000e+00,-2.475535583496093750e+01,-2.529178142547607422e+00,4.587471771240234375e+01,9.476259613037109375e+01,8.458490753173828125e+01,1.360031890869140625e+02,-2.030596494674682617e+00,-3.259764480590820312e+01,-1.843938751220703125e+02,3.656965637207031250e+01,2.297905921936035156e+01,3.260656356811523438e+01
5.279999971389770508e-01,2.000000000000000000e+00,-2.480915641784667969e+01,-2.491564989089965820e+00,4.582997894287109375e+01,9.477050018310546875e+01,8.458421325683593750e+01,1.359925231933593750e+02,-2.081757068634033203e+00,-3.259179306030273438e+01,-1.843888092041015625e+02,3.657154464721679688e+01,2.299635314941406250e+01,3.260105133056640625e+01
5.320000052452087402e-01,2.000000000000000000e+00,-2.486294555664062500e+01,-2.453960180282592773e+00,4.578524780273437500e+01,9.477839660644531250e+01,8.458351898193359375e+01,1.359818572998046875e+02,-2.132906198501586914e+00,-3.258594131469726562e+01,-1.843837585449218750e+02,3.657343292236328125e+01,2.301364135742187500e+01,3.259553527832031250e+01
5.360000133514404297e-01,2.000000000000000000e+00,-2.491672325134277344e+01,-2.416364192962646484e+00,4.574053192138671875e+01,9.478629302978515625e+01,8.458283233642578125e+01,1.359711914062500000e+02,-2.184043645858764648e+00,-3.258008956909179688e+01,-1.843786926269531250e+02,3.657531738281250000e+01,2.303092765808105469e+01,3.259002304077148438e+01
5.400000214576721191e-01,2.000000000000000000e+00,-2.497048759460449219e+01,-2.378776788711547852e+00,4.569582366943359375e+01,9.479418945312500000e+01,8.458213806152343750e+01,1.359605102539062500e+02,-2.235169410705566406e+00,-3.257424163818359375e+01,-1.843736419677734375e+02,3.657720565795898438e+01,2.304820823669433594e+01,3.258451461791992188e+01
5.440000295639038086e-01,2.000000000000000000e+00,-2.502423858642578125e+01,-2.341197729110717773e+00,4.565112686157226562e+01,9.480208587646484375e+01,8.458144378662109375e+01,1.359498596191406250e+02,-2.286283254623413086e+00,-3.256838989257812500e+01,-1.843685760498046875e+02,3.657909393310546875e+01,2.306548500061035156e+01,3.257900238037109375e+01
5.479999780654907227e-01,2.000000000000000000e+00,-2.507797813415527344e+01,-2.303627729415893555e+00,4.560644149780273438e+01,9.480997467041015625e+01,8.458075714111328125e+01,1.359392089843750000e+02,-2.337385654449462891e+00,-3.256254577636718750e+01,-1.843635253906250000e+02,3.658097839355468750e+01,2.308275985717773438e+01,3.257349777221679688e+01
5.519999861717224121e-01,2.000000000000000000e+00,-2.513170623779296875e+01,-2.266066074371337891e+00,4.556176376342773438e+01,9.481787109375000000e+01,8.458006286621093750e+01,1.359285583496093750e+02,-2.388476133346557617e+00,-3.255670166015625000e+01,-1.843584747314453125e+02,3.658286285400390625e+01,2.310002899169921875e+01,3.256798934936523438e+01
5.559999942779541016e-01,2.000000000000000000e+00,-2.518542098999023438e+01,-2.228513240814208984e+00,4.551709747314453125e+01,9.482575988769531250e+01,8.457937622070312500e+01,1.359178924560546875e+02,-2.439554929733276367e+00,-3.255085372924804688e+01,-1.843534393310546875e+02,3.658474731445312500e+01,2.311729621887207031e+01,3.256248474121093750e+01
5.600000023841857910e-01,2.000000000000000000e+00,-2.523912429809570312e+01,-2.190968990325927734e+00,4.547244262695312500e+01,9.483364105224609375e+01,8.457867431640625000e+01,1.359072418212890625e+02,-2.490621805191040039e+00,-3.254501342773437500e+01,-1.843483734130859375e+02,3.658663177490234375e+01,2.313455772399902344e+01,3.255697631835937500e+01
5.640000104904174805e-01,2.000000000000000000e+00,-2.529281425476074219e+01,-2.153433084487915039e+00,4.542779541015625000e+01,9.484152984619140625e+01,8.457798767089843750e+01,1.358966064453125000e+02,-2.541677236557006836e+00,-3.253917312622070312e+01,-1.843433227539062500e+02,3.658851623535156250e+01,2.315181541442871094e+01,3.255147552490234375e+01
5.680000185966491699e-01,2.000000000000000000e+00,-2.534649276733398438e+01,-2.115906000137329102e+00,4.538316345214843750e+01,9.484941101074218750e+01,8.457730102539062500e+01,1.358859405517578125e+02,-2.592720985412597656e+00,-3.253333282470703125e+01,-1.843382873535156250e+02,3.659040451049804688e+01,2.316907119750976562e+01,3.254597473144531250e+01
5.720000267028808594e-01,2.000000000000000000e+00,-2.540015983581542969e+01,-2.078387498855590820e+00,4.533853530883789062e+01,9.485729217529296875e+01,8.457660675048828125e+01,1.358753051757812500e+02,-2.643752813339233398e+00,-3.252749252319335938e+01,-1.843332366943359375e+02,3.659228515625000000e+01,2.318632125854492188e+01,3.254047393798828125e+01
5.759999752044677734e-01,2.000000000000000000e+00,-2.545381164550781250e+01,-2.040877580642700195e+00,4.529392242431640625e+01,9.486516571044921875e+01,8.457592010498046875e+01,1.358646697998046875e+02,-2.694772958755493164e+00,-3.252165603637695312e+01,-1.843281860351562500e+02,3.659416580200195312e+01,2.320356750488281250e+01,3.253497314453125000e+01
5.799999833106994629e-01,2.000000000000000000e+00,-2.550745391845703125e+01,-2.003376245498657227e+00,4.524931335449218750e+01,9.487304687500000000e+01,8.457522583007812500e+01,1.358540344238281250e+02,-2.745781660079956055e+00,-3.251581954956054688e+01,-1.843231353759765625e+02,3.659605026245117188e+01,2.322081184387207031e+01,3.252947616577148438e+01
5.839999914169311523e-01,2.000000000000000000e+00,-2.556108283996582031e+01,-1.965883612632751465e+00,4.520471954345703125e+01,9.488092803955078125e+01,8.457453918457031250e+01,1.358433990478515625e+02,-2.796778440475463867e+00,-3.250998687744140625e+01,-1.843180999755859375e+02,3.659793472290039062e+01,2.323805046081542969e+01,3.252397918701171875e+01
5.879999995231628418e-01,2.000000000000000000e+00,-2.561470031738281250e+01,-1.928399562835693359e+00,4.516013717651367188e+01,9.488880157470703125e+01,8.457384490966796875e+01,1.358327636718750000e+02,-2.847763776779174805e+00,-3.250415420532226562e+01,-1.843130493164062500e+02,3.659981536865234375e+01,2.325528526306152344e+01,3.251848220825195312e+01
5.920000076293945312e-01,2.000000000000000000e+00,-2.566830444335937500e+01,-1.890923976898193359e+00,4.511556243896484375e+01,9.489666748046875000e+01,8.457315826416015625e+01,1.358221282958984375e+02,-2.898737192153930664e+00,-3.249832153320312500e+01,-1.843080139160156250e+02,3.660169601440429688e+01,2.327251434326171875e+01,3.251298904418945312e+01
5.960000157356262207e-01,2.000000000000000000e+00,-2.572189712524414062e+01,-1.853456974029541016e+00,4.507099914550781250e+01,9.490453338623046875e+01,8.457247161865234375e+01,1.358114929199218750e+02,-2.949698925018310547e+00,-3.249249267578125000e+01,-1.843029785156250000e+02,3.660357666015625000e+01,2.328973960876464844e+01,3.250749588012695312e+01
6.000000238418579102e-01,2.000000000000000000e+00,-2.577547645568847656e+01,-1.815998792648315430e+00,4.502644348144531250e+01,9.491240692138671875e+01,8.457177734375000000e+01,1.358008728027343750e+02,-3.000649213790893555e+00,-3.248666000366210938e+01,-1.842979278564453125e+02,3.660545730590820312e+01,2.330696296691894531e+01,3.250200653076171875e+01
6.039999723434448242e-01,2.000000000000000000e+00,-2.582904434204101562e+01,-1.778549194335937500e+00,4.498190307617187500e+01,9.492027282714843750e+01,8.457109069824218750e+01,1.357902526855468750e+02,-3.051587581634521484e+00,-3.248083114624023438e+01,-1.842928924560546875e+02,3.660733413696289062e+01,2.332418060302734375e+01,3.249651336669921875e+01
6.079999804496765137e-01,2.000000000000000000e+00,-2.588259887695312500e+01,-1.741107940673828125e+00,4.493737030029296875e+01,9.492813873291015625e+01,8.457039642333984375e+01,1.357796325683593750e+02,-3.102514266967773438e+00,-3.247500610351562500e+01,-1.842878570556640625e+02,3.660921859741210938e+01,2.334139442443847656e+01,3.249102401733398438e+01
6.119999885559082031e-01,2.000000000000000000e+00,-2.593614196777343750e+01,-1.703675150871276855e+00,4.489284133911132812e+01,9.493600463867187500e+01,8.456970977783203125e+01,1.357690124511718750e+02,-3.153429508209228516e+00,-3.246918106079101562e+01,-1.842828216552734375e+02,3.661109542846679688e+01,2.335860443115234375e+01,3.248553848266601562e+01
6.159999966621398926e-01,2.000000000000000000e+00,-2.598967361450195312e+01,-1.666250824928283691e+00,4.484833145141601562e+01,9.494386291503906250e+01,8.456902313232421875e+01,1.357583923339843750e+02,-3.204332828521728516e+00,-3.246335601806640625e+01,-1.842777862548828125e+02,3.661297225952148438e+01,2.337581253051757812e+01,3.248004913330078125e+01
6.200000047683715820e-01,2.000000000000000000e+00,-2.604319190979003906e+01,-1.628835082054138184e+00,4.480382919311523438e+01,9.495172882080078125e+01,8.456832885742187500e+01,1.357477874755859375e+02,-3.255224943161010742e+00,-3.245753479003906250e+01,-1.842727508544921875e+02,3.661485290527343750e+01,2.339301490783691406e+01,3.247456359863281250e+01
6.240000128746032715e-01,2.000000000000000000e+00,-2.609670066833496094e+01,-1.591427803039550781e+00,4.475933837890625000e+01,9.495957946777343750e+01,8.456764221191406250e+01,1.357371673583984375e+02,-3.306105136871337891e+00,-3.245171356201171875e+01,-1.842677154541015625e+02,3.661672973632812500e+01,2.341021347045898438e+01,3.246908187866210938e+01
6.280000209808349609e-01,2.000000000000000000e+00,-2.615019416809082031e+01,-1.554029107093811035e+00,4.471485137939453125e+01,9.496743774414062500e+01,8.456694793701171875e+01,1.357265625000000000e+02,-3.356973886489868164e+00,-3.244589233398437500e+01,-1.842626800537109375e+02,3.661860656738281250e+01,2.342740821838378906e+01,3.246360015869140625e+01
6.320000290870666504e-01,2.000000000000000000e+00,-2.620367622375488281e+01,-1.516638875007629395e+00,4.467037963867187500e+01,9.497528839111328125e+01,8.456626892089843750e+01,1.357159576416015625e+02,-3.407830953598022461e+00,-3.244007492065429688e+01,-1.842576599121093750e+02,3.662048339843750000e+01,2.344459915161132812e+01,3.245811462402343750e+01
6.359999775886535645e-01,2.000000000000000000e+00,-2.625714683532714844e+01,-1.479257106781005859e+00,4.462591934204101562e+01,9.498314666748046875e+01,8.456557464599609375e+01,1.357053375244140625e+02,-3.458676576614379883e+00,-3.243425750732421875e+01,-1.842526397705078125e+02,3.662236022949218750e+01,2.346178627014160156e+01,3.245263671875000000e+01
6.399999856948852539e-01,2.000000000000000000e+00,-2.631060600280761719e+01,-1.441883921623229980e+00,4.458146667480468750e+01,9.499099731445312500e+01,8.456488800048828125e+01,1.356947479248046875e+02,-3.509510755538940430e+00,-3.242844009399414062e+01,-1.842476043701171875e+02,3.662423706054687500e+01,2.347896766662597656e+01,3.244715499877929688e+01
6.439999938011169434e-01,2.000000000000000000e+00,-2.636405181884765625e+01,-1.404519081115722656e+00,4.453702545166015625e+01,9.499884033203125000e+01,8.456419372558593750e+01,1.356841430664062500e+02,-3.560333251953125000e+00,-3.242262649536132812e+01,-1.842425842285156250e+02,3.662611007690429688e+01,2.349614906311035156e+01,3.244167709350585938e+01
6.480000019073486328e-01,2.000000000000000000e+00,-2.641748428344726562e+01,-1.367162704467773438e+00,4.449259185791015625e+01,9.500669097900390625e+01,8.456351470947265625e+01,1.356735534667968750e+02,-3.611144542694091797e+00,-3.241681289672851562e+01,-1.842375488281250000e+02,3.662798690795898438e+01,2.351332283020019531e+01,3.243619918823242188e+01
6.520000100135803223e-01,2.000000000000000000e+00,-2.647090721130371094e+01,-1.329814672470092773e+00,4.444816589355468750e+01,9.501453399658203125e+01,8.456282806396484375e+01,1.356629486083984375e+02,-3.661944150924682617e+00,-3.241100311279296875e+01,-1.842325286865234375e+02,3.662985992431640625e+01,2.353049468994140625e+01,3.243072509765625000e+01
6.560000181198120117e-01,2.000000000000000000e+00,-2.652431678771972656e+01,-1.292475104331970215e+00,4.440375518798828125e+01,9.502237701416015625e+01,8.456213378906250000e+01,1.356523742675781250e+02,-3.712732553482055664e+00,-3.240518951416015625e+01,-1.842274932861328125e+02,3.663173675537109375e+01,2.354766082763671875e+01,3.242525100708007812e+01
6.600000262260437012e-01,2.000000000000000000e+00,-2.657771682739257812e+01,-1.255144000053405762e+00,4.435935211181640625e+01,9.503022003173828125e+01,8.456145477294921875e+01,1.356417694091796875e+02,-3.763509511947631836e+00,-3.239938354492187500e+01,-1.842224884033203125e+02,3.663360977172851562e+01,2.356482505798339844e+01,3.241978073120117188e+01
6.639999747276306152e-01,2.000000000000000000e+00,-2.663110160827636719e+01,-1.217821121215820312e+00,4.431496047973632812e+01,9.503806304931640625e+01,8.456076049804687500e+01,1.356311798095703125e+02,-3.814275264739990234e+00,-3.239357376098632812e+01,-1.842174530029296875e+02,3.663548278808593750e+01,2.358198547363281250e+01,3.241430664062500000e+01
6.679999828338623047e-01,2.000000000000000000e+00,-2.668447494506835938e+01,-1.180506706237792969e+00,4.427058029174804688e+01,9.504589843750000000e+01,8.456008148193359375e+01,1.356205902099609375e+02,-3.865029573440551758e+00,-3.238776779174804688e+01,-1.842124481201171875e+02,3.663735580444335938e+01,2.359914207458496094e+01,3.240883636474609375e+01
6.719999909400939941e-01,2.000000000000000000e+00,-2.673783874511718750e+01,-1.143200635910034180e+00,4.422620773315429688e+01,9.505373382568359375e+01,8.455938720703125000e+01,1.356100158691406250e+02,-3.915772199630737305e+00,-3.238196182250976562e+01,-1.842074127197265625e+02,3.663922882080078125e+01,2.361629486083984375e+01,3.240336608886718750e+01
6.759999990463256836e-01,2.000000000000000000e+00,-2.679118919372558594e+01,-1.105902910232543945e+00,4.418184280395507812e+01,9.506156921386718750e+01,8.455870056152343750e+01,1.355994262695312500e+02,-3.966503858566284180e+00,-3.237615585327148438e+01,-1.842024078369140625e+02,3.664110183715820312e+01,2.363344192504882812e+01,3.239789962768554688e+01
6.800000071525573730e-01,2.000000000000000000e+00,-2.684452629089355469e+01,-1.068613529205322266e+00,4.413748931884765625e+01,9.506940460205078125e+01,8.455801391601562500e+01,1.355888671875000000e+02,-4.017223834991455078e+00,-3.237035369873046875e+01,-1.841973876953125000e+02,3.664297485351562500e+01,2.365058708190917969e+01,3.239243316650390625e+01
6.840000152587890625e-01,2.000000000000000000e+00,-2.689785194396972656e+01,-1.031332373619079590e+00,4.409314727783203125e+01,9.507723999023437500e+01,8.455732727050781250e+01,1.355782775878906250e+02,-4.067933082580566406e+00,-3.236455154418945312e+01,-1.841923828125000000e+02,3.664484786987304688e+01,2.366772842407226562e+01,3.238696289062500000e+01
6.880000233650207520e-01,2.000000000000000000e+00,-2.695116615295410156e+01,-9.940597414970397949e-01,4.404881668090820312e+01,9.508506774902343750e+01,8.455664062500000000e+01,1.355677032470703125e+02,-4.118630409240722656e+00,-3.235875320434570312e+01,-1.841873626708984375e+02,3.664671707153320312e+01,2.368486404418945312e+01,3.238150024414062500e+01
6.919999718666076660e-01,2.000000000000000000e+00,-2.700446891784667969e+01,-9.567953348159790039e-01,4.400448989868164062e+01,9.509289550781250000e+01,8.455595397949218750e+01,1.355571441650390625e+02,-4.169316768646240234e+00,-3.235295486450195312e+01,-1.841823577880859375e+02,3.664858627319335938e+01,2.370199775695800781e+01,3.237604141235351562e+01
6.959999799728393555e-01,2.000000000000000000e+00,-2.705775833129882812e+01,-9.195392131805419922e-01,4.396017837524414062e+01,9.510072326660156250e+01,8.455526733398437500e+01,1.355465698242187500e+02,-4.219991683959960938e+00,-3.234715652465820312e+01,-1.841773376464843750e+02,3.665045928955078125e+01,2.371912574768066406e+01,3.237057495117187500e+01
6.999999880790710449e-01,2.000000000000000000e+00,-2.711103820800781250e+01,-8.822913765907287598e-01,4.391587829589843750e+01,9.510855102539062500e+01,8.455458831787109375e+01,1.355359954833984375e+02,-4.270655632019042969e+00,-3.234135818481445312e+01,-1.841723175048828125e+02,3.665232467651367188e+01,2.373625183105468750e+01,3.236511611938476562e+01
7.039999961853027344e-01,2.000000000000000000e+00,-2.716430473327636719e+01,-8.450518846511840820e-01,4.387158203125000000e+01,9.511637115478515625e+01,8.455389404296875000e+01,1.355254364013671875e+02,-4.321308135986328125e+00,-3.233556365966796875e+01,-1.841673126220703125e+02,3.665419769287109375e+01,2.375337219238281250e+01,3.235965347290039062e+01
7.080000042915344238e-01,2.000000000000000000e+00,-2.721755981445312500e+01,-8.078206777572631836e-01,4.382730102539062500e+01,9.512419128417968750e+01,8.455321502685546875e+01,1.355148773193359375e+02,-4.371949672698974609e+00,-3.232976913452148438e+01,-1.841622924804687500e+02,3.665606689453125000e+01,2.377049064636230469e+01,3.235419845581054688e+01
7.120000123977661133e-01,2.000000000000000000e+00,-2.727080345153808594e+01,-7.705978155136108398e-01,4.378302764892578125e+01,9.513201141357421875e+01,8.455252838134765625e+01,1.355043182373046875e+02,-4.422579288482666016e+00,-3.232397460937500000e+01,-1.841573028564453125e+02,3.665793228149414062e+01,2.378760528564453125e+01,3.234873962402343750e+01
7.160000205039978027e-01,2.000000000000000000e+00,-2.732403373718261719e+01,-7.333831787109375000e-01,4.373875808715820312e+01,9.513982391357421875e+01,8.455184173583984375e+01,1.354937591552734375e+02,-4.473197460174560547e+00,-3.231818389892578125e+01,-1.841522827148437500e+02,3.665980148315429688e+01,2.380471611022949219e+01,3.234328460693359375e+01
7.200000286102294922e-01,2.000000000000000000e+00,-2.737725257873535156e+01,-6.961768865585327148e-01,4.369450759887695312e+01,9.514763641357421875e+01,8.455115509033203125e+01,1.354832000732421875e+02,-4.523805141448974609e+00,-3.231239700317382812e+01,-1.841472778320312500e+02,3.666167068481445312e+01,2.382182121276855469e+01,3.233782958984375000e+01
7.239999771118164062e-01,2.000000000000000000e+00,-2.743045997619628906e+01,-6.589788198471069336e-01,4.365026092529296875e+01,9.515544891357421875e+01,8.455047607421875000e+01,1.354726562500000000e+02,-4.574400901794433594e+00,-3.230660629272460938e+01,-1.841422882080078125e+02,3.666353607177734375e+01,2.383892440795898438e+01,3.233237457275390625e+01
7.279999852180480957e-01,2.000000000000000000e+00,-2.748365592956542969e+01,-6.217891573905944824e-01,4.360602951049804688e+01,9.516326141357421875e+01,8.454978942871093750e+01,1.354621124267578125e+02,-4.624985694885253906e+00,-3.230081939697265625e+01,-1.841372680664062500e+02,3.666540145874023438e+01,2.385602378845214844e+01,3.232692337036132812e+01
7.319999933242797852e-01,2.000000000000000000e+00,-2.753683853149414062e+01,-5.846077203750610352e-01,4.356180191040039062e+01,9.517108154296875000e+01,8.454910278320312500e+01,1.354515533447265625e+02,-4.675559043884277344e+00,-3.229503250122070312e+01,-1.841322784423828125e+02,3.666727066040039062e+01,2.387311744689941406e+01,3.232147216796875000e+01
7.360000014305114746e-01,2.000000000000000000e+00,-2.759001159667968750e+01,-5.474345684051513672e-01,4.351758956909179688e+01,9.517888641357421875e+01,8.454841613769531250e+01,1.354409942626953125e+02,-4.726121425628662109e+00,-3.228924942016601562e+01,-1.841272735595703125e+02,3.666913604736328125e+01,2.389020919799804688e+01,3.231602096557617188e+01
7.400000095367431641e-01,2.000000000000000000e+00,-2.764317131042480469e+01,-5.102697014808654785e-01,4.347338485717773438e+01,9.518669128417968750e+01,8.454773712158203125e+01,1.354304656982421875e+02,-4.776672363281250000e+00,-3.228346252441406250e+01,-1.841222686767578125e+02,3.667100143432617188e+01,2.390729713439941406e+01,3.231057357788085938e+01
7.440000176429748535e-01,2.000000000000000000e+00,-2.769631767272949219e+01,-4.731130599975585938e-01,4.342918777465820312e+01,9.519449615478515625e+01,8.454705047607421875e+01,1.354199218750000000e+02,-4.827211856842041016e+00,-3.227768325805664062e+01,-1.841172790527343750e+02,3.667286682128906250e+01,2.392438125610351562e+01,3.230512619018554688e+01
7.480000257492065430e-01,2.000000000000000000e+00,-2.774945640563964844e+01,-4.359647631645202637e-01,4.338500213623046875e+01,9.520230102539062500e+01,8.454637145996093750e+01,1.354093933105468750e+02,-4.877740383148193359e+00,-3.227190399169921875e+01,-1.841122741699218750e+02,3.667473220825195312e+01,2.394145965576171875e+01,3.229968261718750000e+01
7.519999742507934570e-01,2.000000000000000000e+00,-2.780257987976074219e+01,-3.988246917724609375e-01,4.334082794189453125e+01,9.521009826660156250e+01,8.454567718505859375e+01,1.353988494873046875e+02,-4.928257465362548828e+00,-3.226612091064453125e+01,-1.841072845458984375e+02,3.667659759521484375e+01,2.395853424072265625e+01,3.229423522949218750e+01
7.559999823570251465e-01,2.000000000000000000e+00,-2.785569190979003906e+01,-3.616929352283477783e-01,4.329666519165039062e+01,9.521789550781250000e+01,8.454499816894531250e+01,1.353883056640625000e+02,-4.978763103485107422e+00,-3.226034164428710938e+01,-1.841022796630859375e+02,3.667846298217773438e+01,2.397560691833496094e+01,3.228879165649414062e+01
7.599999904632568359e-01,2.000000000000000000e+00,-2.790879440307617188e+01,-3.245694339275360107e-01,4.325250625610351562e+01,9.522570037841796875e+01,8.454431152343750000e+01,1.353777770996093750e+02,-5.029257774353027344e+00,-3.225456619262695312e+01,-1.840972900390625000e+02,3.668032073974609375e+01,2.399267578125000000e+01,3.228334808349609375e+01
7.639999985694885254e-01,2.000000000000000000e+00,-2.796188354492187500e+01,-2.874541580677032471e-01,4.320836639404296875e+01,9.523349761962890625e+01,8.454363250732421875e+01,1.353672485351562500e+02,-5.079741477966308594e+00,-3.224879074096679688e+01,-1.840923004150390625e+02,3.668218612670898438e+01,2.400974082946777344e+01,3.227790832519531250e+01
7.680000066757202148e-01,2.000000000000000000e+00,-2.801495933532714844e+01,-2.503471672534942627e-01,4.316422653198242188e+01,9.524129486083984375e+01,8.454294586181640625e+01,1.353567352294921875e+02,-5.130213737487792969e+00,-3.224301528930664062e+01,-1.840872955322265625e+02,3.668404769897460938e+01,2.402680015563964844e+01,3.227246475219726562e+01
7.720000147819519043e-01,2.000000000000000000e+00,-2.806802368164062500e+01,-2.132484465837478638e-01,4.312010192871093750e+01,9.524908447265625000e+01,8.454226684570312500e+01,1.353461914062500000e+02,-5.180674552917480469e+00,-3.223724365234375000e+01,-1.840823211669921875e+02,3.668591308593750000e+01,2.404385757446289062e+01,3.226702499389648438e+01
7.760000228881835938e-01,2.000000000000000000e+00,-2.812107849121093750e+01,-1.761579513549804688e-01,4.307598495483398438e+01,9.525688171386718750e+01,8.454158020019531250e+01,1.353356781005859375e+02,-5.231123924255371094e+00,-3.223147201538085938e+01,-1.840773315429687500e+02,3.668777465820312500e+01,2.406091117858886719e+01,3.226158905029296875e+01
7.799999713897705078e-01,2.000000000000000000e+00,-2.817411994934082031e+01,-1.390757262706756592e-01,4.303187942504882812e+01,9.526466369628906250e+01,8.454090118408203125e+01,1.353251647949218750e+02,-5.281562328338623047e+00,-3.222570037841796875e+01,-1.840723419189453125e+02,3.668963623046875000e+01,2.407796096801757812e+01,3.225615310668945312e+01
7.839999794960021973e-01,2.000000000000000000e+00,-2.822714996337890625e+01,-1.020017564296722412e-01,4.298778533935546875e+01,9.527245330810546875e+01,8.454021453857421875e+01,1.353146362304687500e+02,-5.331989765167236328e+00,-3.221992874145507812e+01,-1.840673370361328125e+02,3.669149780273437500e+01,2.409500503540039062e+01,3.225072097778320312e+01
7.879999876022338867e-01,2.000000000000000000e+00,-2.828016853332519531e+01,-6.493602693080902100e-02,4.294369506835937500e+01,9.528023529052734375e+01,8.453953552246093750e+01,1.353041381835937500e+02,-5.382405757904052734e+00,-3.221416091918945312e+01,-1.840623626708984375e+02,3.669335937500000000e+01,2.411204719543457031e+01,3.224528121948242188e+01
7.919999957084655762e-01,2.000000000000000000e+00,-2.833317375183105469e+01,-2.787853218615055084e-02,4.289962005615234375e+01,9.528802490234375000e+01,8.453885650634765625e+01,1.352936248779296875e+02,-5.432810783386230469e+00,-3.220839691162109375e+01,-1.840573883056640625e+02,3.669521713256835938e+01,2.412908554077148438e+01,3.223985290527343750e+01
7.960000038146972656e-01,2.000000000000000000e+00,-2.838616943359375000e+01,9.170716628432273865e-03,4.285555267333984375e+01,9.529580688476562500e+01,8.453817749023437500e+01,1.352831115722656250e+02,-5.483204841613769531e+00,-3.220263290405273438e+01,-1.840523986816406250e+02,3.669707870483398438e+01,2.414612007141113281e+01,3.223442077636718750e+01
8.000000119209289551e-01,2.000000000000000000e+00,-2.843915176391601562e+01,4.621173068881034851e-02,4.281149291992187500e+01,9.530358886718750000e+01,8.453749084472656250e+01,1.352725982666015625e+02,-5.533586502075195312e+00,-3.219686508178710938e+01,-1.840474090576171875e+02,3.669893646240234375e+01,2.416315078735351562e+01,3.222898864746093750e+01
8.040000200271606445e-01,2.000000000000000000e+00,-2.849212265014648438e+01,8.324450254440307617e-02,4.276744461059570312e+01,9.531136322021484375e+01,8.453681182861328125e+01,1.352620849609375000e+02,-5.583958148956298828e+00,-3.219110107421875000e+01,-1.840424346923828125e+02,3.670079421997070312e+01,2.418017578125000000e+01,3.222356033325195312e+01
8.080000281333923340e-01,2.000000000000000000e+00,-2.854508209228515625e+01,1.202690526843070984e-01,4.272340774536132812e+01,9.531914520263671875e+01,8.453612518310546875e+01,1.352515869140625000e+02,-5.634318351745605469e+00,-3.218534088134765625e+01,-1.840374603271484375e+02,3.670265197753906250e+01,2.419719886779785156e+01,3.221813201904296875e+01
8.119999766349792480e-01,2.000000000000000000e+00,-2.859803009033203125e+01,1.572853773832321167e-01,4.267937850952148438e+01,9.532691955566406250e+01,8.453543853759765625e+01,1.352410888671875000e+02,-5.684667110443115234e+00,-3.217958068847656250e+01,-1.840324707031250000e+02,3.670450973510742188e+01,2.421421813964843750e+01,3.221270751953125000e+01
8.159999847412109375e-01,2.000000000000000000e+00,-2.865096282958984375e+01,1.942934542894363403e-01,4.263536453247070312e+01,9.533469390869140625e+01,8.453476715087890625e+01,1.352305908203125000e+02,-5.735004901885986328e+00,-3.217382049560546875e+01,-1.840274963378906250e+02,3.670636749267578125e+01,2.423123359680175781e+01,3.220727920532226562e+01
8.199999928474426270e-01,2.000000000000000000e+00,-2.870388793945312500e+01,2.312933355569839478e-01,4.259135437011718750e+01,9.534246826171875000e+01,8.453408050537109375e+01,1.352200927734375000e+02,-5.785331249237060547e+00,-3.216806411743164062e+01,-1.840225067138671875e+02,3.670822906494140625e+01,2.424824333190917969e+01,3.220185089111328125e+01
8.240000009536743164e-01,2.000000000000000000e+00,-2.875680160522460938e+01,2.682849764823913574e-01,4.254735565185546875e+01,9.535023498535156250e+01,8.453340148925781250e+01,1.352096099853515625e+02,-5.835646152496337891e+00,-3.216230773925781250e+01,-1.840175323486328125e+02,3.671008682250976562e+01,2.426525306701660156e+01,3.219643020629882812e+01
8.280000090599060059e-01,2.000000000000000000e+00,-2.880970001220703125e+01,3.052684366703033447e-01,4.250336456298828125e+01,9.535800933837890625e+01,8.453271484375000000e+01,1.351991119384765625e+02,-5.885950565338134766e+00,-3.215655136108398438e+01,-1.840125732421875000e+02,3.671194076538085938e+01,2.428225708007812500e+01,3.219100952148437500e+01
8.320000171661376953e-01,2.000000000000000000e+00,-2.886259078979492188e+01,3.422436416149139404e-01,4.245938491821289062e+01,9.536577606201171875e+01,8.453204345703125000e+01,1.351886291503906250e+02,-5.936243534088134766e+00,-3.215079879760742188e+01,-1.840075988769531250e+02,3.671379852294921875e+01,2.429925727844238281e+01,3.218558502197265625e+01
8.360000252723693848e-01,2.000000000000000000e+00,-2.891546630859375000e+01,3.792106509208679199e-01,4.241541671752929688e+01,9.537353515625000000e+01,8.453135681152343750e+01,1.351781311035156250e+02,-5.986525058746337891e+00,-3.214504623413085938e+01,-1.840026092529296875e+02,3.671565246582031250e+01,2.431625175476074219e+01,3.218016815185546875e+01
8.399999737739562988e-01,2.000000000000000000e+00,-2.896833229064941406e+01,4.161694347858428955e-01,4.237145996093750000e+01,9.538130187988281250e+01,8.453068542480468750e+01,1.351676483154296875e+02,-6.036795616149902344e+00,-3.213928985595703125e+01,-1.839976501464843750e+02,3.671750640869140625e+01,2.433324623107910156e+01,3.217475128173828125e+01
8.439999818801879883e-01,2.000000000000000000e+00,-2.902118682861328125e+01,4.531200230121612549e-01,4.232751083374023438e+01,9.538906097412109375e+01,8.452999877929687500e+01,1.351571655273437500e+02,-6.087055206298828125e+00,-3.213354492187500000e+01,-1.839926757812500000e+02,3.671936416625976562e+01,2.435023498535156250e+01,3.216933059692382812e+01
8.479999899864196777e-01,2.000000000000000000e+00,-2.907402992248535156e+01,4.900623857975006104e-01,4.228356552124023438e+01,9.539682006835937500e+01,8.452931213378906250e+01,1.351466827392578125e+02,-6.137303352355957031e+00,-3.212779235839843750e+01,-1.839877014160156250e+02,3.672121810913085938e+01,2.436721992492675781e+01,3.216391754150390625e+01
8.519999980926513672e-01,2.000000000000000000e+00,-2.912685775756835938e+01,5.269966125488281250e-01,4.223963928222656250e+01,9.540457916259765625e+01,8.452864074707031250e+01,1.351362152099609375e+02,-6.187540531158447266e+00,-3.212204360961914062e+01,-1.839827270507812500e+02,3.672306823730468750e+01,2.438420104980468750e+01,3.215850067138671875e+01
8.560000061988830566e-01,2.000000000000000000e+00,-2.917967414855957031e+01,5.639226436614990234e-01,4.219571685791015625e+01,9.541233825683593750e+01,8.452795410156250000e+01,1.351257324218750000e+02,-6.237766265869140625e+00,-3.211630249023437500e+01,-1.839777526855468750e+02,3.672492218017578125e+01,2.440117645263671875e+01,3.215308761596679688e+01
8.600000143051147461e-01,2.000000000000000000e+00,-2.923248291015625000e+01,6.008403897285461426e-01,4.215180587768554688e+01,9.542008972167968750e+01,8.452728271484375000e+01,1.351152648925781250e+02,-6.287981510162353516e+00,-3.211055374145507812e+01,-1.839727935791015625e+02,3.672677612304687500e+01,2.441815185546875000e+01,3.214767456054687500e+01
8.640000224113464355e-01,2.000000000000000000e+00,-2.928527641296386719e+01,6.377500295639038086e-01,4.210790634155273438e+01,9.542784881591796875e+01,8.452659606933593750e+01,1.351047973632812500e+02,-6.338185310363769531e+00,-3.210480880737304688e+01,-1.839678344726562500e+02,3.672863006591796875e+01,2.443512153625488281e+01,3.214226150512695312e+01
8.679999709129333496e-01,2.000000000000000000e+00,-2.933806037902832031e+01,6.746513843536376953e-01,4.206401443481445312e+01,9.543560028076171875e+01,8.452592468261718750e+01,1.350943298339843750e+02,-6.388377666473388672e+00,-3.209906768798828125e+01,-1.839628753662109375e+02,3.673048400878906250e+01,2.445208740234375000e+01,3.213685226440429688e+01
8.719999790191650391e-01,2.000000000000000000e+00,-2.939083099365234375e+01,7.115446925163269043e-01,4.202013397216796875e+01,9.544335174560546875e+01,8.452523803710937500e+01,1.350838623046875000e+02,-6.438559055328369141e+00,-3.209332656860351562e+01,-1.839579162597656250e+02,3.673233413696289062e+01,2.446905136108398438e+01,3.213144302368164062e+01
8.759999871253967285e-01,2.000000000000000000e+00,-2.944359016418457031e+01,7.484297156333923340e-01,4.197626113891601562e+01,9.545109558105468750e+01,8.452455902099609375e+01,1.350733947753906250e+02,-6.488729476928710938e+00,-3.208758544921875000e+01,-1.839529418945312500e+02,3.673418426513671875e+01,2.448600769042968750e+01,3.212603759765625000e+01
8.799999952316284180e-01,2.000000000000000000e+00,-2.949633979797363281e+01,7.853065729141235352e-01,4.193239974975585938e+01,9.545883941650390625e+01,8.452388763427734375e+01,1.350629425048828125e+02,-6.538888454437255859e+00,-3.208184814453125000e+01,-1.839479827880859375e+02,3.673603439331054688e+01,2.450296401977539062e+01,3.212063217163085938e+01
8.840000033378601074e-01,2.000000000000000000e+00,-2.954907608032226562e+01,8.221752643585205078e-01,4.188854598999023438e+01,9.546658325195312500e+01,8.452320098876953125e+01,1.350524749755859375e+02,-6.589036464691162109e+00,-3.207611083984375000e+01,-1.839430236816406250e+02,3.673788833618164062e+01,2.451991462707519531e+01,3.211522674560546875e+01
8.880000114440917969e-01,2.000000000000000000e+00,-2.960180091857910156e+01,8.590357899665832520e-01,4.184470367431640625e+01,9.547433471679687500e+01,8.452252960205078125e+01,1.350420227050781250e+02,-6.639173507690429688e+00,-3.207037353515625000e+01,-1.839380645751953125e+02,3.673973846435546875e+01,2.453686141967773438e+01,3.210982131958007812e+01
8.920000195503234863e-01,2.000000000000000000e+00,-2.965451240539550781e+01,8.958881497383117676e-01,4.180087280273437500e+01,9.548207092285156250e+01,8.452184295654296875e+01,1.350315551757812500e+02,-6.689299106597900391e+00,-3.206464004516601562e+01,-1.839331054687500000e+02,3.674158859252929688e+01,2.455380630493164062e+01,3.210441970825195312e+01
8.960000276565551758e-01,2.000000000000000000e+00,-2.970721435546875000e+01,9.327323436737060547e-01,4.175704956054687500e+01,9.548980712890625000e+01,8.452116394042968750e+01,1.350211029052734375e+02,-6.739413738250732422e+00,-3.205890655517578125e+01,-1.839281463623046875e+02,3.674343490600585938e+01,2.457074546813964844e+01,3.209901809692382812e+01
8.999999761581420898e-01,2.000000000000000000e+00,-2.975990295410156250e+01,9.695683121681213379e-01,4.171323394775390625e+01,9.549755096435546875e+01,8.452049255371093750e+01,1.350106506347656250e+02,-6.789517402648925781e+00,-3.205317306518554688e+01,-1.839232025146484375e+02,3.674528884887695312e+01,2.458768272399902344e+01,3.209361648559570312e+01
9.039999842643737793e-01,2.000000000000000000e+00,-2.981258010864257812e+01,1.006396174430847168e+00,4.166942977905273438e+01,9.550528717041015625e+01,8.451981353759765625e+01,1.350002136230468750e+02,-6.839610099792480469e+00,-3.204744338989257812e+01,-1.839182434082031250e+02,3.674713516235351562e+01,2.460461425781250000e+01,3.208821868896484375e+01
9.079999923706054688e-01,2.000000000000000000e+00,-2.986524772644042969e+01,1.043215870857238770e+00,4.162563705444335938e+01,9.551301574707031250e+01,8.451913452148437500e+01,1.349897766113281250e+02,-6.889691352844238281e+00,-3.204171371459960938e+01,-1.839132843017578125e+02,3.674898147583007812e+01,2.462154388427734375e+01,3.208282089233398438e+01
9.120000004768371582e-01,2.000000000000000000e+00,-2.991790199279785156e+01,1.080027461051940918e+00,4.158185195922851562e+01,9.552075195312500000e+01,8.451845550537109375e+01,1.349793243408203125e+02,-6.939761638641357422e+00,-3.203598403930664062e+01,-1.839083404541015625e+02,3.675083160400390625e+01,2.463846778869628906e+01,3.207742309570312500e+01
9.160000085830688477e-01,2.000000000000000000e+00,-2.997054672241210938e+01,1.116830825805664062e+00,4.153807449340820312e+01,9.552848052978515625e+01,8.451777648925781250e+01,1.349688873291015625e+02,-6.989820957183837891e+00,-3.203025817871093750e+01,-1.839033813476562500e+02,3.675267791748046875e+01,2.465538787841796875e+01,3.207202911376953125e+01
9.200000166893005371e-01,2.000000000000000000e+00,-3.002317619323730469e+01,1.153625965118408203e+00,4.149431228637695312e+01,9.553621673583984375e+01,8.451710510253906250e+01,1.349584503173828125e+02,-7.039868831634521484e+00,-3.202453231811523438e+01,-1.838984375000000000e+02,3.675452423095703125e+01,2.467230415344238281e+01,3.206663131713867188e+01
9.240000247955322266e-01,2.000000000000000000e+00,-3.007579612731933594e+01,1.190413117408752441e+00,4.145055770874023438e+01,9.554393768310546875e+01,8.451642608642578125e+01,1.349480133056640625e+02,-7.089905738830566406e+00,-3.201880645751953125e+01,-1.838934936523437500e+02,3.675637435913085938e+01,2.468922042846679688e+01,3.206124114990234375e+01
9.279999732971191406e-01,2.000000000000000000e+00,-3.012840270996093750e+01,1.227192044258117676e+00,4.140681076049804688e+01,9.555166625976562500e+01,8.451574707031250000e+01,1.349375762939453125e+02,-7.139932155609130859e+00,-3.201308441162109375e+01,-1.838885498046875000e+02,3.675822067260742188e+01,2.470612907409667969e+01,3.205584716796875000e+01
9.319999814033508301e-01,2.000000000000000000e+00,-3.018100166320800781e+01,1.263962864875793457e+00,4.136307525634765625e+01,9.555938720703125000e+01,8.451506805419921875e+01,1.349271545410156250e+02,-7.189946651458740234e+00,-3.200735855102539062e+01,-1.838835906982421875e+02,3.676006317138671875e+01,2.472303581237792969e+01,3.205045318603515625e+01
9.359999895095825195e-01,2.000000000000000000e+00,-3.023358345031738281e+01,1.300725579261779785e+00,4.131935119628906250e+01,9.556711578369140625e+01,8.451438903808593750e+01,1.349167175292968750e+02,-7.239950180053710938e+00,-3.200164031982421875e+01,-1.838786468505859375e+02,3.676190948486328125e+01,2.473993682861328125e+01,3.204506683349609375e+01
9.399999976158142090e-01,2.000000000000000000e+00,-3.028615951538085938e+01,1.337480068206787109e+00,4.127563095092773438e+01,9.557482910156250000e+01,8.451371765136718750e+01,1.349062957763671875e+02,-7.289942741394042969e+00,-3.199591827392578125e+01,-1.838736877441406250e+02,3.676375579833984375e+01,2.475683784484863281e+01,3.203967666625976562e+01
9.440000057220458984e-01,2.000000000000000000e+00,-3.033871650695800781e+01,1.374226450920104980e+00,4.123192596435546875e+01,9.558255004882812500e+01,8.451303863525390625e+01,1.348958740234375000e+02,-7.339925289154052734e+00,-3.199020195007324219e+01,-1.838687591552734375e+02,3.676560211181640625e+01,2.477373123168945312e+01,3.203429031372070312e+01
9.480000138282775879e-01,2.000000000000000000e+00,-3.039126777648925781e+01,1.410964727401733398e+00,4.118822860717773438e+01,9.559027099609375000e+01,8.451235961914062500e+01,1.348854522705078125e+02,-7.389895915985107422e+00,-3.198448562622070312e+01,-1.838638153076171875e+02,3.676744461059570312e+01,2.479062271118164062e+01,3.202890396118164062e+01
9.520000219345092773e-01,2.000000000000000000e+00,-3.044380569458007812e+01,1.447694778442382812e+00,4.114454269409179688e+01,9.559798431396484375e+01,8.451168823242187500e+01,1.348750305175781250e+02,-7.439855575561523438e+00,-3.197876930236816406e+01,-1.838588714599609375e+02,3.676929092407226562e+01,2.480751037597656250e+01,3.202352142333984375e+01
9.559999704360961914e-01,2.000000000000000000e+00,-3.049633407592773438e+01,1.484416723251342773e+00,4.110086059570312500e+01,9.560569763183593750e+01,8.451100921630859375e+01,1.348646087646484375e+02,-7.489803791046142578e+00,-3.197305107116699219e+01,-1.838539276123046875e+02,3.677112960815429688e+01,2.482439231872558594e+01,3.201813507080078125e+01
9.599999785423278809e-01,2.000000000000000000e+00,-3.054884719848632812e+01,1.521130800247192383e+00,4.105719375610351562e+01,9.561341857910156250e+01,8.451033782958984375e+01,1.348541870117187500e+02,-7.539741039276123047e+00,-3.196733856201171875e+01,-1.838489990234375000e+02,3.677297210693359375e+01,2.484127426147460938e+01,3.201275253295898438e+01
9.639999866485595703e-01,2.000000000000000000e+00,-3.060135078430175781e+01,1.557836532592773438e+00,4.101353454589843750e+01,9.562111663818359375e+01,8.450965881347656250e+01,1.348437805175781250e+02,-7.589667797088623047e+00,-3.196162796020507812e+01,-1.838440551757812500e+02,3.677481842041015625e+01,2.485814857482910156e+01,3.200736999511718750e+01
9.679999947547912598e-01,2.000000000000000000e+00,-3.065384101867675781e+01,1.594534158706665039e+00,4.096988677978515625e+01,9.562882995605468750e+01,8.450897979736328125e+01,1.348333740234375000e+02,-7.639583110809326172e+00,-3.195591735839843750e+01,-1.838391265869140625e+02,3.677665710449218750e+01,2.487502098083496094e+01,3.200199127197265625e+01
9.720000028610229492e-01,2.000000000000000000e+00,-3.070632171630859375e+01,1.631223559379577637e+00,4.092624664306640625e+01,9.563653564453125000e+01,8.450830841064453125e+01,1.348229675292968750e+02,-7.689486980438232422e+00,-3.195020866394042969e+01,-1.838341827392578125e+02,3.677849960327148438e+01,2.489188957214355469e+01,3.199661254882812500e+01
9.760000109672546387e-01,2.000000000000000000e+00,-3.075879096984863281e+01,1.667904973030090332e+00,4.088261795043945312e+01,9.564424896240234375e+01,8.450762939453125000e+01,1.348125610351562500e+02,-7.739380359649658203e+00,-3.194449806213378906e+01,-1.838292388916015625e+02,3.678034210205078125e+01,2.490875625610351562e+01,3.199123382568359375e+01
9.800000190734863281e-01,2.000000000000000000e+00,-3.081124687194824219e+01,1.704578280448913574e+00,4.083900070190429688e+01,9.565194702148437500e+01,8.450695800781250000e+01,1.348021392822265625e+02,-7.789263248443603516e+00,-3.193879127502441406e+01,-1.838243103027343750e+02,3.678218460083007812e+01,2.492561721801757812e+01,3.198585891723632812e+01
9.840000271797180176e-01,2.000000000000000000e+00,-3.086369132995605469e+01,1.741243481636047363e+00,4.079538726806640625e+01,9.565964508056640625e+01,8.450628662109375000e+01,1.347917480468750000e+02,-7.839133739471435547e+00,-3.193308448791503906e+01,-1.838193817138671875e+02,3.678402328491210938e+01,2.494247436523437500e+01,3.198048210144042969e+01
9.879999756813049316e-01,2.000000000000000000e+00,-3.091612815856933594e+01,1.777900695800781250e+00,4.075178909301757812e+01,9.566734313964843750e+01,8.450560760498046875e+01,1.347813568115234375e+02,-7.888994216918945312e+00,-3.192738151550292969e+01,-1.838144531250000000e+02,3.678586196899414062e+01,2.495932769775390625e+01,3.197510719299316406e+01
9.919999837875366211e-01,2.000000000000000000e+00,-3.096854972839355469e+01,1.814549684524536133e+00,4.070819854736328125e+01,9.567504882812500000e+01,8.450492858886718750e+01,1.347709655761718750e+02,-7.938843250274658203e+00,-3.192167854309082031e+01,-1.838095245361328125e+02,3.678770446777343750e+01,2.497617912292480469e+01,3.196973609924316406e+01
9.959999918937683105e-01,2.000000000000000000e+00,-3.102095794677734375e+01,1.851190686225891113e+00,4.066461563110351562e+01,9.568273925781250000e+01,8.450425720214843750e+01,1.347605590820312500e+02,-7.988681316375732422e+00,-3.191597557067871094e+01,-1.838045806884765625e+02,3.678954315185546875e+01,2.499302482604980469e+01,3.196436309814453125e+01
1.000000000000000000e+00,2.000000000000000000e+00,-3.107335853576660156e+01,1.887823343276977539e+00,4.062104415893554688e+01,9.569043731689453125e+01,8.450358581542968750e+01,1.347501678466796875e+02,-8.038508415222167969e+00,-3.191027450561523438e+01,-1.837996673583984375e+02,3.679138183593750000e+01,2.500986862182617188e+01,3.195899200439453125e+01
1.003999948501586914e+00,2.000000000000000000e+00,-3.112574577331542969e+01,1.924448132514953613e+00,4.057748031616210938e+01,9.569812774658203125e+01,8.450290679931640625e+01,1.347397766113281250e+02,-8.088324546813964844e+00,-3.190457534790039062e+01,-1.837947387695312500e+02,3.679322052001953125e+01,2.502670669555664062e+01,3.195362281799316406e+01
1.008000016212463379e+00,2.000000000000000000e+00,-3.117811965942382812e+01,1.961064696311950684e+00,4.053392791748046875e+01,9.570582580566406250e+01,8.450223541259765625e+01,1.347293853759765625e+02,-8.138130187988281250e+00,-3.189888000488281250e+01,-1.837898101806640625e+02,3.679505920410156250e+01,2.504354095458984375e+01,3.194825553894042969e+01
1.011999964714050293e+00,2.000000000000000000e+00,-3.123048400878906250e+01,1.997673273086547852e+00,4.049038696289062500e+01,9.571351623535156250e+01,8.450155639648437500e+01,1.347190093994140625e+02,-8.187924385070800781e+00,-3.189317893981933594e+01,-1.837848815917968750e+02,3.679689788818359375e+01,2.506037330627441406e+01,3.194288635253906250e+01
1.016000032424926758e+00,2.000000000000000000e+00,-3.128283691406250000e+01,2.034273624420166016e+00,4.044684982299804688e+01,9.572119903564453125e+01,8.450088500976562500e+01,1.347086334228515625e+02,-8.237708091735839844e+00,-3.188748550415039062e+01,-1.837799530029296875e+02,3.679873275756835938e+01,2.507719993591308594e+01,3.193752098083496094e+01
1.019999980926513672e+00,2.000000000000000000e+00,-3.133517646789550781e+01,2.070866107940673828e+00,4.040332794189453125e+01,9.572888946533203125e+01,8.450021362304687500e+01,1.346982421875000000e+02,-8.287480354309082031e+00,-3.188179016113281250e+01,-1.837750396728515625e+02,3.680057144165039062e+01,2.509402465820312500e+01,3.193215560913085938e+01
1.024000048637390137e+00,2.000000000000000000e+00,-3.138750648498535156e+01,2.107450485229492188e+00,4.035981369018554688e+01,9.573657989501953125e+01,8.449954223632812500e+01,1.346878662109375000e+02,-8.337240219116210938e+00,-3.187609672546386719e+01,-1.837701263427734375e+02,3.680240631103515625e+01,2.511084556579589844e+01,3.192679405212402344e+01
1.026999950408935547e+00,2.000000000000000000e+00,-3.143982505798339844e+01,2.144026756286621094e+00,4.031630706787109375e+01,9.574426269531250000e+01,8.449886322021484375e+01,1.346774902343750000e+02,-8.386990547180175781e+00,-3.187040328979492188e+01,-1.837651824951171875e+02,3.680424118041992188e+01,2.512766265869140625e+01,3.192142868041992188e+01
1.031999945640563965e+00,2.000000000000000000e+00,-3.149213027954101562e+01,2.180594921112060547e+00,4.027281570434570312e+01,9.575193786621093750e+01,8.449819183349609375e+01,1.346671142578125000e+02,-8.436730384826660156e+00,-3.186471366882324219e+01,-1.837602691650390625e+02,3.680607986450195312e+01,2.514447593688964844e+01,3.191607093811035156e+01
1.036000013351440430e+00,2.000000000000000000e+00,-3.154442596435546875e+01,2.217154979705810547e+00,4.022932815551757812e+01,9.575962066650390625e+01,8.449752044677734375e+01,1.346567382812500000e+02,-8.486458778381347656e+00,-3.185902595520019531e+01,-1.837553558349609375e+02,3.680791473388671875e+01,2.516128540039062500e+01,3.191070938110351562e+01
1.039999961853027344e+00,2.000000000000000000e+00,-3.159671211242675781e+01,2.253706932067871094e+00,4.018585205078125000e+01,9.576729583740234375e+01,8.449684143066406250e+01,1.346463775634765625e+02,-8.536175727844238281e+00,-3.185333633422851562e+01,-1.837504425048828125e+02,3.680974578857421875e+01,2.517808914184570312e+01,3.190535163879394531e+01
1.044000029563903809e+00,2.000000000000000000e+00,-3.164898300170898438e+01,2.290251016616821289e+00,4.014238739013671875e+01,9.577497863769531250e+01,8.449617767333984375e+01,1.346360015869140625e+02,-8.585882186889648438e+00,-3.184764862060546875e+01,-1.837455139160156250e+02,3.681158065795898438e+01,2.519489097595214844e+01,3.189999198913574219e+01
1.047999978065490723e+00,2.000000000000000000e+00,-3.170124053955078125e+01,2.326786756515502930e+00,4.009893035888671875e+01,9.578264617919921875e+01,8.449549865722656250e+01,1.346256408691406250e+02,-8.635577201843261719e+00,-3.184196281433105469e+01,-1.837406158447265625e+02,3.681341552734375000e+01,2.521169090270996094e+01,3.189463806152343750e+01
1.052000045776367188e+00,2.000000000000000000e+00,-3.175349235534667969e+01,2.363314628601074219e+00,4.005548477172851562e+01,9.579032135009765625e+01,8.449482727050781250e+01,1.346152801513671875e+02,-8.685261726379394531e+00,-3.183628082275390625e+01,-1.837357025146484375e+02,3.681525039672851562e+01,2.522848320007324219e+01,3.188928222656250000e+01
1.054999947547912598e+00,2.000000000000000000e+00,-3.180572891235351562e+01,2.399834632873535156e+00,4.001204681396484375e+01,9.579799652099609375e+01,8.449415588378906250e+01,1.346049194335937500e+02,-8.734934806823730469e+00,-3.183059692382812500e+01,-1.837307739257812500e+02,3.681708145141601562e+01,2.524527359008789062e+01,3.188392829895019531e+01
1.059999942779541016e+00,2.000000000000000000e+00,-3.185795211791992188e+01,2.436346292495727539e+00,3.996861648559570312e+01,9.580566406250000000e+01,8.449348449707031250e+01,1.345945587158203125e+02,-8.784598350524902344e+00,-3.182491493225097656e+01,-1.837258758544921875e+02,3.681891632080078125e+01,2.526206207275390625e+01,3.187857246398925781e+01
1.064000010490417480e+00,2.000000000000000000e+00,-3.191016578674316406e+01,2.472849845886230469e+00,3.992520141601562500e+01,9.581333160400390625e+01,8.449281311035156250e+01,1.345842132568359375e+02,-8.834249496459960938e+00,-3.181923484802246094e+01,-1.837209625244140625e+02,3.682074737548828125e+01,2.527884483337402344e+01,3.187322235107421875e+01
1.067999958992004395e+00,2.000000000000000000e+00,-3.196236991882324219e+01,2.509345531463623047e+00,3.988179397583007812e+01,9.582099914550781250e+01,8.449214172363281250e+01,1.345738525390625000e+02,-8.883890151977539062e+00,-3.181355285644531250e+01,-1.837160491943359375e+02,3.682258224487304688e+01,2.529562377929687500e+01,3.186787033081054688e+01
1.072000026702880859e+00,2.000000000000000000e+00,-3.201456069946289062e+01,2.545833349227905273e+00,3.983839416503906250e+01,9.582865905761718750e+01,8.449147033691406250e+01,1.345634918212890625e+02,-8.933519363403320312e+00,-3.180787658691406250e+01,-1.837111358642578125e+02,3.682441329956054688e+01,2.531240081787109375e+01,3.186252212524414062e+01
1.075999975204467773e+00,2.000000000000000000e+00,-3.206674194335937500e+01,2.582312822341918945e+00,3.979500579833984375e+01,9.583632659912109375e+01,8.449079895019531250e+01,1.345531616210937500e+02,-8.983138084411621094e+00,-3.180220031738281250e+01,-1.837062377929687500e+02,3.682624435424804688e+01,2.532917213439941406e+01,3.185717391967773438e+01
1.080000042915344238e+00,2.000000000000000000e+00,-3.211891174316406250e+01,2.618784427642822266e+00,3.975162124633789062e+01,9.584398651123046875e+01,8.449012756347656250e+01,1.345428009033203125e+02,-9.032747268676757812e+00,-3.179652595520019531e+01,-1.837013244628906250e+02,3.682807159423828125e+01,2.534594154357910156e+01,3.185182571411132812e+01
1.083999991416931152e+00,2.000000000000000000e+00,-3.217106628417968750e+01,2.655247926712036133e+00,3.970825195312500000e+01,9.585164642333984375e+01,8.448945617675781250e+01,1.345324554443359375e+02,-9.082343101501464844e+00,-3.179084968566894531e+01,-1.836964263916015625e+02,3.682990264892578125e+01,2.536270523071289062e+01,3.184648132324218750e+01
1.088000059127807617e+00,2.000000000000000000e+00,-3.222320938110351562e+01,2.691703319549560547e+00,3.966489410400390625e+01,9.585929870605468750e+01,8.448878479003906250e+01,1.345221252441406250e+02,-9.131929397583007812e+00,-3.178517723083496094e+01,-1.836915130615234375e+02,3.683173370361328125e+01,2.537946701049804688e+01,3.184113693237304688e+01
1.090999960899353027e+00,2.000000000000000000e+00,-3.227534484863281250e+01,2.728150844573974609e+00,3.962154006958007812e+01,9.586695861816406250e+01,8.448810577392578125e+01,1.345117797851562500e+02,-9.181504249572753906e+00,-3.177950477600097656e+01,-1.836866149902343750e+02,3.683356475830078125e+01,2.539622497558593750e+01,3.183579254150390625e+01
1.095999956130981445e+00,2.000000000000000000e+00,-3.232746505737304688e+01,2.764590263366699219e+00,3.957819747924804688e+01,9.587461853027343750e+01,8.448744201660156250e+01,1.345014343261718750e+02,-9.231068611145019531e+00,-3.177383232116699219e+01,-1.836817169189453125e+02,3.683539581298828125e+01,2.541297912597656250e+01,3.183045005798339844e+01
1.100000023841857910e+00,2.000000000000000000e+00,-3.237957763671875000e+01,2.801021575927734375e+00,3.953486633300781250e+01,9.588226318359375000e+01,8.448677062988281250e+01,1.344911193847656250e+02,-9.280622482299804688e+00,-3.176816368103027344e+01,-1.836768035888671875e+02,3.683722305297851562e+01,2.542972946166992188e+01,3.182510948181152344e+01
1.103999972343444824e+00,2.000000000000000000e+00,-3.243167877197265625e+01,2.837445020675659180e+00,3.949154281616210938e+01,9.588992309570312500e+01,8.448609924316406250e+01,1.344807891845703125e+02,-9.330163955688476562e+00,-3.176249694824218750e+01,-1.836719207763671875e+02,3.683905410766601562e+01,2.544647407531738281e+01,3.181976890563964844e+01
1.108000040054321289e+00,2.000000000000000000e+00,-3.248376464843750000e+01,2.873860359191894531e+00,3.944823074340820312e+01,9.589756774902343750e+01,8.448543548583984375e+01,1.344704437255859375e+02,-9.379695892333984375e+00,-3.175682830810546875e+01,-1.836670074462890625e+02,3.684088134765625000e+01,2.546321678161621094e+01,3.181443023681640625e+01
1.111999988555908203e+00,2.000000000000000000e+00,-3.253584289550781250e+01,2.910267591476440430e+00,3.940492630004882812e+01,9.590521240234375000e+01,8.448476409912109375e+01,1.344601135253906250e+02,-9.429216384887695312e+00,-3.175116348266601562e+01,-1.836621093750000000e+02,3.684270858764648438e+01,2.547995567321777344e+01,3.180909347534179688e+01
1.116000056266784668e+00,2.000000000000000000e+00,-3.258790588378906250e+01,2.946666717529296875e+00,3.936163330078125000e+01,9.591286468505859375e+01,8.448408508300781250e+01,1.344497833251953125e+02,-9.478725433349609375e+00,-3.174550056457519531e+01,-1.836572113037109375e+02,3.684453201293945312e+01,2.549669265747070312e+01,3.180375480651855469e+01
