rpiRobotics/ARM-21-02-F-19-Robot-Motion-Program/data_performance_abb/curve_1/dual_arm/diffevo_pose3/grad_result/sim/dual_iteration_1.csv
timestamp,cmd_num,J1,J2,J3,J4,J5,J6,J1_2,J2_2,J3_2,J4_2,J5_2,J6_2
0.000000000000000000e+00,-1.000000000000000000e+00,-1.955330085754394531e+01,-5.130955219268798828e+00,5.060737991333007812e+01,9.506036376953125000e+01,8.600814056396484375e+01,1.346143493652343750e+02,2.618297576904296875e+00,-3.297520065307617188e+01,-1.849802551269531250e+02,3.562008666992187500e+01,2.098140716552734375e+01,3.369622039794921875e+01
2.000000094994902611e-03,-1.000000000000000000e+00,-1.955330085754394531e+01,-5.130955219268798828e+00,5.060737991333007812e+01,9.506036376953125000e+01,8.600814056396484375e+01,1.346143493652343750e+02,2.618297576904296875e+00,-3.297520065307617188e+01,-1.849802551269531250e+02,3.562008666992187500e+01,2.098140716552734375e+01,3.369622039794921875e+01
6.000000052154064178e-03,-1.000000000000000000e+00,-1.955330085754394531e+01,-5.130955219268798828e+00,5.060737991333007812e+01,9.506036376953125000e+01,8.600814056396484375e+01,1.346143493652343750e+02,2.618297576904296875e+00,-3.297520065307617188e+01,-1.849802551269531250e+02,3.562008666992187500e+01,2.098140716552734375e+01,3.369622039794921875e+01
8.000000379979610443e-03,-1.000000000000000000e+00,-1.955330085754394531e+01,-5.130955219268798828e+00,5.060737991333007812e+01,9.506036376953125000e+01,8.600814056396484375e+01,1.346143493652343750e+02,2.618297576904296875e+00,-3.297520065307617188e+01,-1.849802551269531250e+02,3.562008666992187500e+01,2.098140716552734375e+01,3.369622039794921875e+01
1.099999994039535522e-02,-1.000000000000000000e+00,-1.955330085754394531e+01,-5.130955219268798828e+00,5.060737991333007812e+01,9.506036376953125000e+01,8.600814056396484375e+01,1.346143493652343750e+02,2.618297576904296875e+00,-3.297520065307617188e+01,-1.849802551269531250e+02,3.562008666992187500e+01,2.098140716552734375e+01,3.369622039794921875e+01
1.600000075995922089e-02,-1.000000000000000000e+00,-1.955330085754394531e+01,-5.130955219268798828e+00,5.060737991333007812e+01,9.506036376953125000e+01,8.600814056396484375e+01,1.346143493652343750e+02,2.618297576904296875e+00,-3.297520065307617188e+01,-1.849802551269531250e+02,3.562008666992187500e+01,2.098140716552734375e+01,3.369622039794921875e+01
1.999999955296516418e-02,-1.000000000000000000e+00,-1.955330085754394531e+01,-5.130955219268798828e+00,5.060737991333007812e+01,9.506036376953125000e+01,8.600814056396484375e+01,1.346143493652343750e+02,2.618297576904296875e+00,-3.297520065307617188e+01,-1.849802551269531250e+02,3.562008666992187500e+01,2.098140716552734375e+01,3.369622039794921875e+01
2.400000020861625671e-02,-1.000000000000000000e+00,-1.955330085754394531e+01,-5.130955219268798828e+00,5.060737991333007812e+01,9.506036376953125000e+01,8.600814056396484375e+01,1.346143493652343750e+02,2.618297576904296875e+00,-3.297520065307617188e+01,-1.849802551269531250e+02,3.562008666992187500e+01,2.098140716552734375e+01,3.369622039794921875e+01
2.800000086426734924e-02,2.000000000000000000e+00,-1.955330085754394531e+01,-5.130955219268798828e+00,5.060737991333007812e+01,9.506036376953125000e+01,8.600814056396484375e+01,1.346143493652343750e+02,2.618297576904296875e+00,-3.297520065307617188e+01,-1.849802551269531250e+02,3.562008666992187500e+01,2.098140716552734375e+01,3.369622039794921875e+01
3.400000184774398804e-02,2.000000000000000000e+00,-1.955330085754394531e+01,-5.130955219268798828e+00,5.060737991333007812e+01,9.506036376953125000e+01,8.600814056396484375e+01,1.346143493652343750e+02,2.618297576904296875e+00,-3.297520065307617188e+01,-1.849802551269531250e+02,3.562008666992187500e+01,2.098140716552734375e+01,3.369622039794921875e+01
3.799999877810478210e-02,2.000000000000000000e+00,-1.955330085754394531e+01,-5.130955219268798828e+00,5.060737991333007812e+01,9.506036376953125000e+01,8.600814056396484375e+01,1.346143493652343750e+02,2.618297576904296875e+00,-3.297520065307617188e+01,-1.849802551269531250e+02,3.562008666992187500e+01,2.098140716552734375e+01,3.369622039794921875e+01
3.999999910593032837e-02,2.000000000000000000e+00,-1.955330085754394531e+01,-5.130955219268798828e+00,5.060737991333007812e+01,9.506036376953125000e+01,8.600814056396484375e+01,1.346143493652343750e+02,2.618297576904296875e+00,-3.297520065307617188e+01,-1.849802551269531250e+02,3.562008666992187500e+01,2.098140716552734375e+01,3.369622039794921875e+01
4.600000008940696716e-02,2.000000000000000000e+00,-1.955330085754394531e+01,-5.130955219268798828e+00,5.060737991333007812e+01,9.506036376953125000e+01,8.600814056396484375e+01,1.346143493652343750e+02,2.618297576904296875e+00,-3.297520065307617188e+01,-1.849802551269531250e+02,3.562008666992187500e+01,2.098140716552734375e+01,3.369622039794921875e+01
4.800000041723251343e-02,2.000000000000000000e+00,-1.955330085754394531e+01,-5.130955219268798828e+00,5.060737991333007812e+01,9.506036376953125000e+01,8.600814056396484375e+01,1.346143493652343750e+02,2.618297576904296875e+00,-3.297520065307617188e+01,-1.849802551269531250e+02,3.562008666992187500e+01,2.098140716552734375e+01,3.369622039794921875e+01
5.200000107288360596e-02,2.000000000000000000e+00,-1.955330085754394531e+01,-5.130955219268798828e+00,5.060737991333007812e+01,9.506036376953125000e+01,8.600814056396484375e+01,1.346143493652343750e+02,2.618297576904296875e+00,-3.297520065307617188e+01,-1.849802551269531250e+02,3.562008666992187500e+01,2.098140716552734375e+01,3.369622039794921875e+01
5.600000172853469849e-02,2.000000000000000000e+00,-1.955330085754394531e+01,-5.130955219268798828e+00,5.060737991333007812e+01,9.506036376953125000e+01,8.600814056396484375e+01,1.346143493652343750e+02,2.618297576904296875e+00,-3.297520065307617188e+01,-1.849802551269531250e+02,3.562008666992187500e+01,2.098140716552734375e+01,3.369622039794921875e+01
5.999999865889549255e-02,2.000000000000000000e+00,-1.955330085754394531e+01,-5.130955219268798828e+00,5.060737991333007812e+01,9.506036376953125000e+01,8.600814056396484375e+01,1.346143493652343750e+02,2.618297576904296875e+00,-3.297520065307617188e+01,-1.849802551269531250e+02,3.562008666992187500e+01,2.098140716552734375e+01,3.369622039794921875e+01
6.400000303983688354e-02,2.000000000000000000e+00,-1.955330085754394531e+01,-5.130955219268798828e+00,5.060737991333007812e+01,9.506036376953125000e+01,8.600814056396484375e+01,1.346143493652343750e+02,2.618297576904296875e+00,-3.297520065307617188e+01,-1.849802551269531250e+02,3.562008666992187500e+01,2.098140716552734375e+01,3.369622039794921875e+01
6.800000369548797607e-02,2.000000000000000000e+00,-1.955330085754394531e+01,-5.130955219268798828e+00,5.060737991333007812e+01,9.506036376953125000e+01,8.600814056396484375e+01,1.346143493652343750e+02,2.618297576904296875e+00,-3.297520065307617188e+01,-1.849802551269531250e+02,3.562008666992187500e+01,2.098140716552734375e+01,3.369622039794921875e+01
7.199999690055847168e-02,2.000000000000000000e+00,-1.955336761474609375e+01,-5.130931377410888672e+00,5.060736465454101562e+01,9.506036376953125000e+01,8.600814056396484375e+01,1.346143493652343750e+02,2.618297576904296875e+00,-3.297520065307617188e+01,-1.849802551269531250e+02,3.562008666992187500e+01,2.098140716552734375e+01,3.369622039794921875e+01
7.599999755620956421e-02,2.000000000000000000e+00,-1.955374526977539062e+01,-5.130781650543212891e+00,5.060727691650390625e+01,9.506036376953125000e+01,8.600813293457031250e+01,1.346143493652343750e+02,2.618297576904296875e+00,-3.297520065307617188e+01,-1.849802551269531250e+02,3.562008666992187500e+01,2.098140716552734375e+01,3.369622039794921875e+01
7.999999821186065674e-02,2.000000000000000000e+00,-1.955482292175292969e+01,-5.130317687988281250e+00,5.060699462890625000e+01,9.506037139892578125e+01,8.600811004638671875e+01,1.346143493652343750e+02,2.618297576904296875e+00,-3.297520065307617188e+01,-1.849802551269531250e+02,3.562008666992187500e+01,2.098140716552734375e+01,3.369622039794921875e+01
8.399999886751174927e-02,2.000000000000000000e+00,-1.955695915222167969e+01,-5.129318237304687500e+00,5.060637283325195312e+01,9.506039428710937500e+01,8.600805664062500000e+01,1.346143493652343750e+02,2.618271112442016602e+00,-3.297519683837890625e+01,-1.849802551269531250e+02,3.562008666992187500e+01,2.098140907287597656e+01,3.369622039794921875e+01
8.799999952316284180e-02,2.000000000000000000e+00,-1.956037902832031250e+01,-5.127593040466308594e+00,5.060523605346679688e+01,9.506044769287109375e+01,8.600797271728515625e+01,1.346143035888671875e+02,2.618097066879272461e+00,-3.297518920898437500e+01,-1.849802246093750000e+02,3.562009048461914062e+01,2.098142623901367188e+01,3.369621658325195312e+01
9.200000017881393433e-02,2.000000000000000000e+00,-1.956524085998535156e+01,-5.124981880187988281e+00,5.060340118408203125e+01,9.506056213378906250e+01,8.600782775878906250e+01,1.346142120361328125e+02,2.617522954940795898e+00,-3.297515869140625000e+01,-1.849801330566406250e+02,3.562009811401367188e+01,2.098148536682128906e+01,3.369620895385742188e+01
9.600000083446502686e-02,2.000000000000000000e+00,-1.957168960571289062e+01,-5.121333122253417969e+00,5.060065460205078125e+01,9.506074523925781250e+01,8.600760650634765625e+01,1.346140594482421875e+02,2.616205215454101562e+00,-3.297508239746093750e+01,-1.849799346923828125e+02,3.562013244628906250e+01,2.098164558410644531e+01,3.369617462158203125e+01
1.000000014901161194e-01,2.000000000000000000e+00,-1.957975196838378906e+01,-5.116550922393798828e+00,5.059677886962890625e+01,9.506105041503906250e+01,8.600730133056640625e+01,1.346138000488281250e+02,2.613768815994262695e+00,-3.297492218017578125e+01,-1.849795989990234375e+02,3.562020111083984375e+01,2.098200035095214844e+01,3.369609069824218750e+01
1.040000021457672119e-01,2.000000000000000000e+00,-1.958935546875000000e+01,-5.110605716705322266e+00,5.059156799316406250e+01,9.506150817871093750e+01,8.600689697265625000e+01,1.346133728027343750e+02,2.609797954559326172e+00,-3.297463989257812500e+01,-1.849790496826171875e+02,3.562033462524414062e+01,2.098267936706542969e+01,3.369590377807617188e+01
1.080000028014183044e-01,2.000000000000000000e+00,-1.960052299499511719e+01,-5.103461265563964844e+00,5.058478927612304688e+01,9.506217193603515625e+01,8.600637054443359375e+01,1.346127471923828125e+02,2.603833675384521484e+00,-3.297417831420898438e+01,-1.849782409667968750e+02,3.562056350708007812e+01,2.098386192321777344e+01,3.369554901123046875e+01
1.120000034570693970e-01,2.000000000000000000e+00,-1.961351394653320312e+01,-5.094982624053955078e+00,5.057616806030273438e+01,9.506307983398437500e+01,8.600571441650390625e+01,1.346118621826171875e+02,2.595493555068969727e+00,-3.297349166870117188e+01,-1.849771728515625000e+02,3.562093353271484375e+01,2.098575973510742188e+01,3.369494247436523438e+01
1.159999966621398926e-01,2.000000000000000000e+00,-1.962874984741210938e+01,-5.084948062896728516e+00,5.056538391113281250e+01,9.506427001953125000e+01,8.600489044189453125e+01,1.346106872558593750e+02,2.584555625915527344e+00,-3.297250747680664062e+01,-1.849758453369140625e+02,3.562147521972656250e+01,2.098859214782714844e+01,3.369398880004882812e+01
1.199999973177909851e-01,2.000000000000000000e+00,-1.964659500122070312e+01,-5.073157310485839844e+00,5.055214309692382812e+01,9.506578063964843750e+01,8.600388336181640625e+01,1.346091918945312500e+02,2.570861577987670898e+00,-3.297119140625000000e+01,-1.849742431640625000e+02,3.562223815917968750e+01,2.099256896972656250e+01,3.369259643554687500e+01
1.239999979734420776e-01,2.000000000000000000e+00,-1.966720771789550781e+01,-5.059535026550292969e+00,5.053625106811523438e+01,9.506767272949218750e+01,8.600268554687500000e+01,1.346073303222656250e+02,2.554177999496459961e+00,-3.296949386596679688e+01,-1.849723968505859375e+02,3.562325286865234375e+01,2.099787139892578125e+01,3.369068908691406250e+01
1.280000060796737671e-01,2.000000000000000000e+00,-1.969054985046386719e+01,-5.044123172760009766e+00,5.051758575439453125e+01,9.506993865966796875e+01,8.600126647949218750e+01,1.346050720214843750e+02,2.534219741821289062e+00,-3.296738052368164062e+01,-1.849702606201171875e+02,3.562454223632812500e+01,2.100463676452636719e+01,3.368821716308593750e+01
1.309999972581863403e-01,2.000000000000000000e+00,-1.971652603149414062e+01,-5.026999473571777344e+00,5.049610900878906250e+01,9.507261657714843750e+01,8.599965667724609375e+01,1.346023712158203125e+02,2.510790586471557617e+00,-3.296482849121093750e+01,-1.849678344726562500e+02,3.562612533569335938e+01,2.101293373107910156e+01,3.368515777587890625e+01
1.360000073909759521e-01,2.000000000000000000e+00,-1.974506187438964844e+01,-5.008216857910156250e+00,5.047180557250976562e+01,9.507569885253906250e+01,8.599783325195312500e+01,1.345992584228515625e+02,2.483807802200317383e+00,-3.296184158325195312e+01,-1.849650878906250000e+02,3.562799453735351562e+01,2.102276611328125000e+01,3.368150329589843750e+01
1.389999985694885254e-01,2.000000000000000000e+00,-1.977607154846191406e+01,-4.987823486328125000e+00,5.044472503662109375e+01,9.507920837402343750e+01,8.599580383300781250e+01,1.345957183837890625e+02,2.453241825103759766e+00,-3.295842361450195312e+01,-1.849620208740234375e+02,3.563014602661132812e+01,2.103408432006835938e+01,3.367728424072265625e+01
1.439999938011169434e-01,2.000000000000000000e+00,-1.980946350097656250e+01,-4.965867996215820312e+00,5.041497421264648438e+01,9.508309936523437500e+01,8.599357604980468750e+01,1.345917816162109375e+02,2.419149160385131836e+00,-3.295459747314453125e+01,-1.849586029052734375e+02,3.563256454467773438e+01,2.104678726196289062e+01,3.367254257202148438e+01
1.480000019073486328e-01,2.000000000000000000e+00,-1.984525489807128906e+01,-4.942319869995117188e+00,5.038266372680664062e+01,9.508736419677734375e+01,8.599116516113281250e+01,1.345874481201171875e+02,2.381753683090209961e+00,-3.295040130615234375e+01,-1.849548645019531250e+02,3.563521957397460938e+01,2.106074142456054688e+01,3.366732788085937500e+01
1.519999951124191284e-01,2.000000000000000000e+00,-1.988357162475585938e+01,-4.917069911956787109e+00,5.034791564941406250e+01,9.509194946289062500e+01,8.598857116699218750e+01,1.345827941894531250e+02,2.341451883316040039e+00,-3.294588088989257812e+01,-1.849508361816406250e+02,3.563808059692382812e+01,2.107578468322753906e+01,3.366170883178710938e+01
1.560000032186508179e-01,2.000000000000000000e+00,-1.992448234558105469e+01,-4.890055656433105469e+00,5.031089782714843750e+01,9.509682464599609375e+01,8.598580932617187500e+01,1.345778350830078125e+02,2.298687458038330078e+00,-3.294108581542968750e+01,-1.849465332031250000e+02,3.564111328125000000e+01,2.109173965454101562e+01,3.365575408935546875e+01
1.599999964237213135e-01,2.000000000000000000e+00,-1.996781349182128906e+01,-4.861370086669921875e+00,5.027185440063476562e+01,9.510195159912109375e+01,8.598289489746093750e+01,1.345726470947265625e+02,2.253827810287475586e+00,-3.293607330322265625e+01,-1.849420318603515625e+02,3.564428329467773438e+01,2.110842514038085938e+01,3.364952850341796875e+01
1.640000045299530029e-01,2.000000000000000000e+00,-2.001319885253906250e+01,-4.831229686737060547e+00,5.023111343383789062e+01,9.510727691650390625e+01,8.597985076904296875e+01,1.345672607421875000e+02,2.207176685333251953e+00,-3.293088150024414062e+01,-1.849373321533203125e+02,3.564756774902343750e+01,2.112567520141601562e+01,3.364309692382812500e+01
1.679999977350234985e-01,2.000000000000000000e+00,-2.006025314331054688e+01,-4.799857616424560547e+00,5.018897628784179688e+01,9.511276245117187500e+01,8.597669982910156250e+01,1.345616912841796875e+02,2.159038305282592773e+00,-3.292555618286132812e+01,-1.849324493408203125e+02,3.565092468261718750e+01,2.114333152770996094e+01,3.363653182983398438e+01
1.720000058412551880e-01,2.000000000000000000e+00,-2.010871315002441406e+01,-4.767428398132324219e+00,5.014570236206054688e+01,9.511837768554687500e+01,8.597346496582031250e+01,1.345560150146484375e+02,2.109738588333129883e+00,-3.292012786865234375e+01,-1.849274139404296875e+02,3.565433502197265625e+01,2.116126441955566406e+01,3.362987518310546875e+01
1.759999990463256836e-01,2.000000000000000000e+00,-2.015843582153320312e+01,-4.734089374542236328e+00,5.010152435302734375e+01,9.512408447265625000e+01,8.597016143798828125e+01,1.345502471923828125e+02,2.059571743011474609e+00,-3.291464233398437500e+01,-1.849222717285156250e+02,3.565778350830078125e+01,2.117936897277832031e+01,3.362316894531250000e+01
1.800000071525573730e-01,2.000000000000000000e+00,-2.020931053161621094e+01,-4.699982166290283203e+00,5.005664825439453125e+01,9.512985992431640625e+01,8.596678924560546875e+01,1.345444335937500000e+02,2.008777141571044922e+00,-3.290910339355468750e+01,-1.849170227050781250e+02,3.566124343872070312e+01,2.119756507873535156e+01,3.361643600463867188e+01
1.840000003576278687e-01,2.000000000000000000e+00,-2.026120376586914062e+01,-4.665243625640869141e+00,5.001124191284179688e+01,9.513567352294921875e+01,8.596338653564453125e+01,1.345385589599609375e+02,1.957576394081115723e+00,-3.290354919433593750e+01,-1.849117126464843750e+02,3.566471862792968750e+01,2.121580886840820312e+01,3.360969543457031250e+01
1.879999935626983643e-01,2.000000000000000000e+00,-2.031400299072265625e+01,-4.629986286163330078e+00,4.996545410156250000e+01,9.514151000976562500e+01,8.595996093750000000e+01,1.345326690673828125e+02,1.906171083450317383e+00,-3.289797592163085938e+01,-1.849063873291015625e+02,3.566819381713867188e+01,2.123407173156738281e+01,3.360295104980468750e+01
1.920000016689300537e-01,2.000000000000000000e+00,-2.036761093139648438e+01,-4.594315052032470703e+00,4.991938400268554688e+01,9.514736175537109375e+01,8.595650482177734375e+01,1.345267791748046875e+02,1.854703903198242188e+00,-3.289240264892578125e+01,-1.849010314941406250e+02,3.567166900634765625e+01,2.125233268737792969e+01,3.359620666503906250e+01
1.959999948740005493e-01,2.000000000000000000e+00,-2.042184448242187500e+01,-4.558359622955322266e+00,4.987313842773437500e+01,9.515322113037109375e+01,8.595302581787109375e+01,1.345208740234375000e+02,1.803237438201904297e+00,-3.288682937622070312e+01,-1.848956909179687500e+02,3.567514801025390625e+01,2.127059173583984375e+01,3.358946990966796875e+01
2.000000029802322388e-01,2.000000000000000000e+00,-2.047643280029296875e+01,-4.522259712219238281e+00,4.982681655883789062e+01,9.515908813476562500e+01,8.594955444335937500e+01,1.345149841308593750e+02,1.751782059669494629e+00,-3.288125610351562500e+01,-1.848903350830078125e+02,3.567861938476562500e+01,2.128884696960449219e+01,3.358273315429687500e+01
2.039999961853027344e-01,2.000000000000000000e+00,-2.053113937377929688e+01,-4.486118793487548828e+00,4.978047561645507812e+01,9.516495513916015625e+01,8.594607543945312500e+01,1.345090789794921875e+02,1.700338602066040039e+00,-3.287568664550781250e+01,-1.848849945068359375e+02,3.568209838867187500e+01,2.130709838867187500e+01,3.357599639892578125e+01
2.080000042915344238e-01,2.000000000000000000e+00,-2.058585166931152344e+01,-4.449978351593017578e+00,4.973413848876953125e+01,9.517081451416015625e+01,8.594259643554687500e+01,1.345031738281250000e+02,1.648906946182250977e+00,-3.287011337280273438e+01,-1.848796539306640625e+02,3.568556976318359375e+01,2.132534408569335938e+01,3.356925964355468750e+01
2.119999974966049194e-01,2.000000000000000000e+00,-2.064055442810058594e+01,-4.413846492767333984e+00,4.968781280517578125e+01,9.517667388916015625e+01,8.593912506103515625e+01,1.344972686767578125e+02,1.597487211227416992e+00,-3.286454391479492188e+01,-1.848742980957031250e+02,3.568904495239257812e+01,2.134358596801757812e+01,3.356252670288085938e+01
2.160000056028366089e-01,2.000000000000000000e+00,-2.069524383544921875e+01,-4.377722740173339844e+00,4.964149856567382812e+01,9.518253326416015625e+01,8.593563842773437500e+01,1.344913787841796875e+02,1.546079397201538086e+00,-3.285897827148437500e+01,-1.848689575195312500e+02,3.569251632690429688e+01,2.136182403564453125e+01,3.355579376220703125e+01
2.199999988079071045e-01,2.000000000000000000e+00,-2.074991798400878906e+01,-4.341607093811035156e+00,4.959519195556640625e+01,9.518839263916015625e+01,8.593216705322265625e+01,1.344854888916015625e+02,1.494683504104614258e+00,-3.285341262817382812e+01,-1.848636169433593750e+02,3.569598770141601562e+01,2.138005828857421875e+01,3.354906463623046875e+01
2.240000069141387939e-01,2.000000000000000000e+00,-2.080458259582519531e+01,-4.305500507354736328e+00,4.954889678955078125e+01,9.519424438476562500e+01,8.592868804931640625e+01,1.344795989990234375e+02,1.443299531936645508e+00,-3.284784698486328125e+01,-1.848582916259765625e+02,3.569945907592773438e+01,2.139828872680664062e+01,3.354233551025390625e+01
2.280000001192092896e-01,2.000000000000000000e+00,-2.085923385620117188e+01,-4.269401550292968750e+00,4.950261688232421875e+01,9.520009613037109375e+01,8.592521667480468750e+01,1.344736938476562500e+02,1.391927480697631836e+00,-3.284228515625000000e+01,-1.848529510498046875e+02,3.570293045043945312e+01,2.141651344299316406e+01,3.353560638427734375e+01
2.319999933242797852e-01,2.000000000000000000e+00,-2.091387367248535156e+01,-4.233311653137207031e+00,4.945634460449218750e+01,9.520595550537109375e+01,8.592173767089843750e+01,1.344678039550781250e+02,1.340567469596862793e+00,-3.283672332763671875e+01,-1.848476104736328125e+02,3.570639801025390625e+01,2.143473434448242188e+01,3.352888107299804688e+01
2.360000014305114746e-01,2.000000000000000000e+00,-2.096850013732910156e+01,-4.197229862213134766e+00,4.941007995605468750e+01,9.521180725097656250e+01,8.591826629638671875e+01,1.344619140625000000e+02,1.289219379425048828e+00,-3.283115768432617188e+01,-1.848422698974609375e+02,3.570986557006835938e+01,2.145295143127441406e+01,3.352215576171875000e+01
2.399999946355819702e-01,2.000000000000000000e+00,-2.102311325073242188e+01,-4.161156654357910156e+00,4.936383056640625000e+01,9.521765136718750000e+01,8.591480255126953125e+01,1.344560394287109375e+02,1.237883090972900391e+00,-3.282559967041015625e+01,-1.848369445800781250e+02,3.571333312988281250e+01,2.147116279602050781e+01,3.351543426513671875e+01
2.440000027418136597e-01,2.000000000000000000e+00,-2.107771492004394531e+01,-4.125091552734375000e+00,4.931758880615234375e+01,9.522350311279296875e+01,8.591132354736328125e+01,1.344501495361328125e+02,1.186558961868286133e+00,-3.282004165649414062e+01,-1.848316192626953125e+02,3.571680068969726562e+01,2.148937225341796875e+01,3.350870895385742188e+01
2.479999959468841553e-01,2.000000000000000000e+00,-2.113230323791503906e+01,-4.089034557342529297e+00,4.927136230468750000e+01,9.522935485839843750e+01,8.590785217285156250e+01,1.344442596435546875e+02,1.135246634483337402e+00,-3.281448745727539062e+01,-1.848262786865234375e+02,3.572026824951171875e+01,2.150757598876953125e+01,3.350199127197265625e+01
2.520000040531158447e-01,2.000000000000000000e+00,-2.118687820434570312e+01,-4.052986145019531250e+00,4.922514343261718750e+01,9.523519897460937500e+01,8.590438079833984375e+01,1.344383850097656250e+02,1.083946228027343750e+00,-3.280892944335937500e+01,-1.848209533691406250e+02,3.572373199462890625e+01,2.152577590942382812e+01,3.349527359008789062e+01
2.560000121593475342e-01,2.000000000000000000e+00,-2.124144172668457031e+01,-4.016945838928222656e+00,4.917893600463867188e+01,9.524104309082031250e+01,8.590091705322265625e+01,1.344324951171875000e+02,1.032657742500305176e+00,-3.280337524414062500e+01,-1.848156127929687500e+02,3.572719573974609375e+01,2.154397010803222656e+01,3.348855972290039062e+01
2.599999904632568359e-01,2.000000000000000000e+00,-2.129599189758300781e+01,-3.980913877487182617e+00,4.913273620605468750e+01,9.524688720703125000e+01,8.589745330810546875e+01,1.344266204833984375e+02,9.813808798789978027e-01,-3.279782104492187500e+01,-1.848102874755859375e+02,3.573065948486328125e+01,2.156216239929199219e+01,3.348184204101562500e+01
2.639999985694885254e-01,2.000000000000000000e+00,-2.135053062438964844e+01,-3.944890737533569336e+00,4.908655166625976562e+01,9.525273132324218750e+01,8.589398193359375000e+01,1.344207305908203125e+02,9.301160573959350586e-01,-3.279227066040039062e+01,-1.848049621582031250e+02,3.573412322998046875e+01,2.158035087585449219e+01,3.347512817382812500e+01
2.680000066757202148e-01,2.000000000000000000e+00,-2.140505599975585938e+01,-3.908875465393066406e+00,4.904037475585937500e+01,9.525857543945312500e+01,8.589051818847656250e+01,1.344148559570312500e+02,8.788630366325378418e-01,-3.278672027587890625e+01,-1.847996368408203125e+02,3.573758316040039062e+01,2.159853172302246094e+01,3.346841430664062500e+01
2.720000147819519043e-01,2.000000000000000000e+00,-2.145956802368164062e+01,-3.872868537902832031e+00,4.899420928955078125e+01,9.526441192626953125e+01,8.588704681396484375e+01,1.344089813232421875e+02,8.276216983795166016e-01,-3.278116989135742188e+01,-1.847943115234375000e+02,3.574104690551757812e+01,2.161671257019042969e+01,3.346170806884765625e+01
2.759999930858612061e-01,2.000000000000000000e+00,-2.151407051086425781e+01,-3.836869478225708008e+00,4.894805526733398438e+01,9.527025604248046875e+01,8.588358306884765625e+01,1.344031066894531250e+02,7.763922214508056641e-01,-3.277562332153320312e+01,-1.847889862060546875e+02,3.574450302124023438e+01,2.163488578796386719e+01,3.345499801635742188e+01
2.800000011920928955e-01,2.000000000000000000e+00,-2.156855773925781250e+01,-3.800879001617431641e+00,4.890191268920898438e+01,9.527608489990234375e+01,8.588011932373046875e+01,1.343972320556640625e+02,7.251744270324707031e-01,-3.277007675170898438e+01,-1.847836608886718750e+02,3.574796295166015625e+01,2.165305709838867188e+01,3.344829177856445312e+01
2.840000092983245850e-01,2.000000000000000000e+00,-2.162303161621093750e+01,-3.764896869659423828e+00,4.885577774047851562e+01,9.528192901611328125e+01,8.587665557861328125e+01,1.343913574218750000e+02,6.739682555198669434e-01,-3.276453018188476562e+01,-1.847783355712890625e+02,3.575142288208007812e+01,2.167122459411621094e+01,3.344158172607421875e+01
2.879999876022338867e-01,2.000000000000000000e+00,-2.167749595642089844e+01,-3.728923082351684570e+00,4.880965423583984375e+01,9.528775787353515625e+01,8.587319946289062500e+01,1.343854827880859375e+02,6.227738857269287109e-01,-3.275898361206054688e+01,-1.847730255126953125e+02,3.575488281250000000e+01,2.168938636779785156e+01,3.343487930297851562e+01
2.919999957084655762e-01,2.000000000000000000e+00,-2.173194694519042969e+01,-3.692957401275634766e+00,4.876354217529296875e+01,9.529359436035156250e+01,8.586973571777343750e+01,1.343796234130859375e+02,5.715911388397216797e-01,-3.275344085693359375e+01,-1.847677001953125000e+02,3.575833892822265625e+01,2.170754432678222656e+01,3.342818069458007812e+01
2.960000038146972656e-01,2.000000000000000000e+00,-2.178638458251953125e+01,-3.656999826431274414e+00,4.871744155883789062e+01,9.529942321777343750e+01,8.586627197265625000e+01,1.343737487792968750e+02,5.204199552536010742e-01,-3.274789810180664062e+01,-1.847623901367187500e+02,3.576179504394531250e+01,2.172569847106933594e+01,3.342147445678710938e+01
3.000000119209289551e-01,2.000000000000000000e+00,-2.184080886840820312e+01,-3.621050357818603516e+00,4.867134857177734375e+01,9.530525207519531250e+01,8.586281585693359375e+01,1.343678741455078125e+02,4.692604541778564453e-01,-3.274235916137695312e+01,-1.847570648193359375e+02,3.576525115966796875e+01,2.174384689331054688e+01,3.341477966308593750e+01
3.039999902248382568e-01,2.000000000000000000e+00,-2.189522171020507812e+01,-3.585109233856201172e+00,4.862526702880859375e+01,9.531108093261718750e+01,8.585935211181640625e+01,1.343620147705078125e+02,4.181126356124877930e-01,-3.273682022094726562e+01,-1.847517547607421875e+02,3.576870346069335938e+01,2.176199340820312500e+01,3.340807723999023438e+01
3.079999983310699463e-01,2.000000000000000000e+00,-2.194962310791015625e+01,-3.549176454544067383e+00,4.857919692993164062e+01,9.531690979003906250e+01,8.585589599609375000e+01,1.343561401367187500e+02,3.669764101505279541e-01,-3.273128509521484375e+01,-1.847464447021484375e+02,3.577215957641601562e+01,2.178013420104980469e+01,3.340138244628906250e+01
3.120000064373016357e-01,2.000000000000000000e+00,-2.200401115417480469e+01,-3.513251543045043945e+00,4.853313446044921875e+01,9.532273864746093750e+01,8.585243225097656250e+01,1.343502807617187500e+02,3.158518075942993164e-01,-3.272574615478515625e+01,-1.847411346435546875e+02,3.577561187744140625e+01,2.179827308654785156e+01,3.339468765258789062e+01
3.160000145435333252e-01,2.000000000000000000e+00,-2.205838584899902344e+01,-3.477334976196289062e+00,4.848708724975585938e+01,9.532855987548828125e+01,8.584897613525390625e+01,1.343444213867187500e+02,2.647388577461242676e-01,-3.272021102905273438e+01,-1.847358093261718750e+02,3.577906417846679688e+01,2.181640625000000000e+01,3.338799285888671875e+01
3.199999928474426270e-01,2.000000000000000000e+00,-2.211275100708007812e+01,-3.441426515579223633e+00,4.844104766845703125e+01,9.533438110351562500e+01,8.584552001953125000e+01,1.343385620117187500e+02,2.136375010013580322e-01,-3.271467590332031250e+01,-1.847305145263671875e+02,3.578251647949218750e+01,2.183453559875488281e+01,3.338130187988281250e+01
3.240000009536743164e-01,2.000000000000000000e+00,-2.216710281372070312e+01,-3.405526161193847656e+00,4.839501953125000000e+01,9.534020996093750000e+01,8.584206390380859375e+01,1.343327026367187500e+02,1.625477820634841919e-01,-3.270914459228515625e+01,-1.847252044677734375e+02,3.578596878051757812e+01,2.185266113281250000e+01,3.337461090087890625e+01
3.280000090599060059e-01,2.000000000000000000e+00,-2.222143936157226562e+01,-3.369633913040161133e+00,4.834899902343750000e+01,9.534602355957031250e+01,8.583861541748046875e+01,1.343268432617187500e+02,1.114696711301803589e-01,-3.270361328125000000e+01,-1.847198791503906250e+02,3.578941726684570312e+01,2.187078094482421875e+01,3.336792373657226562e+01
3.319999873638153076e-01,2.000000000000000000e+00,-2.227576828002929688e+01,-3.333750009536743164e+00,4.830299377441406250e+01,9.535184478759765625e+01,8.583515930175781250e+01,1.343209838867187500e+02,6.040317192673683167e-02,-3.269808197021484375e+01,-1.847145843505859375e+02,3.579286575317382812e+01,2.188889884948730469e+01,3.336123275756835938e+01
3.359999954700469971e-01,2.000000000000000000e+00,-2.233008193969726562e+01,-3.297874212265014648e+00,4.825699615478515625e+01,9.535766601562500000e+01,8.583170318603515625e+01,1.343151397705078125e+02,9.348289109766483307e-03,-3.269255065917968750e+01,-1.847092895507812500e+02,3.579631423950195312e+01,2.190701103210449219e+01,3.335454940795898438e+01
3.400000035762786865e-01,2.000000000000000000e+00,-2.238438224792480469e+01,-3.262006521224975586e+00,4.821100997924804688e+01,9.536348724365234375e+01,8.582825469970703125e+01,1.343092803955078125e+02,-4.169499501585960388e-02,-3.268702316284179688e+01,-1.847039794921875000e+02,3.579976272583007812e+01,2.192511940002441406e+01,3.334786224365234375e+01
3.440000116825103760e-01,2.000000000000000000e+00,-2.243867301940917969e+01,-3.226146936416625977e+00,4.816503143310546875e+01,9.536930084228515625e+01,8.582480621337890625e+01,1.343034362792968750e+02,-9.272667020559310913e-02,-3.268149948120117188e+01,-1.846986694335937500e+02,3.580321121215820312e+01,2.194322395324707031e+01,3.334117889404296875e+01
3.479999899864196777e-01,2.000000000000000000e+00,-2.249295043945312500e+01,-3.190295696258544922e+00,4.811906433105468750e+01,9.537510681152343750e+01,8.582135009765625000e+01,1.342975769042968750e+02,-1.437467485666275024e-01,-3.267597198486328125e+01,-1.846933746337890625e+02,3.580665588378906250e+01,2.196132469177246094e+01,3.333449935913085938e+01
3.519999980926513672e-01,2.000000000000000000e+00,-2.254721450805664062e+01,-3.154452562332153320e+00,4.807311248779296875e+01,9.538092041015625000e+01,8.581790161132812500e+01,1.342917175292968750e+02,-1.947552412748336792e-01,-3.267044830322265625e+01,-1.846880645751953125e+02,3.581010055541992188e+01,2.197942161560058594e+01,3.332781982421875000e+01
3.560000061988830566e-01,2.000000000000000000e+00,-2.260146713256835938e+01,-3.118617534637451172e+00,4.802716445922851562e+01,9.538673400878906250e+01,8.581445312500000000e+01,1.342858734130859375e+02,-2.457521259784698486e-01,-3.266492462158203125e+01,-1.846827697753906250e+02,3.581354904174804688e+01,2.199751281738281250e+01,3.332114028930664062e+01
3.600000143051147461e-01,2.000000000000000000e+00,-2.265570640563964844e+01,-3.082790613174438477e+00,4.798123168945312500e+01,9.539254760742187500e+01,8.581099700927734375e+01,1.342800292968750000e+02,-2.967374324798583984e-01,-3.265940475463867188e+01,-1.846774749755859375e+02,3.581698989868164062e+01,2.201560020446777344e+01,3.331446456909179688e+01
3.639999926090240479e-01,2.000000000000000000e+00,-2.270993614196777344e+01,-3.046971797943115234e+00,4.793530654907226562e+01,9.539836120605468750e+01,8.580755615234375000e+01,1.342741851806640625e+02,-3.477111756801605225e-01,-3.265388488769531250e+01,-1.846721649169921875e+02,3.582043075561523438e+01,2.203368568420410156e+01,3.330778884887695312e+01
3.680000007152557373e-01,2.000000000000000000e+00,-2.276415061950683594e+01,-3.011161088943481445e+00,4.788939285278320312e+01,9.540416717529296875e+01,8.580410766601562500e+01,1.342683410644531250e+02,-3.986733257770538330e-01,-3.264836120605468750e+01,-1.846668853759765625e+02,3.582387542724609375e+01,2.205176544189453125e+01,3.330111312866210938e+01
3.720000088214874268e-01,2.000000000000000000e+00,-2.281835174560546875e+01,-2.975358724594116211e+00,4.784349060058593750e+01,9.540997314453125000e+01,8.580066680908203125e+01,1.342624969482421875e+02,-4.496238827705383301e-01,-3.264284896850585938e+01,-1.846615905761718750e+02,3.582731628417968750e+01,2.206984138488769531e+01,3.329444503784179688e+01
3.759999871253967285e-01,2.000000000000000000e+00,-2.287254333496093750e+01,-2.939564228057861328e+00,4.779759597778320312e+01,9.541577911376953125e+01,8.579721832275390625e+01,1.342566528320312500e+02,-5.005628466606140137e-01,-3.263732910156250000e+01,-1.846562957763671875e+02,3.583076095581054688e+01,2.208791160583496094e+01,3.328776931762695312e+01
3.799999952316284180e-01,2.000000000000000000e+00,-2.292672157287597656e+01,-2.903777837753295898e+00,4.775171279907226562e+01,9.542158508300781250e+01,8.579377746582031250e+01,1.342508087158203125e+02,-5.514903068542480469e-01,-3.263181304931640625e+01,-1.846510009765625000e+02,3.583419799804687500e+01,2.210597991943359375e+01,3.328110122680664062e+01
3.840000033378601074e-01,2.000000000000000000e+00,-2.298088836669921875e+01,-2.867999792098999023e+00,4.770584106445312500e+01,9.542738342285156250e+01,8.579032897949218750e+01,1.342449798583984375e+02,-6.024061441421508789e-01,-3.262630081176757812e+01,-1.846457061767578125e+02,3.583763885498046875e+01,2.212404251098632812e+01,3.327443313598632812e+01
3.880000114440917969e-01,2.000000000000000000e+00,-2.303504180908203125e+01,-2.832229852676391602e+00,4.765998077392578125e+01,9.543318939208984375e+01,8.578688812255859375e+01,1.342391357421875000e+02,-6.533104181289672852e-01,-3.262078475952148438e+01,-1.846404266357421875e+02,3.584107589721679688e+01,2.214210319519042969e+01,3.326776885986328125e+01
3.919999897480010986e-01,2.000000000000000000e+00,-2.308918571472167969e+01,-2.796468019485473633e+00,4.761413192749023438e+01,9.543898773193359375e+01,8.578344726562500000e+01,1.342333068847656250e+02,-7.042031884193420410e-01,-3.261527633666992188e+01,-1.846351318359375000e+02,3.584451293945312500e+01,2.216015815734863281e+01,3.326110076904296875e+01
3.959999978542327881e-01,2.000000000000000000e+00,-2.314331436157226562e+01,-2.760714292526245117e+00,4.756829071044921875e+01,9.544478607177734375e+01,8.578000640869140625e+01,1.342274627685546875e+02,-7.550843358039855957e-01,-3.260976409912109375e+01,-1.846298522949218750e+02,3.584794998168945312e+01,2.217820930480957031e+01,3.325444030761718750e+01
4.000000059604644775e-01,2.000000000000000000e+00,-2.319743156433105469e+01,-2.724968671798706055e+00,4.752245712280273438e+01,9.545058441162109375e+01,8.577656555175781250e+01,1.342216339111328125e+02,-8.059539794921875000e-01,-3.260425567626953125e+01,-1.846245574951171875e+02,3.585138702392578125e+01,2.219625473022460938e+01,3.324777984619140625e+01
4.040000140666961670e-01,2.000000000000000000e+00,-2.325153541564941406e+01,-2.689231157302856445e+00,4.747663879394531250e+01,9.545637512207031250e+01,8.577312469482421875e+01,1.342158050537109375e+02,-8.568120002746582031e-01,-3.259874725341796875e+01,-1.846192779541015625e+02,3.585482406616210938e+01,2.221429824829101562e+01,3.324111557006835938e+01
4.079999923706054688e-01,2.000000000000000000e+00,-2.330562782287597656e+01,-2.653501510620117188e+00,4.743082809448242188e+01,9.546216583251953125e+01,8.576968383789062500e+01,1.342099609375000000e+02,-9.076586365699768066e-01,-3.259324264526367188e+01,-1.846139984130859375e+02,3.585825347900390625e+01,2.223233795166015625e+01,3.323446273803710938e+01
4.120000004768371582e-01,2.000000000000000000e+00,-2.335970878601074219e+01,-2.617780447006225586e+00,4.738502883911132812e+01,9.546796417236328125e+01,8.576625061035156250e+01,1.342041320800781250e+02,-9.584935903549194336e-01,-3.258773803710937500e+01,-1.846087036132812500e+02,3.586169052124023438e+01,2.225037193298339844e+01,3.322780227661132812e+01
4.160000085830688477e-01,2.000000000000000000e+00,-2.341377639770507812e+01,-2.582067251205444336e+00,4.733924102783203125e+01,9.547375488281250000e+01,8.576280975341796875e+01,1.341983032226562500e+02,-1.009317040443420410e+00,-3.258223342895507812e+01,-1.846034393310546875e+02,3.586512374877929688e+01,2.226840209960937500e+01,3.322114562988281250e+01
4.199999868869781494e-01,2.000000000000000000e+00,-2.346783256530761719e+01,-2.546362161636352539e+00,4.729346466064453125e+01,9.547955322265625000e+01,8.575936889648437500e+01,1.341924896240234375e+02,-1.060128927230834961e+00,-3.257672882080078125e+01,-1.845981445312500000e+02,3.586855316162109375e+01,2.228643035888671875e+01,3.321449279785156250e+01
4.239999949932098389e-01,2.000000000000000000e+00,-2.352187538146972656e+01,-2.510665178298950195e+00,4.724769592285156250e+01,9.548533630371093750e+01,8.575593566894531250e+01,1.341866455078125000e+02,-1.110929369926452637e+00,-3.257122802734375000e+01,-1.845928649902343750e+02,3.587198638916015625e+01,2.230445289611816406e+01,3.320783996582031250e+01
4.280000030994415283e-01,2.000000000000000000e+00,-2.357590675354003906e+01,-2.474976301193237305e+00,4.720193862915039062e+01,9.549112701416015625e+01,8.575250244140625000e+01,1.341808319091796875e+02,-1.161718130111694336e+00,-3.256572723388671875e+01,-1.845875854492187500e+02,3.587541580200195312e+01,2.232246971130371094e+01,3.320118713378906250e+01
4.320000112056732178e-01,2.000000000000000000e+00,-2.362992668151855469e+01,-2.439295291900634766e+00,4.715618896484375000e+01,9.549691009521484375e+01,8.574906158447265625e+01,1.341750030517578125e+02,-1.212495565414428711e+00,-3.256023025512695312e+01,-1.845823059082031250e+02,3.587884902954101562e+01,2.234048461914062500e+01,3.319453811645507812e+01
4.359999895095825195e-01,2.000000000000000000e+00,-2.368393135070800781e+01,-2.403622865676879883e+00,4.711045074462890625e+01,9.550270080566406250e+01,8.574563598632812500e+01,1.341691741943359375e+02,-1.263261318206787109e+00,-3.255472946166992188e+01,-1.845770416259765625e+02,3.588227462768554688e+01,2.235849380493164062e+01,3.318789291381835938e+01
4.399999976158142090e-01,2.000000000000000000e+00,-2.373792648315429688e+01,-2.367958068847656250e+00,4.706472778320312500e+01,9.550848388671875000e+01,8.574220275878906250e+01,1.341633605957031250e+02,-1.314015626907348633e+00,-3.254923248291015625e+01,-1.845717620849609375e+02,3.588570404052734375e+01,2.237650108337402344e+01,3.318124389648437500e+01
4.440000057220458984e-01,2.000000000000000000e+00,-2.379190826416015625e+01,-2.332301616668701172e+00,4.701900863647460938e+01,9.551425933837890625e+01,8.573876953125000000e+01,1.341575317382812500e+02,-1.364758372306823730e+00,-3.254373931884765625e+01,-1.845664978027343750e+02,3.588912963867187500e+01,2.239450263977050781e+01,3.317460250854492188e+01
4.480000138282775879e-01,2.000000000000000000e+00,-2.384587860107421875e+01,-2.296653270721435547e+00,4.697330474853515625e+01,9.552005004882812500e+01,8.573533630371093750e+01,1.341517181396484375e+02,-1.415489673614501953e+00,-3.253824234008789062e+01,-1.845612182617187500e+02,3.589255905151367188e+01,2.241250038146972656e+01,3.316795730590820312e+01
4.519999921321868896e-01,2.000000000000000000e+00,-2.389983558654785156e+01,-2.261013031005859375e+00,4.692761230468750000e+01,9.552582550048828125e+01,8.573191070556640625e+01,1.341459197998046875e+02,-1.466209411621093750e+00,-3.253275299072265625e+01,-1.845559539794921875e+02,3.589598464965820312e+01,2.243049430847167969e+01,3.316131210327148438e+01
4.560000002384185791e-01,2.000000000000000000e+00,-2.395378112792968750e+01,-2.225380659103393555e+00,4.688192367553710938e+01,9.553160095214843750e+01,8.572847747802734375e+01,1.341400909423828125e+02,-1.516917705535888672e+00,-3.252725982666015625e+01,-1.845506744384765625e+02,3.589941024780273438e+01,2.244848632812500000e+01,3.315467453002929688e+01
4.600000083446502686e-01,2.000000000000000000e+00,-2.400771331787109375e+01,-2.189756631851196289e+00,4.683625030517578125e+01,9.553738403320312500e+01,8.572505187988281250e+01,1.341342773437500000e+02,-1.567614436149597168e+00,-3.252176666259765625e+01,-1.845454101562500000e+02,3.590283203125000000e+01,2.246647071838378906e+01,3.314803695678710938e+01
4.639999866485595703e-01,2.000000000000000000e+00,-2.406163406372070312e+01,-2.154140233993530273e+00,4.679058837890625000e+01,9.554315948486328125e+01,8.572161865234375000e+01,1.341284637451171875e+02,-1.618299722671508789e+00,-3.251628112792968750e+01,-1.845401458740234375e+02,3.590625762939453125e+01,2.248445129394531250e+01,3.314139556884765625e+01
4.679999947547912598e-01,2.000000000000000000e+00,-2.411554336547851562e+01,-2.118532419204711914e+00,4.674493026733398438e+01,9.554893493652343750e+01,8.571819305419921875e+01,1.341226501464843750e+02,-1.668973445892333984e+00,-3.251079177856445312e+01,-1.845348815917968750e+02,3.590967941284179688e+01,2.250242996215820312e+01,3.313476181030273438e+01
4.720000028610229492e-01,2.000000000000000000e+00,-2.416944122314453125e+01,-2.082932472229003906e+00,4.669928741455078125e+01,9.555471038818359375e+01,8.571476745605468750e+01,1.341168518066406250e+02,-1.719635844230651855e+00,-3.250530624389648438e+01,-1.845296173095703125e+02,3.591310119628906250e+01,2.252040481567382812e+01,3.312812423706054688e+01
4.760000109672546387e-01,2.000000000000000000e+00,-2.422332382202148438e+01,-2.047340393066406250e+00,4.665365600585937500e+01,9.556047821044921875e+01,8.571134185791015625e+01,1.341110382080078125e+02,-1.770286560058593750e+00,-3.249982070922851562e+01,-1.845243530273437500e+02,3.591652297973632812e+01,2.253837203979492188e+01,3.312149429321289062e+01
4.799999892711639404e-01,2.000000000000000000e+00,-2.427719497680664062e+01,-2.011756658554077148e+00,4.660803222656250000e+01,9.556625366210937500e+01,8.570791625976562500e+01,1.341052246093750000e+02,-1.820925951004028320e+00,-3.249433517456054688e+01,-1.845190887451171875e+02,3.591994476318359375e+01,2.255633735656738281e+01,3.311486053466796875e+01
4.839999973773956299e-01,2.000000000000000000e+00,-2.433105659484863281e+01,-1.976181030273437500e+00,4.656241607666015625e+01,9.557201385498046875e+01,8.570449066162109375e+01,1.340994110107421875e+02,-1.871553659439086914e+00,-3.248885345458984375e+01,-1.845138397216796875e+02,3.592336273193359375e+01,2.257429885864257812e+01,3.310823059082031250e+01
4.880000054836273193e-01,2.000000000000000000e+00,-2.438490486145019531e+01,-1.940613389015197754e+00,4.651681518554687500e+01,9.557778930664062500e+01,8.570106506347656250e+01,1.340936126708984375e+02,-1.922170042991638184e+00,-3.248337173461914062e+01,-1.845085754394531250e+02,3.592678070068359375e+01,2.259225654602050781e+01,3.310160446166992188e+01
4.920000135898590088e-01,2.000000000000000000e+00,-2.443873977661132812e+01,-1.905053734779357910e+00,4.647122573852539062e+01,9.558355712890625000e+01,8.569764709472656250e+01,1.340878143310546875e+02,-1.972774863243103027e+00,-3.247789001464843750e+01,-1.845033111572265625e+02,3.593019866943359375e+01,2.261020851135253906e+01,3.309497451782226562e+01
4.959999918937683105e-01,2.000000000000000000e+00,-2.449256134033203125e+01,-1.869502186775207520e+00,4.642564392089843750e+01,9.558931732177734375e+01,8.569422149658203125e+01,1.340820159912109375e+02,-2.023368358612060547e+00,-3.247240829467773438e+01,-1.844980621337890625e+02,3.593362045288085938e+01,2.262815856933593750e+01,3.308834838867187500e+01
5.000000000000000000e-01,2.000000000000000000e+00,-2.454637336730957031e+01,-1.833958745002746582e+00,4.638007354736328125e+01,9.559508514404296875e+01,8.569080352783203125e+01,1.340762023925781250e+02,-2.073950290679931641e+00,-3.246693420410156250e+01,-1.844927978515625000e+02,3.593703460693359375e+01,2.264610290527343750e+01,3.308172607421875000e+01
5.040000081062316895e-01,2.000000000000000000e+00,-2.460017395019531250e+01,-1.798423171043395996e+00,4.633451080322265625e+01,9.560084533691406250e+01,8.568737792968750000e+01,1.340704193115234375e+02,-2.124520778656005859e+00,-3.246145629882812500e+01,-1.844875335693359375e+02,3.594044876098632812e+01,2.266404533386230469e+01,3.307510375976562500e+01
5.080000162124633789e-01,2.000000000000000000e+00,-2.465395927429199219e+01,-1.762895822525024414e+00,4.628895950317382812e+01,9.560661315917968750e+01,8.568396759033203125e+01,1.340646057128906250e+02,-2.175080060958862305e+00,-3.245597839355468750e+01,-1.844822845458984375e+02,3.594386291503906250e+01,2.268198204040527344e+01,3.306848526000976562e+01
5.120000243186950684e-01,2.000000000000000000e+00,-2.470773315429687500e+01,-1.727376461029052734e+00,4.624341964721679688e+01,9.561237335205078125e+01,8.568054199218750000e+01,1.340588226318359375e+02,-2.225627422332763672e+00,-3.245050430297851562e+01,-1.844770355224609375e+02,3.594728088378906250e+01,2.269991493225097656e+01,3.306186294555664062e+01
5.159999728202819824e-01,2.000000000000000000e+00,-2.476149559020996094e+01,-1.691865205764770508e+00,4.619789123535156250e+01,9.561812591552734375e+01,8.567713165283203125e+01,1.340530090332031250e+02,-2.276163578033447266e+00,-3.244503402709960938e+01,-1.844717864990234375e+02,3.595069503784179688e+01,2.271784400939941406e+01,3.305524444580078125e+01
5.199999809265136719e-01,2.000000000000000000e+00,-2.481524467468261719e+01,-1.656361818313598633e+00,4.615237045288085938e+01,9.562388610839843750e+01,8.567370605468750000e+01,1.340472106933593750e+02,-2.326688289642333984e+00,-3.243956375122070312e+01,-1.844665222167968750e+02,3.595410537719726562e+01,2.273577117919921875e+01,3.304862976074218750e+01
5.239999890327453613e-01,2.000000000000000000e+00,-2.486898422241210938e+01,-1.620866656303405762e+00,4.610686111450195312e+01,9.562964630126953125e+01,8.567029571533203125e+01,1.340414276123046875e+02,-2.377201557159423828e+00,-3.243409347534179688e+01,-1.844612884521484375e+02,3.595751953125000000e+01,2.275369262695312500e+01,3.304201507568359375e+01
5.279999971389770508e-01,2.000000000000000000e+00,-2.492271041870117188e+01,-1.585379481315612793e+00,4.606136322021484375e+01,9.563539886474609375e+01,8.566687774658203125e+01,1.340356292724609375e+02,-2.427703142166137695e+00,-3.242862319946289062e+01,-1.844560394287109375e+02,3.596092987060546875e+01,2.277161026000976562e+01,3.303540039062500000e+01
5.320000052452087402e-01,2.000000000000000000e+00,-2.497642517089843750e+01,-1.549900412559509277e+00,4.601587295532226562e+01,9.564115142822265625e+01,8.566345977783203125e+01,1.340298461914062500e+02,-2.478193759918212891e+00,-3.242315292358398438e+01,-1.844507904052734375e+02,3.596433639526367188e+01,2.278952217102050781e+01,3.302878570556640625e+01
5.360000133514404297e-01,2.000000000000000000e+00,-2.503012466430664062e+01,-1.514429211616516113e+00,4.597039413452148438e+01,9.564691162109375000e+01,8.566004943847656250e+01,1.340240478515625000e+02,-2.528672695159912109e+00,-3.241768646240234375e+01,-1.844455413818359375e+02,3.596775054931640625e+01,2.280743026733398438e+01,3.302217864990234375e+01
5.400000214576721191e-01,2.000000000000000000e+00,-2.508381462097167969e+01,-1.478966116905212402e+00,4.592493057250976562e+01,9.565266418457031250e+01,8.565663909912109375e+01,1.340182647705078125e+02,-2.579140186309814453e+00,-3.241222381591796875e+01,-1.844402923583984375e+02,3.597115707397460938e+01,2.282533645629882812e+01,3.301556777954101562e+01
5.440000295639038086e-01,2.000000000000000000e+00,-2.513749122619628906e+01,-1.443511128425598145e+00,4.587947082519531250e+01,9.565840911865234375e+01,8.565322113037109375e+01,1.340124816894531250e+02,-2.629596233367919922e+00,-3.240675735473632812e+01,-1.844350585937500000e+02,3.597456741333007812e+01,2.284323692321777344e+01,3.300896072387695312e+01
5.479999780654907227e-01,2.000000000000000000e+00,-2.519115638732910156e+01,-1.408064007759094238e+00,4.583402252197265625e+01,9.566415405273437500e+01,8.564981079101562500e+01,1.340066986083984375e+02,-2.680041074752807617e+00,-3.240129470825195312e+01,-1.844298095703125000e+02,3.597797393798828125e+01,2.286113357543945312e+01,3.300235366821289062e+01
5.519999861717224121e-01,2.000000000000000000e+00,-2.524481201171875000e+01,-1.372624993324279785e+00,4.578858566284179688e+01,9.566990661621093750e+01,8.564640045166015625e+01,1.340009155273437500e+02,-2.730474233627319336e+00,-3.239583206176757812e+01,-1.844245758056640625e+02,3.598138046264648438e+01,2.287902450561523438e+01,3.299575042724609375e+01
5.559999942779541016e-01,2.000000000000000000e+00,-2.529845237731933594e+01,-1.337194085121154785e+00,4.574315643310546875e+01,9.567565155029296875e+01,8.564299011230468750e+01,1.339951324462890625e+02,-2.780895948410034180e+00,-3.239037322998046875e+01,-1.844193267822265625e+02,3.598478317260742188e+01,2.289691352844238281e+01,3.298914718627929688e+01
5.600000023841857910e-01,2.000000000000000000e+00,-2.535207939147949219e+01,-1.301771044731140137e+00,4.569773864746093750e+01,9.568139648437500000e+01,8.563957977294921875e+01,1.339893493652343750e+02,-2.831306457519531250e+00,-3.238491058349609375e+01,-1.844140930175781250e+02,3.598819351196289062e+01,2.291479682922363281e+01,3.298254776000976562e+01
5.640000104904174805e-01,2.000000000000000000e+00,-2.540569686889648438e+01,-1.266355991363525391e+00,4.565233612060546875e+01,9.568714141845703125e+01,8.563617706298828125e+01,1.339835815429687500e+02,-2.881705522537231445e+00,-3.237945556640625000e+01,-1.844088592529296875e+02,3.599159240722656250e+01,2.293267822265625000e+01,3.297594451904296875e+01
5.680000185966491699e-01,2.000000000000000000e+00,-2.545930099487304688e+01,-1.230949163436889648e+00,4.560693740844726562e+01,9.569288635253906250e+01,8.563276672363281250e+01,1.339777832031250000e+02,-2.932093143463134766e+00,-3.237399673461914062e+01,-1.844036254882812500e+02,3.599499893188476562e+01,2.295055389404296875e+01,3.296934890747070312e+01
5.720000267028808594e-01,2.000000000000000000e+00,-2.551289367675781250e+01,-1.195550203323364258e+00,4.556155395507812500e+01,9.569862365722656250e+01,8.562935638427734375e+01,1.339720153808593750e+02,-2.982469081878662109e+00,-3.236854171752929688e+01,-1.843983917236328125e+02,3.599840164184570312e+01,2.296842575073242188e+01,3.296274948120117188e+01
5.759999752044677734e-01,2.000000000000000000e+00,-2.556647491455078125e+01,-1.160159349441528320e+00,4.551617813110351562e+01,9.570436859130859375e+01,8.562595367431640625e+01,1.339662322998046875e+02,-3.032834053039550781e+00,-3.236309051513671875e+01,-1.843931579589843750e+02,3.600180053710937500e+01,2.298629379272460938e+01,3.295615386962890625e+01
5.799999833106994629e-01,2.000000000000000000e+00,-2.562004089355468750e+01,-1.124776363372802734e+00,4.547080993652343750e+01,9.571010589599609375e+01,8.562254333496093750e+01,1.339604644775390625e+02,-3.083187580108642578e+00,-3.235763549804687500e+01,-1.843879241943359375e+02,3.600520324707031250e+01,2.300415802001953125e+01,3.294956207275390625e+01
5.839999914169311523e-01,2.000000000000000000e+00,-2.567359924316406250e+01,-1.089401364326477051e+00,4.542545700073242188e+01,9.571584320068359375e+01,8.561914062500000000e+01,1.339546813964843750e+02,-3.133529424667358398e+00,-3.235218048095703125e+01,-1.843826904296875000e+02,3.600860214233398438e+01,2.302201652526855469e+01,3.294296646118164062e+01
5.879999995231628418e-01,2.000000000000000000e+00,-2.572714233398437500e+01,-1.054034471511840820e+00,4.538011169433593750e+01,9.572158050537109375e+01,8.561573791503906250e+01,1.339489135742187500e+02,-3.183860063552856445e+00,-3.234673309326171875e+01,-1.843774566650390625e+02,3.601200485229492188e+01,2.303987312316894531e+01,3.293637466430664062e+01
5.920000076293945312e-01,2.000000000000000000e+00,-2.578067398071289062e+01,-1.018675684928894043e+00,4.533477783203125000e+01,9.572731018066406250e+01,8.561232757568359375e+01,1.339431457519531250e+02,-3.234179258346557617e+00,-3.234128570556640625e+01,-1.843722229003906250e+02,3.601540374755859375e+01,2.305772590637207031e+01,3.292978668212890625e+01
5.960000157356262207e-01,2.000000000000000000e+00,-2.583419418334960938e+01,-9.833247661590576172e-01,4.528945159912109375e+01,9.573304748535156250e+01,8.560893249511718750e+01,1.339373779296875000e+02,-3.284487247467041016e+00,-3.233583450317382812e+01,-1.843670043945312500e+02,3.601880264282226562e+01,2.307557296752929688e+01,3.292319869995117188e+01
6.000000238418579102e-01,2.000000000000000000e+00,-2.588770103454589844e+01,-9.479818344116210938e-01,4.524414062500000000e+01,9.573877716064453125e+01,8.560552978515625000e+01,1.339316101074218750e+02,-3.334783792495727539e+00,-3.233038711547851562e+01,-1.843617858886718750e+02,3.602219772338867188e+01,2.309341621398925781e+01,3.291661071777343750e+01
6.039999723434448242e-01,2.000000000000000000e+00,-2.594119644165039062e+01,-9.126467704772949219e-01,4.519883728027343750e+01,9.574450683593750000e+01,8.560212707519531250e+01,1.339258270263671875e+02,-3.385068893432617188e+00,-3.232494354248046875e+01,-1.843565521240234375e+02,3.602559280395507812e+01,2.311125755310058594e+01,3.291002655029296875e+01
6.079999804496765137e-01,2.000000000000000000e+00,-2.599467849731445312e+01,-8.773198127746582031e-01,4.515354156494140625e+01,9.575023651123046875e+01,8.559872436523437500e+01,1.339200744628906250e+02,-3.435342788696289062e+00,-3.231949615478515625e+01,-1.843513336181640625e+02,3.602899169921875000e+01,2.312909126281738281e+01,3.290344238281250000e+01
6.119999885559082031e-01,2.000000000000000000e+00,-2.604815101623535156e+01,-8.420008420944213867e-01,4.510825729370117188e+01,9.575595855712890625e+01,8.559532928466796875e+01,1.339143066406250000e+02,-3.485605001449584961e+00,-3.231405258178710938e+01,-1.843461151123046875e+02,3.603238677978515625e+01,2.314692306518554688e+01,3.289686203002929688e+01
6.159999966621398926e-01,2.000000000000000000e+00,-2.610161018371582031e+01,-8.066897988319396973e-01,4.506298446655273438e+01,9.576168823242187500e+01,8.559192657470703125e+01,1.339085388183593750e+02,-3.535856246948242188e+00,-3.230861282348632812e+01,-1.843408813476562500e+02,3.603578186035156250e+01,2.316475105285644531e+01,3.289028167724609375e+01
6.200000047683715820e-01,2.000000000000000000e+00,-2.615505790710449219e+01,-7.713866829872131348e-01,4.501772308349609375e+01,9.576741790771484375e+01,8.558853149414062500e+01,1.339027862548828125e+02,-3.586095571517944336e+00,-3.230317306518554688e+01,-1.843356628417968750e+02,3.603917312622070312e+01,2.318257331848144531e+01,3.288370132446289062e+01
6.240000128746032715e-01,2.000000000000000000e+00,-2.620849227905273438e+01,-7.360914945602416992e-01,4.497246932983398438e+01,9.577313995361328125e+01,8.558513641357421875e+01,1.338970184326171875e+02,-3.636323928833007812e+00,-3.229773330688476562e+01,-1.843304443359375000e+02,3.604256820678710938e+01,2.320039367675781250e+01,3.287712097167968750e+01
6.280000209808349609e-01,2.000000000000000000e+00,-2.626191711425781250e+01,-7.008042335510253906e-01,4.492722702026367188e+01,9.577886199951171875e+01,8.558174133300781250e+01,1.338912506103515625e+02,-3.686541318893432617e+00,-3.229228973388671875e+01,-1.843252258300781250e+02,3.604595947265625000e+01,2.321820831298828125e+01,3.287054443359375000e+01
6.320000290870666504e-01,2.000000000000000000e+00,-2.631532859802246094e+01,-6.655248999595642090e-01,4.488199234008789062e+01,9.578458404541015625e+01,8.557834625244140625e+01,1.338855133056640625e+02,-3.736747026443481445e+00,-3.228685379028320312e+01,-1.843200073242187500e+02,3.604935073852539062e+01,2.323602104187011719e+01,3.286397171020507812e+01
6.359999775886535645e-01,2.000000000000000000e+00,-2.636872673034667969e+01,-6.302534341812133789e-01,4.483676910400390625e+01,9.579030609130859375e+01,8.557495117187500000e+01,1.338797454833984375e+02,-3.786941766738891602e+00,-3.228141784667968750e+01,-1.843147888183593750e+02,3.605274200439453125e+01,2.325382804870605469e+01,3.285739898681640625e+01
6.399999856948852539e-01,2.000000000000000000e+00,-2.642211532592773438e+01,-5.949898958206176758e-01,4.479156112670898438e+01,9.579602813720703125e+01,8.557155609130859375e+01,1.338739929199218750e+02,-3.837124824523925781e+00,-3.227598571777343750e+01,-1.843095855712890625e+02,3.605612945556640625e+01,2.327163124084472656e+01,3.285082626342773438e+01
6.439999938011169434e-01,2.000000000000000000e+00,-2.647549247741699219e+01,-5.597342252731323242e-01,4.474636077880859375e+01,9.580174255371093750e+01,8.556816101074218750e+01,1.338682403564453125e+02,-3.887297153472900391e+00,-3.227054977416992188e+01,-1.843043670654296875e+02,3.605952072143554688e+01,2.328943061828613281e+01,3.284425735473632812e+01
6.480000019073486328e-01,2.000000000000000000e+00,-2.652885437011718750e+01,-5.244863629341125488e-01,4.470116806030273438e+01,9.580745697021484375e+01,8.556476593017578125e+01,1.338624877929687500e+02,-3.937458038330078125e+00,-3.226511764526367188e+01,-1.842991485595703125e+02,3.606290817260742188e+01,2.330722618103027344e+01,3.283768844604492188e+01
6.520000100135803223e-01,2.000000000000000000e+00,-2.658220672607421875e+01,-4.892463982105255127e-01,4.465598678588867188e+01,9.581317138671875000e+01,8.556137847900390625e+01,1.338567352294921875e+02,-3.987607479095458984e+00,-3.225968551635742188e+01,-1.842939453125000000e+02,3.606629562377929688e+01,2.332501792907714844e+01,3.283112335205078125e+01
6.560000181198120117e-01,2.000000000000000000e+00,-2.663554763793945312e+01,-4.540142714977264404e-01,4.461080932617187500e+01,9.581888580322265625e+01,8.555798339843750000e+01,1.338509826660156250e+02,-4.037746429443359375e+00,-3.225425720214843750e+01,-1.842887268066406250e+02,3.606967926025390625e+01,2.334280586242675781e+01,3.282455444335937500e+01
6.600000262260437012e-01,2.000000000000000000e+00,-2.668887519836425781e+01,-4.187899529933929443e-01,4.456565093994140625e+01,9.582460021972656250e+01,8.555459594726562500e+01,1.338452301025390625e+02,-4.087873935699462891e+00,-3.224882888793945312e+01,-1.842835235595703125e+02,3.607306671142578125e+01,2.336058998107910156e+01,3.281798934936523438e+01
6.639999747276306152e-01,2.000000000000000000e+00,-2.674219131469726562e+01,-3.835734724998474121e-01,4.452050018310546875e+01,9.583031463623046875e+01,8.555120849609375000e+01,1.338394775390625000e+02,-4.137989997863769531e+00,-3.224340057373046875e+01,-1.842783203125000000e+02,3.607645034790039062e+01,2.337837028503417969e+01,3.281142807006835938e+01
6.679999828338623047e-01,2.000000000000000000e+00,-2.679549407958984375e+01,-3.483647704124450684e-01,4.447535705566406250e+01,9.583602142333984375e+01,8.554781341552734375e+01,1.338337402343750000e+02,-4.188095092773437500e+00,-3.223797225952148438e+01,-1.842731170654296875e+02,3.607983779907226562e+01,2.339614486694335938e+01,3.280486679077148438e+01
6.719999909400939941e-01,2.000000000000000000e+00,-2.684878730773925781e+01,-3.131638765335083008e-01,4.443022537231445312e+01,9.584172821044921875e+01,8.554442596435546875e+01,1.338280029296875000e+02,-4.238189697265625000e+00,-3.223255157470703125e+01,-1.842678985595703125e+02,3.608322143554687500e+01,2.341391754150390625e+01,3.279830551147460938e+01
6.759999990463256836e-01,2.000000000000000000e+00,-2.690206909179687500e+01,-2.779707908630371094e-01,4.438510513305664062e+01,9.584743499755859375e+01,8.554103851318359375e+01,1.338222503662109375e+02,-4.288272857666015625e+00,-3.222712326049804688e+01,-1.842626953125000000e+02,3.608660125732421875e+01,2.343168449401855469e+01,3.279174423217773438e+01
6.800000071525573730e-01,2.000000000000000000e+00,-2.695533752441406250e+01,-2.427854537963867188e-01,4.433998870849609375e+01,9.585314941406250000e+01,8.553765869140625000e+01,1.338165130615234375e+02,-4.338345050811767578e+00,-3.222170639038085938e+01,-1.842574920654296875e+02,3.608998489379882812e+01,2.344944953918457031e+01,3.278518676757812500e+01
6.840000152587890625e-01,2.000000000000000000e+00,-2.700859451293945312e+01,-2.076078802347183228e-01,4.429488754272460938e+01,9.585884857177734375e+01,8.553427124023437500e+01,1.338107757568359375e+02,-4.388406276702880859e+00,-3.221628189086914062e+01,-1.842522888183593750e+02,3.609336853027343750e+01,2.346721076965332031e+01,3.277863311767578125e+01
6.880000233650207520e-01,2.000000000000000000e+00,-2.706184005737304688e+01,-1.724380701780319214e-01,4.424979782104492188e+01,9.586455535888671875e+01,8.553088378906250000e+01,1.338050384521484375e+02,-4.438456535339355469e+00,-3.221086120605468750e+01,-1.842470855712890625e+02,3.609674835205078125e+01,2.348496627807617188e+01,3.277207946777343750e+01
6.919999718666076660e-01,2.000000000000000000e+00,-2.711507415771484375e+01,-1.372759789228439331e-01,4.420471572875976562e+01,9.587025451660156250e+01,8.552749633789062500e+01,1.337992858886718750e+02,-4.488495349884033203e+00,-3.220544052124023438e+01,-1.842418975830078125e+02,3.610012435913085938e+01,2.350271797180175781e+01,3.276552581787109375e+01
6.959999799728393555e-01,2.000000000000000000e+00,-2.716829490661621094e+01,-1.021216362714767456e-01,4.415964126586914062e+01,9.587596130371093750e+01,8.552410888671875000e+01,1.337935485839843750e+02,-4.538523674011230469e+00,-3.220002365112304688e+01,-1.842366943359375000e+02,3.610350799560546875e+01,2.352046775817871094e+01,3.275897598266601562e+01
6.999999880790710449e-01,2.000000000000000000e+00,-2.722150611877441406e+01,-6.697502732276916504e-02,4.411458206176757812e+01,9.588166046142578125e+01,8.552072906494140625e+01,1.337878112792968750e+02,-4.588540554046630859e+00,-3.219460678100585938e+01,-1.842315063476562500e+02,3.610688400268554688e+01,2.353821182250976562e+01,3.275242233276367188e+01
7.039999961853027344e-01,2.000000000000000000e+00,-2.727470397949218750e+01,-3.183614835143089294e-02,4.406952667236328125e+01,9.588735961914062500e+01,8.551734924316406250e+01,1.337820892333984375e+02,-4.638546943664550781e+00,-3.218919372558593750e+01,-1.842263031005859375e+02,3.611026000976562500e+01,2.355595207214355469e+01,3.274587249755859375e+01
7.080000042915344238e-01,2.000000000000000000e+00,-2.732789039611816406e+01,3.294998314231634140e-03,4.402448272705078125e+01,9.589305877685546875e+01,8.551396942138671875e+01,1.337763519287109375e+02,-4.688541889190673828e+00,-3.218377685546875000e+01,-1.842210998535156250e+02,3.611363983154296875e+01,2.357369041442871094e+01,3.273932647705078125e+01
7.120000123977661133e-01,2.000000000000000000e+00,-2.738106536865234375e+01,3.841841593384742737e-02,4.397945022583007812e+01,9.589875030517578125e+01,8.551058959960937500e+01,1.337706146240234375e+02,-4.738526344299316406e+00,-3.217836380004882812e+01,-1.842159118652343750e+02,3.611701583862304688e+01,2.359142303466796875e+01,3.273278427124023438e+01
7.160000205039978027e-01,2.000000000000000000e+00,-2.743423080444335938e+01,7.353410869836807251e-02,4.393442916870117188e+01,9.590444946289062500e+01,8.550720977783203125e+01,1.337648925781250000e+02,-4.788499355316162109e+00,-3.217295074462890625e+01,-1.842107086181640625e+02,3.612039184570312500e+01,2.360914993286132812e+01,3.272623825073242188e+01
7.200000286102294922e-01,2.000000000000000000e+00,-2.748738098144531250e+01,1.086420863866806030e-01,4.388941574096679688e+01,9.591014099121093750e+01,8.550382995605468750e+01,1.337591552734375000e+02,-4.838461399078369141e+00,-3.216754150390625000e+01,-1.842055206298828125e+02,3.612376403808593750e+01,2.362687683105468750e+01,3.271969223022460938e+01
7.239999771118164062e-01,2.000000000000000000e+00,-2.754052162170410156e+01,1.437423378229141235e-01,4.384441375732421875e+01,9.591583251953125000e+01,8.550045013427734375e+01,1.337534179687500000e+02,-4.888412475585937500e+00,-3.216213226318359375e+01,-1.842003326416015625e+02,3.612714004516601562e+01,2.364459800720214844e+01,3.271315383911132812e+01
7.279999852180480957e-01,2.000000000000000000e+00,-2.759365081787109375e+01,1.788348704576492310e-01,4.379942321777343750e+01,9.592152404785156250e+01,8.549707031250000000e+01,1.337476959228515625e+02,-4.938352584838867188e+00,-3.215672302246093750e+01,-1.841951446533203125e+02,3.613051223754882812e+01,2.366231536865234375e+01,3.270661544799804688e+01
7.319999933242797852e-01,2.000000000000000000e+00,-2.764676666259765625e+01,2.139196991920471191e-01,4.375443649291992188e+01,9.592721557617187500e+01,8.549369812011718750e+01,1.337419586181640625e+02,-4.988281726837158203e+00,-3.215131759643554688e+01,-1.841899566650390625e+02,3.613388824462890625e+01,2.368002700805664062e+01,3.270007324218750000e+01
7.360000014305114746e-01,2.000000000000000000e+00,-2.769987106323242188e+01,2.489968240261077881e-01,4.370946502685546875e+01,9.593290710449218750e+01,8.549031829833984375e+01,1.337362365722656250e+02,-5.038199901580810547e+00,-3.214590835571289062e+01,-1.841847686767578125e+02,3.613725662231445312e+01,2.369773864746093750e+01,3.269353866577148438e+01
7.400000095367431641e-01,2.000000000000000000e+00,-2.775296401977539062e+01,2.840662002563476562e-01,4.366450119018554688e+01,9.593859100341796875e+01,8.548694610595703125e+01,1.337305145263671875e+02,-5.088107109069824219e+00,-3.214050292968750000e+01,-1.841795806884765625e+02,3.614062881469726562e+01,2.371544265747070312e+01,3.268700027465820312e+01
7.440000176429748535e-01,2.000000000000000000e+00,-2.780604743957519531e+01,3.191278874874114990e-01,4.361954879760742188e+01,9.594427490234375000e+01,8.548356628417968750e+01,1.337247924804687500e+02,-5.138003349304199219e+00,-3.213510131835937500e+01,-1.841743927001953125e+02,3.614399719238281250e+01,2.373314476013183594e+01,3.268046951293945312e+01
7.480000257492065430e-01,2.000000000000000000e+00,-2.785911750793457031e+01,3.541818857192993164e-01,4.357460403442382812e+01,9.594996643066406250e+01,8.548019409179687500e+01,1.337190856933593750e+02,-5.187889099121093750e+00,-3.212969970703125000e+01,-1.841692047119140625e+02,3.614736938476562500e+01,2.375084304809570312e+01,3.267393493652343750e+01
7.519999742507934570e-01,2.000000000000000000e+00,-2.791217422485351562e+01,3.892281651496887207e-01,4.352967071533203125e+01,9.595565032958984375e+01,8.547682189941406250e+01,1.337133636474609375e+02,-5.237762928009033203e+00,-3.212429428100585938e+01,-1.841640319824218750e+02,3.615073776245117188e+01,2.376853561401367188e+01,3.266740417480468750e+01
7.559999823570251465e-01,2.000000000000000000e+00,-2.796522140502929688e+01,4.242667853832244873e-01,4.348474884033203125e+01,9.596133422851562500e+01,8.547344970703125000e+01,1.337076416015625000e+02,-5.287626266479492188e+00,-3.211889648437500000e+01,-1.841588592529296875e+02,3.615410232543945312e+01,2.378622627258300781e+01,3.266087722778320312e+01
7.599999904632568359e-01,2.000000000000000000e+00,-2.801825714111328125e+01,4.592976868152618408e-01,4.343983459472656250e+01,9.596701049804687500e+01,8.547007751464843750e+01,1.337019195556640625e+02,-5.337479114532470703e+00,-3.211349868774414062e+01,-1.841536712646484375e+02,3.615747070312500000e+01,2.380391311645507812e+01,3.265434646606445312e+01
7.639999985694885254e-01,2.000000000000000000e+00,-2.807127952575683594e+01,4.943208694458007812e-01,4.339492797851562500e+01,9.597268676757812500e+01,8.546670532226562500e+01,1.336961975097656250e+02,-5.387320518493652344e+00,-3.210810089111328125e+01,-1.841484832763671875e+02,3.616083908081054688e+01,2.382159423828125000e+01,3.264781951904296875e+01
7.680000066757202148e-01,2.000000000000000000e+00,-2.812429237365722656e+01,5.293363332748413086e-01,4.335003280639648438e+01,9.597837066650390625e+01,8.546334075927734375e+01,1.336904907226562500e+02,-5.437150955200195312e+00,-3.210270309448242188e+01,-1.841433105468750000e+02,3.616420745849609375e+01,2.383927345275878906e+01,3.264129257202148438e+01
7.720000147819519043e-01,2.000000000000000000e+00,-2.817729187011718750e+01,5.643441677093505859e-01,4.330514907836914062e+01,9.598404693603515625e+01,8.545996856689453125e+01,1.336847839355468750e+02,-5.486970424652099609e+00,-3.209730911254882812e+01,-1.841381378173828125e+02,3.616756820678710938e+01,2.385694694519042969e+01,3.263476562500000000e+01
7.760000228881835938e-01,2.000000000000000000e+00,-2.823027992248535156e+01,5.993443727493286133e-01,4.326027297973632812e+01,9.598972320556640625e+01,8.545659637451171875e+01,1.336790618896484375e+02,-5.536779403686523438e+00,-3.209191513061523438e+01,-1.841329498291015625e+02,3.617093276977539062e+01,2.387461853027343750e+01,3.262824249267578125e+01
7.799999713897705078e-01,2.000000000000000000e+00,-2.828325653076171875e+01,6.343368291854858398e-01,4.321540832519531250e+01,9.599539947509765625e+01,8.545323181152343750e+01,1.336733398437500000e+02,-5.586576938629150391e+00,-3.208652114868164062e+01,-1.841277923583984375e+02,3.617429733276367188e+01,2.389228630065917969e+01,3.262172317504882812e+01
7.839999794960021973e-01,2.000000000000000000e+00,-2.833622360229492188e+01,6.693215966224670410e-01,4.317055511474609375e+01,9.600106811523437500e+01,8.544985961914062500e+01,1.336676330566406250e+02,-5.636363983154296875e+00,-3.208113098144531250e+01,-1.841226196289062500e+02,3.617766189575195312e+01,2.390994834899902344e+01,3.261520385742187500e+01
7.879999876022338867e-01,2.000000000000000000e+00,-2.838917541503906250e+01,7.042986750602722168e-01,4.312571334838867188e+01,9.600674438476562500e+01,8.544649505615234375e+01,1.336619262695312500e+02,-5.686139583587646484e+00,-3.207574081420898438e+01,-1.841174316406250000e+02,3.618102264404296875e+01,2.392760848999023438e+01,3.260868453979492188e+01
7.919999957084655762e-01,2.000000000000000000e+00,-2.844211959838867188e+01,7.392681241035461426e-01,4.308087539672851562e+01,9.601241302490234375e+01,8.544313049316406250e+01,1.336562347412109375e+02,-5.735904693603515625e+00,-3.207034683227539062e+01,-1.841122741699218750e+02,3.618438720703125000e+01,2.394526290893554688e+01,3.260216903686523438e+01
7.960000038146972656e-01,2.000000000000000000e+00,-2.849504852294921875e+01,7.742298245429992676e-01,4.303604888916015625e+01,9.601808929443359375e+01,8.543976593017578125e+01,1.336505279541015625e+02,-5.785658836364746094e+00,-3.206496047973632812e+01,-1.841071014404296875e+02,3.618774795532226562e+01,2.396291351318359375e+01,3.259565353393554688e+01
8.000000119209289551e-01,2.000000000000000000e+00,-2.854796791076660156e+01,8.091838955879211426e-01,4.299123764038085938e+01,9.602375030517578125e+01,8.543640136718750000e+01,1.336448059082031250e+02,-5.835401535034179688e+00,-3.205957412719726562e+01,-1.841019287109375000e+02,3.619110488891601562e+01,2.398056030273437500e+01,3.258913803100585938e+01
8.040000200271606445e-01,2.000000000000000000e+00,-2.860087394714355469e+01,8.441303372383117676e-01,4.294643020629882812e+01,9.602941894531250000e+01,8.543303680419921875e+01,1.336391143798828125e+02,-5.885133743286132812e+00,-3.205418777465820312e+01,-1.840967559814453125e+02,3.619446563720703125e+01,2.399820518493652344e+01,3.258262634277343750e+01
8.080000281333923340e-01,2.000000000000000000e+00,-2.865377044677734375e+01,8.790690302848815918e-01,4.290163421630859375e+01,9.603508758544921875e+01,8.542967987060546875e+01,1.336334075927734375e+02,-5.934854984283447266e+00,-3.204880142211914062e+01,-1.840915985107421875e+02,3.619782257080078125e+01,2.401584434509277344e+01,3.257611465454101562e+01
8.119999766349792480e-01,2.000000000000000000e+00,-2.870665359497070312e+01,9.140001535415649414e-01,4.285684967041015625e+01,9.604075622558593750e+01,8.542630767822265625e+01,1.336277008056640625e+02,-5.984565734863281250e+00,-3.204341888427734375e+01,-1.840864257812500000e+02,3.620117950439453125e+01,2.403347969055175781e+01,3.256960296630859375e+01
8.159999847412109375e-01,2.000000000000000000e+00,-2.875952529907226562e+01,9.489235281944274902e-01,4.281206893920898438e+01,9.604642486572265625e+01,8.542295074462890625e+01,1.336220092773437500e+02,-6.034265041351318359e+00,-3.203803634643554688e+01,-1.840812683105468750e+02,3.620453643798828125e+01,2.405111122131347656e+01,3.256309890747070312e+01
8.199999928474426270e-01,2.000000000000000000e+00,-2.881238746643066406e+01,9.838393330574035645e-01,4.276730346679687500e+01,9.605208587646484375e+01,8.541958618164062500e+01,1.336163177490234375e+02,-6.083953380584716797e+00,-3.203265380859375000e+01,-1.840760955810546875e+02,3.620789337158203125e+01,2.406874084472656250e+01,3.255658721923828125e+01
8.240000009536743164e-01,2.000000000000000000e+00,-2.886523628234863281e+01,1.018747448921203613e+00,4.272254562377929688e+01,9.605774688720703125e+01,8.541622924804687500e+01,1.336106109619140625e+02,-6.133631229400634766e+00,-3.202727508544921875e+01,-1.840709381103515625e+02,3.621125030517578125e+01,2.408636283874511719e+01,3.255008316040039062e+01
8.280000090599060059e-01,2.000000000000000000e+00,-2.891807556152343750e+01,1.053647994995117188e+00,4.267780303955078125e+01,9.606340026855468750e+01,8.541287231445312500e+01,1.336049041748046875e+02,-6.183298110961914062e+00,-3.202189636230468750e+01,-1.840657653808593750e+02,3.621460342407226562e+01,2.410398292541503906e+01,3.254357910156250000e+01
8.320000171661376953e-01,2.000000000000000000e+00,-2.897089958190917969e+01,1.088540673255920410e+00,4.263306427001953125e+01,9.606906127929687500e+01,8.540951538085937500e+01,1.335992279052734375e+02,-6.232954025268554688e+00,-3.201651763916015625e+01,-1.840606231689453125e+02,3.621795654296875000e+01,2.412160110473632812e+01,3.253707885742187500e+01
8.360000252723693848e-01,2.000000000000000000e+00,-2.902371406555175781e+01,1.123425841331481934e+00,4.258833694458007812e+01,9.607472229003906250e+01,8.540615844726562500e+01,1.335935363769531250e+02,-6.282599449157714844e+00,-3.201114273071289062e+01,-1.840554656982421875e+02,3.622130966186523438e+01,2.413921356201171875e+01,3.253057479858398438e+01
8.399999737739562988e-01,2.000000000000000000e+00,-2.907651901245117188e+01,1.158303380012512207e+00,4.254362106323242188e+01,9.608037567138671875e+01,8.540280151367187500e+01,1.335878295898437500e+02,-6.332233428955078125e+00,-3.200576782226562500e+01,-1.840502929687500000e+02,3.622466278076171875e+01,2.415682220458984375e+01,3.252407836914062500e+01
8.439999818801879883e-01,2.000000000000000000e+00,-2.912930870056152344e+01,1.193173289299011230e+00,4.249891281127929688e+01,9.608602905273437500e+01,8.539944458007812500e+01,1.335821380615234375e+02,-6.381856441497802734e+00,-3.200039291381835938e+01,-1.840451507568359375e+02,3.622801589965820312e+01,2.417442703247070312e+01,3.251757812500000000e+01
8.479999899864196777e-01,2.000000000000000000e+00,-2.918208885192871094e+01,1.228035569190979004e+00,4.245421600341796875e+01,9.609168243408203125e+01,8.539608764648437500e+01,1.335764465332031250e+02,-6.431468963623046875e+00,-3.199502182006835938e+01,-1.840399932861328125e+02,3.623136901855468750e+01,2.419202804565429688e+01,3.251107788085937500e+01
8.519999980926513672e-01,2.000000000000000000e+00,-2.923485565185546875e+01,1.262890100479125977e+00,4.240952682495117188e+01,9.609734344482421875e+01,8.539273071289062500e+01,1.335707550048828125e+02,-6.481070518493652344e+00,-3.198964881896972656e+01,-1.840348358154296875e+02,3.623471832275390625e+01,2.420962524414062500e+01,3.250458526611328125e+01
8.560000061988830566e-01,2.000000000000000000e+00,-2.928761291503906250e+01,1.297737121582031250e+00,4.236484909057617188e+01,9.610298919677734375e+01,8.538938140869140625e+01,1.335650787353515625e+02,-6.530661106109619141e+00,-3.198427772521972656e+01,-1.840296783447265625e+02,3.623806762695312500e+01,2.422721862792968750e+01,3.249809265136718750e+01
8.600000143051147461e-01,2.000000000000000000e+00,-2.934035873413085938e+01,1.332576513290405273e+00,4.232017898559570312e+01,9.610863494873046875e+01,8.538602447509765625e+01,1.335593872070312500e+02,-6.580241203308105469e+00,-3.197890853881835938e+01,-1.840245361328125000e+02,3.624141311645507812e+01,2.424480819702148438e+01,3.249159622192382812e+01
8.640000224113464355e-01,2.000000000000000000e+00,-2.939309120178222656e+01,1.367408275604248047e+00,4.227552032470703125e+01,9.611428833007812500e+01,8.538267517089843750e+01,1.335537109375000000e+02,-6.629809856414794922e+00,-3.197353935241699219e+01,-1.840193786621093750e+02,3.624476623535156250e+01,2.426239204406738281e+01,3.248510742187500000e+01
8.679999709129333496e-01,2.000000000000000000e+00,-2.944581413269042969e+01,1.402232289314270020e+00,4.223087310791015625e+01,9.611993408203125000e+01,8.537931823730468750e+01,1.335480194091796875e+02,-6.679368019104003906e+00,-3.196817398071289062e+01,-1.840142364501953125e+02,3.624811172485351562e+01,2.427997589111328125e+01,3.247861480712890625e+01
8.719999790191650391e-01,2.000000000000000000e+00,-2.949852180480957031e+01,1.437048792839050293e+00,4.218623352050781250e+01,9.612558746337890625e+01,8.537596893310546875e+01,1.335423431396484375e+02,-6.728915691375732422e+00,-3.196280670166015625e+01,-1.840090789794921875e+02,3.625145721435546875e+01,2.429755210876464844e+01,3.247212600708007812e+01
8.759999871253967285e-01,2.000000000000000000e+00,-2.955122375488281250e+01,1.471857666969299316e+00,4.214160537719726562e+01,9.613123321533203125e+01,8.537261962890625000e+01,1.335366668701171875e+02,-6.778451919555664062e+00,-3.195744132995605469e+01,-1.840039367675781250e+02,3.625480651855468750e+01,2.431512641906738281e+01,3.246564102172851562e+01
8.799999952316284180e-01,2.000000000000000000e+00,-2.960390853881835938e+01,1.506658911705017090e+00,4.209698486328125000e+01,9.613687133789062500e+01,8.536927032470703125e+01,1.335309753417968750e+02,-6.827977657318115234e+00,-3.195207977294921875e+01,-1.839987792968750000e+02,3.625814819335937500e+01,2.433269691467285156e+01,3.245915603637695312e+01
8.840000033378601074e-01,2.000000000000000000e+00,-2.965658569335937500e+01,1.541452527046203613e+00,4.205237579345703125e+01,9.614251708984375000e+01,8.536592102050781250e+01,1.335252990722656250e+02,-6.877491950988769531e+00,-3.194671821594238281e+01,-1.839936523437500000e+02,3.626149368286132812e+01,2.435026359558105469e+01,3.245267105102539062e+01
8.880000114440917969e-01,2.000000000000000000e+00,-2.970924949645996094e+01,1.576238512992858887e+00,4.200777435302734375e+01,9.614815521240234375e+01,8.536257171630859375e+01,1.335196228027343750e+02,-6.926996231079101562e+00,-3.194135665893554688e+01,-1.839884948730468750e+02,3.626483917236328125e+01,2.436782646179199219e+01,3.244618988037109375e+01
8.920000195503234863e-01,2.000000000000000000e+00,-2.976190376281738281e+01,1.611016869544982910e+00,4.196318435668945312e+01,9.615380096435546875e+01,8.535922241210937500e+01,1.335139465332031250e+02,-6.976489543914794922e+00,-3.193599510192871094e+01,-1.839833526611328125e+02,3.626818084716796875e+01,2.438538360595703125e+01,3.243970870971679688e+01
8.960000276565551758e-01,2.000000000000000000e+00,-2.981454467773437500e+01,1.645787715911865234e+00,4.191860580444335938e+01,9.615943908691406250e+01,8.535588073730468750e+01,1.335082702636718750e+02,-7.025971412658691406e+00,-3.193063545227050781e+01,-1.839782104492187500e+02,3.627152252197265625e+01,2.440293884277343750e+01,3.243322372436523438e+01
8.999999761581420898e-01,2.000000000000000000e+00,-2.986717414855957031e+01,1.680550932884216309e+00,4.187403106689453125e+01,9.616507720947265625e+01,8.535253143310546875e+01,1.335025939941406250e+02,-7.075442790985107422e+00,-3.192527770996093750e+01,-1.839730682373046875e+02,3.627486419677734375e+01,2.442049217224121094e+01,3.242674636840820312e+01
9.039999842643737793e-01,2.000000000000000000e+00,-2.991979026794433594e+01,1.715306401252746582e+00,4.182947158813476562e+01,9.617070770263671875e+01,8.534918212890625000e+01,1.334969177246093750e+02,-7.124903202056884766e+00,-3.191992378234863281e+01,-1.839679412841796875e+02,3.627820587158203125e+01,2.443803787231445312e+01,3.242027282714843750e+01
9.079999923706054688e-01,2.000000000000000000e+00,-2.997239685058593750e+01,1.750054359436035156e+00,4.178492355346679688e+01,9.617634582519531250e+01,8.534584808349609375e+01,1.334912567138671875e+02,-7.174353122711181641e+00,-3.191456794738769531e+01,-1.839627838134765625e+02,3.628154373168945312e+01,2.445558166503906250e+01,3.241379165649414062e+01
9.120000004768371582e-01,2.000000000000000000e+00,-3.002499198913574219e+01,1.784794807434082031e+00,4.174037933349609375e+01,9.618198394775390625e+01,8.534249877929687500e+01,1.334855804443359375e+02,-7.223792552947998047e+00,-3.190921401977539062e+01,-1.839576568603515625e+02,3.628488540649414062e+01,2.447312164306640625e+01,3.240732192993164062e+01
9.160000085830688477e-01,2.000000000000000000e+00,-3.007757759094238281e+01,1.819527626037597656e+00,4.169585037231445312e+01,9.618761444091796875e+01,8.533915710449218750e+01,1.334799194335937500e+02,-7.273220062255859375e+00,-3.190385818481445312e+01,-1.839525146484375000e+02,3.628822326660156250e+01,2.449065589904785156e+01,3.240084838867187500e+01
9.200000166893005371e-01,2.000000000000000000e+00,-3.013014984130859375e+01,1.854252696037292480e+00,4.165132904052734375e+01,9.619325256347656250e+01,8.533580780029296875e+01,1.334742431640625000e+02,-7.322638034820556641e+00,-3.189850616455078125e+01,-1.839473724365234375e+02,3.629156112670898438e+01,2.450818824768066406e+01,3.239437484741210938e+01
9.240000247955322266e-01,2.000000000000000000e+00,-3.018270874023437500e+01,1.888970375061035156e+00,4.160681533813476562e+01,9.619887542724609375e+01,8.533247375488281250e+01,1.334685821533203125e+02,-7.372044563293457031e+00,-3.189315795898437500e+01,-1.839422607421875000e+02,3.629489898681640625e+01,2.452571487426757812e+01,3.238790893554687500e+01
9.279999732971191406e-01,2.000000000000000000e+00,-3.023526000976562500e+01,1.923680305480957031e+00,4.156231307983398438e+01,9.620450592041015625e+01,8.532913208007812500e+01,1.334629058837890625e+02,-7.421440124511718750e+00,-3.188780784606933594e+01,-1.839371185302734375e+02,3.629823303222656250e+01,2.454323959350585938e+01,3.238143539428710938e+01
9.319999814033508301e-01,2.000000000000000000e+00,-3.028779792785644531e+01,1.958382844924926758e+00,4.151781845092773438e+01,9.621013641357421875e+01,8.532579040527343750e+01,1.334572601318359375e+02,-7.470825195312500000e+00,-3.188245964050292969e+01,-1.839319763183593750e+02,3.630157089233398438e+01,2.456076049804687500e+01,3.237496948242187500e+01
9.359999895095825195e-01,2.000000000000000000e+00,-3.034032249450683594e+01,1.993077874183654785e+00,4.147333526611328125e+01,9.621575927734375000e+01,8.532244873046875000e+01,1.334515838623046875e+02,-7.520199775695800781e+00,-3.187711143493652344e+01,-1.839268646240234375e+02,3.630490493774414062e+01,2.457827758789062500e+01,3.236850357055664062e+01
9.399999976158142090e-01,2.000000000000000000e+00,-3.039283943176269531e+01,2.027765035629272461e+00,4.142885971069335938e+01,9.622138977050781250e+01,8.531911468505859375e+01,1.334459228515625000e+02,-7.569563388824462891e+00,-3.187176704406738281e+01,-1.839217224121093750e+02,3.630824279785156250e+01,2.459578895568847656e+01,3.236203765869140625e+01
9.440000057220458984e-01,2.000000000000000000e+00,-3.044534301757812500e+01,2.062444686889648438e+00,4.138439941406250000e+01,9.622701263427734375e+01,8.531578063964843750e+01,1.334402618408203125e+02,-7.618915557861328125e+00,-3.186642265319824219e+01,-1.839165954589843750e+02,3.631157302856445312e+01,2.461329841613769531e+01,3.235557556152343750e+01
9.480000138282775879e-01,2.000000000000000000e+00,-3.049783325195312500e+01,2.097116708755493164e+00,4.133994674682617188e+01,9.623263549804687500e+01,8.531243896484375000e+01,1.334346008300781250e+02,-7.668257713317871094e+00,-3.186107826232910156e+01,-1.839114685058593750e+02,3.631490707397460938e+01,2.463080215454101562e+01,3.234911346435546875e+01
9.520000219345092773e-01,2.000000000000000000e+00,-3.055031204223632812e+01,2.131781578063964844e+00,4.129550170898437500e+01,9.623825073242187500e+01,8.530909729003906250e+01,1.334289550781250000e+02,-7.717588901519775391e+00,-3.185573577880859375e+01,-1.839063415527343750e+02,3.631824111938476562e+01,2.464830589294433594e+01,3.234265518188476562e+01
9.559999704360961914e-01,2.000000000000000000e+00,-3.060278320312500000e+01,2.166438579559326172e+00,4.125106430053710938e+01,9.624387359619140625e+01,8.530576324462890625e+01,1.334232940673828125e+02,-7.766908645629882812e+00,-3.185039520263671875e+01,-1.839012145996093750e+02,3.632157135009765625e+01,2.466580200195312500e+01,3.233619689941406250e+01
9.599999785423278809e-01,2.000000000000000000e+00,-3.065524101257324219e+01,2.201087713241577148e+00,4.120664215087890625e+01,9.624949645996093750e+01,8.530242919921875000e+01,1.334176330566406250e+02,-7.816218376159667969e+00,-3.184505462646484375e+01,-1.838961029052734375e+02,3.632490158081054688e+01,2.468329620361328125e+01,3.232973861694335938e+01
9.639999866485595703e-01,2.000000000000000000e+00,-3.070768737792968750e+01,2.235729694366455078e+00,4.116222381591796875e+01,9.625511932373046875e+01,8.529909515380859375e+01,1.334119873046875000e+02,-7.865517139434814453e+00,-3.183971595764160156e+01,-1.838909759521484375e+02,3.632822799682617188e+01,2.470078468322753906e+01,3.232328414916992188e+01
9.679999947547912598e-01,2.000000000000000000e+00,-3.076011848449707031e+01,2.270364046096801758e+00,4.111782073974609375e+01,9.626073455810546875e+01,8.529576873779296875e+01,1.334063262939453125e+02,-7.914805412292480469e+00,-3.183437919616699219e+01,-1.838858489990234375e+02,3.633155822753906250e+01,2.471827125549316406e+01,3.231682968139648438e+01
9.720000028610229492e-01,2.000000000000000000e+00,-3.081254386901855469e+01,2.304990768432617188e+00,4.107342529296875000e+01,9.626634979248046875e+01,8.529243469238281250e+01,1.334006805419921875e+02,-7.964082717895507812e+00,-3.182904052734375000e+01,-1.838807220458984375e+02,3.633488845825195312e+01,2.473575401306152344e+01,3.231037521362304688e+01
9.760000109672546387e-01,2.000000000000000000e+00,-3.086495590209960938e+01,2.339610099792480469e+00,4.102903747558593750e+01,9.627196502685546875e+01,8.528910064697265625e+01,1.333950347900390625e+02,-8.013348579406738281e+00,-3.182370567321777344e+01,-1.838756103515625000e+02,3.633821487426757812e+01,2.475323295593261719e+01,3.230392456054687500e+01
9.800000190734863281e-01,2.000000000000000000e+00,-3.091735649108886719e+01,2.374221563339233398e+00,4.098466491699218750e+01,9.627757263183593750e+01,8.528576660156250000e+01,1.333893737792968750e+02,-8.062604904174804688e+00,-3.181837081909179688e+01,-1.838704986572265625e+02,3.634154129028320312e+01,2.477070617675781250e+01,3.229747009277343750e+01
9.840000271797180176e-01,2.000000000000000000e+00,-3.096974372863769531e+01,2.408825635910034180e+00,4.094029617309570312e+01,9.628318786621093750e+01,8.528243255615234375e+01,1.333837280273437500e+02,-8.111849784851074219e+00,-3.181303787231445312e+01,-1.838653717041015625e+02,3.634486770629882812e+01,2.478817749023437500e+01,3.229102325439453125e+01
9.879999756813049316e-01,2.000000000000000000e+00,-3.102212142944335938e+01,2.443422317504882812e+00,4.089593887329101562e+01,9.628879547119140625e+01,8.527910614013671875e+01,1.333780975341796875e+02,-8.161084175109863281e+00,-3.180770683288574219e+01,-1.838602600097656250e+02,3.634819412231445312e+01,2.480564308166503906e+01,3.228457641601562500e+01
9.919999837875366211e-01,2.000000000000000000e+00,-3.107448959350585938e+01,2.478011131286621094e+00,4.085158920288085938e+01,9.629441070556640625e+01,8.527577209472656250e+01,1.333724365234375000e+02,-8.210307121276855469e+00,-3.180237579345703125e+01,-1.838551483154296875e+02,3.635152053833007812e+01,2.482310676574707031e+01,3.227812957763671875e+01
9.959999918937683105e-01,2.000000000000000000e+00,-3.112684249877929688e+01,2.512592792510986328e+00,4.080725097656250000e+01,9.630001831054687500e+01,8.527244567871093750e+01,1.333667907714843750e+02,-8.259520530700683594e+00,-3.179704475402832031e+01,-1.838500366210937500e+02,3.635484313964843750e+01,2.484056663513183594e+01,3.227168273925781250e+01
1.000000000000000000e+00,2.000000000000000000e+00,-3.117918586730957031e+01,2.547166585922241211e+00,4.076292419433593750e+01,9.630562591552734375e+01,8.526911926269531250e+01,1.333611450195312500e+02,-8.308722496032714844e+00,-3.179171752929687500e+01,-1.838449096679687500e+02,3.635816574096679688e+01,2.485802078247070312e+01,3.226523971557617188e+01
1.003999948501586914e+00,2.000000000000000000e+00,-3.123151779174804688e+01,2.581732988357543945e+00,4.071860504150390625e+01,9.631122589111328125e+01,8.526579284667968750e+01,1.333555145263671875e+02,-8.357913970947265625e+00,-3.178639030456542969e+01,-1.838397979736328125e+02,3.636148834228515625e+01,2.487547492980957031e+01,3.225880050659179688e+01
1.008000016212463379e+00,2.000000000000000000e+00,-3.128383827209472656e+01,2.616291761398315430e+00,4.067430114746093750e+01,9.631683349609375000e+01,8.526246643066406250e+01,1.333498687744140625e+02,-8.407094955444335938e+00,-3.178106117248535156e+01,-1.838347015380859375e+02,3.636481094360351562e+01,2.489292144775390625e+01,3.225235748291015625e+01
1.011999964714050293e+00,2.000000000000000000e+00,-3.133614730834960938e+01,2.650843143463134766e+00,4.062999725341796875e+01,9.632243347167968750e+01,8.525914001464843750e+01,1.333442230224609375e+02,-8.456264495849609375e+00,-3.177573776245117188e+01,-1.838295898437500000e+02,3.636813354492187500e+01,2.491036605834960938e+01,3.224592208862304688e+01
1.016000032424926758e+00,2.000000000000000000e+00,-3.138844490051269531e+01,2.685386896133422852e+00,4.058570861816406250e+01,9.632804107666015625e+01,8.525581359863281250e+01,1.333385925292968750e+02,-8.505423545837402344e+00,-3.177041435241699219e+01,-1.838244781494140625e+02,3.637145614624023438e+01,2.492780494689941406e+01,3.223948287963867188e+01
1.019999980926513672e+00,2.000000000000000000e+00,-3.144073104858398438e+01,2.719923257827758789e+00,4.054142761230468750e+01,9.633364868164062500e+01,8.525248718261718750e+01,1.333329620361328125e+02,-8.554572105407714844e+00,-3.176509284973144531e+01,-1.838193664550781250e+02,3.637477493286132812e+01,2.494524192810058594e+01,3.223304748535156250e+01
1.024000048637390137e+00,2.000000000000000000e+00,-3.149300575256347656e+01,2.754451990127563477e+00,4.049715805053710938e+01,9.633924865722656250e+01,8.524916839599609375e+01,1.333273162841796875e+02,-8.603710174560546875e+00,-3.175976943969726562e+01,-1.838142547607421875e+02,3.637809371948242188e+01,2.496267509460449219e+01,3.222661209106445312e+01
1.026999950408935547e+00,2.000000000000000000e+00,-3.154527091979980469e+01,2.788973093032836914e+00,4.045289993286132812e+01,9.634484100341796875e+01,8.524584197998046875e+01,1.333216857910156250e+02,-8.652836799621582031e+00,-3.175444793701171875e+01,-1.838091583251953125e+02,3.638140869140625000e+01,2.498010444641113281e+01,3.222017669677734375e+01
1.031999945640563965e+00,2.000000000000000000e+00,-3.159752082824707031e+01,2.823486804962158203e+00,4.040864944458007812e+01,9.635044097900390625e+01,8.524252319335937500e+01,1.333160552978515625e+02,-8.701952934265136719e+00,-3.174913024902343750e+01,-1.838040466308593750e+02,3.638472747802734375e+01,2.499752807617187500e+01,3.221374511718750000e+01
1.036000013351440430e+00,2.000000000000000000e+00,-3.164976119995117188e+01,2.857993125915527344e+00,4.036440658569335938e+01,9.635603332519531250e+01,8.523920440673828125e+01,1.333104248046875000e+02,-8.751058578491210938e+00,-3.174381256103515625e+01,-1.837989501953125000e+02,3.638804626464843750e+01,2.501494979858398438e+01,3.220731353759765625e+01
1.039999961853027344e+00,2.000000000000000000e+00,-3.170199203491210938e+01,2.892491579055786133e+00,4.032017517089843750e+01,9.636162567138671875e+01,8.523588562011718750e+01,1.333047943115234375e+02,-8.800153732299804688e+00,-3.173849678039550781e+01,-1.837938537597656250e+02,3.639136123657226562e+01,2.503236770629882812e+01,3.220088577270507812e+01
1.044000029563903809e+00,2.000000000000000000e+00,-3.175420951843261719e+01,2.926982879638671875e+00,4.027595138549804688e+01,9.636722564697265625e+01,8.523256683349609375e+01,1.332991638183593750e+02,-8.849238395690917969e+00,-3.173317909240722656e+01,-1.837887573242187500e+02,3.639467620849609375e+01,2.504977989196777344e+01,3.219445800781250000e+01
1.047999978065490723e+00,2.000000000000000000e+00,-3.180641555786132812e+01,2.961466550827026367e+00,4.023173904418945312e+01,9.637281799316406250e+01,8.522924804687500000e+01,1.332935333251953125e+02,-8.898311614990234375e+00,-3.172786521911621094e+01,-1.837836456298828125e+02,3.639799499511718750e+01,2.506719017028808594e+01,3.218803024291992188e+01
1.052000045776367188e+00,2.000000000000000000e+00,-3.185860824584960938e+01,2.995942592620849609e+00,4.018753814697265625e+01,9.637841033935546875e+01,8.522592926025390625e+01,1.332879028320312500e+02,-8.947374343872070312e+00,-3.172255134582519531e+01,-1.837785491943359375e+02,3.640130615234375000e+01,2.508459663391113281e+01,3.218160629272460938e+01
1.054999947547912598e+00,2.000000000000000000e+00,-3.191079521179199219e+01,3.030411243438720703e+00,4.014334487915039062e+01,9.638399505615234375e+01,8.522261047363281250e+01,1.332822723388671875e+02,-8.996427536010742188e+00,-3.171724128723144531e+01,-1.837734527587890625e+02,3.640461730957031250e+01,2.510199928283691406e+01,3.217518234252929688e+01
1.059999942779541016e+00,2.000000000000000000e+00,-3.196296691894531250e+01,3.064872503280639648e+00,4.009916305541992188e+01,9.638958740234375000e+01,8.521928405761718750e+01,1.332766571044921875e+02,-9.045469284057617188e+00,-3.171192741394042969e+01,-1.837683563232421875e+02,3.640793228149414062e+01,2.511939811706542969e+01,3.216876220703125000e+01
1.064000010490417480e+00,2.000000000000000000e+00,-3.201512908935546875e+01,3.099325895309448242e+00,4.005498886108398438e+01,9.639517974853515625e+01,8.521597290039062500e+01,1.332710418701171875e+02,-9.094499588012695312e+00,-3.170661544799804688e+01,-1.837632598876953125e+02,3.641124343872070312e+01,2.513679122924804688e+01,3.216233825683593750e+01
1.067999958992004395e+00,2.000000000000000000e+00,-3.206727600097656250e+01,3.133772134780883789e+00,4.001082611083984375e+01,9.640076446533203125e+01,8.521266174316406250e+01,1.332654113769531250e+02,-9.143519401550292969e+00,-3.170130920410156250e+01,-1.837581634521484375e+02,3.641455459594726562e+01,2.515418434143066406e+01,3.215591812133789062e+01
1.072000026702880859e+00,2.000000000000000000e+00,-3.211941528320312500e+01,3.168210744857788086e+00,3.996666717529296875e+01,9.640634918212890625e+01,8.520934295654296875e+01,1.332597961425781250e+02,-9.192529678344726562e+00,-3.169600296020507812e+01,-1.837530670166015625e+02,3.641786575317382812e+01,2.517156982421875000e+01,3.214950180053710938e+01
1.075999975204467773e+00,2.000000000000000000e+00,-3.217154312133789062e+01,3.202641963958740234e+00,3.992252349853515625e+01,9.641193389892578125e+01,8.520603179931640625e+01,1.332541809082031250e+02,-9.241528511047363281e+00,-3.169069480895996094e+01,-1.837479858398437500e+02,3.642117309570312500e+01,2.518895339965820312e+01,3.214308547973632812e+01
1.080000042915344238e+00,2.000000000000000000e+00,-3.222365951538085938e+01,3.237065792083740234e+00,3.987838745117187500e+01,9.641751098632812500e+01,8.520272064208984375e+01,1.332485504150390625e+02,-9.290516853332519531e+00,-3.168538856506347656e+01,-1.837428894042968750e+02,3.642448425292968750e+01,2.520633316040039062e+01,3.213666915893554688e+01
1.083999991416931152e+00,2.000000000000000000e+00,-3.227576065063476562e+01,3.271481990814208984e+00,3.983426284790039062e+01,9.642309570312500000e+01,8.519940185546875000e+01,1.332429351806640625e+02,-9.339493751525878906e+00,-3.168008422851562500e+01,-1.837378082275390625e+02,3.642779159545898438e+01,2.522370910644531250e+01,3.213025665283203125e+01
1.088000059127807617e+00,2.000000000000000000e+00,-3.232785415649414062e+01,3.305890560150146484e+00,3.979014587402343750e+01,9.642867279052734375e+01,8.519609069824218750e+01,1.332373199462890625e+02,-9.388461112976074219e+00,-3.167477989196777344e+01,-1.837327117919921875e+02,3.643109893798828125e+01,2.524108123779296875e+01,3.212384033203125000e+01
1.090999960899353027e+00,2.000000000000000000e+00,-3.237993621826171875e+01,3.340291976928710938e+00,3.974604034423828125e+01,9.643424987792968750e+01,8.519277954101562500e+01,1.332317047119140625e+02,-9.437417984008789062e+00,-3.166948127746582031e+01,-1.837276306152343750e+02,3.643440628051757812e+01,2.525844955444335938e+01,3.211743164062500000e+01
1.095999956130981445e+00,2.000000000000000000e+00,-3.243200683593750000e+01,3.374685764312744141e+00,3.970194244384765625e+01,9.643983459472656250e+01,8.518947601318359375e+01,1.332260894775390625e+02,-9.486363410949707031e+00,-3.166418075561523438e+01,-1.837225494384765625e+02,3.643771362304687500e+01,2.527581405639648438e+01,3.211102294921875000e+01
1.100000023841857910e+00,2.000000000000000000e+00,-3.248406600952148438e+01,3.409071922302246094e+00,3.965785598754882812e+01,9.644540405273437500e+01,8.518616485595703125e+01,1.332204742431640625e+02,-9.535298347473144531e+00,-3.165888023376464844e+01,-1.837174530029296875e+02,3.644101715087890625e+01,2.529317474365234375e+01,3.210461425781250000e+01
1.103999972343444824e+00,2.000000000000000000e+00,-3.253611373901367188e+01,3.443450689315795898e+00,3.961377716064453125e+01,9.645098876953125000e+01,8.518285369873046875e+01,1.332148590087890625e+02,-9.584221839904785156e+00,-3.165358352661132812e+01,-1.837123718261718750e+02,3.644432067871093750e+01,2.531053161621093750e+01,3.209820556640625000e+01
1.108000040054321289e+00,2.000000000000000000e+00,-3.258815002441406250e+01,3.477822065353393555e+00,3.956970977783203125e+01,9.645655822753906250e+01,8.517954254150390625e+01,1.332092590332031250e+02,-9.633136749267578125e+00,-3.164828300476074219e+01,-1.837072906494140625e+02,3.644762420654296875e+01,2.532788467407226562e+01,3.209180068969726562e+01
1.111999988555908203e+00,2.000000000000000000e+00,-3.264017486572265625e+01,3.512186050415039062e+00,3.952565002441406250e+01,9.646213531494140625e+01,8.517623901367187500e+01,1.332036437988281250e+02,-9.682040214538574219e+00,-3.164299011230468750e+01,-1.837022094726562500e+02,3.645093154907226562e+01,2.534523391723632812e+01,3.208539962768554688e+01
1.116000056266784668e+00,2.000000000000000000e+00,-3.269218826293945312e+01,3.546542406082153320e+00,3.948160171508789062e+01,9.646770477294921875e+01,8.517292785644531250e+01,1.331980438232421875e+02,-9.730932235717773438e+00,-3.163769340515136719e+01,-1.836971282958984375e+02,3.645423126220703125e+01,2.536257934570312500e+01,3.207899475097656250e+01
1.118999958038330078e+00,2.000000000000000000e+00,-3.274419403076171875e+01,3.580891370773315430e+00,3.943756103515625000e+01,9.647327423095703125e+01,8.516962432861328125e+01,1.331924285888671875e+02,-9.779813766479492188e+00,-3.163239860534667969e+01,-1.836920471191406250e+02,3.645753479003906250e+01,2.537992095947265625e+01,3.207258987426757812e+01
