rpiRobotics/ARM-21-02-F-19-Robot-Motion-Program/data_performance_abb/curve_2/curve_pose_opt2/greedy0.02/grad_result/real/run_0.csv
timestamp,cmd_num,J1,J2,J3,J4,J5,J6
1.409999968018382788e-04,-1.000000000000000000e+00,9.077181816101074219e+00,-1.069528484344482422e+01,3.765022277832031250e+00,-2.087412719726562500e+02,-1.019522323608398438e+02,-1.810415344238281250e+02,4.033146500587463379e-01,-6.667523193359375000e+01,-1.826892089843750000e+02,-2.343106746673583984e+00,7.562364959716796875e+01,3.135619926452636719e+01
6.318999920040369034e-03,1.000000000000000000e+00,9.077181816101074219e+00,-1.069521713256835938e+01,3.765022277832031250e+00,-2.087411804199218750e+02,-1.019522323608398438e+02,-1.810415344238281250e+02,4.033146500587463379e-01,-6.667523193359375000e+01,-1.826890411376953125e+02,-2.343106746673583984e+00,7.562372589111328125e+01,3.135619926452636719e+01
9.965999983251094818e-03,1.000000000000000000e+00,9.077181816101074219e+00,-1.069521713256835938e+01,3.765022277832031250e+00,-2.087411804199218750e+02,-1.019522323608398438e+02,-1.810415344238281250e+02,4.033146500587463379e-01,-6.667523193359375000e+01,-1.826890411376953125e+02,-2.343106746673583984e+00,7.562372589111328125e+01,3.135619926452636719e+01
1.412199996411800385e-02,1.000000000000000000e+00,9.077209472656250000e+00,-1.069524002075195312e+01,3.765022277832031250e+00,-2.087411804199218750e+02,-1.019523925781250000e+02,-1.810413970947265625e+02,4.033146500587463379e-01,-6.667523193359375000e+01,-1.826889343261718750e+02,-2.343034982681274414e+00,7.562364959716796875e+01,3.135619926452636719e+01
3.827400133013725281e-02,1.000000000000000000e+00,9.077095031738281250e+00,-1.069528484344482422e+01,3.764981746673583984e+00,-2.087411804199218750e+02,-1.019522323608398438e+02,-1.810415344238281250e+02,4.033146500587463379e-01,-6.667523193359375000e+01,-1.826890411376953125e+02,-2.343034982681274414e+00,7.562364959716796875e+01,3.135619926452636719e+01
3.966199979186058044e-02,1.000000000000000000e+00,9.077095031738281250e+00,-1.069528484344482422e+01,3.764981746673583984e+00,-2.087411804199218750e+02,-1.019522323608398438e+02,-1.810415344238281250e+02,4.033146500587463379e-01,-6.667523193359375000e+01,-1.826890411376953125e+02,-2.343034982681274414e+00,7.562364959716796875e+01,3.135619926452636719e+01
4.214299842715263367e-02,1.000000000000000000e+00,9.077095031738281250e+00,-1.069528484344482422e+01,3.764981746673583984e+00,-2.087411804199218750e+02,-1.019522323608398438e+02,-1.810415344238281250e+02,4.033146500587463379e-01,-6.667523193359375000e+01,-1.826892089843750000e+02,-2.342891216278076172e+00,7.562364959716796875e+01,3.135619926452636719e+01
4.995099827647209167e-02,1.000000000000000000e+00,9.077066421508789062e+00,-1.069528484344482422e+01,3.765022277832031250e+00,-2.087412719726562500e+02,-1.019523925781250000e+02,-1.810416717529296875e+02,4.033146500587463379e-01,-6.667531585693359375e+01,-1.826890411376953125e+02,-2.343106746673583984e+00,7.562364959716796875e+01,3.135598182678222656e+01
5.138599872589111328e-02,1.000000000000000000e+00,9.077066421508789062e+00,-1.069524002075195312e+01,3.765022277832031250e+00,-2.087411804199218750e+02,-1.019522323608398438e+02,-1.810415344238281250e+02,4.033146500587463379e-01,-6.667523193359375000e+01,-1.826889343261718750e+02,-2.343034982681274414e+00,7.562364959716796875e+01,3.135619926452636719e+01
5.264100059866905212e-02,1.000000000000000000e+00,9.077066421508789062e+00,-1.069524002075195312e+01,3.765022277832031250e+00,-2.087411804199218750e+02,-1.019522323608398438e+02,-1.810415344238281250e+02,4.033146500587463379e-01,-6.667523193359375000e+01,-1.826889343261718750e+02,-2.343034982681274414e+00,7.562364959716796875e+01,3.135619926452636719e+01
5.591300129890441895e-02,1.000000000000000000e+00,9.077066421508789062e+00,-1.069517230987548828e+01,3.765022277832031250e+00,-2.087413940429687500e+02,-1.019522323608398438e+02,-1.810415344238281250e+02,4.033146500587463379e-01,-6.667523193359375000e+01,-1.826890411376953125e+02,-2.343034982681274414e+00,7.562364959716796875e+01,3.135619926452636719e+01
5.849900096654891968e-02,1.000000000000000000e+00,9.076579093933105469e+00,-1.069492244720458984e+01,3.764981746673583984e+00,-2.087412719726562500e+02,-1.019523925781250000e+02,-1.810413970947265625e+02,4.033146500587463379e-01,-6.667523193359375000e+01,-1.826890411376953125e+02,-2.343034982681274414e+00,7.562364959716796875e+01,3.135619926452636719e+01
6.057199835777282715e-02,1.000000000000000000e+00,9.076579093933105469e+00,-1.069492244720458984e+01,3.764981746673583984e+00,-2.087412719726562500e+02,-1.019523925781250000e+02,-1.810413970947265625e+02,4.033146500587463379e-01,-6.667523193359375000e+01,-1.826890411376953125e+02,-2.343034982681274414e+00,7.562364959716796875e+01,3.135619926452636719e+01
6.325200200080871582e-02,1.000000000000000000e+00,9.075401306152343750e+00,-1.069415378570556641e+01,3.765022277832031250e+00,-2.087412719726562500e+02,-1.019522323608398438e+02,-1.810415344238281250e+02,4.033146500587463379e-01,-6.667523193359375000e+01,-1.826890411376953125e+02,-2.343106746673583984e+00,7.562364959716796875e+01,3.135642242431640625e+01
6.450899690389633179e-02,1.000000000000000000e+00,9.075401306152343750e+00,-1.069415378570556641e+01,3.765022277832031250e+00,-2.087412719726562500e+02,-1.019522323608398438e+02,-1.810415344238281250e+02,4.033146500587463379e-01,-6.667523193359375000e+01,-1.826890411376953125e+02,-2.343106746673583984e+00,7.562364959716796875e+01,3.135642242431640625e+01
6.986600160598754883e-02,1.000000000000000000e+00,9.073851585388183594e+00,-1.069286346435546875e+01,3.765042304992675781e+00,-2.087411804199218750e+02,-1.019521255493164062e+02,-1.810415344238281250e+02,4.033146500587463379e-01,-6.667523193359375000e+01,-1.826889343261718750e+02,-2.343034982681274414e+00,7.562364959716796875e+01,3.135619926452636719e+01
7.127899676561355591e-02,1.000000000000000000e+00,9.071439743041992188e+00,-1.069078159332275391e+01,3.765042304992675781e+00,-2.087411804199218750e+02,-1.019521255493164062e+02,-1.810415344238281250e+02,4.033146500587463379e-01,-6.667523193359375000e+01,-1.826889343261718750e+02,-2.343034982681274414e+00,7.562364959716796875e+01,3.135642242431640625e+01
7.264400273561477661e-02,1.000000000000000000e+00,9.071439743041992188e+00,-1.069078159332275391e+01,3.765042304992675781e+00,-2.087411804199218750e+02,-1.019521255493164062e+02,-1.810415344238281250e+02,4.033146500587463379e-01,-6.667523193359375000e+01,-1.826889343261718750e+02,-2.343034982681274414e+00,7.562364959716796875e+01,3.135642242431640625e+01
7.597800344228744507e-02,1.000000000000000000e+00,9.068023681640625000e+00,-1.068763637542724609e+01,3.765164375305175781e+00,-2.087411804199218750e+02,-1.019513244628906250e+02,-1.810413208007812500e+02,4.033146500587463379e-01,-6.667523193359375000e+01,-1.826890411376953125e+02,-2.342891216278076172e+00,7.562372589111328125e+01,3.135619926452636719e+01
7.854499667882919312e-02,1.000000000000000000e+00,9.063373565673828125e+00,-1.068338203430175781e+01,3.765265941619873047e+00,-2.087410736083984375e+02,-1.019503173828125000e+02,-1.810410614013671875e+02,4.033146500587463379e-01,-6.667513275146484375e+01,-1.826890411376953125e+02,-2.342891216278076172e+00,7.562364959716796875e+01,3.135619926452636719e+01
8.217900246381759644e-02,1.000000000000000000e+00,9.063373565673828125e+00,-1.068338203430175781e+01,3.765265941619873047e+00,-2.087410736083984375e+02,-1.019503173828125000e+02,-1.810410614013671875e+02,4.033146500587463379e-01,-6.667513275146484375e+01,-1.826890411376953125e+02,-2.342891216278076172e+00,7.562364959716796875e+01,3.135619926452636719e+01
8.355599641799926758e-02,1.000000000000000000e+00,9.057631492614746094e+00,-1.067781543731689453e+01,3.765510320663452148e+00,-2.087402801513671875e+02,-1.019480743408203125e+02,-1.810403747558593750e+02,4.033146500587463379e-01,-6.667523193359375000e+01,-1.826890411376953125e+02,-2.343034982681274414e+00,7.562364959716796875e+01,3.135619926452636719e+01
8.716899901628494263e-02,1.000000000000000000e+00,9.050455093383789062e+00,-1.067045974731445312e+01,3.765896558761596680e+00,-2.087379150390625000e+02,-1.019450912475585938e+02,-1.810388183593750000e+02,4.033146500587463379e-01,-6.667523193359375000e+01,-1.826890411376953125e+02,-2.343034982681274414e+00,7.562364959716796875e+01,3.135619926452636719e+01
8.842899650335311890e-02,1.000000000000000000e+00,9.050455093383789062e+00,-1.067045974731445312e+01,3.765896558761596680e+00,-2.087379150390625000e+02,-1.019450912475585938e+02,-1.810388183593750000e+02,4.033146500587463379e-01,-6.667523193359375000e+01,-1.826890411376953125e+02,-2.343034982681274414e+00,7.562364959716796875e+01,3.135619926452636719e+01
9.179600328207015991e-02,1.000000000000000000e+00,9.041441917419433594e+00,-1.066091060638427734e+01,3.766587734222412109e+00,-2.087342376708984375e+02,-1.019405517578125000e+02,-1.810356292724609375e+02,4.033146500587463379e-01,-6.667523193359375000e+01,-1.826889343261718750e+02,-2.343034982681274414e+00,7.562364959716796875e+01,3.135619926452636719e+01
9.688200056552886963e-02,1.000000000000000000e+00,9.041441917419433594e+00,-1.066091060638427734e+01,3.766587734222412109e+00,-2.087342376708984375e+02,-1.019405517578125000e+02,-1.810356292724609375e+02,4.033146500587463379e-01,-6.667523193359375000e+01,-1.826889343261718750e+02,-2.343034982681274414e+00,7.562364959716796875e+01,3.135619926452636719e+01
1.002779975533485413e-01,1.000000000000000000e+00,9.016351699829101562e+00,-1.063461399078369141e+01,3.768356800079345703e+00,-2.087230072021484375e+02,-1.019257354736328125e+02,-1.810226135253906250e+02,4.033146500587463379e-01,-6.667513275146484375e+01,-1.826890411376953125e+02,-2.342891216278076172e+00,7.562364959716796875e+01,3.135619926452636719e+01
1.038469970226287842e-01,1.000000000000000000e+00,8.999931335449218750e+00,-1.061766433715820312e+01,3.769799947738647461e+00,-2.087139434814453125e+02,-1.019140014648437500e+02,-1.810127105712890625e+02,4.033146500587463379e-01,-6.667523193359375000e+01,-1.826889343261718750e+02,-2.343034982681274414e+00,7.562364959716796875e+01,3.135619926452636719e+01
1.089529991149902344e-01,1.000000000000000000e+00,8.999931335449218750e+00,-1.061766433715820312e+01,3.769799947738647461e+00,-2.087139434814453125e+02,-1.019140014648437500e+02,-1.810127105712890625e+02,4.033146500587463379e-01,-6.667523193359375000e+01,-1.826889343261718750e+02,-2.343034982681274414e+00,7.562364959716796875e+01,3.135619926452636719e+01
1.116700023412704468e-01,1.000000000000000000e+00,8.959081649780273438e+00,-1.057679462432861328e+01,3.773907184600830078e+00,-2.086882019042968750e+02,-1.018808898925781250e+02,-1.809839477539062500e+02,4.033146500587463379e-01,-6.667523193359375000e+01,-1.826890411376953125e+02,-2.343106746673583984e+00,7.562364959716796875e+01,3.135619926452636719e+01
1.159299984574317932e-01,1.000000000000000000e+00,8.959081649780273438e+00,-1.057679462432861328e+01,3.773907184600830078e+00,-2.086882019042968750e+02,-1.018808898925781250e+02,-1.809839477539062500e+02,4.033146500587463379e-01,-6.667523193359375000e+01,-1.826890411376953125e+02,-2.343106746673583984e+00,7.562364959716796875e+01,3.135619926452636719e+01
1.200409978628158569e-01,1.000000000000000000e+00,8.934823989868164062e+00,-1.055439090728759766e+01,3.776286125183105469e+00,-2.086707458496093750e+02,-1.018587112426757812e+02,-1.809642944335937500e+02,4.033146500587463379e-01,-6.667523193359375000e+01,-1.826889343261718750e+02,-2.343034982681274414e+00,7.562364959716796875e+01,3.135619926452636719e+01
1.238749995827674866e-01,1.000000000000000000e+00,8.908269882202148438e+00,-1.053087902069091797e+01,3.779031038284301758e+00,-2.086498413085937500e+02,-1.018313598632812500e+02,-1.809407501220703125e+02,4.033146500587463379e-01,-6.667523193359375000e+01,-1.826890411376953125e+02,-2.343034982681274414e+00,7.562364959716796875e+01,3.135619926452636719e+01
1.279149949550628662e-01,1.000000000000000000e+00,8.879220008850097656e+00,-1.050594043731689453e+01,3.782182216644287109e+00,-2.086264495849609375e+02,-1.017985763549804688e+02,-1.809133605957031250e+02,4.033146500587463379e-01,-6.667523193359375000e+01,-1.826890411376953125e+02,-2.343106746673583984e+00,7.562364959716796875e+01,3.135598182678222656e+01
1.325930058956146240e-01,1.000000000000000000e+00,8.847383499145507812e+00,-1.047885227203369141e+01,3.785699844360351562e+00,-2.085995941162109375e+02,-1.017616271972656250e+02,-1.808810119628906250e+02,4.033146500587463379e-01,-6.667523193359375000e+01,-1.826890411376953125e+02,-2.343106746673583984e+00,7.562364959716796875e+01,3.135619926452636719e+01
1.359180063009262085e-01,1.000000000000000000e+00,8.775816917419433594e+00,-1.041906452178955078e+01,3.793893575668334961e+00,-2.085336914062500000e+02,-1.016765365600585938e+02,-1.808021392822265625e+02,4.033146500587463379e-01,-6.667523193359375000e+01,-1.826890411376953125e+02,-2.343106746673583984e+00,7.562364959716796875e+01,3.135619926452636719e+01
1.398860067129135132e-01,1.000000000000000000e+00,8.775816917419433594e+00,-1.041906452178955078e+01,3.793893575668334961e+00,-2.085336914062500000e+02,-1.016765365600585938e+02,-1.808021392822265625e+02,4.033146500587463379e-01,-6.667523193359375000e+01,-1.826890411376953125e+02,-2.343106746673583984e+00,7.562364959716796875e+01,3.135619926452636719e+01
1.438869982957839966e-01,1.000000000000000000e+00,8.736144065856933594e+00,-1.038674926757812500e+01,3.798386812210083008e+00,-2.084944000244140625e+02,-1.016244964599609375e+02,-1.807584075927734375e+02,4.033146500587463379e-01,-6.667523193359375000e+01,-1.826890411376953125e+02,-2.343034982681274414e+00,7.562364959716796875e+01,3.135619926452636719e+01
1.479910016059875488e-01,1.000000000000000000e+00,8.694003105163574219e+00,-1.035296154022216797e+01,3.803246259689331055e+00,-2.084535217285156250e+02,-1.015692138671875000e+02,-1.807113952636718750e+02,4.033146500587463379e-01,-6.667523193359375000e+01,-1.826890411376953125e+02,-2.343034982681274414e+00,7.562364959716796875e+01,3.135619926452636719e+01
1.519079953432083130e-01,1.000000000000000000e+00,8.649650573730468750e+00,-1.031747817993164062e+01,3.808410167694091797e+00,-2.084109191894531250e+02,-1.015120010375976562e+02,-1.806593170166015625e+02,4.033146500587463379e-01,-6.667523193359375000e+01,-1.826890411376953125e+02,-2.343034982681274414e+00,7.562364959716796875e+01,3.135619926452636719e+01
1.573189944028854370e-01,1.000000000000000000e+00,8.603519439697265625e+00,-1.028027534484863281e+01,3.813940525054931641e+00,-2.083641510009765625e+02,-1.014493026733398438e+02,-1.806030273437500000e+02,4.033146500587463379e-01,-6.667523193359375000e+01,-1.826890411376953125e+02,-2.343034982681274414e+00,7.562364959716796875e+01,3.135619926452636719e+01
1.600790023803710938e-01,1.000000000000000000e+00,8.504337310791015625e+00,-1.019948577880859375e+01,3.826200723648071289e+00,-2.082636871337890625e+02,-1.013157958984375000e+02,-1.804873199462890625e+02,4.033146500587463379e-01,-6.667523193359375000e+01,-1.826890411376953125e+02,-2.343034982681274414e+00,7.562364959716796875e+01,3.135619926452636719e+01
1.630370020866394043e-01,1.000000000000000000e+00,8.504337310791015625e+00,-1.019948577880859375e+01,3.826200723648071289e+00,-2.082636871337890625e+02,-1.013157958984375000e+02,-1.804873199462890625e+02,4.033146500587463379e-01,-6.667523193359375000e+01,-1.826890411376953125e+02,-2.343034982681274414e+00,7.562364959716796875e+01,3.135619926452636719e+01
1.670459955930709839e-01,1.000000000000000000e+00,8.450970649719238281e+00,-1.015522193908691406e+01,3.832645893096923828e+00,-2.082115936279296875e+02,-1.012464294433593750e+02,-1.804250030517578125e+02,4.033146500587463379e-01,-6.667523193359375000e+01,-1.826889343261718750e+02,-2.343034982681274414e+00,7.562364959716796875e+01,3.135619926452636719e+01
1.710159927606582642e-01,1.000000000000000000e+00,8.395853996276855469e+00,-1.010871791839599609e+01,3.839213132858276367e+00,-2.081583862304687500e+02,-1.011760482788085938e+02,-1.803617401123046875e+02,4.033146500587463379e-01,-6.667523193359375000e+01,-1.826890411376953125e+02,-2.342891216278076172e+00,7.562364959716796875e+01,3.135619926452636719e+01
1.757719963788986206e-01,1.000000000000000000e+00,8.339072227478027344e+00,-1.006022167205810547e+01,3.846003532409667969e+00,-2.081044616699218750e+02,-1.011028518676757812e+02,-1.802985992431640625e+02,4.033146500587463379e-01,-6.667523193359375000e+01,-1.826890411376953125e+02,-2.343034982681274414e+00,7.562372589111328125e+01,3.135619926452636719e+01
1.799120008945465088e-01,1.000000000000000000e+00,8.280767440795898438e+00,-1.001007366180419922e+01,3.852977514266967773e+00,-2.080489349365234375e+02,-1.010285263061523438e+02,-1.802331695556640625e+02,4.033146500587463379e-01,-6.667523193359375000e+01,-1.826890411376953125e+02,-2.343034982681274414e+00,7.562364959716796875e+01,3.135619926452636719e+01
1.849330067634582520e-01,1.000000000000000000e+00,8.160773277282714844e+00,-9.906383514404296875e+00,3.867047309875488281e+00,-2.079375305175781250e+02,-1.008795623779296875e+02,-1.801032867431640625e+02,4.033146500587463379e-01,-6.667523193359375000e+01,-1.826890411376953125e+02,-2.343034982681274414e+00,7.562364959716796875e+01,3.135619926452636719e+01
1.875170022249221802e-01,1.000000000000000000e+00,8.099225997924804688e+00,-9.853338241577148438e+00,3.874265193939208984e+00,-2.078814849853515625e+02,-1.008043289184570312e+02,-1.800365447998046875e+02,4.033146500587463379e-01,-6.667523193359375000e+01,-1.826890411376953125e+02,-2.343034982681274414e+00,7.562364959716796875e+01,3.135619926452636719e+01
1.918929964303970337e-01,1.000000000000000000e+00,8.099225997924804688e+00,-9.853338241577148438e+00,3.874265193939208984e+00,-2.078814849853515625e+02,-1.008043289184570312e+02,-1.800365447998046875e+02,4.033146500587463379e-01,-6.667523193359375000e+01,-1.826890411376953125e+02,-2.343034982681274414e+00,7.562364959716796875e+01,3.135619926452636719e+01
1.959359943866729736e-01,1.000000000000000000e+00,8.037018775939941406e+00,-9.799615859985351562e+00,3.881889343261718750e+00,-2.078258514404296875e+02,-1.007282485961914062e+02,-1.799705047607421875e+02,4.033146500587463379e-01,-6.667523193359375000e+01,-1.826890411376953125e+02,-2.343034982681274414e+00,7.562364959716796875e+01,3.135619926452636719e+01
1.999839991331100464e-01,1.000000000000000000e+00,7.974092960357666016e+00,-9.745258331298828125e+00,3.889595031738281250e+00,-2.077695007324218750e+02,-1.006524353027343750e+02,-1.799040374755859375e+02,4.033146500587463379e-01,-6.667523193359375000e+01,-1.826890411376953125e+02,-2.343034982681274414e+00,7.562364959716796875e+01,3.135619926452636719e+01
2.039230018854141235e-01,1.000000000000000000e+00,7.911053180694580078e+00,-9.690561294555664062e+00,3.897199153900146484e+00,-2.077133483886718750e+02,-1.005766220092773438e+02,-1.798368377685546875e+02,4.033146500587463379e-01,-6.667523193359375000e+01,-1.826890411376953125e+02,-2.343034982681274414e+00,7.562364959716796875e+01,3.135598182678222656e+01
2.089570015668869019e-01,1.000000000000000000e+00,7.847151279449462891e+00,-9.635322570800781250e+00,3.904945611953735352e+00,-2.076569366455078125e+02,-1.005008621215820312e+02,-1.797716674804687500e+02,4.033146500587463379e-01,-6.667523193359375000e+01,-1.826890411376953125e+02,-2.343034982681274414e+00,7.562364959716796875e+01,3.135619926452636719e+01
2.128619998693466187e-01,1.000000000000000000e+00,7.718946933746337891e+00,-9.525159835815429688e+00,3.920214891433715820e+00,-2.075449066162109375e+02,-1.003490142822265625e+02,-1.796381225585937500e+02,4.033146500587463379e-01,-6.667523193359375000e+01,-1.826890411376953125e+02,-2.343034982681274414e+00,7.562364959716796875e+01,3.135619926452636719e+01
2.168910056352615356e-01,1.000000000000000000e+00,7.718946933746337891e+00,-9.525159835815429688e+00,3.920214891433715820e+00,-2.075449066162109375e+02,-1.003490142822265625e+02,-1.796381225585937500e+02,4.033146500587463379e-01,-6.667523193359375000e+01,-1.826890411376953125e+02,-2.343034982681274414e+00,7.562364959716796875e+01,3.135619926452636719e+01
2.209230065345764160e-01,1.000000000000000000e+00,7.654844760894775391e+00,-9.470101356506347656e+00,3.927656412124633789e+00,-2.074884796142578125e+02,-1.002731475830078125e+02,-1.795722198486328125e+02,4.033146500587463379e-01,-6.667523193359375000e+01,-1.826890411376953125e+02,-2.343034982681274414e+00,7.562364959716796875e+01,3.135619926452636719e+01
2.258509993553161621e-01,1.000000000000000000e+00,7.590799808502197266e+00,-9.415110588073730469e+00,3.935341596603393555e+00,-2.074324951171875000e+02,-1.001971130371093750e+02,-1.795050811767578125e+02,4.033146500587463379e-01,-6.667523193359375000e+01,-1.826890411376953125e+02,-2.343034982681274414e+00,7.562364959716796875e+01,3.135619926452636719e+01
2.286020070314407349e-01,1.000000000000000000e+00,7.463198184967041016e+00,-9.304880142211914062e+00,3.951017856597900391e+00,-2.073194580078125000e+02,-1.000455398559570312e+02,-1.793735809326171875e+02,4.033146500587463379e-01,-6.667523193359375000e+01,-1.826889343261718750e+02,-2.343034982681274414e+00,7.562364959716796875e+01,3.135619926452636719e+01
2.321979999542236328e-01,1.000000000000000000e+00,7.399784564971923828e+00,-9.249821662902832031e+00,3.958642005920410156e+00,-2.072638244628906250e+02,-9.996977996826171875e+01,-1.793067169189453125e+02,4.033146500587463379e-01,-6.667523193359375000e+01,-1.826890411376953125e+02,-2.343034982681274414e+00,7.562364959716796875e+01,3.135619926452636719e+01
2.353910058736801147e-01,1.000000000000000000e+00,7.399784564971923828e+00,-9.249821662902832031e+00,3.958642005920410156e+00,-2.072638244628906250e+02,-9.996977996826171875e+01,-1.793067169189453125e+02,4.033146500587463379e-01,-6.667523193359375000e+01,-1.826890411376953125e+02,-2.343034982681274414e+00,7.562364959716796875e+01,3.135619926452636719e+01
2.399179935455322266e-01,1.000000000000000000e+00,7.336227893829345703e+00,-9.194808006286621094e+00,3.966185092926025391e+00,-2.072076263427734375e+02,-9.989358520507812500e+01,-1.792406463623046875e+02,4.033146500587463379e-01,-6.667523193359375000e+01,-1.826890411376953125e+02,-2.343106746673583984e+00,7.562364959716796875e+01,3.135619926452636719e+01
2.438929975032806396e-01,1.000000000000000000e+00,7.272642135620117188e+00,-9.139749526977539062e+00,3.973586082458496094e+00,-2.071511535644531250e+02,-9.981676483154296875e+01,-1.791745452880859375e+02,4.033146500587463379e-01,-6.667523193359375000e+01,-1.826890411376953125e+02,-2.343034982681274414e+00,7.562364959716796875e+01,3.135619926452636719e+01
2.484959959983825684e-01,1.000000000000000000e+00,7.209315299987792969e+00,-9.084781646728515625e+00,3.980925321578979492e+00,-2.070949096679687500e+02,-9.974158477783203125e+01,-1.791079406738281250e+02,4.033146500587463379e-01,-6.667523193359375000e+01,-1.826890411376953125e+02,-2.343034982681274414e+00,7.562364959716796875e+01,3.135619926452636719e+01
2.518880069255828857e-01,1.000000000000000000e+00,7.145930767059326172e+00,-9.030062675476074219e+00,3.988346815109252930e+00,-2.070381164550781250e+02,-9.966555786132812500e+01,-1.790424346923828125e+02,4.033146500587463379e-01,-6.667523193359375000e+01,-1.826890411376953125e+02,-2.343034982681274414e+00,7.562364959716796875e+01,3.135619926452636719e+01
2.560450136661529541e-01,1.000000000000000000e+00,7.082545757293701172e+00,-8.975365638732910156e+00,3.996052503585815430e+00,-2.069821319580078125e+02,-9.958914947509765625e+01,-1.789767150878906250e+02,4.033146500587463379e-01,-6.667523193359375000e+01,-1.826890411376953125e+02,-2.343034982681274414e+00,7.562364959716796875e+01,3.135619926452636719e+01
2.597739994525909424e-01,1.000000000000000000e+00,7.019333362579345703e+00,-8.920760154724121094e+00,4.003921031951904297e+00,-2.069261779785156250e+02,-9.951274871826171875e+01,-1.789103851318359375e+02,4.033146500587463379e-01,-6.667523193359375000e+01,-1.826889343261718750e+02,-2.343106746673583984e+00,7.562364959716796875e+01,3.135619926452636719e+01
2.639049887657165527e-01,1.000000000000000000e+00,6.955862522125244141e+00,-8.866198539733886719e+00,4.011606216430664062e+00,-2.068695678710937500e+02,-9.943752288818359375e+01,-1.788444061279296875e+02,4.033146500587463379e-01,-6.667523193359375000e+01,-1.826889343261718750e+02,-2.342891216278076172e+00,7.562364959716796875e+01,3.135619926452636719e+01
2.679739892482757568e-01,1.000000000000000000e+00,6.892363071441650391e+00,-8.811571121215820312e+00,4.019291877746582031e+00,-2.068136749267578125e+02,-9.936159515380859375e+01,-1.787776031494140625e+02,4.033146500587463379e-01,-6.667523193359375000e+01,-1.826890411376953125e+02,-2.343106746673583984e+00,7.562364959716796875e+01,3.135619926452636719e+01
2.725099921226501465e-01,1.000000000000000000e+00,6.828634262084960938e+00,-8.757122993469238281e+00,4.026753425598144531e+00,-2.067571105957031250e+02,-9.928546142578125000e+01,-1.787110137939453125e+02,4.033146500587463379e-01,-6.667523193359375000e+01,-1.826890411376953125e+02,-2.343106746673583984e+00,7.562364959716796875e+01,3.135642242431640625e+01
2.760480046272277832e-01,1.000000000000000000e+00,6.764875888824462891e+00,-8.702720642089843750e+00,4.033971309661865234e+00,-2.067010040283203125e+02,-9.920948791503906250e+01,-1.786457061767578125e+02,4.033146500587463379e-01,-6.667523193359375000e+01,-1.826890411376953125e+02,-2.343034982681274414e+00,7.562364959716796875e+01,3.135619926452636719e+01
2.800740003585815430e-01,1.000000000000000000e+00,6.701376438140869141e+00,-8.648567199707031250e+00,4.041148662567138672e+00,-2.066452789306640625e+02,-9.913398742675781250e+01,-1.785792388916015625e+02,4.033146500587463379e-01,-6.667523193359375000e+01,-1.826889343261718750e+02,-2.343034982681274414e+00,7.562364959716796875e+01,3.135619926452636719e+01
2.838250100612640381e-01,1.000000000000000000e+00,6.637762546539306641e+00,-8.594301223754882812e+00,4.048610210418701172e+00,-2.065888671875000000e+02,-9.905870819091796875e+01,-1.785134582519531250e+02,4.033146500587463379e-01,-6.667523193359375000e+01,-1.826890411376953125e+02,-2.343034982681274414e+00,7.562364959716796875e+01,3.135619926452636719e+01
2.881219983100891113e-01,1.000000000000000000e+00,6.574004650115966797e+00,-8.539693832397460938e+00,4.056133270263671875e+00,-2.065330810546875000e+02,-9.898230743408203125e+01,-1.784474029541015625e+02,4.033146500587463379e-01,-6.667523193359375000e+01,-1.826889343261718750e+02,-2.343034982681274414e+00,7.562364959716796875e+01,3.135619926452636719e+01
2.920379936695098877e-01,1.000000000000000000e+00,6.510045528411865234e+00,-8.485043525695800781e+00,4.063777923583984375e+00,-2.064765625000000000e+02,-9.890621948242187500e+01,-1.783806610107421875e+02,4.033146500587463379e-01,-6.667523193359375000e+01,-1.826889343261718750e+02,-2.343106746673583984e+00,7.562364959716796875e+01,3.135619926452636719e+01
2.967790067195892334e-01,1.000000000000000000e+00,6.446373939514160156e+00,-8.430369377136230469e+00,4.071178436279296875e+00,-2.064205780029296875e+02,-9.883062744140625000e+01,-1.783148193359375000e+02,4.033146500587463379e-01,-6.667523193359375000e+01,-1.826889343261718750e+02,-2.342891216278076172e+00,7.562364959716796875e+01,3.135619926452636719e+01
3.000119924545288086e-01,1.000000000000000000e+00,6.382702350616455078e+00,-8.375854492187500000e+00,4.078742027282714844e+00,-2.063644714355468750e+02,-9.875512695312500000e+01,-1.782493133544921875e+02,4.033146500587463379e-01,-6.667523193359375000e+01,-1.826889343261718750e+02,-2.343106746673583984e+00,7.562364959716796875e+01,3.135619926452636719e+01
3.041349947452545166e-01,1.000000000000000000e+00,6.319001674652099609e+00,-8.321111679077148438e+00,4.086122512817382812e+00,-2.063079071044921875e+02,-9.867877960205078125e+01,-1.781823730468750000e+02,4.033146500587463379e-01,-6.667523193359375000e+01,-1.826889343261718750e+02,-2.343034982681274414e+00,7.562364959716796875e+01,3.135619926452636719e+01
3.079990148544311523e-01,1.000000000000000000e+00,6.255215167999267578e+00,-8.266392707824707031e+00,4.093523025512695312e+00,-2.062518005371093750e+02,-9.860317230224609375e+01,-1.781170806884765625e+02,4.033146500587463379e-01,-6.667523193359375000e+01,-1.826890411376953125e+02,-2.343106746673583984e+00,7.562364959716796875e+01,3.135619926452636719e+01
3.118500113487243652e-01,1.000000000000000000e+00,6.191342353820800781e+00,-8.211764335632324219e+00,4.101269721984863281e+00,-2.061956024169921875e+02,-9.852767944335937500e+01,-1.780512847900390625e+02,4.033146500587463379e-01,-6.667523193359375000e+01,-1.826890411376953125e+02,-2.343106746673583984e+00,7.562364959716796875e+01,3.135619926452636719e+01
3.161059916019439697e-01,1.000000000000000000e+00,6.127297878265380859e+00,-8.156864166259765625e+00,4.109097480773925781e+00,-2.061394042968750000e+02,-9.845250701904296875e+01,-1.779846954345703125e+02,4.033146500587463379e-01,-6.667523193359375000e+01,-1.826890411376953125e+02,-2.343034982681274414e+00,7.562364959716796875e+01,3.135619926452636719e+01
3.207589983940124512e-01,1.000000000000000000e+00,6.063080310821533203e+00,-8.101986885070800781e+00,4.116965770721435547e+00,-2.060834045410156250e+02,-9.837610626220703125e+01,-1.779190368652343750e+02,4.033146500587463379e-01,-6.667523193359375000e+01,-1.826890411376953125e+02,-2.343034982681274414e+00,7.562364959716796875e+01,3.135619926452636719e+01
3.243229985237121582e-01,1.000000000000000000e+00,5.999207973480224609e+00,-8.047222137451171875e+00,4.124691963195800781e+00,-2.060270385742187500e+02,-9.830092620849609375e+01,-1.778536682128906250e+02,4.033146500587463379e-01,-6.667523193359375000e+01,-1.826890411376953125e+02,-2.343034982681274414e+00,7.562364959716796875e+01,3.135619926452636719e+01
3.268550038337707520e-01,1.000000000000000000e+00,5.935048103332519531e+00,-7.992299079895019531e+00,4.132539749145507812e+00,-2.059713134765625000e+02,-9.822527313232421875e+01,-1.777874145507812500e+02,4.033146500587463379e-01,-6.667523193359375000e+01,-1.826890411376953125e+02,-2.343034982681274414e+00,7.562364959716796875e+01,3.135619926452636719e+01
3.319790065288543701e-01,1.000000000000000000e+00,5.870974540710449219e+00,-7.937535285949707031e+00,4.140164375305175781e+00,-2.059150085449218750e+02,-9.815014648437500000e+01,-1.777218322753906250e+02,4.033146500587463379e-01,-6.667523193359375000e+01,-1.826890411376953125e+02,-2.343034982681274414e+00,7.562364959716796875e+01,3.135619926452636719e+01
3.349060118198394775e-01,1.000000000000000000e+00,5.806699752807617188e+00,-7.882680416107177734e+00,4.147727489471435547e+00,-2.058590087890625000e+02,-9.807395935058593750e+01,-1.776552276611328125e+02,4.033146500587463379e-01,-6.667523193359375000e+01,-1.826890411376953125e+02,-2.343106746673583984e+00,7.562364959716796875e+01,3.135619926452636719e+01
3.388899862766265869e-01,1.000000000000000000e+00,5.742568969726562500e+00,-7.827757358551025391e+00,4.155189514160156250e+00,-2.058030700683593750e+02,-9.799878692626953125e+01,-1.775890502929687500e+02,4.033146500587463379e-01,-6.667531585693359375e+01,-1.826889343261718750e+02,-2.343034982681274414e+00,7.562364959716796875e+01,3.135619926452636719e+01
3.429079949855804443e-01,1.000000000000000000e+00,5.678495407104492188e+00,-7.772744178771972656e+00,4.162915229797363281e+00,-2.057464447021484375e+02,-9.792259216308593750e+01,-1.775236053466796875e+02,4.033146500587463379e-01,-6.667523193359375000e+01,-1.826889343261718750e+02,-2.343034982681274414e+00,7.562364959716796875e+01,3.135619926452636719e+01
3.483789861202239990e-01,1.000000000000000000e+00,5.614392757415771484e+00,-7.717753410339355469e+00,4.170742988586425781e+00,-2.056908721923828125e+02,-9.784720611572265625e+01,-1.774571380615234375e+02,4.033146500587463379e-01,-6.667523193359375000e+01,-1.826889343261718750e+02,-2.343034982681274414e+00,7.562364959716796875e+01,3.135619926452636719e+01
3.523580133914947510e-01,1.000000000000000000e+00,5.550606727600097656e+00,-7.662672519683837891e+00,4.178469657897949219e+00,-2.056346282958984375e+02,-9.777112579345703125e+01,-1.773912963867187500e+02,4.033146500587463379e-01,-6.667523193359375000e+01,-1.826890411376953125e+02,-2.343034982681274414e+00,7.562364959716796875e+01,3.135619926452636719e+01
3.563860058784484863e-01,1.000000000000000000e+00,5.486848354339599609e+00,-7.607591152191162109e+00,4.186053276062011719e+00,-2.055783081054687500e+02,-9.769631958007812500e+01,-1.773256530761718750e+02,4.033146500587463379e-01,-6.667523193359375000e+01,-1.826890411376953125e+02,-2.343034982681274414e+00,7.562364959716796875e+01,3.135642242431640625e+01
3.588559925556182861e-01,1.000000000000000000e+00,5.422976016998291016e+00,-7.552645683288574219e+00,4.193535327911376953e+00,-2.055226287841796875e+02,-9.762082672119140625e+01,-1.772590484619140625e+02,4.033146500587463379e-01,-6.667523193359375000e+01,-1.826889343261718750e+02,-2.343034982681274414e+00,7.562364959716796875e+01,3.135619926452636719e+01
3.628570139408111572e-01,1.000000000000000000e+00,5.359160900115966797e+00,-7.497812747955322266e+00,4.200874805450439453e+00,-2.054663238525390625e+02,-9.754505920410156250e+01,-1.771931304931640625e+02,4.033146500587463379e-01,-6.667523193359375000e+01,-1.826890411376953125e+02,-2.342891216278076172e+00,7.562372589111328125e+01,3.135619926452636719e+01
3.669030070304870605e-01,1.000000000000000000e+00,5.295517921447753906e+00,-7.442822456359863281e+00,4.208356857299804688e+00,-2.054099121093750000e+02,-9.746956634521484375e+01,-1.771274871826171875e+02,4.033146500587463379e-01,-6.667523193359375000e+01,-1.826890411376953125e+02,-2.343034982681274414e+00,7.562364959716796875e+01,3.135598182678222656e+01
3.708640038967132568e-01,1.000000000000000000e+00,5.231932163238525391e+00,-7.388057708740234375e+00,4.216042518615722656e+00,-2.053539276123046875e+02,-9.739428710937500000e+01,-1.770606231689453125e+02,4.033146500587463379e-01,-6.667523193359375000e+01,-1.826889343261718750e+02,-2.343106746673583984e+00,7.562364959716796875e+01,3.135619926452636719e+01
3.765879869461059570e-01,1.000000000000000000e+00,5.168346405029296875e+00,-7.333316326141357422e+00,4.223951816558837891e+00,-2.052973480224609375e+02,-9.731921386718750000e+01,-1.769955139160156250e+02,4.033146500587463379e-01,-6.667523193359375000e+01,-1.826889343261718750e+02,-2.342891216278076172e+00,7.562364959716796875e+01,3.135619926452636719e+01
3.807710111141204834e-01,1.000000000000000000e+00,5.105047702789306641e+00,-7.278687477111816406e+00,4.231718540191650391e+00,-2.052417297363281250e+02,-9.724313354492187500e+01,-1.769292449951171875e+02,4.033146500587463379e-01,-6.667523193359375000e+01,-1.826890411376953125e+02,-2.343034982681274414e+00,7.562364959716796875e+01,3.135619926452636719e+01
3.845689892768859863e-01,1.000000000000000000e+00,5.041692256927490234e+00,-7.224104404449462891e+00,4.239566326141357422e+00,-2.051852111816406250e+02,-9.716725921630859375e+01,-1.768631286621093750e+02,4.033146500587463379e-01,-6.667523193359375000e+01,-1.826890411376953125e+02,-2.343034982681274414e+00,7.562364959716796875e+01,3.135619926452636719e+01
3.896450102329254150e-01,1.000000000000000000e+00,4.978020191192626953e+00,-7.169634342193603516e+00,4.247190952301025391e+00,-2.051289062500000000e+02,-9.709197998046875000e+01,-1.767979583740234375e+02,4.033146500587463379e-01,-6.667523193359375000e+01,-1.826890411376953125e+02,-2.343034982681274414e+00,7.562364959716796875e+01,3.135619926452636719e+01
3.928149938583374023e-01,1.000000000000000000e+00,4.914492130279541016e+00,-7.115322113037109375e+00,4.254550933837890625e+00,-2.050731201171875000e+02,-9.701643371582031250e+01,-1.767320556640625000e+02,4.033146500587463379e-01,-6.667523193359375000e+01,-1.826890411376953125e+02,-2.343106746673583984e+00,7.562364959716796875e+01,3.135619926452636719e+01
3.967080116271972656e-01,1.000000000000000000e+00,4.850820541381835938e+00,-7.060625553131103516e+00,4.261748313903808594e+00,-2.050168609619140625e+02,-9.694029235839843750e+01,-1.766657867431640625e+02,4.033146500587463379e-01,-6.667523193359375000e+01,-1.826890411376953125e+02,-2.343034982681274414e+00,7.562364959716796875e+01,3.135619926452636719e+01
4.009979963302612305e-01,1.000000000000000000e+00,4.787206172943115234e+00,-7.006064891815185547e+00,4.269250869750976562e+00,-2.049612274169921875e+02,-9.686528015136718750e+01,-1.766002807617187500e+02,4.033146500587463379e-01,-6.667523193359375000e+01,-1.826890411376953125e+02,-2.343034982681274414e+00,7.562364959716796875e+01,3.135619926452636719e+01
4.028950035572052002e-01,1.000000000000000000e+00,4.723362445831298828e+00,-6.951390743255615234e+00,4.277099132537841797e+00,-2.049053497314453125e+02,-9.678941345214843750e+01,-1.765338745117187500e+02,4.033146500587463379e-01,-6.667523193359375000e+01,-1.826890411376953125e+02,-2.343034982681274414e+00,7.562364959716796875e+01,3.135619926452636719e+01
4.100689888000488281e-01,1.000000000000000000e+00,4.595961570739746094e+00,-6.842269897460937500e+00,4.292510509490966797e+00,-2.047931060791015625e+02,-9.663751220703125000e+01,-1.764023895263671875e+02,4.033146500587463379e-01,-6.667523193359375000e+01,-1.826889343261718750e+02,-2.342891216278076172e+00,7.562364959716796875e+01,3.135619926452636719e+01
4.114199876785278320e-01,1.000000000000000000e+00,4.595961570739746094e+00,-6.842269897460937500e+00,4.292510509490966797e+00,-2.047931060791015625e+02,-9.663751220703125000e+01,-1.764023895263671875e+02,4.033146500587463379e-01,-6.667523193359375000e+01,-1.826889343261718750e+02,-2.342891216278076172e+00,7.562364959716796875e+01,3.135619926452636719e+01
4.148429930210113525e-01,1.000000000000000000e+00,4.532289505004882812e+00,-6.787686347961425781e+00,4.300033092498779297e+00,-2.047367401123046875e+02,-9.656282043457031250e+01,-1.763357849121093750e+02,4.033146500587463379e-01,-6.667523193359375000e+01,-1.826889343261718750e+02,-2.343106746673583984e+00,7.562364959716796875e+01,3.135642242431640625e+01
4.188509881496429443e-01,1.000000000000000000e+00,4.468761444091796875e+00,-6.733170509338378906e+00,4.307291507720947266e+00,-2.046810150146484375e+02,-9.648721313476562500e+01,-1.762702178955078125e+02,4.033146500587463379e-01,-6.667523193359375000e+01,-1.826889343261718750e+02,-2.343034982681274414e+00,7.562364959716796875e+01,3.135619926452636719e+01
4.229309856891632080e-01,1.000000000000000000e+00,4.405491828918457031e+00,-6.678473949432373047e+00,4.314529895782470703e+00,-2.046253967285156250e+02,-9.641166687011718750e+01,-1.762041625976562500e+02,4.033146500587463379e-01,-6.667523193359375000e+01,-1.826890411376953125e+02,-2.343034982681274414e+00,7.562364959716796875e+01,3.135619926452636719e+01
4.268360137939453125e-01,1.000000000000000000e+00,4.341762542724609375e+00,-6.623867988586425781e+00,4.322093486785888672e+00,-2.045685577392578125e+02,-9.633547973632812500e+01,-1.761379089355468750e+02,4.033146500587463379e-01,-6.667513275146484375e+01,-1.826890411376953125e+02,-2.342891216278076172e+00,7.562350463867187500e+01,3.135619926452636719e+01
4.308820068836212158e-01,1.000000000000000000e+00,4.278062343597412109e+00,-6.569126129150390625e+00,4.329981803894042969e+00,-2.045127258300781250e+02,-9.626068115234375000e+01,-1.760727233886718750e+02,4.033146500587463379e-01,-6.667523193359375000e+01,-1.826890411376953125e+02,-2.343034982681274414e+00,7.562350463867187500e+01,3.135619926452636719e+01
4.377689957618713379e-01,1.000000000000000000e+00,4.214418888092041016e+00,-6.514565944671630859e+00,4.337891101837158203e+00,-2.044567871093750000e+02,-9.618492126464843750e+01,-1.760070037841796875e+02,4.033146500587463379e-01,-6.667523193359375000e+01,-1.826890411376953125e+02,-2.343034982681274414e+00,7.562364959716796875e+01,3.135619926452636719e+01
4.411160051822662354e-01,1.000000000000000000e+00,4.150862216949462891e+00,-6.460095405578613281e+00,4.345799922943115234e+00,-2.044007873535156250e+02,-9.610926055908203125e+01,-1.759401397705078125e+02,4.033146500587463379e-01,-6.667523193359375000e+01,-1.826889343261718750e+02,-2.343106746673583984e+00,7.562364959716796875e+01,3.135619926452636719e+01
4.429079890251159668e-01,1.000000000000000000e+00,4.087333679199218750e+00,-6.405353546142578125e+00,4.353567123413085938e+00,-2.043449401855468750e+02,-9.603296661376953125e+01,-1.758752441406250000e+02,4.033146500587463379e-01,-6.667523193359375000e+01,-1.826889343261718750e+02,-2.343034982681274414e+00,7.562364959716796875e+01,3.135619926452636719e+01
4.478749930858612061e-01,1.000000000000000000e+00,4.023489952087402344e+00,-6.350656986236572266e+00,4.361171245574951172e+00,-2.042888031005859375e+02,-9.595794677734375000e+01,-1.758089904785156250e+02,4.033146500587463379e-01,-6.667523193359375000e+01,-1.826890411376953125e+02,-2.343034982681274414e+00,7.562364959716796875e+01,3.135619926452636719e+01
4.508399963378906250e-01,1.000000000000000000e+00,3.959703683853149414e+00,-6.295847415924072266e+00,4.368530750274658203e+00,-2.042331237792968750e+02,-9.588282775878906250e+01,-1.757430725097656250e+02,4.033146500587463379e-01,-6.667513275146484375e+01,-1.826890411376953125e+02,-2.343034982681274414e+00,7.562364959716796875e+01,3.135619926452636719e+01
4.570890069007873535e-01,1.000000000000000000e+00,3.959703683853149414e+00,-6.295847415924072266e+00,4.368530750274658203e+00,-2.042331237792968750e+02,-9.588282775878906250e+01,-1.757430725097656250e+02,4.033146500587463379e-01,-6.667523193359375000e+01,-1.826890411376953125e+02,-2.343034982681274414e+00,7.562364959716796875e+01,3.135619926452636719e+01
4.588679969310760498e-01,1.000000000000000000e+00,3.831699848175048828e+00,-6.186092376708984375e+00,4.383494853973388672e+00,-2.041208801269531250e+02,-9.573092651367187500e+01,-1.756115722656250000e+02,4.033146500587463379e-01,-6.667523193359375000e+01,-1.826890411376953125e+02,-2.343106746673583984e+00,7.562364959716796875e+01,3.135619926452636719e+01
4.658829867839813232e-01,1.000000000000000000e+00,3.831699848175048828e+00,-6.186092376708984375e+00,4.383494853973388672e+00,-2.041208801269531250e+02,-9.573092651367187500e+01,-1.756115722656250000e+02,4.033146500587463379e-01,-6.667523193359375000e+01,-1.826890411376953125e+02,-2.343106746673583984e+00,7.562364959716796875e+01,3.135619926452636719e+01
4.674279987812042236e-01,1.000000000000000000e+00,3.704155445098876953e+00,-6.076201438903808594e+00,4.398967742919921875e+00,-2.040091094970703125e+02,-9.558078765869140625e+01,-1.754802093505859375e+02,4.033146500587463379e-01,-6.667523193359375000e+01,-1.826890411376953125e+02,-2.343034982681274414e+00,7.562364959716796875e+01,3.135619926452636719e+01
4.718720018863677979e-01,1.000000000000000000e+00,3.640426397323608398e+00,-6.021391868591308594e+00,4.406653404235839844e+00,-2.039537353515625000e+02,-9.550497436523437500e+01,-1.754130096435546875e+02,4.033146500587463379e-01,-6.667523193359375000e+01,-1.826890411376953125e+02,-2.342891216278076172e+00,7.562364959716796875e+01,3.135619926452636719e+01
4.748809933662414551e-01,1.000000000000000000e+00,3.576668500900268555e+00,-5.966559410095214844e+00,4.414175987243652344e+00,-2.038973236083984375e+02,-9.542915344238281250e+01,-1.753478240966796875e+02,4.033146500587463379e-01,-6.667523193359375000e+01,-1.826890411376953125e+02,-2.343178272247314453e+00,7.562372589111328125e+01,3.135619926452636719e+01
4.799669981002807617e-01,1.000000000000000000e+00,3.576668500900268555e+00,-5.966559410095214844e+00,4.414175987243652344e+00,-2.038973236083984375e+02,-9.542915344238281250e+01,-1.753478240966796875e+02,4.033146500587463379e-01,-6.667523193359375000e+01,-1.826890411376953125e+02,-2.343178272247314453e+00,7.562372589111328125e+01,3.135619926452636719e+01
4.829120039939880371e-01,1.000000000000000000e+00,3.449497222900390625e+00,-5.856962680816650391e+00,4.428997993469238281e+00,-2.037860260009765625e+02,-9.527864837646484375e+01,-1.752156677246093750e+02,4.033146500587463379e-01,-6.667523193359375000e+01,-1.826890411376953125e+02,-2.343034982681274414e+00,7.562364959716796875e+01,3.135619926452636719e+01
4.878849983215332031e-01,1.000000000000000000e+00,3.449497222900390625e+00,-5.856962680816650391e+00,4.428997993469238281e+00,-2.037860260009765625e+02,-9.527864837646484375e+01,-1.752156677246093750e+02,4.033146500587463379e-01,-6.667523193359375000e+01,-1.826890411376953125e+02,-2.343034982681274414e+00,7.562364959716796875e+01,3.135619926452636719e+01
4.908489882946014404e-01,1.000000000000000000e+00,3.322354793548583984e+00,-5.747569561004638672e+00,4.444653511047363281e+00,-2.036737823486328125e+02,-9.512728118896484375e+01,-1.750839691162109375e+02,4.033146500587463379e-01,-6.667523193359375000e+01,-1.826889343261718750e+02,-2.343034982681274414e+00,7.562364959716796875e+01,3.135619926452636719e+01
4.958919882774353027e-01,1.000000000000000000e+00,3.322354793548583984e+00,-5.747569561004638672e+00,4.444653511047363281e+00,-2.036737823486328125e+02,-9.512728118896484375e+01,-1.750839691162109375e+02,4.033146500587463379e-01,-6.667523193359375000e+01,-1.826889343261718750e+02,-2.343034982681274414e+00,7.562364959716796875e+01,3.135619926452636719e+01
4.988439977169036865e-01,1.000000000000000000e+00,3.195298194885253906e+00,-5.638629436492919922e+00,4.460451126098632812e+00,-2.035610656738281250e+02,-9.497687530517578125e+01,-1.749528045654296875e+02,4.033146500587463379e-01,-6.667523193359375000e+01,-1.826890411376953125e+02,-2.343034982681274414e+00,7.562364959716796875e+01,3.135619926452636719e+01
5.039269924163818359e-01,1.000000000000000000e+00,3.195298194885253906e+00,-5.638629436492919922e+00,4.460451126098632812e+00,-2.035610656738281250e+02,-9.497687530517578125e+01,-1.749528045654296875e+02,4.033146500587463379e-01,-6.667523193359375000e+01,-1.826890411376953125e+02,-2.343034982681274414e+00,7.562364959716796875e+01,3.135619926452636719e+01
5.078409910202026367e-01,1.000000000000000000e+00,3.068098306655883789e+00,-5.529394626617431641e+00,4.475557327270507812e+00,-2.034499206542968750e+02,-9.482588958740234375e+01,-1.748200836181640625e+02,4.033146500587463379e-01,-6.667523193359375000e+01,-1.826889343261718750e+02,-2.343106746673583984e+00,7.562364959716796875e+01,3.135619926452636719e+01
5.118259787559509277e-01,1.000000000000000000e+00,3.004340648651123047e+00,-5.474675655364990234e+00,4.482775211334228516e+00,-2.033939819335937500e+02,-9.475028228759765625e+01,-1.747551116943359375e+02,4.033146500587463379e-01,-6.667523193359375000e+01,-1.826890411376953125e+02,-2.343034982681274414e+00,7.562364959716796875e+01,3.135642242431640625e+01
5.148379802703857422e-01,1.000000000000000000e+00,2.940640211105346680e+00,-5.420023918151855469e+00,4.490237236022949219e+00,-2.033378753662109375e+02,-9.467532348632812500e+01,-1.746887969970703125e+02,4.033146500587463379e-01,-6.667523193359375000e+01,-1.826889343261718750e+02,-2.343034982681274414e+00,7.562364959716796875e+01,3.135619926452636719e+01
5.199109911918640137e-01,1.000000000000000000e+00,2.940640211105346680e+00,-5.420023918151855469e+00,4.490237236022949219e+00,-2.033378753662109375e+02,-9.467532348632812500e+01,-1.746887969970703125e+02,4.033146500587463379e-01,-6.667523193359375000e+01,-1.826889343261718750e+02,-2.343034982681274414e+00,7.562364959716796875e+01,3.135619926452636719e+01
5.228530168533325195e-01,1.000000000000000000e+00,2.813210725784301758e+00,-5.310903072357177734e+00,4.505608081817626953e+00,-2.032264251708984375e+02,-9.452427673339843750e+01,-1.745582427978515625e+02,4.033146500587463379e-01,-6.667523193359375000e+01,-1.826890411376953125e+02,-2.343034982681274414e+00,7.562364959716796875e+01,3.135598182678222656e+01
5.279620289802551270e-01,1.000000000000000000e+00,2.813210725784301758e+00,-5.310903072357177734e+00,4.505608081817626953e+00,-2.032264251708984375e+02,-9.452427673339843750e+01,-1.745582427978515625e+02,4.033146500587463379e-01,-6.667523193359375000e+01,-1.826890411376953125e+02,-2.343034982681274414e+00,7.562364959716796875e+01,3.135598182678222656e+01
5.309190154075622559e-01,1.000000000000000000e+00,2.685924530029296875e+00,-5.201758384704589844e+00,4.520653247833251953e+00,-2.031141204833984375e+02,-9.437333679199218750e+01,-1.744265441894531250e+02,4.033146500587463379e-01,-6.667523193359375000e+01,-1.826890411376953125e+02,-2.343034982681274414e+00,7.562364959716796875e+01,3.135619926452636719e+01
5.358899831771850586e-01,1.000000000000000000e+00,2.685924530029296875e+00,-5.201758384704589844e+00,4.520653247833251953e+00,-2.031141204833984375e+02,-9.437333679199218750e+01,-1.744265441894531250e+02,4.033146500587463379e-01,-6.667523193359375000e+01,-1.826890411376953125e+02,-2.343034982681274414e+00,7.562364959716796875e+01,3.135619926452636719e+01
5.388380289077758789e-01,1.000000000000000000e+00,2.558724641799926758e+00,-5.092795848846435547e+00,4.535272121429443359e+00,-2.030026702880859375e+02,-9.422319793701171875e+01,-1.742938842773437500e+02,4.033146500587463379e-01,-6.667523193359375000e+01,-1.826890411376953125e+02,-2.343034982681274414e+00,7.562364959716796875e+01,3.135619926452636719e+01
5.439530014991760254e-01,1.000000000000000000e+00,2.558724641799926758e+00,-5.092795848846435547e+00,4.535272121429443359e+00,-2.030026702880859375e+02,-9.422319793701171875e+01,-1.742938842773437500e+02,4.033146500587463379e-01,-6.667523193359375000e+01,-1.826890411376953125e+02,-2.343034982681274414e+00,7.562364959716796875e+01,3.135619926452636719e+01
5.469459891319274902e-01,1.000000000000000000e+00,2.431754350662231445e+00,-4.983945369720458984e+00,4.550439834594726562e+00,-2.028910522460937500e+02,-9.407241821289062500e+01,-1.741628112792968750e+02,4.033146500587463379e-01,-6.667523193359375000e+01,-1.826890411376953125e+02,-2.343034982681274414e+00,7.562364959716796875e+01,3.135619926452636719e+01
5.519419908523559570e-01,1.000000000000000000e+00,2.431754350662231445e+00,-4.983945369720458984e+00,4.550439834594726562e+00,-2.028910522460937500e+02,-9.407241821289062500e+01,-1.741628112792968750e+02,4.033146500587463379e-01,-6.667523193359375000e+01,-1.826890411376953125e+02,-2.343034982681274414e+00,7.562364959716796875e+01,3.135619926452636719e+01
5.548580288887023926e-01,1.000000000000000000e+00,2.304525852203369141e+00,-4.874914646148681641e+00,4.566013813018798828e+00,-2.027789459228515625e+02,-9.392201232910156250e+01,-1.740316467285156250e+02,4.033146500587463379e-01,-6.667523193359375000e+01,-1.826890411376953125e+02,-2.343034982681274414e+00,7.562364959716796875e+01,3.135598182678222656e+01
5.599009990692138672e-01,1.000000000000000000e+00,2.304525852203369141e+00,-4.874914646148681641e+00,4.566013813018798828e+00,-2.027789459228515625e+02,-9.392201232910156250e+01,-1.740316467285156250e+02,4.033146500587463379e-01,-6.667523193359375000e+01,-1.826890411376953125e+02,-2.343034982681274414e+00,7.562364959716796875e+01,3.135598182678222656e+01
5.628359913825988770e-01,1.000000000000000000e+00,2.177297115325927734e+00,-4.765770435333251953e+00,4.581323623657226562e+00,-2.026671752929687500e+02,-9.377166748046875000e+01,-1.738992004394531250e+02,4.033146500587463379e-01,-6.667523193359375000e+01,-1.826889343261718750e+02,-2.343034982681274414e+00,7.562364959716796875e+01,3.135619926452636719e+01
5.679309964179992676e-01,1.000000000000000000e+00,2.177297115325927734e+00,-4.765770435333251953e+00,4.581323623657226562e+00,-2.026671752929687500e+02,-9.377166748046875000e+01,-1.738992004394531250e+02,4.033146500587463379e-01,-6.667523193359375000e+01,-1.826889343261718750e+02,-2.343034982681274414e+00,7.562364959716796875e+01,3.135619926452636719e+01
5.708870291709899902e-01,1.000000000000000000e+00,2.049638032913208008e+00,-4.656355381011962891e+00,4.596023559570312500e+00,-2.025552978515625000e+02,-9.362051391601562500e+01,-1.737685089111328125e+02,4.033146500587463379e-01,-6.667523193359375000e+01,-1.826890411376953125e+02,-2.343106746673583984e+00,7.562364959716796875e+01,3.135642242431640625e+01
5.759350061416625977e-01,1.000000000000000000e+00,2.049638032913208008e+00,-4.656355381011962891e+00,4.596023559570312500e+00,-2.025552978515625000e+02,-9.362051391601562500e+01,-1.737685089111328125e+02,4.033146500587463379e-01,-6.667523193359375000e+01,-1.826890411376953125e+02,-2.343106746673583984e+00,7.562364959716796875e+01,3.135642242431640625e+01
5.798699855804443359e-01,1.000000000000000000e+00,1.922007560729980469e+00,-4.546961784362792969e+00,4.611394405364990234e+00,-2.024435272216796875e+02,-9.346973419189453125e+01,-1.736375579833984375e+02,4.033146500587463379e-01,-6.667523193359375000e+01,-1.826890411376953125e+02,-2.343106746673583984e+00,7.562364959716796875e+01,3.135619926452636719e+01
5.863559842109680176e-01,1.000000000000000000e+00,1.922007560729980469e+00,-4.546961784362792969e+00,4.611394405364990234e+00,-2.024435272216796875e+02,-9.346973419189453125e+01,-1.736375579833984375e+02,4.033146500587463379e-01,-6.667523193359375000e+01,-1.826890411376953125e+02,-2.343034982681274414e+00,7.562364959716796875e+01,3.135619926452636719e+01
5.877730250358581543e-01,1.000000000000000000e+00,1.794750213623046875e+00,-4.437704563140869141e+00,4.626806259155273438e+00,-2.023319091796875000e+02,-9.331927490234375000e+01,-1.735057220458984375e+02,4.033146500587463379e-01,-6.667523193359375000e+01,-1.826890411376953125e+02,-2.343034982681274414e+00,7.562364959716796875e+01,3.135619926452636719e+01
5.928819775581359863e-01,1.000000000000000000e+00,1.794750213623046875e+00,-4.437704563140869141e+00,4.626806259155273438e+00,-2.023319091796875000e+02,-9.331927490234375000e+01,-1.735057220458984375e+02,4.033146500587463379e-01,-6.667523193359375000e+01,-1.826890411376953125e+02,-2.343034982681274414e+00,7.562364959716796875e+01,3.135619926452636719e+01
5.955790281295776367e-01,1.000000000000000000e+00,1.667665243148803711e+00,-4.328198909759521484e+00,4.641749858856201172e+00,-2.022203521728515625e+02,-9.316796875000000000e+01,-1.733751678466796875e+02,4.033146500587463379e-01,-6.667523193359375000e+01,-1.826889343261718750e+02,-2.343034982681274414e+00,7.562364959716796875e+01,3.135619926452636719e+01
5.998790264129638672e-01,1.000000000000000000e+00,1.667665243148803711e+00,-4.328198909759521484e+00,4.641749858856201172e+00,-2.022203521728515625e+02,-9.316796875000000000e+01,-1.733751678466796875e+02,4.033146500587463379e-01,-6.667523193359375000e+01,-1.826889343261718750e+02,-2.343034982681274414e+00,7.562364959716796875e+01,3.135619926452636719e+01
6.048489809036254883e-01,1.000000000000000000e+00,1.604251742362976074e+00,-4.273660659790039062e+00,4.649109840393066406e+00,-2.021640319824218750e+02,-9.309332275390625000e+01,-1.733096771240234375e+02,4.033146500587463379e-01,-6.667523193359375000e+01,-1.826890411376953125e+02,-2.343106746673583984e+00,7.562364959716796875e+01,3.135619926452636719e+01
6.081659793853759766e-01,1.000000000000000000e+00,1.477339029312133789e+00,-4.164742469787597656e+00,4.664602756500244141e+00,-2.020529022216796875e+02,-9.294302368164062500e+01,-1.731774902343750000e+02,4.033146500587463379e-01,-6.667523193359375000e+01,-1.826890411376953125e+02,-2.342891216278076172e+00,7.562364959716796875e+01,3.135619926452636719e+01
6.129220128059387207e-01,1.000000000000000000e+00,1.413982987403869629e+00,-4.109978199005126953e+00,4.672552585601806641e+00,-2.019963226318359375e+02,-9.286646270751953125e+01,-1.731121826171875000e+02,4.033146500587463379e-01,-6.667523193359375000e+01,-1.826890411376953125e+02,-2.343178272247314453e+00,7.562364959716796875e+01,3.135619926452636719e+01
6.163430213928222656e-01,1.000000000000000000e+00,1.350770711898803711e+00,-4.055259227752685547e+00,4.680440902709960938e+00,-2.019406585693359375e+02,-9.279150390625000000e+01,-1.730470123291015625e+02,4.033146500587463379e-01,-6.667523193359375000e+01,-1.826889343261718750e+02,-2.343034982681274414e+00,7.562364959716796875e+01,3.135619926452636719e+01
6.198689937591552734e-01,1.000000000000000000e+00,1.287385940551757812e+00,-4.000494956970214844e+00,4.687963962554931641e+00,-2.018842926025390625e+02,-9.271621704101562500e+01,-1.729806213378906250e+02,4.033146500587463379e-01,-6.667523193359375000e+01,-1.826890411376953125e+02,-2.342891216278076172e+00,7.562364959716796875e+01,3.135619926452636719e+01
6.238899827003479004e-01,1.000000000000000000e+00,1.287385940551757812e+00,-4.000494956970214844e+00,4.687963962554931641e+00,-2.018842926025390625e+02,-9.271621704101562500e+01,-1.729806213378906250e+02,4.033146500587463379e-01,-6.667523193359375000e+01,-1.826890411376953125e+02,-2.342891216278076172e+00,7.562364959716796875e+01,3.135619926452636719e+01
6.279450058937072754e-01,1.000000000000000000e+00,1.223915219306945801e+00,-3.945798158645629883e+00,4.695262908935546875e+00,-2.018280792236328125e+02,-9.264109802246093750e+01,-1.729154510498046875e+02,4.033146500587463379e-01,-6.667523193359375000e+01,-1.826890411376953125e+02,-2.343034982681274414e+00,7.562364959716796875e+01,3.135619926452636719e+01
6.318939924240112305e-01,1.000000000000000000e+00,1.160473108291625977e+00,-3.891192197799682617e+00,4.702440261840820312e+00,-2.017730865478515625e+02,-9.256485748291015625e+01,-1.728491210937500000e+02,4.033146500587463379e-01,-6.667523193359375000e+01,-1.826890411376953125e+02,-2.343034982681274414e+00,7.562372589111328125e+01,3.135598182678222656e+01
6.359320282936096191e-01,1.000000000000000000e+00,1.096973657608032227e+00,-3.836518049240112305e+00,4.709800243377685547e+00,-2.017168426513671875e+02,-9.248941040039062500e+01,-1.727832641601562500e+02,4.033146500587463379e-01,-6.667523193359375000e+01,-1.826890411376953125e+02,-2.343034982681274414e+00,7.562364959716796875e+01,3.135598182678222656e+01
6.399629712104797363e-01,1.000000000000000000e+00,1.033388137817382812e+00,-3.782048225402832031e+00,4.717505931854248047e+00,-2.016611633300781250e+02,-9.241487884521484375e+01,-1.727180938720703125e+02,4.033146500587463379e-01,-6.667523193359375000e+01,-1.826890411376953125e+02,-2.343034982681274414e+00,7.562364959716796875e+01,3.135619926452636719e+01
6.438729763031005859e-01,1.000000000000000000e+00,9.700608253479003906e-01,-3.727351665496826172e+00,4.725293159484863281e+00,-2.016049957275390625e+02,-9.233948516845703125e+01,-1.726519165039062500e+02,4.033146500587463379e-01,-6.667531585693359375e+01,-1.826890411376953125e+02,-2.343034982681274414e+00,7.562364959716796875e+01,3.135619926452636719e+01
6.478700041770935059e-01,1.000000000000000000e+00,9.066474437713623047e-01,-3.672723054885864258e+00,4.732998847961425781e+00,-2.015490112304687500e+02,-9.226350402832031250e+01,-1.725859375000000000e+02,4.033146500587463379e-01,-6.667531585693359375e+01,-1.826889343261718750e+02,-2.343106746673583984e+00,7.562364959716796875e+01,3.135619926452636719e+01
6.519709825515747070e-01,1.000000000000000000e+00,8.432628512382507324e-01,-3.618252515792846680e+00,4.740541934967041016e+00,-2.014937591552734375e+02,-9.218822479248046875e+01,-1.725210876464843750e+02,4.033146500587463379e-01,-6.667523193359375000e+01,-1.826890411376953125e+02,-2.343034982681274414e+00,7.562364959716796875e+01,3.135619926452636719e+01
6.558920145034790039e-01,1.000000000000000000e+00,7.798207998275756836e-01,-3.563737154006958008e+00,4.747841358184814453e+00,-2.014377136230468750e+02,-9.211326599121093750e+01,-1.724544982910156250e+02,4.033146500587463379e-01,-6.667523193359375000e+01,-1.826889343261718750e+02,-2.342891216278076172e+00,7.562372589111328125e+01,3.135619926452636719e+01
6.598880290985107422e-01,1.000000000000000000e+00,7.167232036590576172e-01,-3.509380102157592773e+00,4.755099773406982422e+00,-2.013821411132812500e+02,-9.203814697265625000e+01,-1.723893127441406250e+02,4.033146500587463379e-01,-6.667523193359375000e+01,-1.826890411376953125e+02,-2.343034982681274414e+00,7.562364959716796875e+01,3.135619926452636719e+01
6.639140248298645020e-01,1.000000000000000000e+00,6.533385515213012695e-01,-3.454955101013183594e+00,4.762500286102294922e+00,-2.013259887695312500e+02,-9.196233367919921875e+01,-1.723242950439453125e+02,4.033146500587463379e-01,-6.667523193359375000e+01,-1.826890411376953125e+02,-2.343106746673583984e+00,7.562364959716796875e+01,3.135598182678222656e+01
6.678860187530517578e-01,1.000000000000000000e+00,5.898965001106262207e-01,-3.400530338287353516e+00,4.770328044891357422e+00,-2.012698516845703125e+02,-9.188667297363281250e+01,-1.722583007812500000e+02,4.033146500587463379e-01,-6.667523193359375000e+01,-1.826890411376953125e+02,-2.343034982681274414e+00,7.562364959716796875e+01,3.135619926452636719e+01
6.718689799308776855e-01,1.000000000000000000e+00,5.266840457916259766e-01,-3.346014738082885742e+00,4.778196334838867188e+00,-2.012145385742187500e+02,-9.181198120117187500e+01,-1.721929931640625000e+02,4.033146500587463379e-01,-6.667523193359375000e+01,-1.826889343261718750e+02,-2.343106746673583984e+00,7.562364959716796875e+01,3.135619926452636719e+01
6.759399771690368652e-01,1.000000000000000000e+00,4.632419943809509277e-01,-3.291363477706909180e+00,4.785983562469482422e+00,-2.011587524414062500e+02,-9.173637390136718750e+01,-1.721274871826171875e+02,4.033146500587463379e-01,-6.667523193359375000e+01,-1.826890411376953125e+02,-2.343034982681274414e+00,7.562364959716796875e+01,3.135619926452636719e+01
6.798859834671020508e-01,1.000000000000000000e+00,3.998860716819763184e-01,-3.236961126327514648e+00,4.793790817260742188e+00,-2.011027069091796875e+02,-9.166103363037109375e+01,-1.720609436035156250e+02,4.033146500587463379e-01,-6.667523193359375000e+01,-1.826890411376953125e+02,-2.343034982681274414e+00,7.562364959716796875e+01,3.135619926452636719e+01
6.839050054550170898e-01,1.000000000000000000e+00,3.364439904689788818e-01,-3.182332515716552734e+00,4.801313400268554688e+00,-2.010468597412109375e+02,-9.158565521240234375e+01,-1.719959869384765625e+02,4.033146500587463379e-01,-6.667523193359375000e+01,-1.826890411376953125e+02,-2.342891216278076172e+00,7.562364959716796875e+01,3.135619926452636719e+01
6.879490017890930176e-01,1.000000000000000000e+00,2.728584110736846924e-01,-3.127703905105590820e+00,4.808632850646972656e+00,-2.009908294677734375e+02,-9.151106262207031250e+01,-1.719303436279296875e+02,4.033146500587463379e-01,-6.667523193359375000e+01,-1.826889343261718750e+02,-2.343034982681274414e+00,7.562364959716796875e+01,3.135619926452636719e+01
6.918740272521972656e-01,1.000000000000000000e+00,2.091005742549896240e-01,-3.073097944259643555e+00,4.815952777862548828e+00,-2.009355773925781250e+02,-9.143556213378906250e+01,-1.718641510009765625e+02,4.033146500587463379e-01,-6.667523193359375000e+01,-1.826890411376953125e+02,-2.343034982681274414e+00,7.562364959716796875e+01,3.135619926452636719e+01
6.959019899368286133e-01,1.000000000000000000e+00,1.452278941869735718e-01,-3.018559932708740234e+00,4.823353290557861328e+00,-2.008796844482421875e+02,-9.136022949218750000e+01,-1.717990570068359375e+02,4.033146500587463379e-01,-6.667523193359375000e+01,-1.826890411376953125e+02,-2.343034982681274414e+00,7.562364959716796875e+01,3.135619926452636719e+01
6.999390125274658203e-01,1.000000000000000000e+00,8.138394355773925781e-02,-2.963976383209228516e+00,4.831099987030029297e+00,-2.008235931396484375e+02,-9.128488922119140625e+01,-1.717332000732421875e+02,4.033146500587463379e-01,-6.667523193359375000e+01,-1.826890411376953125e+02,-2.343034982681274414e+00,7.562364959716796875e+01,3.135619926452636719e+01
7.038980126380920410e-01,1.000000000000000000e+00,1.776964217424392700e-02,-2.909393072128295898e+00,4.838805675506591797e+00,-2.007682189941406250e+02,-9.121057128906250000e+01,-1.716673431396484375e+02,4.033146500587463379e-01,-6.667523193359375000e+01,-1.826889343261718750e+02,-2.343034982681274414e+00,7.562364959716796875e+01,3.135619926452636719e+01
7.078890204429626465e-01,1.000000000000000000e+00,-4.581595584750175476e-02,-2.854922771453857422e+00,4.846389293670654297e+00,-2.007119750976562500e+02,-9.113512420654296875e+01,-1.716026458740234375e+02,4.033146500587463379e-01,-6.667523193359375000e+01,-1.826890411376953125e+02,-2.343034982681274414e+00,7.562364959716796875e+01,3.135619926452636719e+01
7.122169733047485352e-01,1.000000000000000000e+00,-1.091718971729278564e-01,-2.800475358963012695e+00,4.853871345520019531e+00,-2.006565093994140625e+02,-9.106027221679687500e+01,-1.715365905761718750e+02,4.033146500587463379e-01,-6.667523193359375000e+01,-1.826889343261718750e+02,-2.343106746673583984e+00,7.562364959716796875e+01,3.135619926452636719e+01
7.153949737548828125e-01,1.000000000000000000e+00,-1.728436052799224854e-01,-2.745959758758544922e+00,4.861272335052490234e+00,-2.006006164550781250e+02,-9.098509216308593750e+01,-1.714704132080078125e+02,4.033146500587463379e-01,-6.667523193359375000e+01,-1.826889343261718750e+02,-2.343034982681274414e+00,7.562364959716796875e+01,3.135619926452636719e+01
7.198759913444519043e-01,1.000000000000000000e+00,-2.364579290151596069e-01,-2.691557407379150391e+00,4.868591785430908203e+00,-2.005449981689453125e+02,-9.090975952148437500e+01,-1.714056549072265625e+02,4.033146500587463379e-01,-6.667523193359375000e+01,-1.826890411376953125e+02,-2.343034982681274414e+00,7.562364959716796875e+01,3.135619926452636719e+01
7.239509820938110352e-01,1.000000000000000000e+00,-2.998712658882141113e-01,-2.636996746063232422e+00,4.876033306121826172e+00,-2.004899444580078125e+02,-9.083458709716796875e+01,-1.713397216796875000e+02,4.033146500587463379e-01,-6.667523193359375000e+01,-1.826890411376953125e+02,-2.343034982681274414e+00,7.562364959716796875e+01,3.135619926452636719e+01
7.281609773635864258e-01,1.000000000000000000e+00,-3.633420467376708984e-01,-2.582390785217285156e+00,4.883718490600585938e+00,-2.004333801269531250e+02,-9.075988769531250000e+01,-1.712741394042968750e+02,4.033146500587463379e-01,-6.667523193359375000e+01,-1.826889343261718750e+02,-2.343034982681274414e+00,7.562364959716796875e+01,3.135619926452636719e+01
7.315599918365478516e-01,1.000000000000000000e+00,-4.267553985118865967e-01,-2.527648925781250000e+00,4.891525745391845703e+00,-2.003777465820312500e+02,-9.068514251708984375e+01,-1.712090301513671875e+02,4.033146500587463379e-01,-6.667523193359375000e+01,-1.826890411376953125e+02,-2.343034982681274414e+00,7.562364959716796875e+01,3.135619926452636719e+01
7.365869879722595215e-01,1.000000000000000000e+00,-4.902261495590209961e-01,-2.473042964935302734e+00,4.899292469024658203e+00,-2.003222351074218750e+02,-9.060997009277343750e+01,-1.711428527832031250e+02,4.033146500587463379e-01,-6.667523193359375000e+01,-1.826890411376953125e+02,-2.343034982681274414e+00,7.562364959716796875e+01,3.135619926452636719e+01
7.402650117874145508e-01,1.000000000000000000e+00,-5.535534024238586426e-01,-2.418527603149414062e+00,4.907079696655273438e+00,-2.002660827636718750e+02,-9.053440856933593750e+01,-1.710771942138671875e+02,4.033146500587463379e-01,-6.667523193359375000e+01,-1.826890411376953125e+02,-2.343034982681274414e+00,7.562364959716796875e+01,3.135619926452636719e+01
7.437049746513366699e-01,1.000000000000000000e+00,-6.171677112579345703e-01,-2.363853693008422852e+00,4.914602279663085938e+00,-2.002105102539062500e+02,-9.045967102050781250e+01,-1.710115661621093750e+02,4.033146500587463379e-01,-6.667523193359375000e+01,-1.826889343261718750e+02,-2.343106746673583984e+00,7.562364959716796875e+01,3.135619926452636719e+01
7.478960156440734863e-01,1.000000000000000000e+00,-6.808106899261474609e-01,-2.309451341629028320e+00,4.921799659729003906e+00,-2.001544189453125000e+02,-9.038486480712890625e+01,-1.709451751708984375e+02,4.033146500587463379e-01,-6.667523193359375000e+01,-1.826889343261718750e+02,-2.343106746673583984e+00,7.562364959716796875e+01,3.135619926452636719e+01
7.519519925117492676e-01,1.000000000000000000e+00,-7.444250583648681641e-01,-2.254867792129516602e+00,4.929038047790527344e+00,-2.000987396240234375e+02,-9.030984497070312500e+01,-1.708804016113281250e+02,4.033146500587463379e-01,-6.667531585693359375e+01,-1.826890411376953125e+02,-2.343034982681274414e+00,7.562372589111328125e+01,3.135619926452636719e+01
7.558739781379699707e-01,1.000000000000000000e+00,-8.078671097755432129e-01,-2.200193881988525391e+00,4.936540603637695312e+00,-2.000434875488281250e+02,-9.023424530029296875e+01,-1.708146209716796875e+02,4.033146500587463379e-01,-6.667531585693359375e+01,-1.826890411376953125e+02,-2.343034982681274414e+00,7.562364959716796875e+01,3.135619926452636719e+01
7.605410218238830566e-01,1.000000000000000000e+00,-8.714526891708374023e-01,-2.145836830139160156e+00,4.944266319274902344e+00,-1.999872894287109375e+02,-9.015896606445312500e+01,-1.707484283447265625e+02,4.033146500587463379e-01,-6.667523193359375000e+01,-1.826890411376953125e+02,-2.343034982681274414e+00,7.562372589111328125e+01,3.135619926452636719e+01
7.644670009613037109e-01,1.000000000000000000e+00,-9.351243972778320312e-01,-2.091276407241821289e+00,4.952053546905517578e+00,-1.999318084716796875e+02,-9.008415985107421875e+01,-1.706833343505859375e+02,4.033146500587463379e-01,-6.667523193359375000e+01,-1.826890411376953125e+02,-2.343034982681274414e+00,7.562364959716796875e+01,3.135619926452636719e+01
7.678729891777038574e-01,1.000000000000000000e+00,-9.982794523239135742e-01,-2.037077426910400391e+00,4.959738731384277344e+00,-1.998756713867187500e+02,-9.000898742675781250e+01,-1.706165313720703125e+02,4.033146500587463379e-01,-6.667523193359375000e+01,-1.826889343261718750e+02,-2.343106746673583984e+00,7.562364959716796875e+01,3.135619926452636719e+01
7.718790173530578613e-01,1.000000000000000000e+00,-1.061463117599487305e+00,-1.982675194740295410e+00,4.967241287231445312e+00,-1.998197784423828125e+02,-8.993327331542968750e+01,-1.705508728027343750e+02,4.033146500587463379e-01,-6.667523193359375000e+01,-1.826890411376953125e+02,-2.342891216278076172e+00,7.562364959716796875e+01,3.135619926452636719e+01
7.759439945220947266e-01,1.000000000000000000e+00,-1.124962568283081055e+00,-1.928318262100219727e+00,4.974601268768310547e+00,-1.997645874023437500e+02,-8.985825347900390625e+01,-1.704865264892578125e+02,4.033146500587463379e-01,-6.667523193359375000e+01,-1.826889343261718750e+02,-2.343178272247314453e+00,7.562364959716796875e+01,3.135619926452636719e+01
7.799440026283264160e-01,1.000000000000000000e+00,-1.188232421875000000e+00,-1.873825311660766602e+00,4.981880187988281250e+00,-1.997085876464843750e+02,-8.978319549560546875e+01,-1.704200592041015625e+02,4.033146500587463379e-01,-6.667523193359375000e+01,-1.826890411376953125e+02,-2.343034982681274414e+00,7.562372589111328125e+01,3.135619926452636719e+01
7.839570045471191406e-01,1.000000000000000000e+00,-1.251473426818847656e+00,-1.819287300109863281e+00,4.989301681518554688e+00,-1.996529541015625000e+02,-8.970785522460937500e+01,-1.703542022705078125e+02,4.033146500587463379e-01,-6.667523193359375000e+01,-1.826890411376953125e+02,-2.343106746673583984e+00,7.562364959716796875e+01,3.135619926452636719e+01
7.886199951171875000e-01,1.000000000000000000e+00,-1.314628481864929199e+00,-1.764862179756164551e+00,4.997068405151367188e+00,-1.995972290039062500e+02,-8.963225555419921875e+01,-1.702892456054687500e+02,4.033146500587463379e-01,-6.667523193359375000e+01,-1.826889343261718750e+02,-2.343106746673583984e+00,7.562372589111328125e+01,3.135619926452636719e+01
7.919769883155822754e-01,1.000000000000000000e+00,-1.378013253211975098e+00,-1.710233569145202637e+00,5.004936695098876953e+00,-1.995413360595703125e+02,-8.955750274658203125e+01,-1.702230529785156250e+02,4.033146500587463379e-01,-6.667523193359375000e+01,-1.826890411376953125e+02,-2.343106746673583984e+00,7.562364959716796875e+01,3.135619926452636719e+01
7.959420084953308105e-01,1.000000000000000000e+00,-1.441397786140441895e+00,-1.655582427978515625e+00,5.012744426727294922e+00,-1.994860839843750000e+02,-8.948237609863281250e+01,-1.701579437255859375e+02,4.033146500587463379e-01,-6.667531585693359375e+01,-1.826890411376953125e+02,-2.343034982681274414e+00,7.562364959716796875e+01,3.135619926452636719e+01
8.000779747962951660e-01,1.000000000000000000e+00,-1.504524111747741699e+00,-1.601112127304077148e+00,5.020328044891357422e+00,-1.994300994873046875e+02,-8.940709686279296875e+01,-1.700927124023437500e+02,4.033146500587463379e-01,-6.667523193359375000e+01,-1.826890411376953125e+02,-2.343034982681274414e+00,7.562364959716796875e+01,3.135642242431640625e+01
8.040779829025268555e-01,1.000000000000000000e+00,-1.567994832992553711e+00,-1.546687126159667969e+00,5.027688026428222656e+00,-1.993740081787109375e+02,-8.933117675781250000e+01,-1.700268554687500000e+02,4.033146500587463379e-01,-6.667523193359375000e+01,-1.826889343261718750e+02,-2.343034982681274414e+00,7.562364959716796875e+01,3.135619926452636719e+01
8.092979788780212402e-01,1.000000000000000000e+00,-1.631551742553710938e+00,-1.492216944694519043e+00,5.034986972808837891e+00,-1.993183288574218750e+02,-8.925631713867187500e+01,-1.699617614746093750e+02,4.033146500587463379e-01,-6.667523193359375000e+01,-1.826889343261718750e+02,-2.343034982681274414e+00,7.562364959716796875e+01,3.135619926452636719e+01
8.127970099449157715e-01,1.000000000000000000e+00,-1.694821596145629883e+00,-1.437724113464355469e+00,5.042285919189453125e+00,-1.992624969482421875e+02,-8.918114471435546875e+01,-1.698957672119140625e+02,4.033146500587463379e-01,-6.667523193359375000e+01,-1.826890411376953125e+02,-2.343034982681274414e+00,7.562364959716796875e+01,3.135619926452636719e+01
8.160430192947387695e-01,1.000000000000000000e+00,-1.758206129074096680e+00,-1.383231282234191895e+00,5.049910545349121094e+00,-1.992070159912109375e+02,-8.910537719726562500e+01,-1.698293762207031250e+02,4.033146500587463379e-01,-6.667523193359375000e+01,-1.826889343261718750e+02,-2.343106746673583984e+00,7.562364959716796875e+01,3.135619926452636719e+01
8.198410272598266602e-01,1.000000000000000000e+00,-1.821562170982360840e+00,-1.328760981559753418e+00,5.057595729827880859e+00,-1.991509246826171875e+02,-8.902940368652343750e+01,-1.697643432617187500e+02,4.033146500587463379e-01,-6.667513275146484375e+01,-1.826889343261718750e+02,-2.343106746673583984e+00,7.562372589111328125e+01,3.135619926452636719e+01
8.242909908294677734e-01,1.000000000000000000e+00,-1.884975552558898926e+00,-1.274177670478820801e+00,5.065159320831298828e+00,-1.990952453613281250e+02,-8.895487213134765625e+01,-1.696986846923828125e+02,4.033146500587463379e-01,-6.667523193359375000e+01,-1.826889343261718750e+02,-2.343034982681274414e+00,7.562364959716796875e+01,3.135619926452636719e+01
8.268849849700927734e-01,1.000000000000000000e+00,-1.948187947273254395e+00,-1.219888567924499512e+00,5.072681903839111328e+00,-1.990397949218750000e+02,-8.887990570068359375e+01,-1.696331176757812500e+02,4.033146500587463379e-01,-6.667523193359375000e+01,-1.826889343261718750e+02,-2.343106746673583984e+00,7.562372589111328125e+01,3.135619926452636719e+01
8.308969736099243164e-01,1.000000000000000000e+00,-2.011142015457153320e+00,-1.165667176246643066e+00,5.080103397369384766e+00,-1.989838562011718750e+02,-8.880430603027343750e+01,-1.695680847167968750e+02,4.033146500587463379e-01,-6.667523193359375000e+01,-1.826889343261718750e+02,-2.343034982681274414e+00,7.562364959716796875e+01,3.135619926452636719e+01
8.370000123977661133e-01,1.000000000000000000e+00,-2.074383020401000977e+00,-1.111038565635681152e+00,5.087442874908447266e+00,-1.989282226562500000e+02,-8.872896575927734375e+01,-1.695018157958984375e+02,4.033146500587463379e-01,-6.667523193359375000e+01,-1.826890411376953125e+02,-2.343034982681274414e+00,7.562364959716796875e+01,3.135619926452636719e+01
8.388180136680603027e-01,1.000000000000000000e+00,-2.137710332870483398e+00,-1.056432604789733887e+00,5.094823360443115234e+00,-1.988722839355468750e+02,-8.865395355224609375e+01,-1.694361724853515625e+02,4.033146500587463379e-01,-6.667523193359375000e+01,-1.826889343261718750e+02,-2.343034982681274414e+00,7.562364959716796875e+01,3.135619926452636719e+01
8.429239988327026367e-01,1.000000000000000000e+00,-2.200922727584838867e+00,-1.001736044883728027e+00,5.102447986602783203e+00,-1.988164367675781250e+02,-8.857946777343750000e+01,-1.693715515136718750e+02,4.033146500587463379e-01,-6.667523193359375000e+01,-1.826889343261718750e+02,-2.343034982681274414e+00,7.562364959716796875e+01,3.135619926452636719e+01
8.468210101127624512e-01,1.000000000000000000e+00,-2.264135122299194336e+00,-9.473338127136230469e-01,5.110214710235595703e+00,-1.987612915039062500e+02,-8.850381469726562500e+01,-1.693057556152343750e+02,4.033146500587463379e-01,-6.667513275146484375e+01,-1.826890411376953125e+02,-2.343034982681274414e+00,7.562364959716796875e+01,3.135619926452636719e+01
8.508920073509216309e-01,1.000000000000000000e+00,-2.327491044998168945e+00,-8.927730321884155273e-01,5.118083000183105469e+00,-1.987049255371093750e+02,-8.842853546142578125e+01,-1.692398986816406250e+02,4.033146500587463379e-01,-6.667523193359375000e+01,-1.826889343261718750e+02,-2.343106746673583984e+00,7.562364959716796875e+01,3.135619926452636719e+01
8.549219965934753418e-01,1.000000000000000000e+00,-2.390818357467651367e+00,-8.383480310440063477e-01,5.125911235809326172e+00,-1.986492462158203125e+02,-8.835356903076171875e+01,-1.691750793457031250e+02,4.033146500587463379e-01,-6.667523193359375000e+01,-1.826890411376953125e+02,-2.343034982681274414e+00,7.562364959716796875e+01,3.135619926452636719e+01
8.588290214538574219e-01,1.000000000000000000e+00,-2.454231739044189453e+00,-7.839230895042419434e-01,5.133494853973388672e+00,-1.985939941406250000e+02,-8.827860260009765625e+01,-1.691091003417968750e+02,4.033146500587463379e-01,-6.667523193359375000e+01,-1.826889343261718750e+02,-2.343034982681274414e+00,7.562364959716796875e+01,3.135619926452636719e+01
8.645489811897277832e-01,1.000000000000000000e+00,-2.517472743988037109e+00,-7.294302582740783691e-01,5.140753269195556641e+00,-1.985378570556640625e+02,-8.820301055908203125e+01,-1.690438537597656250e+02,4.033146500587463379e-01,-6.667523193359375000e+01,-1.826890411376953125e+02,-2.343106746673583984e+00,7.562372589111328125e+01,3.135619926452636719e+01
8.683599829673767090e-01,1.000000000000000000e+00,-2.581000804901123047e+00,-6.750957965850830078e-01,5.147970676422119141e+00,-1.984825439453125000e+02,-8.812793731689453125e+01,-1.689790802001953125e+02,4.033146500587463379e-01,-6.667523193359375000e+01,-1.826890411376953125e+02,-2.343106746673583984e+00,7.562364959716796875e+01,3.135619926452636719e+01
8.709020018577575684e-01,1.000000000000000000e+00,-2.644529104232788086e+00,-6.206708550453186035e-01,5.155371665954589844e+00,-1.984262390136718750e+02,-8.805302429199218750e+01,-1.689132995605468750e+02,4.033146500587463379e-01,-6.667523193359375000e+01,-1.826889343261718750e+02,-2.342891216278076172e+00,7.562364959716796875e+01,3.135619926452636719e+01
8.748120069503784180e-01,1.000000000000000000e+00,-2.707827568054199219e+00,-5.664269328117370605e-01,5.162975788116455078e+00,-1.983703002929687500e+02,-8.797859191894531250e+01,-1.688480682373046875e+02,4.033146500587463379e-01,-6.667523193359375000e+01,-1.826890411376953125e+02,-2.343034982681274414e+00,7.562364959716796875e+01,3.135619926452636719e+01
8.788849711418151855e-01,1.000000000000000000e+00,-2.771269559860229492e+00,-5.121151208877563477e-01,5.170722007751464844e+00,-1.983152008056640625e+02,-8.790277862548828125e+01,-1.687823486328125000e+02,4.033146500587463379e-01,-6.667523193359375000e+01,-1.826889343261718750e+02,-2.343106746673583984e+00,7.562364959716796875e+01,3.135619926452636719e+01
8.855050206184387207e-01,1.000000000000000000e+00,-2.834797859191894531e+00,-4.578033089637756348e-01,5.178366661071777344e+00,-1.982589416503906250e+02,-8.782803344726562500e+01,-1.687160339355468750e+02,4.033146500587463379e-01,-6.667523193359375000e+01,-1.826890411376953125e+02,-2.343106746673583984e+00,7.562364959716796875e+01,3.135619926452636719e+01
8.887010216712951660e-01,1.000000000000000000e+00,-2.898039102554321289e+00,-4.035367667675018311e-01,5.185706615447998047e+00,-1.982034149169921875e+02,-8.775301361083984375e+01,-1.686511230468750000e+02,4.033146500587463379e-01,-6.667523193359375000e+01,-1.826890411376953125e+02,-2.343106746673583984e+00,7.562372589111328125e+01,3.135619926452636719e+01
8.925549983978271484e-01,1.000000000000000000e+00,-2.961395025253295898e+00,-3.490665555000305176e-01,5.193066596984863281e+00,-1.981473846435546875e+02,-8.767852783203125000e+01,-1.685856781005859375e+02,4.033146500587463379e-01,-6.667523193359375000e+01,-1.826890411376953125e+02,-2.343034982681274414e+00,7.562364959716796875e+01,3.135619926452636719e+01
8.968870043754577637e-01,1.000000000000000000e+00,-3.024837017059326172e+00,-2.946642339229583740e-01,5.200325012207031250e+00,-1.980917510986328125e+02,-8.760308837890625000e+01,-1.685198211669921875e+02,4.033146500587463379e-01,-6.667523193359375000e+01,-1.826890411376953125e+02,-2.343034982681274414e+00,7.562364959716796875e+01,3.135619926452636719e+01
9.008510112762451172e-01,1.000000000000000000e+00,-3.088164091110229492e+00,-2.401487529277801514e-01,5.207603931427001953e+00,-1.980367584228515625e+02,-8.752823638916015625e+01,-1.684545898437500000e+02,4.033146500587463379e-01,-6.667523193359375000e+01,-1.826889343261718750e+02,-2.343034982681274414e+00,7.562364959716796875e+01,3.135619926452636719e+01
9.058099985122680664e-01,1.000000000000000000e+00,-3.151347875595092773e+00,-1.857011616230010986e-01,5.215228557586669922e+00,-1.979807128906250000e+02,-8.745305633544921875e+01,-1.683888092041015625e+02,4.033146500587463379e-01,-6.667523193359375000e+01,-1.826889343261718750e+02,-2.343106746673583984e+00,7.562350463867187500e+01,3.135619926452636719e+01
9.095879793167114258e-01,1.000000000000000000e+00,-3.214646577835083008e+00,-1.313214600086212158e-01,5.222974777221679688e+00,-1.979252014160156250e+02,-8.737815093994140625e+01,-1.683232269287109375e+02,4.033146500587463379e-01,-6.667523193359375000e+01,-1.826889343261718750e+02,-2.343034982681274414e+00,7.562364959716796875e+01,3.135619926452636719e+01
9.129030108451843262e-01,1.000000000000000000e+00,-3.278117418289184570e+00,-7.698702812194824219e-02,5.230741500854492188e+00,-1.978691101074218750e+02,-8.730265045166015625e+01,-1.682581329345703125e+02,4.033146500587463379e-01,-6.667523193359375000e+01,-1.826889343261718750e+02,-2.343106746673583984e+00,7.562364959716796875e+01,3.135619926452636719e+01
9.167919754981994629e-01,1.000000000000000000e+00,-3.341760396957397461e+00,-2.247154526412487030e-02,5.238508224487304688e+00,-1.978132629394531250e+02,-8.722833251953125000e+01,-1.681915893554687500e+02,4.033146500587463379e-01,-6.667523193359375000e+01,-1.826890411376953125e+02,-2.343106746673583984e+00,7.562364959716796875e+01,3.135619926452636719e+01
9.210019707679748535e-01,1.000000000000000000e+00,-3.405116081237792969e+00,3.193078190088272095e-02,5.246010780334472656e+00,-1.977581176757812500e+02,-8.715342712402343750e+01,-1.681262969970703125e+02,4.033146500587463379e-01,-6.667523193359375000e+01,-1.826889343261718750e+02,-2.343106746673583984e+00,7.562364959716796875e+01,3.135619926452636719e+01
9.250559806823730469e-01,1.000000000000000000e+00,-3.468500852584838867e+00,8.642363548278808594e-02,5.253431797027587891e+00,-1.977024841308593750e+02,-8.707824707031250000e+01,-1.680614013671875000e+02,4.033146500587463379e-01,-6.667523193359375000e+01,-1.826889343261718750e+02,-2.343034982681274414e+00,7.562364959716796875e+01,3.135619926452636719e+01
9.268580079078674316e-01,1.000000000000000000e+00,-3.532029151916503906e+00,1.407580673694610596e-01,5.260629177093505859e+00,-1.976465454101562500e+02,-8.700302124023437500e+01,-1.679951324462890625e+02,4.033146500587463379e-01,-6.667523193359375000e+01,-1.826890411376953125e+02,-2.343034982681274414e+00,7.562364959716796875e+01,3.135619926452636719e+01
9.310320019721984863e-01,1.000000000000000000e+00,-3.595499992370605469e+00,1.951151341199874878e-01,5.268111228942871094e+00,-1.975909271240234375e+02,-8.692864227294921875e+01,-1.679304351806640625e+02,4.033146500587463379e-01,-6.667523193359375000e+01,-1.826890411376953125e+02,-2.343034982681274414e+00,7.562364959716796875e+01,3.135619926452636719e+01
9.371579885482788086e-01,1.000000000000000000e+00,-3.658941745758056641e+00,2.493816763162612915e-01,5.275857925415039062e+00,-1.975350952148437500e+02,-8.685389709472656250e+01,-1.678650512695312500e+02,4.033146500587463379e-01,-6.667513275146484375e+01,-1.826889343261718750e+02,-2.343106746673583984e+00,7.562364959716796875e+01,3.135619926452636719e+01
9.389389753341674805e-01,1.000000000000000000e+00,-3.722269058227539062e+00,3.035803437232971191e-01,5.283583641052246094e+00,-1.974798431396484375e+02,-8.677866363525390625e+01,-1.677989349365234375e+02,4.033146500587463379e-01,-6.667523193359375000e+01,-1.826890411376953125e+02,-2.342891216278076172e+00,7.562364959716796875e+01,3.135619926452636719e+01
9.428849816322326660e-01,1.000000000000000000e+00,-3.785567522048950195e+00,3.580505549907684326e-01,5.291248798370361328e+00,-1.974239501953125000e+02,-8.670337677001953125e+01,-1.677341003417968750e+02,4.033146500587463379e-01,-6.667523193359375000e+01,-1.826890411376953125e+02,-2.343106746673583984e+00,7.562364959716796875e+01,3.135619926452636719e+01
9.469289779663085938e-01,1.000000000000000000e+00,-3.848808765411376953e+00,4.125660359859466553e-01,5.298649787902832031e+00,-1.973681640625000000e+02,-8.662815093994140625e+01,-1.676683807373046875e+02,4.033146500587463379e-01,-6.667523193359375000e+01,-1.826889343261718750e+02,-2.343034982681274414e+00,7.562364959716796875e+01,3.135619926452636719e+01
9.510390162467956543e-01,1.000000000000000000e+00,-3.912136077880859375e+00,4.671494066715240479e-01,5.306050300598144531e+00,-1.973127136230468750e+02,-8.655324554443359375e+01,-1.676021270751953125e+02,4.033146500587463379e-01,-6.667523193359375000e+01,-1.826890411376953125e+02,-2.343034982681274414e+00,7.562364959716796875e+01,3.135642242431640625e+01
9.548919796943664551e-01,1.000000000000000000e+00,-3.975492000579833984e+00,5.215517282485961914e-01,5.313390254974365234e+00,-1.972564544677734375e+02,-8.647763824462890625e+01,-1.675373077392578125e+02,4.033146500587463379e-01,-6.667523193359375000e+01,-1.826890411376953125e+02,-2.343106746673583984e+00,7.562364959716796875e+01,3.135619926452636719e+01
9.618690013885498047e-01,1.000000000000000000e+00,-4.038819313049316406e+00,5.759993195533752441e-01,5.320770740509033203e+00,-1.972012481689453125e+02,-8.640321350097656250e+01,-1.674718627929687500e+02,4.033146500587463379e-01,-6.667523193359375000e+01,-1.826890411376953125e+02,-2.343034982681274414e+00,7.562364959716796875e+01,3.135619926452636719e+01
9.638739824295043945e-01,1.000000000000000000e+00,-4.101916790008544922e+00,6.305600404739379883e-01,5.328476428985595703e+00,-1.971455230712890625e+02,-8.632819366455078125e+01,-1.674060821533203125e+02,4.033146500587463379e-01,-6.667523193359375000e+01,-1.826890411376953125e+02,-2.343034982681274414e+00,7.562372589111328125e+01,3.135619926452636719e+01
9.678379893302917480e-01,1.000000000000000000e+00,-4.165186405181884766e+00,6.847813129425048828e-01,5.336304187774658203e+00,-1.970899505615234375e+02,-8.625307464599609375e+01,-1.673409118652343750e+02,4.033146500587463379e-01,-6.667523193359375000e+01,-1.826890411376953125e+02,-2.343034982681274414e+00,7.562364959716796875e+01,3.135598182678222656e+01
9.709039926528930664e-01,1.000000000000000000e+00,-4.228456497192382812e+00,7.392967939376831055e-01,5.344070911407470703e+00,-1.970350036621093750e+02,-8.617736816406250000e+01,-1.672752532958984375e+02,4.033146500587463379e-01,-6.667523193359375000e+01,-1.826890411376953125e+02,-2.343034982681274414e+00,7.562364959716796875e+01,3.135619926452636719e+01
9.771940112113952637e-01,1.000000000000000000e+00,-4.228456497192382812e+00,7.392967939376831055e-01,5.344070911407470703e+00,-1.970350036621093750e+02,-8.617736816406250000e+01,-1.672752532958984375e+02,4.033146500587463379e-01,-6.667523193359375000e+01,-1.826890411376953125e+02,-2.343034982681274414e+00,7.562364959716796875e+01,3.135619926452636719e+01
9.794800281524658203e-01,1.000000000000000000e+00,-4.355082511901855469e+00,8.480335474014282227e-01,5.359035015106201172e+00,-1.969229736328125000e+02,-8.602780914306640625e+01,-1.671446990966796875e+02,4.033146500587463379e-01,-6.667523193359375000e+01,-1.826890411376953125e+02,-2.343106746673583984e+00,7.562364959716796875e+01,3.135619926452636719e+01
9.838110208511352539e-01,1.000000000000000000e+00,-4.418467044830322266e+00,9.023001194000244141e-01,5.366374969482421875e+00,-1.968677673339843750e+02,-8.595295715332031250e+01,-1.670783843994140625e+02,4.033146500587463379e-01,-6.667523193359375000e+01,-1.826889343261718750e+02,-2.343106746673583984e+00,7.562364959716796875e+01,3.135619926452636719e+01
9.868239760398864746e-01,1.000000000000000000e+00,-4.481678962707519531e+00,9.565214514732360840e-01,5.373694419860839844e+00,-1.968119354248046875e+02,-8.587703704833984375e+01,-1.670132141113281250e+02,4.033146500587463379e-01,-6.667523193359375000e+01,-1.826890411376953125e+02,-2.343034982681274414e+00,7.562364959716796875e+01,3.135598182678222656e+01
9.918730258941650391e-01,1.000000000000000000e+00,-4.481678962707519531e+00,9.565214514732360840e-01,5.373694419860839844e+00,-1.968119354248046875e+02,-8.587703704833984375e+01,-1.670132141113281250e+02,4.033146500587463379e-01,-6.667523193359375000e+01,-1.826890411376953125e+02,-2.343034982681274414e+00,7.562364959716796875e+01,3.135598182678222656e+01
9.948130249977111816e-01,1.000000000000000000e+00,-4.608477115631103516e+00,1.065054535865783691e+00,5.388882160186767578e+00,-1.967002105712890625e+02,-8.572764587402343750e+01,-1.668822631835937500e+02,4.033146500587463379e-01,-6.667513275146484375e+01,-1.826889343261718750e+02,-2.343034982681274414e+00,7.562364959716796875e+01,3.135619926452636719e+01
9.999089837074279785e-01,1.000000000000000000e+00,-4.608477115631103516e+00,1.065054535865783691e+00,5.388882160186767578e+00,-1.967002105712890625e+02,-8.572764587402343750e+01,-1.668822631835937500e+02,4.033146500587463379e-01,-6.667513275146484375e+01,-1.826889343261718750e+02,-2.343034982681274414e+00,7.562364959716796875e+01,3.135619926452636719e+01
1.003465056419372559e+00,1.000000000000000000e+00,-4.734701156616210938e+00,1.173791289329528809e+00,5.403887271881103516e+00,-1.965895385742187500e+02,-8.557685852050781250e+01,-1.667522583007812500e+02,4.033146500587463379e-01,-6.667531585693359375e+01,-1.826890411376953125e+02,-2.343106746673583984e+00,7.562364959716796875e+01,3.135642242431640625e+01
1.007863044738769531e+00,1.000000000000000000e+00,-4.797425270080566406e+00,1.228125810623168945e+00,5.411287784576416016e+00,-1.965335388183593750e+02,-8.550184631347656250e+01,-1.666860656738281250e+02,4.033146500587463379e-01,-6.667523193359375000e+01,-1.826890411376953125e+02,-2.343034982681274414e+00,7.562364959716796875e+01,3.135619926452636719e+01
1.010964035987854004e+00,1.000000000000000000e+00,-4.860609531402587891e+00,1.282663822174072266e+00,5.418587207794189453e+00,-1.964781951904296875e+02,-8.542741394042968750e+01,-1.666207580566406250e+02,4.033146500587463379e-01,-6.667523193359375000e+01,-1.826890411376953125e+02,-2.343106746673583984e+00,7.562364959716796875e+01,3.135619926452636719e+01
1.014943003654479980e+00,1.000000000000000000e+00,-4.860609531402587891e+00,1.282663822174072266e+00,5.418587207794189453e+00,-1.964781951904296875e+02,-8.542741394042968750e+01,-1.666207580566406250e+02,4.033146500587463379e-01,-6.667523193359375000e+01,-1.826890411376953125e+02,-2.343106746673583984e+00,7.562364959716796875e+01,3.135619926452636719e+01
1.022178053855895996e+00,1.000000000000000000e+00,-5.049557685852050781e+00,1.445735096931457520e+00,5.441074371337890625e+00,-1.963113708496093750e+02,-8.520215606689453125e+01,-1.664245758056640625e+02,4.033146500587463379e-01,-6.667523193359375000e+01,-1.826892089843750000e+02,-2.343034982681274414e+00,7.562364959716796875e+01,3.135642242431640625e+01
1.023529052734375000e+00,1.000000000000000000e+00,-5.049557685852050781e+00,1.445735096931457520e+00,5.441074371337890625e+00,-1.963113708496093750e+02,-8.520215606689453125e+01,-1.664245758056640625e+02,4.033146500587463379e-01,-6.667523193359375000e+01,-1.826892089843750000e+02,-2.343034982681274414e+00,7.562364959716796875e+01,3.135642242431640625e+01
1.027820944786071777e+00,1.000000000000000000e+00,-5.112740993499755859e+00,1.500069379806518555e+00,5.449044227600097656e+00,-1.962554321289062500e+02,-8.512751770019531250e+01,-1.663588562011718750e+02,4.033146500587463379e-01,-6.667523193359375000e+01,-1.826889343261718750e+02,-2.343034982681274414e+00,7.562364959716796875e+01,3.135619926452636719e+01
1.031862020492553711e+00,1.000000000000000000e+00,-5.175809860229492188e+00,1.554517030715942383e+00,5.456912517547607422e+00,-1.961999664306640625e+02,-8.505255889892578125e+01,-1.662930603027343750e+02,4.033146500587463379e-01,-6.667523193359375000e+01,-1.826889343261718750e+02,-2.343034982681274414e+00,7.562364959716796875e+01,3.135619926452636719e+01
1.034811019897460938e+00,1.000000000000000000e+00,-5.238907337188720703e+00,1.608828902244567871e+00,5.464557170867919922e+00,-1.961444396972656250e+02,-8.497695159912109375e+01,-1.662279052734375000e+02,4.033146500587463379e-01,-6.667523193359375000e+01,-1.826890411376953125e+02,-2.343106746673583984e+00,7.562364959716796875e+01,3.135619926452636719e+01
1.039926052093505859e+00,1.000000000000000000e+00,-5.238907337188720703e+00,1.608828902244567871e+00,5.464557170867919922e+00,-1.961444396972656250e+02,-8.497695159912109375e+01,-1.662279052734375000e+02,4.033146500587463379e-01,-6.667523193359375000e+01,-1.826890411376953125e+02,-2.343106746673583984e+00,7.562364959716796875e+01,3.135619926452636719e+01
1.042827010154724121e+00,1.000000000000000000e+00,-5.365418434143066406e+00,1.717294096946716309e+00,5.479033470153808594e+00,-1.960336151123046875e+02,-8.482707977294921875e+01,-1.660965270996093750e+02,4.033146500587463379e-01,-6.667523193359375000e+01,-1.826890411376953125e+02,-2.343034982681274414e+00,7.562364959716796875e+01,3.135619926452636719e+01
1.047857046127319336e+00,1.000000000000000000e+00,-5.365418434143066406e+00,1.717294096946716309e+00,5.479033470153808594e+00,-1.960336151123046875e+02,-8.482707977294921875e+01,-1.660965270996093750e+02,4.033146500587463379e-01,-6.667523193359375000e+01,-1.826890411376953125e+02,-2.343034982681274414e+00,7.562364959716796875e+01,3.135619926452636719e+01
1.051862955093383789e+00,1.000000000000000000e+00,-5.491872310638427734e+00,1.825804591178894043e+00,5.493977546691894531e+00,-1.959220581054687500e+02,-8.467694091796875000e+01,-1.659653778076171875e+02,4.033146500587463379e-01,-6.667523193359375000e+01,-1.826889343261718750e+02,-2.343034982681274414e+00,7.562364959716796875e+01,3.135619926452636719e+01
1.055827975273132324e+00,1.000000000000000000e+00,-5.555055618286132812e+00,1.880252003669738770e+00,5.501723766326904297e+00,-1.958662719726562500e+02,-8.460176086425781250e+01,-1.659003448486328125e+02,4.033146500587463379e-01,-6.667523193359375000e+01,-1.826890411376953125e+02,-2.343034982681274414e+00,7.562364959716796875e+01,3.135619926452636719e+01
1.059806942939758301e+00,1.000000000000000000e+00,-5.618153572082519531e+00,1.934722423553466797e+00,5.509327888488769531e+00,-1.958105468750000000e+02,-8.452749633789062500e+01,-1.658350219726562500e+02,4.033146500587463379e-01,-6.667523193359375000e+01,-1.826890411376953125e+02,-2.343034982681274414e+00,7.562364959716796875e+01,3.135619926452636719e+01
1.063881039619445801e+00,1.000000000000000000e+00,-5.681279659271240234e+00,1.989079356193542480e+00,5.516769409179687500e+00,-1.957552795410156250e+02,-8.445226287841796875e+01,-1.657693176269531250e+02,4.033146500587463379e-01,-6.667523193359375000e+01,-1.826889343261718750e+02,-2.342891216278076172e+00,7.562364959716796875e+01,3.135619926452636719e+01
1.066920995712280273e+00,1.000000000000000000e+00,-5.744291305541992188e+00,2.043391227722167969e+00,5.524068355560302734e+00,-1.956991424560546875e+02,-8.437714385986328125e+01,-1.657043457031250000e+02,4.033146500587463379e-01,-6.667513275146484375e+01,-1.826889343261718750e+02,-2.343034982681274414e+00,7.562364959716796875e+01,3.135619926452636719e+01
1.071877002716064453e+00,1.000000000000000000e+00,-5.744291305541992188e+00,2.043391227722167969e+00,5.524068355560302734e+00,-1.956991424560546875e+02,-8.437714385986328125e+01,-1.657043457031250000e+02,4.033146500587463379e-01,-6.667513275146484375e+01,-1.826889343261718750e+02,-2.343034982681274414e+00,7.562364959716796875e+01,3.135619926452636719e+01
1.075883984565734863e+00,1.000000000000000000e+00,-5.870801925659179688e+00,2.152195930480957031e+00,5.538605690002441406e+00,-1.955884246826171875e+02,-8.422743225097656250e+01,-1.655735931396484375e+02,4.033146500587463379e-01,-6.667523193359375000e+01,-1.826890411376953125e+02,-2.343034982681274414e+00,7.562364959716796875e+01,3.135619926452636719e+01
1.079854011535644531e+00,1.000000000000000000e+00,-5.934100627899169922e+00,2.206643581390380859e+00,5.546128749847412109e+00,-1.955324249267578125e+02,-8.415242004394531250e+01,-1.655086212158203125e+02,4.033146500587463379e-01,-6.667523193359375000e+01,-1.826889343261718750e+02,-2.343034982681274414e+00,7.562364959716796875e+01,3.135619926452636719e+01
1.085968017578125000e+00,1.000000000000000000e+00,-5.997370719909667969e+00,2.260932683944702148e+00,5.553773403167724609e+00,-1.954772338867187500e+02,-8.407766723632812500e+01,-1.654426422119140625e+02,4.033146500587463379e-01,-6.667523193359375000e+01,-1.826890411376953125e+02,-2.343106746673583984e+00,7.562364959716796875e+01,3.135619926452636719e+01
1.087504029273986816e+00,1.000000000000000000e+00,-6.060582637786865234e+00,2.315176486968994141e+00,5.561580657958984375e+00,-1.954213867187500000e+02,-8.400275421142578125e+01,-1.653767242431640625e+02,4.033146500587463379e-01,-6.667523193359375000e+01,-1.826889343261718750e+02,-2.343034982681274414e+00,7.562364959716796875e+01,3.135619926452636719e+01
1.091874003410339355e+00,1.000000000000000000e+00,-6.060582637786865234e+00,2.315176486968994141e+00,5.561580657958984375e+00,-1.954213867187500000e+02,-8.400275421142578125e+01,-1.653767242431640625e+02,4.033146500587463379e-01,-6.667523193359375000e+01,-1.826889343261718750e+02,-2.343034982681274414e+00,7.562364959716796875e+01,3.135619926452636719e+01
1.096897959709167480e+00,1.000000000000000000e+00,-6.123881340026855469e+00,2.369352579116821289e+00,5.569347381591796875e+00,-1.953657226562500000e+02,-8.392752838134765625e+01,-1.653122253417968750e+02,4.033146500587463379e-01,-6.667523193359375000e+01,-1.826890411376953125e+02,-2.343034982681274414e+00,7.562364959716796875e+01,3.135619926452636719e+01
1.100350975990295410e+00,1.000000000000000000e+00,-6.250765323638916016e+00,2.477817773818969727e+00,5.584352493286132812e+00,-1.952544097900390625e+02,-8.377749633789062500e+01,-1.651811523437500000e+02,4.033146500587463379e-01,-6.667523193359375000e+01,-1.826889343261718750e+02,-2.343034982681274414e+00,7.562364959716796875e+01,3.135619926452636719e+01
1.103749036788940430e+00,1.000000000000000000e+00,-6.314093112945556641e+00,2.531925916671752930e+00,5.591570377349853516e+00,-1.951992187500000000e+02,-8.370365142822265625e+01,-1.651164398193359375e+02,4.033146500587463379e-01,-6.667523193359375000e+01,-1.826889343261718750e+02,-2.343034982681274414e+00,7.562364959716796875e+01,3.135619926452636719e+01
1.107884049415588379e+00,1.000000000000000000e+00,-6.314093112945556641e+00,2.531925916671752930e+00,5.591570377349853516e+00,-1.951992187500000000e+02,-8.370365142822265625e+01,-1.651164398193359375e+02,4.033146500587463379e-01,-6.667523193359375000e+01,-1.826889343261718750e+02,-2.343034982681274414e+00,7.562364959716796875e+01,3.135619926452636719e+01
