rpiRobotics/ARM-21-02-F-19-Robot-Motion-Program/data_performance_abb/curve_2/curve_pose_opt2/greedy0.02/grad_result/real/run_4.csv
timestamp,cmd_num,J1,J2,J3,J4,J5,J6
1.409999968018382788e-04,-1.000000000000000000e+00,9.288291931152343750e+00,-1.082886981964111328e+01,3.840473651885986328e+00,-2.087334899902343750e+02,-1.021040725708007812e+02,-1.808818969726562500e+02,4.033146500587463379e-01,-6.667513275146484375e+01,-1.826890411376953125e+02,-2.343034982681274414e+00,7.562364959716796875e+01,3.135653114318847656e+01
4.300000146031379700e-03,1.000000000000000000e+00,9.288291931152343750e+00,-1.082886981964111328e+01,3.840473651885986328e+00,-2.087333221435546875e+02,-1.021039123535156250e+02,-1.808818969726562500e+02,4.033146500587463379e-01,-6.667523193359375000e+01,-1.826890411376953125e+02,-2.342891216278076172e+00,7.562364959716796875e+01,3.135653114318847656e+01
7.958999834954738617e-03,1.000000000000000000e+00,9.288291931152343750e+00,-1.082886981964111328e+01,3.840473651885986328e+00,-2.087333221435546875e+02,-1.021040725708007812e+02,-1.808817596435546875e+02,4.033146500587463379e-01,-6.667523193359375000e+01,-1.826889343261718750e+02,-2.343034982681274414e+00,7.562364959716796875e+01,3.135653114318847656e+01
1.183999981731176376e-02,1.000000000000000000e+00,9.288377761840820312e+00,-1.082882404327392578e+01,3.840473651885986328e+00,-2.087332153320312500e+02,-1.021039123535156250e+02,-1.808817596435546875e+02,4.033146500587463379e-01,-6.667531585693359375e+01,-1.826890411376953125e+02,-2.342891216278076172e+00,7.562364959716796875e+01,3.135653114318847656e+01
3.563399985432624817e-02,1.000000000000000000e+00,9.288291931152343750e+00,-1.082882404327392578e+01,3.840534687042236328e+00,-2.087333221435546875e+02,-1.021039123535156250e+02,-1.808818969726562500e+02,4.033146500587463379e-01,-6.667523193359375000e+01,-1.826889343261718750e+02,-2.343106746673583984e+00,7.562364959716796875e+01,3.135653114318847656e+01
3.715899959206581116e-02,1.000000000000000000e+00,9.288291931152343750e+00,-1.082882404327392578e+01,3.840534687042236328e+00,-2.087333221435546875e+02,-1.021039123535156250e+02,-1.808818969726562500e+02,4.033146500587463379e-01,-6.667523193359375000e+01,-1.826889343261718750e+02,-2.343106746673583984e+00,7.562364959716796875e+01,3.135653114318847656e+01
3.973300009965896606e-02,1.000000000000000000e+00,9.288377761840820312e+00,-1.082886981964111328e+01,3.840473651885986328e+00,-2.087334899902343750e+02,-1.021039123535156250e+02,-1.808817596435546875e+02,4.033146500587463379e-01,-6.667523193359375000e+01,-1.826889343261718750e+02,-2.343034982681274414e+00,7.562364959716796875e+01,3.135653114318847656e+01
4.546099901199340820e-02,1.000000000000000000e+00,9.288377761840820312e+00,-1.082886981964111328e+01,3.840473651885986328e+00,-2.087334899902343750e+02,-1.021040725708007812e+02,-1.808818969726562500e+02,4.033146500587463379e-01,-6.667523193359375000e+01,-1.826890411376953125e+02,-2.343034982681274414e+00,7.562364959716796875e+01,3.135653114318847656e+01
4.814499989151954651e-02,1.000000000000000000e+00,9.288291931152343750e+00,-1.082882404327392578e+01,3.840473651885986328e+00,-2.087335815429687500e+02,-1.021039123535156250e+02,-1.808818969726562500e+02,4.033146500587463379e-01,-6.667523193359375000e+01,-1.826890411376953125e+02,-2.343034982681274414e+00,7.562364959716796875e+01,3.135653114318847656e+01
4.952700063586235046e-02,1.000000000000000000e+00,9.288291931152343750e+00,-1.082882404327392578e+01,3.840473651885986328e+00,-2.087335815429687500e+02,-1.021039123535156250e+02,-1.808818969726562500e+02,4.033146500587463379e-01,-6.667523193359375000e+01,-1.826890411376953125e+02,-2.343034982681274414e+00,7.562364959716796875e+01,3.135653114318847656e+01
5.267399922013282776e-02,1.000000000000000000e+00,9.288147926330566406e+00,-1.082882404327392578e+01,3.840473651885986328e+00,-2.087334899902343750e+02,-1.021039123535156250e+02,-1.808818969726562500e+02,4.033146500587463379e-01,-6.667523193359375000e+01,-1.826890411376953125e+02,-2.343034982681274414e+00,7.562364959716796875e+01,3.135653114318847656e+01
5.608199909329414368e-02,1.000000000000000000e+00,9.287946701049804688e+00,-1.082853031158447266e+01,3.840473651885986328e+00,-2.087335815429687500e+02,-1.021039123535156250e+02,-1.808818969726562500e+02,4.033146500587463379e-01,-6.667523193359375000e+01,-1.826890411376953125e+02,-2.343034982681274414e+00,7.562364959716796875e+01,3.135675048828125000e+01
5.913700163364410400e-02,1.000000000000000000e+00,9.287946701049804688e+00,-1.082853031158447266e+01,3.840473651885986328e+00,-2.087335815429687500e+02,-1.021039123535156250e+02,-1.808818969726562500e+02,4.033146500587463379e-01,-6.667523193359375000e+01,-1.826890411376953125e+02,-2.343034982681274414e+00,7.562364959716796875e+01,3.135675048828125000e+01
6.081400066614151001e-02,1.000000000000000000e+00,9.286856651306152344e+00,-1.082785129547119141e+01,3.840473651885986328e+00,-2.087333221435546875e+02,-1.021039123535156250e+02,-1.808818969726562500e+02,4.033146500587463379e-01,-6.667523193359375000e+01,-1.826890411376953125e+02,-2.342891216278076172e+00,7.562364959716796875e+01,3.135653114318847656e+01
6.212199851870536804e-02,1.000000000000000000e+00,9.286856651306152344e+00,-1.082785129547119141e+01,3.840473651885986328e+00,-2.087333221435546875e+02,-1.021039123535156250e+02,-1.808818969726562500e+02,4.033146500587463379e-01,-6.667523193359375000e+01,-1.826890411376953125e+02,-2.342891216278076172e+00,7.562364959716796875e+01,3.135653114318847656e+01
6.572099775075912476e-02,1.000000000000000000e+00,9.284990310668945312e+00,-1.082647037506103516e+01,3.840473651885986328e+00,-2.087333221435546875e+02,-1.021038055419921875e+02,-1.808817596435546875e+02,4.033146500587463379e-01,-6.667523193359375000e+01,-1.826890411376953125e+02,-2.343034982681274414e+00,7.562364959716796875e+01,3.135653114318847656e+01
6.840799748897552490e-02,1.000000000000000000e+00,9.282549858093261719e+00,-1.082441139221191406e+01,3.840534687042236328e+00,-2.087334899902343750e+02,-1.021035461425781250e+02,-1.808817596435546875e+02,4.033146500587463379e-01,-6.667523193359375000e+01,-1.826890411376953125e+02,-2.343106746673583984e+00,7.562364959716796875e+01,3.135653114318847656e+01
6.966300308704376221e-02,1.000000000000000000e+00,9.282549858093261719e+00,-1.082441139221191406e+01,3.840534687042236328e+00,-2.087334899902343750e+02,-1.021035461425781250e+02,-1.808817596435546875e+02,4.033146500587463379e-01,-6.667523193359375000e+01,-1.826890411376953125e+02,-2.343106746673583984e+00,7.562364959716796875e+01,3.135653114318847656e+01
7.299000024795532227e-02,1.000000000000000000e+00,9.278818130493164062e+00,-1.082140159606933594e+01,3.840636253356933594e+00,-2.087333221435546875e+02,-1.021031112670898438e+02,-1.808816223144531250e+02,4.033146500587463379e-01,-6.667523193359375000e+01,-1.826890411376953125e+02,-2.343034982681274414e+00,7.562364959716796875e+01,3.135653114318847656e+01
7.736799865961074829e-02,1.000000000000000000e+00,9.278818130493164062e+00,-1.082140159606933594e+01,3.840636253356933594e+00,-2.087333221435546875e+02,-1.021031112670898438e+02,-1.808816223144531250e+02,4.033146500587463379e-01,-6.667523193359375000e+01,-1.826890411376953125e+02,-2.343034982681274414e+00,7.562364959716796875e+01,3.135653114318847656e+01
7.975099980831146240e-02,1.000000000000000000e+00,9.268598556518554688e+00,-1.081185150146484375e+01,3.841063261032104492e+00,-2.087322845458984375e+02,-1.020994949340820312e+02,-1.808807373046875000e+02,4.033146500587463379e-01,-6.667523193359375000e+01,-1.826889343261718750e+02,-2.343034982681274414e+00,7.562364959716796875e+01,3.135653114318847656e+01
8.112700283527374268e-02,1.000000000000000000e+00,9.268598556518554688e+00,-1.081185150146484375e+01,3.841063261032104492e+00,-2.087322845458984375e+02,-1.020994949340820312e+02,-1.808807373046875000e+02,4.033146500587463379e-01,-6.667523193359375000e+01,-1.826889343261718750e+02,-2.343034982681274414e+00,7.562364959716796875e+01,3.135653114318847656e+01
8.462300151586532593e-02,1.000000000000000000e+00,9.261421203613281250e+00,-1.080447387695312500e+01,3.841591596603393555e+00,-2.087297515869140625e+02,-1.020965042114257812e+02,-1.808785095214843750e+02,4.033146500587463379e-01,-6.667523193359375000e+01,-1.826890411376953125e+02,-2.343034982681274414e+00,7.562364959716796875e+01,3.135653114318847656e+01
8.764100074768066406e-02,1.000000000000000000e+00,9.261421203613281250e+00,-1.080447387695312500e+01,3.841591596603393555e+00,-2.087297515869140625e+02,-1.020965042114257812e+02,-1.808785095214843750e+02,4.033146500587463379e-01,-6.667523193359375000e+01,-1.826890411376953125e+02,-2.343034982681274414e+00,7.562364959716796875e+01,3.135653114318847656e+01
9.158600121736526489e-02,1.000000000000000000e+00,9.252609252929687500e+00,-1.079487895965576172e+01,3.842222213745117188e+00,-2.087260131835937500e+02,-1.020921859741210938e+02,-1.808745727539062500e+02,4.033146500587463379e-01,-6.667523193359375000e+01,-1.826890411376953125e+02,-2.342891216278076172e+00,7.562364959716796875e+01,3.135653114318847656e+01
9.651699662208557129e-02,1.000000000000000000e+00,9.241527557373046875e+00,-1.078308868408203125e+01,3.843014955520629883e+00,-2.087213287353515625e+02,-1.020856857299804688e+02,-1.808688812255859375e+02,4.033146500587463379e-01,-6.667523193359375000e+01,-1.826890411376953125e+02,-2.343106746673583984e+00,7.562364959716796875e+01,3.135653114318847656e+01
9.975100308656692505e-02,1.000000000000000000e+00,9.227834701538085938e+00,-1.076876449584960938e+01,3.844234943389892578e+00,-2.087147369384765625e+02,-1.020768814086914062e+02,-1.808612823486328125e+02,4.033146500587463379e-01,-6.667523193359375000e+01,-1.826892089843750000e+02,-2.343106746673583984e+00,7.562364959716796875e+01,3.135642242431640625e+01
1.037750020623207092e-01,1.000000000000000000e+00,9.211442947387695312e+00,-1.075190448760986328e+01,3.845759868621826172e+00,-2.087057800292968750e+02,-1.020652084350585938e+02,-1.808508300781250000e+02,4.033146500587463379e-01,-6.667523193359375000e+01,-1.826890411376953125e+02,-2.343106746673583984e+00,7.562364959716796875e+01,3.135653114318847656e+01
1.079609990119934082e-01,1.000000000000000000e+00,9.192008972167968750e+00,-1.073251152038574219e+01,3.847671031951904297e+00,-2.086942443847656250e+02,-1.020503845214843750e+02,-1.808380889892578125e+02,4.033146500587463379e-01,-6.667523193359375000e+01,-1.826890411376953125e+02,-2.343034982681274414e+00,7.562364959716796875e+01,3.135653114318847656e+01
1.119579970836639404e-01,1.000000000000000000e+00,9.170076370239257812e+00,-1.071117115020751953e+01,3.849846363067626953e+00,-2.086797180175781250e+02,-1.020318298339843750e+02,-1.808222045898437500e+02,4.033146500587463379e-01,-6.667523193359375000e+01,-1.826890411376953125e+02,-2.343106746673583984e+00,7.562364959716796875e+01,3.135653114318847656e+01
1.163740009069442749e-01,1.000000000000000000e+00,9.146019935607910156e+00,-1.068881225585937500e+01,3.852428674697875977e+00,-2.086623229980468750e+02,-1.020095443725585938e+02,-1.808024749755859375e+02,4.033146500587463379e-01,-6.667531585693359375e+01,-1.826890411376953125e+02,-2.342891216278076172e+00,7.562372589111328125e+01,3.135653114318847656e+01
1.199240013957023621e-01,1.000000000000000000e+00,9.119581222534179688e+00,-1.066532230377197266e+01,3.855275154113769531e+00,-2.086421966552734375e+02,-1.019824676513671875e+02,-1.807789459228515625e+02,4.033146500587463379e-01,-6.667523193359375000e+01,-1.826890411376953125e+02,-2.343034982681274414e+00,7.562364959716796875e+01,3.135653114318847656e+01
1.247240006923675537e-01,1.000000000000000000e+00,9.090386390686035156e+00,-1.064020347595214844e+01,3.858345270156860352e+00,-2.086190338134765625e+02,-1.019496154785156250e+02,-1.807515411376953125e+02,4.033146500587463379e-01,-6.667523193359375000e+01,-1.826890411376953125e+02,-2.343106746673583984e+00,7.562364959716796875e+01,3.135653114318847656e+01
1.279270052909851074e-01,1.000000000000000000e+00,9.058436393737792969e+00,-1.061329746246337891e+01,3.861720323562622070e+00,-2.085921020507812500e+02,-1.019119796752929688e+02,-1.807200164794921875e+02,4.033146500587463379e-01,-6.667523193359375000e+01,-1.826890411376953125e+02,-2.343106746673583984e+00,7.562364959716796875e+01,3.135653114318847656e+01
1.325269937515258789e-01,1.000000000000000000e+00,9.024016380310058594e+00,-1.058419418334960938e+01,3.865684747695922852e+00,-2.085611419677734375e+02,-1.018716735839843750e+02,-1.806831207275390625e+02,4.033146500587463379e-01,-6.667523193359375000e+01,-1.826890411376953125e+02,-2.343034982681274414e+00,7.562364959716796875e+01,3.135653114318847656e+01
1.360699981451034546e-01,1.000000000000000000e+00,8.986811637878417969e+00,-1.055350780487060547e+01,3.869954586029052734e+00,-2.085255889892578125e+02,-1.018273620605468750e+02,-1.806414184570312500e+02,4.033146500587463379e-01,-6.667523193359375000e+01,-1.826890411376953125e+02,-2.343106746673583984e+00,7.562364959716796875e+01,3.135653114318847656e+01
1.400260031223297119e-01,1.000000000000000000e+00,8.946909904479980469e+00,-1.052130603790283203e+01,3.874671697616577148e+00,-2.084867095947265625e+02,-1.017753829956054688e+02,-1.805970001220703125e+02,4.033146500587463379e-01,-6.667523193359375000e+01,-1.826890411376953125e+02,-2.343034982681274414e+00,7.562372589111328125e+01,3.135653114318847656e+01
1.445569992065429688e-01,1.000000000000000000e+00,8.904567718505859375e+00,-1.048738384246826172e+01,3.879673480987548828e+00,-2.084464263916015625e+02,-1.017198257446289062e+02,-1.805502014160156250e+02,4.033146500587463379e-01,-6.667523193359375000e+01,-1.826890411376953125e+02,-2.343106746673583984e+00,7.562364959716796875e+01,3.135653114318847656e+01
1.487769931554794312e-01,1.000000000000000000e+00,8.860186576843261719e+00,-1.045194530487060547e+01,3.884877920150756836e+00,-2.084035949707031250e+02,-1.016622467041015625e+02,-1.804996032714843750e+02,4.033146500587463379e-01,-6.667523193359375000e+01,-1.826890411376953125e+02,-2.342891216278076172e+00,7.562364959716796875e+01,3.135653114318847656e+01
1.521299928426742554e-01,1.000000000000000000e+00,8.813796997070312500e+00,-1.041460609436035156e+01,3.890469312667846680e+00,-2.083562927246093750e+02,-1.015998077392578125e+02,-1.804439239501953125e+02,4.033146500587463379e-01,-6.667523193359375000e+01,-1.826890411376953125e+02,-2.343106746673583984e+00,7.562364959716796875e+01,3.135653114318847656e+01
1.574340015649795532e-01,1.000000000000000000e+00,8.765338897705078125e+00,-1.037525272369384766e+01,3.896426677703857422e+00,-2.083066711425781250e+02,-1.015350875854492188e+02,-1.803856811523437500e+02,4.033146500587463379e-01,-6.667523193359375000e+01,-1.826890411376953125e+02,-2.342819452285766602e+00,7.562364959716796875e+01,3.135653114318847656e+01
1.603219956159591675e-01,1.000000000000000000e+00,8.714355468750000000e+00,-1.033354568481445312e+01,3.902831077575683594e+00,-2.082565307617187500e+02,-1.014668426513671875e+02,-1.803275604248046875e+02,4.033146500587463379e-01,-6.667523193359375000e+01,-1.826890411376953125e+02,-2.343106746673583984e+00,7.562364959716796875e+01,3.135653114318847656e+01
1.644989997148513794e-01,1.000000000000000000e+00,8.660789489746093750e+00,-1.028919124603271484e+01,3.909377813339233398e+00,-2.082044219970703125e+02,-1.013966217041015625e+02,-1.802664489746093750e+02,4.033146500587463379e-01,-6.667523193359375000e+01,-1.826892089843750000e+02,-2.342891216278076172e+00,7.562364959716796875e+01,3.135642242431640625e+01
1.683890074491500854e-01,1.000000000000000000e+00,8.605384826660156250e+00,-1.024261856079101562e+01,3.916067123413085938e+00,-2.081512298583984375e+02,-1.013252868652343750e+02,-1.802030487060546875e+02,4.033146500587463379e-01,-6.667523193359375000e+01,-1.826890411376953125e+02,-2.343106746673583984e+00,7.562364959716796875e+01,3.135653114318847656e+01
1.729310005903244019e-01,1.000000000000000000e+00,8.548487663269042969e+00,-1.019410037994384766e+01,3.922756195068359375e+00,-2.080972900390625000e+02,-1.012525634765625000e+02,-1.801403198242187500e+02,4.033146500587463379e-01,-6.667531585693359375e+01,-1.826890411376953125e+02,-2.343034982681274414e+00,7.562364959716796875e+01,3.135653114318847656e+01
1.764570027589797974e-01,1.000000000000000000e+00,8.490098953247070312e+00,-1.014399719238281250e+01,3.929527044296264648e+00,-2.080417175292968750e+02,-1.011797332763671875e+02,-1.800757598876953125e+02,4.033146500587463379e-01,-6.667523193359375000e+01,-1.826890411376953125e+02,-2.343034982681274414e+00,7.562364959716796875e+01,3.135653114318847656e+01
1.805289983749389648e-01,1.000000000000000000e+00,8.430331230163574219e+00,-1.009267234802246094e+01,3.936825990676879883e+00,-2.079863128662109375e+02,-1.011048278808593750e+02,-1.800101776123046875e+02,4.033146500587463379e-01,-6.667523193359375000e+01,-1.826890411376953125e+02,-2.343034982681274414e+00,7.562372589111328125e+01,3.135653114318847656e+01
1.845159977674484253e-01,1.000000000000000000e+00,8.369702339172363281e+00,-1.004010295867919922e+01,3.944125175476074219e+00,-2.079306335449218750e+02,-1.010290069580078125e+02,-1.799454040527343750e+02,4.033146500587463379e-01,-6.667523193359375000e+01,-1.826890411376953125e+02,-2.343034982681274414e+00,7.562364959716796875e+01,3.135653114318847656e+01
1.885119974613189697e-01,1.000000000000000000e+00,8.308154106140136719e+00,-9.986990928649902344e+00,3.951363086700439453e+00,-2.078750000000000000e+02,-1.009540405273437500e+02,-1.798786010742187500e+02,4.033146500587463379e-01,-6.667523193359375000e+01,-1.826890411376953125e+02,-2.343106746673583984e+00,7.562364959716796875e+01,3.135653114318847656e+01
1.925539970397949219e-01,1.000000000000000000e+00,8.245832443237304688e+00,-9.933154106140136719e+00,3.958703041076660156e+00,-2.078191833496093750e+02,-1.008786544799804688e+02,-1.798126983642578125e+02,4.033146500587463379e-01,-6.667523193359375000e+01,-1.826890411376953125e+02,-2.343106746673583984e+00,7.562364959716796875e+01,3.135653114318847656e+01
1.972430050373077393e-01,1.000000000000000000e+00,8.182705879211425781e+00,-9.878729820251464844e+00,3.966063022613525391e+00,-2.077627105712890625e+02,-1.008031082153320312e+02,-1.797477264404296875e+02,4.033146500587463379e-01,-6.667523193359375000e+01,-1.826890411376953125e+02,-2.343106746673583984e+00,7.562364959716796875e+01,3.135653114318847656e+01
2.003809958696365356e-01,1.000000000000000000e+00,8.119005203247070312e+00,-9.823784828186035156e+00,3.973545074462890625e+00,-2.077067108154296875e+02,-1.007266540527343750e+02,-1.796808624267578125e+02,4.033146500587463379e-01,-6.667523193359375000e+01,-1.826890411376953125e+02,-2.343106746673583984e+00,7.562364959716796875e+01,3.135653114318847656e+01
2.046439945697784424e-01,1.000000000000000000e+00,8.055075645446777344e+00,-9.768657684326171875e+00,3.981108665466308594e+00,-2.076504058837890625e+02,-1.006506271362304688e+02,-1.796146545410156250e+02,4.033146500587463379e-01,-6.667523193359375000e+01,-1.826889343261718750e+02,-2.342891216278076172e+00,7.562364959716796875e+01,3.135653114318847656e+01
2.085569947957992554e-01,1.000000000000000000e+00,7.990829467773437500e+00,-9.713599205017089844e+00,3.988814353942871094e+00,-2.075941009521484375e+02,-1.005749130249023438e+02,-1.795485382080078125e+02,4.033146500587463379e-01,-6.667523193359375000e+01,-1.826890411376953125e+02,-2.343106746673583984e+00,7.562364959716796875e+01,3.135653114318847656e+01
2.125599980354309082e-01,1.000000000000000000e+00,7.926755428314208984e+00,-9.658201217651367188e+00,3.996581077575683594e+00,-2.075388336181640625e+02,-1.004988861083984375e+02,-1.794820861816406250e+02,4.033146500587463379e-01,-6.667523193359375000e+01,-1.826889343261718750e+02,-2.343034982681274414e+00,7.562364959716796875e+01,3.135653114318847656e+01
2.153300046920776367e-01,1.000000000000000000e+00,7.862423896789550781e+00,-9.602915763854980469e+00,4.004469871520996094e+00,-2.074822235107421875e+02,-1.004223251342773438e+02,-1.794165649414062500e+02,4.033146500587463379e-01,-6.667523193359375000e+01,-1.826890411376953125e+02,-2.343034982681274414e+00,7.562364959716796875e+01,3.135653114318847656e+01
2.193579971790313721e-01,1.000000000000000000e+00,7.798062801361083984e+00,-9.547789573669433594e+00,4.012155055999755859e+00,-2.074261169433593750e+02,-1.003467254638671875e+02,-1.793511962890625000e+02,4.033146500587463379e-01,-6.667523193359375000e+01,-1.826890411376953125e+02,-2.343034982681274414e+00,7.562364959716796875e+01,3.135653114318847656e+01
2.233580052852630615e-01,1.000000000000000000e+00,7.734161376953125000e+00,-9.492617607116699219e+00,4.019921779632568359e+00,-2.073701782226562500e+02,-1.002709579467773438e+02,-1.792842559814453125e+02,4.033146500587463379e-01,-6.667523193359375000e+01,-1.826890411376953125e+02,-2.343034982681274414e+00,7.562364959716796875e+01,3.135653114318847656e+01
2.273650020360946655e-01,1.000000000000000000e+00,7.670202732086181641e+00,-9.437604904174804688e+00,4.027281761169433594e+00,-2.073135528564453125e+02,-1.001947708129882812e+02,-1.792188873291015625e+02,4.033146500587463379e-01,-6.667523193359375000e+01,-1.826890411376953125e+02,-2.343106746673583984e+00,7.562364959716796875e+01,3.135675048828125000e+01
2.313479930162429810e-01,1.000000000000000000e+00,7.606272697448730469e+00,-9.382658958435058594e+00,4.034581184387207031e+00,-2.072580413818359375e+02,-1.001182022094726562e+02,-1.791529693603515625e+02,4.033146500587463379e-01,-6.667523193359375000e+01,-1.826889343261718750e+02,-2.343034982681274414e+00,7.562364959716796875e+01,3.135653114318847656e+01
2.353529930114746094e-01,1.000000000000000000e+00,7.542284965515136719e+00,-9.327939987182617188e+00,4.041758537292480469e+00,-2.072017822265625000e+02,-1.000431900024414062e+02,-1.790865173339843750e+02,4.033146500587463379e-01,-6.667523193359375000e+01,-1.826890411376953125e+02,-2.343034982681274414e+00,7.562372589111328125e+01,3.135653114318847656e+01
2.393350005149841309e-01,1.000000000000000000e+00,7.478469848632812500e+00,-9.272858619689941406e+00,4.049321651458740234e+00,-2.071453704833984375e+02,-9.996726989746093750e+01,-1.790214080810546875e+02,4.033146500587463379e-01,-6.667523193359375000e+01,-1.826890411376953125e+02,-2.343034982681274414e+00,7.562364959716796875e+01,3.135653114318847656e+01
2.434249967336654663e-01,1.000000000000000000e+00,7.414999485015869141e+00,-9.217867851257324219e+00,4.056925773620605469e+00,-2.070894317626953125e+02,-9.989108276367187500e+01,-1.789555511474609375e+02,4.033146500587463379e-01,-6.667523193359375000e+01,-1.826889343261718750e+02,-2.343034982681274414e+00,7.562372589111328125e+01,3.135653114318847656e+01
2.473800033330917358e-01,1.000000000000000000e+00,7.351270198822021484e+00,-9.163058280944824219e+00,4.064550399780273438e+00,-2.070323181152343750e+02,-9.981420135498046875e+01,-1.788897705078125000e+02,4.033146500587463379e-01,-6.667523193359375000e+01,-1.826889343261718750e+02,-2.343106746673583984e+00,7.562364959716796875e+01,3.135653114318847656e+01
2.514190077781677246e-01,1.000000000000000000e+00,7.287742137908935547e+00,-9.108180999755859375e+00,4.071950912475585938e+00,-2.069766387939453125e+02,-9.973897552490234375e+01,-1.788241271972656250e+02,4.033146500587463379e-01,-6.667523193359375000e+01,-1.826892089843750000e+02,-2.342891216278076172e+00,7.562364959716796875e+01,3.135653114318847656e+01
2.554109990596771240e-01,1.000000000000000000e+00,7.224328517913818359e+00,-9.053483963012695312e+00,4.079250335693359375e+00,-2.069207611083984375e+02,-9.966267395019531250e+01,-1.787571868896484375e+02,4.033146500587463379e-01,-6.667523193359375000e+01,-1.826889343261718750e+02,-2.343106746673583984e+00,7.562364959716796875e+01,3.135653114318847656e+01
2.593669891357421875e-01,1.000000000000000000e+00,7.161029815673828125e+00,-8.998833656311035156e+00,4.086346149444580078e+00,-2.068643951416015625e+02,-9.958659362792968750e+01,-1.786913452148437500e+02,4.033146500587463379e-01,-6.667523193359375000e+01,-1.826890411376953125e+02,-2.343106746673583984e+00,7.562364959716796875e+01,3.135653114318847656e+01
2.633669972419738770e-01,1.000000000000000000e+00,7.097272396087646484e+00,-8.944272041320800781e+00,4.093502521514892578e+00,-2.068083648681640625e+02,-9.950981903076171875e+01,-1.786263122558593750e+02,4.033146500587463379e-01,-6.667523193359375000e+01,-1.826890411376953125e+02,-2.343034982681274414e+00,7.562364959716796875e+01,3.135653114318847656e+01
2.673479914665222168e-01,1.000000000000000000e+00,7.033772945404052734e+00,-8.889733314514160156e+00,4.100984573364257812e+00,-2.067518310546875000e+02,-9.943469238281250000e+01,-1.785596466064453125e+02,4.033146500587463379e-01,-6.667523193359375000e+01,-1.826890411376953125e+02,-2.343034982681274414e+00,7.562364959716796875e+01,3.135653114318847656e+01
2.713519930839538574e-01,1.000000000000000000e+00,6.970015048980712891e+00,-8.835173606872558594e+00,4.108609199523925781e+00,-2.066959991455078125e+02,-9.935882568359375000e+01,-1.784942626953125000e+02,4.033146500587463379e-01,-6.667523193359375000e+01,-1.826889343261718750e+02,-2.343034982681274414e+00,7.562364959716796875e+01,3.135653114318847656e+01
2.754240036010742188e-01,1.000000000000000000e+00,6.905855178833007812e+00,-8.780612945556640625e+00,4.116416931152343750e+00,-2.066401824951171875e+02,-9.928242492675781250e+01,-1.784284820556640625e+02,4.033146500587463379e-01,-6.667523193359375000e+01,-1.826890411376953125e+02,-2.343034982681274414e+00,7.562364959716796875e+01,3.135653114318847656e+01
2.793500125408172607e-01,1.000000000000000000e+00,6.841982364654541016e+00,-8.726051330566406250e+00,4.124041080474853516e+00,-2.065835418701171875e+02,-9.920633697509765625e+01,-1.783620147705078125e+02,4.033146500587463379e-01,-6.667523193359375000e+01,-1.826892089843750000e+02,-2.343034982681274414e+00,7.562364959716796875e+01,3.135653114318847656e+01
2.851429879665374756e-01,1.000000000000000000e+00,6.778052806854248047e+00,-8.671536445617675781e+00,4.131584167480468750e+00,-2.065279083251953125e+02,-9.913073730468750000e+01,-1.782967834472656250e+02,4.033146500587463379e-01,-6.667523193359375000e+01,-1.826890411376953125e+02,-2.343034982681274414e+00,7.562364959716796875e+01,3.135653114318847656e+01
2.873530089855194092e-01,1.000000000000000000e+00,6.714380741119384766e+00,-8.617178916931152344e+00,4.138964653015136719e+00,-2.064717712402343750e+02,-9.905539703369140625e+01,-1.782312011718750000e+02,4.033146500587463379e-01,-6.667513275146484375e+01,-1.826890411376953125e+02,-2.342891216278076172e+00,7.562364959716796875e+01,3.135642242431640625e+01
2.913439869880676270e-01,1.000000000000000000e+00,6.650479316711425781e+00,-8.562573432922363281e+00,4.146162033081054688e+00,-2.064158325195312500e+02,-9.897916412353515625e+01,-1.781648712158203125e+02,4.033146500587463379e-01,-6.667523193359375000e+01,-1.826890411376953125e+02,-2.343034982681274414e+00,7.562364959716796875e+01,3.135653114318847656e+01
2.953349947929382324e-01,1.000000000000000000e+00,6.586492061614990234e+00,-8.507899284362792969e+00,4.153440952301025391e+00,-2.063600006103515625e+02,-9.890291595458984375e+01,-1.780998992919921875e+02,4.033146500587463379e-01,-6.667523193359375000e+01,-1.826890411376953125e+02,-2.343034982681274414e+00,7.562364959716796875e+01,3.135653114318847656e+01
2.994070053100585938e-01,1.000000000000000000e+00,6.522590160369873047e+00,-8.452954292297363281e+00,4.161045074462890625e+00,-2.063032684326171875e+02,-9.882720947265625000e+01,-1.780337219238281250e+02,4.033146500587463379e-01,-6.667523193359375000e+01,-1.826890411376953125e+02,-2.343034982681274414e+00,7.562364959716796875e+01,3.135653114318847656e+01
3.033840060234069824e-01,1.000000000000000000e+00,6.458689212799072266e+00,-8.397872924804687500e+00,4.168770790100097656e+00,-2.062472839355468750e+02,-9.875160980224609375e+01,-1.779676055908203125e+02,4.033146500587463379e-01,-6.667523193359375000e+01,-1.826890411376953125e+02,-2.343034982681274414e+00,7.562364959716796875e+01,3.135653114318847656e+01
3.073349893093109131e-01,1.000000000000000000e+00,6.394672870635986328e+00,-8.342994689941406250e+00,4.176415920257568359e+00,-2.061909179687500000e+02,-9.867514801025390625e+01,-1.779029693603515625e+02,4.033146500587463379e-01,-6.667523193359375000e+01,-1.826889343261718750e+02,-2.343034982681274414e+00,7.562364959716796875e+01,3.135653114318847656e+01
3.113420009613037109e-01,1.000000000000000000e+00,6.330829143524169922e+00,-8.287959098815917969e+00,4.183856964111328125e+00,-2.061350860595703125e+02,-9.859955596923828125e+01,-1.778372497558593750e+02,4.033146500587463379e-01,-6.667523193359375000e+01,-1.826890411376953125e+02,-2.343106746673583984e+00,7.562364959716796875e+01,3.135653114318847656e+01
3.153319954872131348e-01,1.000000000000000000e+00,6.266583442687988281e+00,-8.233217239379882812e+00,4.191054821014404297e+00,-2.060791931152343750e+02,-9.852405548095703125e+01,-1.777714691162109375e+02,4.033146500587463379e-01,-6.667523193359375000e+01,-1.826890411376953125e+02,-2.343034982681274414e+00,7.562364959716796875e+01,3.135653114318847656e+01
3.193550109863281250e-01,1.000000000000000000e+00,6.202595710754394531e+00,-8.178136825561523438e+00,4.198292732238769531e+00,-2.060228729248046875e+02,-9.844871520996093750e+01,-1.777059020996093750e+02,4.033146500587463379e-01,-6.667523193359375000e+01,-1.826890411376953125e+02,-2.343034982681274414e+00,7.562364959716796875e+01,3.135653114318847656e+01
3.233869969844818115e-01,1.000000000000000000e+00,6.138350009918212891e+00,-8.122986793518066406e+00,4.205632686614990234e+00,-2.059671020507812500e+02,-9.837236785888671875e+01,-1.776395111083984375e+02,4.033146500587463379e-01,-6.667523193359375000e+01,-1.826890411376953125e+02,-2.343106746673583984e+00,7.562372589111328125e+01,3.135653114318847656e+01
3.274399936199188232e-01,1.000000000000000000e+00,6.074017524719238281e+00,-8.067996025085449219e+00,4.213236808776855469e+00,-2.059106903076171875e+02,-9.829708862304687500e+01,-1.775737152099609375e+02,4.033146500587463379e-01,-6.667523193359375000e+01,-1.826890411376953125e+02,-2.343034982681274414e+00,7.562364959716796875e+01,3.135653114318847656e+01
3.313350081443786621e-01,1.000000000000000000e+00,6.009858131408691406e+00,-8.012869834899902344e+00,4.221145629882812500e+00,-2.058547515869140625e+02,-9.822116851806640625e+01,-1.775086822509765625e+02,4.033146500587463379e-01,-6.667523193359375000e+01,-1.826890411376953125e+02,-2.343034982681274414e+00,7.562372589111328125e+01,3.135653114318847656e+01
3.375909924507141113e-01,1.000000000000000000e+00,5.945612430572509766e+00,-7.957924365997314453e+00,4.228912353515625000e+00,-2.057990264892578125e+02,-9.814588165283203125e+01,-1.774420166015625000e+02,4.033146500587463379e-01,-6.667523193359375000e+01,-1.826890411376953125e+02,-2.343034982681274414e+00,7.562364959716796875e+01,3.135653114318847656e+01
3.393880128860473633e-01,1.000000000000000000e+00,5.881309032440185547e+00,-7.902956485748291016e+00,4.236781120300292969e+00,-2.057423858642578125e+02,-9.806996154785156250e+01,-1.773770446777343750e+02,4.033146500587463379e-01,-6.667523193359375000e+01,-1.826890411376953125e+02,-2.343034982681274414e+00,7.562364959716796875e+01,3.135653114318847656e+01
3.457370102405548096e-01,1.000000000000000000e+00,5.816977024078369141e+00,-7.848169326782226562e+00,4.244364738464355469e+00,-2.056869812011718750e+02,-9.799462127685546875e+01,-1.773113250732421875e+02,4.033146500587463379e-01,-6.667513275146484375e+01,-1.826890411376953125e+02,-2.343106746673583984e+00,7.562364959716796875e+01,3.135653114318847656e+01
3.473100066184997559e-01,1.000000000000000000e+00,5.752817630767822266e+00,-7.793201446533203125e+00,4.251785755157470703e+00,-2.056308288574218750e+02,-9.791838836669921875e+01,-1.772448730468750000e+02,4.033146500587463379e-01,-6.667523193359375000e+01,-1.826889343261718750e+02,-2.343034982681274414e+00,7.562364959716796875e+01,3.135653114318847656e+01
3.523359894752502441e-01,1.000000000000000000e+00,5.752817630767822266e+00,-7.793201446533203125e+00,4.251785755157470703e+00,-2.056308288574218750e+02,-9.791838836669921875e+01,-1.772448730468750000e+02,4.033146500587463379e-01,-6.667523193359375000e+01,-1.826890411376953125e+02,-2.343106746673583984e+00,7.562364959716796875e+01,3.135653114318847656e+01
3.553690016269683838e-01,1.000000000000000000e+00,5.624784946441650391e+00,-7.683039188385009766e+00,4.266363620758056641e+00,-2.055192565917968750e+02,-9.776686096191406250e+01,-1.771138610839843750e+02,4.033146500587463379e-01,-6.667523193359375000e+01,-1.826890411376953125e+02,-2.342891216278076172e+00,7.562364959716796875e+01,3.135653114318847656e+01
3.603979945182800293e-01,1.000000000000000000e+00,5.624784946441650391e+00,-7.683039188385009766e+00,4.266363620758056641e+00,-2.055192565917968750e+02,-9.776686096191406250e+01,-1.771138610839843750e+02,4.033146500587463379e-01,-6.667523193359375000e+01,-1.826890411376953125e+02,-2.342891216278076172e+00,7.562364959716796875e+01,3.135653114318847656e+01
3.633880019187927246e-01,1.000000000000000000e+00,5.497154235839843750e+00,-7.572898864746093750e+00,4.281774997711181641e+00,-2.054066009521484375e+02,-9.761640167236328125e+01,-1.769828948974609375e+02,4.033146500587463379e-01,-6.667523193359375000e+01,-1.826890411376953125e+02,-2.343034982681274414e+00,7.562364959716796875e+01,3.135653114318847656e+01
3.698729872703552246e-01,1.000000000000000000e+00,5.497154235839843750e+00,-7.572898864746093750e+00,4.281774997711181641e+00,-2.054066009521484375e+02,-9.761640167236328125e+01,-1.769828948974609375e+02,4.033146500587463379e-01,-6.667523193359375000e+01,-1.826890411376953125e+02,-2.343034982681274414e+00,7.562364959716796875e+01,3.135653114318847656e+01
3.724839985370635986e-01,1.000000000000000000e+00,5.369236946105957031e+00,-7.463415145874023438e+00,4.296942710876464844e+00,-2.052939300537109375e+02,-9.746492767333984375e+01,-1.768507995605468750e+02,4.033146500587463379e-01,-6.667523193359375000e+01,-1.826889343261718750e+02,-2.343034982681274414e+00,7.562364959716796875e+01,3.135653114318847656e+01
3.753899931907653809e-01,1.000000000000000000e+00,5.305708408355712891e+00,-7.408537864685058594e+00,4.304282188415527344e+00,-2.052384643554687500e+02,-9.738975524902343750e+01,-1.767858886718750000e+02,4.033146500587463379e-01,-6.667523193359375000e+01,-1.826890411376953125e+02,-2.342891216278076172e+00,7.562364959716796875e+01,3.135653114318847656e+01
3.793489933013916016e-01,1.000000000000000000e+00,5.305708408355712891e+00,-7.408537864685058594e+00,4.304282188415527344e+00,-2.052384643554687500e+02,-9.738975524902343750e+01,-1.767858886718750000e+02,4.033146500587463379e-01,-6.667523193359375000e+01,-1.826890411376953125e+02,-2.342891216278076172e+00,7.562364959716796875e+01,3.135653114318847656e+01
3.845750093460083008e-01,1.000000000000000000e+00,5.242237567901611328e+00,-7.353818893432617188e+00,4.311500072479248047e+00,-2.051822052001953125e+02,-9.731452178955078125e+01,-1.767198333740234375e+02,4.033146500587463379e-01,-6.667523193359375000e+01,-1.826890411376953125e+02,-2.343106746673583984e+00,7.562364959716796875e+01,3.135653114318847656e+01
3.881359994411468506e-01,1.000000000000000000e+00,5.114865779876708984e+00,-7.244493961334228516e+00,4.326342582702636719e+00,-2.050701599121093750e+02,-9.716246795654296875e+01,-1.765888214111328125e+02,4.033146500587463379e-01,-6.667523193359375000e+01,-1.826889343261718750e+02,-2.343106746673583984e+00,7.562364959716796875e+01,3.135653114318847656e+01
3.913519978523254395e-01,1.000000000000000000e+00,5.050907135009765625e+00,-7.189842224121093750e+00,4.334068775177001953e+00,-2.050139160156250000e+02,-9.708697509765625000e+01,-1.765225524902343750e+02,4.033146500587463379e-01,-6.667523193359375000e+01,-1.826890411376953125e+02,-2.343106746673583984e+00,7.562364959716796875e+01,3.135653114318847656e+01
3.960649967193603516e-01,1.000000000000000000e+00,5.050907135009765625e+00,-7.189842224121093750e+00,4.334068775177001953e+00,-2.050139160156250000e+02,-9.708697509765625000e+01,-1.765225524902343750e+02,4.033146500587463379e-01,-6.667523193359375000e+01,-1.826890411376953125e+02,-2.343106746673583984e+00,7.562364959716796875e+01,3.135653114318847656e+01
3.993870019912719727e-01,1.000000000000000000e+00,4.923449039459228516e+00,-7.080902099609375000e+00,4.349561214447021484e+00,-2.049026184082031250e+02,-9.693550109863281250e+01,-1.763918151855468750e+02,4.033146500587463379e-01,-6.667523193359375000e+01,-1.826890411376953125e+02,-2.343034982681274414e+00,7.562364959716796875e+01,3.135653114318847656e+01
4.033620059490203857e-01,1.000000000000000000e+00,4.923449039459228516e+00,-7.080902099609375000e+00,4.349561214447021484e+00,-2.049026184082031250e+02,-9.693550109863281250e+01,-1.763918151855468750e+02,4.033146500587463379e-01,-6.667523193359375000e+01,-1.826890411376953125e+02,-2.343034982681274414e+00,7.562364959716796875e+01,3.135653114318847656e+01
4.074380099773406982e-01,1.000000000000000000e+00,4.859662055969238281e+00,-7.026250839233398438e+00,4.357083797454833984e+00,-2.048463134765625000e+02,-9.686005401611328125e+01,-1.763251495361328125e+02,4.033146500587463379e-01,-6.667523193359375000e+01,-1.826890411376953125e+02,-2.343106746673583984e+00,7.562364959716796875e+01,3.135653114318847656e+01
4.114390015602111816e-01,1.000000000000000000e+00,4.795703411102294922e+00,-6.971395492553710938e+00,4.364281654357910156e+00,-2.047905731201171875e+02,-9.678440093994140625e+01,-1.762600402832031250e+02,4.033146500587463379e-01,-6.667523193359375000e+01,-1.826889343261718750e+02,-2.343106746673583984e+00,7.562364959716796875e+01,3.135653114318847656e+01
4.153620004653930664e-01,1.000000000000000000e+00,4.731831073760986328e+00,-6.916563510894775391e+00,4.371417999267578125e+00,-2.047342681884765625e+02,-9.670868682861328125e+01,-1.761943206787109375e+02,4.033146500587463379e-01,-6.667523193359375000e+01,-1.826890411376953125e+02,-2.343106746673583984e+00,7.562364959716796875e+01,3.135653114318847656e+01
4.200800061225891113e-01,1.000000000000000000e+00,4.667957782745361328e+00,-6.861912727355957031e+00,4.378656387329101562e+00,-2.046788024902343750e+02,-9.663228607177734375e+01,-1.761284790039062500e+02,4.033146500587463379e-01,-6.667513275146484375e+01,-1.826890411376953125e+02,-2.343034982681274414e+00,7.562372589111328125e+01,3.135675048828125000e+01
4.233660101890563965e-01,1.000000000000000000e+00,4.540298938751220703e+00,-6.752542018890380859e+00,4.393783092498779297e+00,-2.045664978027343750e+02,-9.648171997070312500e+01,-1.759977264404296875e+02,4.033146500587463379e-01,-6.667523193359375000e+01,-1.826890411376953125e+02,-2.343034982681274414e+00,7.562364959716796875e+01,3.135675048828125000e+01
4.273599982261657715e-01,1.000000000000000000e+00,4.540298938751220703e+00,-6.752542018890380859e+00,4.393783092498779297e+00,-2.045664978027343750e+02,-9.648171997070312500e+01,-1.759977264404296875e+02,4.033146500587463379e-01,-6.667523193359375000e+01,-1.826890411376953125e+02,-2.343034982681274414e+00,7.562364959716796875e+01,3.135675048828125000e+01
4.313870072364807129e-01,1.000000000000000000e+00,4.476512432098388672e+00,-6.697664260864257812e+00,4.401387214660644531e+00,-2.045108184814453125e+02,-9.640654754638671875e+01,-1.759314727783203125e+02,4.033146500587463379e-01,-6.667523193359375000e+01,-1.826890411376953125e+02,-2.343034982681274414e+00,7.562364959716796875e+01,3.135653114318847656e+01
4.354259967803955078e-01,1.000000000000000000e+00,4.412783145904541016e+00,-6.642764091491699219e+00,4.408808231353759766e+00,-2.044545135498046875e+02,-9.632987976074218750e+01,-1.758667755126953125e+02,4.033146500587463379e-01,-6.667531585693359375e+01,-1.826890411376953125e+02,-2.343034982681274414e+00,7.562364959716796875e+01,3.135653114318847656e+01
4.393909871578216553e-01,1.000000000000000000e+00,4.348938941955566406e+00,-6.588022232055664062e+00,4.416127681732177734e+00,-2.043987884521484375e+02,-9.625502014160156250e+01,-1.758005065917968750e+02,4.033146500587463379e-01,-6.667523193359375000e+01,-1.826889343261718750e+02,-2.343034982681274414e+00,7.562364959716796875e+01,3.135653114318847656e+01
4.440830051898956299e-01,1.000000000000000000e+00,4.285210132598876953e+00,-6.533212661743164062e+00,4.423345565795898438e+00,-2.043430023193359375e+02,-9.617942810058593750e+01,-1.757354125976562500e+02,4.033146500587463379e-01,-6.667523193359375000e+01,-1.826890411376953125e+02,-2.343106746673583984e+00,7.562364959716796875e+01,3.135653114318847656e+01
4.483689963817596436e-01,1.000000000000000000e+00,4.157579898834228516e+00,-6.423615932464599609e+00,4.438533782958984375e+00,-2.042314453125000000e+02,-9.602725982666015625e+01,-1.756041107177734375e+02,4.033146500587463379e-01,-6.667513275146484375e+01,-1.826892089843750000e+02,-2.342891216278076172e+00,7.562364959716796875e+01,3.135653114318847656e+01
4.513370096683502197e-01,1.000000000000000000e+00,4.093879222869873047e+00,-6.369009971618652344e+00,4.446381568908691406e+00,-2.041749114990234375e+02,-9.595234680175781250e+01,-1.755386047363281250e+02,4.033146500587463379e-01,-6.667523193359375000e+01,-1.826890411376953125e+02,-2.343106746673583984e+00,7.562364959716796875e+01,3.135653114318847656e+01
4.553610086441040039e-01,1.000000000000000000e+00,4.093879222869873047e+00,-6.369009971618652344e+00,4.446381568908691406e+00,-2.041749114990234375e+02,-9.595234680175781250e+01,-1.755386047363281250e+02,4.033146500587463379e-01,-6.667523193359375000e+01,-1.826890411376953125e+02,-2.343106746673583984e+00,7.562364959716796875e+01,3.135653114318847656e+01
4.594489932060241699e-01,1.000000000000000000e+00,4.029920578002929688e+00,-6.314177989959716797e+00,4.454188823699951172e+00,-2.041191406250000000e+02,-9.587706756591796875e+01,-1.754730987548828125e+02,4.033146500587463379e-01,-6.667523193359375000e+01,-1.826889343261718750e+02,-2.343034982681274414e+00,7.562372589111328125e+01,3.135653114318847656e+01
4.633589982986450195e-01,1.000000000000000000e+00,3.965932846069335938e+00,-6.259096622467041016e+00,4.461996078491210938e+00,-2.040637207031250000e+02,-9.580104064941406250e+01,-1.754066314697265625e+02,4.033146500587463379e-01,-6.667523193359375000e+01,-1.826890411376953125e+02,-2.342891216278076172e+00,7.562372589111328125e+01,3.135653114318847656e+01
4.680669903755187988e-01,1.000000000000000000e+00,3.901830673217773438e+00,-6.204105854034423828e+00,4.469397068023681641e+00,-2.040076293945312500e+02,-9.572490692138671875e+01,-1.753414611816406250e+02,4.033146500587463379e-01,-6.667523193359375000e+01,-1.826890411376953125e+02,-2.343034982681274414e+00,7.562364959716796875e+01,3.135653114318847656e+01
4.723440110683441162e-01,1.000000000000000000e+00,3.837900400161743164e+00,-6.149183273315429688e+00,4.476655483245849609e+00,-2.039524841308593750e+02,-9.564994049072265625e+01,-1.752766265869140625e+02,4.033146500587463379e-01,-6.667523193359375000e+01,-1.826892089843750000e+02,-2.343034982681274414e+00,7.562364959716796875e+01,3.135653114318847656e+01
4.763320088386535645e-01,1.000000000000000000e+00,3.774056434631347656e+00,-6.094214916229248047e+00,4.483913898468017578e+00,-2.038961181640625000e+02,-9.557487487792968750e+01,-1.752098999023437500e+02,4.033146500587463379e-01,-6.667531585693359375e+01,-1.826890411376953125e+02,-2.343034982681274414e+00,7.562364959716796875e+01,3.135653114318847656e+01
4.804260134696960449e-01,1.000000000000000000e+00,3.710184097290039062e+00,-6.039314746856689453e+00,4.491396427154541016e+00,-2.038399658203125000e+02,-9.549862670898437500e+01,-1.751443176269531250e+02,4.033146500587463379e-01,-6.667523193359375000e+01,-1.826890411376953125e+02,-2.343106746673583984e+00,7.562364959716796875e+01,3.135642242431640625e+01
4.853360056877136230e-01,1.000000000000000000e+00,3.582668304443359375e+00,-5.929695606231689453e+00,4.506766796112060547e+00,-2.037286224365234375e+02,-9.534764099121093750e+01,-1.750126800537109375e+02,4.033146500587463379e-01,-6.667523193359375000e+01,-1.826890411376953125e+02,-2.343034982681274414e+00,7.562364959716796875e+01,3.135653114318847656e+01
4.879969954490661621e-01,1.000000000000000000e+00,3.518939018249511719e+00,-5.874930858612060547e+00,4.514249324798583984e+00,-2.036728210449218750e+02,-9.527246093750000000e+01,-1.749480590820312500e+02,4.033146500587463379e-01,-6.667523193359375000e+01,-1.826889343261718750e+02,-2.343106746673583984e+00,7.562364959716796875e+01,3.135653114318847656e+01
4.924429953098297119e-01,1.000000000000000000e+00,3.518939018249511719e+00,-5.874930858612060547e+00,4.514249324798583984e+00,-2.036728210449218750e+02,-9.527246093750000000e+01,-1.749480590820312500e+02,4.033146500587463379e-01,-6.667523193359375000e+01,-1.826889343261718750e+02,-2.343106746673583984e+00,7.562364959716796875e+01,3.135653114318847656e+01
4.963420033454895020e-01,1.000000000000000000e+00,3.455152511596679688e+00,-5.820188999176025391e+00,4.521670341491699219e+00,-2.036165161132812500e+02,-9.519622039794921875e+01,-1.748820648193359375e+02,4.033146500587463379e-01,-6.667523193359375000e+01,-1.826890411376953125e+02,-2.342891216278076172e+00,7.562364959716796875e+01,3.135653114318847656e+01
4.993619918823242188e-01,1.000000000000000000e+00,3.391710519790649414e+00,-5.765515327453613281e+00,4.528969287872314453e+00,-2.035605316162109375e+02,-9.512077331542968750e+01,-1.748159484863281250e+02,4.033146500587463379e-01,-6.667523193359375000e+01,-1.826889343261718750e+02,-2.343034982681274414e+00,7.562364959716796875e+01,3.135653114318847656e+01
5.033619999885559082e-01,1.000000000000000000e+00,3.328067302703857422e+00,-5.710841178894042969e+00,4.536187171936035156e+00,-2.035052642822265625e+02,-9.504533386230468750e+01,-1.747511138916015625e+02,4.033146500587463379e-01,-6.667523193359375000e+01,-1.826890411376953125e+02,-2.342891216278076172e+00,7.562364959716796875e+01,3.135653114318847656e+01
5.078560113906860352e-01,1.000000000000000000e+00,3.264481782913208008e+00,-5.656394004821777344e+00,4.543587684631347656e+00,-2.034491882324218750e+02,-9.497052764892578125e+01,-1.746849822998046875e+02,4.033146500587463379e-01,-6.667523193359375000e+01,-1.826890411376953125e+02,-2.343106746673583984e+00,7.562364959716796875e+01,3.135653114318847656e+01
5.113499760627746582e-01,1.000000000000000000e+00,3.200924873352050781e+00,-5.601674556732177734e+00,4.551212310791015625e+00,-2.033934478759765625e+02,-9.489444732666015625e+01,-1.746198272705078125e+02,4.033146500587463379e-01,-6.667523193359375000e+01,-1.826892089843750000e+02,-2.343106746673583984e+00,7.562364959716796875e+01,3.135653114318847656e+01
5.167499780654907227e-01,1.000000000000000000e+00,3.137166976928710938e+00,-5.547023296356201172e+00,4.558877468109130859e+00,-2.033374481201171875e+02,-9.481927490234375000e+01,-1.745548553466796875e+02,4.033146500587463379e-01,-6.667523193359375000e+01,-1.826890411376953125e+02,-2.343034982681274414e+00,7.562364959716796875e+01,3.135653114318847656e+01
5.213220119476318359e-01,1.000000000000000000e+00,3.009278297424316406e+00,-5.437313556671142578e+00,4.574187278747558594e+00,-2.032258911132812500e+02,-9.466844177246093750e+01,-1.744236907958984375e+02,4.033146500587463379e-01,-6.667523193359375000e+01,-1.826890411376953125e+02,-2.343034982681274414e+00,7.562364959716796875e+01,3.135653114318847656e+01
5.240259766578674316e-01,1.000000000000000000e+00,2.945462942123413086e+00,-5.382775306701660156e+00,4.581628799438476562e+00,-2.031699981689453125e+02,-9.459257507324218750e+01,-1.743579864501953125e+02,4.033146500587463379e-01,-6.667523193359375000e+01,-1.826890411376953125e+02,-2.343106746673583984e+00,7.562364959716796875e+01,3.135653114318847656e+01
5.284230113029479980e-01,1.000000000000000000e+00,2.945462942123413086e+00,-5.382775306701660156e+00,4.581628799438476562e+00,-2.031699981689453125e+02,-9.459257507324218750e+01,-1.743579864501953125e+02,4.033146500587463379e-01,-6.667523193359375000e+01,-1.826890411376953125e+02,-2.343106746673583984e+00,7.562364959716796875e+01,3.135653114318847656e+01
5.319179892539978027e-01,1.000000000000000000e+00,2.881705045700073242e+00,-5.328033924102783203e+00,4.588825702667236328e+00,-2.031142272949218750e+02,-9.451744842529296875e+01,-1.742914581298828125e+02,4.033146500587463379e-01,-6.667523193359375000e+01,-1.826890411376953125e+02,-2.343034982681274414e+00,7.562364959716796875e+01,3.135653114318847656e+01
5.363569855690002441e-01,1.000000000000000000e+00,2.817717552185058594e+00,-5.273653984069824219e+00,4.596023559570312500e+00,-2.030589141845703125e+02,-9.444163513183593750e+01,-1.742262115478515625e+02,4.033146500587463379e-01,-6.667523193359375000e+01,-1.826890411376953125e+02,-2.343106746673583984e+00,7.562364959716796875e+01,3.135653114318847656e+01
5.393620133399963379e-01,1.000000000000000000e+00,2.753959894180297852e+00,-5.219002723693847656e+00,4.603424072265625000e+00,-2.030027160644531250e+02,-9.436640930175781250e+01,-1.741611175537109375e+02,4.033146500587463379e-01,-6.667523193359375000e+01,-1.826892089843750000e+02,-2.343034982681274414e+00,7.562364959716796875e+01,3.135653114318847656e+01
5.434359908103942871e-01,1.000000000000000000e+00,2.690259456634521484e+00,-5.164215564727783203e+00,4.611150264739990234e+00,-2.029471893310546875e+02,-9.429080200195312500e+01,-1.740951843261718750e+02,4.033146500587463379e-01,-6.667523193359375000e+01,-1.826890411376953125e+02,-2.343034982681274414e+00,7.562364959716796875e+01,3.135653114318847656e+01
5.474539995193481445e-01,1.000000000000000000e+00,2.626300573348999023e+00,-5.109609603881835938e+00,4.618754386901855469e+00,-2.028911590576171875e+02,-9.421616363525390625e+01,-1.740302886962890625e+02,4.033146500587463379e-01,-6.667523193359375000e+01,-1.826890411376953125e+02,-2.343034982681274414e+00,7.562364959716796875e+01,3.135653114318847656e+01
5.514249801635742188e-01,1.000000000000000000e+00,2.562571525573730469e+00,-5.054935932159423828e+00,4.626297473907470703e+00,-2.028350524902343750e+02,-9.414076995849609375e+01,-1.739641723632812500e+02,4.033146500587463379e-01,-6.667523193359375000e+01,-1.826890411376953125e+02,-2.343106746673583984e+00,7.562364959716796875e+01,3.135653114318847656e+01
5.565879940986633301e-01,1.000000000000000000e+00,2.498756170272827148e+00,-5.000397682189941406e+00,4.633718490600585938e+00,-2.027793731689453125e+02,-9.406506347656250000e+01,-1.738983154296875000e+02,4.033146500587463379e-01,-6.667523193359375000e+01,-1.826889343261718750e+02,-2.343106746673583984e+00,7.562364959716796875e+01,3.135653114318847656e+01
5.595430135726928711e-01,1.000000000000000000e+00,2.435055732727050781e+00,-4.945814132690429688e+00,4.640936374664306641e+00,-2.027232818603515625e+02,-9.398951721191406250e+01,-1.738334045410156250e+02,4.033146500587463379e-01,-6.667523193359375000e+01,-1.826890411376953125e+02,-2.343106746673583984e+00,7.562364959716796875e+01,3.135653114318847656e+01
5.634350180625915527e-01,1.000000000000000000e+00,2.371297836303710938e+00,-4.891321182250976562e+00,4.648215293884277344e+00,-2.026677551269531250e+02,-9.391482543945312500e+01,-1.737680511474609375e+02,4.033146500587463379e-01,-6.667523193359375000e+01,-1.826890411376953125e+02,-2.343106746673583984e+00,7.562364959716796875e+01,3.135653114318847656e+01
5.675879716873168945e-01,1.000000000000000000e+00,2.307568788528442383e+00,-4.836669921875000000e+00,4.655555248260498047e+00,-2.026118621826171875e+02,-9.383980560302734375e+01,-1.737021942138671875e+02,4.033146500587463379e-01,-6.667531585693359375e+01,-1.826890411376953125e+02,-2.343034982681274414e+00,7.562364959716796875e+01,3.135653114318847656e+01
5.715060234069824219e-01,1.000000000000000000e+00,2.243954420089721680e+00,-4.781951427459716797e+00,4.663260936737060547e+00,-2.025558319091796875e+02,-9.376414489746093750e+01,-1.736376953125000000e+02,4.033146500587463379e-01,-6.667523193359375000e+01,-1.826890411376953125e+02,-2.343034982681274414e+00,7.562364959716796875e+01,3.135653114318847656e+01
5.754830241203308105e-01,1.000000000000000000e+00,2.179880857467651367e+00,-4.727164268493652344e+00,4.671129226684570312e+00,-2.025004730224609375e+02,-9.368838500976562500e+01,-1.735717010498046875e+02,4.033146500587463379e-01,-6.667523193359375000e+01,-1.826889343261718750e+02,-2.343034982681274414e+00,7.562364959716796875e+01,3.135653114318847656e+01
5.804389715194702148e-01,1.000000000000000000e+00,2.115922212600708008e+00,-4.672354221343994141e+00,4.678814411163330078e+00,-2.024443054199218750e+02,-9.361310577392578125e+01,-1.735062713623046875e+02,4.033146500587463379e-01,-6.667523193359375000e+01,-1.826890411376953125e+02,-2.343034982681274414e+00,7.562364959716796875e+01,3.135653114318847656e+01
5.835710167884826660e-01,1.000000000000000000e+00,2.051991939544677734e+00,-4.617544651031494141e+00,4.686378002166748047e+00,-2.023887329101562500e+02,-9.353813934326171875e+01,-1.734418334960937500e+02,4.033146500587463379e-01,-6.667523193359375000e+01,-1.826890411376953125e+02,-2.343106746673583984e+00,7.562372589111328125e+01,3.135653114318847656e+01
5.875729918479919434e-01,1.000000000000000000e+00,1.988061904907226562e+00,-4.562848091125488281e+00,4.693656921386718750e+00,-2.023330688476562500e+02,-9.346211242675781250e+01,-1.733759918212890625e+02,4.033146500587463379e-01,-6.667523193359375000e+01,-1.826889343261718750e+02,-2.342891216278076172e+00,7.562364959716796875e+01,3.135653114318847656e+01
5.917750000953674316e-01,1.000000000000000000e+00,1.924217939376831055e+00,-4.508060932159423828e+00,4.700813770294189453e+00,-2.022767028808593750e+02,-9.338677215576171875e+01,-1.733108215332031250e+02,4.033146500587463379e-01,-6.667523193359375000e+01,-1.826890411376953125e+02,-2.343106746673583984e+00,7.562364959716796875e+01,3.135653114318847656e+01
5.957189798355102539e-01,1.000000000000000000e+00,1.860374093055725098e+00,-4.453364372253417969e+00,4.708051681518554688e+00,-2.022217102050781250e+02,-9.331154632568359375e+01,-1.732455139160156250e+02,4.033146500587463379e-01,-6.667523193359375000e+01,-1.826890411376953125e+02,-2.342891216278076172e+00,7.562364959716796875e+01,3.135653114318847656e+01
5.998510122299194336e-01,1.000000000000000000e+00,1.796788454055786133e+00,-4.398532390594482422e+00,4.715554237365722656e+00,-2.021654663085937500e+02,-9.323626708984375000e+01,-1.731795349121093750e+02,4.033146500587463379e-01,-6.667523193359375000e+01,-1.826890411376953125e+02,-2.343034982681274414e+00,7.562364959716796875e+01,3.135653114318847656e+01
6.044840216636657715e-01,1.000000000000000000e+00,1.733116626739501953e+00,-4.343768119812011719e+00,4.723198890686035156e+00,-2.021096343994140625e+02,-9.316012573242187500e+01,-1.731142272949218750e+02,4.033146500587463379e-01,-6.667523193359375000e+01,-1.826889343261718750e+02,-2.343034982681274414e+00,7.562364959716796875e+01,3.135653114318847656e+01
6.078900098800659180e-01,1.000000000000000000e+00,1.669502377510070801e+00,-4.289275169372558594e+00,4.730782985687255859e+00,-2.020543670654296875e+02,-9.308564758300781250e+01,-1.730491790771484375e+02,4.033146500587463379e-01,-6.667523193359375000e+01,-1.826889343261718750e+02,-2.343034982681274414e+00,7.562364959716796875e+01,3.135653114318847656e+01
6.130639910697937012e-01,1.000000000000000000e+00,1.606031656265258789e+00,-4.234623908996582031e+00,4.738326072692871094e+00,-2.019979553222656250e+02,-9.301026153564453125e+01,-1.729835357666015625e+02,4.033146500587463379e-01,-6.667523193359375000e+01,-1.826890411376953125e+02,-2.343034982681274414e+00,7.562364959716796875e+01,3.135653114318847656e+01
6.158840060234069824e-01,1.000000000000000000e+00,1.542532205581665039e+00,-4.180063247680664062e+00,4.745706558227539062e+00,-2.019423828125000000e+02,-9.293481445312500000e+01,-1.729184875488281250e+02,4.033146500587463379e-01,-6.667523193359375000e+01,-1.826890411376953125e+02,-2.343106746673583984e+00,7.562364959716796875e+01,3.135653114318847656e+01
6.203579902648925781e-01,1.000000000000000000e+00,1.479032635688781738e+00,-4.125547409057617188e+00,4.752863407135009766e+00,-2.018862304687500000e+02,-9.285841369628906250e+01,-1.728523712158203125e+02,4.033146500587463379e-01,-6.667523193359375000e+01,-1.826890411376953125e+02,-2.343106746673583984e+00,7.562364959716796875e+01,3.135642242431640625e+01
6.237519979476928711e-01,1.000000000000000000e+00,1.415590643882751465e+00,-4.070669651031494141e+00,4.760100841522216797e+00,-2.018303375244140625e+02,-9.278350067138671875e+01,-1.727863311767578125e+02,4.033146500587463379e-01,-6.667523193359375000e+01,-1.826890411376953125e+02,-2.342891216278076172e+00,7.562364959716796875e+01,3.135653114318847656e+01
6.288089752197265625e-01,1.000000000000000000e+00,1.352205991744995117e+00,-4.015905857086181641e+00,4.767643928527832031e+00,-2.017749938964843750e+02,-9.270822143554687500e+01,-1.727219696044921875e+02,4.033146500587463379e-01,-6.667523193359375000e+01,-1.826890411376953125e+02,-2.343106746673583984e+00,7.562364959716796875e+01,3.135653114318847656e+01
6.319959759712219238e-01,1.000000000000000000e+00,1.288763880729675293e+00,-3.961050748825073242e+00,4.775370121002197266e+00,-2.017187194824218750e+02,-9.263262176513671875e+01,-1.726559143066406250e+02,4.033146500587463379e-01,-6.667523193359375000e+01,-1.826892089843750000e+02,-2.343034982681274414e+00,7.562364959716796875e+01,3.135653114318847656e+01
6.370570063591003418e-01,1.000000000000000000e+00,1.225063443183898926e+00,-3.906444787979125977e+00,4.783198356628417969e+00,-2.016631164550781250e+02,-9.255638122558593750e+01,-1.725903320312500000e+02,4.033146500587463379e-01,-6.667523193359375000e+01,-1.826892089843750000e+02,-2.343106746673583984e+00,7.562364959716796875e+01,3.135653114318847656e+01
6.401159763336181641e-01,1.000000000000000000e+00,1.161563992500305176e+00,-3.851702928543090820e+00,4.790843009948730469e+00,-2.016071624755859375e+02,-9.248114776611328125e+01,-1.725254974365234375e+02,4.033146500587463379e-01,-6.667523193359375000e+01,-1.826890411376953125e+02,-2.343034982681274414e+00,7.562364959716796875e+01,3.135653114318847656e+01
6.441919803619384766e-01,1.000000000000000000e+00,1.097834944725036621e+00,-3.797255277633666992e+00,4.798365592956542969e+00,-2.015511779785156250e+02,-9.240618133544921875e+01,-1.724594573974609375e+02,4.033146500587463379e-01,-6.667523193359375000e+01,-1.826890411376953125e+02,-2.343034982681274414e+00,7.562364959716796875e+01,3.135653114318847656e+01
6.482970118522644043e-01,1.000000000000000000e+00,1.034364104270935059e+00,-3.742581367492675781e+00,4.805665016174316406e+00,-2.014960784912109375e+02,-9.233090209960937500e+01,-1.723944091796875000e+02,4.033146500587463379e-01,-6.667523193359375000e+01,-1.826890411376953125e+02,-2.343034982681274414e+00,7.562364959716796875e+01,3.135653114318847656e+01
6.529710292816162109e-01,1.000000000000000000e+00,9.708933830261230469e-01,-3.687772035598754883e+00,4.812800884246826172e+00,-2.014403533935546875e+02,-9.225487518310546875e+01,-1.723297119140625000e+02,4.033146500587463379e-01,-6.667523193359375000e+01,-1.826890411376953125e+02,-2.343034982681274414e+00,7.562364959716796875e+01,3.135653114318847656e+01
6.563640236854553223e-01,1.000000000000000000e+00,9.072216153144836426e-01,-3.633143186569213867e+00,4.820079803466796875e+00,-2.013845672607421875e+02,-9.217969512939453125e+01,-1.722637176513671875e+02,4.033146500587463379e-01,-6.667523193359375000e+01,-1.826890411376953125e+02,-2.343034982681274414e+00,7.562364959716796875e+01,3.135642242431640625e+01
6.609079837799072266e-01,1.000000000000000000e+00,8.436359763145446777e-01,-3.578469276428222656e+00,4.827643394470214844e+00,-2.013286743164062500e+02,-9.210473632812500000e+01,-1.721986236572265625e+02,4.033146500587463379e-01,-6.667523193359375000e+01,-1.826890411376953125e+02,-2.343034982681274414e+00,7.562364959716796875e+01,3.135653114318847656e+01
6.644340157508850098e-01,1.000000000000000000e+00,7.801077961921691895e-01,-3.524066925048828125e+00,4.835247516632080078e+00,-2.012726898193359375e+02,-9.202939605712890625e+01,-1.721333160400390625e+02,4.033146500587463379e-01,-6.667523193359375000e+01,-1.826890411376953125e+02,-2.343034982681274414e+00,7.562364959716796875e+01,3.135675048828125000e+01
6.683880090713500977e-01,1.000000000000000000e+00,7.167232036590576172e-01,-3.469641923904418945e+00,4.842790603637695312e+00,-2.012175445556640625e+02,-9.195353698730468750e+01,-1.720673370361328125e+02,4.033146500587463379e-01,-6.667523193359375000e+01,-1.826890411376953125e+02,-2.343034982681274414e+00,7.562364959716796875e+01,3.135675048828125000e+01
6.721310019493103027e-01,1.000000000000000000e+00,6.532524228096008301e-01,-3.415171861648559570e+00,4.850191116333007812e+00,-2.011617431640625000e+02,-9.187819671630859375e+01,-1.720023651123046875e+02,4.033146500587463379e-01,-6.667523193359375000e+01,-1.826889343261718750e+02,-2.343106746673583984e+00,7.562364959716796875e+01,3.135653114318847656e+01
6.770409941673278809e-01,1.000000000000000000e+00,5.896955132484436035e-01,-3.360543251037597656e+00,4.857490539550781250e+00,-2.011055450439453125e+02,-9.180323791503906250e+01,-1.719368438720703125e+02,4.033146500587463379e-01,-6.667523193359375000e+01,-1.826890411376953125e+02,-2.342891216278076172e+00,7.562364959716796875e+01,3.135653114318847656e+01
6.804649829864501953e-01,1.000000000000000000e+00,5.263109207153320312e-01,-3.305846691131591797e+00,4.864626884460449219e+00,-2.010499877929687500e+02,-9.172757720947265625e+01,-1.718712768554687500e+02,4.033146500587463379e-01,-6.667523193359375000e+01,-1.826892089843750000e+02,-2.343106746673583984e+00,7.562364959716796875e+01,3.135653114318847656e+01
6.850299835205078125e-01,1.000000000000000000e+00,4.627826809883117676e-01,-3.251240730285644531e+00,4.871824741363525391e+00,-2.009940490722656250e+02,-9.165203094482421875e+01,-1.718063812255859375e+02,4.033146500587463379e-01,-6.667523193359375000e+01,-1.826890411376953125e+02,-2.343106746673583984e+00,7.562364959716796875e+01,3.135653114318847656e+01
6.885570287704467773e-01,1.000000000000000000e+00,3.990822732448577881e-01,-3.196408510208129883e+00,4.879367828369140625e+00,-2.009386749267578125e+02,-9.157669067382812500e+01,-1.717403869628906250e+02,4.033146500587463379e-01,-6.667523193359375000e+01,-1.826890411376953125e+02,-2.343034982681274414e+00,7.562364959716796875e+01,3.135653114318847656e+01
6.925269961357116699e-01,1.000000000000000000e+00,3.352383077144622803e-01,-3.141598701477050781e+00,4.887073516845703125e+00,-2.008831024169921875e+02,-9.150183868408203125e+01,-1.716750793457031250e+02,4.033146500587463379e-01,-6.667523193359375000e+01,-1.826889343261718750e+02,-2.343106746673583984e+00,7.562364959716796875e+01,3.135675048828125000e+01
6.966080069541931152e-01,1.000000000000000000e+00,2.713656723499298096e-01,-3.087037801742553711e+00,4.894738197326660156e+00,-2.008272247314453125e+02,-9.142629241943359375e+01,-1.716105194091796875e+02,4.033146500587463379e-01,-6.667523193359375000e+01,-1.826890411376953125e+02,-2.343034982681274414e+00,7.562364959716796875e+01,3.135653114318847656e+01
7.010440230369567871e-01,1.000000000000000000e+00,2.076078206300735474e-01,-3.032477140426635742e+00,4.902443885803222656e+00,-2.007716522216796875e+02,-9.135116577148437500e+01,-1.715447998046875000e+02,4.033146500587463379e-01,-6.667523193359375000e+01,-1.826890411376953125e+02,-2.343034982681274414e+00,7.562364959716796875e+01,3.135653114318847656e+01
7.043740153312683105e-01,1.000000000000000000e+00,1.437925547361373901e-01,-2.977961540222167969e+00,4.910027980804443359e+00,-2.007154541015625000e+02,-9.127577209472656250e+01,-1.714790802001953125e+02,4.033146500587463379e-01,-6.667523193359375000e+01,-1.826890411376953125e+02,-2.343106746673583984e+00,7.562364959716796875e+01,3.135653114318847656e+01
7.092530131340026855e-01,1.000000000000000000e+00,8.003472536802291870e-02,-2.923287868499755859e+00,4.917306900024414062e+00,-2.006600799560546875e+02,-9.120118713378906250e+01,-1.714145202636718750e+02,4.033146500587463379e-01,-6.667523193359375000e+01,-1.826890411376953125e+02,-2.343034982681274414e+00,7.562364959716796875e+01,3.135653114318847656e+01
7.126169800758361816e-01,1.000000000000000000e+00,1.624818146228790283e-02,-2.868636608123779297e+00,4.924443244934082031e+00,-2.006047210693359375e+02,-9.112606048583984375e+01,-1.713486022949218750e+02,4.033146500587463379e-01,-6.667523193359375000e+01,-1.826890411376953125e+02,-2.343034982681274414e+00,7.562372589111328125e+01,3.135653114318847656e+01
7.165480256080627441e-01,1.000000000000000000e+00,-4.748095199465751648e-02,-2.814030408859252930e+00,4.931701660156250000e+00,-2.005489959716796875e+02,-9.105088806152343750e+01,-1.712833099365234375e+02,4.033146500587463379e-01,-6.667523193359375000e+01,-1.826890411376953125e+02,-2.343106746673583984e+00,7.562364959716796875e+01,3.135653114318847656e+01
7.193589806556701660e-01,1.000000000000000000e+00,-1.112100854516029358e-01,-2.759424686431884766e+00,4.939244747161865234e+00,-2.004940032958984375e+02,-9.097555541992187500e+01,-1.712189331054687500e+02,4.033146500587463379e-01,-6.667523193359375000e+01,-1.826890411376953125e+02,-2.343034982681274414e+00,7.562364959716796875e+01,3.135653114318847656e+01
7.255610227584838867e-01,1.000000000000000000e+00,-1.749105006456375122e-01,-2.704931735992431641e+00,4.946950435638427734e+00,-2.004375457763671875e+02,-9.090038299560546875e+01,-1.711529541015625000e+02,4.033146500587463379e-01,-6.667523193359375000e+01,-1.826890411376953125e+02,-2.343106746673583984e+00,7.562364959716796875e+01,3.135653114318847656e+01
7.272980213165283203e-01,1.000000000000000000e+00,-2.384386807680130005e-01,-2.650529384613037109e+00,4.954595088958740234e+00,-2.003818054199218750e+02,-9.082504272460937500e+01,-1.710875091552734375e+02,4.033146500587463379e-01,-6.667523193359375000e+01,-1.826890411376953125e+02,-2.343034982681274414e+00,7.562364959716796875e+01,3.135653114318847656e+01
7.313269972801208496e-01,1.000000000000000000e+00,-3.021391034126281738e-01,-2.595855474472045898e+00,4.962077617645263672e+00,-2.003265075683593750e+02,-9.075028991699218750e+01,-1.710223388671875000e+02,4.033146500587463379e-01,-6.667523193359375000e+01,-1.826889343261718750e+02,-2.343034982681274414e+00,7.562364959716796875e+01,3.135653114318847656e+01
7.353019714355468750e-01,1.000000000000000000e+00,-3.654376566410064697e-01,-2.541204452514648438e+00,4.969376564025878906e+00,-2.002706756591796875e+02,-9.067575836181640625e+01,-1.709559478759765625e+02,4.033146500587463379e-01,-6.667523193359375000e+01,-1.826889343261718750e+02,-2.342891216278076172e+00,7.562364959716796875e+01,3.135653114318847656e+01
7.393019795417785645e-01,1.000000000000000000e+00,-4.289658069610595703e-01,-2.486417293548583984e+00,4.976553440093994141e+00,-2.002151489257812500e+02,-9.060036468505859375e+01,-1.708913879394531250e+02,4.033146500587463379e-01,-6.667523193359375000e+01,-1.826890411376953125e+02,-2.343106746673583984e+00,7.562364959716796875e+01,3.135642242431640625e+01
7.434260249137878418e-01,1.000000000000000000e+00,-4.925227165222167969e-01,-2.431879043579101562e+00,4.983791351318359375e+00,-2.001590576171875000e+02,-9.052460479736328125e+01,-1.708263549804687500e+02,4.033146500587463379e-01,-6.667523193359375000e+01,-1.826890411376953125e+02,-2.343034982681274414e+00,7.562364959716796875e+01,3.135653114318847656e+01
7.473739981651306152e-01,1.000000000000000000e+00,-5.560508966445922852e-01,-2.377205371856689453e+00,4.991253376007080078e+00,-2.001031188964843750e+02,-9.044996643066406250e+01,-1.707601470947265625e+02,4.033146500587463379e-01,-6.667523193359375000e+01,-1.826890411376953125e+02,-2.343034982681274414e+00,7.562350463867187500e+01,3.135653114318847656e+01
7.512980103492736816e-01,1.000000000000000000e+00,-6.198948621749877930e-01,-2.322463512420654297e+00,4.998918533325195312e+00,-2.000481719970703125e+02,-9.037516021728515625e+01,-1.706951293945312500e+02,4.033146500587463379e-01,-6.667523193359375000e+01,-1.826890411376953125e+02,-2.343034982681274414e+00,7.562364959716796875e+01,3.135653114318847656e+01
7.553679943084716797e-01,1.000000000000000000e+00,-6.834804415702819824e-01,-2.268038511276245117e+00,5.006745815277099609e+00,-1.999921722412109375e+02,-9.030003356933593750e+01,-1.706294860839843750e+02,4.033146500587463379e-01,-6.667523193359375000e+01,-1.826890411376953125e+02,-2.343106746673583984e+00,7.562364959716796875e+01,3.135653114318847656e+01
7.593020200729370117e-01,1.000000000000000000e+00,-7.471234798431396484e-01,-2.213274240493774414e+00,5.014349937438964844e+00,-1.999368286132812500e+02,-9.022443389892578125e+01,-1.705637664794921875e+02,4.033146500587463379e-01,-6.667523193359375000e+01,-1.826890411376953125e+02,-2.343106746673583984e+00,7.562364959716796875e+01,3.135642242431640625e+01
7.633110284805297852e-01,1.000000000000000000e+00,-8.107951879501342773e-01,-2.158803939819335938e+00,5.021710395812988281e+00,-1.998807830810546875e+02,-9.014904785156250000e+01,-1.704990692138671875e+02,4.033146500587463379e-01,-6.667523193359375000e+01,-1.826889343261718750e+02,-2.343034982681274414e+00,7.562364959716796875e+01,3.135675048828125000e+01
7.673670053482055664e-01,1.000000000000000000e+00,-8.743807673454284668e-01,-2.104288578033447266e+00,5.029029846191406250e+00,-1.998247222900390625e+02,-9.007408142089843750e+01,-1.704335479736328125e+02,4.033146500587463379e-01,-6.667523193359375000e+01,-1.826889343261718750e+02,-2.343034982681274414e+00,7.562364959716796875e+01,3.135653114318847656e+01
7.713040113449096680e-01,1.000000000000000000e+00,-9.380238056182861328e-01,-2.049885988235473633e+00,5.036227226257324219e+00,-1.997700653076171875e+02,-8.999874877929687500e+01,-1.703678436279296875e+02,4.033146500587463379e-01,-6.667523193359375000e+01,-1.826890411376953125e+02,-2.343034982681274414e+00,7.562372589111328125e+01,3.135653114318847656e+01
7.753310203552246094e-01,1.000000000000000000e+00,-1.001494526863098145e+00,-1.995415925979614258e+00,5.043526649475097656e+00,-1.997141113281250000e+02,-8.992351531982421875e+01,-1.703030090332031250e+02,4.033146500587463379e-01,-6.667523193359375000e+01,-1.826890411376953125e+02,-2.343106746673583984e+00,7.562364959716796875e+01,3.135653114318847656e+01
7.793639898300170898e-01,1.000000000000000000e+00,-1.064907908439636230e+00,-1.940991044044494629e+00,5.051049232482910156e+00,-1.996585540771484375e+02,-8.984839630126953125e+01,-1.702369537353515625e+02,4.033146500587463379e-01,-6.667523193359375000e+01,-1.826890411376953125e+02,-2.343106746673583984e+00,7.562364959716796875e+01,3.135653114318847656e+01
7.833840250968933105e-01,1.000000000000000000e+00,-1.128407359123229980e+00,-1.886498093605041504e+00,5.058531284332275391e+00,-1.996028747558593750e+02,-8.977322387695312500e+01,-1.701722564697265625e+02,4.033146500587463379e-01,-6.667523193359375000e+01,-1.826890411376953125e+02,-2.343034982681274414e+00,7.562364959716796875e+01,3.135653114318847656e+01
7.873629927635192871e-01,1.000000000000000000e+00,-1.191820740699768066e+00,-1.831892013549804688e+00,5.066033840179443359e+00,-1.995468750000000000e+02,-8.969756317138671875e+01,-1.701074829101562500e+02,4.033146500587463379e-01,-6.667523193359375000e+01,-1.826892089843750000e+02,-2.343034982681274414e+00,7.562364959716796875e+01,3.135653114318847656e+01
7.914479970932006836e-01,1.000000000000000000e+00,-1.255176782608032227e+00,-1.777331352233886719e+00,5.073332786560058594e+00,-1.994918212890625000e+02,-8.962228393554687500e+01,-1.700420379638671875e+02,4.033146500587463379e-01,-6.667523193359375000e+01,-1.826890411376953125e+02,-2.343106746673583984e+00,7.562364959716796875e+01,3.135653114318847656e+01
7.953130006790161133e-01,1.000000000000000000e+00,-1.318561315536499023e+00,-1.722634792327880859e+00,5.080652713775634766e+00,-1.994358367919921875e+02,-8.954747772216796875e+01,-1.699767456054687500e+02,4.033146500587463379e-01,-6.667531585693359375e+01,-1.826890411376953125e+02,-2.343034982681274414e+00,7.562364959716796875e+01,3.135642242431640625e+01
7.993220090866088867e-01,1.000000000000000000e+00,-1.382032155990600586e+00,-1.667825222015380859e+00,5.087829113006591797e+00,-1.993799438476562500e+02,-8.947209167480468750e+01,-1.699113616943359375e+02,4.033146500587463379e-01,-6.667531585693359375e+01,-1.826890411376953125e+02,-2.343034982681274414e+00,7.562364959716796875e+01,3.135653114318847656e+01
8.033480048179626465e-01,1.000000000000000000e+00,-1.445445418357849121e+00,-1.613377571105957031e+00,5.095067501068115234e+00,-1.993244323730468750e+02,-8.939664459228515625e+01,-1.698452453613281250e+02,4.033146500587463379e-01,-6.667523193359375000e+01,-1.826890411376953125e+02,-2.343106746673583984e+00,7.562364959716796875e+01,3.135653114318847656e+01
8.073030114173889160e-01,1.000000000000000000e+00,-1.508830070495605469e+00,-1.558907389640808105e+00,5.102610588073730469e+00,-1.992686614990234375e+02,-8.932072448730468750e+01,-1.697802886962890625e+02,4.033146500587463379e-01,-6.667513275146484375e+01,-1.826889343261718750e+02,-2.343034982681274414e+00,7.562364959716796875e+01,3.135653114318847656e+01
8.113020062446594238e-01,1.000000000000000000e+00,-1.572530627250671387e+00,-1.504391908645629883e+00,5.110356807708740234e+00,-1.992130889892578125e+02,-8.924597930908203125e+01,-1.697149047851562500e+02,4.033146500587463379e-01,-6.667523193359375000e+01,-1.826890411376953125e+02,-2.343034982681274414e+00,7.562364959716796875e+01,3.135653114318847656e+01
8.152949810028076172e-01,1.000000000000000000e+00,-1.636144876480102539e+00,-1.449808478355407715e+00,5.118123531341552734e+00,-1.991573486328125000e+02,-8.917047882080078125e+01,-1.696495971679687500e+02,4.033146500587463379e-01,-6.667523193359375000e+01,-1.826890411376953125e+02,-2.343034982681274414e+00,7.562364959716796875e+01,3.135653114318847656e+01
8.193780183792114258e-01,1.000000000000000000e+00,-1.699701786041259766e+00,-1.395134568214416504e+00,5.125911235809326172e+00,-1.991017303466796875e+02,-8.909455871582031250e+01,-1.695848236083984375e+02,4.033146500587463379e-01,-6.667523193359375000e+01,-1.826889343261718750e+02,-2.343034982681274414e+00,7.562364959716796875e+01,3.135653114318847656e+01
8.233039975166320801e-01,1.000000000000000000e+00,-1.763201236724853516e+00,-1.340573787689208984e+00,5.133372783660888672e+00,-1.990461578369140625e+02,-8.901911163330078125e+01,-1.695192413330078125e+02,4.033146500587463379e-01,-6.667523193359375000e+01,-1.826890411376953125e+02,-2.343034982681274414e+00,7.562364959716796875e+01,3.135653114318847656e+01
8.273530006408691406e-01,1.000000000000000000e+00,-1.826528310775756836e+00,-1.286103606224060059e+00,5.140570163726806641e+00,-1.989902648925781250e+02,-8.894441986083984375e+01,-1.694533386230468750e+02,4.033146500587463379e-01,-6.667523193359375000e+01,-1.826890411376953125e+02,-2.343034982681274414e+00,7.562364959716796875e+01,3.135653114318847656e+01
8.314179778099060059e-01,1.000000000000000000e+00,-1.889913201332092285e+00,-1.231769204139709473e+00,5.147808074951171875e+00,-1.989349517822265625e+02,-8.886951446533203125e+01,-1.693889617919921875e+02,4.033146500587463379e-01,-6.667523193359375000e+01,-1.826890411376953125e+02,-2.343106746673583984e+00,7.562364959716796875e+01,3.135653114318847656e+01
8.353030085563659668e-01,1.000000000000000000e+00,-1.953297734260559082e+00,-1.177457332611083984e+00,5.155086994171142578e+00,-1.988793334960937500e+02,-8.879358673095703125e+01,-1.693236083984375000e+02,4.033146500587463379e-01,-6.667523193359375000e+01,-1.826890411376953125e+02,-2.343106746673583984e+00,7.562364959716796875e+01,3.135653114318847656e+01
8.416249752044677734e-01,1.000000000000000000e+00,-2.016567468643188477e+00,-1.122806191444396973e+00,5.162650585174560547e+00,-1.988232421875000000e+02,-8.871820068359375000e+01,-1.692580871582031250e+02,4.033146500587463379e-01,-6.667523193359375000e+01,-1.826890411376953125e+02,-2.343034982681274414e+00,7.562364959716796875e+01,3.135642242431640625e+01
8.433849811553955078e-01,1.000000000000000000e+00,-2.079980850219726562e+00,-1.068177580833435059e+00,5.170274734497070312e+00,-1.987682952880859375e+02,-8.864334106445312500e+01,-1.691935882568359375e+02,4.033146500587463379e-01,-6.667523193359375000e+01,-1.826890411376953125e+02,-2.343034982681274414e+00,7.562364959716796875e+01,3.135653114318847656e+01
8.473659753799438477e-01,1.000000000000000000e+00,-2.143422842025756836e+00,-1.013390541076660156e+00,5.177817821502685547e+00,-1.987119903564453125e+02,-8.856874847412109375e+01,-1.691279449462890625e+02,4.033146500587463379e-01,-6.667523193359375000e+01,-1.826889343261718750e+02,-2.343106746673583984e+00,7.562364959716796875e+01,3.135675048828125000e+01
8.513510227203369141e-01,1.000000000000000000e+00,-2.206778764724731445e+00,-9.589654803276062012e-01,5.185096740722656250e+00,-1.986565704345703125e+02,-8.849304199218750000e+01,-1.690626373291015625e+02,4.033146500587463379e-01,-6.667523193359375000e+01,-1.826890411376953125e+02,-2.343034982681274414e+00,7.562364959716796875e+01,3.135653114318847656e+01
8.554250001907348633e-01,1.000000000000000000e+00,-2.270020008087158203e+00,-9.043595194816589355e-01,5.192314624786376953e+00,-1.986013183593750000e+02,-8.841765594482421875e+01,-1.689983520507812500e+02,4.033146500587463379e-01,-6.667523193359375000e+01,-1.826890411376953125e+02,-2.343034982681274414e+00,7.562364959716796875e+01,3.135653114318847656e+01
8.619059920310974121e-01,1.000000000000000000e+00,-2.333519458770751953e+00,-8.497535586357116699e-01,5.199512004852294922e+00,-1.985452880859375000e+02,-8.834253692626953125e+01,-1.689330444335937500e+02,4.033146500587463379e-01,-6.667523193359375000e+01,-1.826889343261718750e+02,-2.343034982681274414e+00,7.562364959716796875e+01,3.135653114318847656e+01
8.643699884414672852e-01,1.000000000000000000e+00,-2.396846771240234375e+00,-7.953285574913024902e-01,5.206729888916015625e+00,-1.984898071289062500e+02,-8.826789093017578125e+01,-1.688681335449218750e+02,4.033146500587463379e-01,-6.667523193359375000e+01,-1.826889343261718750e+02,-2.343034982681274414e+00,7.562364959716796875e+01,3.135642242431640625e+01
8.673750162124633789e-01,1.000000000000000000e+00,-2.460317611694335938e+00,-7.407678365707397461e-01,5.214252471923828125e+00,-1.984339294433593750e+02,-8.819197082519531250e+01,-1.688031616210937500e+02,4.033146500587463379e-01,-6.667523193359375000e+01,-1.826890411376953125e+02,-2.343106746673583984e+00,7.562372589111328125e+01,3.135653114318847656e+01
8.723210096359252930e-01,1.000000000000000000e+00,-2.460317611694335938e+00,-7.407678365707397461e-01,5.214252471923828125e+00,-1.984339294433593750e+02,-8.819197082519531250e+01,-1.688031616210937500e+02,4.033146500587463379e-01,-6.667523193359375000e+01,-1.826890411376953125e+02,-2.343106746673583984e+00,7.562372589111328125e+01,3.135653114318847656e+01
8.752989768981933594e-01,1.000000000000000000e+00,-2.587402582168579102e+00,-6.318500041961669922e-01,5.229501724243164062e+00,-1.983229522705078125e+02,-8.804203796386718750e+01,-1.686718139648437500e+02,4.033146500587463379e-01,-6.667523193359375000e+01,-1.826890411376953125e+02,-2.343034982681274414e+00,7.562364959716796875e+01,3.135642242431640625e+01
8.794429898262023926e-01,1.000000000000000000e+00,-2.587402582168579102e+00,-6.318500041961669922e-01,5.229501724243164062e+00,-1.983229522705078125e+02,-8.804203796386718750e+01,-1.686718139648437500e+02,4.033146500587463379e-01,-6.667523193359375000e+01,-1.826890411376953125e+02,-2.343034982681274414e+00,7.562364959716796875e+01,3.135642242431640625e+01
8.860780000686645508e-01,1.000000000000000000e+00,-2.650959491729736328e+00,-5.775382518768310547e-01,5.237166881561279297e+00,-1.982669525146484375e+02,-8.796750640869140625e+01,-1.686071166992187500e+02,4.033146500587463379e-01,-6.667523193359375000e+01,-1.826890411376953125e+02,-2.343034982681274414e+00,7.562372589111328125e+01,3.135653114318847656e+01
8.875359892845153809e-01,1.000000000000000000e+00,-2.777814865112304688e+00,-4.688467085361480713e-01,5.251845836639404297e+00,-1.981555328369140625e+02,-8.781715393066406250e+01,-1.684766235351562500e+02,4.033146500587463379e-01,-6.667523193359375000e+01,-1.826890411376953125e+02,-2.343106746673583984e+00,7.562350463867187500e+01,3.135653114318847656e+01
8.923220038414001465e-01,1.000000000000000000e+00,-2.777814865112304688e+00,-4.688467085361480713e-01,5.251845836639404297e+00,-1.981555328369140625e+02,-8.781715393066406250e+01,-1.684766235351562500e+02,4.033146500587463379e-01,-6.667523193359375000e+01,-1.826890411376953125e+02,-2.343106746673583984e+00,7.562350463867187500e+01,3.135653114318847656e+01
8.952959775924682617e-01,1.000000000000000000e+00,-2.904842615127563477e+00,-3.600873351097106934e-01,5.266302108764648438e+00,-1.980449829101562500e+02,-8.766733551025390625e+01,-1.683451385498046875e+02,4.033146500587463379e-01,-6.667523193359375000e+01,-1.826890411376953125e+02,-2.343034982681274414e+00,7.562364959716796875e+01,3.135653114318847656e+01
8.993600010871887207e-01,1.000000000000000000e+00,-2.904842615127563477e+00,-3.600873351097106934e-01,5.266302108764648438e+00,-1.980449829101562500e+02,-8.766733551025390625e+01,-1.683451385498046875e+02,4.033146500587463379e-01,-6.667523193359375000e+01,-1.826890411376953125e+02,-2.343034982681274414e+00,7.562364959716796875e+01,3.135653114318847656e+01
9.034219980239868164e-01,1.000000000000000000e+00,-2.968342065811157227e+00,-3.055265843868255615e-01,5.273905754089355469e+00,-1.979889373779296875e+02,-8.759189605712890625e+01,-1.682805786132812500e+02,4.033146500587463379e-01,-6.667523193359375000e+01,-1.826890411376953125e+02,-2.343034982681274414e+00,7.562364959716796875e+01,3.135653114318847656e+01
9.073889851570129395e-01,1.000000000000000000e+00,-3.031812906265258789e+00,-2.510337233543395996e-01,5.281509876251220703e+00,-1.979336853027343750e+02,-8.751715087890625000e+01,-1.682150573730468750e+02,4.033146500587463379e-01,-6.667523193359375000e+01,-1.826889343261718750e+02,-2.343034982681274414e+00,7.562364959716796875e+01,3.135642242431640625e+01
9.114130139350891113e-01,1.000000000000000000e+00,-3.095283508300781250e+00,-1.964730024337768555e-01,5.289032936096191406e+00,-1.978779449462890625e+02,-8.744170379638671875e+01,-1.681495513916015625e+02,4.033146500587463379e-01,-6.667523193359375000e+01,-1.826890411376953125e+02,-2.342891216278076172e+00,7.562364959716796875e+01,3.135675048828125000e+01
9.154059886932373047e-01,1.000000000000000000e+00,-3.158754348754882812e+00,-1.420706659555435181e-01,5.296392917633056641e+00,-1.978218078613281250e+02,-8.736658477783203125e+01,-1.680849914550781250e+02,4.033146500587463379e-01,-6.667523193359375000e+01,-1.826890411376953125e+02,-2.343106746673583984e+00,7.562364959716796875e+01,3.135653114318847656e+01
9.193789958953857422e-01,1.000000000000000000e+00,-3.222397327423095703e+00,-8.760046213865280151e-02,5.303671836853027344e+00,-1.977666473388671875e+02,-8.729140472412109375e+01,-1.680187377929687500e+02,4.033146500587463379e-01,-6.667523193359375000e+01,-1.826890411376953125e+02,-2.343034982681274414e+00,7.562364959716796875e+01,3.135675048828125000e+01
9.233459830284118652e-01,1.000000000000000000e+00,-3.285925388336181641e+00,-3.308498114347457886e-02,5.310910224914550781e+00,-1.977112274169921875e+02,-8.721691894531250000e+01,-1.679540405273437500e+02,4.033146500587463379e-01,-6.667531585693359375e+01,-1.826892089843750000e+02,-2.343034982681274414e+00,7.562364959716796875e+01,3.135653114318847656e+01
9.277219772338867188e-01,1.000000000000000000e+00,-3.349424839019775391e+00,2.138523943722248077e-02,5.318229675292968750e+00,-1.976554565429687500e+02,-8.714217376708984375e+01,-1.678894805908203125e+02,4.033146500587463379e-01,-6.667523193359375000e+01,-1.826890411376953125e+02,-2.343034982681274414e+00,7.562364959716796875e+01,3.135653114318847656e+01
9.344559907913208008e-01,1.000000000000000000e+00,-3.412781000137329102e+00,7.585545629262924194e-02,5.325691223144531250e+00,-1.976000366210937500e+02,-8.706688690185546875e+01,-1.678237609863281250e+02,4.033146500587463379e-01,-6.667523193359375000e+01,-1.826890411376953125e+02,-2.343106746673583984e+00,7.562364959716796875e+01,3.135642242431640625e+01
9.358770251274108887e-01,1.000000000000000000e+00,-3.540124416351318359e+00,1.847280114889144897e-01,5.341204166412353516e+00,-1.974887847900390625e+02,-8.691702270507812500e+01,-1.676936187744140625e+02,4.033146500587463379e-01,-6.667531585693359375e+01,-1.826890411376953125e+02,-2.343106746673583984e+00,7.562372589111328125e+01,3.135653114318847656e+01
9.393519759178161621e-01,1.000000000000000000e+00,-3.540124416351318359e+00,1.847280114889144897e-01,5.341204166412353516e+00,-1.974887847900390625e+02,-8.691702270507812500e+01,-1.676936187744140625e+02,4.033146500587463379e-01,-6.667531585693359375e+01,-1.826890411376953125e+02,-2.343106746673583984e+00,7.562372589111328125e+01,3.135653114318847656e+01
9.433810114860534668e-01,1.000000000000000000e+00,-3.603738784790039062e+00,2.391076833009719849e-01,5.348788261413574219e+00,-1.974332733154296875e+02,-8.684237670898437500e+01,-1.676275024414062500e+02,4.033146500587463379e-01,-6.667523193359375000e+01,-1.826890411376953125e+02,-2.343034982681274414e+00,7.562364959716796875e+01,3.135653114318847656e+01
9.473400115966796875e-01,1.000000000000000000e+00,-3.667266845703125000e+00,2.933742403984069824e-01,5.356188774108886719e+00,-1.973777618408203125e+02,-8.676699066162109375e+01,-1.675626678466796875e+02,4.033146500587463379e-01,-6.667523193359375000e+01,-1.826890411376953125e+02,-2.343034982681274414e+00,7.562364959716796875e+01,3.135653114318847656e+01
9.513620138168334961e-01,1.000000000000000000e+00,-3.730623006820678711e+00,3.478897213935852051e-01,5.363406658172607422e+00,-1.973222961425781250e+02,-8.669165039062500000e+01,-1.674976959228515625e+02,4.033146500587463379e-01,-6.667523193359375000e+01,-1.826889343261718750e+02,-2.343106746673583984e+00,7.562364959716796875e+01,3.135642242431640625e+01
9.553719758987426758e-01,1.000000000000000000e+00,-3.794179439544677734e+00,4.024730920791625977e-01,5.370502471923828125e+00,-1.972662506103515625e+02,-8.661642456054687500e+01,-1.674323272705078125e+02,4.033146500587463379e-01,-6.667523193359375000e+01,-1.826890411376953125e+02,-2.343034982681274414e+00,7.562350463867187500e+01,3.135653114318847656e+01
9.593449831008911133e-01,1.000000000000000000e+00,-3.857506990432739258e+00,4.569886028766632080e-01,5.377882480621337891e+00,-1.972110443115234375e+02,-8.654167175292968750e+01,-1.673670043945312500e+02,4.033146500587463379e-01,-6.667523193359375000e+01,-1.826890411376953125e+02,-2.343106746673583984e+00,7.562364959716796875e+01,3.135653114318847656e+01
9.634010195732116699e-01,1.000000000000000000e+00,-3.920977830886840820e+00,5.115719437599182129e-01,5.385385036468505859e+00,-1.971556243896484375e+02,-8.646601867675781250e+01,-1.673016357421875000e+02,4.033146500587463379e-01,-6.667523193359375000e+01,-1.826890411376953125e+02,-2.343106746673583984e+00,7.562364959716796875e+01,3.135653114318847656e+01
9.677519798278808594e-01,1.000000000000000000e+00,-3.984505653381347656e+00,5.660874247550964355e-01,5.392887592315673828e+00,-1.971000213623046875e+02,-8.639143371582031250e+01,-1.672361297607421875e+02,4.033146500587463379e-01,-6.667523193359375000e+01,-1.826889343261718750e+02,-2.342891216278076172e+00,7.562364959716796875e+01,3.135653114318847656e+01
9.713540077209472656e-01,1.000000000000000000e+00,-4.047775745391845703e+00,6.206481456756591797e-01,5.400308609008789062e+00,-1.970451202392578125e+02,-8.631651306152343750e+01,-1.671716308593750000e+02,4.033146500587463379e-01,-6.667523193359375000e+01,-1.826889343261718750e+02,-2.343106746673583984e+00,7.562372589111328125e+01,3.135653114318847656e+01
9.761040210723876953e-01,1.000000000000000000e+00,-4.111275196075439453e+00,6.749147176742553711e-01,5.407669067382812500e+00,-1.969888153076171875e+02,-8.624113464355468750e+01,-1.671065216064453125e+02,4.033146500587463379e-01,-6.667523193359375000e+01,-1.826890411376953125e+02,-2.343106746673583984e+00,7.562364959716796875e+01,3.135653114318847656e+01
9.813550114631652832e-01,1.000000000000000000e+00,-4.174545288085937500e+00,7.295207381248474121e-01,5.414988517761230469e+00,-1.969333496093750000e+02,-8.616531372070312500e+01,-1.670406036376953125e+02,4.033146500587463379e-01,-6.667523193359375000e+01,-1.826890411376953125e+02,-2.343034982681274414e+00,7.562364959716796875e+01,3.135653114318847656e+01
9.840729832649230957e-01,1.000000000000000000e+00,-4.301314353942871094e+00,8.383479714393615723e-01,5.429444313049316406e+00,-1.968223114013671875e+02,-8.601592254638671875e+01,-1.669108734130859375e+02,4.033146500587463379e-01,-6.667523193359375000e+01,-1.826889343261718750e+02,-2.343034982681274414e+00,7.562364959716796875e+01,3.135642242431640625e+01
9.873470067977905273e-01,1.000000000000000000e+00,-4.301314353942871094e+00,8.383479714393615723e-01,5.429444313049316406e+00,-1.968223114013671875e+02,-8.601592254638671875e+01,-1.669108734130859375e+02,4.033146500587463379e-01,-6.667523193359375000e+01,-1.826889343261718750e+02,-2.343034982681274414e+00,7.562364959716796875e+01,3.135642242431640625e+01
9.914280176162719727e-01,1.000000000000000000e+00,-4.364727973937988281e+00,8.927050232887268066e-01,5.437007904052734375e+00,-1.967671051025390625e+02,-8.594122314453125000e+01,-1.668455657958984375e+02,4.033146500587463379e-01,-6.667523193359375000e+01,-1.826890411376953125e+02,-2.342891216278076172e+00,7.562364959716796875e+01,3.135653114318847656e+01
9.953920245170593262e-01,1.000000000000000000e+00,-4.428198337554931641e+00,9.469263553619384766e-01,5.444815158843994141e+00,-1.967112731933593750e+02,-8.586482238769531250e+01,-1.667811431884765625e+02,4.033146500587463379e-01,-6.667523193359375000e+01,-1.826890411376953125e+02,-2.343034982681274414e+00,7.562364959716796875e+01,3.135653114318847656e+01
1.000046968460083008e+00,1.000000000000000000e+00,-4.491554260253906250e+00,1.001260757446289062e+00,5.452581882476806641e+00,-1.966555480957031250e+02,-8.579055786132812500e+01,-1.667154998779296875e+02,4.033146500587463379e-01,-6.667523193359375000e+01,-1.826889343261718750e+02,-2.343034982681274414e+00,7.562364959716796875e+01,3.135653114318847656e+01
1.003705024719238281e+00,1.000000000000000000e+00,-4.554996490478515625e+00,1.055436849594116211e+00,5.460145473480224609e+00,-1.966006011962890625e+02,-8.571548461914062500e+01,-1.666500396728515625e+02,4.033146500587463379e-01,-6.667523193359375000e+01,-1.826890411376953125e+02,-2.343106746673583984e+00,7.562364959716796875e+01,3.135653114318847656e+01
1.007346987724304199e+00,1.000000000000000000e+00,-4.618352413177490234e+00,1.109839200973510742e+00,5.467464923858642578e+00,-1.965448303222656250e+02,-8.564057159423828125e+01,-1.665856323242187500e+02,4.033146500587463379e-01,-6.667523193359375000e+01,-1.826890411376953125e+02,-2.343034982681274414e+00,7.562364959716796875e+01,3.135653114318847656e+01
1.011358022689819336e+00,1.000000000000000000e+00,-4.681593418121337891e+00,1.164354681968688965e+00,5.474641799926757812e+00,-1.964892578125000000e+02,-8.556444549560546875e+01,-1.665190277099609375e+02,4.033146500587463379e-01,-6.667523193359375000e+01,-1.826890411376953125e+02,-2.343034982681274414e+00,7.562350463867187500e+01,3.135653114318847656e+01
1.015421986579895020e+00,1.000000000000000000e+00,-4.744777202606201172e+00,1.218824863433837891e+00,5.481778621673583984e+00,-1.964336853027343750e+02,-8.548979949951171875e+01,-1.664541320800781250e+02,4.033146500587463379e-01,-6.667523193359375000e+01,-1.826890411376953125e+02,-2.342891216278076172e+00,7.562364959716796875e+01,3.135653114318847656e+01
1.019345045089721680e+00,1.000000000000000000e+00,-4.807788372039794922e+00,1.273295044898986816e+00,5.489179134368896484e+00,-1.963777923583984375e+02,-8.541536712646484375e+01,-1.663897705078125000e+02,4.033146500587463379e-01,-6.667523193359375000e+01,-1.826890411376953125e+02,-2.343034982681274414e+00,7.562364959716796875e+01,3.135653114318847656e+01
1.024049043655395508e+00,1.000000000000000000e+00,-4.870886325836181641e+00,1.327765345573425293e+00,5.496661186218261719e+00,-1.963227539062500000e+02,-8.534030151367187500e+01,-1.663238525390625000e+02,4.033146500587463379e-01,-6.667523193359375000e+01,-1.826890411376953125e+02,-2.343106746673583984e+00,7.562364959716796875e+01,3.135653114318847656e+01
1.027914047241210938e+00,1.000000000000000000e+00,-4.933955192565917969e+00,1.382167577743530273e+00,5.504224777221679688e+00,-1.962671813964843750e+02,-8.526448059082031250e+01,-1.662590179443359375e+02,4.033146500587463379e-01,-6.667523193359375000e+01,-1.826890411376953125e+02,-2.343106746673583984e+00,7.562372589111328125e+01,3.135653114318847656e+01
1.032349944114685059e+00,1.000000000000000000e+00,-4.997311115264892578e+00,1.436479449272155762e+00,5.511686325073242188e+00,-1.962115631103515625e+02,-8.518973541259765625e+01,-1.661933135986328125e+02,4.033146500587463379e-01,-6.667523193359375000e+01,-1.826889343261718750e+02,-2.343106746673583984e+00,7.562364959716796875e+01,3.135653114318847656e+01
1.035349011421203613e+00,1.000000000000000000e+00,-5.060580730438232422e+00,1.490859150886535645e+00,5.519005775451660156e+00,-1.961561889648437500e+02,-8.511535644531250000e+01,-1.661275939941406250e+02,4.033146500587463379e-01,-6.667523193359375000e+01,-1.826890411376953125e+02,-2.342891216278076172e+00,7.562372589111328125e+01,3.135653114318847656e+01
1.039420008659362793e+00,1.000000000000000000e+00,-5.123649597167968750e+00,1.545374631881713867e+00,5.526284694671630859e+00,-1.961006774902343750e+02,-8.504013061523437500e+01,-1.660635833740234375e+02,4.033146500587463379e-01,-6.667523193359375000e+01,-1.826890411376953125e+02,-2.343034982681274414e+00,7.562364959716796875e+01,3.135653114318847656e+01
1.043347954750061035e+00,1.000000000000000000e+00,-5.186862468719482422e+00,1.599867463111877441e+00,5.533401012420654297e+00,-1.960455322265625000e+02,-8.496468353271484375e+01,-1.659981994628906250e+02,4.033146500587463379e-01,-6.667523193359375000e+01,-1.826890411376953125e+02,-2.343034982681274414e+00,7.562372589111328125e+01,3.135653114318847656e+01
1.048092007637023926e+00,1.000000000000000000e+00,-5.249930858612060547e+00,1.654043436050415039e+00,5.540618896484375000e+00,-1.959899597167968750e+02,-8.488951110839843750e+01,-1.659325561523437500e+02,4.033146500587463379e-01,-6.667523193359375000e+01,-1.826890411376953125e+02,-2.343034982681274414e+00,7.562364959716796875e+01,3.135653114318847656e+01
1.052235007286071777e+00,1.000000000000000000e+00,-5.313114643096923828e+00,1.708377957344055176e+00,5.548080444335937500e+00,-1.959341125488281250e+02,-8.481508636474609375e+01,-1.658679199218750000e+02,4.033146500587463379e-01,-6.667523193359375000e+01,-1.826890411376953125e+02,-2.343106746673583984e+00,7.562364959716796875e+01,3.135642242431640625e+01
1.055490970611572266e+00,1.000000000000000000e+00,-5.376556873321533203e+00,1.762440800666809082e+00,5.555786132812500000e+00,-1.958787689208984375e+02,-8.473959350585937500e+01,-1.658023376464843750e+02,4.033146500587463379e-01,-6.667523193359375000e+01,-1.826892089843750000e+02,-2.342891216278076172e+00,7.562350463867187500e+01,3.135653114318847656e+01
1.059412002563476562e+00,1.000000000000000000e+00,-5.440027713775634766e+00,1.816956281661987305e+00,5.563451290130615234e+00,-1.958229675292968750e+02,-8.466457366943359375e+01,-1.657372283935546875e+02,4.033146500587463379e-01,-6.667523193359375000e+01,-1.826892089843750000e+02,-2.343034982681274414e+00,7.562364959716796875e+01,3.135653114318847656e+01
1.063472032546997070e+00,1.000000000000000000e+00,-5.503355026245117188e+00,1.871426343917846680e+00,5.571156978607177734e+00,-1.957677154541015625e+02,-8.458956146240234375e+01,-1.656729431152343750e+02,4.033146500587463379e-01,-6.667523193359375000e+01,-1.826890411376953125e+02,-2.343106746673583984e+00,7.562364959716796875e+01,3.135653114318847656e+01
1.067481040954589844e+00,1.000000000000000000e+00,-5.566596031188964844e+00,1.925964593887329102e+00,5.578577995300292969e+00,-1.957120513916015625e+02,-8.451502227783203125e+01,-1.656075744628906250e+02,4.033146500587463379e-01,-6.667523193359375000e+01,-1.826889343261718750e+02,-2.343034982681274414e+00,7.562364959716796875e+01,3.135653114318847656e+01
1.072201013565063477e+00,1.000000000000000000e+00,-5.629837036132812500e+00,1.980434775352478027e+00,5.585694313049316406e+00,-1.956566314697265625e+02,-8.443958282470703125e+01,-1.655423889160156250e+02,4.033146500587463379e-01,-6.667531585693359375e+01,-1.826890411376953125e+02,-2.343034982681274414e+00,7.562372589111328125e+01,3.135653114318847656e+01
1.076107025146484375e+00,1.000000000000000000e+00,-5.693078041076660156e+00,2.034791946411132812e+00,5.592790126800537109e+00,-1.956011657714843750e+02,-8.436460876464843750e+01,-1.654774932861328125e+02,4.033146500587463379e-01,-6.667523193359375000e+01,-1.826890411376953125e+02,-2.343034982681274414e+00,7.562364959716796875e+01,3.135653114318847656e+01
1.079632043838500977e+00,1.000000000000000000e+00,-5.756290435791015625e+00,2.089239358901977539e+00,5.600129604339599609e+00,-1.955453338623046875e+02,-8.428959655761718750e+01,-1.654114532470703125e+02,4.033146500587463379e-01,-6.667523193359375000e+01,-1.826892089843750000e+02,-2.343034982681274414e+00,7.562364959716796875e+01,3.135653114318847656e+01
1.083688974380493164e+00,1.000000000000000000e+00,-5.819703578948974609e+00,2.143438100814819336e+00,5.607754230499267578e+00,-1.954903411865234375e+02,-8.421527862548828125e+01,-1.653468170166015625e+02,4.033146500587463379e-01,-6.667523193359375000e+01,-1.826890411376953125e+02,-2.343034982681274414e+00,7.562364959716796875e+01,3.135653114318847656e+01
1.087622046470642090e+00,1.000000000000000000e+00,-5.883145809173583984e+00,2.197953701019287109e+00,5.615398883819580078e+00,-1.954348754882812500e+02,-8.413978576660156250e+01,-1.652820587158203125e+02,4.033146500587463379e-01,-6.667523193359375000e+01,-1.826890411376953125e+02,-2.343034982681274414e+00,7.562364959716796875e+01,3.135653114318847656e+01
1.091645956039428711e+00,1.000000000000000000e+00,-5.946415901184082031e+00,2.252355813980102539e+00,5.622860431671142578e+00,-1.953787231445312500e+02,-8.406497955322265625e+01,-1.652166748046875000e+02,4.033146500587463379e-01,-6.667523193359375000e+01,-1.826890411376953125e+02,-2.343106746673583984e+00,7.562364959716796875e+01,3.135653114318847656e+01
1.096241950988769531e+00,1.000000000000000000e+00,-6.009886741638183594e+00,2.306644916534423828e+00,5.630240917205810547e+00,-1.953239440917968750e+02,-8.399006652832031250e+01,-1.651521148681640625e+02,4.033146500587463379e-01,-6.667523193359375000e+01,-1.826890411376953125e+02,-2.343034982681274414e+00,7.562364959716796875e+01,3.135653114318847656e+01
1.100471019744873047e+00,1.000000000000000000e+00,-6.073214054107666016e+00,2.361047506332397461e+00,5.637418270111083984e+00,-1.952682647705078125e+02,-8.391489410400390625e+01,-1.650866699218750000e+02,4.033146500587463379e-01,-6.667523193359375000e+01,-1.826890411376953125e+02,-2.343106746673583984e+00,7.562372589111328125e+01,3.135653114318847656e+01
1.103824973106384277e+00,1.000000000000000000e+00,-6.136598587036132812e+00,2.415178298950195312e+00,5.644636154174804688e+00,-1.952125854492187500e+02,-8.383976745605468750e+01,-1.650210876464843750e+02,4.033146500587463379e-01,-6.667523193359375000e+01,-1.826890411376953125e+02,-2.343034982681274414e+00,7.562372589111328125e+01,3.135653114318847656e+01
1.107717990875244141e+00,1.000000000000000000e+00,-6.200040817260742188e+00,2.469489812850952148e+00,5.652016639709472656e+00,-1.951577606201171875e+02,-8.376518249511718750e+01,-1.649565277099609375e+02,4.033146500587463379e-01,-6.667523193359375000e+01,-1.826890411376953125e+02,-2.343034982681274414e+00,7.562364959716796875e+01,3.135653114318847656e+01
