rpiRobotics/ARM-21-02-F-19-Robot-Motion-Program/data_performance_abb/curve_2/curve_pose_opt2/greedy0.02/grad_result/real/run_1.csv
timestamp,cmd_num,J1,J2,J3,J4,J5,J6
1.409999968018382788e-04,-1.000000000000000000e+00,9.288377761840820312e+00,-1.082875633239746094e+01,3.840473651885986328e+00,-2.087334899902343750e+02,-1.021040725708007812e+02,-1.808818969726562500e+02,4.033146500587463379e-01,-6.667523193359375000e+01,-1.826889343261718750e+02,-2.343034982681274414e+00,7.562364959716796875e+01,3.135619926452636719e+01
7.017000112682580948e-03,1.000000000000000000e+00,9.288434982299804688e+00,-1.082875633239746094e+01,3.840473651885986328e+00,-2.087333221435546875e+02,-1.021040725708007812e+02,-1.808817596435546875e+02,4.033146500587463379e-01,-6.667523193359375000e+01,-1.826890411376953125e+02,-2.343106746673583984e+00,7.562364959716796875e+01,3.135619926452636719e+01
1.056899968534708023e-02,1.000000000000000000e+00,9.288377761840820312e+00,-1.082875633239746094e+01,3.840432643890380859e+00,-2.087334899902343750e+02,-1.021040725708007812e+02,-1.808818969726562500e+02,4.033146500587463379e-01,-6.667523193359375000e+01,-1.826889343261718750e+02,-2.342891216278076172e+00,7.562364959716796875e+01,3.135619926452636719e+01
1.433600019663572311e-02,1.000000000000000000e+00,9.288377761840820312e+00,-1.082882404327392578e+01,3.840432643890380859e+00,-2.087334899902343750e+02,-1.021040725708007812e+02,-1.808817596435546875e+02,4.033146500587463379e-01,-6.667523193359375000e+01,-1.826889343261718750e+02,-2.343106746673583984e+00,7.562364959716796875e+01,3.135619926452636719e+01
3.503200039267539978e-02,1.000000000000000000e+00,9.288377761840820312e+00,-1.082882404327392578e+01,3.840432643890380859e+00,-2.087334899902343750e+02,-1.021039123535156250e+02,-1.808818969726562500e+02,4.033146500587463379e-01,-6.667523193359375000e+01,-1.826889343261718750e+02,-2.343034982681274414e+00,7.562364959716796875e+01,3.135619926452636719e+01
3.633999824523925781e-02,1.000000000000000000e+00,9.288377761840820312e+00,-1.082882404327392578e+01,3.840432643890380859e+00,-2.087334899902343750e+02,-1.021039123535156250e+02,-1.808818969726562500e+02,4.033146500587463379e-01,-6.667523193359375000e+01,-1.826889343261718750e+02,-2.343034982681274414e+00,7.562364959716796875e+01,3.135619926452636719e+01
3.944399952888488770e-02,1.000000000000000000e+00,9.288377761840820312e+00,-1.082875633239746094e+01,3.840432643890380859e+00,-2.087333221435546875e+02,-1.021040725708007812e+02,-1.808817596435546875e+02,4.033146500587463379e-01,-6.667523193359375000e+01,-1.826890411376953125e+02,-2.343106746673583984e+00,7.562364959716796875e+01,3.135619926452636719e+01
4.713999852538108826e-02,1.000000000000000000e+00,9.288377761840820312e+00,-1.082882404327392578e+01,3.840432643890380859e+00,-2.087334899902343750e+02,-1.021041870117187500e+02,-1.808817596435546875e+02,4.033146500587463379e-01,-6.667523193359375000e+01,-1.826889343261718750e+02,-2.343034982681274414e+00,7.562364959716796875e+01,3.135619926452636719e+01
4.843899980187416077e-02,1.000000000000000000e+00,9.288377761840820312e+00,-1.082882404327392578e+01,3.840432643890380859e+00,-2.087334899902343750e+02,-1.021041870117187500e+02,-1.808817596435546875e+02,4.033146500587463379e-01,-6.667523193359375000e+01,-1.826889343261718750e+02,-2.343034982681274414e+00,7.562364959716796875e+01,3.135619926452636719e+01
5.100300163030624390e-02,1.000000000000000000e+00,9.288377761840820312e+00,-1.082875633239746094e+01,3.840392112731933594e+00,-2.087334899902343750e+02,-1.021040725708007812e+02,-1.808818969726562500e+02,4.033146500587463379e-01,-6.667523193359375000e+01,-1.826890411376953125e+02,-2.343034982681274414e+00,7.562364959716796875e+01,3.135619926452636719e+01
5.227699875831604004e-02,1.000000000000000000e+00,9.288377761840820312e+00,-1.082875633239746094e+01,3.840392112731933594e+00,-2.087334899902343750e+02,-1.021040725708007812e+02,-1.808818969726562500e+02,4.033146500587463379e-01,-6.667523193359375000e+01,-1.826890411376953125e+02,-2.343034982681274414e+00,7.562364959716796875e+01,3.135619926452636719e+01
6.021999940276145935e-02,1.000000000000000000e+00,9.287716865539550781e+00,-1.082848453521728516e+01,3.840473651885986328e+00,-2.087334899902343750e+02,-1.021040725708007812e+02,-1.808817596435546875e+02,4.033146500587463379e-01,-6.667523193359375000e+01,-1.826890411376953125e+02,-2.343034982681274414e+00,7.562364959716796875e+01,3.135619926452636719e+01
6.276799738407135010e-02,1.000000000000000000e+00,9.286711692810058594e+00,-1.082773780822753906e+01,3.840473651885986328e+00,-2.087335815429687500e+02,-1.021040725708007812e+02,-1.808817596435546875e+02,4.033146500587463379e-01,-6.667523193359375000e+01,-1.826889343261718750e+02,-2.343034982681274414e+00,7.562364959716796875e+01,3.135619926452636719e+01
6.402800232172012329e-02,1.000000000000000000e+00,9.286711692810058594e+00,-1.082773780822753906e+01,3.840473651885986328e+00,-2.087335815429687500e+02,-1.021040725708007812e+02,-1.808817596435546875e+02,4.033146500587463379e-01,-6.667523193359375000e+01,-1.826889343261718750e+02,-2.343034982681274414e+00,7.562364959716796875e+01,3.135619926452636719e+01
6.647700071334838867e-02,1.000000000000000000e+00,9.284990310668945312e+00,-1.082631206512451172e+01,3.840432643890380859e+00,-2.087334899902343750e+02,-1.021039123535156250e+02,-1.808818969726562500e+02,4.033146500587463379e-01,-6.667531585693359375e+01,-1.826889343261718750e+02,-2.342891216278076172e+00,7.562364959716796875e+01,3.135619926452636719e+01
7.040199637413024902e-02,1.000000000000000000e+00,9.282406806945800781e+00,-1.082425212860107422e+01,3.840473651885986328e+00,-2.087333221435546875e+02,-1.021036453247070312e+02,-1.808816223144531250e+02,4.033146500587463379e-01,-6.667523193359375000e+01,-1.826889343261718750e+02,-2.343034982681274414e+00,7.562364959716796875e+01,3.135619926452636719e+01
7.188600301742553711e-02,1.000000000000000000e+00,9.282406806945800781e+00,-1.082425212860107422e+01,3.840473651885986328e+00,-2.087333221435546875e+02,-1.021036453247070312e+02,-1.808816223144531250e+02,4.033146500587463379e-01,-6.667523193359375000e+01,-1.826889343261718750e+02,-2.343034982681274414e+00,7.562364959716796875e+01,3.135619926452636719e+01
7.518500089645385742e-02,1.000000000000000000e+00,9.282406806945800781e+00,-1.082425212860107422e+01,3.840473651885986328e+00,-2.087333221435546875e+02,-1.021036453247070312e+02,-1.808816223144531250e+02,4.033146500587463379e-01,-6.667523193359375000e+01,-1.826889343261718750e+02,-2.343034982681274414e+00,7.562364959716796875e+01,3.135619926452636719e+01
7.649400085210800171e-02,1.000000000000000000e+00,9.278903961181640625e+00,-1.082124328613281250e+01,3.840575218200683594e+00,-2.087334899902343750e+02,-1.021031112670898438e+02,-1.808816223144531250e+02,4.033146500587463379e-01,-6.667523193359375000e+01,-1.826889343261718750e+02,-2.343034982681274414e+00,7.562364959716796875e+01,3.135619926452636719e+01
8.092000335454940796e-02,1.000000000000000000e+00,9.274339675903320312e+00,-1.081714725494384766e+01,3.840717554092407227e+00,-2.087331237792968750e+02,-1.021017837524414062e+02,-1.808812866210937500e+02,4.033146500587463379e-01,-6.667523193359375000e+01,-1.826889343261718750e+02,-2.343034982681274414e+00,7.562364959716796875e+01,3.135598182678222656e+01
8.453799784183502197e-02,1.000000000000000000e+00,9.268598556518554688e+00,-1.081162548065185547e+01,3.841063261032104492e+00,-2.087322845458984375e+02,-1.020997619628906250e+02,-1.808805389404296875e+02,4.033146500587463379e-01,-6.667523193359375000e+01,-1.826889343261718750e+02,-2.343034982681274414e+00,7.562364959716796875e+01,3.135619926452636719e+01
8.709800243377685547e-02,1.000000000000000000e+00,9.261421203613281250e+00,-1.080431652069091797e+01,3.841591596603393555e+00,-2.087296447753906250e+02,-1.020966644287109375e+02,-1.808785095214843750e+02,4.033146500587463379e-01,-6.667523193359375000e+01,-1.826889343261718750e+02,-2.343106746673583984e+00,7.562364959716796875e+01,3.135619926452636719e+01
8.836500346660614014e-02,1.000000000000000000e+00,9.261421203613281250e+00,-1.080431652069091797e+01,3.841591596603393555e+00,-2.087296447753906250e+02,-1.020966644287109375e+02,-1.808785095214843750e+02,4.033146500587463379e-01,-6.667523193359375000e+01,-1.826889343261718750e+02,-2.343106746673583984e+00,7.562364959716796875e+01,3.135619926452636719e+01
9.081500023603439331e-02,1.000000000000000000e+00,9.252379417419433594e+00,-1.079467487335205078e+01,3.842222213745117188e+00,-2.087258911132812500e+02,-1.020922927856445312e+02,-1.808742980957031250e+02,4.033146500587463379e-01,-6.667523193359375000e+01,-1.826889343261718750e+02,-2.343106746673583984e+00,7.562364959716796875e+01,3.135619926452636719e+01
9.514900296926498413e-02,1.000000000000000000e+00,9.241470336914062500e+00,-1.078286266326904297e+01,3.843014955520629883e+00,-2.087212066650390625e+02,-1.020859451293945312e+02,-1.808685302734375000e+02,4.033146500587463379e-01,-6.667523193359375000e+01,-1.826889343261718750e+02,-2.343034982681274414e+00,7.562364959716796875e+01,3.135619926452636719e+01
9.653999656438827515e-02,1.000000000000000000e+00,9.241470336914062500e+00,-1.078286266326904297e+01,3.843014955520629883e+00,-2.087212066650390625e+02,-1.020859451293945312e+02,-1.808685302734375000e+02,4.033146500587463379e-01,-6.667523193359375000e+01,-1.826889343261718750e+02,-2.343034982681274414e+00,7.562364959716796875e+01,3.135619926452636719e+01
9.986999630928039551e-02,1.000000000000000000e+00,9.227633476257324219e+00,-1.076856136322021484e+01,3.844133377075195312e+00,-2.087146301269531250e+02,-1.020771484375000000e+02,-1.808609313964843750e+02,4.033146500587463379e-01,-6.667523193359375000e+01,-1.826890411376953125e+02,-2.343034982681274414e+00,7.562364959716796875e+01,3.135642242431640625e+01
1.043910011649131775e-01,1.000000000000000000e+00,9.227633476257324219e+00,-1.076856136322021484e+01,3.844133377075195312e+00,-2.087146301269531250e+02,-1.020771484375000000e+02,-1.808609313964843750e+02,4.033146500587463379e-01,-6.667523193359375000e+01,-1.826890411376953125e+02,-2.343034982681274414e+00,7.562364959716796875e+01,3.135642242431640625e+01
1.088090017437934875e-01,1.000000000000000000e+00,9.191779136657714844e+00,-1.073237514495849609e+01,3.847630500793457031e+00,-2.086938781738281250e+02,-1.020505447387695312e+02,-1.808378143310546875e+02,4.033146500587463379e-01,-6.667523193359375000e+01,-1.826889343261718750e+02,-2.343034982681274414e+00,7.562364959716796875e+01,3.135619926452636719e+01
1.114469990134239197e-01,1.000000000000000000e+00,9.169846534729003906e+00,-1.071110343933105469e+01,3.849846363067626953e+00,-2.086794433593750000e+02,-1.020319366455078125e+02,-1.808219451904296875e+02,4.033146500587463379e-01,-6.667523193359375000e+01,-1.826889343261718750e+02,-2.343106746673583984e+00,7.562364959716796875e+01,3.135619926452636719e+01
1.158059984445571899e-01,1.000000000000000000e+00,9.169846534729003906e+00,-1.071110343933105469e+01,3.849846363067626953e+00,-2.086794433593750000e+02,-1.020319366455078125e+02,-1.808219451904296875e+02,4.033146500587463379e-01,-6.667523193359375000e+01,-1.826889343261718750e+02,-2.343106746673583984e+00,7.562364959716796875e+01,3.135619926452636719e+01
1.198699995875358582e-01,1.000000000000000000e+00,9.145704269409179688e+00,-1.068874454498291016e+01,3.852388143539428711e+00,-2.086620635986328125e+02,-1.020099182128906250e+02,-1.808022766113281250e+02,4.033146500587463379e-01,-6.667523193359375000e+01,-1.826889343261718750e+02,-2.343106746673583984e+00,7.562364959716796875e+01,3.135619926452636719e+01
1.237960010766983032e-01,1.000000000000000000e+00,9.119294166564941406e+00,-1.066520977020263672e+01,3.855336189270019531e+00,-2.086419372558593750e+02,-1.019827270507812500e+02,-1.807787475585937500e+02,4.033146500587463379e-01,-6.667523193359375000e+01,-1.826889343261718750e+02,-2.343034982681274414e+00,7.562364959716796875e+01,3.135619926452636719e+01
1.278080046176910400e-01,1.000000000000000000e+00,9.090070724487304688e+00,-1.064004516601562500e+01,3.858345270156860352e+00,-2.086186676025390625e+02,-1.019496154785156250e+02,-1.807514038085937500e+02,4.033146500587463379e-01,-6.667523193359375000e+01,-1.826889343261718750e+02,-2.343034982681274414e+00,7.562372589111328125e+01,3.135619926452636719e+01
1.318269968032836914e-01,1.000000000000000000e+00,9.058206558227539062e+00,-1.061309337615966797e+01,3.861781358718872070e+00,-2.085918426513671875e+02,-1.019120864868164062e+02,-1.807196807861328125e+02,4.033146500587463379e-01,-6.667523193359375000e+01,-1.826889343261718750e+02,-2.343106746673583984e+00,7.562364959716796875e+01,3.135619926452636719e+01
1.358570009469985962e-01,1.000000000000000000e+00,9.023643493652343750e+00,-1.058405876159667969e+01,3.865684747695922852e+00,-2.085610351562500000e+02,-1.018720397949218750e+02,-1.806829833984375000e+02,4.033146500587463379e-01,-6.667523193359375000e+01,-1.826889343261718750e+02,-2.343034982681274414e+00,7.562364959716796875e+01,3.135619926452636719e+01
1.397950053215026855e-01,1.000000000000000000e+00,8.986438751220703125e+00,-1.055335044860839844e+01,3.869954586029052734e+00,-2.085253295898437500e+02,-1.018275756835937500e+02,-1.806414184570312500e+02,4.033146500587463379e-01,-6.667523193359375000e+01,-1.826889343261718750e+02,-2.343106746673583984e+00,7.562364959716796875e+01,3.135642242431640625e+01
1.438149958848953247e-01,1.000000000000000000e+00,8.946565628051757812e+00,-1.052114772796630859e+01,3.874732732772827148e+00,-2.084866027832031250e+02,-1.017757034301757812e+02,-1.805968627929687500e+02,4.033146500587463379e-01,-6.667523193359375000e+01,-1.826889343261718750e+02,-2.343034982681274414e+00,7.562364959716796875e+01,3.135619926452636719e+01
1.478060036897659302e-01,1.000000000000000000e+00,8.904308319091796875e+00,-1.048731613159179688e+01,3.879612445831298828e+00,-2.084460449218750000e+02,-1.017200393676757812e+02,-1.805497283935546875e+02,4.033146500587463379e-01,-6.667523193359375000e+01,-1.826889343261718750e+02,-2.343106746673583984e+00,7.562364959716796875e+01,3.135619926452636719e+01
1.518629938364028931e-01,1.000000000000000000e+00,8.859956741333007812e+00,-1.045187759399414062e+01,3.884938955307006836e+00,-2.084033203125000000e+02,-1.016622467041015625e+02,-1.804994049072265625e+02,4.033146500587463379e-01,-6.667523193359375000e+01,-1.826889343261718750e+02,-2.343034982681274414e+00,7.562364959716796875e+01,3.135619926452636719e+01
1.563999950885772705e-01,1.000000000000000000e+00,8.813652992248535156e+00,-1.041444778442382812e+01,3.890509843826293945e+00,-2.083560333251953125e+02,-1.016001815795898438e+02,-1.804435882568359375e+02,4.033146500587463379e-01,-6.667523193359375000e+01,-1.826889343261718750e+02,-2.343034982681274414e+00,7.562364959716796875e+01,3.135619926452636719e+01
1.607539951801300049e-01,1.000000000000000000e+00,8.765138626098632812e+00,-1.037509441375732422e+01,3.896467208862304688e+00,-2.083065643310546875e+02,-1.015352401733398438e+02,-1.803849334716796875e+02,4.033146500587463379e-01,-6.667523193359375000e+01,-1.826889343261718750e+02,-2.343106746673583984e+00,7.562364959716796875e+01,3.135619926452636719e+01
1.637469977140426636e-01,1.000000000000000000e+00,8.660674095153808594e+00,-1.028907775878906250e+01,3.909438848495483398e+00,-2.082041168212890625e+02,-1.013971023559570312e+02,-1.802660369873046875e+02,4.033146500587463379e-01,-6.667523193359375000e+01,-1.826889343261718750e+02,-2.343106746673583984e+00,7.562364959716796875e+01,3.135619926452636719e+01
1.678770035505294800e-01,1.000000000000000000e+00,8.660674095153808594e+00,-1.028907775878906250e+01,3.909438848495483398e+00,-2.082041168212890625e+02,-1.013971023559570312e+02,-1.802660369873046875e+02,4.033146500587463379e-01,-6.667523193359375000e+01,-1.826889343261718750e+02,-2.343106746673583984e+00,7.562364959716796875e+01,3.135619926452636719e+01
1.718990057706832886e-01,1.000000000000000000e+00,8.605413436889648438e+00,-1.024257278442382812e+01,3.916067123413085938e+00,-2.081511840820312500e+02,-1.013253936767578125e+02,-1.802029113769531250e+02,4.033146500587463379e-01,-6.667523193359375000e+01,-1.826889343261718750e+02,-2.343034982681274414e+00,7.562364959716796875e+01,3.135619926452636719e+01
1.758130043745040894e-01,1.000000000000000000e+00,8.548574447631835938e+00,-1.019394111633300781e+01,3.922756195068359375e+00,-2.080971374511718750e+02,-1.012528305053710938e+02,-1.801399078369140625e+02,4.033146500587463379e-01,-6.667523193359375000e+01,-1.826889343261718750e+02,-2.343034982681274414e+00,7.562364959716796875e+01,3.135619926452636719e+01
1.805759966373443604e-01,1.000000000000000000e+00,8.490098953247070312e+00,-1.014388465881347656e+01,3.929689645767211914e+00,-2.080413970947265625e+02,-1.011797332763671875e+02,-1.800753479003906250e+02,4.033146500587463379e-01,-6.667523193359375000e+01,-1.826890411376953125e+02,-2.343034982681274414e+00,7.562364959716796875e+01,3.135598182678222656e+01
1.847579926252365112e-01,1.000000000000000000e+00,8.430474281311035156e+00,-1.009260559082031250e+01,3.936887025833129883e+00,-2.079862518310546875e+02,-1.011049270629882812e+02,-1.800097808837890625e+02,4.033146500587463379e-01,-6.667523193359375000e+01,-1.826889343261718750e+02,-2.343034982681274414e+00,7.562364959716796875e+01,3.135619926452636719e+01
1.877750009298324585e-01,1.000000000000000000e+00,8.308212280273437500e+00,-9.986945152282714844e+00,3.951464653015136719e+00,-2.078746948242187500e+02,-1.009540405273437500e+02,-1.798782653808593750e+02,4.033146500587463379e-01,-6.667523193359375000e+01,-1.826889343261718750e+02,-2.343106746673583984e+00,7.562364959716796875e+01,3.135619926452636719e+01
1.918690055608749390e-01,1.000000000000000000e+00,8.308212280273437500e+00,-9.986945152282714844e+00,3.951464653015136719e+00,-2.078746948242187500e+02,-1.009540405273437500e+02,-1.798782653808593750e+02,4.033146500587463379e-01,-6.667523193359375000e+01,-1.826889343261718750e+02,-2.343106746673583984e+00,7.562364959716796875e+01,3.135619926452636719e+01
1.957979947328567505e-01,1.000000000000000000e+00,8.245832443237304688e+00,-9.933063507080078125e+00,3.958703041076660156e+00,-2.078190155029296875e+02,-1.008787612915039062e+02,-1.798120117187500000e+02,4.033146500587463379e-01,-6.667523193359375000e+01,-1.826889343261718750e+02,-2.343034982681274414e+00,7.562364959716796875e+01,3.135619926452636719e+01
2.000170052051544189e-01,1.000000000000000000e+00,8.182878494262695312e+00,-9.878729820251464844e+00,3.966063022613525391e+00,-2.077625885009765625e+02,-1.008032684326171875e+02,-1.797470397949218750e+02,4.033146500587463379e-01,-6.667523193359375000e+01,-1.826889343261718750e+02,-2.342891216278076172e+00,7.562364959716796875e+01,3.135619926452636719e+01
2.033730000257492065e-01,1.000000000000000000e+00,8.119263648986816406e+00,-9.823920249938964844e+00,3.973545074462890625e+00,-2.077065582275390625e+02,-1.007270278930664062e+02,-1.796808624267578125e+02,4.033146500587463379e-01,-6.667523193359375000e+01,-1.826889343261718750e+02,-2.343034982681274414e+00,7.562364959716796875e+01,3.135619926452636719e+01
2.073130011558532715e-01,1.000000000000000000e+00,8.055132865905761719e+00,-9.768589973449707031e+00,3.981149196624755859e+00,-2.076501464843750000e+02,-1.006508941650390625e+02,-1.796143341064453125e+02,4.033146500587463379e-01,-6.667523193359375000e+01,-1.826889343261718750e+02,-2.343106746673583984e+00,7.562364959716796875e+01,3.135619926452636719e+01
2.111590057611465454e-01,1.000000000000000000e+00,7.990829467773437500e+00,-9.713485717773437500e+00,3.988895893096923828e+00,-2.075939788818359375e+02,-1.005749130249023438e+02,-1.795482025146484375e+02,4.033146500587463379e-01,-6.667523193359375000e+01,-1.826889343261718750e+02,-2.342891216278076172e+00,7.562364959716796875e+01,3.135619926452636719e+01
2.154700011014938354e-01,1.000000000000000000e+00,7.926898956298828125e+00,-9.658155441284179688e+00,3.996743679046630859e+00,-2.075384674072265625e+02,-1.004990463256835938e+02,-1.794817504882812500e+02,4.033146500587463379e-01,-6.667523193359375000e+01,-1.826890411376953125e+02,-2.343106746673583984e+00,7.562364959716796875e+01,3.135619926452636719e+01
2.197960019111633301e-01,1.000000000000000000e+00,7.862624645233154297e+00,-9.603007316589355469e+00,4.004571437835693359e+00,-2.074819641113281250e+02,-1.004225921630859375e+02,-1.794162292480468750e+02,4.033146500587463379e-01,-6.667523193359375000e+01,-1.826889343261718750e+02,-2.343106746673583984e+00,7.562364959716796875e+01,3.135619926452636719e+01
2.240560054779052734e-01,1.000000000000000000e+00,7.798178195953369141e+00,-9.547880172729492188e+00,4.012277126312255859e+00,-2.074260101318359375e+02,-1.003469924926757812e+02,-1.793506622314453125e+02,4.033146500587463379e-01,-6.667523193359375000e+01,-1.826889343261718750e+02,-2.343034982681274414e+00,7.562364959716796875e+01,3.135619926452636719e+01
2.274989932775497437e-01,1.000000000000000000e+00,7.734276771545410156e+00,-9.492731094360351562e+00,4.019860744476318359e+00,-2.073701782226562500e+02,-1.002711181640625000e+02,-1.792839355468750000e+02,4.033146500587463379e-01,-6.667523193359375000e+01,-1.826889343261718750e+02,-2.343034982681274414e+00,7.562364959716796875e+01,3.135619926452636719e+01
2.317939996719360352e-01,1.000000000000000000e+00,7.670231819152832031e+00,-9.437695503234863281e+00,4.027281761169433594e+00,-2.073134918212890625e+02,-1.001950378417968750e+02,-1.792186126708984375e+02,4.033146500587463379e-01,-6.667523193359375000e+01,-1.826889343261718750e+02,-2.343106746673583984e+00,7.562364959716796875e+01,3.135619926452636719e+01
2.357909977436065674e-01,1.000000000000000000e+00,7.606215953826904297e+00,-9.382545471191406250e+00,4.034682750701904297e+00,-2.072577819824218750e+02,-1.001183166503906250e+02,-1.791524200439453125e+02,4.033146500587463379e-01,-6.667523193359375000e+01,-1.826890411376953125e+02,-2.343034982681274414e+00,7.562372589111328125e+01,3.135619926452636719e+01
2.399860024452209473e-01,1.000000000000000000e+00,7.542227745056152344e+00,-9.327758789062500000e+00,4.042002201080322266e+00,-2.072018432617187500e+02,-1.000434112548828125e+02,-1.790861663818359375e+02,4.033146500587463379e-01,-6.667523193359375000e+01,-1.826889343261718750e+02,-2.343034982681274414e+00,7.562364959716796875e+01,3.135619926452636719e+01
2.439589947462081909e-01,1.000000000000000000e+00,7.478412628173828125e+00,-9.272904396057128906e+00,4.049464225769042969e+00,-2.071453094482421875e+02,-9.996753692626953125e+01,-1.790211334228515625e+02,4.033146500587463379e-01,-6.667513275146484375e+01,-1.826889343261718750e+02,-2.343034982681274414e+00,7.562364959716796875e+01,3.135619926452636719e+01
2.484750002622604370e-01,1.000000000000000000e+00,7.414769649505615234e+00,-9.218027114868164062e+00,4.056986808776855469e+00,-2.070893096923828125e+02,-9.989128875732421875e+01,-1.789553527832031250e+02,4.033146500587463379e-01,-6.667523193359375000e+01,-1.826889343261718750e+02,-2.343034982681274414e+00,7.562364959716796875e+01,3.135619926452636719e+01
2.525590062141418457e-01,1.000000000000000000e+00,7.351327419281005859e+00,-9.163171768188476562e+00,4.064631462097167969e+00,-2.070322265625000000e+02,-9.981441497802734375e+01,-1.788894958496093750e+02,4.033146500587463379e-01,-6.667523193359375000e+01,-1.826889343261718750e+02,-2.343106746673583984e+00,7.562364959716796875e+01,3.135619926452636719e+01
2.558409869670867920e-01,1.000000000000000000e+00,7.287742137908935547e+00,-9.108271598815917969e+00,4.072093486785888672e+00,-2.069767608642578125e+02,-9.973907470703125000e+01,-1.788236541748046875e+02,4.033146500587463379e-01,-6.667523193359375000e+01,-1.826889343261718750e+02,-2.343034982681274414e+00,7.562364959716796875e+01,3.135598182678222656e+01
2.598159909248352051e-01,1.000000000000000000e+00,7.224357604980468750e+00,-9.053483963012695312e+00,4.079412937164306641e+00,-2.069206695556640625e+02,-9.966294097900390625e+01,-1.787566528320312500e+02,4.033146500587463379e-01,-6.667523193359375000e+01,-1.826889343261718750e+02,-2.343034982681274414e+00,7.562364959716796875e+01,3.135619926452636719e+01
2.639969885349273682e-01,1.000000000000000000e+00,7.160771846771240234e+00,-8.998787879943847656e+00,4.086508750915527344e+00,-2.068643035888671875e+02,-9.958675384521484375e+01,-1.786911315917968750e+02,4.033146500587463379e-01,-6.667523193359375000e+01,-1.826889343261718750e+02,-2.342891216278076172e+00,7.562364959716796875e+01,3.135619926452636719e+01
2.678270041942596436e-01,1.000000000000000000e+00,7.097330093383789062e+00,-8.944272041320800781e+00,4.093563556671142578e+00,-2.068081970214843750e+02,-9.951008605957031250e+01,-1.786259613037109375e+02,4.033146500587463379e-01,-6.667523193359375000e+01,-1.826889343261718750e+02,-2.343106746673583984e+00,7.562364959716796875e+01,3.135619926452636719e+01
2.723580002784729004e-01,1.000000000000000000e+00,7.033686637878417969e+00,-8.889823913574218750e+00,4.101168155670166016e+00,-2.067517242431640625e+02,-9.943495941162109375e+01,-1.785595092773437500e+02,4.033146500587463379e-01,-6.667513275146484375e+01,-1.826889343261718750e+02,-2.343034982681274414e+00,7.562364959716796875e+01,3.135619926452636719e+01
2.767679989337921143e-01,1.000000000000000000e+00,6.970015048980712891e+00,-8.835287094116210938e+00,4.108833312988281250e+00,-2.066959991455078125e+02,-9.935919952392578125e+01,-1.784941253662109375e+02,4.033146500587463379e-01,-6.667523193359375000e+01,-1.826889343261718750e+02,-2.343034982681274414e+00,7.562364959716796875e+01,3.135642242431640625e+01
2.798680067062377930e-01,1.000000000000000000e+00,6.906055927276611328e+00,-8.780703544616699219e+00,4.116539001464843750e+00,-2.066401824951171875e+02,-9.928258514404296875e+01,-1.784279479980468750e+02,4.033146500587463379e-01,-6.667523193359375000e+01,-1.826889343261718750e+02,-2.343034982681274414e+00,7.562364959716796875e+01,3.135619926452636719e+01
2.838569879531860352e-01,1.000000000000000000e+00,6.842269897460937500e+00,-8.726187705993652344e+00,4.124163150787353516e+00,-2.065835418701171875e+02,-9.920645141601562500e+01,-1.783616790771484375e+02,4.033146500587463379e-01,-6.667513275146484375e+01,-1.826889343261718750e+02,-2.343034982681274414e+00,7.562364959716796875e+01,3.135619926452636719e+01
2.880049943923950195e-01,1.000000000000000000e+00,6.778224945068359375e+00,-8.671582221984863281e+00,4.131625175476074219e+00,-2.065278167724609375e+02,-9.913089752197265625e+01,-1.782966461181640625e+02,4.033146500587463379e-01,-6.667523193359375000e+01,-1.826889343261718750e+02,-2.343106746673583984e+00,7.562372589111328125e+01,3.135642242431640625e+01
2.919839918613433838e-01,1.000000000000000000e+00,6.714352130889892578e+00,-8.617247581481933594e+00,4.139005661010742188e+00,-2.064715728759765625e+02,-9.905545806884765625e+01,-1.782307281494140625e+02,4.033146500587463379e-01,-6.667523193359375000e+01,-1.826889343261718750e+02,-2.343034982681274414e+00,7.562364959716796875e+01,3.135619926452636719e+01
2.968609929084777832e-01,1.000000000000000000e+00,6.650537014007568359e+00,-8.562573432922363281e+00,4.146162033081054688e+00,-2.064158325195312500e+02,-9.897921752929687500e+01,-1.781645507812500000e+02,4.033146500587463379e-01,-6.667523193359375000e+01,-1.826889343261718750e+02,-2.343106746673583984e+00,7.562364959716796875e+01,3.135619926452636719e+01
3.008489906787872314e-01,1.000000000000000000e+00,6.586549282073974609e+00,-8.507854461669921875e+00,4.153522014617919922e+00,-2.063599548339843750e+02,-9.890308380126953125e+01,-1.780995025634765625e+02,4.033146500587463379e-01,-6.667523193359375000e+01,-1.826889343261718750e+02,-2.343106746673583984e+00,7.562364959716796875e+01,3.135619926452636719e+01
3.041230142116546631e-01,1.000000000000000000e+00,6.522819995880126953e+00,-8.453022003173828125e+00,4.161227703094482422e+00,-2.063033599853515625e+02,-9.882763671875000000e+01,-1.780334472656250000e+02,4.033146500587463379e-01,-6.667523193359375000e+01,-1.826889343261718750e+02,-2.343106746673583984e+00,7.562364959716796875e+01,3.135619926452636719e+01
3.077149987220764160e-01,1.000000000000000000e+00,6.459033966064453125e+00,-8.397985458374023438e+00,4.168954372406005859e+00,-2.062473907470703125e+02,-9.875181579589843750e+01,-1.779673919677734375e+02,4.033146500587463379e-01,-6.667523193359375000e+01,-1.826889343261718750e+02,-2.343106746673583984e+00,7.562364959716796875e+01,3.135619926452636719e+01
3.121680021286010742e-01,1.000000000000000000e+00,6.394989013671875000e+00,-8.343063354492187500e+00,4.176517486572265625e+00,-2.061909179687500000e+02,-9.867526245117187500e+01,-1.779024963378906250e+02,4.033146500587463379e-01,-6.667523193359375000e+01,-1.826889343261718750e+02,-2.343034982681274414e+00,7.562364959716796875e+01,3.135642242431640625e+01
3.147349953651428223e-01,1.000000000000000000e+00,6.330886840820312500e+00,-8.288003921508789062e+00,4.183856964111328125e+00,-2.061348724365234375e+02,-9.859982299804687500e+01,-1.778368377685546875e+02,4.033146500587463379e-01,-6.667531585693359375e+01,-1.826889343261718750e+02,-2.343106746673583984e+00,7.562364959716796875e+01,3.135619926452636719e+01
3.188650012016296387e-01,1.000000000000000000e+00,6.266755580902099609e+00,-8.233149528503417969e+00,4.191217422485351562e+00,-2.060789337158203125e+02,-9.852416229248046875e+01,-1.777709960937500000e+02,4.033146500587463379e-01,-6.667523193359375000e+01,-1.826889343261718750e+02,-2.343034982681274414e+00,7.562364959716796875e+01,3.135619926452636719e+01
3.251970112323760986e-01,1.000000000000000000e+00,6.202853679656982422e+00,-8.178023338317871094e+00,4.198333263397216797e+00,-2.060228729248046875e+02,-9.844888305664062500e+01,-1.777056274414062500e+02,4.033146500587463379e-01,-6.667523193359375000e+01,-1.826889343261718750e+02,-2.343034982681274414e+00,7.562364959716796875e+01,3.135619926452636719e+01
3.267610073089599609e-01,1.000000000000000000e+00,6.138435840606689453e+00,-8.122941970825195312e+00,4.205693721771240234e+00,-2.059669952392578125e+02,-9.837258911132812500e+01,-1.776392364501953125e+02,4.033146500587463379e-01,-6.667523193359375000e+01,-1.826889343261718750e+02,-2.343034982681274414e+00,7.562364959716796875e+01,3.135598182678222656e+01
3.321770131587982178e-01,1.000000000000000000e+00,6.074305057525634766e+00,-8.068018913269042969e+00,4.213399410247802734e+00,-2.059106903076171875e+02,-9.829708862304687500e+01,-1.775734405517578125e+02,4.033146500587463379e-01,-6.667523193359375000e+01,-1.826889343261718750e+02,-2.343034982681274414e+00,7.562364959716796875e+01,3.135619926452636719e+01
3.347940146923065186e-01,1.000000000000000000e+00,6.010173797607421875e+00,-8.012960433959960938e+00,4.221247196197509766e+00,-2.058547515869140625e+02,-9.822138214111328125e+01,-1.775084838867187500e+02,4.033146500587463379e-01,-6.667523193359375000e+01,-1.826889343261718750e+02,-2.343106746673583984e+00,7.562364959716796875e+01,3.135619926452636719e+01
3.387469947338104248e-01,1.000000000000000000e+00,5.945698738098144531e+00,-7.957969665527343750e+00,4.229013919830322266e+00,-2.057990264892578125e+02,-9.814614868164062500e+01,-1.774418182373046875e+02,4.033146500587463379e-01,-6.667523193359375000e+01,-1.826889343261718750e+02,-2.343034982681274414e+00,7.562364959716796875e+01,3.135619926452636719e+01
3.428399860858917236e-01,1.000000000000000000e+00,5.881309032440185547e+00,-7.902956485748291016e+00,4.236821651458740234e+00,-2.057424926757812500e+02,-9.806996154785156250e+01,-1.773765716552734375e+02,4.033146500587463379e-01,-6.667523193359375000e+01,-1.826890411376953125e+02,-2.343034982681274414e+00,7.562364959716796875e+01,3.135619926452636719e+01
3.484709858894348145e-01,1.000000000000000000e+00,5.816977024078369141e+00,-7.848078727722167969e+00,4.244466781616210938e+00,-2.056871948242187500e+02,-9.799478912353515625e+01,-1.773110046386718750e+02,4.033146500587463379e-01,-6.667523193359375000e+01,-1.826889343261718750e+02,-2.343034982681274414e+00,7.562364959716796875e+01,3.135619926452636719e+01
3.524419963359832764e-01,1.000000000000000000e+00,5.752817630767822266e+00,-7.793156147003173828e+00,4.251846790313720703e+00,-2.056307220458984375e+02,-9.791875457763671875e+01,-1.772447357177734375e+02,4.033146500587463379e-01,-6.667523193359375000e+01,-1.826889343261718750e+02,-2.343034982681274414e+00,7.562364959716796875e+01,3.135619926452636719e+01
3.564079999923706055e-01,1.000000000000000000e+00,5.688829421997070312e+00,-7.738006591796875000e+00,4.259105205535888672e+00,-2.055745697021484375e+02,-9.784320831298828125e+01,-1.771795654296875000e+02,4.033146500587463379e-01,-6.667523193359375000e+01,-1.826889343261718750e+02,-2.343034982681274414e+00,7.562364959716796875e+01,3.135619926452636719e+01
3.605470061302185059e-01,1.000000000000000000e+00,5.624584197998046875e+00,-7.682971000671386719e+00,4.266505718231201172e+00,-2.055192565917968750e+02,-9.776728820800781250e+01,-1.771135101318359375e+02,4.033146500587463379e-01,-6.667523193359375000e+01,-1.826889343261718750e+02,-2.343034982681274414e+00,7.562364959716796875e+01,3.135619926452636719e+01
3.645739853382110596e-01,1.000000000000000000e+00,5.560768604278564453e+00,-7.627912521362304688e+00,4.274252414703369141e+00,-2.054629058837890625e+02,-9.769221496582031250e+01,-1.770473937988281250e+02,4.033146500587463379e-01,-6.667523193359375000e+01,-1.826889343261718750e+02,-2.343034982681274414e+00,7.562364959716796875e+01,3.135619926452636719e+01
3.691340088844299316e-01,1.000000000000000000e+00,5.496953487396240234e+00,-7.572944164276123047e+00,4.281978607177734375e+00,-2.054066009521484375e+02,-9.761666870117187500e+01,-1.769824981689453125e+02,4.033146500587463379e-01,-6.667523193359375000e+01,-1.826890411376953125e+02,-2.343106746673583984e+00,7.562364959716796875e+01,3.135619926452636719e+01
3.707329928874969482e-01,1.000000000000000000e+00,5.433023452758789062e+00,-7.518066883087158203e+00,4.289582729339599609e+00,-2.053506164550781250e+02,-9.754063415527343750e+01,-1.769164428710937500e+02,4.033146500587463379e-01,-6.667523193359375000e+01,-1.826889343261718750e+02,-2.342891216278076172e+00,7.562364959716796875e+01,3.135619926452636719e+01
3.747799992561340332e-01,1.000000000000000000e+00,5.369150638580322266e+00,-7.463347911834716797e+00,4.297085285186767578e+00,-2.052941436767578125e+02,-9.746519470214843750e+01,-1.768506622314453125e+02,4.033146500587463379e-01,-6.667523193359375000e+01,-1.826889343261718750e+02,-2.343034982681274414e+00,7.562364959716796875e+01,3.135619926452636719e+01
3.806349933147430420e-01,1.000000000000000000e+00,5.305536270141601562e+00,-7.408493041992187500e+00,4.304363727569580078e+00,-2.052385711669921875e+02,-9.738986206054687500e+01,-1.767859497070312500e+02,4.033146500587463379e-01,-6.667523193359375000e+01,-1.826889343261718750e+02,-2.342891216278076172e+00,7.562364959716796875e+01,3.135619926452636719e+01
3.848119974136352539e-01,1.000000000000000000e+00,5.241979598999023438e+00,-7.353637695312500000e+00,4.311561107635498047e+00,-2.051823120117187500e+02,-9.731452178955078125e+01,-1.767195587158203125e+02,4.033146500587463379e-01,-6.667523193359375000e+01,-1.826889343261718750e+02,-2.343106746673583984e+00,7.562364959716796875e+01,3.135619926452636719e+01
3.895159959793090820e-01,1.000000000000000000e+00,5.178451538085937500e+00,-7.299009323120117188e+00,4.318840026855468750e+00,-2.051261596679687500e+02,-9.723860168457031250e+01,-1.766539916992187500e+02,4.033146500587463379e-01,-6.667523193359375000e+01,-1.826889343261718750e+02,-2.343106746673583984e+00,7.562364959716796875e+01,3.135619926452636719e+01
3.929350078105926514e-01,1.000000000000000000e+00,5.114808082580566406e+00,-7.244539260864257812e+00,4.326383113861083984e+00,-2.050701599121093750e+02,-9.716278839111328125e+01,-1.765887451171875000e+02,4.033146500587463379e-01,-6.667523193359375000e+01,-1.826889343261718750e+02,-2.342891216278076172e+00,7.562364959716796875e+01,3.135619926452636719e+01
3.970389962196350098e-01,1.000000000000000000e+00,5.051050662994384766e+00,-7.190001010894775391e+00,4.334149837493896484e+00,-2.050139160156250000e+02,-9.708718872070312500e+01,-1.765224151611328125e+02,4.033146500587463379e-01,-6.667523193359375000e+01,-1.826889343261718750e+02,-2.343106746673583984e+00,7.562364959716796875e+01,3.135619926452636719e+01
4.009689986705780029e-01,1.000000000000000000e+00,4.987292766571044922e+00,-7.135553359985351562e+00,4.341937065124511719e+00,-2.049583435058593750e+02,-9.701152801513671875e+01,-1.764567718505859375e+02,4.033146500587463379e-01,-6.667523193359375000e+01,-1.826889343261718750e+02,-2.343106746673583984e+00,7.562364959716796875e+01,3.135619926452636719e+01
4.049249887466430664e-01,1.000000000000000000e+00,4.923477649688720703e+00,-7.080856800079345703e+00,4.349662780761718750e+00,-2.049024505615234375e+02,-9.693550109863281250e+01,-1.763914642333984375e+02,4.033146500587463379e-01,-6.667523193359375000e+01,-1.826889343261718750e+02,-2.343034982681274414e+00,7.562372589111328125e+01,3.135619926452636719e+01
4.067830145359039307e-01,1.000000000000000000e+00,4.859633445739746094e+00,-7.026160240173339844e+00,4.357144832611083984e+00,-2.048464050292968750e+02,-9.686042785644531250e+01,-1.763252868652343750e+02,4.033146500587463379e-01,-6.667513275146484375e+01,-1.826889343261718750e+02,-2.343034982681274414e+00,7.562364959716796875e+01,3.135619926452636719e+01
4.136280119419097900e-01,1.000000000000000000e+00,4.795846939086914062e+00,-6.971463680267333984e+00,4.364444255828857422e+00,-2.047905731201171875e+02,-9.678466796875000000e+01,-1.762600402832031250e+02,4.033146500587463379e-01,-6.667523193359375000e+01,-1.826889343261718750e+02,-2.343034982681274414e+00,7.562364959716796875e+01,3.135619926452636719e+01
4.169029891490936279e-01,1.000000000000000000e+00,4.731773376464843750e+00,-6.916608810424804688e+00,4.371580600738525391e+00,-2.047341613769531250e+02,-9.670895385742187500e+01,-1.761939849853515625e+02,4.033146500587463379e-01,-6.667523193359375000e+01,-1.826889343261718750e+02,-2.343034982681274414e+00,7.562364959716796875e+01,3.135642242431640625e+01
4.209519922733306885e-01,1.000000000000000000e+00,4.668044090270996094e+00,-6.861957550048828125e+00,4.378859519958496094e+00,-2.046788482666015625e+02,-9.663240051269531250e+01,-1.761280670166015625e+02,4.033146500587463379e-01,-6.667531585693359375e+01,-1.826889343261718750e+02,-2.343034982681274414e+00,7.562364959716796875e+01,3.135619926452636719e+01
4.249930083751678467e-01,1.000000000000000000e+00,4.604343891143798828e+00,-6.807193279266357422e+00,4.386341571807861328e+00,-2.046230773925781250e+02,-9.655764770507812500e+01,-1.760634460449218750e+02,4.033146500587463379e-01,-6.667523193359375000e+01,-1.826889343261718750e+02,-2.343034982681274414e+00,7.562364959716796875e+01,3.135619926452636719e+01
4.267649948596954346e-01,1.000000000000000000e+00,4.540298938751220703e+00,-6.752587318420410156e+00,4.393925666809082031e+00,-2.045664978027343750e+02,-9.648204803466796875e+01,-1.759975128173828125e+02,4.033146500587463379e-01,-6.667523193359375000e+01,-1.826889343261718750e+02,-2.343034982681274414e+00,7.562364959716796875e+01,3.135598182678222656e+01
4.317669868469238281e-01,1.000000000000000000e+00,4.476512432098388672e+00,-6.697664260864257812e+00,4.401427745819091797e+00,-2.045108184814453125e+02,-9.640644073486328125e+01,-1.759310607910156250e+02,4.033146500587463379e-01,-6.667531585693359375e+01,-1.826889343261718750e+02,-2.343034982681274414e+00,7.562364959716796875e+01,3.135619926452636719e+01
4.347450137138366699e-01,1.000000000000000000e+00,4.412783145904541016e+00,-6.642718791961669922e+00,4.408869266510009766e+00,-2.044546203613281250e+02,-9.633003997802734375e+01,-1.758665008544921875e+02,4.033146500587463379e-01,-6.667523193359375000e+01,-1.826889343261718750e+02,-2.342891216278076172e+00,7.562364959716796875e+01,3.135642242431640625e+01
4.418120086193084717e-01,1.000000000000000000e+00,4.412783145904541016e+00,-6.642718791961669922e+00,4.408869266510009766e+00,-2.044546203613281250e+02,-9.633003997802734375e+01,-1.758665008544921875e+02,4.033146500587463379e-01,-6.667523193359375000e+01,-1.826889343261718750e+02,-2.343106746673583984e+00,7.562364959716796875e+01,3.135619926452636719e+01
4.437800049781799316e-01,1.000000000000000000e+00,4.285382270812988281e+00,-6.533167362213134766e+00,4.423366069793701172e+00,-2.043430023193359375e+02,-9.617963409423828125e+01,-1.757345886230468750e+02,4.033146500587463379e-01,-6.667523193359375000e+01,-1.826889343261718750e+02,-2.343106746673583984e+00,7.562364959716796875e+01,3.135619926452636719e+01
4.477649927139282227e-01,1.000000000000000000e+00,4.221710681915283203e+00,-6.478380203247070312e+00,4.430787086486816406e+00,-2.042871246337890625e+02,-9.610376739501953125e+01,-1.756698303222656250e+02,4.033146500587463379e-01,-6.667523193359375000e+01,-1.826889343261718750e+02,-2.343034982681274414e+00,7.562372589111328125e+01,3.135619926452636719e+01
4.517329931259155273e-01,1.000000000000000000e+00,4.157665729522705078e+00,-6.423615932464599609e+00,4.438574314117431641e+00,-2.042314453125000000e+02,-9.602751922607421875e+01,-1.756039123535156250e+02,4.033146500587463379e-01,-6.667523193359375000e+01,-1.826889343261718750e+02,-2.343034982681274414e+00,7.562364959716796875e+01,3.135619926452636719e+01
4.557870030403137207e-01,1.000000000000000000e+00,4.093936443328857422e+00,-6.368896961212158203e+00,4.446402072906494141e+00,-2.041749114990234375e+02,-9.595234680175781250e+01,-1.755381927490234375e+02,4.033146500587463379e-01,-6.667523193359375000e+01,-1.826889343261718750e+02,-2.343034982681274414e+00,7.562364959716796875e+01,3.135619926452636719e+01
4.588100016117095947e-01,1.000000000000000000e+00,4.029862880706787109e+00,-6.314019680023193359e+00,4.454270362854003906e+00,-2.041192932128906250e+02,-9.587696075439453125e+01,-1.754728240966796875e+02,4.033146500587463379e-01,-6.667523193359375000e+01,-1.826889343261718750e+02,-2.343034982681274414e+00,7.562364959716796875e+01,3.135619926452636719e+01
4.658910036087036133e-01,1.000000000000000000e+00,4.029862880706787109e+00,-6.314019680023193359e+00,4.454270362854003906e+00,-2.041192932128906250e+02,-9.587696075439453125e+01,-1.754728240966796875e+02,4.033146500587463379e-01,-6.667523193359375000e+01,-1.826889343261718750e+02,-2.343034982681274414e+00,7.562364959716796875e+01,3.135619926452636719e+01
4.678420126438140869e-01,1.000000000000000000e+00,3.901973962783813477e+00,-6.204015254974365234e+00,4.469539165496826172e+00,-2.040076293945312500e+02,-9.572522735595703125e+01,-1.753411254882812500e+02,4.033146500587463379e-01,-6.667523193359375000e+01,-1.826889343261718750e+02,-2.342891216278076172e+00,7.562364959716796875e+01,3.135619926452636719e+01
4.718520045280456543e-01,1.000000000000000000e+00,3.837986707687377930e+00,-6.149115085601806641e+00,4.476798057556152344e+00,-2.039524841308593750e+02,-9.565004730224609375e+01,-1.752759552001953125e+02,4.033146500587463379e-01,-6.667523193359375000e+01,-1.826889343261718750e+02,-2.343034982681274414e+00,7.562364959716796875e+01,3.135598182678222656e+01
4.748969972133636475e-01,1.000000000000000000e+00,3.773970365524291992e+00,-6.094056606292724609e+00,4.483995437622070312e+00,-2.038963317871093750e+02,-9.557492828369140625e+01,-1.752095642089843750e+02,4.033146500587463379e-01,-6.667523193359375000e+01,-1.826889343261718750e+02,-2.343106746673583984e+00,7.562364959716796875e+01,3.135619926452636719e+01
4.815320074558258057e-01,1.000000000000000000e+00,3.773970365524291992e+00,-6.094056606292724609e+00,4.483995437622070312e+00,-2.038963317871093750e+02,-9.557492828369140625e+01,-1.752095642089843750e+02,4.033146500587463379e-01,-6.667523193359375000e+01,-1.826889343261718750e+02,-2.343106746673583984e+00,7.562364959716796875e+01,3.135619926452636719e+01
4.837540090084075928e-01,1.000000000000000000e+00,3.646311044692993164e+00,-5.984436988830566406e+00,4.499203681945800781e+00,-2.037847595214843750e+02,-9.542308044433593750e+01,-1.750782623291015625e+02,4.033146500587463379e-01,-6.667523193359375000e+01,-1.826889343261718750e+02,-2.343034982681274414e+00,7.562364959716796875e+01,3.135619926452636719e+01
4.877380132675170898e-01,1.000000000000000000e+00,3.582610607147216797e+00,-5.929650306701660156e+00,4.506807804107666016e+00,-2.037286682128906250e+02,-9.534784698486328125e+01,-1.750121459960937500e+02,4.033146500587463379e-01,-6.667523193359375000e+01,-1.826889343261718750e+02,-2.343034982681274414e+00,7.562364959716796875e+01,3.135619926452636719e+01
4.907479882240295410e-01,1.000000000000000000e+00,3.518824338912963867e+00,-5.874794960021972656e+00,4.514309883117675781e+00,-2.036729431152343750e+02,-9.527256774902343750e+01,-1.749475860595703125e+02,4.033146500587463379e-01,-6.667523193359375000e+01,-1.826890411376953125e+02,-2.343034982681274414e+00,7.562364959716796875e+01,3.135619926452636719e+01
4.958130121231079102e-01,1.000000000000000000e+00,3.518824338912963867e+00,-5.874794960021972656e+00,4.514309883117675781e+00,-2.036729431152343750e+02,-9.527256774902343750e+01,-1.749475860595703125e+02,4.033146500587463379e-01,-6.667523193359375000e+01,-1.826890411376953125e+02,-2.343034982681274414e+00,7.562364959716796875e+01,3.135619926452636719e+01
4.987629950046539307e-01,1.000000000000000000e+00,3.391509532928466797e+00,-5.765470027923583984e+00,4.528969287872314453e+00,-2.035603790283203125e+02,-9.512077331542968750e+01,-1.748156127929687500e+02,4.033146500587463379e-01,-6.667523193359375000e+01,-1.826889343261718750e+02,-2.343034982681274414e+00,7.562364959716796875e+01,3.135619926452636719e+01
5.038200020790100098e-01,1.000000000000000000e+00,3.391509532928466797e+00,-5.765470027923583984e+00,4.528969287872314453e+00,-2.035603790283203125e+02,-9.512077331542968750e+01,-1.748156127929687500e+02,4.033146500587463379e-01,-6.667523193359375000e+01,-1.826889343261718750e+02,-2.343034982681274414e+00,7.562364959716796875e+01,3.135619926452636719e+01
5.068050026893615723e-01,1.000000000000000000e+00,3.264338254928588867e+00,-5.656325817108154297e+00,4.543628215789794922e+00,-2.034491882324218750e+02,-9.497052764892578125e+01,-1.746846618652343750e+02,4.033146500587463379e-01,-6.667523193359375000e+01,-1.826889343261718750e+02,-2.343034982681274414e+00,7.562364959716796875e+01,3.135619926452636719e+01
5.118510127067565918e-01,1.000000000000000000e+00,3.264338254928588867e+00,-5.656325817108154297e+00,4.543628215789794922e+00,-2.034491882324218750e+02,-9.497052764892578125e+01,-1.746846618652343750e+02,4.033146500587463379e-01,-6.667523193359375000e+01,-1.826889343261718750e+02,-2.343034982681274414e+00,7.562364959716796875e+01,3.135619926452636719e+01
5.147439837455749512e-01,1.000000000000000000e+00,3.136908769607543945e+00,-5.546887397766113281e+00,4.558877468109130859e+00,-2.033373565673828125e+02,-9.481927490234375000e+01,-1.745545806884765625e+02,4.033146500587463379e-01,-6.667523193359375000e+01,-1.826889343261718750e+02,-2.343106746673583984e+00,7.562364959716796875e+01,3.135619926452636719e+01
5.198119878768920898e-01,1.000000000000000000e+00,3.136908769607543945e+00,-5.546887397766113281e+00,4.558877468109130859e+00,-2.033373565673828125e+02,-9.481927490234375000e+01,-1.745545806884765625e+02,4.033146500587463379e-01,-6.667523193359375000e+01,-1.826889343261718750e+02,-2.343106746673583984e+00,7.562364959716796875e+01,3.135619926452636719e+01
5.237709879875183105e-01,1.000000000000000000e+00,3.009220838546752930e+00,-5.437404155731201172e+00,4.574187278747558594e+00,-2.032258911132812500e+02,-9.466876220703125000e+01,-1.744232940673828125e+02,4.033146500587463379e-01,-6.667523193359375000e+01,-1.826889343261718750e+02,-2.343034982681274414e+00,7.562364959716796875e+01,3.135619926452636719e+01
5.277760028839111328e-01,1.000000000000000000e+00,2.945549011230468750e+00,-5.382821083068847656e+00,4.581588268280029297e+00,-2.031699981689453125e+02,-9.459267425537109375e+01,-1.743577728271484375e+02,4.033146500587463379e-01,-6.667523193359375000e+01,-1.826889343261718750e+02,-2.343034982681274414e+00,7.562364959716796875e+01,3.135619926452636719e+01
5.307840108871459961e-01,1.000000000000000000e+00,2.881705045700073242e+00,-5.328146934509277344e+00,4.588887214660644531e+00,-2.031142272949218750e+02,-9.451766204833984375e+01,-1.742910461425781250e+02,4.033146500587463379e-01,-6.667523193359375000e+01,-1.826889343261718750e+02,-2.343106746673583984e+00,7.562364959716796875e+01,3.135619926452636719e+01
5.357919931411743164e-01,1.000000000000000000e+00,2.881705045700073242e+00,-5.328146934509277344e+00,4.588887214660644531e+00,-2.031142272949218750e+02,-9.451766204833984375e+01,-1.742910461425781250e+02,4.033146500587463379e-01,-6.667523193359375000e+01,-1.826889343261718750e+02,-2.343106746673583984e+00,7.562364959716796875e+01,3.135619926452636719e+01
5.387430191040039062e-01,1.000000000000000000e+00,2.753959894180297852e+00,-5.218889713287353516e+00,4.603465080261230469e+00,-2.030027160644531250e+02,-9.436656188964843750e+01,-1.741607666015625000e+02,4.033146500587463379e-01,-6.667523193359375000e+01,-1.826889343261718750e+02,-2.343034982681274414e+00,7.562364959716796875e+01,3.135598182678222656e+01
5.438550114631652832e-01,1.000000000000000000e+00,2.753959894180297852e+00,-5.218889713287353516e+00,4.603465080261230469e+00,-2.030027160644531250e+02,-9.436656188964843750e+01,-1.741607666015625000e+02,4.033146500587463379e-01,-6.667523193359375000e+01,-1.826889343261718750e+02,-2.343034982681274414e+00,7.562364959716796875e+01,3.135598182678222656e+01
5.477910041809082031e-01,1.000000000000000000e+00,2.626472949981689453e+00,-5.109632015228271484e+00,4.618693351745605469e+00,-2.028913574218750000e+02,-9.421632385253906250e+01,-1.740299377441406250e+02,4.033146500587463379e-01,-6.667523193359375000e+01,-1.826889343261718750e+02,-2.343034982681274414e+00,7.562364959716796875e+01,3.135619926452636719e+01
5.517789721488952637e-01,1.000000000000000000e+00,2.562715053558349609e+00,-5.054935932159423828e+00,4.626297473907470703e+00,-2.028350982666015625e+02,-9.414103698730468750e+01,-1.739640350341796875e+02,4.033146500587463379e-01,-6.667523193359375000e+01,-1.826890411376953125e+02,-2.343106746673583984e+00,7.562364959716796875e+01,3.135619926452636719e+01
5.547369718551635742e-01,1.000000000000000000e+00,2.498784780502319336e+00,-5.000397682189941406e+00,4.633718490600585938e+00,-2.027794799804687500e+02,-9.406522369384765625e+01,-1.738981018066406250e+02,4.033146500587463379e-01,-6.667523193359375000e+01,-1.826889343261718750e+02,-2.343034982681274414e+00,7.562364959716796875e+01,3.135619926452636719e+01
5.597869753837585449e-01,1.000000000000000000e+00,2.498784780502319336e+00,-5.000397682189941406e+00,4.633718490600585938e+00,-2.027794799804687500e+02,-9.406522369384765625e+01,-1.738981018066406250e+02,4.033146500587463379e-01,-6.667523193359375000e+01,-1.826889343261718750e+02,-2.343034982681274414e+00,7.562364959716796875e+01,3.135619926452636719e+01
5.647990107536315918e-01,1.000000000000000000e+00,2.371556282043457031e+00,-4.891321182250976562e+00,4.648215293884277344e+00,-2.026677551269531250e+02,-9.391492462158203125e+01,-1.737678375244140625e+02,4.033146500587463379e-01,-6.667523193359375000e+01,-1.826889343261718750e+02,-2.343034982681274414e+00,7.562364959716796875e+01,3.135642242431640625e+01
5.683150291442871094e-01,1.000000000000000000e+00,2.307769775390625000e+00,-4.836624622344970703e+00,4.655555248260498047e+00,-2.026119842529296875e+02,-9.384001922607421875e+01,-1.737023925781250000e+02,4.033146500587463379e-01,-6.667523193359375000e+01,-1.826889343261718750e+02,-2.343106746673583984e+00,7.562364959716796875e+01,3.135619926452636719e+01
5.717319846153259277e-01,1.000000000000000000e+00,2.243954420089721680e+00,-4.781770229339599609e+00,4.663179397583007812e+00,-2.025559234619140625e+02,-9.376420593261718750e+01,-1.736374206542968750e+02,4.033146500587463379e-01,-6.667523193359375000e+01,-1.826889343261718750e+02,-2.342891216278076172e+00,7.562364959716796875e+01,3.135619926452636719e+01
5.768060088157653809e-01,1.000000000000000000e+00,2.243954420089721680e+00,-4.781770229339599609e+00,4.663179397583007812e+00,-2.025559234619140625e+02,-9.376420593261718750e+01,-1.736374206542968750e+02,4.033146500587463379e-01,-6.667523193359375000e+01,-1.826889343261718750e+02,-2.343034982681274414e+00,7.562364959716796875e+01,3.135619926452636719e+01
5.794780254364013672e-01,1.000000000000000000e+00,2.115979671478271484e+00,-4.672241210937500000e+00,4.678773880004882812e+00,-2.024444122314453125e+02,-9.361310577392578125e+01,-1.735060729980468750e+02,4.033146500587463379e-01,-6.667531585693359375e+01,-1.826889343261718750e+02,-2.343106746673583984e+00,7.562364959716796875e+01,3.135619926452636719e+01
5.838000178337097168e-01,1.000000000000000000e+00,2.115979671478271484e+00,-4.672241210937500000e+00,4.678773880004882812e+00,-2.024444122314453125e+02,-9.361310577392578125e+01,-1.735060729980468750e+02,4.033146500587463379e-01,-6.667531585693359375e+01,-1.826889343261718750e+02,-2.343106746673583984e+00,7.562364959716796875e+01,3.135619926452636719e+01
5.888190269470214844e-01,1.000000000000000000e+00,2.052078008651733398e+00,-4.617341041564941406e+00,4.686255931854248047e+00,-2.023888549804687500e+02,-9.353813934326171875e+01,-1.734415740966796875e+02,4.033146500587463379e-01,-6.667523193359375000e+01,-1.826889343261718750e+02,-2.343034982681274414e+00,7.562364959716796875e+01,3.135619926452636719e+01
5.923219919204711914e-01,1.000000000000000000e+00,1.924217939376831055e+00,-4.507947921752929688e+00,4.700813770294189453e+00,-2.022769622802734375e+02,-9.338703918457031250e+01,-1.733104858398437500e+02,4.033146500587463379e-01,-6.667523193359375000e+01,-1.826889343261718750e+02,-2.343034982681274414e+00,7.562364959716796875e+01,3.135619926452636719e+01
5.957379937171936035e-01,1.000000000000000000e+00,1.860460042953491211e+00,-4.453160762786865234e+00,4.708051681518554688e+00,-2.022218170166015625e+02,-9.331154632568359375e+01,-1.732454376220703125e+02,4.033146500587463379e-01,-6.667523193359375000e+01,-1.826889343261718750e+02,-2.343106746673583984e+00,7.562364959716796875e+01,3.135619926452636719e+01
5.997989773750305176e-01,1.000000000000000000e+00,1.860460042953491211e+00,-4.453160762786865234e+00,4.708051681518554688e+00,-2.022218170166015625e+02,-9.331154632568359375e+01,-1.732454376220703125e+02,4.033146500587463379e-01,-6.667523193359375000e+01,-1.826889343261718750e+02,-2.343106746673583984e+00,7.562364959716796875e+01,3.135619926452636719e+01
6.038849949836730957e-01,1.000000000000000000e+00,1.796788454055786133e+00,-4.398373603820800781e+00,4.715513706207275391e+00,-2.021654663085937500e+02,-9.323626708984375000e+01,-1.731791229248046875e+02,4.033146500587463379e-01,-6.667523193359375000e+01,-1.826889343261718750e+02,-2.343034982681274414e+00,7.562364959716796875e+01,3.135642242431640625e+01
6.077939867973327637e-01,1.000000000000000000e+00,1.733174085617065430e+00,-4.343609333038330078e+00,4.723219394683837891e+00,-2.021096343994140625e+02,-9.316024017333984375e+01,-1.731140899658203125e+02,4.033146500587463379e-01,-6.667523193359375000e+01,-1.826889343261718750e+02,-2.343034982681274414e+00,7.562364959716796875e+01,3.135619926452636719e+01
6.117849946022033691e-01,1.000000000000000000e+00,1.669502377510070801e+00,-4.289093971252441406e+00,4.730843544006347656e+00,-2.020544281005859375e+02,-9.308564758300781250e+01,-1.730489044189453125e+02,4.033146500587463379e-01,-6.667523193359375000e+01,-1.826889343261718750e+02,-2.343106746673583984e+00,7.562364959716796875e+01,3.135619926452636719e+01
6.158720254898071289e-01,1.000000000000000000e+00,1.605974197387695312e+00,-4.234420299530029297e+00,4.738305568695068359e+00,-2.019981079101562500e+02,-9.301026153564453125e+01,-1.729830627441406250e+02,4.033146500587463379e-01,-6.667523193359375000e+01,-1.826889343261718750e+02,-2.343106746673583984e+00,7.562364959716796875e+01,3.135619926452636719e+01
6.197839975357055664e-01,1.000000000000000000e+00,1.542446017265319824e+00,-4.179882049560546875e+00,4.745665550231933594e+00,-2.019423828125000000e+02,-9.293481445312500000e+01,-1.729181671142578125e+02,4.033146500587463379e-01,-6.667523193359375000e+01,-1.826889343261718750e+02,-2.343034982681274414e+00,7.562364959716796875e+01,3.135619926452636719e+01
6.237859725952148438e-01,1.000000000000000000e+00,1.415533185005187988e+00,-4.070624828338623047e+00,4.760100841522216797e+00,-2.018303375244140625e+02,-9.278356170654296875e+01,-1.727865295410156250e+02,4.033146500587463379e-01,-6.667523193359375000e+01,-1.826889343261718750e+02,-2.343034982681274414e+00,7.562364959716796875e+01,3.135619926452636719e+01
6.278640031814575195e-01,1.000000000000000000e+00,1.415533185005187988e+00,-4.070624828338623047e+00,4.760100841522216797e+00,-2.018303375244140625e+02,-9.278356170654296875e+01,-1.727865295410156250e+02,4.033146500587463379e-01,-6.667523193359375000e+01,-1.826889343261718750e+02,-2.343034982681274414e+00,7.562364959716796875e+01,3.135619926452636719e+01
6.317890286445617676e-01,1.000000000000000000e+00,1.352148532867431641e+00,-4.015815258026123047e+00,4.767562866210937500e+00,-2.017751464843750000e+02,-9.270822143554687500e+01,-1.727216186523437500e+02,4.033146500587463379e-01,-6.667523193359375000e+01,-1.826889343261718750e+02,-2.343034982681274414e+00,7.562364959716796875e+01,3.135619926452636719e+01
6.357759833335876465e-01,1.000000000000000000e+00,1.288620352745056152e+00,-3.961050748825073242e+00,4.775370121002197266e+00,-2.017188415527343750e+02,-9.263288116455078125e+01,-1.726557769775390625e+02,4.033146500587463379e-01,-6.667523193359375000e+01,-1.826889343261718750e+02,-2.343106746673583984e+00,7.562364959716796875e+01,3.135642242431640625e+01
6.398050189018249512e-01,1.000000000000000000e+00,1.225063443183898926e+00,-3.906399488449096680e+00,4.783157825469970703e+00,-2.016631164550781250e+02,-9.255659484863281250e+01,-1.725900573730468750e+02,4.033146500587463379e-01,-6.667523193359375000e+01,-1.826889343261718750e+02,-2.343034982681274414e+00,7.562364959716796875e+01,3.135619926452636719e+01
6.438469886779785156e-01,1.000000000000000000e+00,1.161506533622741699e+00,-3.851702928543090820e+00,4.790843009948730469e+00,-2.016073303222656250e+02,-9.248141479492187500e+01,-1.725256347656250000e+02,4.033146500587463379e-01,-6.667523193359375000e+01,-1.826889343261718750e+02,-2.343034982681274414e+00,7.562364959716796875e+01,3.135619926452636719e+01
6.477779746055603027e-01,1.000000000000000000e+00,1.097863554954528809e+00,-3.797255277633666992e+00,4.798325061798095703e+00,-2.015511779785156250e+02,-9.240661621093750000e+01,-1.724593200683593750e+02,4.033146500587463379e-01,-6.667523193359375000e+01,-1.826889343261718750e+02,-2.343106746673583984e+00,7.562364959716796875e+01,3.135619926452636719e+01
6.517819762229919434e-01,1.000000000000000000e+00,1.034306645393371582e+00,-3.742536067962646484e+00,4.805624485015869141e+00,-2.014962310791015625e+02,-9.233100891113281250e+01,-1.723939971923828125e+02,4.033146500587463379e-01,-6.667523193359375000e+01,-1.826889343261718750e+02,-2.343106746673583984e+00,7.562364959716796875e+01,3.135619926452636719e+01
6.558949947357177734e-01,1.000000000000000000e+00,9.707497954368591309e-01,-3.687772035598754883e+00,4.812882423400878906e+00,-2.014405059814453125e+02,-9.225514221191406250e+01,-1.723293151855468750e+02,4.033146500587463379e-01,-6.667523193359375000e+01,-1.826889343261718750e+02,-2.343106746673583984e+00,7.562364959716796875e+01,3.135619926452636719e+01
6.597890257835388184e-01,1.000000000000000000e+00,9.072216153144836426e-01,-3.633188486099243164e+00,4.820181369781494141e+00,-2.013845672607421875e+02,-9.217991638183593750e+01,-1.722637176513671875e+02,4.033146500587463379e-01,-6.667523193359375000e+01,-1.826889343261718750e+02,-2.343106746673583984e+00,7.562364959716796875e+01,3.135619926452636719e+01
6.638270020484924316e-01,1.000000000000000000e+00,8.436359763145446777e-01,-3.578582525253295898e+00,4.827602386474609375e+00,-2.013287963867187500e+02,-9.210494995117187500e+01,-1.721985473632812500e+02,4.033146500587463379e-01,-6.667523193359375000e+01,-1.826889343261718750e+02,-2.343106746673583984e+00,7.562364959716796875e+01,3.135619926452636719e+01
6.678090095520019531e-01,1.000000000000000000e+00,7.801077961921691895e-01,-3.524202823638916016e+00,4.835247516632080078e+00,-2.012727966308593750e+02,-9.202950286865234375e+01,-1.721335754394531250e+02,4.033146500587463379e-01,-6.667523193359375000e+01,-1.826889343261718750e+02,-2.343034982681274414e+00,7.562372589111328125e+01,3.135619926452636719e+01
6.717770099639892578e-01,1.000000000000000000e+00,7.166657447814941406e-01,-3.469709873199462891e+00,4.842790603637695312e+00,-2.012176818847656250e+02,-9.195358276367187500e+01,-1.720671997070312500e+02,4.033146500587463379e-01,-6.667523193359375000e+01,-1.826889343261718750e+02,-2.342891216278076172e+00,7.562364959716796875e+01,3.135642242431640625e+01
6.758040189743041992e-01,1.000000000000000000e+00,6.533959507942199707e-01,-3.415217161178588867e+00,4.850191116333007812e+00,-2.011618041992187500e+02,-9.187819671630859375e+01,-1.720023651123046875e+02,4.033146500587463379e-01,-6.667523193359375000e+01,-1.826889343261718750e+02,-2.343034982681274414e+00,7.562364959716796875e+01,3.135619926452636719e+01
6.797980070114135742e-01,1.000000000000000000e+00,5.898391008377075195e-01,-3.360633611679077148e+00,4.857490539550781250e+00,-2.011056671142578125e+02,-9.180344390869140625e+01,-1.719371185302734375e+02,4.033146500587463379e-01,-6.667523193359375000e+01,-1.826889343261718750e+02,-2.343106746673583984e+00,7.562364959716796875e+01,3.135642242431640625e+01
6.838639974594116211e-01,1.000000000000000000e+00,5.264256596565246582e-01,-3.305891752243041992e+00,4.864667415618896484e+00,-2.010499877929687500e+02,-9.172773742675781250e+01,-1.718712768554687500e+02,4.033146500587463379e-01,-6.667523193359375000e+01,-1.826889343261718750e+02,-2.343106746673583984e+00,7.562364959716796875e+01,3.135619926452636719e+01
6.880019903182983398e-01,1.000000000000000000e+00,4.628400802612304688e-01,-3.251240730285644531e+00,4.871865272521972656e+00,-2.009941558837890625e+02,-9.165203094482421875e+01,-1.718060302734375000e+02,4.033146500587463379e-01,-6.667531585693359375e+01,-1.826890411376953125e+02,-2.343106746673583984e+00,7.562364959716796875e+01,3.135619926452636719e+01
6.918309926986694336e-01,1.000000000000000000e+00,3.992545306682586670e-01,-3.196453571319580078e+00,4.879326820373535156e+00,-2.009387817382812500e+02,-9.157685852050781250e+01,-1.717405853271484375e+02,4.033146500587463379e-01,-6.667523193359375000e+01,-1.826889343261718750e+02,-2.343034982681274414e+00,7.562364959716796875e+01,3.135619926452636719e+01
6.957759857177734375e-01,1.000000000000000000e+00,3.354679644107818604e-01,-3.141666650772094727e+00,4.886971473693847656e+00,-2.008830108642578125e+02,-9.150237274169921875e+01,-1.716752014160156250e+02,4.033146500587463379e-01,-6.667523193359375000e+01,-1.826889343261718750e+02,-2.342891216278076172e+00,7.562364959716796875e+01,3.135619926452636719e+01
6.998630166053771973e-01,1.000000000000000000e+00,2.714805006980895996e-01,-3.087037801742553711e+00,4.894677639007568359e+00,-2.008270721435546875e+02,-9.142644500732421875e+01,-1.716105194091796875e+02,4.033146500587463379e-01,-6.667523193359375000e+01,-1.826889343261718750e+02,-2.343106746673583984e+00,7.562364959716796875e+01,3.135619926452636719e+01
7.038229703903198242e-01,1.000000000000000000e+00,2.077513486146926880e-01,-3.032432079315185547e+00,4.902383327484130859e+00,-2.007718200683593750e+02,-9.135127258300781250e+01,-1.715446624755859375e+02,4.033146500587463379e-01,-6.667523193359375000e+01,-1.826889343261718750e+02,-2.343034982681274414e+00,7.562364959716796875e+01,3.135619926452636719e+01
7.077839970588684082e-01,1.000000000000000000e+00,1.439648121595382690e-01,-2.977916479110717773e+00,4.909966945648193359e+00,-2.007154541015625000e+02,-9.127603912353515625e+01,-1.714787445068359375e+02,4.033146500587463379e-01,-6.667523193359375000e+01,-1.826890411376953125e+02,-2.343106746673583984e+00,7.562364959716796875e+01,3.135619926452636719e+01
7.125660181045532227e-01,1.000000000000000000e+00,8.009213954210281372e-02,-2.923242568969726562e+00,4.917367458343505859e+00,-2.006602020263671875e+02,-9.120145416259765625e+01,-1.714143981933593750e+02,4.033146500587463379e-01,-6.667523193359375000e+01,-1.826889343261718750e+02,-2.343034982681274414e+00,7.562364959716796875e+01,3.135619926452636719e+01
7.157800197601318359e-01,1.000000000000000000e+00,1.619076728820800781e-02,-2.868568658828735352e+00,4.924483776092529297e+00,-2.006047210693359375e+02,-9.112596130371093750e+01,-1.713484649658203125e+02,4.033146500587463379e-01,-6.667523193359375000e+01,-1.826889343261718750e+02,-2.343106746673583984e+00,7.562364959716796875e+01,3.135619926452636719e+01
7.197920083999633789e-01,1.000000000000000000e+00,-4.748095199465751648e-02,-2.814030408859252930e+00,4.931640625000000000e+00,-2.005492553710937500e+02,-9.105136871337890625e+01,-1.712833099365234375e+02,4.033146500587463379e-01,-6.667523193359375000e+01,-1.826889343261718750e+02,-2.343178272247314453e+00,7.562364959716796875e+01,3.135642242431640625e+01
7.238529920578002930e-01,1.000000000000000000e+00,-1.111239567399024963e-01,-2.759537696838378906e+00,4.939203739166259766e+00,-2.004940032958984375e+02,-9.097587585449218750e+01,-1.712189331054687500e+02,4.033146500587463379e-01,-6.667523193359375000e+01,-1.826889343261718750e+02,-2.343106746673583984e+00,7.562364959716796875e+01,3.135619926452636719e+01
7.282159924507141113e-01,1.000000000000000000e+00,-1.747669726610183716e-01,-2.704977035522460938e+00,4.946889400482177734e+00,-2.004375457763671875e+02,-9.090064239501953125e+01,-1.711529541015625000e+02,4.033146500587463379e-01,-6.667523193359375000e+01,-1.826889343261718750e+02,-2.343034982681274414e+00,7.562364959716796875e+01,3.135619926452636719e+01
7.316399812698364258e-01,1.000000000000000000e+00,-2.384386807680130005e-01,-2.650529384613037109e+00,4.954595088958740234e+00,-2.003820190429687500e+02,-9.082514190673828125e+01,-1.710872344970703125e+02,4.033146500587463379e-01,-6.667523193359375000e+01,-1.826889343261718750e+02,-2.343106746673583984e+00,7.562364959716796875e+01,3.135619926452636719e+01
7.367169857025146484e-01,1.000000000000000000e+00,-3.021104037761688232e-01,-2.595810174942016602e+00,4.962016582489013672e+00,-2.003267669677734375e+02,-9.075055694580078125e+01,-1.710221405029296875e+02,4.033146500587463379e-01,-6.667523193359375000e+01,-1.826889343261718750e+02,-2.343034982681274414e+00,7.562364959716796875e+01,3.135619926452636719e+01
7.402859926223754883e-01,1.000000000000000000e+00,-3.654950559139251709e-01,-2.541204452514648438e+00,4.969376564025878906e+00,-2.002705535888671875e+02,-9.067575836181640625e+01,-1.709560852050781250e+02,4.033146500587463379e-01,-6.667523193359375000e+01,-1.826889343261718750e+02,-2.343034982681274414e+00,7.562364959716796875e+01,3.135619926452636719e+01
7.435449957847595215e-01,1.000000000000000000e+00,-4.290806651115417480e-01,-2.486349344253540039e+00,4.976593971252441406e+00,-2.002151489257812500e+02,-9.060052490234375000e+01,-1.708912506103515625e+02,4.033146500587463379e-01,-6.667523193359375000e+01,-1.826889343261718750e+02,-2.343034982681274414e+00,7.562364959716796875e+01,3.135619926452636719e+01
7.480120062828063965e-01,1.000000000000000000e+00,-4.926088154315948486e-01,-2.431743383407592773e+00,4.983832359313964844e+00,-2.001590576171875000e+02,-9.052487182617187500e+01,-1.708263549804687500e+02,4.033146500587463379e-01,-6.667523193359375000e+01,-1.826889343261718750e+02,-2.343106746673583984e+00,7.562364959716796875e+01,3.135619926452636719e+01
7.516779899597167969e-01,1.000000000000000000e+00,-5.560508966445922852e-01,-2.377205371856689453e+00,4.991293907165527344e+00,-2.001032257080078125e+02,-9.045028686523437500e+01,-1.707601470947265625e+02,4.033146500587463379e-01,-6.667523193359375000e+01,-1.826889343261718750e+02,-2.343106746673583984e+00,7.562364959716796875e+01,3.135642242431640625e+01
7.557809948921203613e-01,1.000000000000000000e+00,-6.198087334632873535e-01,-2.322644472122192383e+00,4.998959064483642578e+00,-2.000482788085937500e+02,-9.037526702880859375e+01,-1.706954650878906250e+02,4.033146500587463379e-01,-6.667523193359375000e+01,-1.826889343261718750e+02,-2.343034982681274414e+00,7.562364959716796875e+01,3.135619926452636719e+01
7.604719996452331543e-01,1.000000000000000000e+00,-6.835378408432006836e-01,-2.268197059631347656e+00,5.006705284118652344e+00,-1.999923400878906250e+02,-9.030019378662109375e+01,-1.706291351318359375e+02,4.033146500587463379e-01,-6.667523193359375000e+01,-1.826890411376953125e+02,-2.343106746673583984e+00,7.562364959716796875e+01,3.135619926452636719e+01
7.643690109252929688e-01,1.000000000000000000e+00,-7.472095489501953125e-01,-2.213477849960327148e+00,5.014329910278320312e+00,-1.999369812011718750e+02,-9.022475433349609375e+01,-1.705634155273437500e+02,4.033146500587463379e-01,-6.667523193359375000e+01,-1.826889343261718750e+02,-2.343106746673583984e+00,7.562364959716796875e+01,3.135642242431640625e+01
7.678769826889038086e-01,1.000000000000000000e+00,-8.107664585113525391e-01,-2.158939599990844727e+00,5.021750926971435547e+00,-1.998808898925781250e+02,-9.014931488037109375e+01,-1.704990692138671875e+02,4.033146500587463379e-01,-6.667523193359375000e+01,-1.826889343261718750e+02,-2.343106746673583984e+00,7.562364959716796875e+01,3.135619926452636719e+01
7.719789743423461914e-01,1.000000000000000000e+00,-8.743807673454284668e-01,-2.104356288909912109e+00,5.028989315032958984e+00,-1.998247222900390625e+02,-9.007424163818359375e+01,-1.704334259033203125e+02,4.033146500587463379e-01,-6.667523193359375000e+01,-1.826889343261718750e+02,-2.343106746673583984e+00,7.562364959716796875e+01,3.135642242431640625e+01
7.758889794349670410e-01,1.000000000000000000e+00,-9.380812644958496094e-01,-2.049885988235473633e+00,5.036207199096679688e+00,-1.997699432373046875e+02,-8.999890136718750000e+01,-1.703673706054687500e+02,4.033146500587463379e-01,-6.667523193359375000e+01,-1.826889343261718750e+02,-2.343106746673583984e+00,7.562364959716796875e+01,3.135619926452636719e+01
7.800440192222595215e-01,1.000000000000000000e+00,-1.001494526863098145e+00,-1.995529055595397949e+00,5.043465614318847656e+00,-1.997142181396484375e+02,-8.992351531982421875e+01,-1.703026733398437500e+02,4.033146500587463379e-01,-6.667523193359375000e+01,-1.826889343261718750e+02,-2.343034982681274414e+00,7.562364959716796875e+01,3.135619926452636719e+01
7.840170264244079590e-01,1.000000000000000000e+00,-1.064907908439636230e+00,-1.941104173660278320e+00,5.050968170166015625e+00,-1.996585540771484375e+02,-8.984850311279296875e+01,-1.702368774414062500e+02,4.033146500587463379e-01,-6.667523193359375000e+01,-1.826889343261718750e+02,-2.343106746673583984e+00,7.562372589111328125e+01,3.135619926452636719e+01
7.886369824409484863e-01,1.000000000000000000e+00,-1.128522157669067383e+00,-1.886656403541564941e+00,5.058490753173828125e+00,-1.996028747558593750e+02,-8.977337646484375000e+01,-1.701719055175781250e+02,4.033146500587463379e-01,-6.667523193359375000e+01,-1.826889343261718750e+02,-2.343106746673583984e+00,7.562364959716796875e+01,3.135619926452636719e+01
7.918549776077270508e-01,1.000000000000000000e+00,-1.191820740699768066e+00,-1.832005262374877930e+00,5.066033840179443359e+00,-1.995470428466796875e+02,-8.969766998291015625e+01,-1.701073455810546875e+02,4.033146500587463379e-01,-6.667523193359375000e+01,-1.826889343261718750e+02,-2.343034982681274414e+00,7.562364959716796875e+01,3.135619926452636719e+01
7.961429953575134277e-01,1.000000000000000000e+00,-1.255176782608032227e+00,-1.777421832084655762e+00,5.073393821716308594e+00,-1.994918212890625000e+02,-8.962217712402343750e+01,-1.700413665771484375e+02,4.033146500587463379e-01,-6.667523193359375000e+01,-1.826889343261718750e+02,-2.343034982681274414e+00,7.562364959716796875e+01,3.135619926452636719e+01
8.000079989433288574e-01,1.000000000000000000e+00,-1.318360328674316406e+00,-1.722748041152954102e+00,5.080652713775634766e+00,-1.994359893798828125e+02,-8.954758453369140625e+01,-1.699765472412109375e+02,4.033146500587463379e-01,-6.667513275146484375e+01,-1.826889343261718750e+02,-2.343034982681274414e+00,7.562364959716796875e+01,3.135619926452636719e+01
8.038439750671386719e-01,1.000000000000000000e+00,-1.381859898567199707e+00,-1.667915701866149902e+00,5.087829113006591797e+00,-1.993800048828125000e+02,-8.947241210937500000e+01,-1.699110870361328125e+02,4.033146500587463379e-01,-6.667523193359375000e+01,-1.826889343261718750e+02,-2.343106746673583984e+00,7.562364959716796875e+01,3.135619926452636719e+01
8.093460202217102051e-01,1.000000000000000000e+00,-1.445502877235412598e+00,-1.613445401191711426e+00,5.095087528228759766e+00,-1.993245391845703125e+02,-8.939681243896484375e+01,-1.698451080322265625e+02,4.033146500587463379e-01,-6.667523193359375000e+01,-1.826889343261718750e+02,-2.343034982681274414e+00,7.562364959716796875e+01,3.135619926452636719e+01
8.128730058670043945e-01,1.000000000000000000e+00,-1.508887529373168945e+00,-1.558975219726562500e+00,5.102610588073730469e+00,-1.992687530517578125e+02,-8.932088470458984375e+01,-1.697800140380859375e+02,4.033146500587463379e-01,-6.667523193359375000e+01,-1.826889343261718750e+02,-2.343034982681274414e+00,7.562364959716796875e+01,3.135619926452636719e+01
8.161200284957885742e-01,1.000000000000000000e+00,-1.572530627250671387e+00,-1.504391908645629883e+00,5.110356807708740234e+00,-1.992131805419921875e+02,-8.924597930908203125e+01,-1.697149047851562500e+02,4.033146500587463379e-01,-6.667523193359375000e+01,-1.826890411376953125e+02,-2.343034982681274414e+00,7.562364959716796875e+01,3.135619926452636719e+01
8.187299966812133789e-01,1.000000000000000000e+00,-1.636144876480102539e+00,-1.449808478355407715e+00,5.118205070495605469e+00,-1.991574554443359375e+02,-8.917058563232421875e+01,-1.696492462158203125e+02,4.033146500587463379e-01,-6.667523193359375000e+01,-1.826889343261718750e+02,-2.343106746673583984e+00,7.562364959716796875e+01,3.135619926452636719e+01
8.227220177650451660e-01,1.000000000000000000e+00,-1.699615597724914551e+00,-1.395111918449401855e+00,5.125870227813720703e+00,-1.991015777587890625e+02,-8.909482574462890625e+01,-1.695848236083984375e+02,4.033146500587463379e-01,-6.667523193359375000e+01,-1.826889343261718750e+02,-2.343034982681274414e+00,7.562364959716796875e+01,3.135619926452636719e+01
8.283690214157104492e-01,1.000000000000000000e+00,-1.763086318969726562e+00,-1.340664386749267578e+00,5.133332252502441406e+00,-1.990463104248046875e+02,-8.901927947998046875e+01,-1.695186920166015625e+02,4.033146500587463379e-01,-6.667523193359375000e+01,-1.826889343261718750e+02,-2.343106746673583984e+00,7.562364959716796875e+01,3.135619926452636719e+01
8.322759866714477539e-01,1.000000000000000000e+00,-1.826528310775756836e+00,-1.286171555519104004e+00,5.140610694885253906e+00,-1.989902648925781250e+02,-8.894458007812500000e+01,-1.694529876708984375e+02,4.033146500587463379e-01,-6.667523193359375000e+01,-1.826890411376953125e+02,-2.343106746673583984e+00,7.562364959716796875e+01,3.135619926452636719e+01
8.347319960594177246e-01,1.000000000000000000e+00,-1.889999151229858398e+00,-1.231769204139709473e+00,5.147808074951171875e+00,-1.989351196289062500e+02,-8.886966705322265625e+01,-1.693886413574218750e+02,4.033146500587463379e-01,-6.667523193359375000e+01,-1.826889343261718750e+02,-2.343106746673583984e+00,7.562364959716796875e+01,3.135619926452636719e+01
8.403720259666442871e-01,1.000000000000000000e+00,-1.953297734260559082e+00,-1.177502632141113281e+00,5.155127525329589844e+00,-1.988793334960937500e+02,-8.879358673095703125e+01,-1.693236083984375000e+02,4.033146500587463379e-01,-6.667523193359375000e+01,-1.826889343261718750e+02,-2.343034982681274414e+00,7.562364959716796875e+01,3.135619926452636719e+01
8.443109989166259766e-01,1.000000000000000000e+00,-2.016481399536132812e+00,-1.122806191444396973e+00,5.162691116333007812e+00,-1.988233337402343750e+02,-8.871830749511718750e+01,-1.692576141357421875e+02,4.033146500587463379e-01,-6.667523193359375000e+01,-1.826889343261718750e+02,-2.343034982681274414e+00,7.562364959716796875e+01,3.135619926452636719e+01
8.484169840812683105e-01,1.000000000000000000e+00,-2.079980850219726562e+00,-1.068132162094116211e+00,5.170335769653320312e+00,-1.987682952880859375e+02,-8.864366149902343750e+01,-1.691932525634765625e+02,4.033146500587463379e-01,-6.667523193359375000e+01,-1.826889343261718750e+02,-2.343106746673583984e+00,7.562364959716796875e+01,3.135619926452636719e+01
8.523849844932556152e-01,1.000000000000000000e+00,-2.143422842025756836e+00,-1.013390541076660156e+00,5.177777290344238281e+00,-1.987123107910156250e+02,-8.856874847412109375e+01,-1.691276702880859375e+02,4.033146500587463379e-01,-6.667523193359375000e+01,-1.826889343261718750e+02,-2.343106746673583984e+00,7.562364959716796875e+01,3.135619926452636719e+01
8.564730286598205566e-01,1.000000000000000000e+00,-2.206692934036254883e+00,-9.588750004768371582e-01,5.185056209564208984e+00,-1.986566772460937500e+02,-8.849315643310546875e+01,-1.690626373291015625e+02,4.033146500587463379e-01,-6.667523193359375000e+01,-1.826889343261718750e+02,-2.343034982681274414e+00,7.562364959716796875e+01,3.135619926452636719e+01
8.611990213394165039e-01,1.000000000000000000e+00,-2.270077466964721680e+00,-9.043595194816589355e-01,5.192314624786376953e+00,-1.986014862060546875e+02,-8.841797637939453125e+01,-1.689980010986328125e+02,4.033146500587463379e-01,-6.667523193359375000e+01,-1.826889343261718750e+02,-2.343106746673583984e+00,7.562350463867187500e+01,3.135619926452636719e+01
8.627470135688781738e-01,1.000000000000000000e+00,-2.333375930786132812e+00,-8.498214483261108398e-01,5.199512004852294922e+00,-1.985451202392578125e+02,-8.834285736083984375e+01,-1.689325561523437500e+02,4.033146500587463379e-01,-6.667523193359375000e+01,-1.826889343261718750e+02,-2.343034982681274414e+00,7.562364959716796875e+01,3.135642242431640625e+01
8.684669733047485352e-01,1.000000000000000000e+00,-2.396990299224853516e+00,-7.953285574913024902e-01,5.206790924072265625e+00,-1.984899749755859375e+02,-8.826789093017578125e+01,-1.688675231933593750e+02,4.033146500587463379e-01,-6.667523193359375000e+01,-1.826890411376953125e+02,-2.343178272247314453e+00,7.562364959716796875e+01,3.135619926452636719e+01
8.725559711456298828e-01,1.000000000000000000e+00,-2.460260152816772461e+00,-7.407678365707397461e-01,5.214150905609130859e+00,-1.984340820312500000e+02,-8.819223785400390625e+01,-1.688026885986328125e+02,4.033146500587463379e-01,-6.667523193359375000e+01,-1.826889343261718750e+02,-2.343106746673583984e+00,7.562364959716796875e+01,3.135619926452636719e+01
8.767650127410888672e-01,1.000000000000000000e+00,-2.523845672607421875e+00,-6.863654851913452148e-01,5.221836566925048828e+00,-1.983782043457031250e+02,-8.811727905273437500e+01,-1.687364349365234375e+02,4.033146500587463379e-01,-6.667523193359375000e+01,-1.826890411376953125e+02,-2.343106746673583984e+00,7.562364959716796875e+01,3.135619926452636719e+01
8.814759850502014160e-01,1.000000000000000000e+00,-2.587402582168579102e+00,-6.319178938865661621e-01,5.229460716247558594e+00,-1.983229522705078125e+02,-8.804230499267578125e+01,-1.686712646484375000e+02,4.033146500587463379e-01,-6.667523193359375000e+01,-1.826889343261718750e+02,-2.343106746673583984e+00,7.562364959716796875e+01,3.135619926452636719e+01
8.853189945220947266e-01,1.000000000000000000e+00,-2.650959491729736328e+00,-5.775382518768310547e-01,5.237105846405029297e+00,-1.982667846679687500e+02,-8.796750640869140625e+01,-1.686065063476562500e+02,4.033146500587463379e-01,-6.667523193359375000e+01,-1.826889343261718750e+02,-2.343034982681274414e+00,7.562364959716796875e+01,3.135619926452636719e+01
8.887330293655395508e-01,1.000000000000000000e+00,-2.714344024658203125e+00,-5.232490301132202148e-01,5.244587898254394531e+00,-1.982113342285156250e+02,-8.789200592041015625e+01,-1.685407867431640625e+02,4.033146500587463379e-01,-6.667523193359375000e+01,-1.826890411376953125e+02,-2.343034982681274414e+00,7.562364959716796875e+01,3.135619926452636719e+01
8.927850127220153809e-01,1.000000000000000000e+00,-2.777872323989868164e+00,-4.689145982265472412e-01,5.251805305480957031e+00,-1.981558074951171875e+02,-8.781726074218750000e+01,-1.684759521484375000e+02,4.033146500587463379e-01,-6.667523193359375000e+01,-1.826889343261718750e+02,-2.343034982681274414e+00,7.562364959716796875e+01,3.135619926452636719e+01
8.968369960784912109e-01,1.000000000000000000e+00,-2.841400623321533203e+00,-4.146254360675811768e-01,5.259023189544677734e+00,-1.981000823974609375e+02,-8.774203491210937500e+01,-1.684105072021484375e+02,4.033146500587463379e-01,-6.667523193359375000e+01,-1.826889343261718750e+02,-2.343106746673583984e+00,7.562350463867187500e+01,3.135619926452636719e+01
9.008539915084838867e-01,1.000000000000000000e+00,-2.904928684234619141e+00,-3.601325750350952148e-01,5.266302108764648438e+00,-1.980449829101562500e+02,-8.766744232177734375e+01,-1.683444519042968750e+02,4.033146500587463379e-01,-6.667523193359375000e+01,-1.826889343261718750e+02,-2.343106746673583984e+00,7.562364959716796875e+01,3.135619926452636719e+01
9.057610034942626953e-01,1.000000000000000000e+00,-2.968485593795776367e+00,-3.055944740772247314e-01,5.273946762084960938e+00,-1.979891967773437500e+02,-8.759200286865234375e+01,-1.682802429199218750e+02,4.033146500587463379e-01,-6.667523193359375000e+01,-1.826890411376953125e+02,-2.343034982681274414e+00,7.562364959716796875e+01,3.135619926452636719e+01
9.096369743347167969e-01,1.000000000000000000e+00,-3.031927585601806641e+00,-2.510563731193542480e-01,5.281469345092773438e+00,-1.979336853027343750e+02,-8.751747131347656250e+01,-1.682145843505859375e+02,4.033146500587463379e-01,-6.667523193359375000e+01,-1.826889343261718750e+02,-2.343106746673583984e+00,7.562364959716796875e+01,3.135619926452636719e+01
9.128389954566955566e-01,1.000000000000000000e+00,-3.095369577407836914e+00,-1.965635269880294800e-01,5.288890361785888672e+00,-1.978780517578125000e+02,-8.744170379638671875e+01,-1.681491546630859375e+02,4.033146500587463379e-01,-6.667523193359375000e+01,-1.826889343261718750e+02,-2.343106746673583984e+00,7.562364959716796875e+01,3.135619926452636719e+01
9.169830083847045898e-01,1.000000000000000000e+00,-3.158869266510009766e+00,-1.421385556459426880e-01,5.296291351318359375e+00,-1.978219146728515625e+02,-8.736673736572265625e+01,-1.680847167968750000e+02,4.033146500587463379e-01,-6.667523193359375000e+01,-1.826889343261718750e+02,-2.343106746673583984e+00,7.562364959716796875e+01,3.135619926452636719e+01
9.187840223312377930e-01,1.000000000000000000e+00,-3.222224950790405273e+00,-8.760046213865280151e-02,5.303631305694580078e+00,-1.977667999267578125e+02,-8.729156494140625000e+01,-1.680186004638671875e+02,4.033146500587463379e-01,-6.667523193359375000e+01,-1.826889343261718750e+02,-2.343034982681274414e+00,7.562364959716796875e+01,3.135619926452636719e+01
9.250259995460510254e-01,1.000000000000000000e+00,-3.285925388336181641e+00,-3.308498114347457886e-02,5.310767650604248047e+00,-1.977113494873046875e+02,-8.721691894531250000e+01,-1.679537048339843750e+02,4.033146500587463379e-01,-6.667523193359375000e+01,-1.826889343261718750e+02,-2.343034982681274414e+00,7.562364959716796875e+01,3.135598182678222656e+01
9.268090128898620605e-01,1.000000000000000000e+00,-3.349424839019775391e+00,2.147575840353965759e-02,5.318148136138916016e+00,-1.976555480957031250e+02,-8.714233398437500000e+01,-1.678890686035156250e+02,4.033146500587463379e-01,-6.667523193359375000e+01,-1.826889343261718750e+02,-2.343106746673583984e+00,7.562364959716796875e+01,3.135619926452636719e+01
9.317250251770019531e-01,1.000000000000000000e+00,-3.412838220596313477e+00,7.594597339630126953e-02,5.325650691986083984e+00,-1.976001434326171875e+02,-8.706710815429687500e+01,-1.678232116699218750e+02,4.033146500587463379e-01,-6.667523193359375000e+01,-1.826889343261718750e+02,-2.343106746673583984e+00,7.562364959716796875e+01,3.135619926452636719e+01
9.367820024490356445e-01,1.000000000000000000e+00,-3.476510286331176758e+00,1.303030401468276978e-01,5.333417415618896484e+00,-1.975441589355468750e+02,-8.699176788330078125e+01,-1.677583160400390625e+02,4.033146500587463379e-01,-6.667523193359375000e+01,-1.826889343261718750e+02,-2.342891216278076172e+00,7.562364959716796875e+01,3.135619926452636719e+01
9.397270083427429199e-01,1.000000000000000000e+00,-3.540124416351318359e+00,1.848185211420059204e-01,5.341163635253906250e+00,-1.974890136718750000e+02,-8.691712951660156250e+01,-1.676931457519531250e+02,4.033146500587463379e-01,-6.667523193359375000e+01,-1.826889343261718750e+02,-2.343034982681274414e+00,7.562364959716796875e+01,3.135619926452636719e+01
9.427480101585388184e-01,1.000000000000000000e+00,-3.603738784790039062e+00,2.391076833009719849e-01,5.348727226257324219e+00,-1.974332733154296875e+02,-8.684259033203125000e+01,-1.676273651123046875e+02,4.033146500587463379e-01,-6.667523193359375000e+01,-1.826889343261718750e+02,-2.343034982681274414e+00,7.562364959716796875e+01,3.135619926452636719e+01
9.490950107574462891e-01,1.000000000000000000e+00,-3.603738784790039062e+00,2.391076833009719849e-01,5.348727226257324219e+00,-1.974332733154296875e+02,-8.684259033203125000e+01,-1.676273651123046875e+02,4.033146500587463379e-01,-6.667523193359375000e+01,-1.826889343261718750e+02,-2.343034982681274414e+00,7.562364959716796875e+01,3.135619926452636719e+01
9.508000016212463379e-01,1.000000000000000000e+00,-3.730679988861083984e+00,3.480481505393981934e-01,5.363366127014160156e+00,-1.973223876953125000e+02,-8.669191741943359375e+01,-1.674975585937500000e+02,4.033146500587463379e-01,-6.667523193359375000e+01,-1.826889343261718750e+02,-2.343106746673583984e+00,7.562364959716796875e+01,3.135619926452636719e+01
9.579179883003234863e-01,1.000000000000000000e+00,-3.730679988861083984e+00,3.480481505393981934e-01,5.363366127014160156e+00,-1.973223876953125000e+02,-8.669191741943359375e+01,-1.674975585937500000e+02,4.033146500587463379e-01,-6.667523193359375000e+01,-1.826889343261718750e+02,-2.343106746673583984e+00,7.562364959716796875e+01,3.135619926452636719e+01
9.597200155258178711e-01,1.000000000000000000e+00,-3.857420682907104492e+00,4.570338428020477295e-01,5.377862453460693359e+00,-1.972110443115234375e+02,-8.654178619384765625e+01,-1.673668823242187500e+02,4.033146500587463379e-01,-6.667523193359375000e+01,-1.826889343261718750e+02,-2.343106746673583984e+00,7.562364959716796875e+01,3.135619926452636719e+01
9.627360105514526367e-01,1.000000000000000000e+00,-3.920977830886840820e+00,5.116398334503173828e-01,5.385365009307861328e+00,-1.971556243896484375e+02,-8.646601867675781250e+01,-1.673016357421875000e+02,4.033146500587463379e-01,-6.667523193359375000e+01,-1.826889343261718750e+02,-2.343106746673583984e+00,7.562364959716796875e+01,3.135619926452636719e+01
9.693830013275146484e-01,1.000000000000000000e+00,-3.920977830886840820e+00,5.116398334503173828e-01,5.385365009307861328e+00,-1.971556243896484375e+02,-8.646601867675781250e+01,-1.673016357421875000e+02,4.033146500587463379e-01,-6.667523193359375000e+01,-1.826889343261718750e+02,-2.343106746673583984e+00,7.562364959716796875e+01,3.135619926452636719e+01
9.717130064964294434e-01,1.000000000000000000e+00,-4.047804355621337891e+00,6.207160353660583496e-01,5.400369644165039062e+00,-1.970452270507812500e+02,-8.631651306152343750e+01,-1.671714935302734375e+02,4.033146500587463379e-01,-6.667523193359375000e+01,-1.826889343261718750e+02,-2.343034982681274414e+00,7.562364959716796875e+01,3.135619926452636719e+01
9.747300148010253906e-01,1.000000000000000000e+00,-4.111103057861328125e+00,6.750278472900390625e-01,5.407770633697509766e+00,-1.969889068603515625e+02,-8.624155426025390625e+01,-1.671062011718750000e+02,4.033146500587463379e-01,-6.667523193359375000e+01,-1.826889343261718750e+02,-2.343034982681274414e+00,7.562364959716796875e+01,3.135619926452636719e+01
9.798340201377868652e-01,1.000000000000000000e+00,-4.111103057861328125e+00,6.750278472900390625e-01,5.407770633697509766e+00,-1.969889068603515625e+02,-8.624155426025390625e+01,-1.671062011718750000e+02,4.033146500587463379e-01,-6.667523193359375000e+01,-1.826889343261718750e+02,-2.343034982681274414e+00,7.562364959716796875e+01,3.135619926452636719e+01
9.837179780006408691e-01,1.000000000000000000e+00,-4.237814903259277344e+00,7.840814590454101562e-01,5.422104835510253906e+00,-1.968783569335937500e+02,-8.609110260009765625e+01,-1.669757843017578125e+02,4.033146500587463379e-01,-6.667523193359375000e+01,-1.826889343261718750e+02,-2.343034982681274414e+00,7.562364959716796875e+01,3.135598182678222656e+01
9.877830147743225098e-01,1.000000000000000000e+00,-4.301228046417236328e+00,8.383706212043762207e-01,5.429383277893066406e+00,-1.968225097656250000e+02,-8.601613616943359375e+01,-1.669102020263671875e+02,4.033146500587463379e-01,-6.667523193359375000e+01,-1.826889343261718750e+02,-2.343034982681274414e+00,7.562364959716796875e+01,3.135619926452636719e+01
9.907940030097961426e-01,1.000000000000000000e+00,-4.364727973937988281e+00,8.928408622741699219e-01,5.436967372894287109e+00,-1.967673187255859375e+02,-8.594122314453125000e+01,-1.668453674316406250e+02,4.033146500587463379e-01,-6.667523193359375000e+01,-1.826889343261718750e+02,-2.343106746673583984e+00,7.562364959716796875e+01,3.135619926452636719e+01
9.957659840583801270e-01,1.000000000000000000e+00,-4.364727973937988281e+00,8.928408622741699219e-01,5.436967372894287109e+00,-1.967673187255859375e+02,-8.594122314453125000e+01,-1.668453674316406250e+02,4.033146500587463379e-01,-6.667523193359375000e+01,-1.826889343261718750e+02,-2.343106746673583984e+00,7.562364959716796875e+01,3.135619926452636719e+01
9.998059868812561035e-01,1.000000000000000000e+00,-4.491669178009033203e+00,1.001328706741333008e+00,5.452541351318359375e+00,-1.966556549072265625e+02,-8.579087066650390625e+01,-1.667150115966796875e+02,4.033146500587463379e-01,-6.667523193359375000e+01,-1.826889343261718750e+02,-2.343034982681274414e+00,7.562364959716796875e+01,3.135619926452636719e+01
1.003718018531799316e+00,1.000000000000000000e+00,-4.555111408233642578e+00,1.055482029914855957e+00,5.460104465484619141e+00,-1.966007080078125000e+02,-8.571569824218750000e+01,-1.666496582031250000e+02,4.033146500587463379e-01,-6.667523193359375000e+01,-1.826889343261718750e+02,-2.343106746673583984e+00,7.562364959716796875e+01,3.135619926452636719e+01
1.007717967033386230e+00,1.000000000000000000e+00,-4.618438720703125000e+00,1.109839200973510742e+00,5.467383384704589844e+00,-1.965446624755859375e+02,-8.564057159423828125e+01,-1.665851440429687500e+02,4.033146500587463379e-01,-6.667523193359375000e+01,-1.826889343261718750e+02,-2.343106746673583984e+00,7.562364959716796875e+01,3.135619926452636719e+01
1.011790037155151367e+00,1.000000000000000000e+00,-4.681679725646972656e+00,1.164422512054443359e+00,5.474520206451416016e+00,-1.964895172119140625e+02,-8.556454467773437500e+01,-1.665188293457031250e+02,4.033146500587463379e-01,-6.667523193359375000e+01,-1.826889343261718750e+02,-2.343106746673583984e+00,7.562364959716796875e+01,3.135619926452636719e+01
1.014793992042541504e+00,1.000000000000000000e+00,-4.744633674621582031e+00,1.218824863433837891e+00,5.481717586517333984e+00,-1.964339447021484375e+02,-8.549006652832031250e+01,-1.664541320800781250e+02,4.033146500587463379e-01,-6.667531585693359375e+01,-1.826889343261718750e+02,-2.343178272247314453e+00,7.562364959716796875e+01,3.135619926452636719e+01
1.019772052764892578e+00,1.000000000000000000e+00,-4.744633674621582031e+00,1.218824863433837891e+00,5.481717586517333984e+00,-1.964339447021484375e+02,-8.549006652832031250e+01,-1.664541320800781250e+02,4.033146500587463379e-01,-6.667531585693359375e+01,-1.826889343261718750e+02,-2.343178272247314453e+00,7.562364959716796875e+01,3.135619926452636719e+01
1.022722959518432617e+00,1.000000000000000000e+00,-4.871001243591308594e+00,1.327833175659179688e+00,5.496620178222656250e+00,-1.963227539062500000e+02,-8.534046173095703125e+01,-1.663235168457031250e+02,4.033146500587463379e-01,-6.667523193359375000e+01,-1.826889343261718750e+02,-2.343106746673583984e+00,7.562364959716796875e+01,3.135619926452636719e+01
1.027814984321594238e+00,1.000000000000000000e+00,-4.871001243591308594e+00,1.327833175659179688e+00,5.496620178222656250e+00,-1.963227539062500000e+02,-8.534046173095703125e+01,-1.663235168457031250e+02,4.033146500587463379e-01,-6.667523193359375000e+01,-1.826889343261718750e+02,-2.343106746673583984e+00,7.562364959716796875e+01,3.135619926452636719e+01
1.031769037246704102e+00,1.000000000000000000e+00,-4.997396945953369141e+00,1.436524629592895508e+00,5.511625289916992188e+00,-1.962118225097656250e+02,-8.518994903564453125e+01,-1.661929779052734375e+02,4.033146500587463379e-01,-6.667523193359375000e+01,-1.826889343261718750e+02,-2.343034982681274414e+00,7.562364959716796875e+01,3.135619926452636719e+01
1.035809993743896484e+00,1.000000000000000000e+00,-5.060552120208740234e+00,1.490904331207275391e+00,5.519005775451660156e+00,-1.961563568115234375e+02,-8.511551666259765625e+01,-1.661273803710937500e+02,4.033146500587463379e-01,-6.667523193359375000e+01,-1.826889343261718750e+02,-2.343106746673583984e+00,7.562372589111328125e+01,3.135619926452636719e+01
1.038779973983764648e+00,1.000000000000000000e+00,-5.123592376708984375e+00,1.545329332351684570e+00,5.526183128356933594e+00,-1.961006774902343750e+02,-8.504029083251953125e+01,-1.660632324218750000e+02,4.033146500587463379e-01,-6.667523193359375000e+01,-1.826889343261718750e+02,-2.343106746673583984e+00,7.562364959716796875e+01,3.135619926452636719e+01
1.043763995170593262e+00,1.000000000000000000e+00,-5.123592376708984375e+00,1.545329332351684570e+00,5.526183128356933594e+00,-1.961006774902343750e+02,-8.504029083251953125e+01,-1.660632324218750000e+02,4.033146500587463379e-01,-6.667523193359375000e+01,-1.826889343261718750e+02,-2.343106746673583984e+00,7.562364959716796875e+01,3.135619926452636719e+01
1.047788023948669434e+00,1.000000000000000000e+00,-5.250074386596679688e+00,1.654088735580444336e+00,5.540557861328125000e+00,-1.959901580810546875e+02,-8.488962554931640625e+01,-1.659322814941406250e+02,4.033146500587463379e-01,-6.667523193359375000e+01,-1.826889343261718750e+02,-2.343106746673583984e+00,7.562364959716796875e+01,3.135619926452636719e+01
1.051748037338256836e+00,1.000000000000000000e+00,-5.313258647918701172e+00,1.708377957344055176e+00,5.548080444335937500e+00,-1.959342803955078125e+02,-8.481508636474609375e+01,-1.658676452636718750e+02,4.033146500587463379e-01,-6.667523193359375000e+01,-1.826890411376953125e+02,-2.343106746673583984e+00,7.562364959716796875e+01,3.135619926452636719e+01
1.055727005004882812e+00,1.000000000000000000e+00,-5.376671791076660156e+00,1.762553930282592773e+00,5.555745601654052734e+00,-1.958786468505859375e+02,-8.473985290527343750e+01,-1.658018035888671875e+02,4.033146500587463379e-01,-6.667523193359375000e+01,-1.826889343261718750e+02,-2.343034982681274414e+00,7.562364959716796875e+01,3.135619926452636719e+01
1.059774994850158691e+00,1.000000000000000000e+00,-5.439941406250000000e+00,1.817001581192016602e+00,5.563451290130615234e+00,-1.958230895996093750e+02,-8.466467285156250000e+01,-1.657370910644531250e+02,4.033146500587463379e-01,-6.667523193359375000e+01,-1.826889343261718750e+02,-2.343034982681274414e+00,7.562364959716796875e+01,3.135598182678222656e+01
1.064728021621704102e+00,1.000000000000000000e+00,-5.503240108489990234e+00,1.871471643447875977e+00,5.571095943450927734e+00,-1.957678833007812500e+02,-8.458966064453125000e+01,-1.656727447509765625e+02,4.033146500587463379e-01,-6.667523193359375000e+01,-1.826889343261718750e+02,-2.343106746673583984e+00,7.562364959716796875e+01,3.135619926452636719e+01
1.067716956138610840e+00,1.000000000000000000e+00,-5.566538333892822266e+00,1.925964593887329102e+00,5.578476428985595703e+00,-1.957121429443359375e+02,-8.451517486572265625e+01,-1.656072235107421875e+02,4.033146500587463379e-01,-6.667523193359375000e+01,-1.826889343261718750e+02,-2.343106746673583984e+00,7.562364959716796875e+01,3.135619926452636719e+01
1.072746038436889648e+00,1.000000000000000000e+00,-5.566538333892822266e+00,1.925964593887329102e+00,5.578476428985595703e+00,-1.957121429443359375e+02,-8.451517486572265625e+01,-1.656072235107421875e+02,4.033146500587463379e-01,-6.667531585693359375e+01,-1.826889343261718750e+02,-2.343106746673583984e+00,7.562364959716796875e+01,3.135619926452636719e+01
1.076243996620178223e+00,1.000000000000000000e+00,-5.692992210388183594e+00,2.034791946411132812e+00,5.592749118804931641e+00,-1.956014251708984375e+02,-8.436483001708984375e+01,-1.654774932861328125e+02,4.033146500587463379e-01,-6.667523193359375000e+01,-1.826889343261718750e+02,-2.343034982681274414e+00,7.562364959716796875e+01,3.135619926452636719e+01
1.079468011856079102e+00,1.000000000000000000e+00,-5.756290435791015625e+00,2.089284658432006836e+00,5.600129604339599609e+00,-1.955454406738281250e+02,-8.428981781005859375e+01,-1.654114532470703125e+02,4.033146500587463379e-01,-6.667523193359375000e+01,-1.826889343261718750e+02,-2.343106746673583984e+00,7.562364959716796875e+01,3.135619926452636719e+01
1.083762049674987793e+00,1.000000000000000000e+00,-5.756290435791015625e+00,2.089284658432006836e+00,5.600129604339599609e+00,-1.955454406738281250e+02,-8.428981781005859375e+01,-1.654114532470703125e+02,4.033146500587463379e-01,-6.667523193359375000e+01,-1.826889343261718750e+02,-2.343106746673583984e+00,7.562364959716796875e+01,3.135619926452636719e+01
1.088724970817565918e+00,1.000000000000000000e+00,-5.819703578948974609e+00,2.143505811691284180e+00,5.607754230499267578e+00,-1.954903411865234375e+02,-8.421527862548828125e+01,-1.653464050292968750e+02,4.033146500587463379e-01,-6.667523193359375000e+01,-1.826889343261718750e+02,-2.343106746673583984e+00,7.562364959716796875e+01,3.135619926452636719e+01
1.091451048851013184e+00,1.000000000000000000e+00,-5.946330070495605469e+00,2.252491712570190430e+00,5.622718334197998047e+00,-1.953788299560546875e+02,-8.406524658203125000e+01,-1.652164764404296875e+02,4.033146500587463379e-01,-6.667523193359375000e+01,-1.826890411376953125e+02,-2.343106746673583984e+00,7.562364959716796875e+01,3.135619926452636719e+01
1.095723032951354980e+00,1.000000000000000000e+00,-5.946330070495605469e+00,2.252491712570190430e+00,5.622718334197998047e+00,-1.953788299560546875e+02,-8.406524658203125000e+01,-1.652164764404296875e+02,4.033146500587463379e-01,-6.667523193359375000e+01,-1.826890411376953125e+02,-2.343106746673583984e+00,7.562364959716796875e+01,3.135619926452636719e+01
1.100805997848510742e+00,1.000000000000000000e+00,-6.009771823883056641e+00,2.306735754013061523e+00,5.630057811737060547e+00,-1.953239440917968750e+02,-8.399011993408203125e+01,-1.651516418457031250e+02,4.033146500587463379e-01,-6.667531585693359375e+01,-1.826889343261718750e+02,-2.343034982681274414e+00,7.562364959716796875e+01,3.135619926452636719e+01
1.104133963584899902e+00,1.000000000000000000e+00,-6.136512279510498047e+00,2.415223360061645508e+00,5.644595623016357422e+00,-1.952128601074218750e+02,-8.383987426757812500e+01,-1.650209503173828125e+02,4.033146500587463379e-01,-6.667523193359375000e+01,-1.826890411376953125e+02,-2.343178272247314453e+00,7.562364959716796875e+01,3.135619926452636719e+01
1.107781052589416504e+00,1.000000000000000000e+00,-6.199954509735107422e+00,2.469557762145996094e+00,5.651854038238525391e+00,-1.951577606201171875e+02,-8.376544952392578125e+01,-1.649565277099609375e+02,4.033146500587463379e-01,-6.667523193359375000e+01,-1.826889343261718750e+02,-2.343034982681274414e+00,7.562364959716796875e+01,3.135619926452636719e+01
