rpiRobotics/ARM-21-02-F-19-Robot-Motion-Program/data_performance_abb/curve_2/curve_pose_opt2/greedy0.02/grad_result/real/run_3.csv
timestamp,cmd_num,J1,J2,J3,J4,J5,J6
1.259000040590763092e-03,-1.000000000000000000e+00,9.288291931152343750e+00,-1.082882404327392578e+01,3.840473651885986328e+00,-2.087335815429687500e+02,-1.021039123535156250e+02,-1.808817596435546875e+02,4.033146500587463379e-01,-6.667523193359375000e+01,-1.826890411376953125e+02,-2.343106746673583984e+00,7.562364959716796875e+01,3.135619926452636719e+01
6.060999818146228790e-03,1.000000000000000000e+00,9.288291931152343750e+00,-1.082886981964111328e+01,3.840473651885986328e+00,-2.087335815429687500e+02,-1.021039123535156250e+02,-1.808817596435546875e+02,4.033146500587463379e-01,-6.667523193359375000e+01,-1.826890411376953125e+02,-2.343106746673583984e+00,7.562350463867187500e+01,3.135619926452636719e+01
9.793000295758247375e-03,1.000000000000000000e+00,9.288291931152343750e+00,-1.082886981964111328e+01,3.840473651885986328e+00,-2.087335815429687500e+02,-1.021039123535156250e+02,-1.808817596435546875e+02,4.033146500587463379e-01,-6.667523193359375000e+01,-1.826890411376953125e+02,-2.343106746673583984e+00,7.562350463867187500e+01,3.135619926452636719e+01
1.408999972045421600e-02,1.000000000000000000e+00,9.288434982299804688e+00,-1.082882404327392578e+01,3.840473651885986328e+00,-2.087335815429687500e+02,-1.021040725708007812e+02,-1.808818969726562500e+02,4.033146500587463379e-01,-6.667523193359375000e+01,-1.826890411376953125e+02,-2.343106746673583984e+00,7.562364959716796875e+01,3.135642242431640625e+01
3.800699859857559204e-02,1.000000000000000000e+00,9.288434982299804688e+00,-1.082886981964111328e+01,3.840473651885986328e+00,-2.087335815429687500e+02,-1.021040725708007812e+02,-1.808817596435546875e+02,4.033146500587463379e-01,-6.667523193359375000e+01,-1.826890411376953125e+02,-2.343106746673583984e+00,7.562364959716796875e+01,3.135675048828125000e+01
3.936100006103515625e-02,1.000000000000000000e+00,9.288434982299804688e+00,-1.082886981964111328e+01,3.840473651885986328e+00,-2.087335815429687500e+02,-1.021040725708007812e+02,-1.808817596435546875e+02,4.033146500587463379e-01,-6.667523193359375000e+01,-1.826890411376953125e+02,-2.343106746673583984e+00,7.562364959716796875e+01,3.135675048828125000e+01
4.201000183820724487e-02,1.000000000000000000e+00,9.288377761840820312e+00,-1.082886981964111328e+01,3.840473651885986328e+00,-2.087334899902343750e+02,-1.021040725708007812e+02,-1.808820343017578125e+02,4.033146500587463379e-01,-6.667523193359375000e+01,-1.826890411376953125e+02,-2.343106746673583984e+00,7.562364959716796875e+01,3.135675048828125000e+01
4.606200009584426880e-02,1.000000000000000000e+00,9.288377761840820312e+00,-1.082886981964111328e+01,3.840473651885986328e+00,-2.087335815429687500e+02,-1.021039123535156250e+02,-1.808818969726562500e+02,4.033146500587463379e-01,-6.667523193359375000e+01,-1.826892089843750000e+02,-2.343178272247314453e+00,7.562364959716796875e+01,3.135675048828125000e+01
4.735799878835678101e-02,1.000000000000000000e+00,9.288377761840820312e+00,-1.082886981964111328e+01,3.840473651885986328e+00,-2.087335815429687500e+02,-1.021039123535156250e+02,-1.808818969726562500e+02,4.033146500587463379e-01,-6.667523193359375000e+01,-1.826892089843750000e+02,-2.343178272247314453e+00,7.562364959716796875e+01,3.135675048828125000e+01
4.983599856495857239e-02,1.000000000000000000e+00,9.288377761840820312e+00,-1.082886981964111328e+01,3.840473651885986328e+00,-2.087335815429687500e+02,-1.021039123535156250e+02,-1.808818969726562500e+02,4.033146500587463379e-01,-6.667523193359375000e+01,-1.826890411376953125e+02,-2.343178272247314453e+00,7.562364959716796875e+01,3.135653114318847656e+01
5.115099996328353882e-02,1.000000000000000000e+00,9.288291931152343750e+00,-1.082886981964111328e+01,3.840473651885986328e+00,-2.087334899902343750e+02,-1.021040725708007812e+02,-1.808817596435546875e+02,4.033146500587463379e-01,-6.667523193359375000e+01,-1.826890411376953125e+02,-2.343178272247314453e+00,7.562364959716796875e+01,3.135653114318847656e+01
5.847200006246566772e-02,1.000000000000000000e+00,9.287803649902343750e+00,-1.082853031158447266e+01,3.840473651885986328e+00,-2.087335815429687500e+02,-1.021039123535156250e+02,-1.808818969726562500e+02,4.033146500587463379e-01,-6.667523193359375000e+01,-1.826890411376953125e+02,-2.343034982681274414e+00,7.562372589111328125e+01,3.135653114318847656e+01
6.194800138473510742e-02,1.000000000000000000e+00,9.287803649902343750e+00,-1.082853031158447266e+01,3.840473651885986328e+00,-2.087335815429687500e+02,-1.021039123535156250e+02,-1.808818969726562500e+02,4.033146500587463379e-01,-6.667531585693359375e+01,-1.826890411376953125e+02,-2.343106746673583984e+00,7.562364959716796875e+01,3.135653114318847656e+01
6.325799971818923950e-02,1.000000000000000000e+00,9.286856651306152344e+00,-1.082785129547119141e+01,3.840473651885986328e+00,-2.087334899902343750e+02,-1.021040725708007812e+02,-1.808818969726562500e+02,4.033146500587463379e-01,-6.667531585693359375e+01,-1.826890411376953125e+02,-2.343106746673583984e+00,7.562364959716796875e+01,3.135653114318847656e+01
6.574700027704238892e-02,1.000000000000000000e+00,9.286856651306152344e+00,-1.082785129547119141e+01,3.840473651885986328e+00,-2.087334899902343750e+02,-1.021040725708007812e+02,-1.808818969726562500e+02,4.033146500587463379e-01,-6.667531585693359375e+01,-1.826890411376953125e+02,-2.343106746673583984e+00,7.562364959716796875e+01,3.135653114318847656e+01
7.018300145864486694e-02,1.000000000000000000e+00,9.282464027404785156e+00,-1.082447910308837891e+01,3.840473651885986328e+00,-2.087333221435546875e+02,-1.021036453247070312e+02,-1.808817596435546875e+02,4.033146500587463379e-01,-6.667523193359375000e+01,-1.826890411376953125e+02,-2.343178272247314453e+00,7.562364959716796875e+01,3.135653114318847656e+01
7.150200009346008301e-02,1.000000000000000000e+00,9.282464027404785156e+00,-1.082447910308837891e+01,3.840473651885986328e+00,-2.087333221435546875e+02,-1.021036453247070312e+02,-1.808817596435546875e+02,4.033146500587463379e-01,-6.667523193359375000e+01,-1.826890411376953125e+02,-2.343178272247314453e+00,7.562364959716796875e+01,3.135653114318847656e+01
7.493700087070465088e-02,1.000000000000000000e+00,9.282464027404785156e+00,-1.082447910308837891e+01,3.840473651885986328e+00,-2.087333221435546875e+02,-1.021036453247070312e+02,-1.808817596435546875e+02,4.033146500587463379e-01,-6.667523193359375000e+01,-1.826890411376953125e+02,-2.343178272247314453e+00,7.562364959716796875e+01,3.135653114318847656e+01
7.629100233316421509e-02,1.000000000000000000e+00,9.278961181640625000e+00,-1.082146930694580078e+01,3.840575218200683594e+00,-2.087333221435546875e+02,-1.021031112670898438e+02,-1.808816223144531250e+02,4.033146500587463379e-01,-6.667523193359375000e+01,-1.826890411376953125e+02,-2.343178272247314453e+00,7.562364959716796875e+01,3.135642242431640625e+01
8.190000057220458984e-02,1.000000000000000000e+00,9.274396896362304688e+00,-1.081725978851318359e+01,3.840819120407104492e+00,-2.087332153320312500e+02,-1.021018905639648438e+02,-1.808812866210937500e+02,4.033146500587463379e-01,-6.667523193359375000e+01,-1.826890411376953125e+02,-2.343106746673583984e+00,7.562364959716796875e+01,3.135653114318847656e+01
8.330799639225006104e-02,1.000000000000000000e+00,9.268655776977539062e+00,-1.081192016601562500e+01,3.841103792190551758e+00,-2.087321624755859375e+02,-1.020998611450195312e+02,-1.808805389404296875e+02,4.033146500587463379e-01,-6.667523193359375000e+01,-1.826889343261718750e+02,-2.343106746673583984e+00,7.562364959716796875e+01,3.135653114318847656e+01
8.673699945211410522e-02,1.000000000000000000e+00,9.261565208435058594e+00,-1.080447387695312500e+01,3.841591596603393555e+00,-2.087297515869140625e+02,-1.020966644287109375e+02,-1.808785095214843750e+02,4.033146500587463379e-01,-6.667523193359375000e+01,-1.826889343261718750e+02,-2.343106746673583984e+00,7.562364959716796875e+01,3.135642242431640625e+01
8.801099658012390137e-02,1.000000000000000000e+00,9.261565208435058594e+00,-1.080447387695312500e+01,3.841591596603393555e+00,-2.087297515869140625e+02,-1.020966644287109375e+02,-1.808785095214843750e+02,4.033146500587463379e-01,-6.667523193359375000e+01,-1.826889343261718750e+02,-2.343106746673583984e+00,7.562364959716796875e+01,3.135642242431640625e+01
9.067899733781814575e-02,1.000000000000000000e+00,9.252609252929687500e+00,-1.079494667053222656e+01,3.842222213745117188e+00,-2.087260131835937500e+02,-1.020922927856445312e+02,-1.808744354248046875e+02,4.033146500587463379e-01,-6.667523193359375000e+01,-1.826890411376953125e+02,-2.343106746673583984e+00,7.562364959716796875e+01,3.135642242431640625e+01
9.503199905157089233e-02,1.000000000000000000e+00,9.241470336914062500e+00,-1.078302097320556641e+01,3.843116521835327148e+00,-2.087211151123046875e+02,-1.020858383178710938e+02,-1.808688812255859375e+02,4.033146500587463379e-01,-6.667523193359375000e+01,-1.826890411376953125e+02,-2.343106746673583984e+00,7.562364959716796875e+01,3.135653114318847656e+01
9.642600268125534058e-02,1.000000000000000000e+00,9.241470336914062500e+00,-1.078302097320556641e+01,3.843116521835327148e+00,-2.087211151123046875e+02,-1.020858383178710938e+02,-1.808688812255859375e+02,4.033146500587463379e-01,-6.667523193359375000e+01,-1.826890411376953125e+02,-2.343106746673583984e+00,7.562364959716796875e+01,3.135653114318847656e+01
9.966400265693664551e-02,1.000000000000000000e+00,9.227719306945800781e+00,-1.076871871948242188e+01,3.844234943389892578e+00,-2.087146301269531250e+02,-1.020769882202148438e+02,-1.808610687255859375e+02,4.033146500587463379e-01,-6.667523193359375000e+01,-1.826889343261718750e+02,-2.343106746673583984e+00,7.562364959716796875e+01,3.135653114318847656e+01
1.047710031270980835e-01,1.000000000000000000e+00,9.227719306945800781e+00,-1.076871871948242188e+01,3.844234943389892578e+00,-2.087146301269531250e+02,-1.020769882202148438e+02,-1.808610687255859375e+02,4.033146500587463379e-01,-6.667523193359375000e+01,-1.826890411376953125e+02,-2.343106746673583984e+00,7.562364959716796875e+01,3.135642242431640625e+01
1.075489968061447144e-01,1.000000000000000000e+00,9.191720962524414062e+00,-1.073255634307861328e+01,3.847671031951904297e+00,-2.086939849853515625e+02,-1.020508117675781250e+02,-1.808379516601562500e+02,4.033146500587463379e-01,-6.667523193359375000e+01,-1.826892089843750000e+02,-2.343034982681274414e+00,7.562364959716796875e+01,3.135653114318847656e+01
1.117580011487007141e-01,1.000000000000000000e+00,9.169732093811035156e+00,-1.071128463745117188e+01,3.849907398223876953e+00,-2.086795501708984375e+02,-1.020322036743164062e+02,-1.808220825195312500e+02,4.033146500587463379e-01,-6.667523193359375000e+01,-1.826890411376953125e+02,-2.343106746673583984e+00,7.562364959716796875e+01,3.135653114318847656e+01
1.167939975857734680e-01,1.000000000000000000e+00,9.169732093811035156e+00,-1.071128463745117188e+01,3.849907398223876953e+00,-2.086795501708984375e+02,-1.020322036743164062e+02,-1.808220825195312500e+02,4.033146500587463379e-01,-6.667523193359375000e+01,-1.826890411376953125e+02,-2.343106746673583984e+00,7.562364959716796875e+01,3.135653114318847656e+01
1.195890009403228760e-01,1.000000000000000000e+00,9.119150161743164062e+00,-1.066536808013916016e+01,3.855376720428466797e+00,-2.086418304443359375e+02,-1.019828872680664062e+02,-1.807787475585937500e+02,4.033146500587463379e-01,-6.667523193359375000e+01,-1.826890411376953125e+02,-2.343106746673583984e+00,7.562372589111328125e+01,3.135653114318847656e+01
1.238429993391036987e-01,1.000000000000000000e+00,9.119150161743164062e+00,-1.066536808013916016e+01,3.855376720428466797e+00,-2.086418304443359375e+02,-1.019828872680664062e+02,-1.807787475585937500e+02,4.033146500587463379e-01,-6.667523193359375000e+01,-1.826890411376953125e+02,-2.343106746673583984e+00,7.562372589111328125e+01,3.135653114318847656e+01
1.303869932889938354e-01,1.000000000000000000e+00,9.089984893798828125e+00,-1.064024925231933594e+01,3.858446836471557617e+00,-2.086187591552734375e+02,-1.019496154785156250e+02,-1.807514038085937500e+02,4.033146500587463379e-01,-6.667523193359375000e+01,-1.826890411376953125e+02,-2.343106746673583984e+00,7.562364959716796875e+01,3.135642242431640625e+01
1.326750069856643677e-01,1.000000000000000000e+00,9.023700714111328125e+00,-1.058419418334960938e+01,3.865725755691528320e+00,-2.085608825683593750e+02,-1.018721466064453125e+02,-1.806829833984375000e+02,4.033146500587463379e-01,-6.667531585693359375e+01,-1.826890411376953125e+02,-2.343106746673583984e+00,7.562364959716796875e+01,3.135653114318847656e+01
1.357589960098266602e-01,1.000000000000000000e+00,8.986438751220703125e+00,-1.055346298217773438e+01,3.870015621185302734e+00,-2.085254364013671875e+02,-1.018275756835937500e+02,-1.806412048339843750e+02,4.033146500587463379e-01,-6.667523193359375000e+01,-1.826892089843750000e+02,-2.343106746673583984e+00,7.562364959716796875e+01,3.135642242431640625e+01
1.398849934339523315e-01,1.000000000000000000e+00,8.986438751220703125e+00,-1.055346298217773438e+01,3.870015621185302734e+00,-2.085254364013671875e+02,-1.018275756835937500e+02,-1.806412048339843750e+02,4.033146500587463379e-01,-6.667523193359375000e+01,-1.826892089843750000e+02,-2.343106746673583984e+00,7.562364959716796875e+01,3.135642242431640625e+01
1.440780013799667358e-01,1.000000000000000000e+00,8.946508407592773438e+00,-1.052130603790283203e+01,3.874732732772827148e+00,-2.084867095947265625e+02,-1.017758102416992188e+02,-1.805968627929687500e+02,4.033146500587463379e-01,-6.667523193359375000e+01,-1.826890411376953125e+02,-2.343106746673583984e+00,7.562364959716796875e+01,3.135642242431640625e+01
1.478219926357269287e-01,1.000000000000000000e+00,8.904366493225097656e+00,-1.048761081695556641e+01,3.879714012145996094e+00,-2.084461517333984375e+02,-1.017200927734375000e+02,-1.805497283935546875e+02,4.033146500587463379e-01,-6.667523193359375000e+01,-1.826890411376953125e+02,-2.343106746673583984e+00,7.562364959716796875e+01,3.135619926452636719e+01
1.519050002098083496e-01,1.000000000000000000e+00,8.859899520874023438e+00,-1.045199108123779297e+01,3.884979963302612305e+00,-2.084033203125000000e+02,-1.016625671386718750e+02,-1.804990692138671875e+02,4.033146500587463379e-01,-6.667523193359375000e+01,-1.826890411376953125e+02,-2.343106746673583984e+00,7.562364959716796875e+01,3.135619926452636719e+01
1.571709960699081421e-01,1.000000000000000000e+00,8.813567161560058594e+00,-1.041465091705322266e+01,3.890509843826293945e+00,-2.083561401367187500e+02,-1.016001815795898438e+02,-1.804434509277343750e+02,4.033146500587463379e-01,-6.667523193359375000e+01,-1.826892089843750000e+02,-2.343106746673583984e+00,7.562372589111328125e+01,3.135619926452636719e+01
1.598750054836273193e-01,1.000000000000000000e+00,8.714183807373046875e+00,-1.033354568481445312e+01,3.902892112731933594e+00,-2.082563018798828125e+02,-1.014671630859375000e+02,-1.803270721435546875e+02,4.033146500587463379e-01,-6.667523193359375000e+01,-1.826890411376953125e+02,-2.343106746673583984e+00,7.562364959716796875e+01,3.135619926452636719e+01
1.639049947261810303e-01,1.000000000000000000e+00,8.714183807373046875e+00,-1.033354568481445312e+01,3.902892112731933594e+00,-2.082563018798828125e+02,-1.014671630859375000e+02,-1.803270721435546875e+02,4.033146500587463379e-01,-6.667523193359375000e+01,-1.826890411376953125e+02,-2.343106746673583984e+00,7.562364959716796875e+01,3.135619926452636719e+01
1.678089946508407593e-01,1.000000000000000000e+00,8.660789489746093750e+00,-1.028923606872558594e+01,3.909438848495483398e+00,-2.082042236328125000e+02,-1.013971023559570312e+02,-1.802663116455078125e+02,4.033146500587463379e-01,-6.667523193359375000e+01,-1.826890411376953125e+02,-2.343106746673583984e+00,7.562364959716796875e+01,3.135619926452636719e+01
1.718160063028335571e-01,1.000000000000000000e+00,8.605413436889648438e+00,-1.024266338348388672e+01,3.916067123413085938e+00,-2.081510620117187500e+02,-1.013255538940429688e+02,-1.802029113769531250e+02,4.033146500587463379e-01,-6.667523193359375000e+01,-1.826890411376953125e+02,-2.343106746673583984e+00,7.562364959716796875e+01,3.135619926452636719e+01
1.758980005979537964e-01,1.000000000000000000e+00,8.548574447631835938e+00,-1.019405460357666016e+01,3.922797203063964844e+00,-2.080970764160156250e+02,-1.012528305053710938e+02,-1.801399688720703125e+02,4.033146500587463379e-01,-6.667523193359375000e+01,-1.826890411376953125e+02,-2.343034982681274414e+00,7.562372589111328125e+01,3.135642242431640625e+01
1.798249930143356323e-01,1.000000000000000000e+00,8.490213394165039062e+00,-1.014404296875000000e+01,3.929730176925659180e+00,-2.080415191650390625e+02,-1.011797332763671875e+02,-1.800756225585937500e+02,4.033146500587463379e-01,-6.667523193359375000e+01,-1.826890411376953125e+02,-2.343106746673583984e+00,7.562364959716796875e+01,3.135642242431640625e+01
1.837850064039230347e-01,1.000000000000000000e+00,8.370045661926269531e+00,-1.004014873504638672e+01,3.944287776947021484e+00,-2.079304199218750000e+02,-1.010294876098632812e+02,-1.799450683593750000e+02,4.033146500587463379e-01,-6.667523193359375000e+01,-1.826890411376953125e+02,-2.343106746673583984e+00,7.562364959716796875e+01,3.135653114318847656e+01
1.878660023212432861e-01,1.000000000000000000e+00,8.370045661926269531e+00,-1.004014873504638672e+01,3.944287776947021484e+00,-2.079304199218750000e+02,-1.010294876098632812e+02,-1.799450683593750000e+02,4.033146500587463379e-01,-6.667523193359375000e+01,-1.826890411376953125e+02,-2.343106746673583984e+00,7.562364959716796875e+01,3.135653114318847656e+01
1.918900012969970703e-01,1.000000000000000000e+00,8.308355331420898438e+00,-9.987081527709960938e+00,3.951403617858886719e+00,-2.078745880126953125e+02,-1.009540405273437500e+02,-1.798785400390625000e+02,4.033146500587463379e-01,-6.667523193359375000e+01,-1.826890411376953125e+02,-2.343106746673583984e+00,7.562350463867187500e+01,3.135653114318847656e+01
1.958030015230178833e-01,1.000000000000000000e+00,8.245889663696289062e+00,-9.933199882507324219e+00,3.958703041076660156e+00,-2.078189086914062500e+02,-1.008789749145507812e+02,-1.798121490478515625e+02,4.033146500587463379e-01,-6.667523193359375000e+01,-1.826890411376953125e+02,-2.343034982681274414e+00,7.562372589111328125e+01,3.135642242431640625e+01
1.994770020246505737e-01,1.000000000000000000e+00,8.182791709899902344e+00,-9.878729820251464844e+00,3.966063022613525391e+00,-2.077625885009765625e+02,-1.008032684326171875e+02,-1.797473907470703125e+02,4.033146500587463379e-01,-6.667523193359375000e+01,-1.826890411376953125e+02,-2.343106746673583984e+00,7.562364959716796875e+01,3.135653114318847656e+01
2.038059979677200317e-01,1.000000000000000000e+00,8.119177818298339844e+00,-9.823987960815429688e+00,3.973647117614746094e+00,-2.077065582275390625e+02,-1.007268066406250000e+02,-1.796807250976562500e+02,4.033146500587463379e-01,-6.667523193359375000e+01,-1.826890411376953125e+02,-2.343034982681274414e+00,7.562364959716796875e+01,3.135642242431640625e+01
2.089069932699203491e-01,1.000000000000000000e+00,8.055132865905761719e+00,-9.768657684326171875e+00,3.981149196624755859e+00,-2.076501464843750000e+02,-1.006509933471679688e+02,-1.796141967773437500e+02,4.033146500587463379e-01,-6.667523193359375000e+01,-1.826889343261718750e+02,-2.343106746673583984e+00,7.562364959716796875e+01,3.135642242431640625e+01
2.114669978618621826e-01,1.000000000000000000e+00,7.926755428314208984e+00,-9.658268928527832031e+00,3.996703147888183594e+00,-2.075384674072265625e+02,-1.004991531372070312e+02,-1.794819488525390625e+02,4.033146500587463379e-01,-6.667523193359375000e+01,-1.826892089843750000e+02,-2.343106746673583984e+00,7.562364959716796875e+01,3.135619926452636719e+01
2.158659994602203369e-01,1.000000000000000000e+00,7.926755428314208984e+00,-9.658268928527832031e+00,3.996703147888183594e+00,-2.075384674072265625e+02,-1.004991531372070312e+02,-1.794819488525390625e+02,4.033146500587463379e-01,-6.667523193359375000e+01,-1.826892089843750000e+02,-2.343106746673583984e+00,7.562364959716796875e+01,3.135619926452636719e+01
2.198050022125244141e-01,1.000000000000000000e+00,7.862538337707519531e+00,-9.603007316589355469e+00,4.004489898681640625e+00,-2.074820709228515625e+02,-1.004226913452148438e+02,-1.794163665771484375e+02,4.033146500587463379e-01,-6.667523193359375000e+01,-1.826889343261718750e+02,-2.343106746673583984e+00,7.562372589111328125e+01,3.135642242431640625e+01
2.238509953022003174e-01,1.000000000000000000e+00,7.798178195953369141e+00,-9.547924995422363281e+00,4.012317657470703125e+00,-2.074261169433593750e+02,-1.003471450805664062e+02,-1.793503875732421875e+02,4.033146500587463379e-01,-6.667523193359375000e+01,-1.826890411376953125e+02,-2.343034982681274414e+00,7.562364959716796875e+01,3.135642242431640625e+01
2.279269993305206299e-01,1.000000000000000000e+00,7.734161376953125000e+00,-9.492775917053222656e+00,4.019921779632568359e+00,-2.073702850341796875e+02,-1.002712249755859375e+02,-1.792840576171875000e+02,4.033146500587463379e-01,-6.667523193359375000e+01,-1.826890411376953125e+02,-2.343034982681274414e+00,7.562364959716796875e+01,3.135642242431640625e+01
2.328529953956604004e-01,1.000000000000000000e+00,7.670088291168212891e+00,-9.437762260437011719e+00,4.027363300323486328e+00,-2.073132934570312500e+02,-1.001948699951171875e+02,-1.792187500000000000e+02,4.033146500587463379e-01,-6.667523193359375000e+01,-1.826890411376953125e+02,-2.343178272247314453e+00,7.562364959716796875e+01,3.135619926452636719e+01
2.356549948453903198e-01,1.000000000000000000e+00,7.542113304138183594e+00,-9.327939987182617188e+00,4.041839599609375000e+00,-2.072017822265625000e+02,-1.000432968139648438e+02,-1.790861663818359375e+02,4.033146500587463379e-01,-6.667523193359375000e+01,-1.826890411376953125e+02,-2.343106746673583984e+00,7.562364959716796875e+01,3.135642242431640625e+01
2.398689985275268555e-01,1.000000000000000000e+00,7.542113304138183594e+00,-9.327939987182617188e+00,4.041839599609375000e+00,-2.072017822265625000e+02,-1.000432968139648438e+02,-1.790861663818359375e+02,4.033146500587463379e-01,-6.667523193359375000e+01,-1.826890411376953125e+02,-2.343106746673583984e+00,7.562364959716796875e+01,3.135642242431640625e+01
2.438029944896697998e-01,1.000000000000000000e+00,7.478412628173828125e+00,-9.273062705993652344e+00,4.049342155456542969e+00,-2.071453094482421875e+02,-9.996743011474609375e+01,-1.790211334228515625e+02,4.033146500587463379e-01,-6.667523193359375000e+01,-1.826890411376953125e+02,-2.343178272247314453e+00,7.562364959716796875e+01,3.135642242431640625e+01
2.479639947414398193e-01,1.000000000000000000e+00,7.414769649505615234e+00,-9.217958450317382812e+00,4.057007312774658203e+00,-2.070893096923828125e+02,-9.989134979248046875e+01,-1.789552917480468750e+02,4.033146500587463379e-01,-6.667523193359375000e+01,-1.826890411376953125e+02,-2.343178272247314453e+00,7.562364959716796875e+01,3.135642242431640625e+01
2.518669962882995605e-01,1.000000000000000000e+00,7.351212978363037109e+00,-9.163193702697753906e+00,4.064570426940917969e+00,-2.070324401855468750e+02,-9.981446838378906250e+01,-1.788893585205078125e+02,4.033146500587463379e-01,-6.667523193359375000e+01,-1.826890411376953125e+02,-2.343106746673583984e+00,7.562372589111328125e+01,3.135642242431640625e+01
2.558020055294036865e-01,1.000000000000000000e+00,7.287857055664062500e+00,-9.108362197875976562e+00,4.072052478790283203e+00,-2.069766387939453125e+02,-9.973907470703125000e+01,-1.788238525390625000e+02,4.033146500587463379e-01,-6.667523193359375000e+01,-1.826890411376953125e+02,-2.343106746673583984e+00,7.562364959716796875e+01,3.135642242431640625e+01
2.598539888858795166e-01,1.000000000000000000e+00,7.224328517913818359e+00,-9.053529739379882812e+00,4.079311370849609375e+00,-2.069206695556640625e+02,-9.966294097900390625e+01,-1.787569122314453125e+02,4.033146500587463379e-01,-6.667523193359375000e+01,-1.826890411376953125e+02,-2.343034982681274414e+00,7.562364959716796875e+01,3.135653114318847656e+01
2.638930082321166992e-01,1.000000000000000000e+00,7.160829544067382812e+00,-8.998900413513183594e+00,4.086468219757080078e+00,-2.068641357421875000e+02,-9.958675384521484375e+01,-1.786909942626953125e+02,4.033146500587463379e-01,-6.667523193359375000e+01,-1.826890411376953125e+02,-2.343178272247314453e+00,7.562364959716796875e+01,3.135642242431640625e+01
2.678860127925872803e-01,1.000000000000000000e+00,7.097272396087646484e+00,-8.944272041320800781e+00,4.093523025512695312e+00,-2.068081970214843750e+02,-9.951008605957031250e+01,-1.786260986328125000e+02,4.033146500587463379e-01,-6.667523193359375000e+01,-1.826890411376953125e+02,-2.343178272247314453e+00,7.562364959716796875e+01,3.135642242431640625e+01
2.720380127429962158e-01,1.000000000000000000e+00,7.033629417419433594e+00,-8.889733314514160156e+00,4.101045608520507812e+00,-2.067517242431640625e+02,-9.943480682373046875e+01,-1.785596466064453125e+02,4.033146500587463379e-01,-6.667523193359375000e+01,-1.826890411376953125e+02,-2.343106746673583984e+00,7.562364959716796875e+01,3.135642242431640625e+01
2.756949961185455322e-01,1.000000000000000000e+00,6.970072269439697266e+00,-8.835173606872558594e+00,4.108772277832031250e+00,-2.066959991455078125e+02,-9.935909271240234375e+01,-1.784941253662109375e+02,4.033146500587463379e-01,-6.667531585693359375e+01,-1.826890411376953125e+02,-2.343106746673583984e+00,7.562364959716796875e+01,3.135642242431640625e+01
2.798059880733489990e-01,1.000000000000000000e+00,6.906199932098388672e+00,-8.780725479125976562e+00,4.116457462310791016e+00,-2.066401824951171875e+02,-9.928269195556640625e+01,-1.784282836914062500e+02,4.033146500587463379e-01,-6.667523193359375000e+01,-1.826889343261718750e+02,-2.343178272247314453e+00,7.562364959716796875e+01,3.135642242431640625e+01
2.837190032005310059e-01,1.000000000000000000e+00,6.842384338378906250e+00,-8.726301193237304688e+00,4.124082088470458984e+00,-2.065835418701171875e+02,-9.920655059814453125e+01,-1.783620147705078125e+02,4.033146500587463379e-01,-6.667523193359375000e+01,-1.826890411376953125e+02,-2.343106746673583984e+00,7.562372589111328125e+01,3.135653114318847656e+01
2.879540026187896729e-01,1.000000000000000000e+00,6.778425693511962891e+00,-8.671762466430664062e+00,4.131584167480468750e+00,-2.065279083251953125e+02,-9.913111114501953125e+01,-1.782964477539062500e+02,4.033146500587463379e-01,-6.667523193359375000e+01,-1.826890411376953125e+02,-2.343034982681274414e+00,7.562350463867187500e+01,3.135653114318847656e+01
2.918030023574829102e-01,1.000000000000000000e+00,6.714437961578369141e+00,-8.617360115051269531e+00,4.139005661010742188e+00,-2.064715728759765625e+02,-9.905556488037109375e+01,-1.782310028076171875e+02,4.033146500587463379e-01,-6.667523193359375000e+01,-1.826890411376953125e+02,-2.343106746673583984e+00,7.562364959716796875e+01,3.135653114318847656e+01
2.963150143623352051e-01,1.000000000000000000e+00,6.650594234466552734e+00,-8.562573432922363281e+00,4.146202564239501953e+00,-2.064158325195312500e+02,-9.897937011718750000e+01,-1.781645507812500000e+02,4.033146500587463379e-01,-6.667513275146484375e+01,-1.826890411376953125e+02,-2.343106746673583984e+00,7.562364959716796875e+01,3.135642242431640625e+01
2.998690009117126465e-01,1.000000000000000000e+00,6.586635589599609375e+00,-8.507899284362792969e+00,4.153481483459472656e+00,-2.063599548339843750e+02,-9.890318298339843750e+01,-1.780996398925781250e+02,4.033146500587463379e-01,-6.667531585693359375e+01,-1.826890411376953125e+02,-2.343106746673583984e+00,7.562364959716796875e+01,3.135653114318847656e+01
3.038139939308166504e-01,1.000000000000000000e+00,6.522819995880126953e+00,-8.453022003173828125e+00,4.161126136779785156e+00,-2.063032226562500000e+02,-9.882742309570312500e+01,-1.780334472656250000e+02,4.033146500587463379e-01,-6.667523193359375000e+01,-1.826890411376953125e+02,-2.343178272247314453e+00,7.562372589111328125e+01,3.135653114318847656e+01
3.079389929771423340e-01,1.000000000000000000e+00,6.459033966064453125e+00,-8.397985458374023438e+00,4.168811321258544922e+00,-2.062471618652343750e+02,-9.875198364257812500e+01,-1.779674682617187500e+02,4.033146500587463379e-01,-6.667523193359375000e+01,-1.826890411376953125e+02,-2.343106746673583984e+00,7.562364959716796875e+01,3.135642242431640625e+01
3.119190037250518799e-01,1.000000000000000000e+00,6.395074844360351562e+00,-8.343153953552246094e+00,4.176476955413818359e+00,-2.061910247802734375e+02,-9.867536926269531250e+01,-1.779029083251953125e+02,4.033146500587463379e-01,-6.667523193359375000e+01,-1.826890411376953125e+02,-2.343106746673583984e+00,7.562364959716796875e+01,3.135642242431640625e+01
3.159129917621612549e-01,1.000000000000000000e+00,6.331058502197265625e+00,-8.288118362426757812e+00,4.183856964111328125e+00,-2.061349792480468750e+02,-9.859965515136718750e+01,-1.778369140625000000e+02,4.033146500587463379e-01,-6.667523193359375000e+01,-1.826892089843750000e+02,-2.343106746673583984e+00,7.562372589111328125e+01,3.135642242431640625e+01
3.205009996891021729e-01,1.000000000000000000e+00,6.266812801361083984e+00,-8.233263015747070312e+00,4.191156387329101562e+00,-2.060789337158203125e+02,-9.852416229248046875e+01,-1.777710723876953125e+02,4.033146500587463379e-01,-6.667523193359375000e+01,-1.826890411376953125e+02,-2.343106746673583984e+00,7.562364959716796875e+01,3.135675048828125000e+01
3.241420090198516846e-01,1.000000000000000000e+00,6.202796459197998047e+00,-8.178181648254394531e+00,4.198333263397216797e+00,-2.060228729248046875e+02,-9.844888305664062500e+01,-1.777059020996093750e+02,4.033146500587463379e-01,-6.667513275146484375e+01,-1.826890411376953125e+02,-2.343178272247314453e+00,7.562364959716796875e+01,3.135675048828125000e+01
3.280369937419891357e-01,1.000000000000000000e+00,6.138550758361816406e+00,-8.123055458068847656e+00,4.205693721771240234e+00,-2.059672698974609375e+02,-9.837258911132812500e+01,-1.776393737792968750e+02,4.033146500587463379e-01,-6.667523193359375000e+01,-1.826890411376953125e+02,-2.343034982681274414e+00,7.562364959716796875e+01,3.135675048828125000e+01
3.321889936923980713e-01,1.000000000000000000e+00,6.074161529541015625e+00,-8.068018913269042969e+00,4.213358879089355469e+00,-2.059106903076171875e+02,-9.829730224609375000e+01,-1.775737152099609375e+02,4.033146500587463379e-01,-6.667523193359375000e+01,-1.826890411376953125e+02,-2.343034982681274414e+00,7.562372589111328125e+01,3.135653114318847656e+01
3.361279964447021484e-01,1.000000000000000000e+00,6.010001659393310547e+00,-8.013005256652832031e+00,4.221206665039062500e+00,-2.058548583984375000e+02,-9.822153472900390625e+01,-1.775082092285156250e+02,4.033146500587463379e-01,-6.667531585693359375e+01,-1.826892089843750000e+02,-2.343034982681274414e+00,7.562372589111328125e+01,3.135653114318847656e+01
3.407900035381317139e-01,1.000000000000000000e+00,5.945755958557128906e+00,-7.958083152770996094e+00,4.229013919830322266e+00,-2.057990264892578125e+02,-9.814614868164062500e+01,-1.774420166015625000e+02,4.033146500587463379e-01,-6.667523193359375000e+01,-1.826890411376953125e+02,-2.343034982681274414e+00,7.562372589111328125e+01,3.135653114318847656e+01
3.445680141448974609e-01,1.000000000000000000e+00,5.881538867950439453e+00,-7.903137683868408203e+00,4.236781120300292969e+00,-2.057426147460937500e+02,-9.807006835937500000e+01,-1.773769073486328125e+02,4.033146500587463379e-01,-6.667523193359375000e+01,-1.826890411376953125e+02,-2.343034982681274414e+00,7.562372589111328125e+01,3.135653114318847656e+01
3.482640087604522705e-01,1.000000000000000000e+00,5.817177772521972656e+00,-7.848237514495849609e+00,4.244466781616210938e+00,-2.056869812011718750e+02,-9.799478912353515625e+01,-1.773111267089843750e+02,4.033146500587463379e-01,-6.667523193359375000e+01,-1.826890411376953125e+02,-2.343034982681274414e+00,7.562364959716796875e+01,3.135653114318847656e+01
3.518840074539184570e-01,1.000000000000000000e+00,5.752902984619140625e+00,-7.793201446533203125e+00,4.251846790313720703e+00,-2.056308288574218750e+02,-9.791897583007812500e+01,-1.772447357177734375e+02,4.033146500587463379e-01,-6.667523193359375000e+01,-1.826890411376953125e+02,-2.343106746673583984e+00,7.562364959716796875e+01,3.135619926452636719e+01
3.547520041465759277e-01,1.000000000000000000e+00,5.688887119293212891e+00,-7.738075256347656250e+00,4.259105205535888672e+00,-2.055747833251953125e+02,-9.784294128417968750e+01,-1.771795654296875000e+02,4.033146500587463379e-01,-6.667523193359375000e+01,-1.826890411376953125e+02,-2.343034982681274414e+00,7.562364959716796875e+01,3.135619926452636719e+01
3.602519929409027100e-01,1.000000000000000000e+00,5.624784946441650391e+00,-7.683039188385009766e+00,4.266465187072753906e+00,-2.055192260742187500e+02,-9.776728820800781250e+01,-1.771137237548828125e+02,4.033146500587463379e-01,-6.667523193359375000e+01,-1.826890411376953125e+02,-2.343106746673583984e+00,7.562364959716796875e+01,3.135642242431640625e+01
3.627879917621612549e-01,1.000000000000000000e+00,5.560912132263183594e+00,-7.627957820892333984e+00,4.274150848388671875e+00,-2.054627532958984375e+02,-9.769226837158203125e+01,-1.770473937988281250e+02,4.033146500587463379e-01,-6.667523193359375000e+01,-1.826890411376953125e+02,-2.343034982681274414e+00,7.562364959716796875e+01,3.135642242431640625e+01
3.689759969711303711e-01,1.000000000000000000e+00,5.497011184692382812e+00,-7.572898864746093750e+00,4.281978607177734375e+00,-2.054066467285156250e+02,-9.761666870117187500e+01,-1.769826202392578125e+02,4.033146500587463379e-01,-6.667523193359375000e+01,-1.826892089843750000e+02,-2.343034982681274414e+00,7.562364959716796875e+01,3.135642242431640625e+01
3.723829984664916992e-01,1.000000000000000000e+00,5.433252811431884766e+00,-7.518066883087158203e+00,4.289582729339599609e+00,-2.053507080078125000e+02,-9.754063415527343750e+01,-1.769165802001953125e+02,4.033146500587463379e-01,-6.667523193359375000e+01,-1.826890411376953125e+02,-2.343034982681274414e+00,7.562364959716796875e+01,3.135642242431640625e+01
3.763529956340789795e-01,1.000000000000000000e+00,5.369322776794433594e+00,-7.463302612304687500e+00,4.297044754028320312e+00,-2.052938232421875000e+02,-9.746508789062500000e+01,-1.768507995605468750e+02,4.033146500587463379e-01,-6.667523193359375000e+01,-1.826890411376953125e+02,-2.343034982681274414e+00,7.562364959716796875e+01,3.135619926452636719e+01
3.804340064525604248e-01,1.000000000000000000e+00,5.305737495422363281e+00,-7.408583164215087891e+00,4.304323196411132812e+00,-2.052384643554687500e+02,-9.739006805419921875e+01,-1.767856903076171875e+02,4.033146500587463379e-01,-6.667523193359375000e+01,-1.826892089843750000e+02,-2.343106746673583984e+00,7.562364959716796875e+01,3.135642242431640625e+01
3.844369947910308838e-01,1.000000000000000000e+00,5.242237567901611328e+00,-7.353818893432617188e+00,4.311601638793945312e+00,-2.051824645996093750e+02,-9.731462860107421875e+01,-1.767196960449218750e+02,4.033146500587463379e-01,-6.667523193359375000e+01,-1.826892089843750000e+02,-2.343106746673583984e+00,7.562364959716796875e+01,3.135653114318847656e+01
3.891440033912658691e-01,1.000000000000000000e+00,5.178595066070556641e+00,-7.299077510833740234e+00,4.318880558013916016e+00,-2.051261596679687500e+02,-9.723854827880859375e+01,-1.766541900634765625e+02,4.033146500587463379e-01,-6.667523193359375000e+01,-1.826890411376953125e+02,-2.343106746673583984e+00,7.562364959716796875e+01,3.135653114318847656e+01
3.907560110092163086e-01,1.000000000000000000e+00,5.114808082580566406e+00,-7.244448661804199219e+00,4.326464653015136719e+00,-2.050701599121093750e+02,-9.716283416748046875e+01,-1.765887451171875000e+02,4.033146500587463379e-01,-6.667531585693359375e+01,-1.826889343261718750e+02,-2.343106746673583984e+00,7.562364959716796875e+01,3.135653114318847656e+01
3.964610099792480469e-01,1.000000000000000000e+00,5.051136493682861328e+00,-7.189887523651123047e+00,4.334149837493896484e+00,-2.050137634277343750e+02,-9.708718872070312500e+01,-1.765224151611328125e+02,4.033146500587463379e-01,-6.667523193359375000e+01,-1.826889343261718750e+02,-2.343034982681274414e+00,7.562372589111328125e+01,3.135642242431640625e+01
4.005460143089294434e-01,1.000000000000000000e+00,4.987407684326171875e+00,-7.135598659515380859e+00,4.341937065124511719e+00,-2.049584960937500000e+02,-9.701179504394531250e+01,-1.764571228027343750e+02,4.033146500587463379e-01,-6.667523193359375000e+01,-1.826892089843750000e+02,-2.343178272247314453e+00,7.562364959716796875e+01,3.135653114318847656e+01
4.044409990310668945e-01,1.000000000000000000e+00,4.923592090606689453e+00,-7.080969810485839844e+00,4.349581718444824219e+00,-2.049026184082031250e+02,-9.693533325195312500e+01,-1.763919525146484375e+02,4.033146500587463379e-01,-6.667523193359375000e+01,-1.826892089843750000e+02,-2.343106746673583984e+00,7.562364959716796875e+01,3.135642242431640625e+01
4.087719917297363281e-01,1.000000000000000000e+00,4.859863281250000000e+00,-7.026296138763427734e+00,4.357185840606689453e+00,-2.048464050292968750e+02,-9.686042785644531250e+01,-1.763251495361328125e+02,4.033146500587463379e-01,-6.667523193359375000e+01,-1.826890411376953125e+02,-2.343106746673583984e+00,7.562364959716796875e+01,3.135642242431640625e+01
4.131689965724945068e-01,1.000000000000000000e+00,4.795904636383056641e+00,-6.971531391143798828e+00,4.364484786987304688e+00,-2.047904663085937500e+02,-9.678456115722656250e+01,-1.762600402832031250e+02,4.033146500587463379e-01,-6.667523193359375000e+01,-1.826890411376953125e+02,-2.343178272247314453e+00,7.562364959716796875e+01,3.135642242431640625e+01
4.147489964962005615e-01,1.000000000000000000e+00,4.731945514678955078e+00,-6.916608810424804688e+00,4.371580600738525391e+00,-2.047342681884765625e+02,-9.670885467529296875e+01,-1.761943206787109375e+02,4.033146500587463379e-01,-6.667523193359375000e+01,-1.826890411376953125e+02,-2.343034982681274414e+00,7.562364959716796875e+01,3.135619926452636719e+01
4.207960069179534912e-01,1.000000000000000000e+00,4.668101310729980469e+00,-6.862025737762451172e+00,4.378798484802246094e+00,-2.046789550781250000e+02,-9.663266754150390625e+01,-1.761282806396484375e+02,4.033146500587463379e-01,-6.667523193359375000e+01,-1.826890411376953125e+02,-2.343106746673583984e+00,7.562372589111328125e+01,3.135642242431640625e+01
4.247030019760131836e-01,1.000000000000000000e+00,4.604343891143798828e+00,-6.807351589202880859e+00,4.386341571807861328e+00,-2.046230163574218750e+02,-9.655786132812500000e+01,-1.760632324218750000e+02,4.033146500587463379e-01,-6.667523193359375000e+01,-1.826890411376953125e+02,-2.343034982681274414e+00,7.562372589111328125e+01,3.135642242431640625e+01
4.289509952068328857e-01,1.000000000000000000e+00,4.540441989898681641e+00,-6.752700328826904297e+00,4.393884658813476562e+00,-2.045666046142578125e+02,-9.648194122314453125e+01,-1.759977264404296875e+02,4.033146500587463379e-01,-6.667523193359375000e+01,-1.826890411376953125e+02,-2.343034982681274414e+00,7.562364959716796875e+01,3.135642242431640625e+01
4.328489899635314941e-01,1.000000000000000000e+00,4.476684570312500000e+00,-6.697777271270751953e+00,4.401407718658447266e+00,-2.045109405517578125e+02,-9.640654754638671875e+01,-1.759311981201171875e+02,4.033146500587463379e-01,-6.667523193359375000e+01,-1.826890411376953125e+02,-2.343034982681274414e+00,7.562364959716796875e+01,3.135642242431640625e+01
4.374839961528778076e-01,1.000000000000000000e+00,4.413012504577636719e+00,-6.642877101898193359e+00,4.408889770507812500e+00,-2.044546203613281250e+02,-9.633030700683593750e+01,-1.758666381835937500e+02,4.033146500587463379e-01,-6.667523193359375000e+01,-1.826890411376953125e+02,-2.343106746673583984e+00,7.562364959716796875e+01,3.135653114318847656e+01
4.408699870109558105e-01,1.000000000000000000e+00,4.349340915679931641e+00,-6.588180541992187500e+00,4.416127681732177734e+00,-2.043990020751953125e+02,-9.625524139404296875e+01,-1.758003845214843750e+02,4.033146500587463379e-01,-6.667531585693359375e+01,-1.826890411376953125e+02,-2.343034982681274414e+00,7.562364959716796875e+01,3.135642242431640625e+01
4.449470043182373047e-01,1.000000000000000000e+00,4.285497188568115234e+00,-6.533212661743164062e+00,4.423406600952148438e+00,-2.043427276611328125e+02,-9.617952728271484375e+01,-1.757350006103515625e+02,4.033146500587463379e-01,-6.667523193359375000e+01,-1.826890411376953125e+02,-2.343106746673583984e+00,7.562364959716796875e+01,3.135642242431640625e+01
4.489780068397521973e-01,1.000000000000000000e+00,4.221567153930664062e+00,-6.478470802307128906e+00,4.430787086486816406e+00,-2.042870178222656250e+02,-9.610392761230468750e+01,-1.756700286865234375e+02,4.033146500587463379e-01,-6.667523193359375000e+01,-1.826892089843750000e+02,-2.343034982681274414e+00,7.562364959716796875e+01,3.135619926452636719e+01
4.507440030574798584e-01,1.000000000000000000e+00,4.157809257507324219e+00,-6.423661231994628906e+00,4.438574314117431641e+00,-2.042312774658203125e+02,-9.602751922607421875e+01,-1.756040496826171875e+02,4.033146500587463379e-01,-6.667523193359375000e+01,-1.826890411376953125e+02,-2.343034982681274414e+00,7.562364959716796875e+01,3.135653114318847656e+01
4.569830000400543213e-01,1.000000000000000000e+00,4.094022750854492188e+00,-6.369009971618652344e+00,4.446483135223388672e+00,-2.041749114990234375e+02,-9.595250701904296875e+01,-1.755384063720703125e+02,4.033146500587463379e-01,-6.667523193359375000e+01,-1.826890411376953125e+02,-2.343106746673583984e+00,7.562364959716796875e+01,3.135653114318847656e+01
4.588890075683593750e-01,1.000000000000000000e+00,4.029977798461914062e+00,-6.314019680023193359e+00,4.454310894012451172e+00,-2.041194000244140625e+02,-9.587706756591796875e+01,-1.754726867675781250e+02,4.033146500587463379e-01,-6.667523193359375000e+01,-1.826890411376953125e+02,-2.343034982681274414e+00,7.562364959716796875e+01,3.135642242431640625e+01
4.649150073528289795e-01,1.000000000000000000e+00,3.966133832931518555e+00,-6.259006023406982422e+00,4.462077617645263672e+00,-2.040638275146484375e+02,-9.580130767822265625e+01,-1.754062194824218750e+02,4.033146500587463379e-01,-6.667523193359375000e+01,-1.826890411376953125e+02,-2.343034982681274414e+00,7.562364959716796875e+01,3.135642242431640625e+01
4.690999984741210938e-01,1.000000000000000000e+00,3.902031660079956055e+00,-6.204151153564453125e+00,4.469539165496826172e+00,-2.040077362060546875e+02,-9.572511291503906250e+01,-1.753413238525390625e+02,4.033146500587463379e-01,-6.667523193359375000e+01,-1.826890411376953125e+02,-2.343106746673583984e+00,7.562387084960937500e+01,3.135642242431640625e+01
4.730089902877807617e-01,1.000000000000000000e+00,3.837986707687377930e+00,-6.149115085601806641e+00,4.476838588714599609e+00,-2.039525756835937500e+02,-9.565004730224609375e+01,-1.752759552001953125e+02,4.033146500587463379e-01,-6.667531585693359375e+01,-1.826890411376953125e+02,-2.343106746673583984e+00,7.562364959716796875e+01,3.135653114318847656e+01
4.748060107231140137e-01,1.000000000000000000e+00,3.773970365524291992e+00,-6.094056606292724609e+00,4.484097003936767578e+00,-2.038961181640625000e+02,-9.557487487792968750e+01,-1.752094268798828125e+02,4.033146500587463379e-01,-6.667523193359375000e+01,-1.826890411376953125e+02,-2.343106746673583984e+00,7.562364959716796875e+01,3.135642242431640625e+01
4.821729958057403564e-01,1.000000000000000000e+00,3.646454572677612305e+00,-5.984369277954101562e+00,4.499203681945800781e+00,-2.037847595214843750e+02,-9.542328643798828125e+01,-1.750782623291015625e+02,4.033146500587463379e-01,-6.667523193359375000e+01,-1.826890411376953125e+02,-2.343106746673583984e+00,7.562364959716796875e+01,3.135653114318847656e+01
4.836609959602355957e-01,1.000000000000000000e+00,3.646454572677612305e+00,-5.984369277954101562e+00,4.499203681945800781e+00,-2.037847595214843750e+02,-9.542328643798828125e+01,-1.750782623291015625e+02,4.033146500587463379e-01,-6.667523193359375000e+01,-1.826890411376953125e+02,-2.343106746673583984e+00,7.562364959716796875e+01,3.135653114318847656e+01
4.877929985523223877e-01,1.000000000000000000e+00,3.582668304443359375e+00,-5.929605007171630859e+00,4.506868839263916016e+00,-2.037286224365234375e+02,-9.534784698486328125e+01,-1.750124816894531250e+02,4.033146500587463379e-01,-6.667523193359375000e+01,-1.826890411376953125e+02,-2.343106746673583984e+00,7.562364959716796875e+01,3.135653114318847656e+01
4.907509982585906982e-01,1.000000000000000000e+00,3.518881797790527344e+00,-5.874817848205566406e+00,4.514350891113281250e+00,-2.036729431152343750e+02,-9.527256774902343750e+01,-1.749475860595703125e+02,4.033146500587463379e-01,-6.667523193359375000e+01,-1.826890411376953125e+02,-2.343106746673583984e+00,7.562364959716796875e+01,3.135653114318847656e+01
4.973030090332031250e-01,1.000000000000000000e+00,3.518881797790527344e+00,-5.874817848205566406e+00,4.514350891113281250e+00,-2.036729431152343750e+02,-9.527256774902343750e+01,-1.749475860595703125e+02,4.033146500587463379e-01,-6.667523193359375000e+01,-1.826890411376953125e+02,-2.343106746673583984e+00,7.562364959716796875e+01,3.135653114318847656e+01
4.998260140419006348e-01,1.000000000000000000e+00,3.391767740249633789e+00,-5.765470027923583984e+00,4.529010295867919922e+00,-2.035602722167968750e+02,-9.512094116210937500e+01,-1.748159484863281250e+02,4.033146500587463379e-01,-6.667523193359375000e+01,-1.826889343261718750e+02,-2.343106746673583984e+00,7.562364959716796875e+01,3.135642242431640625e+01
5.038179755210876465e-01,1.000000000000000000e+00,3.328124761581420898e+00,-5.710841178894042969e+00,4.536248207092285156e+00,-2.035051727294921875e+02,-9.504544067382812500e+01,-1.747507019042968750e+02,4.033146500587463379e-01,-6.667523193359375000e+01,-1.826890411376953125e+02,-2.343106746673583984e+00,7.562364959716796875e+01,3.135642242431640625e+01
5.068230032920837402e-01,1.000000000000000000e+00,3.264424324035644531e+00,-5.656325817108154297e+00,4.543628215789794922e+00,-2.034492797851562500e+02,-9.497042846679687500e+01,-1.746847991943359375e+02,4.033146500587463379e-01,-6.667523193359375000e+01,-1.826890411376953125e+02,-2.343034982681274414e+00,7.562364959716796875e+01,3.135642242431640625e+01
5.117970108985900879e-01,1.000000000000000000e+00,3.264424324035644531e+00,-5.656325817108154297e+00,4.543628215789794922e+00,-2.034492797851562500e+02,-9.497042846679687500e+01,-1.746847991943359375e+02,4.033146500587463379e-01,-6.667523193359375000e+01,-1.826890411376953125e+02,-2.343034982681274414e+00,7.562364959716796875e+01,3.135642242431640625e+01
5.158240199089050293e-01,1.000000000000000000e+00,3.137109518051147461e+00,-5.547023296356201172e+00,4.558917999267578125e+00,-2.033376159667968750e+02,-9.481938171386718750e+01,-1.745546569824218750e+02,4.033146500587463379e-01,-6.667523193359375000e+01,-1.826892089843750000e+02,-2.343034982681274414e+00,7.562372589111328125e+01,3.135653114318847656e+01
5.199609994888305664e-01,1.000000000000000000e+00,3.073236942291259766e+00,-5.492349624633789062e+00,4.566542625427246094e+00,-2.032813110351562500e+02,-9.474356079101562500e+01,-1.744887237548828125e+02,4.033146500587463379e-01,-6.667523193359375000e+01,-1.826890411376953125e+02,-2.343106746673583984e+00,7.562364959716796875e+01,3.135653114318847656e+01
5.227559804916381836e-01,1.000000000000000000e+00,3.009306907653808594e+00,-5.437517166137695312e+00,4.574227809906005859e+00,-2.032260589599609375e+02,-9.466870880126953125e+01,-1.744234161376953125e+02,4.033146500587463379e-01,-6.667523193359375000e+01,-1.826890411376953125e+02,-2.343106746673583984e+00,7.562364959716796875e+01,3.135653114318847656e+01
5.278559923171997070e-01,1.000000000000000000e+00,3.009306907653808594e+00,-5.437517166137695312e+00,4.574227809906005859e+00,-2.032260589599609375e+02,-9.466870880126953125e+01,-1.744234161376953125e+02,4.033146500587463379e-01,-6.667523193359375000e+01,-1.826890411376953125e+02,-2.343106746673583984e+00,7.562364959716796875e+01,3.135653114318847656e+01
5.308420062065124512e-01,1.000000000000000000e+00,2.881762504577636719e+00,-5.328259944915771484e+00,4.588988780975341797e+00,-2.031142272949218750e+02,-9.451771545410156250e+01,-1.742913208007812500e+02,4.033146500587463379e-01,-6.667523193359375000e+01,-1.826892089843750000e+02,-2.343034982681274414e+00,7.562364959716796875e+01,3.135653114318847656e+01
5.358020067214965820e-01,1.000000000000000000e+00,2.881762504577636719e+00,-5.328259944915771484e+00,4.588988780975341797e+00,-2.031142272949218750e+02,-9.451771545410156250e+01,-1.742913208007812500e+02,4.033146500587463379e-01,-6.667523193359375000e+01,-1.826892089843750000e+02,-2.343034982681274414e+00,7.562364959716796875e+01,3.135653114318847656e+01
5.387560129165649414e-01,1.000000000000000000e+00,2.754045963287353516e+00,-5.219115734100341797e+00,4.603465080261230469e+00,-2.030027160644531250e+02,-9.436640930175781250e+01,-1.741609039306640625e+02,4.033146500587463379e-01,-6.667523193359375000e+01,-1.826890411376953125e+02,-2.343034982681274414e+00,7.562372589111328125e+01,3.135653114318847656e+01
5.437840223312377930e-01,1.000000000000000000e+00,2.754045963287353516e+00,-5.219115734100341797e+00,4.603465080261230469e+00,-2.030027160644531250e+02,-9.436640930175781250e+01,-1.741609039306640625e+02,4.033146500587463379e-01,-6.667523193359375000e+01,-1.826890411376953125e+02,-2.343034982681274414e+00,7.562372589111328125e+01,3.135653114318847656e+01
5.468109846115112305e-01,1.000000000000000000e+00,2.626358032226562500e+00,-5.109767913818359375e+00,4.618794918060302734e+00,-2.028913116455078125e+02,-9.421632385253906250e+01,-1.740301513671875000e+02,4.033146500587463379e-01,-6.667523193359375000e+01,-1.826890411376953125e+02,-2.343106746673583984e+00,7.562372589111328125e+01,3.135642242431640625e+01
5.518640279769897461e-01,1.000000000000000000e+00,2.626358032226562500e+00,-5.109767913818359375e+00,4.618794918060302734e+00,-2.028913116455078125e+02,-9.421632385253906250e+01,-1.740301513671875000e+02,4.033146500587463379e-01,-6.667523193359375000e+01,-1.826890411376953125e+02,-2.343106746673583984e+00,7.562372589111328125e+01,3.135642242431640625e+01
5.557450056076049805e-01,1.000000000000000000e+00,2.498784780502319336e+00,-5.000555992126464844e+00,4.633759021759033203e+00,-2.027793731689453125e+02,-9.406522369384765625e+01,-1.738981018066406250e+02,4.033146500587463379e-01,-6.667523193359375000e+01,-1.826890411376953125e+02,-2.343106746673583984e+00,7.562364959716796875e+01,3.135642242431640625e+01
5.597620010375976562e-01,1.000000000000000000e+00,2.435285329818725586e+00,-4.945995330810546875e+00,4.641037940979003906e+00,-2.027233734130859375e+02,-9.398961639404296875e+01,-1.738336181640625000e+02,4.033146500587463379e-01,-6.667531585693359375e+01,-1.826890411376953125e+02,-2.343034982681274414e+00,7.562372589111328125e+01,3.135653114318847656e+01
5.638639926910400391e-01,1.000000000000000000e+00,2.371498823165893555e+00,-4.891434669494628906e+00,4.648296356201171875e+00,-2.026676635742187500e+02,-9.391492462158203125e+01,-1.737681884765625000e+02,4.033146500587463379e-01,-6.667523193359375000e+01,-1.826890411376953125e+02,-2.343106746673583984e+00,7.562364959716796875e+01,3.135653114318847656e+01
5.675640106201171875e-01,1.000000000000000000e+00,2.307855844497680664e+00,-4.836738109588623047e+00,4.655636310577392578e+00,-2.026119842529296875e+02,-9.383980560302734375e+01,-1.737023925781250000e+02,4.033146500587463379e-01,-6.667523193359375000e+01,-1.826892089843750000e+02,-2.343034982681274414e+00,7.562372589111328125e+01,3.135653114318847656e+01
5.717489719390869141e-01,1.000000000000000000e+00,2.243954420089721680e+00,-4.781951427459716797e+00,4.663341999053955078e+00,-2.025559234619140625e+02,-9.376414489746093750e+01,-1.736374206542968750e+02,4.033146500587463379e-01,-6.667523193359375000e+01,-1.826890411376953125e+02,-2.343106746673583984e+00,7.562364959716796875e+01,3.135642242431640625e+01
5.747680068016052246e-01,1.000000000000000000e+00,2.179938316345214844e+00,-4.727231979370117188e+00,4.671088695526123047e+00,-2.025004730224609375e+02,-9.368849182128906250e+01,-1.735715637207031250e+02,4.033146500587463379e-01,-6.667523193359375000e+01,-1.826890411376953125e+02,-2.343034982681274414e+00,7.562364959716796875e+01,3.135619926452636719e+01
5.798109769821166992e-01,1.000000000000000000e+00,2.179938316345214844e+00,-4.727231979370117188e+00,4.671088695526123047e+00,-2.025004730224609375e+02,-9.368849182128906250e+01,-1.735715637207031250e+02,4.033146500587463379e-01,-6.667523193359375000e+01,-1.826890411376953125e+02,-2.343034982681274414e+00,7.562364959716796875e+01,3.135619926452636719e+01
5.838109850883483887e-01,1.000000000000000000e+00,2.051991939544677734e+00,-4.617499351501464844e+00,4.686439037322998047e+00,-2.023888549804687500e+02,-9.353824615478515625e+01,-1.734415740966796875e+02,4.033146500587463379e-01,-6.667523193359375000e+01,-1.826890411376953125e+02,-2.343106746673583984e+00,7.562364959716796875e+01,3.135642242431640625e+01
5.877689719200134277e-01,1.000000000000000000e+00,1.988119363784790039e+00,-4.562848091125488281e+00,4.693799018859863281e+00,-2.023330688476562500e+02,-9.346231842041015625e+01,-1.733759918212890625e+02,4.033146500587463379e-01,-6.667523193359375000e+01,-1.826890411376953125e+02,-2.343106746673583984e+00,7.562364959716796875e+01,3.135653114318847656e+01
5.915169715881347656e-01,1.000000000000000000e+00,1.924332857131958008e+00,-4.508106231689453125e+00,4.700915336608886719e+00,-2.022768554687500000e+02,-9.338703918457031250e+01,-1.733106079101562500e+02,4.033146500587463379e-01,-6.667523193359375000e+01,-1.826890411376953125e+02,-2.343106746673583984e+00,7.562364959716796875e+01,3.135653114318847656e+01
5.977299809455871582e-01,1.000000000000000000e+00,1.924332857131958008e+00,-4.508106231689453125e+00,4.700915336608886719e+00,-2.022768554687500000e+02,-9.338703918457031250e+01,-1.733106079101562500e+02,4.033146500587463379e-01,-6.667523193359375000e+01,-1.826890411376953125e+02,-2.343106746673583984e+00,7.562364959716796875e+01,3.135653114318847656e+01
5.998079776763916016e-01,1.000000000000000000e+00,1.796788454055786133e+00,-4.398645401000976562e+00,4.715615272521972656e+00,-2.021655731201171875e+02,-9.323642730712890625e+01,-1.731791229248046875e+02,4.033146500587463379e-01,-6.667523193359375000e+01,-1.826890411376953125e+02,-2.343034982681274414e+00,7.562364959716796875e+01,3.135653114318847656e+01
6.027809977531433105e-01,1.000000000000000000e+00,1.733116626739501953e+00,-4.343858718872070312e+00,4.723320960998535156e+00,-2.021098937988281250e+02,-9.316033935546875000e+01,-1.731140899658203125e+02,4.033146500587463379e-01,-6.667523193359375000e+01,-1.826890411376953125e+02,-2.343106746673583984e+00,7.562364959716796875e+01,3.135653114318847656e+01
6.078360080718994141e-01,1.000000000000000000e+00,1.733116626739501953e+00,-4.343858718872070312e+00,4.723320960998535156e+00,-2.021098937988281250e+02,-9.316033935546875000e+01,-1.731140899658203125e+02,4.033146500587463379e-01,-6.667523193359375000e+01,-1.826890411376953125e+02,-2.343106746673583984e+00,7.562364959716796875e+01,3.135653114318847656e+01
6.127520203590393066e-01,1.000000000000000000e+00,1.606060266494750977e+00,-4.234736919403076172e+00,4.738386631011962891e+00,-2.019979095458984375e+02,-9.301041412353515625e+01,-1.729833984375000000e+02,4.033146500587463379e-01,-6.667523193359375000e+01,-1.826890411376953125e+02,-2.343178272247314453e+00,7.562372589111328125e+01,3.135653114318847656e+01
6.163629889488220215e-01,1.000000000000000000e+00,1.542503476142883301e+00,-4.180176258087158203e+00,4.745726585388183594e+00,-2.019422760009765625e+02,-9.293492126464843750e+01,-1.729180297851562500e+02,4.033146500587463379e-01,-6.667523193359375000e+01,-1.826890411376953125e+02,-2.343034982681274414e+00,7.562364959716796875e+01,3.135653114318847656e+01
6.198869943618774414e-01,1.000000000000000000e+00,1.478975296020507812e+00,-4.125615119934082031e+00,4.752903938293457031e+00,-2.018862304687500000e+02,-9.285841369628906250e+01,-1.728522338867187500e+02,4.033146500587463379e-01,-6.667523193359375000e+01,-1.826890411376953125e+02,-2.343106746673583984e+00,7.562364959716796875e+01,3.135653114318847656e+01
6.248520016670227051e-01,1.000000000000000000e+00,1.415590643882751465e+00,-4.070896625518798828e+00,4.760161876678466797e+00,-2.018305664062500000e+02,-9.278376770019531250e+01,-1.727865295410156250e+02,4.033146500587463379e-01,-6.667513275146484375e+01,-1.826890411376953125e+02,-2.343034982681274414e+00,7.562364959716796875e+01,3.135653114318847656e+01
6.275389790534973145e-01,1.000000000000000000e+00,1.352205991744995117e+00,-4.016087055206298828e+00,4.767684936523437500e+00,-2.017751464843750000e+02,-9.270843505859375000e+01,-1.727218322753906250e+02,4.033146500587463379e-01,-6.667523193359375000e+01,-1.826890411376953125e+02,-2.343034982681274414e+00,7.562364959716796875e+01,3.135642242431640625e+01
6.318470239639282227e-01,1.000000000000000000e+00,1.352205991744995117e+00,-4.016087055206298828e+00,4.767684936523437500e+00,-2.017751464843750000e+02,-9.270843505859375000e+01,-1.727218322753906250e+02,4.033146500587463379e-01,-6.667523193359375000e+01,-1.826890411376953125e+02,-2.343034982681274414e+00,7.562364959716796875e+01,3.135642242431640625e+01
6.367819905281066895e-01,1.000000000000000000e+00,1.288677692413330078e+00,-3.961277008056640625e+00,4.775370121002197266e+00,-2.017187194824218750e+02,-9.263288116455078125e+01,-1.726559143066406250e+02,4.033146500587463379e-01,-6.667523193359375000e+01,-1.826890411376953125e+02,-2.343106746673583984e+00,7.562364959716796875e+01,3.135642242431640625e+01
6.402969956398010254e-01,1.000000000000000000e+00,1.161420464515686035e+00,-3.851861238479614258e+00,4.790843009948730469e+00,-2.016073303222656250e+02,-9.248130798339843750e+01,-1.725254974365234375e+02,4.033146500587463379e-01,-6.667523193359375000e+01,-1.826889343261718750e+02,-2.343106746673583984e+00,7.562364959716796875e+01,3.135642242431640625e+01
6.437849998474121094e-01,1.000000000000000000e+00,1.097806215286254883e+00,-3.797413587570190430e+00,4.798325061798095703e+00,-2.015514373779296875e+02,-9.240634918212890625e+01,-1.724594573974609375e+02,4.033146500587463379e-01,-6.667523193359375000e+01,-1.826890411376953125e+02,-2.343106746673583984e+00,7.562364959716796875e+01,3.135642242431640625e+01
6.477879881858825684e-01,1.000000000000000000e+00,1.097806215286254883e+00,-3.797413587570190430e+00,4.798325061798095703e+00,-2.015514373779296875e+02,-9.240634918212890625e+01,-1.724594573974609375e+02,4.033146500587463379e-01,-6.667523193359375000e+01,-1.826890411376953125e+02,-2.343106746673583984e+00,7.562364959716796875e+01,3.135642242431640625e+01
6.518579721450805664e-01,1.000000000000000000e+00,1.034392833709716797e+00,-3.742762804031372070e+00,4.805705547332763672e+00,-2.014963378906250000e+02,-9.233100891113281250e+01,-1.723941345214843750e+02,4.033146500587463379e-01,-6.667523193359375000e+01,-1.826890411376953125e+02,-2.343106746673583984e+00,7.562364959716796875e+01,3.135653114318847656e+01
6.558520197868347168e-01,1.000000000000000000e+00,9.708072543144226074e-01,-3.688043594360351562e+00,4.812882423400878906e+00,-2.014403533935546875e+02,-9.225524902343750000e+01,-1.723295135498046875e+02,4.033146500587463379e-01,-6.667523193359375000e+01,-1.826890411376953125e+02,-2.343034982681274414e+00,7.562364959716796875e+01,3.135653114318847656e+01
6.597899794578552246e-01,1.000000000000000000e+00,9.072790145874023438e-01,-3.633437395095825195e+00,4.820079803466796875e+00,-2.013845672607421875e+02,-9.218001556396484375e+01,-1.722633209228515625e+02,4.033146500587463379e-01,-6.667523193359375000e+01,-1.826890411376953125e+02,-2.343106746673583984e+00,7.562364959716796875e+01,3.135642242431640625e+01
6.638439893722534180e-01,1.000000000000000000e+00,8.437795639038085938e-01,-3.578740835189819336e+00,4.827602386474609375e+00,-2.013286743164062500e+02,-9.210494995117187500e+01,-1.721985473632812500e+02,4.033146500587463379e-01,-6.667523193359375000e+01,-1.826892089843750000e+02,-2.343034982681274414e+00,7.562364959716796875e+01,3.135642242431640625e+01
6.678580045700073242e-01,1.000000000000000000e+00,7.801652550697326660e-01,-3.524361133575439453e+00,4.835247516632080078e+00,-2.012729492187500000e+02,-9.202950286865234375e+01,-1.721333160400390625e+02,4.033146500587463379e-01,-6.667531585693359375e+01,-1.826890411376953125e+02,-2.343106746673583984e+00,7.562350463867187500e+01,3.135642242431640625e+01
6.717919707298278809e-01,1.000000000000000000e+00,7.167232036590576172e-01,-3.469823122024536133e+00,4.842749595642089844e+00,-2.012175903320312500e+02,-9.195353698730468750e+01,-1.720670623779296875e+02,4.033146500587463379e-01,-6.667523193359375000e+01,-1.826890411376953125e+02,-2.343106746673583984e+00,7.562372589111328125e+01,3.135642242431640625e+01
6.758239865303039551e-01,1.000000000000000000e+00,6.533385515213012695e-01,-3.415398120880126953e+00,4.850191116333007812e+00,-2.011617431640625000e+02,-9.187819671630859375e+01,-1.720022277832031250e+02,4.033146500587463379e-01,-6.667523193359375000e+01,-1.826890411376953125e+02,-2.343106746673583984e+00,7.562364959716796875e+01,3.135642242431640625e+01
6.798850297927856445e-01,1.000000000000000000e+00,5.898965001106262207e-01,-3.360792160034179688e+00,4.857490539550781250e+00,-2.011055450439453125e+02,-9.180344390869140625e+01,-1.719368438720703125e+02,4.033146500587463379e-01,-6.667523193359375000e+01,-1.826892089843750000e+02,-2.343106746673583984e+00,7.562350463867187500e+01,3.135653114318847656e+01
6.838030219078063965e-01,1.000000000000000000e+00,5.264831185340881348e-01,-3.306050300598144531e+00,4.864626884460449219e+00,-2.010499877929687500e+02,-9.172757720947265625e+01,-1.718711395263671875e+02,4.033146500587463379e-01,-6.667523193359375000e+01,-1.826890411376953125e+02,-2.343106746673583984e+00,7.562364959716796875e+01,3.135653114318847656e+01
6.878309845924377441e-01,1.000000000000000000e+00,4.629262089729309082e-01,-3.251376390457153320e+00,4.871865272521972656e+00,-2.009942474365234375e+02,-9.165213775634765625e+01,-1.718063812255859375e+02,4.033146500587463379e-01,-6.667523193359375000e+01,-1.826890411376953125e+02,-2.343106746673583984e+00,7.562364959716796875e+01,3.135642242431640625e+01
6.918590068817138672e-01,1.000000000000000000e+00,3.992545306682586670e-01,-3.196612119674682617e+00,4.879367828369140625e+00,-2.009388885498046875e+02,-9.157711791992187500e+01,-1.717403869628906250e+02,4.033146500587463379e-01,-6.667523193359375000e+01,-1.826890411376953125e+02,-2.343106746673583984e+00,7.562364959716796875e+01,3.135642242431640625e+01
6.957960128784179688e-01,1.000000000000000000e+00,3.354679644107818604e-01,-3.141802310943603516e+00,4.887012481689453125e+00,-2.008830108642578125e+02,-9.150210571289062500e+01,-1.716752014160156250e+02,4.033146500587463379e-01,-6.667531585693359375e+01,-1.826890411376953125e+02,-2.343034982681274414e+00,7.562364959716796875e+01,3.135642242431640625e+01
6.998130083084106445e-01,1.000000000000000000e+00,2.714805006980895996e-01,-3.087151288986206055e+00,4.894636631011962891e+00,-2.008270721435546875e+02,-9.142629241943359375e+01,-1.716105194091796875e+02,4.033146500587463379e-01,-6.667523193359375000e+01,-1.826890411376953125e+02,-2.343034982681274414e+00,7.562372589111328125e+01,3.135653114318847656e+01
7.038149833679199219e-01,1.000000000000000000e+00,2.076939344406127930e-01,-3.032545089721679688e+00,4.902342319488525391e+00,-2.007716522216796875e+02,-9.135127258300781250e+01,-1.715450134277343750e+02,4.033146500587463379e-01,-6.667523193359375000e+01,-1.826890411376953125e+02,-2.343034982681274414e+00,7.562372589111328125e+01,3.135653114318847656e+01
7.077879905700683594e-01,1.000000000000000000e+00,1.439073979854583740e-01,-2.977961540222167969e+00,4.909966945648193359e+00,-2.007154541015625000e+02,-9.127593994140625000e+01,-1.714787445068359375e+02,4.033146500587463379e-01,-6.667531585693359375e+01,-1.826890411376953125e+02,-2.343106746673583984e+00,7.562364959716796875e+01,3.135653114318847656e+01
7.118920087814331055e-01,1.000000000000000000e+00,7.997731119394302368e-02,-2.923355817794799805e+00,4.917306900024414062e+00,-2.006600799560546875e+02,-9.120145416259765625e+01,-1.714143981933593750e+02,4.033146500587463379e-01,-6.667523193359375000e+01,-1.826890411376953125e+02,-2.343106746673583984e+00,7.562364959716796875e+01,3.135642242431640625e+01
7.158219814300537109e-01,1.000000000000000000e+00,1.624818146228790283e-02,-2.868749618530273438e+00,4.924443244934082031e+00,-2.006049957275390625e+02,-9.112617492675781250e+01,-1.713486022949218750e+02,4.033146500587463379e-01,-6.667523193359375000e+01,-1.826890411376953125e+02,-2.343034982681274414e+00,7.562364959716796875e+01,3.135642242431640625e+01
7.197920083999633789e-01,1.000000000000000000e+00,-4.742353782057762146e-02,-2.814256906509399414e+00,4.931640625000000000e+00,-2.005489959716796875e+02,-9.105115509033203125e+01,-1.712833709716796875e+02,4.033146500587463379e-01,-6.667523193359375000e+01,-1.826892089843750000e+02,-2.343034982681274414e+00,7.562364959716796875e+01,3.135642242431640625e+01
7.238489985466003418e-01,1.000000000000000000e+00,-1.110665500164031982e-01,-2.759650945663452148e+00,4.939203739166259766e+00,-2.004940032958984375e+02,-9.097587585449218750e+01,-1.712189331054687500e+02,4.033146500587463379e-01,-6.667523193359375000e+01,-1.826890411376953125e+02,-2.343106746673583984e+00,7.562364959716796875e+01,3.135653114318847656e+01
7.278209924697875977e-01,1.000000000000000000e+00,-1.747669726610183716e-01,-2.705090284347534180e+00,4.946848869323730469e+00,-2.004375457763671875e+02,-9.090064239501953125e+01,-1.711528930664062500e+02,4.033146500587463379e-01,-6.667523193359375000e+01,-1.826890411376953125e+02,-2.343034982681274414e+00,7.562372589111328125e+01,3.135642242431640625e+01
7.317950129508972168e-01,1.000000000000000000e+00,-2.384099662303924561e-01,-2.650619983673095703e+00,4.954595088958740234e+00,-2.003818054199218750e+02,-9.082514190673828125e+01,-1.710876464843750000e+02,4.033146500587463379e-01,-6.667523193359375000e+01,-1.826890411376953125e+02,-2.343034982681274414e+00,7.562350463867187500e+01,3.135653114318847656e+01
7.366229891777038574e-01,1.000000000000000000e+00,-3.019668757915496826e-01,-2.595946073532104492e+00,4.962016582489013672e+00,-2.003267669677734375e+02,-9.075055694580078125e+01,-1.710223388671875000e+02,4.033146500587463379e-01,-6.667523193359375000e+01,-1.826890411376953125e+02,-2.343034982681274414e+00,7.562364959716796875e+01,3.135653114318847656e+01
7.417920231819152832e-01,1.000000000000000000e+00,-3.654950559139251709e-01,-2.541249513626098633e+00,4.969335556030273438e+00,-2.002706756591796875e+02,-9.067575836181640625e+01,-1.709562225341796875e+02,4.033146500587463379e-01,-6.667523193359375000e+01,-1.826890411376953125e+02,-2.343034982681274414e+00,7.562364959716796875e+01,3.135642242431640625e+01
7.443310022354125977e-01,1.000000000000000000e+00,-4.924652874469757080e-01,-2.431969642639160156e+00,4.983730792999267578e+00,-2.001591644287109375e+02,-9.052487182617187500e+01,-1.708262176513671875e+02,4.033146500587463379e-01,-6.667523193359375000e+01,-1.826889343261718750e+02,-2.343178272247314453e+00,7.562364959716796875e+01,3.135653114318847656e+01
7.471429705619812012e-01,1.000000000000000000e+00,-4.924652874469757080e-01,-2.431969642639160156e+00,4.983730792999267578e+00,-2.001591644287109375e+02,-9.052487182617187500e+01,-1.708262176513671875e+02,4.033146500587463379e-01,-6.667523193359375000e+01,-1.826889343261718750e+02,-2.343178272247314453e+00,7.562364959716796875e+01,3.135653114318847656e+01
7.512720227241516113e-01,1.000000000000000000e+00,-5.561082959175109863e-01,-2.377363681793212891e+00,4.991171836853027344e+00,-2.001032257080078125e+02,-9.045017242431640625e+01,-1.707601470947265625e+02,4.033146500587463379e-01,-6.667523193359375000e+01,-1.826890411376953125e+02,-2.343106746673583984e+00,7.562364959716796875e+01,3.135642242431640625e+01
7.557950019836425781e-01,1.000000000000000000e+00,-6.198948621749877930e-01,-2.322689771652221680e+00,4.998918533325195312e+00,-2.000481719970703125e+02,-9.037537384033203125e+01,-1.706952514648437500e+02,4.033146500587463379e-01,-6.667523193359375000e+01,-1.826890411376953125e+02,-2.343106746673583984e+00,7.562364959716796875e+01,3.135642242431640625e+01
7.604560256004333496e-01,1.000000000000000000e+00,-6.835952997207641602e-01,-2.268242359161376953e+00,5.006705284118652344e+00,-1.999921722412109375e+02,-9.030025482177734375e+01,-1.706292724609375000e+02,4.033146500587463379e-01,-6.667523193359375000e+01,-1.826890411376953125e+02,-2.343106746673583984e+00,7.562350463867187500e+01,3.135642242431640625e+01
7.641159892082214355e-01,1.000000000000000000e+00,-7.472670078277587891e-01,-2.213523149490356445e+00,5.014289379119873047e+00,-1.999369812011718750e+02,-9.022470092773437500e+01,-1.705634155273437500e+02,4.033146500587463379e-01,-6.667523193359375000e+01,-1.826890411376953125e+02,-2.343106746673583984e+00,7.562372589111328125e+01,3.135642242431640625e+01
7.676510214805603027e-01,1.000000000000000000e+00,-8.107664585113525391e-01,-2.159052848815917969e+00,5.021669864654541016e+00,-1.998808898925781250e+02,-9.014931488037109375e+01,-1.704992675781250000e+02,4.033146500587463379e-01,-6.667523193359375000e+01,-1.826890411376953125e+02,-2.343106746673583984e+00,7.562350463867187500e+01,3.135642242431640625e+01
7.719619870185852051e-01,1.000000000000000000e+00,-8.743233680725097656e-01,-2.104514598846435547e+00,5.028928279876708984e+00,-1.998249969482421875e+02,-9.007434844970703125e+01,-1.704334259033203125e+02,4.033146500587463379e-01,-6.667523193359375000e+01,-1.826890411376953125e+02,-2.343034982681274414e+00,7.562364959716796875e+01,3.135642242431640625e+01
7.753900289535522461e-01,1.000000000000000000e+00,-9.380238056182861328e-01,-2.050112485885620117e+00,5.036146163940429688e+00,-1.997699432373046875e+02,-8.999901580810546875e+01,-1.703678436279296875e+02,4.033146500587463379e-01,-6.667523193359375000e+01,-1.826890411376953125e+02,-2.343034982681274414e+00,7.562372589111328125e+01,3.135642242431640625e+01
7.797880172729492188e-01,1.000000000000000000e+00,-1.001494526863098145e+00,-1.995687365531921387e+00,5.043425083160400391e+00,-1.997142181396484375e+02,-8.992351531982421875e+01,-1.703028717041015625e+02,4.033146500587463379e-01,-6.667523193359375000e+01,-1.826890411376953125e+02,-2.343106746673583984e+00,7.562372589111328125e+01,3.135642242431640625e+01
7.838500142097473145e-01,1.000000000000000000e+00,-1.064764380455017090e+00,-1.941149353981018066e+00,5.050968170166015625e+00,-1.996583251953125000e+02,-8.984839630126953125e+01,-1.702370910644531250e+02,4.033146500587463379e-01,-6.667531585693359375e+01,-1.826890411376953125e+02,-2.343034982681274414e+00,7.562350463867187500e+01,3.135642242431640625e+01
7.883340120315551758e-01,1.000000000000000000e+00,-1.128464818000793457e+00,-1.886701703071594238e+00,5.058429718017578125e+00,-1.996029815673828125e+02,-8.977337646484375000e+01,-1.701722564697265625e+02,4.033146500587463379e-01,-6.667523193359375000e+01,-1.826892089843750000e+02,-2.343106746673583984e+00,7.562364959716796875e+01,3.135642242431640625e+01
7.917969822883605957e-01,1.000000000000000000e+00,-1.191763281822204590e+00,-1.832141041755676270e+00,5.065911769866943359e+00,-1.995471343994140625e+02,-8.969777679443359375e+01,-1.701075592041015625e+02,4.033146500587463379e-01,-6.667523193359375000e+01,-1.826890411376953125e+02,-2.343106746673583984e+00,7.562372589111328125e+01,3.135653114318847656e+01
7.959669828414916992e-01,1.000000000000000000e+00,-1.255061864852905273e+00,-1.777580261230468750e+00,5.073190689086914062e+00,-1.994918212890625000e+02,-8.962228393554687500e+01,-1.700418548583984375e+02,4.033146500587463379e-01,-6.667523193359375000e+01,-1.826892089843750000e+02,-2.343106746673583984e+00,7.562364959716796875e+01,3.135642242431640625e+01
7.997480034828186035e-01,1.000000000000000000e+00,-1.318417787551879883e+00,-1.722838521003723145e+00,5.080469131469726562e+00,-1.994358367919921875e+02,-8.954737091064453125e+01,-1.699766082763671875e+02,4.033146500587463379e-01,-6.667523193359375000e+01,-1.826890411376953125e+02,-2.343034982681274414e+00,7.562364959716796875e+01,3.135642242431640625e+01
8.038589954376220703e-01,1.000000000000000000e+00,-1.382032155990600586e+00,-1.668028831481933594e+00,5.087727546691894531e+00,-1.993799438476562500e+02,-8.947241210937500000e+01,-1.699113616943359375e+02,4.033146500587463379e-01,-6.667523193359375000e+01,-1.826890411376953125e+02,-2.343178272247314453e+00,7.562372589111328125e+01,3.135642242431640625e+01
8.091210126876831055e-01,1.000000000000000000e+00,-1.445445418357849121e+00,-1.613445401191711426e+00,5.094965934753417969e+00,-1.993246002197265625e+02,-8.939675140380859375e+01,-1.698451080322265625e+02,4.033146500587463379e-01,-6.667523193359375000e+01,-1.826890411376953125e+02,-2.343106746673583984e+00,7.562364959716796875e+01,3.135653114318847656e+01
8.125420212745666504e-01,1.000000000000000000e+00,-1.508887529373168945e+00,-1.559020519256591797e+00,5.102468013763427734e+00,-1.992687530517578125e+02,-8.932099151611328125e+01,-1.697802886962890625e+02,4.033146500587463379e-01,-6.667523193359375000e+01,-1.826890411376953125e+02,-2.343178272247314453e+00,7.562364959716796875e+01,3.135642242431640625e+01
8.160979747772216797e-01,1.000000000000000000e+00,-1.572530627250671387e+00,-1.504459738731384277e+00,5.110174179077148438e+00,-1.992131805419921875e+02,-8.924607849121093750e+01,-1.697149047851562500e+02,4.033146500587463379e-01,-6.667523193359375000e+01,-1.826892089843750000e+02,-2.343034982681274414e+00,7.562364959716796875e+01,3.135653114318847656e+01
8.200470209121704102e-01,1.000000000000000000e+00,-1.636202216148376465e+00,-1.449808478355407715e+00,5.118042469024658203e+00,-1.991573486328125000e+02,-8.917069244384765625e+01,-1.696495971679687500e+02,4.033146500587463379e-01,-6.667523193359375000e+01,-1.826890411376953125e+02,-2.343034982681274414e+00,7.562372589111328125e+01,3.135653114318847656e+01
8.238739967346191406e-01,1.000000000000000000e+00,-1.699759244918823242e+00,-1.395179867744445801e+00,5.125748157501220703e+00,-1.991017303466796875e+02,-8.909466552734375000e+01,-1.695846862792968750e+02,4.033146500587463379e-01,-6.667523193359375000e+01,-1.826890411376953125e+02,-2.343106746673583984e+00,7.562372589111328125e+01,3.135653114318847656e+01
8.279259800910949707e-01,1.000000000000000000e+00,-1.763172507286071777e+00,-1.340664386749267578e+00,5.133250713348388672e+00,-1.990463104248046875e+02,-8.901927947998046875e+01,-1.695189056396484375e+02,4.033146500587463379e-01,-6.667523193359375000e+01,-1.826890411376953125e+02,-2.342891216278076172e+00,7.562364959716796875e+01,3.135653114318847656e+01
8.320710062980651855e-01,1.000000000000000000e+00,-1.826470971107482910e+00,-1.286171555519104004e+00,5.140488624572753906e+00,-1.989903717041015625e+02,-8.894458007812500000e+01,-1.694532012939453125e+02,4.033146500587463379e-01,-6.667523193359375000e+01,-1.826890411376953125e+02,-2.343106746673583984e+00,7.562364959716796875e+01,3.135642242431640625e+01
8.366749882698059082e-01,1.000000000000000000e+00,-1.889913201332092285e+00,-1.231814503669738770e+00,5.147665977478027344e+00,-1.989349517822265625e+02,-8.886966705322265625e+01,-1.693889617919921875e+02,4.033146500587463379e-01,-6.667523193359375000e+01,-1.826890411376953125e+02,-2.343034982681274414e+00,7.562364959716796875e+01,3.135653114318847656e+01
8.399270176887512207e-01,1.000000000000000000e+00,-1.953441143035888672e+00,-1.177389502525329590e+00,5.154944896697998047e+00,-1.988794403076171875e+02,-8.879358673095703125e+01,-1.693236083984375000e+02,4.033146500587463379e-01,-6.667523193359375000e+01,-1.826890411376953125e+02,-2.343106746673583984e+00,7.562372589111328125e+01,3.135642242431640625e+01
8.441219925880432129e-01,1.000000000000000000e+00,-2.016624927520751953e+00,-1.122760891914367676e+00,5.162548542022705078e+00,-1.988234558105468750e+02,-8.871830749511718750e+01,-1.692577514648437500e+02,4.033146500587463379e-01,-6.667523193359375000e+01,-1.826890411376953125e+02,-2.343106746673583984e+00,7.562364959716796875e+01,3.135642242431640625e+01
8.478119969367980957e-01,1.000000000000000000e+00,-2.079980850219726562e+00,-1.068177580833435059e+00,5.170234203338623047e+00,-1.987685546875000000e+02,-8.864366149902343750e+01,-1.691935882568359375e+02,4.033146500587463379e-01,-6.667523193359375000e+01,-1.826890411376953125e+02,-2.343106746673583984e+00,7.562364959716796875e+01,3.135642242431640625e+01
8.520569801330566406e-01,1.000000000000000000e+00,-2.143422842025756836e+00,-1.013435721397399902e+00,5.177675724029541016e+00,-1.987119903564453125e+02,-8.856874847412109375e+01,-1.691278076171875000e+02,4.033146500587463379e-01,-6.667523193359375000e+01,-1.826890411376953125e+02,-2.343034982681274414e+00,7.562372589111328125e+01,3.135642242431640625e+01
8.547270298004150391e-01,1.000000000000000000e+00,-2.206692934036254883e+00,-9.590107798576354980e-01,5.184893608093261719e+00,-1.986566772460937500e+02,-8.849320220947265625e+01,-1.690626373291015625e+02,4.033146500587463379e-01,-6.667523193359375000e+01,-1.826890411376953125e+02,-2.343106746673583984e+00,7.562372589111328125e+01,3.135653114318847656e+01
8.608729839324951172e-01,1.000000000000000000e+00,-2.270163774490356445e+00,-9.044274091720581055e-01,5.192070484161376953e+00,-1.986014862060546875e+02,-8.841797637939453125e+01,-1.689981384277343750e+02,4.033146500587463379e-01,-6.667523193359375000e+01,-1.826892089843750000e+02,-2.343034982681274414e+00,7.562364959716796875e+01,3.135642242431640625e+01
8.643040060997009277e-01,1.000000000000000000e+00,-2.333433389663696289e+00,-8.498666882514953613e-01,5.199268341064453125e+00,-1.985454254150390625e+02,-8.834295654296875000e+01,-1.689329071044921875e+02,4.033146500587463379e-01,-6.667523193359375000e+01,-1.826890411376953125e+02,-2.343034982681274414e+00,7.562364959716796875e+01,3.135642242431640625e+01
8.681420087814331055e-01,1.000000000000000000e+00,-2.396990299224853516e+00,-7.954416871070861816e-01,5.206526279449462891e+00,-1.984899139404296875e+02,-8.826799774169921875e+01,-1.688676605224609375e+02,4.033146500587463379e-01,-6.667523193359375000e+01,-1.826890411376953125e+02,-2.343106746673583984e+00,7.562364959716796875e+01,3.135653114318847656e+01
8.708009719848632812e-01,1.000000000000000000e+00,-2.460403680801391602e+00,-7.408130764961242676e-01,5.214048862457275391e+00,-1.984339752197265625e+02,-8.819207000732421875e+01,-1.688026885986328125e+02,4.033146500587463379e-01,-6.667523193359375000e+01,-1.826892089843750000e+02,-2.343034982681274414e+00,7.562364959716796875e+01,3.135642242431640625e+01
8.761699795722961426e-01,1.000000000000000000e+00,-2.523903131484985352e+00,-6.863654851913452148e-01,5.221632957458496094e+00,-1.983780975341796875e+02,-8.811716461181640625e+01,-1.687362976074218750e+02,4.033146500587463379e-01,-6.667523193359375000e+01,-1.826890411376953125e+02,-2.343034982681274414e+00,7.562350463867187500e+01,3.135642242431640625e+01
8.787900209426879883e-01,1.000000000000000000e+00,-2.587402582168579102e+00,-6.319631934165954590e-01,5.229298114776611328e+00,-1.983229522705078125e+02,-8.804230499267578125e+01,-1.686715393066406250e+02,4.033146500587463379e-01,-6.667523193359375000e+01,-1.826892089843750000e+02,-2.343106746673583984e+00,7.562350463867187500e+01,3.135653114318847656e+01
8.850150108337402344e-01,1.000000000000000000e+00,-2.651045560836791992e+00,-5.775834918022155762e-01,5.237003803253173828e+00,-1.982669525146484375e+02,-8.796766662597656250e+01,-1.686066436767578125e+02,4.033146500587463379e-01,-6.667523193359375000e+01,-1.826890411376953125e+02,-2.343034982681274414e+00,7.562364959716796875e+01,3.135653114318847656e+01
8.868020176887512207e-01,1.000000000000000000e+00,-2.714430332183837891e+00,-5.232490301132202148e-01,5.244526863098144531e+00,-1.982114715576171875e+02,-8.789212036132812500e+01,-1.685407867431640625e+02,4.033146500587463379e-01,-6.667523193359375000e+01,-1.826890411376953125e+02,-2.343034982681274414e+00,7.562350463867187500e+01,3.135642242431640625e+01
8.924090266227722168e-01,1.000000000000000000e+00,-2.777757406234741211e+00,-4.689145982265472412e-01,5.251703739166259766e+00,-1.981556549072265625e+02,-8.781704711914062500e+01,-1.684760894775390625e+02,4.033146500587463379e-01,-6.667513275146484375e+01,-1.826890411376953125e+02,-2.343034982681274414e+00,7.562364959716796875e+01,3.135653114318847656e+01
8.963559865951538086e-01,1.000000000000000000e+00,-2.841314315795898438e+00,-4.146254360675811768e-01,5.258860588073730469e+00,-1.980999145507812500e+02,-8.774197387695312500e+01,-1.684103851318359375e+02,4.033146500587463379e-01,-6.667523193359375000e+01,-1.826890411376953125e+02,-2.343106746673583984e+00,7.562364959716796875e+01,3.135653114318847656e+01
9.004200100898742676e-01,1.000000000000000000e+00,-2.904842615127563477e+00,-3.601325750350952148e-01,5.266159534454345703e+00,-1.980449829101562500e+02,-8.766754913330078125e+01,-1.683446655273437500e+02,4.033146500587463379e-01,-6.667523193359375000e+01,-1.826892089843750000e+02,-2.343034982681274414e+00,7.562364959716796875e+01,3.135642242431640625e+01
9.054200053215026855e-01,1.000000000000000000e+00,-2.968342065811157227e+00,-3.057302534580230713e-01,5.273743152618408203e+00,-1.979891967773437500e+02,-8.759205627441406250e+01,-1.682802429199218750e+02,4.033146500587463379e-01,-6.667523193359375000e+01,-1.826890411376953125e+02,-2.343106746673583984e+00,7.562372589111328125e+01,3.135642242431640625e+01
9.092109799385070801e-01,1.000000000000000000e+00,-3.031812906265258789e+00,-2.511468827724456787e-01,5.281327247619628906e+00,-1.979336853027343750e+02,-8.751735687255859375e+01,-1.682145843505859375e+02,4.033146500587463379e-01,-6.667523193359375000e+01,-1.826890411376953125e+02,-2.343178272247314453e+00,7.562350463867187500e+01,3.135642242431640625e+01
9.107300043106079102e-01,1.000000000000000000e+00,-3.095340967178344727e+00,-1.965635269880294800e-01,5.288849830627441406e+00,-1.978780517578125000e+02,-8.744181060791015625e+01,-1.681488037109375000e+02,4.033146500587463379e-01,-6.667523193359375000e+01,-1.826890411376953125e+02,-2.343178272247314453e+00,7.562350463867187500e+01,3.135642242431640625e+01
9.147700071334838867e-01,1.000000000000000000e+00,-3.158869266510009766e+00,-1.421838253736495972e-01,5.296209812164306641e+00,-1.978219451904296875e+02,-8.736673736572265625e+01,-1.680845794677734375e+02,4.033146500587463379e-01,-6.667523193359375000e+01,-1.826890411376953125e+02,-2.343106746673583984e+00,7.562364959716796875e+01,3.135653114318847656e+01
9.187920093536376953e-01,1.000000000000000000e+00,-3.222339868545532227e+00,-8.766834437847137451e-02,5.303488731384277344e+00,-1.977667999267578125e+02,-8.729156494140625000e+01,-1.680183258056640625e+02,4.033146500587463379e-01,-6.667523193359375000e+01,-1.826892089843750000e+02,-2.343106746673583984e+00,7.562372589111328125e+01,3.135653114318847656e+01
9.245499968528747559e-01,1.000000000000000000e+00,-3.285782098770141602e+00,-3.308498114347457886e-02,5.310686588287353516e+00,-1.977113494873046875e+02,-8.721702575683593750e+01,-1.679537048339843750e+02,4.033146500587463379e-01,-6.667523193359375000e+01,-1.826890411376953125e+02,-2.343034982681274414e+00,7.562364959716796875e+01,3.135653114318847656e+01
9.300780296325683594e-01,1.000000000000000000e+00,-3.349367618560791016e+00,2.143049798905849457e-02,5.318006038665771484e+00,-1.976555480957031250e+02,-8.714233398437500000e+01,-1.678890075683593750e+02,4.033146500587463379e-01,-6.667523193359375000e+01,-1.826890411376953125e+02,-2.343034982681274414e+00,7.562372589111328125e+01,3.135653114318847656e+01
9.334579706192016602e-01,1.000000000000000000e+00,-3.412838220596313477e+00,7.594597339630126953e-02,5.325610160827636719e+00,-1.976001434326171875e+02,-8.706699371337890625e+01,-1.678232879638671875e+02,4.033146500587463379e-01,-6.667523193359375000e+01,-1.826890411376953125e+02,-2.343034982681274414e+00,7.562364959716796875e+01,3.135642242431640625e+01
9.367510080337524414e-01,1.000000000000000000e+00,-3.476510286331176758e+00,1.303030401468276978e-01,5.333376884460449219e+00,-1.975441589355468750e+02,-8.699176788330078125e+01,-1.677584533691406250e+02,4.033146500587463379e-01,-6.667523193359375000e+01,-1.826889343261718750e+02,-2.343106746673583984e+00,7.562364959716796875e+01,3.135642242431640625e+01
9.408879876136779785e-01,1.000000000000000000e+00,-3.540066957473754883e+00,1.847280114889144897e-01,5.341123104095458984e+00,-1.974891204833984375e+02,-8.691734313964843750e+01,-1.676933441162109375e+02,4.033146500587463379e-01,-6.667523193359375000e+01,-1.826890411376953125e+02,-2.343106746673583984e+00,7.562364959716796875e+01,3.135642242431640625e+01
9.447739720344543457e-01,1.000000000000000000e+00,-3.603681325912475586e+00,2.391076833009719849e-01,5.348645687103271484e+00,-1.974334411621093750e+02,-8.684237670898437500e+01,-1.676273651123046875e+02,4.033146500587463379e-01,-6.667523193359375000e+01,-1.826890411376953125e+02,-2.343034982681274414e+00,7.562364959716796875e+01,3.135642242431640625e+01
9.488109946250915527e-01,1.000000000000000000e+00,-3.667266845703125000e+00,2.933290004730224609e-01,5.356006145477294922e+00,-1.973776092529296875e+02,-8.676704406738281250e+01,-1.675623321533203125e+02,4.033146500587463379e-01,-6.667523193359375000e+01,-1.826892089843750000e+02,-2.343106746673583984e+00,7.562364959716796875e+01,3.135642242431640625e+01
9.530230164527893066e-01,1.000000000000000000e+00,-3.730536699295043945e+00,3.478897213935852051e-01,5.363264560699462891e+00,-1.973223876953125000e+02,-8.669181823730468750e+01,-1.674974212646484375e+02,4.033146500587463379e-01,-6.667523193359375000e+01,-1.826890411376953125e+02,-2.343034982681274414e+00,7.562364959716796875e+01,3.135653114318847656e+01
9.547749757766723633e-01,1.000000000000000000e+00,-3.794122219085693359e+00,4.024730920791625977e-01,5.370441436767578125e+00,-1.972663574218750000e+02,-8.661657714843750000e+01,-1.674317779541015625e+02,4.033146500587463379e-01,-6.667523193359375000e+01,-1.826890411376953125e+02,-2.343034982681274414e+00,7.562364959716796875e+01,3.135642242431640625e+01
9.611470103263854980e-01,1.000000000000000000e+00,-3.857564449310302734e+00,4.571017324924468994e-01,5.377740383148193359e+00,-1.972110443115234375e+02,-8.654167175292968750e+01,-1.673668823242187500e+02,4.033146500587463379e-01,-6.667523193359375000e+01,-1.826890411376953125e+02,-2.343106746673583984e+00,7.562364959716796875e+01,3.135653114318847656e+01
9.628009796142578125e-01,1.000000000000000000e+00,-3.920891523361206055e+00,5.115719437599182129e-01,5.385222434997558594e+00,-1.971556243896484375e+02,-8.646617889404296875e+01,-1.673014984130859375e+02,4.033146500587463379e-01,-6.667523193359375000e+01,-1.826890411376953125e+02,-2.343106746673583984e+00,7.562364959716796875e+01,3.135642242431640625e+01
9.688270092010498047e-01,1.000000000000000000e+00,-3.984390974044799805e+00,5.660874247550964355e-01,5.392704486846923828e+00,-1.971002197265625000e+02,-8.639153289794921875e+01,-1.672361297607421875e+02,4.033146500587463379e-01,-6.667523193359375000e+01,-1.826890411376953125e+02,-2.343034982681274414e+00,7.562364959716796875e+01,3.135642242431640625e+01
9.732229709625244141e-01,1.000000000000000000e+00,-4.047775745391845703e+00,6.206029057502746582e-01,5.400166511535644531e+00,-1.970453338623046875e+02,-8.631651306152343750e+01,-1.671712951660156250e+02,4.033146500587463379e-01,-6.667523193359375000e+01,-1.826890411376953125e+02,-2.343034982681274414e+00,7.562350463867187500e+01,3.135642242431640625e+01
9.747570157051086426e-01,1.000000000000000000e+00,-4.111103057861328125e+00,6.749147176742553711e-01,5.407628059387207031e+00,-1.969890289306640625e+02,-8.624155426025390625e+01,-1.671062011718750000e+02,4.033146500587463379e-01,-6.667523193359375000e+01,-1.826890411376953125e+02,-2.343034982681274414e+00,7.562350463867187500e+01,3.135642242431640625e+01
9.797760248184204102e-01,1.000000000000000000e+00,-4.174545288085937500e+00,7.294754385948181152e-01,5.414866447448730469e+00,-1.969332427978515625e+02,-8.616531372070312500e+01,-1.670404815673828125e+02,4.033146500587463379e-01,-6.667523193359375000e+01,-1.826890411376953125e+02,-2.343034982681274414e+00,7.562364959716796875e+01,3.135642242431640625e+01
9.837480187416076660e-01,1.000000000000000000e+00,-4.237958431243896484e+00,7.839682698249816895e-01,5.422023296356201172e+00,-1.968783569335937500e+02,-8.609098815917968750e+01,-1.669757843017578125e+02,4.033146500587463379e-01,-6.667531585693359375e+01,-1.826890411376953125e+02,-2.343034982681274414e+00,7.562364959716796875e+01,3.135653114318847656e+01
9.878489971160888672e-01,1.000000000000000000e+00,-4.301314353942871094e+00,8.383479714393615723e-01,5.429322242736816406e+00,-1.968224639892578125e+02,-8.601613616943359375e+01,-1.669103393554687500e+02,4.033146500587463379e-01,-6.667523193359375000e+01,-1.826890411376953125e+02,-2.343106746673583984e+00,7.562364959716796875e+01,3.135642242431640625e+01
9.908040165901184082e-01,1.000000000000000000e+00,-4.364727973937988281e+00,8.927050232887268066e-01,5.436865329742431641e+00,-1.967671051025390625e+02,-8.594122314453125000e+01,-1.668455657958984375e+02,4.033146500587463379e-01,-6.667523193359375000e+01,-1.826890411376953125e+02,-2.343106746673583984e+00,7.562364959716796875e+01,3.135653114318847656e+01
9.971650242805480957e-01,1.000000000000000000e+00,-4.364727973937988281e+00,8.927050232887268066e-01,5.436865329742431641e+00,-1.967671051025390625e+02,-8.594122314453125000e+01,-1.668455657958984375e+02,4.033146500587463379e-01,-6.667523193359375000e+01,-1.826890411376953125e+02,-2.342891216278076172e+00,7.562372589111328125e+01,3.135619926452636719e+01
9.987419843673706055e-01,1.000000000000000000e+00,-4.491554260253906250e+00,1.001215577125549316e+00,5.452419281005859375e+00,-1.966556549072265625e+02,-8.579055786132812500e+01,-1.667152252197265625e+02,4.033146500587463379e-01,-6.667523193359375000e+01,-1.826890411376953125e+02,-2.343106746673583984e+00,7.562364959716796875e+01,3.135653114318847656e+01
1.006114959716796875e+00,1.000000000000000000e+00,-4.491554260253906250e+00,1.001215577125549316e+00,5.452419281005859375e+00,-1.966556549072265625e+02,-8.579055786132812500e+01,-1.667152252197265625e+02,4.033146500587463379e-01,-6.667523193359375000e+01,-1.826890411376953125e+02,-2.343106746673583984e+00,7.562364959716796875e+01,3.135653114318847656e+01
1.007506966590881348e+00,1.000000000000000000e+00,-4.618409633636474609e+00,1.109771251678466797e+00,5.467302322387695312e+00,-1.965448303222656250e+02,-8.564068603515625000e+01,-1.665851440429687500e+02,4.033146500587463379e-01,-6.667523193359375000e+01,-1.826890411376953125e+02,-2.343106746673583984e+00,7.562364959716796875e+01,3.135642242431640625e+01
1.011800050735473633e+00,1.000000000000000000e+00,-4.681679725646972656e+00,1.164309382438659668e+00,5.474520206451416016e+00,-1.964893493652343750e+02,-8.556471252441406250e+01,-1.665193023681640625e+02,4.033146500587463379e-01,-6.667531585693359375e+01,-1.826892089843750000e+02,-2.343106746673583984e+00,7.562364959716796875e+01,3.135642242431640625e+01
1.014806032180786133e+00,1.000000000000000000e+00,-4.744633674621582031e+00,1.218757033348083496e+00,5.481595039367675781e+00,-1.964339447021484375e+02,-8.549006652832031250e+01,-1.664543304443359375e+02,4.033146500587463379e-01,-6.667523193359375000e+01,-1.826890411376953125e+02,-2.343106746673583984e+00,7.562364959716796875e+01,3.135653114318847656e+01
1.019791960716247559e+00,1.000000000000000000e+00,-4.744633674621582031e+00,1.218757033348083496e+00,5.481595039367675781e+00,-1.964339447021484375e+02,-8.549006652832031250e+01,-1.664543304443359375e+02,4.033146500587463379e-01,-6.667523193359375000e+01,-1.826890411376953125e+02,-2.343106746673583984e+00,7.562364959716796875e+01,3.135653114318847656e+01
1.023790001869201660e+00,1.000000000000000000e+00,-4.870943546295166016e+00,1.327765345573425293e+00,5.496478080749511719e+00,-1.963228607177734375e+02,-8.534056091308593750e+01,-1.663238525390625000e+02,4.033146500587463379e-01,-6.667523193359375000e+01,-1.826890411376953125e+02,-2.343106746673583984e+00,7.562364959716796875e+01,3.135653114318847656e+01
1.027737975120544434e+00,1.000000000000000000e+00,-4.934069633483886719e+00,1.382099628448486328e+00,5.504082202911376953e+00,-1.962674407958984375e+02,-8.526470184326171875e+01,-1.662588195800781250e+02,4.033146500587463379e-01,-6.667523193359375000e+01,-1.826890411376953125e+02,-2.343106746673583984e+00,7.562364959716796875e+01,3.135642242431640625e+01
1.031833052635192871e+00,1.000000000000000000e+00,-4.997167587280273438e+00,1.436411499977111816e+00,5.511523723602294922e+00,-1.962116699218750000e+02,-8.518994903564453125e+01,-1.661935119628906250e+02,4.033146500587463379e-01,-6.667523193359375000e+01,-1.826892089843750000e+02,-2.343034982681274414e+00,7.562364959716796875e+01,3.135653114318847656e+01
1.034739971160888672e+00,1.000000000000000000e+00,-5.060494899749755859e+00,1.490813851356506348e+00,5.518904209136962891e+00,-1.961563568115234375e+02,-8.511551666259765625e+01,-1.661277313232421875e+02,4.033146500587463379e-01,-6.667523193359375000e+01,-1.826890411376953125e+02,-2.343106746673583984e+00,7.562364959716796875e+01,3.135642242431640625e+01
1.039872050285339355e+00,1.000000000000000000e+00,-5.060494899749755859e+00,1.490813851356506348e+00,5.518904209136962891e+00,-1.961563568115234375e+02,-8.511551666259765625e+01,-1.661277313232421875e+02,4.033146500587463379e-01,-6.667523193359375000e+01,-1.826890411376953125e+02,-2.343106746673583984e+00,7.562364959716796875e+01,3.135642242431640625e+01
1.042744994163513184e+00,1.000000000000000000e+00,-5.186804771423339844e+00,1.599709033966064453e+00,5.533298969268798828e+00,-1.960456390380859375e+02,-8.496485137939453125e+01,-1.659980010986328125e+02,4.033146500587463379e-01,-6.667523193359375000e+01,-1.826890411376953125e+02,-2.342891216278076172e+00,7.562364959716796875e+01,3.135653114318847656e+01
1.047868013381958008e+00,1.000000000000000000e+00,-5.186804771423339844e+00,1.599709033966064453e+00,5.533298969268798828e+00,-1.960456390380859375e+02,-8.496485137939453125e+01,-1.659980010986328125e+02,4.033146500587463379e-01,-6.667523193359375000e+01,-1.826890411376953125e+02,-2.342891216278076172e+00,7.562364959716796875e+01,3.135653114318847656e+01
1.051728963851928711e+00,1.000000000000000000e+00,-5.313344001770019531e+00,1.708332657814025879e+00,5.547938346862792969e+00,-1.959342803955078125e+02,-8.481518554687500000e+01,-1.658679199218750000e+02,4.033146500587463379e-01,-6.667523193359375000e+01,-1.826890411376953125e+02,-2.343034982681274414e+00,7.562364959716796875e+01,3.135653114318847656e+01
1.055727005004882812e+00,1.000000000000000000e+00,-5.376614570617675781e+00,1.762327551841735840e+00,5.555684566497802734e+00,-1.958789062500000000e+02,-8.473969268798828125e+01,-1.658023376464843750e+02,4.033146500587463379e-01,-6.667523193359375000e+01,-1.826890411376953125e+02,-2.343034982681274414e+00,7.562372589111328125e+01,3.135653114318847656e+01
1.058750033378601074e+00,1.000000000000000000e+00,-5.439884185791015625e+00,1.816843152046203613e+00,5.563349723815917969e+00,-1.958230895996093750e+02,-8.466484069824218750e+01,-1.657372283935546875e+02,4.033146500587463379e-01,-6.667523193359375000e+01,-1.826890411376953125e+02,-2.343106746673583984e+00,7.562364959716796875e+01,3.135653114318847656e+01
1.063861012458801270e+00,1.000000000000000000e+00,-5.439884185791015625e+00,1.816843152046203613e+00,5.563349723815917969e+00,-1.958230895996093750e+02,-8.466484069824218750e+01,-1.657372283935546875e+02,4.033146500587463379e-01,-6.667523193359375000e+01,-1.826890411376953125e+02,-2.343106746673583984e+00,7.562364959716796875e+01,3.135653114318847656e+01
1.067739009857177734e+00,1.000000000000000000e+00,-5.566538333892822266e+00,1.925851464271545410e+00,5.578415393829345703e+00,-1.957121429443359375e+02,-8.451517486572265625e+01,-1.656075744628906250e+02,4.033146500587463379e-01,-6.667523193359375000e+01,-1.826890411376953125e+02,-2.343106746673583984e+00,7.562364959716796875e+01,3.135642242431640625e+01
1.071758985519409180e+00,1.000000000000000000e+00,-5.629636287689208984e+00,1.980344176292419434e+00,5.585592746734619141e+00,-1.956567382812500000e+02,-8.443984985351562500e+01,-1.655426025390625000e+02,4.033146500587463379e-01,-6.667523193359375000e+01,-1.826890411376953125e+02,-2.343034982681274414e+00,7.562364959716796875e+01,3.135653114318847656e+01
1.075726985931396484e+00,1.000000000000000000e+00,-5.693078041076660156e+00,2.034746646881103516e+00,5.592749118804931641e+00,-1.956013183593750000e+02,-8.436483001708984375e+01,-1.654777069091796875e+02,4.033146500587463379e-01,-6.667523193359375000e+01,-1.826890411376953125e+02,-2.343106746673583984e+00,7.562364959716796875e+01,3.135642242431640625e+01
1.079746007919311523e+00,1.000000000000000000e+00,-5.756348133087158203e+00,2.089126348495483398e+00,5.600068569183349609e+00,-1.955454406738281250e+02,-8.428981781005859375e+01,-1.654117126464843750e+02,4.033146500587463379e-01,-6.667523193359375000e+01,-1.826890411376953125e+02,-2.342891216278076172e+00,7.562364959716796875e+01,3.135653114318847656e+01
1.083755016326904297e+00,1.000000000000000000e+00,-5.819703578948974609e+00,2.143392801284790039e+00,5.607652187347412109e+00,-1.954903411865234375e+02,-8.421516418457031250e+01,-1.653465423583984375e+02,4.033146500587463379e-01,-6.667523193359375000e+01,-1.826890411376953125e+02,-2.343034982681274414e+00,7.562364959716796875e+01,3.135653114318847656e+01
1.087792038917541504e+00,1.000000000000000000e+00,-5.883145809173583984e+00,2.197840452194213867e+00,5.615297317504882812e+00,-1.954348754882812500e+02,-8.414009857177734375e+01,-1.652819213867187500e+02,4.033146500587463379e-01,-6.667531585693359375e+01,-1.826892089843750000e+02,-2.343106746673583984e+00,7.562364959716796875e+01,3.135642242431640625e+01
1.090806007385253906e+00,1.000000000000000000e+00,-5.946530342102050781e+00,2.252242803573608398e+00,5.622819900512695312e+00,-1.953788299560546875e+02,-8.406524658203125000e+01,-1.652166748046875000e+02,4.033146500587463379e-01,-6.667523193359375000e+01,-1.826890411376953125e+02,-2.343106746673583984e+00,7.562364959716796875e+01,3.135653114318847656e+01
1.095811963081359863e+00,1.000000000000000000e+00,-5.946530342102050781e+00,2.252242803573608398e+00,5.622819900512695312e+00,-1.953788299560546875e+02,-8.406524658203125000e+01,-1.652166748046875000e+02,4.033146500587463379e-01,-6.667523193359375000e+01,-1.826890411376953125e+02,-2.343106746673583984e+00,7.562364959716796875e+01,3.135653114318847656e+01
1.099799990653991699e+00,1.000000000000000000e+00,-6.073214054107666016e+00,2.360843896865844727e+00,5.637336730957031250e+00,-1.952681579589843750e+02,-8.391500091552734375e+01,-1.650868835449218750e+02,4.033146500587463379e-01,-6.667523193359375000e+01,-1.826890411376953125e+02,-2.343106746673583984e+00,7.562364959716796875e+01,3.135653114318847656e+01
1.103811025619506836e+00,1.000000000000000000e+00,-6.136598587036132812e+00,2.415019750595092773e+00,5.644534587860107422e+00,-1.952128601074218750e+02,-8.383987426757812500e+01,-1.650209503173828125e+02,4.033146500587463379e-01,-6.667523193359375000e+01,-1.826890411376953125e+02,-2.343106746673583984e+00,7.562364959716796875e+01,3.135653114318847656e+01
1.110121011734008789e+00,1.000000000000000000e+00,-6.200184345245361328e+00,2.469376802444458008e+00,5.651854038238525391e+00,-1.951578674316406250e+02,-8.376544952392578125e+01,-1.649566650390625000e+02,4.033146500587463379e-01,-6.667523193359375000e+01,-1.826889343261718750e+02,-2.343106746673583984e+00,7.562364959716796875e+01,3.135653114318847656e+01
