rpiRobotics/ARM-21-02-F-19-Robot-Motion-Program/data_performance_abb/curve_2/curve_pose_opt2/greedy0.02/grad_result/real/run_2.csv
timestamp,cmd_num,J1,J2,J3,J4,J5,J6
1.420000044163316488e-04,-1.000000000000000000e+00,9.288291931152343750e+00,-1.082882404327392578e+01,3.840473651885986328e+00,-2.087334899902343750e+02,-1.021039123535156250e+02,-1.808818969726562500e+02,4.033146500587463379e-01,-6.667523193359375000e+01,-1.826889343261718750e+02,-2.343106746673583984e+00,7.562364959716796875e+01,3.135619926452636719e+01
3.872999921441078186e-03,1.000000000000000000e+00,9.288377761840820312e+00,-1.082882404327392578e+01,3.840473651885986328e+00,-2.087334899902343750e+02,-1.021039123535156250e+02,-1.808818969726562500e+02,4.033146500587463379e-01,-6.667523193359375000e+01,-1.826889343261718750e+02,-2.343034982681274414e+00,7.562350463867187500e+01,3.135619926452636719e+01
8.967000059783458710e-03,1.000000000000000000e+00,9.288377761840820312e+00,-1.082886981964111328e+01,3.840473651885986328e+00,-2.087334899902343750e+02,-1.021039123535156250e+02,-1.808817596435546875e+02,4.033146500587463379e-01,-6.667523193359375000e+01,-1.826889343261718750e+02,-2.343106746673583984e+00,7.562364959716796875e+01,3.135619926452636719e+01
1.247700024396181107e-02,1.000000000000000000e+00,9.288377761840820312e+00,-1.082882404327392578e+01,3.840473651885986328e+00,-2.087334899902343750e+02,-1.021039123535156250e+02,-1.808817596435546875e+02,4.033146500587463379e-01,-6.667523193359375000e+01,-1.826889343261718750e+02,-2.343106746673583984e+00,7.562350463867187500e+01,3.135619926452636719e+01
3.729600086808204651e-02,1.000000000000000000e+00,9.288377761840820312e+00,-1.082886981964111328e+01,3.840432643890380859e+00,-2.087334899902343750e+02,-1.021040725708007812e+02,-1.808817596435546875e+02,4.033146500587463379e-01,-6.667523193359375000e+01,-1.826889343261718750e+02,-2.343178272247314453e+00,7.562372589111328125e+01,3.135619926452636719e+01
3.988000005483627319e-02,1.000000000000000000e+00,9.288377761840820312e+00,-1.082882404327392578e+01,3.840432643890380859e+00,-2.087334899902343750e+02,-1.021040725708007812e+02,-1.808818969726562500e+02,4.033146500587463379e-01,-6.667523193359375000e+01,-1.826889343261718750e+02,-2.343178272247314453e+00,7.562372589111328125e+01,3.135619926452636719e+01
4.117200151085853577e-02,1.000000000000000000e+00,9.288377761840820312e+00,-1.082882404327392578e+01,3.840432643890380859e+00,-2.087334899902343750e+02,-1.021040725708007812e+02,-1.808818969726562500e+02,4.033146500587463379e-01,-6.667523193359375000e+01,-1.826889343261718750e+02,-2.343178272247314453e+00,7.562372589111328125e+01,3.135619926452636719e+01
4.844800010323524475e-02,1.000000000000000000e+00,9.288377761840820312e+00,-1.082882404327392578e+01,3.840473651885986328e+00,-2.087335815429687500e+02,-1.021040725708007812e+02,-1.808817596435546875e+02,4.033146500587463379e-01,-6.667523193359375000e+01,-1.826889343261718750e+02,-2.343106746673583984e+00,7.562364959716796875e+01,3.135642242431640625e+01
4.976300150156021118e-02,1.000000000000000000e+00,9.288377761840820312e+00,-1.082882404327392578e+01,3.840473651885986328e+00,-2.087334899902343750e+02,-1.021040725708007812e+02,-1.808817596435546875e+02,4.033146500587463379e-01,-6.667523193359375000e+01,-1.826889343261718750e+02,-2.343106746673583984e+00,7.562372589111328125e+01,3.135642242431640625e+01
5.312899872660636902e-02,1.000000000000000000e+00,9.288233757019042969e+00,-1.082875633239746094e+01,3.840473651885986328e+00,-2.087334899902343750e+02,-1.021040725708007812e+02,-1.808818969726562500e+02,4.033146500587463379e-01,-6.667523193359375000e+01,-1.826890411376953125e+02,-2.343106746673583984e+00,7.562364959716796875e+01,3.135619926452636719e+01
5.567299947142601013e-02,1.000000000000000000e+00,9.287716865539550781e+00,-1.082853031158447266e+01,3.840473651885986328e+00,-2.087334899902343750e+02,-1.021040725708007812e+02,-1.808817596435546875e+02,4.033146500587463379e-01,-6.667523193359375000e+01,-1.826889343261718750e+02,-2.343034982681274414e+00,7.562364959716796875e+01,3.135619926452636719e+01
5.698199942708015442e-02,1.000000000000000000e+00,9.287716865539550781e+00,-1.082853031158447266e+01,3.840473651885986328e+00,-2.087334899902343750e+02,-1.021040725708007812e+02,-1.808817596435546875e+02,4.033146500587463379e-01,-6.667523193359375000e+01,-1.826889343261718750e+02,-2.343034982681274414e+00,7.562364959716796875e+01,3.135619926452636719e+01
6.004400178790092468e-02,1.000000000000000000e+00,9.286626815795898438e+00,-1.082785129547119141e+01,3.840473651885986328e+00,-2.087334899902343750e+02,-1.021040725708007812e+02,-1.808818969726562500e+02,4.033146500587463379e-01,-6.667523193359375000e+01,-1.826889343261718750e+02,-2.343178272247314453e+00,7.562350463867187500e+01,3.135619926452636719e+01
6.358099728822708130e-02,1.000000000000000000e+00,9.285047531127929688e+00,-1.082642555236816406e+01,3.840534687042236328e+00,-2.087334899902343750e+02,-1.021038055419921875e+02,-1.808818969726562500e+02,4.033146500587463379e-01,-6.667523193359375000e+01,-1.826889343261718750e+02,-2.343034982681274414e+00,7.562364959716796875e+01,3.135619926452636719e+01
6.486299633979797363e-02,1.000000000000000000e+00,9.285047531127929688e+00,-1.082642555236816406e+01,3.840534687042236328e+00,-2.087334899902343750e+02,-1.021038055419921875e+02,-1.808818969726562500e+02,4.033146500587463379e-01,-6.667523193359375000e+01,-1.826889343261718750e+02,-2.343034982681274414e+00,7.562364959716796875e+01,3.135619926452636719e+01
6.733699887990951538e-02,1.000000000000000000e+00,9.285047531127929688e+00,-1.082642555236816406e+01,3.840534687042236328e+00,-2.087334899902343750e+02,-1.021038055419921875e+02,-1.808818969726562500e+02,4.033146500587463379e-01,-6.667523193359375000e+01,-1.826889343261718750e+02,-2.343034982681274414e+00,7.562364959716796875e+01,3.135619926452636719e+01
7.196199893951416016e-02,1.000000000000000000e+00,9.282320022583007812e+00,-1.082429790496826172e+01,3.840534687042236328e+00,-2.087334899902343750e+02,-1.021036453247070312e+02,-1.808817596435546875e+02,4.033146500587463379e-01,-6.667523193359375000e+01,-1.826889343261718750e+02,-2.343034982681274414e+00,7.562364959716796875e+01,3.135619926452636719e+01
7.346899807453155518e-02,1.000000000000000000e+00,9.278818130493164062e+00,-1.082135677337646484e+01,3.840636253356933594e+00,-2.087333221435546875e+02,-1.021030120849609375e+02,-1.808816223144531250e+02,4.033146500587463379e-01,-6.667523193359375000e+01,-1.826889343261718750e+02,-2.343034982681274414e+00,7.562364959716796875e+01,3.135619926452636719e+01
7.605200260877609253e-02,1.000000000000000000e+00,9.274196624755859375e+00,-1.081721496582031250e+01,3.840717554092407227e+00,-2.087331237792968750e+02,-1.021017837524414062e+02,-1.808811492919921875e+02,4.033146500587463379e-01,-6.667523193359375000e+01,-1.826889343261718750e+02,-2.343106746673583984e+00,7.562364959716796875e+01,3.135619926452636719e+01
7.735700160264968872e-02,1.000000000000000000e+00,9.274196624755859375e+00,-1.081721496582031250e+01,3.840717554092407227e+00,-2.087331237792968750e+02,-1.021017837524414062e+02,-1.808811492919921875e+02,4.033146500587463379e-01,-6.667523193359375000e+01,-1.826889343261718750e+02,-2.343106746673583984e+00,7.562364959716796875e+01,3.135619926452636719e+01
8.180899918079376221e-02,1.000000000000000000e+00,9.268368721008300781e+00,-1.081180667877197266e+01,3.841063261032104492e+00,-2.087320709228515625e+02,-1.020998611450195312e+02,-1.808805389404296875e+02,4.033146500587463379e-01,-6.667523193359375000e+01,-1.826889343261718750e+02,-2.343034982681274414e+00,7.562364959716796875e+01,3.135619926452636719e+01
8.532200008630752563e-02,1.000000000000000000e+00,9.261135101318359375e+00,-1.080436134338378906e+01,3.841551065444946289e+00,-2.087296447753906250e+02,-1.020966644287109375e+02,-1.808782958984375000e+02,4.033146500587463379e-01,-6.667523193359375000e+01,-1.826889343261718750e+02,-2.343106746673583984e+00,7.562364959716796875e+01,3.135619926452636719e+01
8.790799975395202637e-02,1.000000000000000000e+00,9.252322196960449219e+00,-1.079483413696289062e+01,3.842181205749511719e+00,-2.087260131835937500e+02,-1.020921859741210938e+02,-1.808744354248046875e+02,4.033146500587463379e-01,-6.667523193359375000e+01,-1.826889343261718750e+02,-2.343178272247314453e+00,7.562364959716796875e+01,3.135619926452636719e+01
8.921100199222564697e-02,1.000000000000000000e+00,9.252322196960449219e+00,-1.079483413696289062e+01,3.842181205749511719e+00,-2.087260131835937500e+02,-1.020921859741210938e+02,-1.808744354248046875e+02,4.033146500587463379e-01,-6.667523193359375000e+01,-1.826889343261718750e+02,-2.343178272247314453e+00,7.562364959716796875e+01,3.135619926452636719e+01
9.606400132179260254e-02,1.000000000000000000e+00,9.241269111633300781e+00,-1.078297615051269531e+01,3.843014955520629883e+00,-2.087213287353515625e+02,-1.020858383178710938e+02,-1.808686676025390625e+02,4.033146500587463379e-01,-6.667523193359375000e+01,-1.826889343261718750e+02,-2.343178272247314453e+00,7.562350463867187500e+01,3.135619926452636719e+01
9.748999774456024170e-02,1.000000000000000000e+00,9.227461814880371094e+00,-1.076867389678955078e+01,3.844133377075195312e+00,-2.087147369384765625e+02,-1.020771484375000000e+02,-1.808609313964843750e+02,4.033146500587463379e-01,-6.667523193359375000e+01,-1.826889343261718750e+02,-2.343106746673583984e+00,7.562364959716796875e+01,3.135619926452636719e+01
1.003289967775344849e-01,1.000000000000000000e+00,9.210954666137695312e+00,-1.075179195404052734e+01,3.845759868621826172e+00,-2.087055206298828125e+02,-1.020654678344726562e+02,-1.808508300781250000e+02,4.033146500587463379e-01,-6.667523193359375000e+01,-1.826889343261718750e+02,-2.343106746673583984e+00,7.562364959716796875e+01,3.135619926452636719e+01
1.036870032548904419e-01,1.000000000000000000e+00,9.210954666137695312e+00,-1.075179195404052734e+01,3.845759868621826172e+00,-2.087055206298828125e+02,-1.020654678344726562e+02,-1.808508300781250000e+02,4.033146500587463379e-01,-6.667523193359375000e+01,-1.826889343261718750e+02,-2.343106746673583984e+00,7.562364959716796875e+01,3.135619926452636719e+01
1.075619980692863464e-01,1.000000000000000000e+00,9.191406250000000000e+00,-1.073251152038574219e+01,3.847671031951904297e+00,-2.086942443847656250e+02,-1.020506515502929688e+02,-1.808379516601562500e+02,4.033146500587463379e-01,-6.667523193359375000e+01,-1.826889343261718750e+02,-2.343106746673583984e+00,7.562364959716796875e+01,3.135619926452636719e+01
1.117089986801147461e-01,1.000000000000000000e+00,9.169589042663574219e+00,-1.071126174926757812e+01,3.849805831909179688e+00,-2.086798095703125000e+02,-1.020320968627929688e+02,-1.808219451904296875e+02,4.033146500587463379e-01,-6.667523193359375000e+01,-1.826889343261718750e+02,-2.343034982681274414e+00,7.562364959716796875e+01,3.135619926452636719e+01
1.161660030484199524e-01,1.000000000000000000e+00,9.145503997802734375e+00,-1.068883514404296875e+01,3.852286577224731445e+00,-2.086624298095703125e+02,-1.020098114013671875e+02,-1.808026123046875000e+02,4.033146500587463379e-01,-6.667523193359375000e+01,-1.826889343261718750e+02,-2.343106746673583984e+00,7.562364959716796875e+01,3.135619926452636719e+01
1.195499971508979797e-01,1.000000000000000000e+00,9.119035720825195312e+00,-1.066525554656982422e+01,3.855132579803466797e+00,-2.086419372558593750e+02,-1.019827270507812500e+02,-1.807789459228515625e+02,4.033146500587463379e-01,-6.667523193359375000e+01,-1.826889343261718750e+02,-2.343106746673583984e+00,7.562372589111328125e+01,3.135619926452636719e+01
1.245710030198097229e-01,1.000000000000000000e+00,9.089726448059082031e+00,-1.064013671875000000e+01,3.858284235000610352e+00,-2.086188659667968750e+02,-1.019497756958007812e+02,-1.807514038085937500e+02,4.033146500587463379e-01,-6.667523193359375000e+01,-1.826889343261718750e+02,-2.343106746673583984e+00,7.562350463867187500e+01,3.135642242431640625e+01
1.278800070285797119e-01,1.000000000000000000e+00,9.058119773864746094e+00,-1.061320686340332031e+01,3.861821889877319336e+00,-2.085921020507812500e+02,-1.019122467041015625e+02,-1.807195434570312500e+02,4.033146500587463379e-01,-6.667531585693359375e+01,-1.826889343261718750e+02,-2.343106746673583984e+00,7.562364959716796875e+01,3.135619926452636719e+01
1.331579983234405518e-01,1.000000000000000000e+00,9.023586273193359375e+00,-1.058419418334960938e+01,3.865786790847778320e+00,-2.085611419677734375e+02,-1.018720397949218750e+02,-1.806829833984375000e+02,4.033146500587463379e-01,-6.667523193359375000e+01,-1.826889343261718750e+02,-2.343106746673583984e+00,7.562364959716796875e+01,3.135642242431640625e+01
1.365520060062408447e-01,1.000000000000000000e+00,8.986381530761718750e+00,-1.055346298217773438e+01,3.870015621185302734e+00,-2.085256958007812500e+02,-1.018275756835937500e+02,-1.806412048339843750e+02,4.033146500587463379e-01,-6.667523193359375000e+01,-1.826889343261718750e+02,-2.343106746673583984e+00,7.562364959716796875e+01,3.135642242431640625e+01
1.398359984159469604e-01,1.000000000000000000e+00,8.946565628051757812e+00,-1.052130603790283203e+01,3.874732732772827148e+00,-2.084866027832031250e+02,-1.017757034301757812e+02,-1.805968627929687500e+02,4.033146500587463379e-01,-6.667523193359375000e+01,-1.826889343261718750e+02,-2.343106746673583984e+00,7.562364959716796875e+01,3.135642242431640625e+01
1.437900066375732422e-01,1.000000000000000000e+00,8.904308319091796875e+00,-1.048738384246826172e+01,3.879714012145996094e+00,-2.084461517333984375e+02,-1.017200927734375000e+02,-1.805497283935546875e+02,4.033146500587463379e-01,-6.667523193359375000e+01,-1.826889343261718750e+02,-2.343034982681274414e+00,7.562364959716796875e+01,3.135619926452636719e+01
1.486700028181076050e-01,1.000000000000000000e+00,8.859899520874023438e+00,-1.045194530487060547e+01,3.884938955307006836e+00,-2.084033203125000000e+02,-1.016623992919921875e+02,-1.804994049072265625e+02,4.033146500587463379e-01,-6.667523193359375000e+01,-1.826889343261718750e+02,-2.343106746673583984e+00,7.562364959716796875e+01,3.135619926452636719e+01
1.520590037107467651e-01,1.000000000000000000e+00,8.813710212707519531e+00,-1.041460609436035156e+01,3.890509843826293945e+00,-2.083562927246093750e+02,-1.016000213623046875e+02,-1.804432525634765625e+02,4.033146500587463379e-01,-6.667523193359375000e+01,-1.826890411376953125e+02,-2.343106746673583984e+00,7.562364959716796875e+01,3.135619926452636719e+01
1.558060050010681152e-01,1.000000000000000000e+00,8.765281677246093750e+00,-1.037525272369384766e+01,3.896426677703857422e+00,-2.083065643310546875e+02,-1.015351867675781250e+02,-1.803850708007812500e+02,4.033146500587463379e-01,-6.667523193359375000e+01,-1.826889343261718750e+02,-2.343106746673583984e+00,7.562364959716796875e+01,3.135619926452636719e+01
1.600430011749267578e-01,1.000000000000000000e+00,8.714298248291015625e+00,-1.033345508575439453e+01,3.902892112731933594e+00,-2.082563018798828125e+02,-1.014672698974609375e+02,-1.803269348144531250e+02,4.033146500587463379e-01,-6.667523193359375000e+01,-1.826889343261718750e+02,-2.343106746673583984e+00,7.562364959716796875e+01,3.135619926452636719e+01
1.640619933605194092e-01,1.000000000000000000e+00,8.660875320434570312e+00,-1.028919124603271484e+01,3.909438848495483398e+00,-2.082043304443359375e+02,-1.013971023559570312e+02,-1.802661743164062500e+02,4.033146500587463379e-01,-6.667523193359375000e+01,-1.826889343261718750e+02,-2.343034982681274414e+00,7.562364959716796875e+01,3.135619926452636719e+01
1.679710000753402710e-01,1.000000000000000000e+00,8.605470657348632812e+00,-1.024252796173095703e+01,3.916067123413085938e+00,-2.081511840820312500e+02,-1.013255538940429688e+02,-1.802027130126953125e+02,4.033146500587463379e-01,-6.667523193359375000e+01,-1.826889343261718750e+02,-2.343178272247314453e+00,7.562364959716796875e+01,3.135619926452636719e+01
1.729010045528411865e-01,1.000000000000000000e+00,8.548544883728027344e+00,-1.019398689270019531e+01,3.922756195068359375e+00,-2.080971984863281250e+02,-1.012528305053710938e+02,-1.801396942138671875e+02,4.033146500587463379e-01,-6.667523193359375000e+01,-1.826889343261718750e+02,-2.343034982681274414e+00,7.562364959716796875e+01,3.135619926452636719e+01
1.762059926986694336e-01,1.000000000000000000e+00,8.490270614624023438e+00,-1.014388465881347656e+01,3.929628610610961914e+00,-2.080417175292968750e+02,-1.011798400878906250e+02,-1.800754089355468750e+02,4.033146500587463379e-01,-6.667523193359375000e+01,-1.826889343261718750e+02,-2.343106746673583984e+00,7.562364959716796875e+01,3.135619926452636719e+01
1.802909970283508301e-01,1.000000000000000000e+00,8.430561065673828125e+00,-1.009271812438964844e+01,3.936825990676879883e+00,-2.079864044189453125e+02,-1.011050949096679688e+02,-1.800098266601562500e+02,4.033146500587463379e-01,-6.667523193359375000e+01,-1.826889343261718750e+02,-2.343106746673583984e+00,7.562364959716796875e+01,3.135619926452636719e+01
1.844680011272430420e-01,1.000000000000000000e+00,8.370045661926269531e+00,-1.004010295867919922e+01,3.944226741790771484e+00,-2.079306335449218750e+02,-1.010294876098632812e+02,-1.799448699951171875e+02,4.033146500587463379e-01,-6.667531585693359375e+01,-1.826889343261718750e+02,-2.343178272247314453e+00,7.562364959716796875e+01,3.135619926452636719e+01
1.882160007953643799e-01,1.000000000000000000e+00,8.308412551879882812e+00,-9.986945152282714844e+00,3.951505661010742188e+00,-2.078748016357421875e+02,-1.009540405273437500e+02,-1.798782653808593750e+02,4.033146500587463379e-01,-6.667523193359375000e+01,-1.826889343261718750e+02,-2.343106746673583984e+00,7.562364959716796875e+01,3.135619926452636719e+01
1.922380030155181885e-01,1.000000000000000000e+00,8.245946884155273438e+00,-9.933132171630859375e+00,3.958743572235107422e+00,-2.078191833496093750e+02,-1.008787612915039062e+02,-1.798120117187500000e+02,4.033146500587463379e-01,-6.667523193359375000e+01,-1.826890411376953125e+02,-2.343106746673583984e+00,7.562364959716796875e+01,3.135619926452636719e+01
1.971219927072525024e-01,1.000000000000000000e+00,8.182848930358886719e+00,-9.878684997558593750e+00,3.966063022613525391e+00,-2.077627105712890625e+02,-1.008032150268554688e+02,-1.797470397949218750e+02,4.033146500587463379e-01,-6.667523193359375000e+01,-1.826889343261718750e+02,-2.343106746673583984e+00,7.562364959716796875e+01,3.135619926452636719e+01
2.005050033330917358e-01,1.000000000000000000e+00,8.119005203247070312e+00,-9.823829650878906250e+00,3.973545074462890625e+00,-2.077067108154296875e+02,-1.007269210815429688e+02,-1.796803741455078125e+02,4.033146500587463379e-01,-6.667523193359375000e+01,-1.826889343261718750e+02,-2.343106746673583984e+00,7.562364959716796875e+01,3.135619926452636719e+01
2.043879926204681396e-01,1.000000000000000000e+00,8.054960250854492188e+00,-9.768589973449707031e+00,3.981190204620361328e+00,-2.076502532958984375e+02,-1.006508941650390625e+02,-1.796139984130859375e+02,4.033146500587463379e-01,-6.667523193359375000e+01,-1.826889343261718750e+02,-2.343106746673583984e+00,7.562364959716796875e+01,3.135619926452636719e+01
2.084310054779052734e-01,1.000000000000000000e+00,7.990686416625976562e+00,-9.713485717773437500e+00,3.988854885101318359e+00,-2.075941009521484375e+02,-1.005750198364257812e+02,-1.795482025146484375e+02,4.033146500587463379e-01,-6.667523193359375000e+01,-1.826889343261718750e+02,-2.343106746673583984e+00,7.562364959716796875e+01,3.135619926452636719e+01
2.124910056591033936e-01,1.000000000000000000e+00,7.926755428314208984e+00,-9.658201217651367188e+00,3.996662616729736328e+00,-2.075387420654296875e+02,-1.004990463256835938e+02,-1.794817504882812500e+02,4.033146500587463379e-01,-6.667523193359375000e+01,-1.826889343261718750e+02,-2.343106746673583984e+00,7.562364959716796875e+01,3.135642242431640625e+01
2.164130061864852905e-01,1.000000000000000000e+00,7.862481117248535156e+00,-9.603074073791503906e+00,4.004469871520996094e+00,-2.074820709228515625e+02,-1.004226913452148438e+02,-1.794158935546875000e+02,4.033146500587463379e-01,-6.667523193359375000e+01,-1.826889343261718750e+02,-2.343106746673583984e+00,7.562364959716796875e+01,3.135619926452636719e+01
2.212249934673309326e-01,1.000000000000000000e+00,7.798062801361083984e+00,-9.547924995422363281e+00,4.012195587158203125e+00,-2.074262237548828125e+02,-1.003471450805664062e+02,-1.793503875732421875e+02,4.033146500587463379e-01,-6.667523193359375000e+01,-1.826889343261718750e+02,-2.343106746673583984e+00,7.562372589111328125e+01,3.135642242431640625e+01
2.246470004320144653e-01,1.000000000000000000e+00,7.733960628509521484e+00,-9.492731094360351562e+00,4.019860744476318359e+00,-2.073701782226562500e+02,-1.002711181640625000e+02,-1.792837982177734375e+02,4.033146500587463379e-01,-6.667531585693359375e+01,-1.826889343261718750e+02,-2.343106746673583984e+00,7.562364959716796875e+01,3.135619926452636719e+01
2.286999970674514771e-01,1.000000000000000000e+00,7.669801235198974609e+00,-9.437649726867675781e+00,4.027261734008789062e+00,-2.073134002685546875e+02,-1.001950378417968750e+02,-1.792184906005859375e+02,4.033146500587463379e-01,-6.667523193359375000e+01,-1.826889343261718750e+02,-2.343106746673583984e+00,7.562364959716796875e+01,3.135619926452636719e+01
2.326910048723220825e-01,1.000000000000000000e+00,7.605842590332031250e+00,-9.382614135742187500e+00,4.034560680389404297e+00,-2.072580871582031250e+02,-1.001183166503906250e+02,-1.791522827148437500e+02,4.033146500587463379e-01,-6.667523193359375000e+01,-1.826890411376953125e+02,-2.343106746673583984e+00,7.562364959716796875e+01,3.135619926452636719e+01
2.365529984235763550e-01,1.000000000000000000e+00,7.541912078857421875e+00,-9.327758789062500000e+00,4.041880130767822266e+00,-2.072016143798828125e+02,-1.000432968139648438e+02,-1.790860290527343750e+02,4.033146500587463379e-01,-6.667531585693359375e+01,-1.826889343261718750e+02,-2.343034982681274414e+00,7.562364959716796875e+01,3.135619926452636719e+01
2.403959929943084717e-01,1.000000000000000000e+00,7.478182792663574219e+00,-9.272904396057128906e+00,4.049382686614990234e+00,-2.071455230712890625e+02,-9.996764373779296875e+01,-1.790207214355468750e+02,4.033146500587463379e-01,-6.667523193359375000e+01,-1.826889343261718750e+02,-2.343178272247314453e+00,7.562364959716796875e+01,3.135619926452636719e+01
2.454099953174591064e-01,1.000000000000000000e+00,7.414626121520996094e+00,-9.217980384826660156e+00,4.056966304779052734e+00,-2.070893096923828125e+02,-9.989128875732421875e+01,-1.789549407958984375e+02,4.033146500587463379e-01,-6.667523193359375000e+01,-1.826889343261718750e+02,-2.343178272247314453e+00,7.562372589111328125e+01,3.135619926452636719e+01
2.486290037631988525e-01,1.000000000000000000e+00,7.351068973541259766e+00,-9.163126945495605469e+00,4.064570426940917969e+00,-2.070326385498046875e+02,-9.981456756591796875e+01,-1.788892974853515625e+02,4.033146500587463379e-01,-6.667523193359375000e+01,-1.826889343261718750e+02,-2.343106746673583984e+00,7.562364959716796875e+01,3.135619926452636719e+01
2.524969875812530518e-01,1.000000000000000000e+00,7.287627696990966797e+00,-9.108362197875976562e+00,4.072052478790283203e+00,-2.069765472412109375e+02,-9.973918151855468750e+01,-1.788235168457031250e+02,4.033146500587463379e-01,-6.667523193359375000e+01,-1.826889343261718750e+02,-2.343106746673583984e+00,7.562350463867187500e+01,3.135619926452636719e+01
2.554570138454437256e-01,1.000000000000000000e+00,7.224242687225341797e+00,-9.053483963012695312e+00,4.079311370849609375e+00,-2.069206695556640625e+02,-9.966294097900390625e+01,-1.787566528320312500e+02,4.033146500587463379e-01,-6.667523193359375000e+01,-1.826890411376953125e+02,-2.343106746673583984e+00,7.562364959716796875e+01,3.135619926452636719e+01
2.594729959964752197e-01,1.000000000000000000e+00,7.160771846771240234e+00,-8.998787879943847656e+00,4.086407184600830078e+00,-2.068643035888671875e+02,-9.958675384521484375e+01,-1.786909942626953125e+02,4.033146500587463379e-01,-6.667523193359375000e+01,-1.826889343261718750e+02,-2.343034982681274414e+00,7.562364959716796875e+01,3.135619926452636719e+01
2.635050117969512939e-01,1.000000000000000000e+00,7.097157478332519531e+00,-8.944272041320800781e+00,4.093523025512695312e+00,-2.068084564208984375e+02,-9.951018524169921875e+01,-1.786259613037109375e+02,4.033146500587463379e-01,-6.667523193359375000e+01,-1.826889343261718750e+02,-2.343106746673583984e+00,7.562364959716796875e+01,3.135619926452636719e+01
2.674469947814941406e-01,1.000000000000000000e+00,7.033629417419433594e+00,-8.889779090881347656e+00,4.101025581359863281e+00,-2.067518310546875000e+02,-9.943469238281250000e+01,-1.785595092773437500e+02,4.033146500587463379e-01,-6.667523193359375000e+01,-1.826889343261718750e+02,-2.343106746673583984e+00,7.562350463867187500e+01,3.135619926452636719e+01
2.739349901676177979e-01,1.000000000000000000e+00,6.906142234802246094e+00,-8.780657768249511719e+00,4.116457462310791016e+00,-2.066400604248046875e+02,-9.928269195556640625e+01,-1.784282836914062500e+02,4.033146500587463379e-01,-6.667523193359375000e+01,-1.826889343261718750e+02,-2.343106746673583984e+00,7.562364959716796875e+01,3.135619926452636719e+01
2.754980027675628662e-01,1.000000000000000000e+00,6.906142234802246094e+00,-8.780657768249511719e+00,4.116457462310791016e+00,-2.066400604248046875e+02,-9.928269195556640625e+01,-1.784282836914062500e+02,4.033146500587463379e-01,-6.667523193359375000e+01,-1.826889343261718750e+02,-2.343106746673583984e+00,7.562364959716796875e+01,3.135619926452636719e+01
2.794159948825836182e-01,1.000000000000000000e+00,6.842269897460937500e+00,-8.726187705993652344e+00,4.124000549316406250e+00,-2.065838165283203125e+02,-9.920666503906250000e+01,-1.783616790771484375e+02,4.033146500587463379e-01,-6.667523193359375000e+01,-1.826890411376953125e+02,-2.343106746673583984e+00,7.562364959716796875e+01,3.135619926452636719e+01
2.834329903125762939e-01,1.000000000000000000e+00,6.778339385986328125e+00,-8.671648979187011719e+00,4.131584167480468750e+00,-2.065279083251953125e+02,-9.913111114501953125e+01,-1.782963104248046875e+02,4.033146500587463379e-01,-6.667523193359375000e+01,-1.826890411376953125e+02,-2.343106746673583984e+00,7.562364959716796875e+01,3.135619926452636719e+01
2.874909937381744385e-01,1.000000000000000000e+00,6.714524269104003906e+00,-8.617293357849121094e+00,4.138964653015136719e+00,-2.064715728759765625e+02,-9.905545806884765625e+01,-1.782303924560546875e+02,4.033146500587463379e-01,-6.667523193359375000e+01,-1.826889343261718750e+02,-2.343106746673583984e+00,7.562364959716796875e+01,3.135619926452636719e+01
2.914009988307952881e-01,1.000000000000000000e+00,6.650709152221679688e+00,-8.562573432922363281e+00,4.146162033081054688e+00,-2.064157257080078125e+02,-9.897921752929687500e+01,-1.781641998291015625e+02,4.033146500587463379e-01,-6.667523193359375000e+01,-1.826889343261718750e+02,-2.343106746673583984e+00,7.562364959716796875e+01,3.135642242431640625e+01
2.954120039939880371e-01,1.000000000000000000e+00,6.586635589599609375e+00,-8.507809638977050781e+00,4.153481483459472656e+00,-2.063599548339843750e+02,-9.890318298339843750e+01,-1.780992279052734375e+02,4.033146500587463379e-01,-6.667523193359375000e+01,-1.826889343261718750e+02,-2.343106746673583984e+00,7.562364959716796875e+01,3.135619926452636719e+01
2.994660139083862305e-01,1.000000000000000000e+00,6.522964000701904297e+00,-8.453044891357421875e+00,4.161085605621337891e+00,-2.063033599853515625e+02,-9.882742309570312500e+01,-1.780334472656250000e+02,4.033146500587463379e-01,-6.667523193359375000e+01,-1.826889343261718750e+02,-2.343106746673583984e+00,7.562364959716796875e+01,3.135642242431640625e+01
3.034189939498901367e-01,1.000000000000000000e+00,6.459119796752929688e+00,-8.397985458374023438e+00,4.168730258941650391e+00,-2.062472839355468750e+02,-9.875198364257812500e+01,-1.779672546386718750e+02,4.033146500587463379e-01,-6.667523193359375000e+01,-1.826889343261718750e+02,-2.343250274658203125e+00,7.562364959716796875e+01,3.135619926452636719e+01
3.073999881744384766e-01,1.000000000000000000e+00,6.394989013671875000e+00,-8.343063354492187500e+00,4.176415920257568359e+00,-2.061909179687500000e+02,-9.867536926269531250e+01,-1.779024963378906250e+02,4.033146500587463379e-01,-6.667523193359375000e+01,-1.826889343261718750e+02,-2.343106746673583984e+00,7.562372589111328125e+01,3.135619926452636719e+01
3.114579916000366211e-01,1.000000000000000000e+00,6.331001281738281250e+00,-8.288003921508789062e+00,4.183755397796630859e+00,-2.061350860595703125e+02,-9.859965515136718750e+01,-1.778363189697265625e+02,4.033146500587463379e-01,-6.667531585693359375e+01,-1.826889343261718750e+02,-2.343106746673583984e+00,7.562364959716796875e+01,3.135619926452636719e+01
3.154149949550628662e-01,1.000000000000000000e+00,6.267042160034179688e+00,-8.233263015747070312e+00,4.191115379333496094e+00,-2.060791931152343750e+02,-9.852432250976562500e+01,-1.777708587646484375e+02,4.033146500587463379e-01,-6.667523193359375000e+01,-1.826889343261718750e+02,-2.343106746673583984e+00,7.562364959716796875e+01,3.135642242431640625e+01
3.194000124931335449e-01,1.000000000000000000e+00,6.202939987182617188e+00,-8.178181648254394531e+00,4.198231697082519531e+00,-2.060228729248046875e+02,-9.844888305664062500e+01,-1.777057647705078125e+02,4.033146500587463379e-01,-6.667523193359375000e+01,-1.826889343261718750e+02,-2.343106746673583984e+00,7.562364959716796875e+01,3.135619926452636719e+01
3.234620094299316406e-01,1.000000000000000000e+00,6.138608455657958984e+00,-8.123146057128906250e+00,4.205632686614990234e+00,-2.059671020507812500e+02,-9.837258911132812500e+01,-1.776393737792968750e+02,4.033146500587463379e-01,-6.667523193359375000e+01,-1.826889343261718750e+02,-2.343178272247314453e+00,7.562364959716796875e+01,3.135619926452636719e+01
3.274100124835968018e-01,1.000000000000000000e+00,6.074161529541015625e+00,-8.068086624145507812e+00,4.213297843933105469e+00,-2.059106903076171875e+02,-9.829708862304687500e+01,-1.775731048583984375e+02,4.033146500587463379e-01,-6.667523193359375000e+01,-1.826889343261718750e+02,-2.343106746673583984e+00,7.562364959716796875e+01,3.135619926452636719e+01
3.314709961414337158e-01,1.000000000000000000e+00,6.010001659393310547e+00,-8.012960433959960938e+00,4.221145629882812500e+00,-2.058547515869140625e+02,-9.822143554687500000e+01,-1.775080718994140625e+02,4.033146500587463379e-01,-6.667523193359375000e+01,-1.826889343261718750e+02,-2.343106746673583984e+00,7.562364959716796875e+01,3.135619926452636719e+01
3.356109857559204102e-01,1.000000000000000000e+00,5.945755958557128906e+00,-7.958083152770996094e+00,4.228871822357177734e+00,-2.057991790771484375e+02,-9.814614868164062500e+01,-1.774421539306640625e+02,4.033146500587463379e-01,-6.667523193359375000e+01,-1.826889343261718750e+02,-2.343106746673583984e+00,7.562372589111328125e+01,3.135619926452636719e+01
3.394060134887695312e-01,1.000000000000000000e+00,5.881309032440185547e+00,-7.903069496154785156e+00,4.236781120300292969e+00,-2.057424926757812500e+02,-9.807022857666015625e+01,-1.773767089843750000e+02,4.033146500587463379e-01,-6.667523193359375000e+01,-1.826889343261718750e+02,-2.343106746673583984e+00,7.562364959716796875e+01,3.135619926452636719e+01
3.434230089187622070e-01,1.000000000000000000e+00,5.817005634307861328e+00,-7.848237514495849609e+00,4.244405746459960938e+00,-2.056868743896484375e+02,-9.799478912353515625e+01,-1.773107910156250000e+02,4.033146500587463379e-01,-6.667523193359375000e+01,-1.826889343261718750e+02,-2.343106746673583984e+00,7.562364959716796875e+01,3.135619926452636719e+01
3.473950028419494629e-01,1.000000000000000000e+00,5.752731323242187500e+00,-7.793201446533203125e+00,4.251846790313720703e+00,-2.056307220458984375e+02,-9.791859436035156250e+01,-1.772445373535156250e+02,4.033146500587463379e-01,-6.667523193359375000e+01,-1.826889343261718750e+02,-2.343178272247314453e+00,7.562364959716796875e+01,3.135619926452636719e+01
3.514699935913085938e-01,1.000000000000000000e+00,5.688657760620117188e+00,-7.738075256347656250e+00,4.259105205535888672e+00,-2.055745697021484375e+02,-9.784320831298828125e+01,-1.771795654296875000e+02,4.033146500587463379e-01,-6.667523193359375000e+01,-1.826889343261718750e+02,-2.343034982681274414e+00,7.562364959716796875e+01,3.135598182678222656e+01
3.553990125656127930e-01,1.000000000000000000e+00,5.624584197998046875e+00,-7.683106422424316406e+00,4.266465187072753906e+00,-2.055194244384765625e+02,-9.776712036132812500e+01,-1.771135101318359375e+02,4.033146500587463379e-01,-6.667523193359375000e+01,-1.826889343261718750e+02,-2.343106746673583984e+00,7.562364959716796875e+01,3.135642242431640625e+01
3.594219982624053955e-01,1.000000000000000000e+00,5.560768604278564453e+00,-7.628003120422363281e+00,4.274150848388671875e+00,-2.054626312255859375e+02,-9.769221496582031250e+01,-1.770470581054687500e+02,4.033146500587463379e-01,-6.667523193359375000e+01,-1.826889343261718750e+02,-2.343034982681274414e+00,7.562364959716796875e+01,3.135619926452636719e+01
3.634569942951202393e-01,1.000000000000000000e+00,5.497011184692382812e+00,-7.573012351989746094e+00,4.281815528869628906e+00,-2.054066009521484375e+02,-9.761666870117187500e+01,-1.769824981689453125e+02,4.033146500587463379e-01,-6.667523193359375000e+01,-1.826889343261718750e+02,-2.343106746673583984e+00,7.562364959716796875e+01,3.135642242431640625e+01
3.674280047416687012e-01,1.000000000000000000e+00,5.433137893676757812e+00,-7.518134593963623047e+00,4.289501667022705078e+00,-2.053504943847656250e+02,-9.754063415527343750e+01,-1.769164428710937500e+02,4.033146500587463379e-01,-6.667523193359375000e+01,-1.826889343261718750e+02,-2.343106746673583984e+00,7.562350463867187500e+01,3.135619926452636719e+01
3.714309930801391602e-01,1.000000000000000000e+00,5.369207859039306641e+00,-7.463347911834716797e+00,4.297003746032714844e+00,-2.052940216064453125e+02,-9.746519470214843750e+01,-1.768504638671875000e+02,4.033146500587463379e-01,-6.667523193359375000e+01,-1.826889343261718750e+02,-2.343106746673583984e+00,7.562372589111328125e+01,3.135619926452636719e+01
3.754499852657318115e-01,1.000000000000000000e+00,5.305651187896728516e+00,-7.408583164215087891e+00,4.304282188415527344e+00,-2.052384643554687500e+02,-9.738996887207031250e+01,-1.767855529785156250e+02,4.033146500587463379e-01,-6.667523193359375000e+01,-1.826889343261718750e+02,-2.343034982681274414e+00,7.562364959716796875e+01,3.135619926452636719e+01
3.804639875888824463e-01,1.000000000000000000e+00,5.242065429687500000e+00,-7.353773593902587891e+00,4.311500072479248047e+00,-2.051823120117187500e+02,-9.731468200683593750e+01,-1.767195587158203125e+02,4.033146500587463379e-01,-6.667523193359375000e+01,-1.826889343261718750e+02,-2.343034982681274414e+00,7.562364959716796875e+01,3.135642242431640625e+01
3.834150135517120361e-01,1.000000000000000000e+00,5.178508758544921875e+00,-7.299122810363769531e+00,4.318840026855468750e+00,-2.051261596679687500e+02,-9.723876190185546875e+01,-1.766539306640625000e+02,4.033146500587463379e-01,-6.667531585693359375e+01,-1.826889343261718750e+02,-2.343034982681274414e+00,7.562364959716796875e+01,3.135619926452636719e+01
3.898890018463134766e-01,1.000000000000000000e+00,5.178508758544921875e+00,-7.299122810363769531e+00,4.318840026855468750e+00,-2.051261596679687500e+02,-9.723876190185546875e+01,-1.766539306640625000e+02,4.033146500587463379e-01,-6.667523193359375000e+01,-1.826889343261718750e+02,-2.343178272247314453e+00,7.562364959716796875e+01,3.135619926452636719e+01
3.915340006351470947e-01,1.000000000000000000e+00,5.051050662994384766e+00,-7.189955711364746094e+00,4.334068775177001953e+00,-2.050137634277343750e+02,-9.708718872070312500e+01,-1.765220184326171875e+02,4.033146500587463379e-01,-6.667523193359375000e+01,-1.826889343261718750e+02,-2.343178272247314453e+00,7.562364959716796875e+01,3.135619926452636719e+01
3.965210020542144775e-01,1.000000000000000000e+00,4.987292766571044922e+00,-7.135553359985351562e+00,4.341814994812011719e+00,-2.049584960937500000e+02,-9.701179504394531250e+01,-1.764566345214843750e+02,4.033146500587463379e-01,-6.667523193359375000e+01,-1.826889343261718750e+02,-2.343106746673583984e+00,7.562364959716796875e+01,3.135619926452636719e+01
3.999100029468536377e-01,1.000000000000000000e+00,4.923592090606689453e+00,-7.080902099609375000e+00,4.349581718444824219e+00,-2.049026184082031250e+02,-9.693560028076171875e+01,-1.763914642333984375e+02,4.033146500587463379e-01,-6.667531585693359375e+01,-1.826889343261718750e+02,-2.343178272247314453e+00,7.562350463867187500e+01,3.135619926452636719e+01
4.034250080585479736e-01,1.000000000000000000e+00,4.859805583953857422e+00,-7.026296138763427734e+00,4.357104301452636719e+00,-2.048464050292968750e+02,-9.686032104492187500e+01,-1.763251495361328125e+02,4.033146500587463379e-01,-6.667523193359375000e+01,-1.826889343261718750e+02,-2.343178272247314453e+00,7.562372589111328125e+01,3.135619926452636719e+01
4.084900021553039551e-01,1.000000000000000000e+00,4.859805583953857422e+00,-7.026296138763427734e+00,4.357104301452636719e+00,-2.048464050292968750e+02,-9.686032104492187500e+01,-1.763251495361328125e+02,4.033146500587463379e-01,-6.667523193359375000e+01,-1.826889343261718750e+02,-2.343178272247314453e+00,7.562372589111328125e+01,3.135619926452636719e+01
4.117839932441711426e-01,1.000000000000000000e+00,4.732031345367431641e+00,-6.916676521301269531e+00,4.371479034423828125e+00,-2.047343750000000000e+02,-9.670895385742187500e+01,-1.761939849853515625e+02,4.033146500587463379e-01,-6.667531585693359375e+01,-1.826889343261718750e+02,-2.343106746673583984e+00,7.562364959716796875e+01,3.135619926452636719e+01
4.164949953556060791e-01,1.000000000000000000e+00,4.668101310729980469e+00,-6.862116336822509766e+00,4.378737449645996094e+00,-2.046788024902343750e+02,-9.663266754150390625e+01,-1.761280670166015625e+02,4.033146500587463379e-01,-6.667523193359375000e+01,-1.826889343261718750e+02,-2.343106746673583984e+00,7.562350463867187500e+01,3.135642242431640625e+01
4.194349944591522217e-01,1.000000000000000000e+00,4.604257583618164062e+00,-6.807306289672851562e+00,4.386260509490966797e+00,-2.046230163574218750e+02,-9.655775451660156250e+01,-1.760632324218750000e+02,4.033146500587463379e-01,-6.667523193359375000e+01,-1.826889343261718750e+02,-2.343178272247314453e+00,7.562372589111328125e+01,3.135619926452636719e+01
4.244470000267028809e-01,1.000000000000000000e+00,4.604257583618164062e+00,-6.807306289672851562e+00,4.386260509490966797e+00,-2.046230163574218750e+02,-9.655775451660156250e+01,-1.760632324218750000e+02,4.033146500587463379e-01,-6.667523193359375000e+01,-1.826889343261718750e+02,-2.343178272247314453e+00,7.562372589111328125e+01,3.135619926452636719e+01
4.273949861526489258e-01,1.000000000000000000e+00,4.476742267608642578e+00,-6.697822570800781250e+00,4.401306152343750000e+00,-2.045108184814453125e+02,-9.640660858154296875e+01,-1.759311981201171875e+02,4.033146500587463379e-01,-6.667523193359375000e+01,-1.826889343261718750e+02,-2.343178272247314453e+00,7.562372589111328125e+01,3.135619926452636719e+01
4.314979910850524902e-01,1.000000000000000000e+00,4.476742267608642578e+00,-6.697822570800781250e+00,4.401306152343750000e+00,-2.045108184814453125e+02,-9.640660858154296875e+01,-1.759311981201171875e+02,4.033146500587463379e-01,-6.667523193359375000e+01,-1.826889343261718750e+02,-2.343178272247314453e+00,7.562372589111328125e+01,3.135619926452636719e+01
4.355030059814453125e-01,1.000000000000000000e+00,4.413012504577636719e+00,-6.642831802368164062e+00,4.408747196197509766e+00,-2.044546203613281250e+02,-9.633003997802734375e+01,-1.758663635253906250e+02,4.033146500587463379e-01,-6.667523193359375000e+01,-1.826889343261718750e+02,-2.343034982681274414e+00,7.562372589111328125e+01,3.135642242431640625e+01
4.394429922103881836e-01,1.000000000000000000e+00,4.349226474761962891e+00,-6.588112831115722656e+00,4.416107654571533203e+00,-2.043986358642578125e+02,-9.625524139404296875e+01,-1.758002471923828125e+02,4.033146500587463379e-01,-6.667523193359375000e+01,-1.826889343261718750e+02,-2.343178272247314453e+00,7.562364959716796875e+01,3.135619926452636719e+01
4.434840083122253418e-01,1.000000000000000000e+00,4.285669326782226562e+00,-6.533280372619628906e+00,4.423305034637451172e+00,-2.043430023193359375e+02,-9.617963409423828125e+01,-1.757351379394531250e+02,4.033146500587463379e-01,-6.667523193359375000e+01,-1.826889343261718750e+02,-2.343106746673583984e+00,7.562364959716796875e+01,3.135619926452636719e+01
4.474970102310180664e-01,1.000000000000000000e+00,4.221653461456298828e+00,-6.478516101837158203e+00,4.430726051330566406e+00,-2.042870178222656250e+02,-9.610392761230468750e+01,-1.756698303222656250e+02,4.033146500587463379e-01,-6.667523193359375000e+01,-1.826889343261718750e+02,-2.343034982681274414e+00,7.562364959716796875e+01,3.135642242431640625e+01
4.514530003070831299e-01,1.000000000000000000e+00,4.157751560211181641e+00,-6.423728942871093750e+00,4.438533782958984375e+00,-2.042312774658203125e+02,-9.602742004394531250e+01,-1.756036987304687500e+02,4.033146500587463379e-01,-6.667523193359375000e+01,-1.826889343261718750e+02,-2.343106746673583984e+00,7.562364959716796875e+01,3.135619926452636719e+01
4.554919898509979248e-01,1.000000000000000000e+00,4.094022750854492188e+00,-6.369055271148681641e+00,4.446341037750244141e+00,-2.041747589111328125e+02,-9.595250701904296875e+01,-1.755383300781250000e+02,4.033146500587463379e-01,-6.667523193359375000e+01,-1.826889343261718750e+02,-2.343106746673583984e+00,7.562364959716796875e+01,3.135619926452636719e+01
4.594900012016296387e-01,1.000000000000000000e+00,4.029977798461914062e+00,-6.314109802246093750e+00,4.454229354858398438e+00,-2.041192932128906250e+02,-9.587706756591796875e+01,-1.754726867675781250e+02,4.033146500587463379e-01,-6.667523193359375000e+01,-1.826889343261718750e+02,-2.343106746673583984e+00,7.562372589111328125e+01,3.135619926452636719e+01
4.634470045566558838e-01,1.000000000000000000e+00,3.965875625610351562e+00,-6.259096622467041016e+00,4.461935043334960938e+00,-2.040637207031250000e+02,-9.580104064941406250e+01,-1.754062194824218750e+02,4.033146500587463379e-01,-6.667523193359375000e+01,-1.826889343261718750e+02,-2.343034982681274414e+00,7.562364959716796875e+01,3.135619926452636719e+01
4.674510061740875244e-01,1.000000000000000000e+00,3.901916742324829102e+00,-6.204174041748046875e+00,4.469478607177734375e+00,-2.040075225830078125e+02,-9.572522735595703125e+01,-1.753411254882812500e+02,4.033146500587463379e-01,-6.667523193359375000e+01,-1.826889343261718750e+02,-2.343106746673583984e+00,7.562364959716796875e+01,3.135642242431640625e+01
4.714710116386413574e-01,1.000000000000000000e+00,3.837986707687377930e+00,-6.149183273315429688e+00,4.476757049560546875e+00,-2.039525756835937500e+02,-9.565015411376953125e+01,-1.752758178710937500e+02,4.033146500587463379e-01,-6.667523193359375000e+01,-1.826889343261718750e+02,-2.343034982681274414e+00,7.562372589111328125e+01,3.135619926452636719e+01
4.754459857940673828e-01,1.000000000000000000e+00,3.773970365524291992e+00,-6.094169616699218750e+00,4.483913898468017578e+00,-2.038960113525390625e+02,-9.557487487792968750e+01,-1.752094268798828125e+02,4.033146500587463379e-01,-6.667531585693359375e+01,-1.826889343261718750e+02,-2.343034982681274414e+00,7.562364959716796875e+01,3.135642242431640625e+01
4.794400036334991455e-01,1.000000000000000000e+00,3.710184097290039062e+00,-6.039314746856689453e+00,4.491396427154541016e+00,-2.038399658203125000e+02,-9.549889373779296875e+01,-1.751439819335937500e+02,4.033146500587463379e-01,-6.667531585693359375e+01,-1.826889343261718750e+02,-2.343178272247314453e+00,7.562364959716796875e+01,3.135619926452636719e+01
4.835039973258972168e-01,1.000000000000000000e+00,3.646397352218627930e+00,-5.984482288360595703e+00,4.499163150787353516e+00,-2.037847137451171875e+02,-9.542318725585937500e+01,-1.750779266357421875e+02,4.033146500587463379e-01,-6.667523193359375000e+01,-1.826890411376953125e+02,-2.343106746673583984e+00,7.562372589111328125e+01,3.135619926452636719e+01
4.874700009822845459e-01,1.000000000000000000e+00,3.582610607147216797e+00,-5.929650306701660156e+00,4.506807804107666016e+00,-2.037285156250000000e+02,-9.534774017333984375e+01,-1.750121459960937500e+02,4.033146500587463379e-01,-6.667523193359375000e+01,-1.826889343261718750e+02,-2.343178272247314453e+00,7.562364959716796875e+01,3.135619926452636719e+01
4.914380013942718506e-01,1.000000000000000000e+00,3.518881797790527344e+00,-5.874863147735595703e+00,4.514208316802978516e+00,-2.036727752685546875e+02,-9.527256774902343750e+01,-1.749475860595703125e+02,4.033146500587463379e-01,-6.667523193359375000e+01,-1.826889343261718750e+02,-2.343106746673583984e+00,7.562364959716796875e+01,3.135619926452636719e+01
4.955079853534698486e-01,1.000000000000000000e+00,3.455209732055664062e+00,-5.820121288299560547e+00,4.521670341491699219e+00,-2.036165161132812500e+02,-9.519643402099609375e+01,-1.748815307617187500e+02,4.033146500587463379e-01,-6.667523193359375000e+01,-1.826889343261718750e+02,-2.343106746673583984e+00,7.562364959716796875e+01,3.135642242431640625e+01
4.994579851627349854e-01,1.000000000000000000e+00,3.391624212265014648e+00,-5.765515327453613281e+00,4.528969287872314453e+00,-2.035603790283203125e+02,-9.512077331542968750e+01,-1.748156127929687500e+02,4.033146500587463379e-01,-6.667513275146484375e+01,-1.826889343261718750e+02,-2.343106746673583984e+00,7.562364959716796875e+01,3.135619926452636719e+01
5.034580230712890625e-01,1.000000000000000000e+00,3.328067302703857422e+00,-5.710841178894042969e+00,4.536187171936035156e+00,-2.035053863525390625e+02,-9.504560089111328125e+01,-1.747505645751953125e+02,4.033146500587463379e-01,-6.667523193359375000e+01,-1.826889343261718750e+02,-2.343178272247314453e+00,7.562350463867187500e+01,3.135642242431640625e+01
5.075169801712036133e-01,1.000000000000000000e+00,3.264567852020263672e+00,-5.656394004821777344e+00,4.543526649475097656e+00,-2.034491882324218750e+02,-9.497052764892578125e+01,-1.746845245361328125e+02,4.033146500587463379e-01,-6.667531585693359375e+01,-1.826889343261718750e+02,-2.343106746673583984e+00,7.562364959716796875e+01,3.135642242431640625e+01
5.114570260047912598e-01,1.000000000000000000e+00,3.200924873352050781e+00,-5.601719856262207031e+00,4.551171302795410156e+00,-2.033933410644531250e+02,-9.489444732666015625e+01,-1.746192169189453125e+02,4.033146500587463379e-01,-6.667523193359375000e+01,-1.826890411376953125e+02,-2.343106746673583984e+00,7.562364959716796875e+01,3.135619926452636719e+01
5.154809951782226562e-01,1.000000000000000000e+00,3.137023448944091797e+00,-5.547023296356201172e+00,4.558877468109130859e+00,-2.033373565673828125e+02,-9.481927490234375000e+01,-1.745542449951171875e+02,4.033146500587463379e-01,-6.667523193359375000e+01,-1.826889343261718750e+02,-2.343034982681274414e+00,7.562364959716796875e+01,3.135619926452636719e+01
5.203909873962402344e-01,1.000000000000000000e+00,3.073236942291259766e+00,-5.492349624633789062e+00,4.566481590270996094e+00,-2.032813110351562500e+02,-9.474367523193359375e+01,-1.744885253906250000e+02,4.033146500587463379e-01,-6.667523193359375000e+01,-1.826889343261718750e+02,-2.343106746673583984e+00,7.562364959716796875e+01,3.135619926452636719e+01
5.244680047035217285e-01,1.000000000000000000e+00,3.009364366531372070e+00,-5.437517166137695312e+00,4.574126243591308594e+00,-2.032260589599609375e+02,-9.466870880126953125e+01,-1.744234161376953125e+02,4.033146500587463379e-01,-6.667523193359375000e+01,-1.826889343261718750e+02,-2.343034982681274414e+00,7.562364959716796875e+01,3.135619926452636719e+01
5.285760164260864258e-01,1.000000000000000000e+00,2.945606470108032227e+00,-5.382911205291748047e+00,4.581588268280029297e+00,-2.031698913574218750e+02,-9.459257507324218750e+01,-1.743573760986328125e+02,4.033146500587463379e-01,-6.667523193359375000e+01,-1.826889343261718750e+02,-2.343106746673583984e+00,7.562364959716796875e+01,3.135619926452636719e+01
5.334399938583374023e-01,1.000000000000000000e+00,2.881819963455200195e+00,-5.328214645385742188e+00,4.588825702667236328e+00,-2.031141204833984375e+02,-9.451766204833984375e+01,-1.742911834716796875e+02,4.033146500587463379e-01,-6.667523193359375000e+01,-1.826889343261718750e+02,-2.343178272247314453e+00,7.562364959716796875e+01,3.135642242431640625e+01
5.362160205841064453e-01,1.000000000000000000e+00,2.754045963287353516e+00,-5.219048023223876953e+00,4.603465080261230469e+00,-2.030026702880859375e+02,-9.436656188964843750e+01,-1.741609039306640625e+02,4.033146500587463379e-01,-6.667523193359375000e+01,-1.826889343261718750e+02,-2.343034982681274414e+00,7.562364959716796875e+01,3.135619926452636719e+01
5.394390225410461426e-01,1.000000000000000000e+00,2.754045963287353516e+00,-5.219048023223876953e+00,4.603465080261230469e+00,-2.030026702880859375e+02,-9.436656188964843750e+01,-1.741609039306640625e+02,4.033146500587463379e-01,-6.667523193359375000e+01,-1.826889343261718750e+02,-2.343034982681274414e+00,7.562364959716796875e+01,3.135619926452636719e+01
5.441989898681640625e-01,1.000000000000000000e+00,2.690402746200561523e+00,-5.164373874664306641e+00,4.611048698425292969e+00,-2.029471893310546875e+02,-9.429091644287109375e+01,-1.740949859619140625e+02,4.033146500587463379e-01,-6.667523193359375000e+01,-1.826889343261718750e+02,-2.343106746673583984e+00,7.562364959716796875e+01,3.135619926452636719e+01
5.474560260772705078e-01,1.000000000000000000e+00,2.626415491104125977e+00,-5.109790802001953125e+00,4.618754386901855469e+00,-2.028912506103515625e+02,-9.421632385253906250e+01,-1.740301513671875000e+02,4.033146500587463379e-01,-6.667523193359375000e+01,-1.826889343261718750e+02,-2.343106746673583984e+00,7.562350463867187500e+01,3.135619926452636719e+01
5.514500141143798828e-01,1.000000000000000000e+00,2.562772274017333984e+00,-5.055117130279541016e+00,4.626297473907470703e+00,-2.028350524902343750e+02,-9.414103698730468750e+01,-1.739638214111328125e+02,4.033146500587463379e-01,-6.667531585693359375e+01,-1.826889343261718750e+02,-2.343106746673583984e+00,7.562364959716796875e+01,3.135642242431640625e+01
5.557950139045715332e-01,1.000000000000000000e+00,2.498871088027954102e+00,-5.000601291656494141e+00,4.633759021759033203e+00,-2.027793731689453125e+02,-9.406506347656250000e+01,-1.738983154296875000e+02,4.033146500587463379e-01,-6.667523193359375000e+01,-1.826889343261718750e+02,-2.343106746673583984e+00,7.562364959716796875e+01,3.135619926452636719e+01
5.594639778137207031e-01,1.000000000000000000e+00,2.435314178466796875e+00,-4.945995330810546875e+00,4.640936374664306641e+00,-2.027232818603515625e+02,-9.398961639404296875e+01,-1.738336181640625000e+02,4.033146500587463379e-01,-6.667523193359375000e+01,-1.826890411376953125e+02,-2.343178272247314453e+00,7.562364959716796875e+01,3.135619926452636719e+01
5.634409785270690918e-01,1.000000000000000000e+00,2.371556282043457031e+00,-4.891502380371093750e+00,4.648215293884277344e+00,-2.026677551269531250e+02,-9.391492462158203125e+01,-1.737681884765625000e+02,4.033146500587463379e-01,-6.667523193359375000e+01,-1.826889343261718750e+02,-2.343106746673583984e+00,7.562364959716796875e+01,3.135619926452636719e+01
5.683079957962036133e-01,1.000000000000000000e+00,2.307712316513061523e+00,-4.836783409118652344e+00,4.655595779418945312e+00,-2.026119842529296875e+02,-9.383980560302734375e+01,-1.737023925781250000e+02,4.033146500587463379e-01,-6.667531585693359375e+01,-1.826889343261718750e+02,-2.343106746673583984e+00,7.562364959716796875e+01,3.135619926452636719e+01
5.714679956436157227e-01,1.000000000000000000e+00,2.244011878967285156e+00,-4.781951427459716797e+00,4.663260936737060547e+00,-2.025559234619140625e+02,-9.376420593261718750e+01,-1.736374206542968750e+02,4.033146500587463379e-01,-6.667523193359375000e+01,-1.826889343261718750e+02,-2.343106746673583984e+00,7.562364959716796875e+01,3.135619926452636719e+01
5.755010247230529785e-01,1.000000000000000000e+00,2.180024385452270508e+00,-4.727254867553710938e+00,4.671129226684570312e+00,-2.025003509521484375e+02,-9.368854522705078125e+01,-1.735717010498046875e+02,4.033146500587463379e-01,-6.667523193359375000e+01,-1.826889343261718750e+02,-2.343106746673583984e+00,7.562364959716796875e+01,3.135642242431640625e+01
5.799620151519775391e-01,1.000000000000000000e+00,2.116037130355834961e+00,-4.672399520874023438e+00,4.678875446319580078e+00,-2.024443054199218750e+02,-9.361320495605468750e+01,-1.735062103271484375e+02,4.033146500587463379e-01,-6.667523193359375000e+01,-1.826889343261718750e+02,-2.343106746673583984e+00,7.562364959716796875e+01,3.135619926452636719e+01
5.844470262527465820e-01,1.000000000000000000e+00,2.052049398422241211e+00,-4.617544651031494141e+00,4.686337471008300781e+00,-2.023887329101562500e+02,-9.353813934326171875e+01,-1.734416961669921875e+02,4.033146500587463379e-01,-6.667523193359375000e+01,-1.826889343261718750e+02,-2.343106746673583984e+00,7.562364959716796875e+01,3.135642242431640625e+01
5.875009894371032715e-01,1.000000000000000000e+00,1.988061904907226562e+00,-4.562780380249023438e+00,4.693656921386718750e+00,-2.023329162597656250e+02,-9.346221923828125000e+01,-1.733762664794921875e+02,4.033146500587463379e-01,-6.667523193359375000e+01,-1.826889343261718750e+02,-2.343106746673583984e+00,7.562364959716796875e+01,3.135619926452636719e+01
5.922909975051879883e-01,1.000000000000000000e+00,1.924275398254394531e+00,-4.508106231689453125e+00,4.700854301452636719e+00,-2.022768554687500000e+02,-9.338720703125000000e+01,-1.733108825683593750e+02,4.033146500587463379e-01,-6.667523193359375000e+01,-1.826889343261718750e+02,-2.343178272247314453e+00,7.562364959716796875e+01,3.135619926452636719e+01
5.956249833106994629e-01,1.000000000000000000e+00,1.860517501831054688e+00,-4.453409671783447266e+00,4.708112716674804688e+00,-2.022217102050781250e+02,-9.331170654296875000e+01,-1.732456512451171875e+02,4.033146500587463379e-01,-6.667523193359375000e+01,-1.826889343261718750e+02,-2.343106746673583984e+00,7.562364959716796875e+01,3.135619926452636719e+01
5.995450019836425781e-01,1.000000000000000000e+00,1.796788454055786133e+00,-4.398600101470947266e+00,4.715574741363525391e+00,-2.021653442382812500e+02,-9.323642730712890625e+01,-1.731791229248046875e+02,4.033146500587463379e-01,-6.667531585693359375e+01,-1.826889343261718750e+02,-2.343178272247314453e+00,7.562364959716796875e+01,3.135619926452636719e+01
6.041020154953002930e-01,1.000000000000000000e+00,1.733116626739501953e+00,-4.343835830688476562e+00,4.723239898681640625e+00,-2.021096343994140625e+02,-9.316024017333984375e+01,-1.731142272949218750e+02,4.033146500587463379e-01,-6.667531585693359375e+01,-1.826889343261718750e+02,-2.343106746673583984e+00,7.562364959716796875e+01,3.135619926452636719e+01
6.077229976654052734e-01,1.000000000000000000e+00,1.669387578964233398e+00,-4.289184570312500000e+00,4.730803012847900391e+00,-2.020543670654296875e+02,-9.308564758300781250e+01,-1.730490417480468750e+02,4.033146500587463379e-01,-6.667523193359375000e+01,-1.826889343261718750e+02,-2.343106746673583984e+00,7.562364959716796875e+01,3.135642242431640625e+01
6.116009950637817383e-01,1.000000000000000000e+00,1.606031656265258789e+00,-4.234578609466552734e+00,4.738326072692871094e+00,-2.019979553222656250e+02,-9.301026153564453125e+01,-1.729830627441406250e+02,4.033146500587463379e-01,-6.667523193359375000e+01,-1.826890411376953125e+02,-2.343106746673583984e+00,7.562364959716796875e+01,3.135642242431640625e+01
6.165940165519714355e-01,1.000000000000000000e+00,1.542417407035827637e+00,-4.180063247680664062e+00,4.745706558227539062e+00,-2.019422760009765625e+02,-9.293508148193359375e+01,-1.729180297851562500e+02,4.033146500587463379e-01,-6.667523193359375000e+01,-1.826889343261718750e+02,-2.343106746673583984e+00,7.562364959716796875e+01,3.135619926452636719e+01
6.198210120201110840e-01,1.000000000000000000e+00,1.478975296020507812e+00,-4.125502109527587891e+00,4.752964973449707031e+00,-2.018862304687500000e+02,-9.285862731933593750e+01,-1.728522338867187500e+02,4.033146500587463379e-01,-6.667531585693359375e+01,-1.826889343261718750e+02,-2.343178272247314453e+00,7.562364959716796875e+01,3.135619926452636719e+01
6.236540079116821289e-01,1.000000000000000000e+00,1.415590643882751465e+00,-4.070760726928710938e+00,4.760161876678466797e+00,-2.018303375244140625e+02,-9.278356170654296875e+01,-1.727863311767578125e+02,4.033146500587463379e-01,-6.667523193359375000e+01,-1.826889343261718750e+02,-2.343106746673583984e+00,7.562364959716796875e+01,3.135642242431640625e+01
6.283929944038391113e-01,1.000000000000000000e+00,1.352205991744995117e+00,-4.016018867492675781e+00,4.767643928527832031e+00,-2.017749938964843750e+02,-9.270832824707031250e+01,-1.727218322753906250e+02,4.033146500587463379e-01,-6.667523193359375000e+01,-1.826889343261718750e+02,-2.343106746673583984e+00,7.562364959716796875e+01,3.135642242431640625e+01
6.320819854736328125e-01,1.000000000000000000e+00,1.288763880729675293e+00,-3.961141347885131836e+00,4.775329589843750000e+00,-2.017187194824218750e+02,-9.263299560546875000e+01,-1.726557769775390625e+02,4.033146500587463379e-01,-6.667523193359375000e+01,-1.826889343261718750e+02,-2.343106746673583984e+00,7.562364959716796875e+01,3.135642242431640625e+01
6.358529925346374512e-01,1.000000000000000000e+00,1.225006103515625000e+00,-3.906444787979125977e+00,4.783157825469970703e+00,-2.016630096435546875e+02,-9.255648040771484375e+01,-1.725898590087890625e+02,4.033146500587463379e-01,-6.667523193359375000e+01,-1.826889343261718750e+02,-2.343106746673583984e+00,7.562364959716796875e+01,3.135642242431640625e+01
6.396560072898864746e-01,1.000000000000000000e+00,1.161420464515686035e+00,-3.851770877838134766e+00,4.790883541107177734e+00,-2.016071624755859375e+02,-9.248114776611328125e+01,-1.725254974365234375e+02,4.033146500587463379e-01,-6.667523193359375000e+01,-1.826889343261718750e+02,-2.343106746673583984e+00,7.562364959716796875e+01,3.135619926452636719e+01
6.439200043678283691e-01,1.000000000000000000e+00,1.097806215286254883e+00,-3.797300577163696289e+00,4.798365592956542969e+00,-2.015512695312500000e+02,-9.240634918212890625e+01,-1.724593200683593750e+02,4.033146500587463379e-01,-6.667531585693359375e+01,-1.826890411376953125e+02,-2.343106746673583984e+00,7.562364959716796875e+01,3.135619926452636719e+01
6.478809714317321777e-01,1.000000000000000000e+00,1.034306645393371582e+00,-3.742762804031372070e+00,4.805665016174316406e+00,-2.014960784912109375e+02,-9.233116912841796875e+01,-1.723944091796875000e+02,4.033146500587463379e-01,-6.667523193359375000e+01,-1.826889343261718750e+02,-2.343106746673583984e+00,7.562364959716796875e+01,3.135642242431640625e+01
6.525130271911621094e-01,1.000000000000000000e+00,9.708072543144226074e-01,-3.687907695770263672e+00,4.812841892242431641e+00,-2.014403533935546875e+02,-9.225524902343750000e+01,-1.723295135498046875e+02,4.033146500587463379e-01,-6.667523193359375000e+01,-1.826889343261718750e+02,-2.343106746673583984e+00,7.562364959716796875e+01,3.135642242431640625e+01
6.561779975891113281e-01,1.000000000000000000e+00,9.072790145874023438e-01,-3.633301734924316406e+00,4.820181369781494141e+00,-2.013848266601562500e+02,-9.217980194091796875e+01,-1.722635955810546875e+02,4.033146500587463379e-01,-6.667523193359375000e+01,-1.826889343261718750e+02,-2.343106746673583984e+00,7.562364959716796875e+01,3.135619926452636719e+01
6.600260138511657715e-01,1.000000000000000000e+00,8.437795639038085938e-01,-3.578650236129760742e+00,4.827643394470214844e+00,-2.013286743164062500e+02,-9.210494995117187500e+01,-1.721983489990234375e+02,4.033146500587463379e-01,-6.667523193359375000e+01,-1.826889343261718750e+02,-2.343106746673583984e+00,7.562364959716796875e+01,3.135642242431640625e+01
6.641820073127746582e-01,1.000000000000000000e+00,7.802226543426513672e-01,-3.524316072463989258e+00,4.835288047790527344e+00,-2.012726898193359375e+02,-9.202950286865234375e+01,-1.721328430175781250e+02,4.033146500587463379e-01,-6.667523193359375000e+01,-1.826889343261718750e+02,-2.343106746673583984e+00,7.562364959716796875e+01,3.135642242431640625e+01
6.681560277938842773e-01,1.000000000000000000e+00,7.167806029319763184e-01,-3.469755172729492188e+00,4.842790603637695312e+00,-2.012174224853515625e+02,-9.195368957519531250e+01,-1.720670623779296875e+02,4.033146500587463379e-01,-6.667523193359375000e+01,-1.826889343261718750e+02,-2.343106746673583984e+00,7.562364959716796875e+01,3.135642242431640625e+01
6.720479726791381836e-01,1.000000000000000000e+00,6.533098220825195312e-01,-3.415217161178588867e+00,4.850232124328613281e+00,-2.011617431640625000e+02,-9.187819671630859375e+01,-1.720023651123046875e+02,4.033146500587463379e-01,-6.667513275146484375e+01,-1.826889343261718750e+02,-2.343106746673583984e+00,7.562364959716796875e+01,3.135642242431640625e+01
6.768040060997009277e-01,1.000000000000000000e+00,5.899252295494079590e-01,-3.360633611679077148e+00,4.857531070709228516e+00,-2.011055450439453125e+02,-9.180333709716796875e+01,-1.719371185302734375e+02,4.033146500587463379e-01,-6.667523193359375000e+01,-1.826889343261718750e+02,-2.343106746673583984e+00,7.562364959716796875e+01,3.135619926452636719e+01
6.802179813385009766e-01,1.000000000000000000e+00,5.265405178070068359e-01,-3.306005001068115234e+00,4.864728450775146484e+00,-2.010500946044921875e+02,-9.172773742675781250e+01,-1.718711395263671875e+02,4.033146500587463379e-01,-6.667523193359375000e+01,-1.826890411376953125e+02,-2.343106746673583984e+00,7.562364959716796875e+01,3.135642242431640625e+01
6.842470169067382812e-01,1.000000000000000000e+00,4.629836380481719971e-01,-3.251376390457153320e+00,4.871865272521972656e+00,-2.009940490722656250e+02,-9.165229797363281250e+01,-1.718058929443359375e+02,4.033146500587463379e-01,-6.667523193359375000e+01,-1.826889343261718750e+02,-2.343106746673583984e+00,7.562364959716796875e+01,3.135642242431640625e+01
6.881309747695922852e-01,1.000000000000000000e+00,3.993119299411773682e-01,-3.196612119674682617e+00,4.879428386688232422e+00,-2.009387817382812500e+02,-9.157695770263671875e+01,-1.717403869628906250e+02,4.033146500587463379e-01,-6.667523193359375000e+01,-1.826889343261718750e+02,-2.343106746673583984e+00,7.562364959716796875e+01,3.135619926452636719e+01
6.925060153007507324e-01,1.000000000000000000e+00,3.355253934860229492e-01,-3.141711711883544922e+00,4.887073516845703125e+00,-2.008829040527343750e+02,-9.150210571289062500e+01,-1.716747436523437500e+02,4.033146500587463379e-01,-6.667523193359375000e+01,-1.826889343261718750e+02,-2.343106746673583984e+00,7.562364959716796875e+01,3.135619926452636719e+01
6.962940096855163574e-01,1.000000000000000000e+00,2.715378701686859131e-01,-3.087151288986206055e+00,4.894738197326660156e+00,-2.008272247314453125e+02,-9.142655944824218750e+01,-1.716103820800781250e+02,4.033146500587463379e-01,-6.667523193359375000e+01,-1.826889343261718750e+02,-2.343106746673583984e+00,7.562364959716796875e+01,3.135619926452636719e+01
7.007169723510742188e-01,1.000000000000000000e+00,2.078087627887725830e-01,-3.032432079315185547e+00,4.902484893798828125e+00,-2.007715454101562500e+02,-9.135116577148437500e+01,-1.715446624755859375e+02,4.033146500587463379e-01,-6.667523193359375000e+01,-1.826889343261718750e+02,-2.343106746673583984e+00,7.562364959716796875e+01,3.135619926452636719e+01
7.044960260391235352e-01,1.000000000000000000e+00,1.438499689102172852e-01,-2.977848529815673828e+00,4.910068511962890625e+00,-2.007153472900390625e+02,-9.127582550048828125e+01,-1.714787445068359375e+02,4.033146500587463379e-01,-6.667523193359375000e+01,-1.826889343261718750e+02,-2.343106746673583984e+00,7.562364959716796875e+01,3.135642242431640625e+01
7.084540128707885742e-01,1.000000000000000000e+00,8.003472536802291870e-02,-2.923287868499755859e+00,4.917367458343505859e+00,-2.006602020263671875e+02,-9.120150756835937500e+01,-1.714142608642578125e+02,4.033146500587463379e-01,-6.667523193359375000e+01,-1.826889343261718750e+02,-2.343106746673583984e+00,7.562364959716796875e+01,3.135642242431640625e+01
7.133049964904785156e-01,1.000000000000000000e+00,1.633430086076259613e-02,-2.868659257888793945e+00,4.924483776092529297e+00,-2.006048278808593750e+02,-9.112596130371093750e+01,-1.713484649658203125e+02,4.033146500587463379e-01,-6.667523193359375000e+01,-1.826889343261718750e+02,-2.343106746673583984e+00,7.562364959716796875e+01,3.135642242431640625e+01
7.166370153427124023e-01,1.000000000000000000e+00,-4.742353782057762146e-02,-2.814121246337890625e+00,4.931742191314697266e+00,-2.005488891601562500e+02,-9.105126190185546875e+01,-1.712830352783203125e+02,4.033146500587463379e-01,-6.667523193359375000e+01,-1.826890411376953125e+02,-2.343178272247314453e+00,7.562364959716796875e+01,3.135642242431640625e+01
7.204679846763610840e-01,1.000000000000000000e+00,-1.110665500164031982e-01,-2.759537696838378906e+00,4.939305782318115234e+00,-2.004938049316406250e+02,-9.097576141357421875e+01,-1.712188720703125000e+02,4.033146500587463379e-01,-6.667523193359375000e+01,-1.826889343261718750e+02,-2.343106746673583984e+00,7.562364959716796875e+01,3.135642242431640625e+01
7.251570224761962891e-01,1.000000000000000000e+00,-1.747095584869384766e-01,-2.705044746398925781e+00,4.946991443634033203e+00,-2.004375457763671875e+02,-9.090064239501953125e+01,-1.711526794433593750e+02,4.033146500587463379e-01,-6.667523193359375000e+01,-1.826889343261718750e+02,-2.343106746673583984e+00,7.562372589111328125e+01,3.135619926452636719e+01
7.286900281906127930e-01,1.000000000000000000e+00,-2.385535091161727905e-01,-2.650574684143066406e+00,4.954636096954345703e+00,-2.003818054199218750e+02,-9.082504272460937500e+01,-1.710870971679687500e+02,4.033146500587463379e-01,-6.667523193359375000e+01,-1.826890411376953125e+02,-2.343106746673583984e+00,7.562364959716796875e+01,3.135619926452636719e+01
7.325919866561889648e-01,1.000000000000000000e+00,-3.021391034126281738e-01,-2.595855474472045898e+00,4.962077617645263672e+00,-2.003263549804687500e+02,-9.075028991699218750e+01,-1.710222015380859375e+02,4.033146500587463379e-01,-6.667523193359375000e+01,-1.826889343261718750e+02,-2.343106746673583984e+00,7.562364959716796875e+01,3.135642242431640625e+01
7.384920120239257812e-01,1.000000000000000000e+00,-3.654950559139251709e-01,-2.541136503219604492e+00,4.969417095184326172e+00,-2.002707214355468750e+02,-9.067601776123046875e+01,-1.709556732177734375e+02,4.033146500587463379e-01,-6.667523193359375000e+01,-1.826889343261718750e+02,-2.343106746673583984e+00,7.562364959716796875e+01,3.135642242431640625e+01
7.409890294075012207e-01,1.000000000000000000e+00,-4.926088154315948486e-01,-2.431879043579101562e+00,4.983791351318359375e+00,-2.001590576171875000e+02,-9.052487182617187500e+01,-1.708258819580078125e+02,4.033146500587463379e-01,-6.667523193359375000e+01,-1.826889343261718750e+02,-2.343178272247314453e+00,7.562364959716796875e+01,3.135642242431640625e+01
7.446709871292114258e-01,1.000000000000000000e+00,-4.926088154315948486e-01,-2.431879043579101562e+00,4.983791351318359375e+00,-2.001590576171875000e+02,-9.052487182617187500e+01,-1.708258819580078125e+02,4.033146500587463379e-01,-6.667523193359375000e+01,-1.826889343261718750e+02,-2.343178272247314453e+00,7.562364959716796875e+01,3.135642242431640625e+01
7.485269904136657715e-01,1.000000000000000000e+00,-5.560508966445922852e-01,-2.377250671386718750e+00,4.991293907165527344e+00,-2.001032257080078125e+02,-9.045006561279296875e+01,-1.707600250244140625e+02,4.033146500587463379e-01,-6.667523193359375000e+01,-1.826889343261718750e+02,-2.343106746673583984e+00,7.562372589111328125e+01,3.135642242431640625e+01
7.513840198516845703e-01,1.000000000000000000e+00,-6.198087334632873535e-01,-2.322576522827148438e+00,4.998999595642089844e+00,-2.000481719970703125e+02,-9.037537384033203125e+01,-1.706949310302734375e+02,4.033146500587463379e-01,-6.667523193359375000e+01,-1.826889343261718750e+02,-2.343106746673583984e+00,7.562364959716796875e+01,3.135642242431640625e+01
7.554100155830383301e-01,1.000000000000000000e+00,-6.835952997207641602e-01,-2.268129110336303711e+00,5.006786823272705078e+00,-1.999921722412109375e+02,-9.030008697509765625e+01,-1.706289367675781250e+02,4.033146500587463379e-01,-6.667523193359375000e+01,-1.826889343261718750e+02,-2.343106746673583984e+00,7.562364959716796875e+01,3.135642242431640625e+01
7.594599723815917969e-01,1.000000000000000000e+00,-7.472670078277587891e-01,-2.213432550430297852e+00,5.014349937438964844e+00,-1.999367218017578125e+02,-9.022459411621093750e+01,-1.705632934570312500e+02,4.033146500587463379e-01,-6.667523193359375000e+01,-1.826890411376953125e+02,-2.343178272247314453e+00,7.562364959716796875e+01,3.135642242431640625e+01
7.634050250053405762e-01,1.000000000000000000e+00,-8.108525872230529785e-01,-2.158916950225830078e+00,5.021811962127685547e+00,-1.998808898925781250e+02,-9.014920043945312500e+01,-1.704992675781250000e+02,4.033146500587463379e-01,-6.667523193359375000e+01,-1.826889343261718750e+02,-2.343106746673583984e+00,7.562364959716796875e+01,3.135619926452636719e+01
7.674130201339721680e-01,1.000000000000000000e+00,-8.744381666183471680e-01,-2.104356288909912109e+00,5.029029846191406250e+00,-1.998247222900390625e+02,-9.007434844970703125e+01,-1.704332275390625000e+02,4.033146500587463379e-01,-6.667523193359375000e+01,-1.826889343261718750e+02,-2.343178272247314453e+00,7.562364959716796875e+01,3.135642242431640625e+01
7.714480161666870117e-01,1.000000000000000000e+00,-9.380812644958496094e-01,-2.049976587295532227e+00,5.036207199096679688e+00,-1.997699432373046875e+02,-8.999912261962890625e+01,-1.703673706054687500e+02,4.033146500587463379e-01,-6.667523193359375000e+01,-1.826889343261718750e+02,-2.343106746673583984e+00,7.562364959716796875e+01,3.135619926452636719e+01
7.753880023956298828e-01,1.000000000000000000e+00,-1.001494526863098145e+00,-1.995596885681152344e+00,5.043485641479492188e+00,-1.997141113281250000e+02,-8.992351531982421875e+01,-1.703025360107421875e+02,4.033146500587463379e-01,-6.667523193359375000e+01,-1.826889343261718750e+02,-2.343106746673583984e+00,7.562364959716796875e+01,3.135642242431640625e+01
7.794100046157836914e-01,1.000000000000000000e+00,-1.064850568771362305e+00,-1.941149353981018066e+00,5.051028728485107422e+00,-1.996583251953125000e+02,-8.984839630126953125e+01,-1.702368774414062500e+02,4.033146500587463379e-01,-6.667523193359375000e+01,-1.826890411376953125e+02,-2.343106746673583984e+00,7.562364959716796875e+01,3.135619926452636719e+01
7.835230231285095215e-01,1.000000000000000000e+00,-1.128407359123229980e+00,-1.886656403541564941e+00,5.058531284332275391e+00,-1.996028747558593750e+02,-8.977337646484375000e+01,-1.701721801757812500e+02,4.033146500587463379e-01,-6.667523193359375000e+01,-1.826889343261718750e+02,-2.343106746673583984e+00,7.562364959716796875e+01,3.135619926452636719e+01
7.892019748687744141e-01,1.000000000000000000e+00,-1.191763281822204590e+00,-1.832050561904907227e+00,5.065993309020996094e+00,-1.995470428466796875e+02,-8.969766998291015625e+01,-1.701072845458984375e+02,4.033146500587463379e-01,-6.667523193359375000e+01,-1.826890411376953125e+02,-2.343106746673583984e+00,7.562364959716796875e+01,3.135642242431640625e+01
7.914239764213562012e-01,1.000000000000000000e+00,-1.255148053169250488e+00,-1.777489781379699707e+00,5.073332786560058594e+00,-1.994917297363281250e+02,-8.962228393554687500e+01,-1.700416412353515625e+02,4.033146500587463379e-01,-6.667523193359375000e+01,-1.826889343261718750e+02,-2.343178272247314453e+00,7.562364959716796875e+01,3.135642242431640625e+01
7.955449819564819336e-01,1.000000000000000000e+00,-1.318475127220153809e+00,-1.722725391387939453e+00,5.080530643463134766e+00,-1.994358367919921875e+02,-8.954769134521484375e+01,-1.699764099121093750e+02,4.033146500587463379e-01,-6.667523193359375000e+01,-1.826889343261718750e+02,-2.343106746673583984e+00,7.562372589111328125e+01,3.135642242431640625e+01
7.993860244750976562e-01,1.000000000000000000e+00,-1.382032155990600586e+00,-1.667915701866149902e+00,5.087829113006591797e+00,-1.993799438476562500e+02,-8.947251129150390625e+01,-1.699112243652343750e+02,4.033146500587463379e-01,-6.667523193359375000e+01,-1.826889343261718750e+02,-2.343034982681274414e+00,7.562364959716796875e+01,3.135642242431640625e+01
8.033800125122070312e-01,1.000000000000000000e+00,-1.445502877235412598e+00,-1.613377571105957031e+00,5.095087528228759766e+00,-1.993244323730468750e+02,-8.939669799804687500e+01,-1.698448333740234375e+02,4.033146500587463379e-01,-6.667523193359375000e+01,-1.826889343261718750e+02,-2.343178272247314453e+00,7.562364959716796875e+01,3.135619926452636719e+01
8.075029850006103516e-01,1.000000000000000000e+00,-1.508830070495605469e+00,-1.558907389640808105e+00,5.102651119232177734e+00,-1.992687530517578125e+02,-8.932088470458984375e+01,-1.697800140380859375e+02,4.033146500587463379e-01,-6.667523193359375000e+01,-1.826889343261718750e+02,-2.343106746673583984e+00,7.562364959716796875e+01,3.135642242431640625e+01
8.117679953575134277e-01,1.000000000000000000e+00,-1.572530627250671387e+00,-1.504391908645629883e+00,5.110438346862792969e+00,-1.992131805419921875e+02,-8.924607849121093750e+01,-1.697151031494140625e+02,4.033146500587463379e-01,-6.667523193359375000e+01,-1.826889343261718750e+02,-2.343106746673583984e+00,7.562364959716796875e+01,3.135642242431640625e+01
8.154039978981018066e-01,1.000000000000000000e+00,-1.636144876480102539e+00,-1.449763298034667969e+00,5.118266582489013672e+00,-1.991573486328125000e+02,-8.917079925537109375e+01,-1.696493835449218750e+02,4.033146500587463379e-01,-6.667523193359375000e+01,-1.826889343261718750e+02,-2.343106746673583984e+00,7.562364959716796875e+01,3.135642242431640625e+01
8.194450139999389648e-01,1.000000000000000000e+00,-1.699673056602478027e+00,-1.395134568214416504e+00,5.125870227813720703e+00,-1.991017303466796875e+02,-8.909482574462890625e+01,-1.695844879150390625e+02,4.033146500587463379e-01,-6.667523193359375000e+01,-1.826889343261718750e+02,-2.343106746673583984e+00,7.562364959716796875e+01,3.135619926452636719e+01
8.233829736709594727e-01,1.000000000000000000e+00,-1.763115048408508301e+00,-1.340573787689208984e+00,5.133332252502441406e+00,-1.990461578369140625e+02,-8.901911163330078125e+01,-1.695189056396484375e+02,4.033146500587463379e-01,-6.667523193359375000e+01,-1.826889343261718750e+02,-2.343106746673583984e+00,7.562364959716796875e+01,3.135619926452636719e+01
8.273810148239135742e-01,1.000000000000000000e+00,-1.826470971107482910e+00,-1.286103606224060059e+00,5.140570163726806641e+00,-1.989903717041015625e+02,-8.894458007812500000e+01,-1.694532012939453125e+02,4.033146500587463379e-01,-6.667523193359375000e+01,-1.826889343261718750e+02,-2.343106746673583984e+00,7.562372589111328125e+01,3.135642242431640625e+01
8.314499855041503906e-01,1.000000000000000000e+00,-1.889855742454528809e+00,-1.231701374053955078e+00,5.147747039794921875e+00,-1.989349517822265625e+02,-8.886951446533203125e+01,-1.693886413574218750e+02,4.033146500587463379e-01,-6.667523193359375000e+01,-1.826889343261718750e+02,-2.343178272247314453e+00,7.562364959716796875e+01,3.135619926452636719e+01
8.375440239906311035e-01,1.000000000000000000e+00,-1.953383803367614746e+00,-1.177344322204589844e+00,5.155086994171142578e+00,-1.988793334960937500e+02,-8.879369354248046875e+01,-1.693232574462890625e+02,4.033146500587463379e-01,-6.667523193359375000e+01,-1.826890411376953125e+02,-2.343034982681274414e+00,7.562364959716796875e+01,3.135619926452636719e+01
8.393980264663696289e-01,1.000000000000000000e+00,-2.016481399536132812e+00,-1.122647762298583984e+00,5.162691116333007812e+00,-1.988233337402343750e+02,-8.871841430664062500e+01,-1.692576141357421875e+02,4.033146500587463379e-01,-6.667523193359375000e+01,-1.826889343261718750e+02,-2.343106746673583984e+00,7.562364959716796875e+01,3.135619926452636719e+01
8.434619903564453125e-01,1.000000000000000000e+00,-2.080038309097290039e+00,-1.067973852157592773e+00,5.170335769653320312e+00,-1.987681884765625000e+02,-8.864355468750000000e+01,-1.691932525634765625e+02,4.033146500587463379e-01,-6.667523193359375000e+01,-1.826889343261718750e+02,-2.343106746673583984e+00,7.562364959716796875e+01,3.135619926452636719e+01
8.473820090293884277e-01,1.000000000000000000e+00,-2.143422842025756836e+00,-1.013322591781616211e+00,5.177817821502685547e+00,-1.987119903564453125e+02,-8.856874847412109375e+01,-1.691278076171875000e+02,4.033146500587463379e-01,-6.667523193359375000e+01,-1.826889343261718750e+02,-2.343178272247314453e+00,7.562364959716796875e+01,3.135642242431640625e+01
8.514490127563476562e-01,1.000000000000000000e+00,-2.206778764724731445e+00,-9.587845206260681152e-01,5.185056209564208984e+00,-1.986565704345703125e+02,-8.849320220947265625e+01,-1.690624237060546875e+02,4.033146500587463379e-01,-6.667523193359375000e+01,-1.826889343261718750e+02,-2.343106746673583984e+00,7.562364959716796875e+01,3.135619926452636719e+01
8.553979992866516113e-01,1.000000000000000000e+00,-2.270134925842285156e+00,-9.043142795562744141e-01,5.192274093627929688e+00,-1.986013183593750000e+02,-8.841797637939453125e+01,-1.689977264404296875e+02,4.033146500587463379e-01,-6.667523193359375000e+01,-1.826889343261718750e+02,-2.343106746673583984e+00,7.562364959716796875e+01,3.135619926452636719e+01
8.596370220184326172e-01,1.000000000000000000e+00,-2.333519458770751953e+00,-8.496403694152832031e-01,5.199471473693847656e+00,-1.985452270507812500e+02,-8.834275054931640625e+01,-1.689324188232421875e+02,4.033146500587463379e-01,-6.667523193359375000e+01,-1.826889343261718750e+02,-2.343106746673583984e+00,7.562350463867187500e+01,3.135642242431640625e+01
8.634520173072814941e-01,1.000000000000000000e+00,-2.396904230117797852e+00,-7.952833175659179688e-01,5.206729888916015625e+00,-1.984899139404296875e+02,-8.826789093017578125e+01,-1.688675231933593750e+02,4.033146500587463379e-01,-6.667513275146484375e+01,-1.826889343261718750e+02,-2.343106746673583984e+00,7.562364959716796875e+01,3.135619926452636719e+01
8.674669861793518066e-01,1.000000000000000000e+00,-2.460317611694335938e+00,-7.406999468803405762e-01,5.214150905609130859e+00,-1.984339294433593750e+02,-8.819223785400390625e+01,-1.688027648925781250e+02,4.033146500587463379e-01,-6.667523193359375000e+01,-1.826889343261718750e+02,-2.343106746673583984e+00,7.562364959716796875e+01,3.135619926452636719e+01
8.714669942855834961e-01,1.000000000000000000e+00,-2.523845672607421875e+00,-6.862070560455322266e-01,5.221734523773193359e+00,-1.983779907226562500e+02,-8.811716461181640625e+01,-1.687364349365234375e+02,4.033146500587463379e-01,-6.667523193359375000e+01,-1.826889343261718750e+02,-2.343106746673583984e+00,7.562364959716796875e+01,3.135642242431640625e+01
8.788710236549377441e-01,1.000000000000000000e+00,-2.651103019714355469e+00,-5.774024128913879395e-01,5.237064838409423828e+00,-1.982667846679687500e+02,-8.796750640869140625e+01,-1.686062927246093750e+02,4.033146500587463379e-01,-6.667523193359375000e+01,-1.826889343261718750e+02,-2.343106746673583984e+00,7.562372589111328125e+01,3.135642242431640625e+01
8.803300261497497559e-01,1.000000000000000000e+00,-2.651103019714355469e+00,-5.774024128913879395e-01,5.237064838409423828e+00,-1.982667846679687500e+02,-8.796750640869140625e+01,-1.686062927246093750e+02,4.033146500587463379e-01,-6.667523193359375000e+01,-1.826889343261718750e+02,-2.343106746673583984e+00,7.562372589111328125e+01,3.135642242431640625e+01
8.843110203742980957e-01,1.000000000000000000e+00,-2.714401483535766602e+00,-5.231359004974365234e-01,5.244587898254394531e+00,-1.982114715576171875e+02,-8.789212036132812500e+01,-1.685407867431640625e+02,4.033146500587463379e-01,-6.667523193359375000e+01,-1.826889343261718750e+02,-2.343106746673583984e+00,7.562364959716796875e+01,3.135642242431640625e+01
8.873810172080993652e-01,1.000000000000000000e+00,-2.777958393096923828e+00,-4.687335789203643799e-01,5.251845836639404297e+00,-1.981555328369140625e+02,-8.781715393066406250e+01,-1.684760894775390625e+02,4.033146500587463379e-01,-6.667523193359375000e+01,-1.826889343261718750e+02,-2.343106746673583984e+00,7.562372589111328125e+01,3.135642242431640625e+01
8.924130201339721680e-01,1.000000000000000000e+00,-2.777958393096923828e+00,-4.687335789203643799e-01,5.251845836639404297e+00,-1.981555328369140625e+02,-8.781715393066406250e+01,-1.684760894775390625e+02,4.033146500587463379e-01,-6.667523193359375000e+01,-1.826889343261718750e+02,-2.343106746673583984e+00,7.562364959716796875e+01,3.135619926452636719e+01
8.953999876976013184e-01,1.000000000000000000e+00,-2.904928684234619141e+00,-3.600420653820037842e-01,5.266200065612792969e+00,-1.980449829101562500e+02,-8.766718292236328125e+01,-1.683444519042968750e+02,4.033146500587463379e-01,-6.667523193359375000e+01,-1.826890411376953125e+02,-2.343106746673583984e+00,7.562364959716796875e+01,3.135642242431640625e+01
9.004409909248352051e-01,1.000000000000000000e+00,-2.904928684234619141e+00,-3.600420653820037842e-01,5.266200065612792969e+00,-1.980449829101562500e+02,-8.766718292236328125e+01,-1.683444519042968750e+02,4.033146500587463379e-01,-6.667523193359375000e+01,-1.826890411376953125e+02,-2.343106746673583984e+00,7.562364959716796875e+01,3.135642242431640625e+01
9.034420251846313477e-01,1.000000000000000000e+00,-3.031870126724243164e+00,-2.509884834289550781e-01,5.281408309936523438e+00,-1.979335632324218750e+02,-8.751735687255859375e+01,-1.682142486572265625e+02,4.033146500587463379e-01,-6.667523193359375000e+01,-1.826889343261718750e+02,-2.343106746673583984e+00,7.562364959716796875e+01,3.135642242431640625e+01
9.105250239372253418e-01,1.000000000000000000e+00,-3.031870126724243164e+00,-2.509884834289550781e-01,5.281408309936523438e+00,-1.979335632324218750e+02,-8.751735687255859375e+01,-1.682142486572265625e+02,4.033146500587463379e-01,-6.667523193359375000e+01,-1.826889343261718750e+02,-2.343106746673583984e+00,7.562364959716796875e+01,3.135642242431640625e+01
9.119330048561096191e-01,1.000000000000000000e+00,-3.158955335617065430e+00,-1.419575214385986328e-01,5.296352386474609375e+00,-1.978219146728515625e+02,-8.736658477783203125e+01,-1.680841827392578125e+02,4.033146500587463379e-01,-6.667523193359375000e+01,-1.826889343261718750e+02,-2.343106746673583984e+00,7.562364959716796875e+01,3.135642242431640625e+01
9.153760075569152832e-01,1.000000000000000000e+00,-3.222282409667968750e+00,-8.755519241094589233e-02,5.303529739379882812e+00,-1.977667999267578125e+02,-8.729140472412109375e+01,-1.680187377929687500e+02,4.033146500587463379e-01,-6.667523193359375000e+01,-1.826890411376953125e+02,-2.343106746673583984e+00,7.562364959716796875e+01,3.135619926452636719e+01
9.204139709472656250e-01,1.000000000000000000e+00,-3.222282409667968750e+00,-8.755519241094589233e-02,5.303529739379882812e+00,-1.977667999267578125e+02,-8.729140472412109375e+01,-1.680187377929687500e+02,4.033146500587463379e-01,-6.667523193359375000e+01,-1.826890411376953125e+02,-2.343106746673583984e+00,7.562364959716796875e+01,3.135619926452636719e+01
9.234179854393005371e-01,1.000000000000000000e+00,-3.349367618560791016e+00,2.147575840353965759e-02,5.318107604980468750e+00,-1.976554565429687500e+02,-8.714217376708984375e+01,-1.678892059326171875e+02,4.033146500587463379e-01,-6.667523193359375000e+01,-1.826889343261718750e+02,-2.343106746673583984e+00,7.562364959716796875e+01,3.135619926452636719e+01
9.274439811706542969e-01,1.000000000000000000e+00,-3.349367618560791016e+00,2.147575840353965759e-02,5.318107604980468750e+00,-1.976554565429687500e+02,-8.714217376708984375e+01,-1.678892059326171875e+02,4.033146500587463379e-01,-6.667523193359375000e+01,-1.826889343261718750e+02,-2.343106746673583984e+00,7.562364959716796875e+01,3.135619926452636719e+01
9.315199851989746094e-01,1.000000000000000000e+00,-3.412838220596313477e+00,7.601386308670043945e-02,5.325569152832031250e+00,-1.976001434326171875e+02,-8.706673431396484375e+01,-1.678232116699218750e+02,4.033146500587463379e-01,-6.667523193359375000e+01,-1.826889343261718750e+02,-2.343106746673583984e+00,7.562364959716796875e+01,3.135642242431640625e+01
9.364359974861145020e-01,1.000000000000000000e+00,-3.476567506790161133e+00,1.304161995649337769e-01,5.333417415618896484e+00,-1.975441589355468750e+02,-8.699176788330078125e+01,-1.677579650878906250e+02,4.033146500587463379e-01,-6.667523193359375000e+01,-1.826889343261718750e+02,-2.343106746673583984e+00,7.562350463867187500e+01,3.135642242431640625e+01
9.400069713592529297e-01,1.000000000000000000e+00,-3.603738784790039062e+00,2.392208427190780640e-01,5.348727226257324219e+00,-1.974332733154296875e+02,-8.684259033203125000e+01,-1.676275024414062500e+02,4.033146500587463379e-01,-6.667523193359375000e+01,-1.826889343261718750e+02,-2.343106746673583984e+00,7.562364959716796875e+01,3.135642242431640625e+01
9.435200095176696777e-01,1.000000000000000000e+00,-3.667266845703125000e+00,2.934421300888061523e-01,5.356087207794189453e+00,-1.973776092529296875e+02,-8.676699066162109375e+01,-1.675623321533203125e+02,4.033146500587463379e-01,-6.667523193359375000e+01,-1.826889343261718750e+02,-2.343106746673583984e+00,7.562364959716796875e+01,3.135619926452636719e+01
9.474210143089294434e-01,1.000000000000000000e+00,-3.667266845703125000e+00,2.934421300888061523e-01,5.356087207794189453e+00,-1.973776092529296875e+02,-8.676699066162109375e+01,-1.675623321533203125e+02,4.033146500587463379e-01,-6.667523193359375000e+01,-1.826889343261718750e+02,-2.343106746673583984e+00,7.562364959716796875e+01,3.135619926452636719e+01
9.514300227165222168e-01,1.000000000000000000e+00,-3.730623006820678711e+00,3.480933904647827148e-01,5.363406658172607422e+00,-1.973223876953125000e+02,-8.669155120849609375e+01,-1.674974212646484375e+02,4.033146500587463379e-01,-6.667523193359375000e+01,-1.826889343261718750e+02,-2.343034982681274414e+00,7.562364959716796875e+01,3.135619926452636719e+01
9.561719894409179688e-01,1.000000000000000000e+00,-3.794036149978637695e+00,4.026088714599609375e-01,5.370502471923828125e+00,-1.972663574218750000e+02,-8.661669158935546875e+01,-1.674317779541015625e+02,4.033146500587463379e-01,-6.667523193359375000e+01,-1.826889343261718750e+02,-2.343106746673583984e+00,7.562372589111328125e+01,3.135642242431640625e+01
9.593780040740966797e-01,1.000000000000000000e+00,-3.920977830886840820e+00,5.118435025215148926e-01,5.385283470153808594e+00,-1.971554718017578125e+02,-8.646617889404296875e+01,-1.673016357421875000e+02,4.033146500587463379e-01,-6.667523193359375000e+01,-1.826889343261718750e+02,-2.343106746673583984e+00,7.562364959716796875e+01,3.135642242431640625e+01
9.634230136871337891e-01,1.000000000000000000e+00,-3.920977830886840820e+00,5.118435025215148926e-01,5.385283470153808594e+00,-1.971554718017578125e+02,-8.646617889404296875e+01,-1.673016357421875000e+02,4.033146500587463379e-01,-6.667523193359375000e+01,-1.826889343261718750e+02,-2.343106746673583984e+00,7.562364959716796875e+01,3.135642242431640625e+01
9.674900174140930176e-01,1.000000000000000000e+00,-3.984505653381347656e+00,5.662910938262939453e-01,5.392887592315673828e+00,-1.971000213623046875e+02,-8.639143371582031250e+01,-1.672361297607421875e+02,4.033146500587463379e-01,-6.667523193359375000e+01,-1.826889343261718750e+02,-2.343034982681274414e+00,7.562364959716796875e+01,3.135619926452636719e+01
9.714419841766357422e-01,1.000000000000000000e+00,-4.047861576080322266e+00,6.208292245864868164e-01,5.400308609008789062e+00,-1.970451202392578125e+02,-8.631636047363281250e+01,-1.671714935302734375e+02,4.033146500587463379e-01,-6.667523193359375000e+01,-1.826889343261718750e+02,-2.343106746673583984e+00,7.562350463867187500e+01,3.135619926452636719e+01
9.754440188407897949e-01,1.000000000000000000e+00,-4.111103057861328125e+00,6.750278472900390625e-01,5.407729625701904297e+00,-1.969889068603515625e+02,-8.624155426025390625e+01,-1.671062011718750000e+02,4.033146500587463379e-01,-6.667523193359375000e+01,-1.826889343261718750e+02,-2.343178272247314453e+00,7.562364959716796875e+01,3.135642242431640625e+01
9.802629947662353516e-01,1.000000000000000000e+00,-4.174430370330810547e+00,7.296338677406311035e-01,5.414927482604980469e+00,-1.969333496093750000e+02,-8.616531372070312500e+01,-1.670404815673828125e+02,4.033146500587463379e-01,-6.667523193359375000e+01,-1.826889343261718750e+02,-2.343034982681274414e+00,7.562364959716796875e+01,3.135642242431640625e+01
9.833859801292419434e-01,1.000000000000000000e+00,-4.301372051239013672e+00,8.385290503501892090e-01,5.429342746734619141e+00,-1.968223114013671875e+02,-8.601602935791015625e+01,-1.669103393554687500e+02,4.033146500587463379e-01,-6.667523193359375000e+01,-1.826889343261718750e+02,-2.343106746673583984e+00,7.562364959716796875e+01,3.135619926452636719e+01
9.874340295791625977e-01,1.000000000000000000e+00,-4.301372051239013672e+00,8.385290503501892090e-01,5.429342746734619141e+00,-1.968223114013671875e+02,-8.601602935791015625e+01,-1.669103393554687500e+02,4.033146500587463379e-01,-6.667523193359375000e+01,-1.826889343261718750e+02,-2.343106746673583984e+00,7.562364959716796875e+01,3.135619926452636719e+01
9.914609789848327637e-01,1.000000000000000000e+00,-4.364813804626464844e+00,8.929539918899536133e-01,5.437048435211181641e+00,-1.967671051025390625e+02,-8.594107055664062500e+01,-1.668454284667968750e+02,4.033146500587463379e-01,-6.667523193359375000e+01,-1.826889343261718750e+02,-2.343106746673583984e+00,7.562372589111328125e+01,3.135619926452636719e+01
9.954599738121032715e-01,1.000000000000000000e+00,-4.428256034851074219e+00,9.471299648284912109e-01,5.444876194000244141e+00,-1.967112731933593750e+02,-8.586514282226562500e+01,-1.667810821533203125e+02,4.033146500587463379e-01,-6.667523193359375000e+01,-1.826889343261718750e+02,-2.343106746673583984e+00,7.562350463867187500e+01,3.135642242431640625e+01
9.994260072708129883e-01,1.000000000000000000e+00,-4.491611957550048828e+00,1.001328706741333008e+00,5.452581882476806641e+00,-1.966555480957031250e+02,-8.579065704345703125e+01,-1.667151489257812500e+02,4.033146500587463379e-01,-6.667523193359375000e+01,-1.826889343261718750e+02,-2.343106746673583984e+00,7.562364959716796875e+01,3.135619926452636719e+01
1.004194021224975586e+00,1.000000000000000000e+00,-4.555025100708007812e+00,1.055549979209899902e+00,5.460023403167724609e+00,-1.966004943847656250e+02,-8.571569824218750000e+01,-1.666499176025390625e+02,4.033146500587463379e-01,-6.667523193359375000e+01,-1.826890411376953125e+02,-2.343106746673583984e+00,7.562350463867187500e+01,3.135642242431640625e+01
1.008412957191467285e+00,1.000000000000000000e+00,-4.618495941162109375e+00,1.109974861145019531e+00,5.467342853546142578e+00,-1.965446624755859375e+02,-8.564057159423828125e+01,-1.665851440429687500e+02,4.033146500587463379e-01,-6.667523193359375000e+01,-1.826889343261718750e+02,-2.343106746673583984e+00,7.562364959716796875e+01,3.135642242431640625e+01
1.012439966201782227e+00,1.000000000000000000e+00,-4.744633674621582031e+00,1.218892693519592285e+00,5.481717586517333984e+00,-1.964336853027343750e+02,-8.549006652832031250e+01,-1.664541320800781250e+02,4.033146500587463379e-01,-6.667523193359375000e+01,-1.826889343261718750e+02,-2.343106746673583984e+00,7.562364959716796875e+01,3.135619926452636719e+01
1.015442013740539551e+00,1.000000000000000000e+00,-4.807702541351318359e+00,1.273385643959045410e+00,5.489077091217041016e+00,-1.963777923583984375e+02,-8.541553497314453125e+01,-1.663897705078125000e+02,4.033146500587463379e-01,-6.667523193359375000e+01,-1.826889343261718750e+02,-2.343106746673583984e+00,7.562364959716796875e+01,3.135642242431640625e+01
1.019513964653015137e+00,1.000000000000000000e+00,-4.807702541351318359e+00,1.273385643959045410e+00,5.489077091217041016e+00,-1.963777923583984375e+02,-8.541553497314453125e+01,-1.663897705078125000e+02,4.033146500587463379e-01,-6.667523193359375000e+01,-1.826889343261718750e+02,-2.343106746673583984e+00,7.562364959716796875e+01,3.135642242431640625e+01
1.023440003395080566e+00,1.000000000000000000e+00,-4.871001243591308594e+00,1.327923655509948730e+00,5.496559619903564453e+00,-1.963227539062500000e+02,-8.534030151367187500e+01,-1.663235168457031250e+02,4.033146500587463379e-01,-6.667523193359375000e+01,-1.826890411376953125e+02,-2.343106746673583984e+00,7.562364959716796875e+01,3.135642242431640625e+01
1.028148055076599121e+00,1.000000000000000000e+00,-4.934127330780029297e+00,1.382280826568603516e+00,5.504122734069824219e+00,-1.962671813964843750e+02,-8.526470184326171875e+01,-1.662590179443359375e+02,4.033146500587463379e-01,-6.667531585693359375e+01,-1.826890411376953125e+02,-2.343178272247314453e+00,7.562364959716796875e+01,3.135642242431640625e+01
1.031463980674743652e+00,1.000000000000000000e+00,-4.997368812561035156e+00,1.436592578887939453e+00,5.511584758758544922e+00,-1.962118225097656250e+02,-8.518984222412109375e+01,-1.661933135986328125e+02,4.033146500587463379e-01,-6.667523193359375000e+01,-1.826889343261718750e+02,-2.343034982681274414e+00,7.562364959716796875e+01,3.135619926452636719e+01
1.035424947738647461e+00,1.000000000000000000e+00,-5.060580730438232422e+00,1.490949630737304688e+00,5.518904209136962891e+00,-1.961563568115234375e+02,-8.511551666259765625e+01,-1.661275939941406250e+02,4.033146500587463379e-01,-6.667523193359375000e+01,-1.826889343261718750e+02,-2.343106746673583984e+00,7.562364959716796875e+01,3.135619926452636719e+01
1.039458036422729492e+00,1.000000000000000000e+00,-5.123649597167968750e+00,1.545442461967468262e+00,5.526183128356933594e+00,-1.961004638671875000e+02,-8.504045104980468750e+01,-1.660634460449218750e+02,4.033146500587463379e-01,-6.667531585693359375e+01,-1.826889343261718750e+02,-2.343106746673583984e+00,7.562364959716796875e+01,3.135642242431640625e+01
1.043473958969116211e+00,1.000000000000000000e+00,-5.186804771423339844e+00,1.599867463111877441e+00,5.533339977264404297e+00,-1.960456390380859375e+02,-8.496473693847656250e+01,-1.659981994628906250e+02,4.033146500587463379e-01,-6.667531585693359375e+01,-1.826890411376953125e+02,-2.343178272247314453e+00,7.562364959716796875e+01,3.135642242431640625e+01
1.047425031661987305e+00,1.000000000000000000e+00,-5.250160694122314453e+00,1.654179215431213379e+00,5.540557861328125000e+00,-1.959900665283203125e+02,-8.488972473144531250e+01,-1.659324188232421875e+02,4.033146500587463379e-01,-6.667523193359375000e+01,-1.826889343261718750e+02,-2.343178272247314453e+00,7.562364959716796875e+01,3.135619926452636719e+01
1.052680015563964844e+00,1.000000000000000000e+00,-5.313344001770019531e+00,1.708445787429809570e+00,5.548039913177490234e+00,-1.959341735839843750e+02,-8.481508636474609375e+01,-1.658679199218750000e+02,4.033146500587463379e-01,-6.667523193359375000e+01,-1.826890411376953125e+02,-2.343106746673583984e+00,7.562350463867187500e+01,3.135619926452636719e+01
1.056440949440002441e+00,1.000000000000000000e+00,-5.376671791076660156e+00,1.762621760368347168e+00,5.555745601654052734e+00,-1.958787689208984375e+02,-8.473985290527343750e+01,-1.658020629882812500e+02,4.033146500587463379e-01,-6.667523193359375000e+01,-1.826889343261718750e+02,-2.343178272247314453e+00,7.562364959716796875e+01,3.135642242431640625e+01
1.059447050094604492e+00,1.000000000000000000e+00,-5.439941406250000000e+00,1.817114591598510742e+00,5.563390254974365234e+00,-1.958229675292968750e+02,-8.466457366943359375e+01,-1.657372283935546875e+02,4.033146500587463379e-01,-6.667523193359375000e+01,-1.826889343261718750e+02,-2.343178272247314453e+00,7.562364959716796875e+01,3.135642242431640625e+01
1.063438057899475098e+00,1.000000000000000000e+00,-5.503325939178466797e+00,1.871516942977905273e+00,5.571055412292480469e+00,-1.957675170898437500e+02,-8.458956146240234375e+01,-1.656727447509765625e+02,4.033146500587463379e-01,-6.667523193359375000e+01,-1.826889343261718750e+02,-2.343106746673583984e+00,7.562364959716796875e+01,3.135642242431640625e+01
1.067495942115783691e+00,1.000000000000000000e+00,-5.566538333892822266e+00,1.926077723503112793e+00,5.578476428985595703e+00,-1.957121429443359375e+02,-8.451517486572265625e+01,-1.656073608398437500e+02,4.033146500587463379e-01,-6.667523193359375000e+01,-1.826889343261718750e+02,-2.343106746673583984e+00,7.562364959716796875e+01,3.135642242431640625e+01
1.071478962898254395e+00,1.000000000000000000e+00,-5.629636287689208984e+00,1.980502605438232422e+00,5.585694313049316406e+00,-1.956566314697265625e+02,-8.443984985351562500e+01,-1.655424652099609375e+02,4.033146500587463379e-01,-6.667531585693359375e+01,-1.826889343261718750e+02,-2.343106746673583984e+00,7.562364959716796875e+01,3.135619926452636719e+01
1.075935006141662598e+00,1.000000000000000000e+00,-5.692848205566406250e+00,2.034859895706176758e+00,5.592790126800537109e+00,-1.956013183593750000e+02,-8.436483001708984375e+01,-1.654774932861328125e+02,4.033146500587463379e-01,-6.667531585693359375e+01,-1.826889343261718750e+02,-2.343106746673583984e+00,7.562364959716796875e+01,3.135642242431640625e+01
1.081413984298706055e+00,1.000000000000000000e+00,-5.756204128265380859e+00,2.089171648025512695e+00,5.600129604339599609e+00,-1.955453338623046875e+02,-8.428981781005859375e+01,-1.654114532470703125e+02,4.033146500587463379e-01,-6.667523193359375000e+01,-1.826889343261718750e+02,-2.343106746673583984e+00,7.562364959716796875e+01,3.135619926452636719e+01
1.084018945693969727e+00,1.000000000000000000e+00,-5.883260726928710938e+00,2.198112010955810547e+00,5.615297317504882812e+00,-1.954348754882812500e+02,-8.413993835449218750e+01,-1.652817840576171875e+02,4.033146500587463379e-01,-6.667523193359375000e+01,-1.826889343261718750e+02,-2.343106746673583984e+00,7.562364959716796875e+01,3.135642242431640625e+01
1.088508009910583496e+00,1.000000000000000000e+00,-5.883260726928710938e+00,2.198112010955810547e+00,5.615297317504882812e+00,-1.954348754882812500e+02,-8.413993835449218750e+01,-1.652817840576171875e+02,4.033146500587463379e-01,-6.667523193359375000e+01,-1.826889343261718750e+02,-2.343106746673583984e+00,7.562364959716796875e+01,3.135642242431640625e+01
1.091611027717590332e+00,1.000000000000000000e+00,-5.946501731872558594e+00,2.252582073211669922e+00,5.622819900512695312e+00,-1.953789825439453125e+02,-8.406524658203125000e+01,-1.652163391113281250e+02,4.033146500587463379e-01,-6.667523193359375000e+01,-1.826889343261718750e+02,-2.343106746673583984e+00,7.562364959716796875e+01,3.135619926452636719e+01
1.095504045486450195e+00,1.000000000000000000e+00,-6.009771823883056641e+00,2.306803464889526367e+00,5.630200386047363281e+00,-1.953238372802734375e+02,-8.399011993408203125e+01,-1.651519775390625000e+02,4.033146500587463379e-01,-6.667523193359375000e+01,-1.826890411376953125e+02,-2.343034982681274414e+00,7.562364959716796875e+01,3.135619926452636719e+01
1.101089954376220703e+00,1.000000000000000000e+00,-6.073271274566650391e+00,2.361092805862426758e+00,5.637418270111083984e+00,-1.952681579589843750e+02,-8.391510772705078125e+01,-1.650865325927734375e+02,4.033146500587463379e-01,-6.667523193359375000e+01,-1.826890411376953125e+02,-2.343106746673583984e+00,7.562364959716796875e+01,3.135619926452636719e+01
1.104431986808776855e+00,1.000000000000000000e+00,-6.136598587036132812e+00,2.415223360061645508e+00,5.644636154174804688e+00,-1.952128601074218750e+02,-8.383987426757812500e+01,-1.650206298828125000e+02,4.033146500587463379e-01,-6.667523193359375000e+01,-1.826890411376953125e+02,-2.343106746673583984e+00,7.562364959716796875e+01,3.135619926452636719e+01
1.107514977455139160e+00,1.000000000000000000e+00,-6.199954509735107422e+00,2.469557762145996094e+00,5.651935100555419922e+00,-1.951576995849609375e+02,-8.376544952392578125e+01,-1.649563293457031250e+02,4.033146500587463379e-01,-6.667523193359375000e+01,-1.826890411376953125e+02,-2.343106746673583984e+00,7.562364959716796875e+01,3.135619926452636719e+01
