rpiRobotics/ARM-21-02-F-19-Robot-Motion-Program/data_performance_abb/curve_1/baseline/100L/realrobot/bisect/run_0realrobot_curve_exe_v150_z10.csv
timestamp, cmd_num, J1, J2, J3, J4, J5, J6
0.000372, -1, 11.3784, 13.6124, 17.34, -145.519, -97.9231, 142.516
0.003007, -1, 11.3784, 13.6124, 17.34, -145.519, -97.9231, 142.516
0.007368, -1, 11.3784, 13.6124, 17.34, -145.519, -97.9231, 142.516
0.028629, -1, 11.3784, 13.6124, 17.34, -145.519, -97.9231, 142.516
0.0313, -1, 11.3784, 13.6124, 17.34, -145.519, -97.9231, 142.516
0.032562, -1, 11.3783, 13.6124, 17.34, -145.519, -97.9231, 142.516
0.039254, -1, 11.3784, 13.6124, 17.34, -145.519, -97.9232, 142.516
0.047564, -1, 11.3783, 13.6124, 17.34, -145.519, -97.9231, 142.516
0.055264, -1, 11.3776, 13.6124, 17.34, -145.519, -97.9231, 142.516
0.063268, -1, 11.375, 13.6122, 17.3399, -145.519, -97.9231, 142.516
0.071348, -1, 11.3686, 13.6114, 17.3396, -145.519, -97.923, 142.516
0.079168, -1, 11.3574, 13.6095, 17.3389, -145.519, -97.923, 142.514
0.087189, -1, 11.34, 13.606, 17.3381, -145.52, -97.9229, 142.505
0.095277, -1, 11.3133, 13.6, 17.3371, -145.523, -97.9224, 142.483
0.104089, -1, 11.2751, 13.5907, 17.3363, -145.53, -97.9208, 142.442
0.111327, -1, 11.2251, 13.5783, 17.3364, -145.541, -97.9174, 142.377
0.119463, -1, 11.1636, 13.5628, 17.338, -145.558, -97.912, 142.281
0.128305, -1, 11.0906, 13.5435, 17.3418, -145.581, -97.9042, 142.15
0.135545, -1, 11.0055, 13.5204, 17.348, -145.61, -97.8941, 141.985
0.143528, -1, 10.9089, 13.4941, 17.3564, -145.644, -97.882, 141.787
0.152449, -1, 10.8015, 13.4642, 17.3668, -145.683, -97.8684, 141.562
0.159741, -1, 10.6831, 13.4314, 17.3779, -145.726, -97.8537, 141.315
0.168317, -1, 10.5541, 13.3957, 17.389, -145.77, -97.8383, 141.055
0.176619, -1, 10.4161, 13.3577, 17.3996, -145.816, -97.8224, 140.786
0.184265, -1, 10.2712, 13.318, 17.4098, -145.863, -97.8062, 140.511
0.191963, -1, 10.1217, 13.2776, 17.4198, -145.911, -97.7896, 140.234
0.20079, -1, 9.96939, 13.2365, 17.4297, -145.958, -97.7726, 139.956
0.208169, -1, 9.81473, 13.1951, 17.4397, -146.007, -97.7553, 139.677
0.215171, -1, 9.73699, 13.1744, 17.4448, -146.031, -97.7467, 139.537
0.225067, -1, 9.5042, 13.1123, 17.4597, -146.103, -97.7211, 139.118
0.231198, -1, 9.42678, 13.0917, 17.4646, -146.127, -97.7127, 138.979
0.240414, -1, 9.19503, 13.0299, 17.4794, -146.199, -97.6876, 138.56
0.24717, -1, 9.11806, 13.0094, 17.4844, -146.223, -97.6792, 138.42
0.255219, -1, 8.9644, 12.9683, 17.4944, -146.271, -97.6625, 138.14
0.264566, -1, 8.73417, 12.9068, 17.5095, -146.343, -97.6367, 137.721
0.271371, -1, 8.65761, 12.8862, 17.5145, -146.367, -97.628, 137.581
0.280685, -1, 8.42854, 12.8244, 17.5298, -146.44, -97.6017, 137.16
0.288662, -1, 8.27548, 12.7831, 17.5399, -146.487, -97.5844, 136.88
0.297346, -1, 8.12191, 12.7415, 17.5501, -146.535, -97.5674, 136.601
0.30316, -1, 8.04501, 12.7208, 17.5552, -146.559, -97.559, 136.461
0.312761, -1, 7.81338, 12.6583, 17.5704, -146.631, -97.534, 136.04
0.32153, -1, 7.73595, 12.6375, 17.5754, -146.655, -97.5173, 135.76
0.327143, -1, 7.58095, 12.5959, 17.5856, -146.703, -97.5089, 135.62
0.336139, -1, 7.42578, 12.5544, 17.5958, -146.752, -97.4919, 135.34
0.345161, -1, 7.19309, 12.4921, 17.6111, -146.823, -97.4658, 134.919
0.351143, -1, 7.11553, 12.4714, 17.6163, -146.848, -97.4572, 134.779
0.35927, -1, 6.96032, 12.4301, 17.6265, -146.896, -97.44, 134.499
0.369518, -1, 6.72792, 12.3683, 17.642, -146.968, -97.4146, 134.079
0.37524, -1, 6.65058, 12.3477, 17.6473, -146.992, -97.4062, 133.939
0.383183, -1, 6.49611, 12.3065, 17.6577, -147.04, -97.3895, 133.658
0.391214, -1, 6.3419, 12.2654, 17.668, -147.088, -97.3727, 133.378
0.39915, -1, 6.18763, 12.224, 17.6783, -147.137, -97.3556, 133.098
0.407204, -1, 6.03329, 12.1826, 17.6885, -147.185, -97.3383, 132.817
0.415218, -1, 5.87868, 12.1412, 17.6988, -147.233, -97.3206, 132.536
0.423239, -1, 5.72389, 12.0996, 17.7091, -147.281, -97.3031, 132.256
0.431222, -1, 5.56895, 12.058, 17.7193, -147.329, -97.2859, 131.975
0.439147, -1, 5.41374, 12.0164, 17.7296, -147.377, -97.2689, 131.694
0.447144, -1, 5.25833, 11.9748, 17.7398, -147.425, -97.2521, 131.413
0.455235, -1, 5.10258, 11.9331, 17.7502, -147.473, -97.2354, 131.132
0.463216, -1, 4.94663, 11.8915, 17.7607, -147.521, -97.2185, 130.851
0.471139, -1, 4.79077, 11.85, 17.771, -147.57, -97.2014, 130.57
0.47923, -1, 4.63496, 11.8085, 17.7815, -147.618, -97.184, 130.289
0.487142, -1, 4.47924, 11.7672, 17.7918, -147.666, -97.1665, 130.009
0.627285, -1, 1.8355, 11.0603, 17.9682, -148.511, -96.8672, 125.083
0.62868, -1, 1.75723, 11.0395, 17.9734, -148.511, -96.8672, 125.083
0.629965, -1, 1.75723, 11.0395, 17.9734, -148.511, -96.8672, 125.083
0.632008, -1, 1.67903, 11.0187, 17.9786, -148.535, -96.8586, 124.942
0.633298, -1, 1.67903, 11.0187, 17.9786, -148.535, -96.8586, 124.942
0.634553, -1, 1.67903, 11.0187, 17.9786, -148.535, -96.8586, 124.942
0.640016, -1, 1.52297, 10.977, 17.9891, -148.584, -96.8416, 124.66
0.643659, -1, 1.44499, 10.9562, 17.9943, -148.609, -96.8331, 124.519
0.784731, -1, -1.28682, 10.2256, 18.176, -149.457, -96.5338, 119.574
0.786281, -1, -1.28682, 10.2256, 18.176, -149.457, -96.5338, 119.574
0.787541, -1, -1.28682, 10.2256, 18.176, -149.457, -96.5338, 119.574
0.789579, -1, -1.36523, 10.2047, 18.1812, -149.482, -96.5254, 119.432
0.790768, -1, -1.36523, 10.2047, 18.1812, -149.482, -96.5254, 119.432
0.79265, -1, -1.44356, 10.1838, 18.1864, -149.506, -96.517, 119.29
0.794151, -1, -1.44356, 10.1838, 18.1864, -149.506, -96.517, 119.29
0.798334, -1, -1.52188, 10.1629, 18.1916, -149.53, -96.5085, 119.149
0.799558, -1, -1.52188, 10.1629, 18.1916, -149.53, -96.5085, 119.149
0.801611, -1, -1.60012, 10.142, 18.1969, -149.554, -96.5001, 119.007
0.802923, -1, -1.60012, 10.142, 18.1969, -149.554, -96.5001, 119.007
0.805492, -1, -1.67825, 10.1212, 18.2022, -149.579, -96.4916, 118.866
0.807624, -1, -1.67825, 10.1212, 18.2022, -149.579, -96.4916, 118.866
0.809747, -1, -1.75624, 10.1003, 18.2074, -149.603, -96.483, 118.724
0.810945, -1, -1.75624, 10.1003, 18.2074, -149.603, -96.483, 118.724
0.814072, -1, -1.83409, 10.0794, 18.2126, -149.627, -96.4744, 118.582
0.815353, -1, -1.83409, 10.0794, 18.2126, -149.627, -96.4744, 118.582
0.817377, -1, -1.91183, 10.0585, 18.2178, -149.652, -96.4657, 118.44
0.818679, -1, -1.91183, 10.0585, 18.2178, -149.652, -96.4657, 118.44
0.819877, -1, -1.91183, 10.0585, 18.2178, -149.652, -96.4657, 118.44
0.821979, -1, -1.98949, 10.0376, 18.223, -149.676, -96.4568, 118.299
0.823192, -1, -1.98949, 10.0376, 18.223, -149.676, -96.4568, 118.299
0.827142, -1, -2.06708, 10.0167, 18.2282, -149.7, -96.448, 118.157
0.829782, -1, -2.14463, 9.99576, 18.2334, -149.725, -96.4392, 118.015
0.831888, -1, -2.14463, 9.99576, 18.2334, -149.725, -96.4392, 118.015
0.834168, -1, -2.22221, 9.97488, 18.2386, -149.749, -96.4304, 117.873
0.835377, -1, -2.22221, 9.97488, 18.2386, -149.749, -96.4304, 117.873
0.837433, -1, -2.29982, 9.954, 18.2438, -149.773, -96.4217, 117.732
0.838664, -1, -2.29982, 9.954, 18.2438, -149.773, -96.4217, 117.732
0.83994, -1, -2.29982, 9.954, 18.2438, -149.773, -96.4217, 117.732
0.842926, -1, -2.37752, 9.93307, 18.249, -149.797, -96.4131, 117.59
0.844108, -1, -2.37752, 9.93307, 18.249, -149.797, -96.4131, 117.59
0.846154, -1, -2.45529, 9.91211, 18.2542, -149.821, -96.4046, 117.448
0.84735, -1, -2.45529, 9.91211, 18.2542, -149.821, -96.4046, 117.448
0.849243, -1, -2.53312, 9.89115, 18.2595, -149.846, -96.3961, 117.306
0.850599, -1, -2.53312, 9.89115, 18.2595, -149.846, -96.3961, 117.306
0.8519, -1, -2.53312, 9.89115, 18.2595, -149.846, -96.3961, 117.306
0.857451, -1, -2.68894, 9.84929, 18.2698, -149.895, -96.3793, 117.023
0.863249, -1, -2.76702, 9.82835, 18.275, -149.919, -96.3709, 116.881
0.872166, -1, -2.92352, 9.78644, 18.2854, -149.967, -96.354, 116.597
0.880119, -1, -3.08046, 9.74453, 18.2958, -150.016, -96.337, 116.314
0.88721, -1, -3.2377, 9.70263, 18.3062, -150.065, -96.3196, 116.03
0.895124, -1, -3.39538, 9.66068, 18.3167, -150.113, -96.3021, 115.746
0.903153, -1, -3.55329, 9.61872, 18.3272, -150.162, -96.2845, 115.462
0.911188, -1, -3.71114, 9.5769, 18.3376, -150.211, -96.2673, 115.178
0.919119, -1, -3.86908, 9.53502, 18.3479, -150.259, -96.2503, 114.894
0.92737, -1, -4.02706, 9.49305, 18.3583, -150.308, -96.2332, 114.609
0.935124, -1, -4.18482, 9.45121, 18.3686, -150.357, -96.2163, 114.325
0.943127, -1, -4.34252, 9.4093, 18.3789, -150.406, -96.1993, 114.041
0.95187, -1, -4.49982, 9.36735, 18.3893, -150.455, -96.1819, 113.756
0.960181, -1, -4.65675, 9.32542, 18.3996, -150.504, -96.1642, 113.472
0.968225, -1, -4.81329, 9.28345, 18.4099, -150.552, -96.1464, 113.187
0.976129, -1, -4.96952, 9.24142, 18.4204, -150.601, -96.129, 112.902
0.983132, -1, -5.12545, 9.19946, 18.431, -150.65, -96.1119, 112.618
0.991138, -1, -5.28133, 9.15744, 18.4414, -150.698, -96.0949, 112.333
0.999242, -1, -5.43742, 9.11531, 18.4519, -150.748, -96.0781, 112.048
1.00712, -1, -5.59367, 9.07324, 18.4623, -150.796, -96.0613, 111.764
1.01529, -1, -5.75019, 9.03118, 18.4726, -150.845, -96.0442, 111.479
1.02438, -1, -5.90716, 8.98902, 18.483, -150.894, -96.0268, 111.194
1.03123, -1, -6.06462, 8.9469, 18.4933, -150.943, -96.0091, 110.909
1.03952, -1, -6.22269, 8.90481, 18.5036, -150.992, -95.9917, 110.624
1.04724, -1, -6.38107, 8.86272, 18.5139, -151.041, -95.9744, 110.339
1.05528, -1, -6.53953, 8.82071, 18.5242, -151.09, -95.9574, 110.054
1.06365, -1, -6.69812, 8.77865, 18.5348, -151.139, -95.9404, 109.768
1.07122, -1, -6.85682, 8.73657, 18.5453, -151.188, -95.9234, 109.483
1.07921, -1, -7.0153, 8.69457, 18.5558, -151.237, -95.9063, 109.197
1.08784, -1, -7.17378, 8.6525, 18.5662, -151.286, -95.8888, 108.912
1.09693, -1, -7.33195, 8.61039, 18.5765, -151.335, -95.8712, 108.626
1.10412, -1, -7.48979, 8.56818, 18.587, -151.384, -95.8534, 108.34
1.11206, -1, -7.64744, 8.52595, 18.5975, -151.433, -95.836, 108.055
1.1209, -1, -7.80469, 8.48375, 18.6079, -151.482, -95.8188, 107.769
1.12813, -1, -7.96146, 8.44151, 18.6183, -151.531, -95.8018, 107.483
1.13631, -1, -8.11813, 8.39917, 18.6287, -151.58, -95.7849, 107.198
1.14346, -1, -8.27477, 8.35688, 18.6391, -151.629, -95.7678, 106.912
1.15217, -1, -8.43154, 8.31452, 18.6497, -151.678, -95.7506, 106.626
1.16047, -1, -8.58859, 8.27217, 18.6601, -151.727, -95.7332, 106.34
1.16763, -1, -8.74598, 8.22995, 18.6706, -151.777, -95.7154, 106.053
1.17626, -1, -8.90374, 8.18767, 18.6809, -151.825, -95.6978, 105.767
1.1845, -1, -9.06187, 8.1454, 18.6913, -151.874, -95.6805, 105.481
1.1917, -1, -9.14115, 8.1032, 18.7018, -151.924, -95.6633, 105.194
1.20023, -1, -9.37947, 8.06097, 18.7121, -151.973, -95.6462, 104.908
1.20849, -1, -9.45902, 8.03981, 18.7174, -151.997, -95.6377, 104.764
1.21514, -1, -9.61816, 7.99762, 18.7278, -152.047, -95.6205, 104.478
1.22414, -1, -9.85704, 7.93441, 18.7434, -152.12, -95.5943, 104.047
1.23111, -1, -9.93672, 7.91327, 18.7487, -152.145, -95.5854, 103.904
1.24033, -1, -10.1756, 7.84979, 18.7646, -152.219, -95.5586, 103.474
1.24716, -1, -10.2551, 7.82859, 18.7699, -152.244, -95.5497, 103.33
1.25722, -1, -10.4932, 7.76492, 18.7856, -152.318, -95.5237, 102.9
1.26316, -1, -10.5725, 7.74371, 18.7908, -152.343, -95.5152, 102.757
1.27116, -1, -10.7308, 7.70131, 18.8012, -152.392, -95.4982, 102.47
1.2814, -1, -10.9676, 7.63752, 18.8169, -152.465, -95.4725, 102.039
1.28716, -1, -11.0463, 7.61628, 18.822, -152.49, -95.4639, 101.896
1.29672, -1, -11.2824, 7.55265, 18.8377, -152.564, -95.4375, 101.465
1.30551, -1, -11.44, 7.51021, 18.8481, -152.614, -95.4197, 101.177
1.31118, -1, -11.5188, 7.48899, 18.8533, -152.638, -95.4109, 101.034
1.32076, -1, -11.7556, 7.42542, 18.8692, -152.712, -95.3847, 100.602
1.32963, -1, -11.8348, 7.40424, 18.8744, -152.736, -95.3761, 100.314
1.33517, -1, -11.9934, 7.36189, 18.885, -152.786, -95.3589, 100.171
1.34415, -1, -12.1524, 7.31958, 18.8955, -152.835, -95.3418, 99.8828
1.3521, -1, -12.3119, 7.27722, 18.906, -152.885, -95.3245, 99.595
1.35917, -1, -12.4716, 7.23481, 18.9165, -152.935, -95.307, 99.307
1.36715, -1, -12.6314, 7.19247, 18.927, -152.984, -95.2891, 99.0192
1.37513, -1, -12.7915, 7.15007, 18.9375, -153.033, -95.2711, 98.7313
1.38319, -1, -12.9516, 7.10759, 18.9481, -153.083, -95.2534, 98.4434
1.39115, -1, -13.1115, 7.06507, 18.9585, -153.132, -95.236, 98.1552
1.3991, -1, -13.2713, 7.02253, 18.969, -153.182, -95.2188, 97.8671
1.40809, -1, -13.4307, 6.97994, 18.9797, -153.231, -95.2018, 97.5791
1.4151, -1, -13.5899, 6.93725, 18.9902, -153.28, -95.1846, 97.2906
1.4241, -1, -13.7491, 6.89455, 19.0007, -153.33, -95.1674, 97.002
1.43216, -1, -13.9079, 6.85188, 19.0112, -153.379, -95.1498, 96.7136
1.43911, -1, -14.0662, 6.80919, 19.0216, -153.429, -95.132, 96.4249
1.44809, -1, -14.2244, 6.7666, 19.0322, -153.478, -95.1142, 96.1361
1.45616, -1, -14.3828, 6.72396, 19.0426, -153.528, -95.0968, 95.8471
1.46311, -1, -14.5411, 6.68129, 19.053, -153.577, -95.0796, 95.5582
1.47214, -1, -14.6998, 6.63875, 19.0636, -153.627, -95.0624, 95.269
1.48018, -1, -14.8589, 6.59627, 19.074, -153.676, -95.0453, 94.9797
1.48711, -1, -15.0183, 6.55364, 19.0847, -153.725, -95.0279, 94.6907
1.49517, -1, -15.178, 6.51104, 19.0954, -153.776, -95.0102, 94.4018
1.5031, -1, -15.3381, 6.4685, 19.106, -153.825, -94.9923, 94.1127
1.51111, -1, -15.4985, 6.4259, 19.1166, -153.874, -94.9743, 93.8234
1.51918, -1, -15.6593, 6.38323, 19.1271, -153.924, -94.9567, 93.5342
1.52714, -1, -15.8201, 6.34054, 19.1376, -153.974, -94.9393, 93.245
1.53522, -1, -15.9808, 6.29775, 19.1483, -154.024, -94.9221, 92.9555
1.54327, -1, -16.1415, 6.25493, 19.1588, -154.074, -94.9049, 92.6657
1.55122, -1, -16.3023, 6.21212, 19.1693, -154.123, -94.8877, 92.3762
1.55929, -1, -16.4627, 6.16916, 19.1797, -154.172, -94.8702, 92.0866
1.56722, -1, -16.6228, 6.12621, 19.1902, -154.222, -94.8524, 91.7967
1.57521, -1, -16.7826, 6.08335, 19.2008, -154.272, -94.8345, 91.5065
1.58327, -1, -16.942, 6.0404, 19.2114, -154.322, -94.8168, 91.2164
1.59114, -1, -17.1012, 5.99746, 19.222, -154.372, -94.7993, 90.9264
1.59913, -1, -17.2603, 5.95459, 19.2326, -154.421, -94.782, 90.6361
1.60763, -1, -17.4195, 5.91176, 19.2431, -154.471, -94.7646, 90.346
1.61522, -1, -17.5788, 5.86902, 19.2538, -154.521, -94.7473, 90.0559
1.62329, -1, -17.7383, 5.82628, 19.2644, -154.57, -94.7297, 89.7657
1.63148, -1, -17.8979, 5.78354, 19.2751, -154.621, -94.7117, 89.4754
1.63939, -1, -18.058, 5.7408, 19.2857, -154.67, -94.6936, 89.1848
1.64746, -1, -18.2186, 5.6981, 19.2963, -154.72, -94.6757, 88.8945
1.65592, -1, -18.3795, 5.65535, 19.3069, -154.77, -94.658, 88.6038
1.66428, -1, -18.5409, 5.61249, 19.3176, -154.82, -94.6407, 88.3128
1.67161, -1, -18.7025, 5.56959, 19.3283, -154.87, -94.6234, 88.022
1.68027, -1, -18.864, 5.52667, 19.3389, -154.92, -94.6061, 87.7312
1.68767, -1, -19.0257, 5.48371, 19.3494, -154.97, -94.5886, 87.4401
1.69619, -1, -19.1871, 5.44063, 19.36, -155.02, -94.5708, 87.1487
1.70402, -1, -19.2678, 5.4191, 19.3706, -155.07, -94.5527, 86.8574
1.71161, -1, -19.4291, 5.37604, 19.3758, -155.095, -94.5437, 86.7117
1.72012, -1, -19.6705, 5.3113, 19.3917, -155.169, -94.5169, 86.2743
1.72713, -1, -19.7509, 5.28976, 19.3969, -155.195, -94.5081, 86.1284
1.73615, -1, -19.9916, 5.22513, 19.4128, -155.27, -94.482, 85.6912
1.7431, -1, -20.0716, 5.20356, 19.4182, -155.294, -94.4733, 85.5455
1.75333, -1, -20.3114, 5.13916, 19.4344, -155.37, -94.4472, 85.1081
1.75915, -1, -20.3913, 5.11772, 19.4397, -155.395, -94.4383, 84.9622
1.76849, -1, -20.6314, 5.05324, 19.4558, -155.47, -94.4113, 84.5248
1.77511, -1, -20.7115, 5.03178, 19.4611, -155.495, -94.4023, 84.379
1.78454, -1, -20.9526, 4.96748, 19.477, -155.57, -94.3756, 83.9409
1.7911, -1, -21.0331, 4.94597, 19.4824, -155.595, -94.3668, 83.7948
1.80167, -1, -21.2753, 4.88146, 19.4983, -155.671, -94.3409, 83.357
1.80716, -1, -21.3562, 4.85992, 19.5036, -155.696, -94.3323, 83.211
1.8167, -1, -21.5994, 4.79514, 19.5194, -155.771, -94.3065, 82.7723
1.82558, -1, -21.6805, 4.77358, 19.5301, -155.822, -94.2888, 82.4798
1.83115, -1, -21.8428, 4.73043, 19.5355, -155.846, -94.2799, 82.3335
1.84012, -1, -22.0052, 4.68706, 19.5462, -155.896, -94.262, 82.0408
1.8481, -1, -22.1676, 4.64372, 19.557, -155.947, -94.2441, 81.7482
1.85607, -1, -22.3301, 4.6004, 19.5676, -155.997, -94.2263, 81.4555
1.86423, -1, -22.4921, 4.55704, 19.5783, -156.047, -94.2089, 81.1629
1.87208, -1, -22.6538, 4.51364, 19.589, -156.098, -94.1915, 80.8702
1.87911, -1, -22.8153, 4.47027, 19.5996, -156.147, -94.1741, 80.5774
1.88711, -1, -22.9764, 4.42697, 19.6103, -156.198, -94.1564, 80.2843
1.89608, -1, -23.1375, 4.38373, 19.6209, -156.248, -94.1385, 79.9914
1.90412, -1, -23.2984, 4.3405, 19.6317, -156.298, -94.1203, 79.6983
1.91207, -1, -23.4593, 4.29729, 19.6425, -156.349, -94.102, 79.4049
1.92008, -1, -23.6204, 4.25407, 19.6533, -156.399, -94.0842, 79.1117
1.92709, -1, -23.7816, 4.21088, 19.664, -156.449, -94.0665, 78.8184
1.93509, -1, -23.9429, 4.16768, 19.6747, -156.5, -94.049, 78.5247
1.94408, -1, -24.1047, 4.12436, 19.6854, -156.551, -94.0316, 78.2308
1.95414, -1, -24.3483, 4.05936, 19.7014, -156.626, -94.0053, 77.7901
1.95908, -1, -24.4297, 4.03769, 19.7067, -156.651, -93.9964, 77.643
1.96809, -1, -24.5926, 3.99426, 19.7173, -156.702, -93.9782, 77.349
1.97709, -1, -24.7557, 3.95071, 19.728, -156.752, -93.9601, 77.0549
1.98409, -1, -24.9191, 3.90721, 19.7386, -156.803, -93.9423, 76.761
1.9921, -1, -25.0824, 3.86368, 19.7494, -156.853, -93.9246, 76.4669
1.99909, -1, -25.2456, 3.82009, 19.7603, -156.903, -93.907, 76.1726
2.00809, -1, -25.4085, 3.77655, 19.771, -156.954, -93.8895, 75.8784
2.01615, -1, -25.5712, 3.73291, 19.7818, -157.004, -93.8718, 75.5841
2.0231, -1, -25.7338, 3.68928, 19.7924, -157.055, -93.854, 75.2897
2.03118, -1, -25.8961, 3.64583, 19.8031, -157.105, -93.8357, 74.995
2.04005, -1, -26.0583, 3.60241, 19.8139, -157.155, -93.8173, 74.7005
2.04818, -1, -26.2201, 3.55892, 19.8246, -157.206, -93.7991, 74.406
2.05526, -1, -26.3817, 3.51561, 19.8353, -157.257, -93.7813, 74.1112
2.06403, -1, -26.5434, 3.47223, 19.8461, -157.307, -93.7636, 73.816
2.07208, -1, -26.7054, 3.42879, 19.8567, -157.358, -93.746, 73.521
2.07931, -1, -26.8677, 3.38531, 19.8676, -157.409, -93.7283, 73.2259
2.09162, -1, -27.0303, 3.34179, 19.8784, -157.459, -93.7104, 72.9306
2.09512, -1, -27.1932, 3.29824, 19.8893, -157.51, -93.6922, 72.6353
2.10314, -1, -27.3565, 3.25467, 19.9, -157.561, -93.6739, 72.3401
2.11125, -1, -27.5203, 3.21094, 19.9107, -157.611, -93.6558, 72.0449
2.11929, -1, -27.6842, 3.16722, 19.9215, -157.662, -93.6379, 71.7493
2.12727, -1, -27.8483, 3.12358, 19.9322, -157.712, -93.6201, 71.4538
2.13539, -1, -28.0124, 3.07988, 19.943, -157.763, -93.6025, 71.1584
2.14344, -1, -28.1764, 3.03615, 19.9538, -157.814, -93.5848, 70.8625
2.15211, -1, -28.3406, 2.99242, 19.9645, -157.864, -93.5669, 70.5666
2.15958, -1, -28.5044, 2.94871, 19.9754, -157.915, -93.5486, 70.2708
2.16826, -1, -28.668, 2.90507, 19.9863, -157.966, -93.5302, 69.975
2.17564, -1, -28.8314, 2.86144, 19.9971, -158.017, -93.512, 69.6788
2.18418, -1, -28.9944, 2.8178, 20.0079, -158.068, -93.494, 69.3825
2.19167, -1, -29.1571, 2.7742, 20.0186, -158.119, -93.4763, 69.0862
2.20023, -1, -29.3198, 2.73062, 20.0294, -158.169, -93.4587, 68.7896
2.20779, -1, -29.4012, 2.68703, 20.0402, -158.221, -93.4411, 68.4929
2.21615, -1, -29.6455, 2.64336, 20.0509, -158.272, -93.4231, 68.1961
2.22308, -1, -29.7269, 2.6215, 20.0563, -158.297, -93.4141, 68.0478
2.23211, -1, -29.9717, 2.55596, 20.0725, -158.374, -93.3866, 67.6029
2.2391, -1, -30.0534, 2.53408, 20.0779, -158.399, -93.3775, 67.4545
2.24823, -1, -30.2991, 2.46823, 20.0944, -158.475, -93.3504, 67.0089
2.25513, -1, -30.3812, 2.44628, 20.0998, -158.501, -93.3415, 66.8605
2.26447, -1, -30.6282, 2.38041, 20.1161, -158.577, -93.315, 66.4149
2.27109, -1, -30.7106, 2.3584, 20.1215, -158.602, -93.3061, 66.2663
2.28047, -1, -30.9581, 2.29254, 20.1376, -158.679, -93.2793, 65.8204
2.28871, -1, -31.123, 2.24855, 20.1485, -158.73, -93.2609, 65.5232
2.2966, -1, -31.2879, 2.20463, 20.1593, -158.781, -93.2425, 65.2258
2.30462, -1, -31.4527, 2.16084, 20.1701, -158.832, -93.2241, 64.9281
2.31272, -1, -31.6172, 2.1169, 20.1808, -158.883, -93.206, 64.6305
2.32064, -1, -31.6995, 2.07298, 20.1917, -158.935, -93.1882, 64.3326
2.32868, -1, -31.8637, 2.05107, 20.1971, -158.96, -93.1707, 64.0347
2.33677, -1, -32.0278, 2.00722, 20.2081, -159.036, -93.153, 63.7367
2.34406, -1, -32.1916, 1.96329, 20.2191, -159.062, -93.1441, 63.5879
2.35206, -1, -32.3552, 1.9194, 20.23, -159.114, -93.1261, 63.29
2.36012, -1, -32.5188, 1.87542, 20.2408, -159.165, -93.1079, 62.992
2.36806, -1, -32.6826, 1.83138, 20.2518, -159.216, -93.0895, 62.6937
2.37608, -1, -32.8465, 1.78742, 20.2627, -159.267, -93.0713, 62.3957
2.38413, -1, -33.0107, 1.74332, 20.2736, -159.318, -93.0533, 62.0974
2.39208, -1, -33.1753, 1.69916, 20.2845, -159.37, -93.0355, 61.7988
2.40006, -1, -33.3402, 1.65501, 20.2953, -159.421, -93.0177, 61.5002
2.4081, -1, -33.5056, 1.61086, 20.3062, -159.472, -92.9998, 61.2017
2.41604, -1, -33.6713, 1.56669, 20.3172, -159.523, -92.9815, 60.9031
2.42406, -1, -33.837, 1.52251, 20.3282, -159.574, -92.9629, 60.6041
2.43213, -1, -34.0028, 1.47835, 20.3391, -159.626, -92.9443, 60.305
2.44006, -1, -34.1686, 1.43423, 20.3499, -159.677, -92.9258, 60.006
2.44806, -1, -34.3344, 1.39012, 20.3608, -159.729, -92.9077, 59.7066
2.45761, -1, -34.5003, 1.34596, 20.3717, -159.78, -92.881, 59.2573
2.46406, -1, -34.6659, 1.30185, 20.3826, -159.832, -92.8721, 59.1077
2.47207, -1, -34.8312, 1.25773, 20.3934, -159.883, -92.8542, 58.8084
2.4801, -1, -34.9961, 1.21358, 20.4043, -159.934, -92.8362, 58.5089
2.48805, -1, -35.1608, 1.16943, 20.4153, -159.986, -92.8177, 58.2091
2.49612, -1, -35.3254, 1.12517, 20.4263, -160.037, -92.7992, 57.9094
2.50307, -1, -35.4895, 1.08106, 20.4374, -160.089, -92.7808, 57.6097
2.51206, -1, -35.6521, 1.03728, 20.4487, -160.14, -92.7628, 57.3099
2.52012, -1, -35.8121, 0.994013, 20.46, -160.191, -92.7448, 57.0112
2.52708, -1, -35.9682, 0.951797, 20.4717, -160.242, -92.7271, 56.7157
2.53606, -1, -36.1193, 0.911157, 20.4837, -160.291, -92.7097, 56.4257
2.54413, -1, -36.2631, 0.872654, 20.4956, -160.339, -92.6925, 56.1454
2.55116, -1, -36.3974, 0.836975, 20.5072, -160.384, -92.676, 55.8808
2.55923, -1, -36.5206, 0.804423, 20.5178, -160.425, -92.6607, 55.6385
2.5672, -1, -36.631, 0.775179, 20.5271, -160.461, -92.6472, 55.4237
2.57518, -1, -36.7271, 0.749752, 20.5347, -160.492, -92.6359, 55.2415
2.58323, -1, -36.8086, 0.728071, 20.54, -160.517, -92.6269, 55.0944
2.59108, -1, -36.8762, 0.710114, 20.5431, -160.537, -92.6203, 54.9821
2.59926, -1, -36.9309, 0.695713, 20.5445, -160.551, -92.6156, 54.902
2.6072, -1, -36.9727, 0.684669, 20.545, -160.56, -92.6126, 54.8475
2.61557, -1, -37.0035, 0.676527, 20.5447, -160.566, -92.6108, 54.8142
2.62405, -1, -37.0248, 0.670914, 20.5441, -160.569, -92.6099, 54.7951
2.63134, -1, -37.0382, 0.667534, 20.5437, -160.571, -92.6094, 54.7853
2.63951, 2, -37.0457, 0.665748, 20.5435, -160.572, -92.6091, 54.7806
2.6481, 2, -37.0485, 0.664923, 20.5434, -160.572, -92.609, 54.7785
2.65548, 2, -37.0487, 0.664581, 20.5434, -160.573, -92.609, 54.7776
2.66358, 2, -37.0483, 0.664405, 20.5433, -160.573, -92.609, 54.7772
2.67217, 2, -37.048, 0.664324, 20.5433, -160.573, -92.609, 54.7771
2.67961, 2, -37.0483, 0.664257, 20.5433, -160.573, -92.609, 54.7771
2.68822, 2, -37.0492, 0.664195, 20.5432, -160.573, -92.609, 54.7772
2.69566, 2, -37.0502, 0.664111, 20.5431, -160.573, -92.609, 54.7773
2.70416, 2, -37.0516, 0.663877, 20.5429, -160.573, -92.6091, 54.7774
2.71168, 2, -37.0522, 0.663744, 20.5428, -160.573, -92.6091, 54.7776
2.72013, 2, -37.054, 0.663398, 20.5425, -160.573, -92.6092, 54.7778
2.72798, 2, -37.055, 0.663165, 20.5424, -160.573, -92.6092, 54.778
2.73615, 2, -37.0555, 0.663045, 20.5422, -160.573, -92.6092, 54.7782
2.74306, 2, -37.0555, 0.663023, 20.5421, -160.573, -92.6092, 54.7783
2.75256, 2, -37.0549, 0.663033, 20.5419, -160.573, -92.6093, 54.7787
2.75906, 2, -37.0544, 0.663063, 20.5419, -160.573, -92.6094, 54.7788
2.76851, 2, -37.053, 0.663144, 20.5418, -160.573, -92.6095, 54.7792
2.77677, 2, -37.0514, 0.663233, 20.5417, -160.573, -92.6095, 54.7794
2.78457, 2, -37.0499, 0.663361, 20.5416, -160.573, -92.6095, 54.7796
2.79259, 2, -37.0488, 0.663406, 20.5416, -160.573, -92.6095, 54.7798
2.80086, 2, -37.048, 0.663401, 20.5416, -160.573, -92.6094, 54.7799
2.80862, 2, -37.0477, 0.663374, 20.5416, -160.573, -92.6094, 54.78
2.81692, 2, -37.0477, 0.66335, 20.5415, -160.573, -92.6094, 54.7801
2.82487, 2, -37.048, 0.663265, 20.5415, -160.573, -92.6095, 54.7801
2.83269, 2, -37.0481, 0.663234, 20.5415, -160.573, -92.6095, 54.7801
2.84005, 2, -37.0484, 0.66318, 20.5415, -160.573, -92.6095, 54.7801
2.84894, 2, -37.0495, 0.663142, 20.5414, -160.573, -92.6095, 54.7802
2.85505, 2, -37.0499, 0.663136, 20.5414, -160.573, -92.6096, 54.7802
2.86404, 2, -37.0507, 0.66313, 20.5414, -160.573, -92.6096, 54.7802
2.87204, 2, -37.0514, 0.663134, 20.5414, -160.573, -92.6095, 54.7802
2.8801, 2, -37.0517, 0.663153, 20.5414, -160.573, -92.6095, 54.7803
2.88812, 2, -37.0519, 0.663181, 20.5414, -160.573, -92.6095, 54.7804
2.89606, 2, -37.0519, 0.663186, 20.5414, -160.573, -92.6095, 54.7804
2.90409, 2, -37.0517, 0.663214, 20.5414, -160.573, -92.6095, 54.7805
2.91205, 2, -37.0513, 0.663227, 20.5414, -160.573, -92.6095, 54.7805
2.91912, 2, -37.0509, 0.663203, 20.5414, -160.573, -92.6096, 54.7805
2.92706, 2, -37.0506, 0.663204, 20.5414, -160.573, -92.6096, 54.7805
2.93506, 2, -37.0503, 0.663166, 20.5414, -160.573, -92.6096, 54.7806
2.94404, 2, -37.0502, 0.663163, 20.5414, -160.573, -92.6096, 54.7806
2.95212, 2, -37.0501, 0.663147, 20.5414, -160.573, -92.6096, 54.7807
2.96004, 2, -37.0502, 0.663135, 20.5413, -160.573, -92.6096, 54.7808
2.9699, 2, -37.0502, 0.663135, 20.5413, -160.573, -92.6096, 54.7809
2.97621, 2, -37.0503, 0.663146, 20.5413, -160.573, -92.6097, 54.7809
2.98409, 2, -37.0503, 0.663147, 20.5413, -160.573, -92.6097, 54.781
2.99208, 2, -37.0506, 0.663159, 20.5413, -160.573, -92.6096, 54.781
3.0001, 2, -37.0508, 0.663183, 20.5413, -160.572, -92.6096, 54.781
3.00706, 2, -37.0509, 0.663187, 20.5413, -160.572, -92.6097, 54.7811
3.01604, 2, -37.0509, 0.663203, 20.5413, -160.572, -92.6097, 54.7811
3.02413, 2, -37.0509, 0.663204, 20.5413, -160.572, -92.6097, 54.7812
3.03106, 2, -37.0508, 0.663185, 20.5412, -160.572, -92.6097, 54.7812
3.04003, 2, -37.0508, 0.66317, 20.5412, -160.572, -92.6097, 54.7812
3.04811, 2, -37.0508, 0.663165, 20.5412, -160.572, -92.6097, 54.7813
3.05606, 2, -37.0508, 0.663186, 20.5412, -160.572, -92.6097, 54.7813
3.06322, 2, -37.0507, 0.663165, 20.5412, -160.572, -92.6098, 54.7813
3.07117, 2, -37.0507, 0.66316, 20.5412, -160.572, -92.6098, 54.7814
3.07915, 2, -37.0507, 0.66316, 20.5412, -160.572, -92.6098, 54.7814
3.08723, 2, -37.0507, 0.663176, 20.5412, -160.572, -92.6098, 54.7814
3.09506, 2, -37.0506, 0.663199, 20.5412, -160.572, -92.6097, 54.7815
3.10309, 2, -37.0506, 0.663212, 20.5412, -160.572, -92.6098, 54.7816
3.11115, 2, -37.0506, 0.663226, 20.5412, -160.572, -92.6098, 54.7816
3.11919, 2, -37.0506, 0.663232, 20.5412, -160.572, -92.6098, 54.7816
3.12722, 2, -37.0507, 0.663235, 20.5412, -160.572, -92.6098, 54.7817
3.13534, 2, -37.0506, 0.663207, 20.5412, -160.572, -92.6098, 54.7817
3.14338, 2, -37.0506, 0.663216, 20.5411, -160.572, -92.6098, 54.7817
3.15137, 2, -37.0506, 0.663217, 20.5411, -160.572, -92.6098, 54.7817
3.15954, 2, -37.0506, 0.66321, 20.5411, -160.572, -92.6098, 54.7818
3.16817, 2, -37.0506, 0.663188, 20.5411, -160.572, -92.6098, 54.7818
3.1756, 2, -37.0506, 0.663189, 20.5411, -160.572, -92.6098, 54.7819
3.18413, 2, -37.0506, 0.663174, 20.5411, -160.572, -92.6098, 54.7819
3.1917, 2, -37.0505, 0.663172, 20.5411, -160.572, -92.6098, 54.782
3.20014, 2, -37.0505, 0.663171, 20.5411, -160.572, -92.6098, 54.782
3.20767, 2, -37.0505, 0.663199, 20.5411, -160.572, -92.6098, 54.782
3.2162, 2, -37.0505, 0.66322, 20.5411, -160.572, -92.6098, 54.7821
3.22304, 2, -37.0505, 0.663226, 20.5411, -160.572, -92.6098, 54.7821
3.2321, 2, -37.0505, 0.663234, 20.541, -160.572, -92.6099, 54.7821
3.23905, 2, -37.0505, 0.663235, 20.541, -160.572, -92.6099, 54.7821
3.24814, 2, -37.0505, 0.663226, 20.541, -160.572, -92.6099, 54.7821
3.25509, 2, -37.0505, 0.663219, 20.541, -160.572, -92.6099, 54.7821
3.2644, 2, -37.0505, 0.663221, 20.541, -160.572, -92.6098, 54.7822
3.27104, 2, -37.0505, 0.663215, 20.541, -160.572, -92.6098, 54.7822
3.28045, 2, -37.0505, 0.663189, 20.541, -160.572, -92.6099, 54.7822
3.28708, 2, -37.0504, 0.663194, 20.541, -160.572, -92.61, 54.7822
3.29655, 2, -37.0504, 0.663213, 20.541, -160.572, -92.6099, 54.7822
3.30455, 2, -37.0504, 0.663208, 20.541, -160.572, -92.6099, 54.7823
3.31268, 2, -37.0504, 0.663206, 20.541, -160.572, -92.6099, 54.7823
3.32064, 2, -37.0504, 0.663216, 20.5409, -160.572, -92.6099, 54.7823
3.32861, 2, -37.0504, 0.663223, 20.5409, -160.572, -92.6099, 54.7823
3.33678, 2, -37.0504, 0.663231, 20.5409, -160.572, -92.6099, 54.7824
3.34405, 2, -37.0504, 0.663235, 20.5409, -160.572, -92.6099, 54.7824
3.35204, 2, -37.0504, 0.663244, 20.5409, -160.572, -92.61, 54.7824
3.36007, 2, -37.0504, 0.663234, 20.5409, -160.572, -92.61, 54.7825
3.36802, 2, -37.0504, 0.663229, 20.5409, -160.572, -92.61, 54.7824
3.37602, 2, -37.0504, 0.663215, 20.5409, -160.572, -92.61, 54.7825
3.38408, 2, -37.0503, 0.663209, 20.5409, -160.572, -92.61, 54.7825
3.39205, 2, -37.0503, 0.663225, 20.5409, -160.572, -92.61, 54.7825
3.40004, 2, -37.0503, 0.663213, 20.5409, -160.572, -92.6101, 54.7825
3.40809, 2, -37.0503, 0.663226, 20.5409, -160.572, -92.61, 54.7825
3.41599, 2, -37.0503, 0.663233, 20.5409, -160.572, -92.61, 54.7825
3.42402, 2, -37.0503, 0.663248, 20.5408, -160.572, -92.6101, 54.7825
3.43209, 2, -37.0502, 0.663242, 20.5408, -160.572, -92.6101, 54.7825
3.44002, 2, -37.0502, 0.663259, 20.5408, -160.572, -92.61, 54.7825
3.44802, 2, -37.0502, 0.663253, 20.5408, -160.572, -92.61, 54.7826
3.45506, 2, -37.0502, 0.663257, 20.5408, -160.572, -92.6101, 54.7826
3.46305, 2, -37.0502, 0.663246, 20.5408, -160.572, -92.61, 54.7826
3.47203, 2, -37.0501, 0.663242, 20.5408, -160.572, -92.6101, 54.7826
3.48009, 2, -37.0501, 0.663239, 20.5408, -160.572, -92.61, 54.7826
3.48908, 2, -37.0501, 0.663238, 20.5408, -160.572, -92.61, 54.7826
3.49602, 2, -37.0501, 0.663238, 20.5408, -160.572, -92.61, 54.7826
3.50409, 2, -37.0501, 0.663238, 20.5408, -160.572, -92.61, 54.7826
3.51102, 2, -37.05, 0.663238, 20.5408, -160.572, -92.61, 54.7826
3.52002, 2, -37.05, 0.663238, 20.5408, -160.572, -92.61, 54.7826
3.5281, 2, -37.05, 0.663238, 20.5408, -160.572, -92.61, 54.7827
3.53602, 2, -37.05, 0.663238, 20.5408, -160.572, -92.61, 54.7827
3.54402, 2, -37.05, 0.663238, 20.5408, -160.572, -92.6101, 54.7827
3.5521, 2, -37.05, 0.663238, 20.5408, -160.572, -92.61, 54.7827
3.56004, 2, -37.0499, 0.663245, 20.5408, -160.572, -92.6101, 54.7827
3.5672, 2, -37.0499, 0.663253, 20.5408, -160.572, -92.61, 54.7827
3.57516, 2, -37.0499, 0.66325, 20.5407, -160.572, -92.6101, 54.7828
3.58312, 2, -37.0499, 0.663263, 20.5407, -160.572, -92.6101, 54.7828
3.59214, 2, -37.0499, 0.663254, 20.5407, -160.572, -92.6101, 54.7828
3.59906, 2, -37.0499, 0.663252, 20.5407, -160.572, -92.6101, 54.7828
3.60707, 2, -37.0499, 0.663249, 20.5407, -160.572, -92.6101, 54.7828
3.61516, 2, -37.0499, 0.663243, 20.5407, -160.572, -92.6101, 54.7828
3.62314, 2, -37.0499, 0.663247, 20.5407, -160.572, -92.6101, 54.7828
3.63119, 2, -37.0498, 0.663247, 20.5407, -160.572, -92.6101, 54.7828
3.63979, 2, -37.0498, 0.663262, 20.5407, -160.572, -92.6101, 54.7828
3.64829, 2, -37.0498, 0.663273, 20.5406, -160.572, -92.6101, 54.7828
3.65548, 2, -37.0498, 0.663266, 20.5406, -160.572, -92.6102, 54.7829
3.66406, 2, -37.0497, 0.663275, 20.5406, -160.572, -92.6102, 54.7829
3.67216, 2, -37.0497, 0.663279, 20.5406, -160.572, -92.6102, 54.7829
3.68002, 2, -37.0497, 0.663269, 20.5407, -160.572, -92.6101, 54.7829
3.6878, 2, -37.0497, 0.663269, 20.5406, -160.572, -92.6101, 54.7828
3.69623, 2, -37.0496, 0.663259, 20.5406, -160.572, -92.6102, 54.7828
3.70381, 4, -37.0496, 0.663272, 20.5406, -160.572, -92.6102, 54.7829
3.71208, 4, -37.0496, 0.663266, 20.5406, -160.571, -92.6101, 54.7829
3.71963, 4, -37.0496, 0.663264, 20.5406, -160.572, -92.6101, 54.7829
3.72809, 4, -37.0496, 0.663286, 20.5405, -160.571, -92.6102, 54.7829
3.73507, 4, -37.0496, 0.663278, 20.5405, -160.571, -92.6102, 54.7829
3.74415, 4, -37.0496, 0.663278, 20.5405, -160.571, -92.6101, 54.7829
3.75101, 4, -37.0495, 0.66328, 20.5405, -160.571, -92.6101, 54.7829
3.76024, 4, -37.0495, 0.663282, 20.5405, -160.571, -92.6102, 54.7829
3.76701, 4, -37.0495, 0.663293, 20.5405, -160.571, -92.6102, 54.7829
3.77634, 4, -37.0495, 0.66331, 20.5405, -160.571, -92.6101, 54.7829
3.78458, 4, -37.0495, 0.663313, 20.5405, -160.571, -92.6101, 54.7829
3.79285, 4, -37.0495, 0.663308, 20.5405, -160.571, -92.6102, 54.7829
3.80053, 4, -37.0495, 0.663313, 20.5405, -160.571, -92.6102, 54.7829
3.80879, 4, -37.0495, 0.663333, 20.5405, -160.571, -92.6102, 54.7829
3.83163, 4, -37.0494, 0.663311, 20.5405, -160.571, -92.6102, 54.783
3.83392, 4, -37.0494, 0.663313, 20.5405, -160.571, -92.6102, 54.783
3.83514, 4, -37.0494, 0.663313, 20.5405, -160.571, -92.6102, 54.783
3.84067, 4, -37.0494, 0.663325, 20.5405, -160.571, -92.6102, 54.7829
3.84804, 4, -37.0493, 0.663321, 20.5405, -160.571, -92.6102, 54.783
3.85602, 4, -37.0491, 0.663289, 20.5405, -160.571, -92.6102, 54.783
3.86405, 4, -37.0476, 0.662883, 20.5405, -160.571, -92.6102, 54.783
3.87201, 4, -37.0433, 0.661146, 20.541, -160.571, -92.6102, 54.7829
3.88002, 4, -37.0355, 0.656998, 20.5426, -160.571, -92.6102, 54.7829
3.88807, 4, -37.0246, 0.650314, 20.5462, -160.571, -92.6102, 54.7829
3.89602, 4, -37.0111, 0.641062, 20.5528, -160.57, -92.6102, 54.7829
3.90446, 5, -36.9946, 0.629002, 20.5634, -160.568, -92.6102, 54.7829
3.91103, 5, -36.9748, 0.613767, 20.5784, -160.564, -92.6101, 54.7828
3.92001, 5, -36.9521, 0.595893, 20.5983, -160.56, -92.6099, 54.7827
3.92994, 5, -36.9147, 0.564486, 20.6354, -160.553, -92.6095, 54.7825
3.93517, 5, -36.901, 0.552526, 20.6495, -160.55, -92.6093, 54.7825
3.94402, 5, -36.8707, 0.526534, 20.6793, -160.543, -92.6089, 54.7823
3.95283, 5, -36.8364, 0.497859, 20.7109, -160.536, -92.6084, 54.7821
3.95904, 5, -36.799, 0.467352, 20.7436, -160.529, -92.6078, 54.7819
3.968, 5, -36.7595, 0.435894, 20.7768, -160.522, -92.607, 54.7816
3.97679, 5, -36.7188, 0.403909, 20.81, -160.514, -92.6063, 54.7813
3.98401, 5, -36.6778, 0.371649, 20.8433, -160.507, -92.6056, 54.781
3.99206, 5, -36.6364, 0.339223, 20.8768, -160.499, -92.6048, 54.7808
4.00084, 5, -36.5952, 0.306926, 20.9102, -160.492, -92.604, 54.7806
4.008, 5, -36.554, 0.274677, 20.9436, -160.484, -92.6031, 54.7805
4.01603, 5, -36.513, 0.242373, 20.9771, -160.477, -92.6022, 54.7803
4.02488, 5, -36.4722, 0.210263, 21.0106, -160.47, -92.6013, 54.7802
4.032, 5, -36.4312, 0.178307, 21.0439, -160.463, -92.6004, 54.78
4.04001, 5, -36.39, 0.146467, 21.0773, -160.456, -92.5994, 54.78
4.04708, 5, -36.3489, 0.114544, 21.1107, -160.449, -92.5984, 54.7798
4.056, 5, -36.3081, 0.0827131, 21.1439, -160.442, -92.5974, 54.7797
4.0641, 5, -36.2674, 0.050826, 21.1771, -160.435, -92.5965, 54.7795
4.07202, 5, -36.2265, 0.0189201, 21.2105, -160.429, -92.5955, 54.7792
4.08101, 5, -36.1856, -0.0130959, 21.2436, -160.422, -92.5945, 54.7789
4.08807, 5, -36.1443, -0.0450561, 21.2767, -160.414, -92.5935, 54.7786
4.096, 5, -36.1027, -0.0770079, 21.3099, -160.407, -92.5926, 54.7783
4.10311, 5, -36.0608, -0.108962, 21.343, -160.4, -92.5916, 54.7779
4.1119, 5, -36.019, -0.140981, 21.3759, -160.393, -92.5906, 54.7775
4.12, 5, -35.9771, -0.172869, 21.4089, -160.385, -92.5896, 54.7771
4.12804, 5, -35.9352, -0.204674, 21.442, -160.378, -92.5886, 54.7767
4.13607, 5, -35.8933, -0.23643, 21.4748, -160.37, -92.5876, 54.7763
4.14401, 5, -35.8515, -0.268123, 21.5076, -160.362, -92.5867, 54.7759
4.15213, 5, -35.8096, -0.299719, 21.5406, -160.354, -92.5857, 54.7754
4.15938, 5, -35.7677, -0.331327, 21.5735, -160.347, -92.5847, 54.7751
4.16748, 5, -35.7259, -0.362874, 21.6062, -160.339, -92.5837, 54.7747
4.17666, 5, -35.6844, -0.394434, 21.6389, -160.332, -92.5828, 54.7744
4.18451, 5, -35.6429, -0.425933, 21.6717, -160.324, -92.5818, 54.7741
4.19211, 5, -35.6012, -0.457462, 21.7042, -160.317, -92.5808, 54.7738
4.20083, 5, -35.5595, -0.489058, 21.7367, -160.31, -92.5799, 54.7736
4.21158, 5, -35.5178, -0.520625, 21.7693, -160.299, -92.5785, 54.7733
4.21606, 5, -35.4758, -0.552107, 21.8017, -160.295, -92.578, 54.7733
4.22465, 5, -35.4336, -0.583545, 21.834, -160.288, -92.577, 54.7731
4.23212, 5, -35.3914, -0.61504, 21.8664, -160.281, -92.5761, 54.773
4.239, 5, -35.3703, -0.630764, 21.8825, -160.277, -92.5756, 54.773
4.24916, 5, -35.3067, -0.677773, 21.9309, -160.266, -92.5741, 54.773
4.25497, 5, -35.2855, -0.693445, 21.947, -160.262, -92.5737, 54.773
4.26433, 5, -35.2219, -0.740333, 21.9954, -160.25, -92.5722, 54.7729
4.27099, 5, -35.2007, -0.755895, 22.0114, -160.246, -92.5717, 54.7729
4.27906, 5, -35.1582, -0.786888, 22.0434, -160.239, -92.5708, 54.7729
4.28846, 5, -35.0947, -0.833367, 22.0916, -160.227, -92.5693, 54.7729
4.29736, 5, -35.0525, -0.86445, 22.1236, -160.218, -92.5684, 54.7729
4.30715, 5, -35.0104, -0.895421, 22.1554, -160.21, -92.5674, 54.773
4.31254, 5, -34.9681, -0.926347, 22.1873, -160.202, -92.5664, 54.7731
4.32142, 5, -34.9257, -0.95725, 22.2192, -160.195, -92.5654, 54.7731
4.32699, 5, -34.9045, -0.972711, 22.2351, -160.191, -92.5649, 54.7731
4.33658, 5, -34.8621, -1.00369, 22.2667, -160.179, -92.5635, 54.7731
4.34717, 5, -34.7981, -1.04989, 22.3143, -160.172, -92.5626, 54.7731
4.35111, 5, -34.7767, -1.06532, 22.3301, -160.168, -92.5621, 54.7732
4.35898, 5, -34.7341, -1.09613, 22.3616, -160.161, -92.5611, 54.7733
4.36799, 5, -34.6913, -1.12697, 22.393, -160.154, -92.5601, 54.7733
4.37499, 5, -34.6484, -1.15771, 22.4246, -160.146, -92.5592, 54.7734
4.384, 5, -34.6056, -1.18834, 22.456, -160.139, -92.5581, 54.7735
4.39199, 5, -34.5629, -1.21899, 22.4872, -160.131, -92.5572, 54.7736
4.39999, 5, -34.52, -1.24967, 22.5185, -160.124, -92.5561, 54.7737
4.40801, 5, -34.477, -1.28023, 22.5498, -160.116, -92.5552, 54.7739
4.41605, 5, -34.4341, -1.31073, 22.581, -160.108, -92.5541, 54.7741
4.42321, 5, -34.3912, -1.3412, 22.612, -160.1, -92.5531, 54.7745
4.43196, 5, -34.3482, -1.37176, 22.6432, -160.092, -92.5521, 54.775
4.44005, 5, -34.3052, -1.40216, 22.6743, -160.083, -92.5511, 54.7756
4.44799, 5, -34.2623, -1.43257, 22.7052, -160.075, -92.5501, 54.7764
4.45599, 5, -34.2193, -1.46293, 22.7361, -160.067, -92.549, 54.7772
4.46406, 5, -34.1761, -1.49326, 22.7671, -160.058, -92.548, 54.7783
4.47199, 5, -34.1329, -1.5235, 22.7979, -160.05, -92.5469, 54.7796
4.48097, 5, -34.0897, -1.55371, 22.8286, -160.042, -92.5459, 54.781
4.48806, 5, -34.0464, -1.58382, 22.8593, -160.034, -92.5448, 54.7826
4.49604, 5, -34.0031, -1.61399, 22.8901, -160.026, -92.5438, 54.7843
4.50411, 5, -33.9598, -1.64406, 22.9207, -160.018, -92.5428, 54.7862
4.51113, 5, -33.9164, -1.6741, 22.9512, -160.011, -92.5417, 54.7881
4.51917, 5, -33.8728, -1.70404, 22.9818, -160.003, -92.5406, 54.79
4.52797, 5, -33.8294, -1.73405, 23.0122, -159.995, -92.5396, 54.792
4.53598, 5, -33.786, -1.76395, 23.0425, -159.987, -92.5385, 54.7942
4.54399, 5, -33.7424, -1.79387, 23.0728, -159.979, -92.5374, 54.7963
4.55205, 5, -33.6988, -1.82379, 23.1031, -159.971, -92.5364, 54.7985
4.56, 5, -33.6553, -1.8537, 23.1332, -159.962, -92.5352, 54.8007
4.56821, 5, -33.6119, -1.88351, 23.1633, -159.954, -92.5341, 54.8029
4.5759, 5, -33.5682, -1.91331, 23.1934, -159.945, -92.5331, 54.8052
4.58398, 5, -33.5246, -1.94318, 23.2235, -159.937, -92.532, 54.8076
4.59203, 5, -33.4811, -1.97317, 23.2534, -159.928, -92.5308, 54.8099
4.60002, 5, -33.4375, -2.00327, 23.2834, -159.919, -92.5296, 54.8121
4.60733, 5, -33.394, -2.03352, 23.3137, -159.911, -92.5282, 54.8141
4.61701, 5, -33.3507, -2.06395, 23.3439, -159.902, -92.5266, 54.8159
4.62398, 6, -33.3075, -2.09472, 23.3744, -159.893, -92.5246, 54.8172
4.63201, 6, -33.2643, -2.12575, 23.4051, -159.884, -92.5222, 54.8181
4.64103, 6, -33.2212, -2.15705, 23.4363, -159.875, -92.5193, 54.8186
4.6483, 6, -33.1784, -2.18877, 23.4676, -159.865, -92.516, 54.8189
4.65598, 6, -33.1357, -2.22099, 23.4993, -159.856, -92.5122, 54.819
4.66479, 6, -33.0931, -2.25358, 23.5314, -159.845, -92.508, 54.8189
4.67234, 6, -33.0507, -2.28656, 23.5639, -159.834, -92.5033, 54.8184
4.67958, 6, -33.0087, -2.32004, 23.5967, -159.823, -92.4981, 54.8176
4.69023, 7, -32.9668, -2.35416, 23.6299, -159.811, -92.4925, 54.8164
4.69641, 7, -32.9249, -2.38861, 23.6635, -159.799, -92.4865, 54.8149
4.70378, 7, -32.8834, -2.42353, 23.6973, -159.786, -92.48, 54.813
4.71209, 7, -32.8422, -2.45896, 23.7315, -159.773, -92.4731, 54.8099
4.71985, 7, -32.8011, -2.49499, 23.7662, -159.759, -92.4658, 54.8056
4.72903, 7, -32.7601, -2.53145, 23.801, -159.746, -92.458, 54.8003
4.73604, 7, -32.7195, -2.56844, 23.8362, -159.732, -92.4497, 54.7942
4.74409, 7, -32.6792, -2.606, 23.8719, -159.718, -92.441, 54.7872
4.75099, 7, -32.659, -2.62493, 23.8899, -159.711, -92.4365, 54.7835
4.76014, 8, -32.5988, -2.68233, 23.9443, -159.689, -92.4221, 54.7711
4.76905, 8, -32.5589, -2.72135, 23.9811, -159.674, -92.4116, 54.7621
4.77629, 8, -32.5193, -2.76087, 24.0183, -159.658, -92.4005, 54.7521
4.78303, 8, -32.4995, -2.78077, 24.0369, -159.65, -92.3947, 54.747
4.79114, 8, -32.46, -2.82089, 24.0745, -159.633, -92.3825, 54.7361
4.80058, 8, -32.4013, -2.8821, 24.1318, -159.608, -92.3631, 54.7185
4.80938, 8, -32.3625, -2.92351, 24.1702, -159.591, -92.3497, 54.7059
4.81499, 8, -32.3431, -2.94439, 24.1896, -159.583, -92.3429, 54.6994
4.82454, 8, -32.2854, -3.00779, 24.2486, -159.557, -92.3221, 54.6784
4.83335, 9, -32.2471, -3.05056, 24.2882, -159.539, -92.3078, 54.6634
4.83913, 9, -32.2281, -3.07216, 24.3082, -159.529, -92.3005, 54.6557
4.84695, 9, -32.1901, -3.11571, 24.3484, -159.51, -92.2856, 54.64
4.85704, 9, -32.1334, -3.1819, 24.4093, -159.481, -92.2619, 54.6157
4.86301, 9, -32.1146, -3.20421, 24.4298, -159.472, -92.2537, 54.6075
4.87197, 9, -32.0773, -3.24923, 24.4711, -159.452, -92.2366, 54.5906
4.87998, 9, -32.0402, -3.29481, 24.5126, -159.432, -92.2188, 54.5734
4.88798, 9, -32.0031, -3.34089, 24.5546, -159.412, -92.2007, 54.5556
4.89623, 10, -31.9663, -3.38746, 24.5969, -159.392, -92.1825, 54.5371
4.90297, 10, -31.9298, -3.43462, 24.6396, -159.37, -92.1638, 54.518
4.91214, 10, -31.8934, -3.48236, 24.6827, -159.348, -92.1448, 54.498
4.91913, 10, -31.8571, -3.53059, 24.7261, -159.326, -92.1251, 54.4772
4.92788, 10, -31.8211, -3.57936, 24.77, -159.305, -92.1045, 54.4557
4.93598, 10, -31.7855, -3.62857, 24.8141, -159.283, -92.0831, 54.434
4.94403, 10, -31.75, -3.67832, 24.8586, -159.26, -92.0614, 54.412
4.95196, 10, -31.7146, -3.72853, 24.9036, -159.237, -92.0396, 54.3898
4.96147, 10, -31.6794, -3.77911, 24.9489, -159.213, -92.0175, 54.3555
4.96796, 11, -31.6444, -3.83028, 24.9946, -159.189, -91.995, 54.3437
4.97696, 11, -31.6097, -3.88189, 25.0405, -159.166, -91.9718, 54.3196
4.98501, 11, -31.5751, -3.93395, 25.0869, -159.142, -91.9477, 54.2946
4.99115, 11, -31.5406, -3.98655, 25.1336, -159.117, -91.923, 54.2688
5.00002, 11, -31.5063, -4.03965, 25.1805, -159.092, -91.8982, 54.243
5.00882, 11, -31.4722, -4.09341, 25.228, -159.066, -91.8731, 54.2169
5.01504, 11, -31.4384, -4.14762, 25.2757, -159.04, -91.8476, 54.1904
5.02406, 11, -31.4047, -4.2025, 25.3239, -159.014, -91.8213, 54.1632
5.0348, 12, -31.3543, -4.28586, 25.3968, -158.975, -91.7802, 54.1208
5.04006, 12, -31.3377, -4.31389, 25.4213, -158.961, -91.7664, 54.1062
5.04797, 12, -31.3045, -4.37041, 25.4706, -158.933, -91.7387, 54.0767
5.05601, 12, -31.2716, -4.42742, 25.5201, -158.906, -91.7108, 54.047
5.06411, 12, -31.239, -4.48492, 25.5702, -158.878, -91.6823, 54.0171
5.07125, 12, -31.2064, -4.54283, 25.6206, -158.85, -91.6528, 53.9866
5.07908, 12, -31.1741, -4.60125, 25.6713, -158.822, -91.6228, 53.9553
5.08711, 12, -31.142, -4.66009, 25.7224, -158.792, -91.5928, 53.923
5.09503, 12, -31.1101, -4.71938, 25.7739, -158.763, -91.5624, 53.8903
5.10396, 13, -31.0783, -4.77926, 25.8257, -158.734, -91.5313, 53.8575
5.11218, 13, -31.0466, -4.8396, 25.8778, -158.704, -91.499, 53.8244
5.11947, 13, -31.0153, -4.90055, 25.9305, -158.674, -91.4665, 53.7906
5.12791, 13, -30.9842, -4.96213, 25.9835, -158.644, -91.4341, 53.7558
5.13611, 13, -30.9532, -5.02426, 26.0367, -158.613, -91.4013, 53.7203
5.14319, 13, -30.9223, -5.08701, 26.0905, -158.582, -91.3674, 53.6846
5.15209, 13, -30.8915, -5.1503, 26.1446, -158.551, -91.333, 53.6486
5.15998, 13, -30.861, -5.21411, 26.199, -158.519, -91.2985, 53.6121
5.16806, 13, -30.8307, -5.2784, 26.2538, -158.486, -91.2638, 53.5748
5.17625, 14, -30.8006, -5.34319, 26.3091, -158.454, -91.228, 53.5365
5.18388, 14, -30.7707, -5.40833, 26.3646, -158.422, -91.1914, 53.4985
5.19252, 14, -30.7409, -5.47399, 26.4206, -158.389, -91.1551, 53.4603
5.19955, 14, -30.7113, -5.54015, 26.4769, -158.355, -91.1185, 53.4214
5.20807, 14, -30.6819, -5.60673, 26.5335, -158.321, -91.0808, 53.3814
5.21556, 14, -30.6674, -5.6402, 26.5906, -158.288, -91.0423, 53.3406
5.22406, 14, -30.6238, -5.74165, 26.648, -158.253, -91.004, 53.2999
5.23262, 14, -30.595, -5.80992, 26.7058, -158.218, -90.9653, 53.2589
5.24004, 15, -30.5664, -5.8788, 26.764, -158.183, -90.9253, 53.2171
5.24701, 15, -30.5522, -5.91345, 26.7933, -158.166, -90.9051, 53.1958
5.2573, 15, -30.5099, -6.01815, 26.8814, -158.113, -90.8451, 53.1313
5.26908, 15, -30.4679, -6.12406, 26.9705, -158.058, -90.7834, 53.0665
5.27227, 15, -30.4539, -6.15958, 27.0004, -158.04, -90.7624, 53.0444
5.27895, 15, -30.4399, -6.19522, 27.0303, -158.022, -90.7415, 53.0221
5.28701, 15, -30.4122, -6.26685, 27.0905, -157.985, -90.6998, 52.9768
5.29495, 15, -30.3848, -6.33895, 27.151, -157.948, -90.6572, 52.9316
5.30444, 15, -30.3441, -6.44813, 27.2423, -157.891, -90.5917, 52.8628
5.31095, 16, -30.3306, -6.48481, 27.273, -157.872, -90.5701, 52.8393
5.31901, 16, -30.3038, -6.55853, 27.3347, -157.835, -90.5265, 52.7918
5.32858, 16, -30.2637, -6.67024, 27.4279, -157.776, -90.4588, 52.7208
5.3373, 16, -30.2374, -6.74537, 27.4905, -157.737, -90.4141, 52.6727
5.34446, 16, -30.2243, -6.78316, 27.5219, -157.718, -90.3914, 52.6482
5.35255, 16, -30.1982, -6.85913, 27.585, -157.679, -90.3448, 52.5988
5.35996, 16, -30.1722, -6.93556, 27.6485, -157.639, -90.2981, 52.5495
5.36796, 16, -30.1465, -7.01246, 27.7123, -157.598, -90.2516, 52.4997
5.37683, 17, -30.1208, -7.08994, 27.7765, -157.559, -90.2039, 52.4233
5.38395, 17, -30.0952, -7.16797, 27.841, -157.518, -90.1557, 52.3979
5.39196, 17, -30.0701, -7.24646, 27.9059, -157.476, -90.1077, 52.347
5.40001, 17, -30.045, -7.3255, 27.9712, -157.435, -90.0584, 52.2953
5.40718, 17, -30.02, -7.4051, 28.0368, -157.394, -90.0088, 52.2424
5.41601, 17, -29.9954, -7.48512, 28.1029, -157.351, -89.9595, 52.1897
5.42397, 17, -29.9708, -7.56573, 28.1694, -157.309, -89.9089, 52.1367
5.43095, 17, -29.9463, -7.64683, 28.2363, -157.267, -89.8581, 52.0827
5.43995, 17, -29.9222, -7.72848, 28.3035, -157.224, -89.8074, 52.0284
5.44802, 18, -29.8983, -7.81056, 28.371, -157.18, -89.7551, 51.9741
5.45513, 18, -29.8745, -7.89317, 28.4389, -157.137, -89.7031, 51.9188
5.46629, 18, -29.8392, -8.01819, 28.5412, -157.07, -89.6243, 51.8346
5.47098, 18, -29.8275, -8.06004, 28.5756, -157.048, -89.5975, 51.8067
5.47995, 18, -29.8041, -8.14416, 28.6446, -157.004, -89.5444, 51.7503
5.48895, 18, -29.7809, -8.22883, 28.7139, -156.959, -89.4905, 51.6926
5.49601, 18, -29.758, -8.31407, 28.7837, -156.913, -89.4356, 51.6352
5.5041, 18, -29.7352, -8.3997, 28.8538, -156.868, -89.3814, 51.5775
5.51197, 18, -29.7125, -8.48583, 28.9244, -156.822, -89.3259, 51.5187
5.51997, 19, -29.6901, -8.57253, 28.9952, -156.775, -89.2701, 51.4599
5.529, 19, -29.6676, -8.65977, 29.0663, -156.729, -89.2143, 51.4012
5.53512, 19, -29.6453, -8.74744, 29.1378, -156.683, -89.1572, 51.3414
5.54395, 19, -29.6234, -8.83564, 29.2096, -156.635, -89.1006, 51.2816
5.55272, 19, -29.6016, -8.92431, 29.2818, -156.588, -89.0433, 51.222
5.55904, 19, -29.5799, -9.01343, 29.3543, -156.541, -88.9855, 51.1609
5.56796, 19, -29.5584, -9.10313, 29.4273, -156.492, -88.9277, 51.0996
5.57847, 19, -29.5372, -9.23855, 29.5374, -156.42, -88.8394, 51.0072
5.58398, 20, -29.5161, -9.28389, 29.5744, -156.395, -88.8103, 50.9758
5.59203, 20, -29.495, -9.37507, 29.6485, -156.346, -88.7509, 50.9131
5.59995, 20, -29.4742, -9.46684, 29.7228, -156.296, -88.6913, 50.8503
5.60984, 20, -29.4537, -9.55886, 29.7975, -156.247, -88.6315, 50.7862
5.61607, 20, -29.4332, -9.65147, 29.8724, -156.196, -88.5707, 50.722
5.62395, 20, -29.4128, -9.74458, 29.9478, -156.146, -88.5103, 50.6579
5.63195, 20, -29.3927, -9.83806, 30.0235, -156.096, -88.4488, 50.5924
5.64001, 20, -29.3729, -9.93214, 30.0997, -156.044, -88.3872, 50.5273
5.64796, 20, -29.3529, -10.0267, 30.1763, -155.993, -88.3251, 50.462
5.65605, 21, -29.3331, -10.1218, 30.2533, -155.942, -88.2624, 50.3956
5.66339, 21, -29.3136, -10.2174, 30.3304, -155.889, -88.2, 50.3295
5.67153, 21, -29.2944, -10.3132, 30.4078, -155.838, -88.1365, 50.263
5.68026, 21, -29.2751, -10.4095, 30.4855, -155.785, -88.0735, 50.1958
5.68805, 21, -29.256, -10.5062, 30.5636, -155.732, -88.0091, 50.129
5.69561, 21, -29.237, -10.6034, 30.6421, -155.68, -87.9452, 50.0615
5.70406, 21, -29.2183, -10.7011, 30.721, -155.626, -87.8805, 49.9935
5.71159, 21, -29.1996, -10.7992, 30.8003, -155.572, -87.8154, 49.9257
5.72012, 22, -29.1808, -10.8978, 30.88, -155.518, -87.7503, 49.8569
5.72775, 22, -29.1716, -10.9473, 30.9199, -155.463, -87.6842, 49.7882
5.73648, 22, -29.1533, -11.0963, 31.04, -155.409, -87.6186, 49.7194
5.74299, 22, -29.1351, -11.1462, 31.0802, -155.381, -87.5851, 49.6845
5.75095, 22, -29.117, -11.2464, 31.1608, -155.325, -87.5183, 49.6147
5.76006, 22, -29.0902, -11.3974, 31.2822, -155.243, -87.4173, 49.5102
5.76699, 22, -29.0813, -11.448, 31.3229, -155.214, -87.3837, 49.4748
5.77653, 22, -29.055, -11.6006, 31.4456, -155.13, -87.2824, 49.3692
5.78425, 22, -29.0376, -11.7029, 31.5278, -155.073, -87.2144, 49.2979
5.79099, 23, -29.0289, -11.7542, 31.5691, -155.045, -87.1804, 49.2622
5.79895, 23, -29.0118, -11.857, 31.6517, -154.988, -87.1112, 49.1914
5.80932, 23, -28.9863, -12.0119, 31.7759, -154.901, -87.0081, 49.0837
5.81496, 23, -28.9779, -12.0637, 31.8174, -154.872, -86.9732, 49.0481
5.82449, 23, -28.9527, -12.2198, 31.9426, -154.786, -86.869, 48.9404
5.83104, 23, -28.9444, -12.2721, 31.9845, -154.756, -86.8337, 48.9042
5.84068, 23, -28.9197, -12.4296, 32.1109, -154.669, -86.7283, 48.7962
5.84848, 23, -28.9116, -12.4823, 32.1532, -154.639, -86.6926, 48.7232
5.85684, 24, -28.8872, -12.6407, 32.2805, -154.55, -86.5861, 48.651
5.86395, 24, -28.879, -12.6937, 32.3231, -154.52, -86.5501, 48.6147
5.87193, 24, -28.8629, -12.8, 32.4082, -154.46, -86.479, 48.541
5.88276, 24, -28.839, -12.9602, 32.5364, -154.37, -86.3709, 48.4316
5.88793, 24, -28.8311, -13.0139, 32.5793, -154.34, -86.335, 48.3945
5.89595, 24, -28.8153, -13.1215, 32.6654, -154.279, -86.2623, 48.3206
5.904, 24, -28.7997, -13.2295, 32.7519, -154.218, -86.19, 48.2471
5.91093, 24, -28.7843, -13.3378, 32.8387, -154.156, -86.1168, 48.1727
5.91995, 24, -28.769, -13.4464, 32.9257, -154.096, -86.0438, 48.0988
5.93021, 25, -28.7463, -13.61, 33.0566, -154.002, -85.9331, 47.9871
5.93494, 25, -28.7387, -13.6647, 33.1002, -153.971, -85.8965, 47.95
5.94393, 25, -28.7235, -13.7744, 33.1877, -153.909, -85.8223, 47.8763
5.95209, 25, -28.7085, -13.8845, 33.2757, -153.846, -85.7482, 47.8015
5.95978, 25, -28.6935, -13.9949, 33.3639, -153.783, -85.6734, 47.7274
5.96793, 25, -28.6787, -14.1055, 33.4525, -153.719, -85.599, 47.6529
5.97594, 25, -28.664, -14.2164, 33.5413, -153.656, -85.5239, 47.5785
5.98494, 25, -28.6493, -14.3277, 33.6304, -153.592, -85.449, 47.5045
5.99194, 25, -28.6348, -14.4394, 33.7195, -153.528, -85.3734, 47.4294
5.99995, 26, -28.6205, -14.5514, 33.8087, -153.463, -85.2983, 47.3551
6.00804, 26, -28.6064, -14.6638, 33.8983, -153.399, -85.2224, 47.2805
6.01594, 26, -28.5923, -14.7764, 33.9881, -153.334, -85.1467, 47.2056
6.02417, 26, -28.5782, -14.8892, 34.0783, -153.269, -85.0702, 47.1313
6.03125, 26, -28.5641, -15.0023, 34.1688, -153.203, -84.9942, 47.0563
6.039, 26, -28.5502, -15.1157, 34.2595, -153.137, -84.9173, 46.9822
6.04794, 26, -28.5362, -15.2293, 34.3503, -153.072, -84.8406, 46.9079
6.05599, 26, -28.5223, -15.3432, 34.4412, -153.005, -84.7635, 46.8337
6.06393, 27, -28.5086, -15.4575, 34.5323, -152.939, -84.6867, 46.7603
6.07213, 27, -28.4948, -15.5719, 34.6236, -152.872, -84.6094, 46.6857
6.0792, 27, -28.4811, -15.6866, 34.7151, -152.805, -84.5319, 46.6122
6.08795, 27, -28.4676, -15.8016, 34.807, -152.738, -84.4544, 46.5382
6.09595, 27, -28.4541, -15.917, 34.8992, -152.67, -84.3767, 46.4641
6.104, 27, -28.4406, -16.0327, 34.9913, -152.602, -84.2989, 46.3908
6.11193, 27, -28.4273, -16.1488, 35.0835, -152.534, -84.2206, 46.3166
6.12106, 27, -28.4138, -16.265, 35.1758, -152.466, -84.1426, 46.2433
6.12894, 27, -28.4005, -16.3813, 35.2682, -152.398, -84.0641, 46.1697
6.136, 28, -28.3872, -16.4978, 35.361, -152.329, -83.9858, 46.0964
6.14499, 28, -28.374, -16.6145, 35.454, -152.26, -83.9069, 46.0239
6.15267, 28, -28.3608, -16.7315, 35.5474, -152.191, -83.8286, 45.9508
6.16, 28, -28.3477, -16.8487, 35.6409, -152.122, -83.7496, 45.8787
6.1687, 28, -28.3344, -16.966, 35.7342, -152.052, -83.6709, 45.8066
6.17598, 28, -28.3212, -17.0833, 35.8275, -151.982, -83.5917, 45.7345
6.18408, 28, -28.3082, -17.2009, 35.9211, -151.912, -83.5129, 45.6635
6.19393, 28, -28.2951, -17.3185, 36.0148, -151.841, -83.4337, 45.5919
6.20005, 29, -28.282, -17.4365, 36.1089, -151.771, -83.3544, 45.5213
6.20808, 29, -28.2689, -17.5548, 36.2032, -151.7, -83.275, 45.451
6.21604, 29, -28.2558, -17.6733, 36.2975, -151.629, -83.1953, 45.3805
6.22468, 29, -28.2427, -17.7919, 36.3917, -151.558, -83.1157, 45.3112
6.23294, 29, -28.2297, -17.9104, 36.4859, -151.486, -83.0357, 45.2417
6.23998, 29, -28.2167, -18.0292, 36.5802, -151.414, -82.9562, 45.1724
6.24876, 29, -28.2038, -18.1481, 36.6748, -151.343, -82.8762, 45.1043
6.25606, 29, -28.1909, -18.2673, 36.7696, -151.271, -82.7964, 45.0357
6.26298, 29, -28.1845, -18.3269, 36.8171, -151.235, -82.7563, 45.0017
6.27297, 30, -28.1651, -18.5058, 36.9598, -151.126, -82.6366, 44.9013
6.28018, 30, -28.1523, -18.6251, 37.0547, -151.053, -82.5567, 44.834
6.28696, 30, -28.1459, -18.6847, 37.1021, -151.017, -82.5167, 44.8009
6.29676, 30, -28.1265, -18.8639, 37.2444, -150.907, -82.3965, 44.7027
6.30309, 30, -28.12, -18.9237, 37.2919, -150.87, -82.3563, 44.6698
6.31249, 30, -28.1003, -19.1036, 37.4349, -150.76, -82.2359, 44.5734
6.32053, 30, -28.0871, -19.2236, 37.5304, -150.687, -82.1553, 44.5096
6.32849, 30, -28.074, -19.3435, 37.6258, -150.613, -82.0755, 44.4461
6.33651, 31, -28.0609, -19.4634, 37.7211, -150.539, -81.995, 44.3837
6.34594, 31, -28.0478, -19.5834, 37.8163, -150.465, -81.9148, 44.3217
6.35246, 31, -28.0413, -19.6434, 37.8639, -150.428, -81.8745, 44.2907
6.36133, 31, -28.0281, -19.7634, 37.9593, -150.354, -81.7945, 44.23
6.36715, 31, -28.0149, -19.8836, 38.0549, -150.279, -81.7142, 44.1699
6.37489, 31, -28.0018, -20.0036, 38.1506, -150.204, -81.634, 44.1098
6.38392, 31, -27.9886, -20.1236, 38.2463, -150.129, -81.5537, 44.0507
6.39094, 31, -27.9752, -20.2435, 38.3419, -150.054, -81.4735, 43.9927
6.39992, 31, -27.9617, -20.3637, 38.4372, -149.979, -81.3932, 43.9346
6.40801, 32, -27.9481, -20.484, 38.5324, -149.903, -81.3127, 43.8775
6.4161, 32, -27.9344, -20.6044, 38.6277, -149.828, -81.2329, 43.8216
6.42394, 32, -27.9207, -20.7248, 38.7232, -149.752, -81.1528, 43.7661
6.43194, 32, -27.907, -20.845, 38.8187, -149.677, -81.0729, 43.711
6.43992, 32, -27.8932, -20.9652, 38.9142, -149.601, -80.9926, 43.6577
6.44797, 32, -27.8793, -21.0854, 39.0096, -149.525, -80.913, 43.605
6.45592, 32, -27.8653, -21.2055, 39.1048, -149.449, -80.8329, 43.5527
6.46397, 32, -27.8513, -21.3257, 39.1998, -149.372, -80.7531, 43.5018
6.47196, 33, -27.8373, -21.4456, 39.295, -149.296, -80.6733, 43.4523
6.47991, 33, -27.8231, -21.5654, 39.3902, -149.22, -80.5937, 43.4032
6.48971, 33, -27.8089, -21.6851, 39.4855, -149.143, -80.514, 43.331
6.49905, 33, -27.7943, -21.8048, 39.5807, -149.066, -80.4343, 43.3078
6.50301, 33, -27.7796, -21.9246, 39.6757, -148.989, -80.3551, 43.2623
6.51197, 33, -27.7649, -22.0443, 39.7704, -148.913, -80.2757, 43.2172
6.51992, 33, -27.7501, -22.164, 39.865, -148.836, -80.1965, 43.1729
6.52792, 33, -27.7352, -22.2835, 39.9595, -148.759, -80.1171, 43.1301
6.53685, 33, -27.7202, -22.4028, 40.0541, -148.682, -80.0384, 43.0888
6.54391, 34, -27.7051, -22.5222, 40.1487, -148.604, -79.9594, 43.0483
6.55192, 34, -27.69, -22.6414, 40.2433, -148.527, -79.8804, 43.0083
6.56094, 34, -27.6748, -22.7606, 40.3377, -148.45, -79.8014, 42.9693
6.56756, 34, -27.6594, -22.8796, 40.4317, -148.372, -79.7226, 42.9322
6.57846, 34, -27.636, -23.0576, 40.5723, -148.256, -79.6042, 42.879
6.58471, 34, -27.6281, -23.1168, 40.6192, -148.217, -79.5646, 42.8619
6.59195, 34, -27.6122, -23.235, 40.7129, -148.139, -79.4862, 42.8281
6.6, 34, -27.5961, -23.3534, 40.8067, -148.062, -79.4074, 42.7953
6.61062, 35, -27.5799, -23.4718, 40.9004, -147.984, -79.3289, 42.7492
6.61592, 35, -27.5636, -23.59, 40.9937, -147.906, -79.25, 42.7348
6.62397, 35, -27.547, -23.708, 41.0866, -147.828, -79.1721, 42.7067
6.63192, 35, -27.5304, -23.8256, 41.1793, -147.75, -79.0935, 42.6801
6.64208, 35, -27.5137, -23.9431, 41.2719, -147.672, -79.0155, 42.6546
6.64798, 35, -27.4969, -24.0604, 41.3644, -147.594, -78.9373, 42.6302
6.65591, 35, -27.4798, -24.1775, 41.4569, -147.516, -78.8594, 42.607
6.66391, 35, -27.4624, -24.2944, 41.5493, -147.438, -78.7814, 42.5856
6.672, 35, -27.4449, -24.411, 41.6415, -147.36, -78.7035, 42.5659
6.67994, 36, -27.4271, -24.5272, 41.7332, -147.282, -78.6259, 42.5478
6.68782, 36, -27.4092, -24.6431, 41.8245, -147.204, -78.5485, 42.5314
6.69603, 36, -27.3909, -24.7589, 41.9156, -147.126, -78.4712, 42.5166
6.70434, 36, -27.3725, -24.8747, 42.0067, -147.048, -78.3939, 42.5034
6.71184, 36, -27.3539, -24.9905, 42.0976, -146.97, -78.3171, 42.4915
6.71951, 36, -27.3446, -25.1061, 42.1884, -146.892, -78.2402, 42.4813
6.72856, 36, -27.3161, -25.2212, 42.2789, -146.814, -78.1637, 42.4725
6.73614, 36, -27.2967, -25.336, 42.3689, -146.736, -78.0868, 42.4651
6.7429, 36, -27.287, -25.3933, 42.4137, -146.697, -78.0487, 42.4621
6.75271, 37, -27.2576, -25.5648, 42.5479, -146.58, -77.9343, 42.4556
6.76043, 37, -27.2376, -25.6787, 42.6371, -146.502, -77.8583, 42.4531
6.76808, 37, -27.2174, -25.7923, 42.7262, -146.424, -77.7821, 42.452
6.77492, 37, -27.2072, -25.8489, 42.7707, -146.385, -77.7445, 42.4517
6.78456, 37, -27.1764, -26.0181, 42.9038, -146.269, -77.6308, 42.4517
6.79223, 37, -27.1554, -26.1305, 42.992, -146.192, -77.5554, 42.4531
6.7989, 37, -27.1448, -26.1865, 43.0359, -146.153, -77.5175, 42.4548
6.80842, 37, -27.1126, -26.3545, 43.167, -146.037, -77.4049, 42.464
6.81644, 38, -27.0909, -26.4663, 43.2541, -145.959, -77.3297, 42.4731
6.82461, 38, -27.0688, -26.5777, 43.341, -145.882, -77.2548, 42.4843
6.83301, 38, -27.0464, -26.6888, 43.4275, -145.805, -77.1799, 42.4975
6.83972, 38, -27.0352, -26.7441, 43.4707, -145.767, -77.1428, 42.505
6.84693, 38, -27.0125, -26.8545, 43.5568, -145.69, -77.0678, 42.5213
6.85647, 38, -26.9895, -26.9646, 43.6425, -145.613, -76.9936, 42.5398
6.86394, 38, -26.9662, -27.0742, 43.7276, -145.536, -76.9189, 42.5605
6.8709, 38, -26.9426, -27.1834, 43.8124, -145.46, -76.8454, 42.5835
6.87991, 38, -26.9187, -27.2922, 43.8969, -145.384, -76.7711, 42.6089
6.88795, 39, -26.8944, -27.4004, 43.9811, -145.308, -76.6975, 42.637
6.8949, 39, -26.8699, -27.5081, 44.0649, -145.232, -76.6235, 42.6669
6.90422, 39, -26.8448, -27.6155, 44.1483, -145.156, -76.5504, 42.6987
6.91571, 39, -26.8066, -27.7761, 44.2727, -145.043, -76.4402, 42.7504
6.91892, 39, -26.7938, -27.8294, 44.3139, -145.005, -76.4037, 42.7689
6.928, 39, -26.7678, -27.9359, 44.3959, -144.929, -76.3301, 42.808
6.93591, 39, -26.7416, -28.0419, 44.4775, -144.855, -76.2572, 42.8491
6.94394, 39, -26.715, -28.1474, 44.5586, -144.78, -76.1839, 42.892
6.95379, 40, -26.6743, -28.3047, 44.6796, -144.668, -76.0745, 42.9608
6.95991, 40, -26.6605, -28.3568, 44.7197, -144.631, -76.0381, 42.9852
6.9679, 40, -26.6328, -28.4608, 44.7997, -144.557, -75.9659, 43.0354
6.9785, 40, -26.6046, -28.5642, 44.8792, -144.447, -75.8571, 43.1141
6.98409, 40, -26.5761, -28.667, 44.9582, -144.41, -75.821, 43.1417
6.99098, 40, -26.5472, -28.7692, 45.0366, -144.337, -75.7485, 43.1989
7.00067, 40, -26.5177, -28.8708, 45.1145, -144.264, -75.6769, 43.2579
7.00691, 40, -26.4879, -28.9719, 45.1918, -144.192, -75.6046, 43.3193
7.01589, 40, -26.4577, -29.0726, 45.2686, -144.119, -75.5332, 43.3837
7.02832, 41, -26.4114, -29.2226, 45.3829, -144.012, -75.4256, 43.4836
7.03203, 41, -26.3958, -29.2724, 45.4208, -143.976, -75.3901, 43.5185
7.04042, 41, -26.3641, -29.3717, 45.4961, -143.905, -75.3184, 43.59
7.0479, 41, -26.332, -29.4704, 45.5709, -143.834, -75.2476, 43.6629
7.05596, 41, -26.2996, -29.5686, 45.645, -143.764, -75.1762, 43.7394
7.06393, 41, -26.2667, -29.666, 45.7185, -143.694, -75.1059, 43.8177
7.07191, 41, -26.2334, -29.7627, 45.7914, -143.625, -75.035, 43.8988
7.08001, 41, -26.1995, -29.8588, 45.8636, -143.556, -74.9649, 43.9829
7.08813, 42, -26.165, -29.9541, 45.9353, -143.487, -74.8942, 44.0691
7.09552, 42, -26.1302, -30.0487, 46.0065, -143.419, -74.8245, 44.1587
7.10418, 42, -26.0948, -30.1428, 46.0771, -143.351, -74.7543, 44.2497
7.11188, 42, -26.0588, -30.2363, 46.1471, -143.285, -74.6846, 44.3445
7.1199, 42, -26.0222, -30.329, 46.2164, -143.218, -74.6146, 44.4411
7.12799, 42, -25.9853, -30.421, 46.285, -143.152, -74.5452, 44.5409
7.13589, 42, -25.9479, -30.5124, 46.3528, -143.086, -74.4755, 44.643
7.14394, 42, -25.9098, -30.603, 46.4199, -143.022, -74.4063, 44.7479
7.15191, 42, -25.871, -30.6929, 46.4862, -142.957, -74.3369, 44.8558
7.15996, 43, -25.8317, -30.7822, 46.552, -142.894, -74.268, 44.9663
7.1679, 43, -25.7918, -30.8706, 46.617, -142.831, -74.1992, 45.0799
7.1764, 43, -25.7514, -30.9585, 46.6813, -142.769, -74.1304, 45.1963
7.18508, 43, -25.7103, -31.0453, 46.7449, -142.708, -74.062, 45.3156
7.19199, 43, -25.6688, -31.1314, 46.8077, -142.646, -73.9933, 45.4374
7.20079, 43, -25.6267, -31.2167, 46.8697, -142.587, -73.9255, 45.562
7.20829, 43, -25.5838, -31.301, 46.931, -142.527, -73.8571, 45.6892
7.21551, 43, -25.5403, -31.3845, 46.9915, -142.469, -73.7896, 45.8194
7.22616, 44, -25.4961, -31.4671, 47.051, -142.411, -73.7212, 45.9521
7.23266, 44, -25.4512, -31.5488, 47.1098, -142.353, -73.6543, 46.0877
7.23989, 44, -25.4056, -31.6297, 47.1675, -142.298, -73.5865, 46.2264
7.24797, 44, -25.3594, -31.7097, 47.2245, -142.242, -73.5195, 46.3678
7.25635, 44, -25.3127, -31.7888, 47.2807, -142.188, -73.4521, 46.5121
7.26404, 44, -25.2651, -31.867, 47.3358, -142.135, -73.3856, 46.6598
7.27094, 44, -25.2411, -31.9057, 47.3631, -142.108, -73.3525, 46.7346
7.28028, 44, -25.1679, -32.0204, 47.4436, -142.031, -73.2526, 46.9632
7.2869, 44, -25.1431, -32.0581, 47.4699, -142.006, -73.2197, 47.0411
7.29624, 45, -25.0677, -32.1696, 47.5474, -141.931, -73.1203, 47.2793
7.30289, 45, -25.0422, -32.2062, 47.5728, -141.907, -73.0877, 47.3602
7.31241, 45, -24.9646, -32.3147, 47.6475, -141.835, -72.9892, 47.6074
7.32121, 45, -24.9118, -32.3856, 47.6958, -141.789, -72.9246, 47.7762
7.32709, 45, -24.8852, -32.4207, 47.7197, -141.766, -72.892, 47.8617
7.33488, 45, -24.8314, -32.49, 47.7666, -141.722, -72.8269, 48.0346
7.34295, 45, -24.7766, -32.5582, 47.8123, -141.678, -72.7628, 48.2108
7.3525, 45, -24.7211, -32.6253, 47.857, -141.615, -72.6662, 48.4809
7.35988, 45, -24.6648, -32.6912, 47.9006, -141.595, -72.6345, 48.5724
7.36793, 46, -24.6075, -32.756, 47.9431, -141.555, -72.5704, 48.7575
7.37505, 46, -24.5495, -32.8194, 47.9845, -141.516, -72.5074, 48.9457
7.38391, 46, -24.4906, -32.8815, 48.0248, -141.479, -72.4441, 49.1367
7.39194, 46, -24.4309, -32.9422, 48.0639, -141.444, -72.3813, 49.3311
7.39989, 46, -24.3704, -33.0017, 48.1019, -141.409, -72.3188, 49.5287
7.40789, 46, -24.309, -33.0597, 48.1385, -141.376, -72.2562, 49.7294
7.41593, 46, -24.2468, -33.1166, 48.174, -141.344, -72.1949, 49.933
7.42396, 46, -24.1836, -33.172, 48.2083, -141.314, -72.133, 50.1395
7.43193, 47, -24.1196, -33.2262, 48.2412, -141.285, -72.0723, 50.3487
7.43991, 47, -24.0546, -33.2789, 48.2729, -141.258, -72.0114, 50.5611
7.44805, 47, -23.9886, -33.3303, 48.3032, -141.232, -71.9509, 50.7767
7.45569, 47, -23.9219, -33.3803, 48.3321, -141.207, -71.8915, 50.9951
7.46552, 47, -23.8198, -33.4522, 48.3729, -141.175, -71.8022, 51.3284
7.47189, 47, -23.7853, -33.4754, 48.3858, -141.165, -71.773, 51.441
7.47994, 47, -23.7157, -33.5206, 48.4108, -141.146, -71.7142, 51.6689
7.48947, 47, -23.645, -33.5641, 48.4342, -141.128, -71.6562, 51.8996
7.49681, 47, -23.5735, -33.6059, 48.4563, -141.112, -71.5991, 52.1332
7.50392, 48, -23.501, -33.6461, 48.4769, -141.097, -71.5418, 52.3698
7.51289, 48, -23.4275, -33.6847, 48.4959, -141.085, -71.4859, 52.6093
7.52096, 48, -23.353, -33.7215, 48.5135, -141.074, -71.4301, 52.852
7.52805, 48, -23.2776, -33.7567, 48.5297, -141.065, -71.3748, 53.0977
7.53497, 48, -23.2012, -33.7902, 48.5441, -141.058, -71.3209, 53.3462
7.54472, 48, -23.1237, -33.8218, 48.5569, -141.053, -71.2666, 53.5975
7.55114, 48, -23.0453, -33.8518, 48.5684, -141.049, -71.2136, 53.8521
7.55892, 48, -22.9659, -33.8798, 48.5782, -141.048, -71.1615, 54.1098
7.57066, 49, -22.8448, -33.9182, 48.5898, -141.048, -71.0836, 54.5012
7.57588, 49, -22.8038, -33.93, 48.5928, -141.049, -71.0584, 54.633
7.58403, 49, -22.7213, -33.952, 48.5976, -141.052, -71.0084, 54.8987
7.591, 49, -22.6379, -33.972, 48.6006, -141.058, -70.9585, 55.1674
7.60005, 49, -22.5533, -33.9902, 48.6021, -141.065, -70.9101, 55.439
7.60797, 49, -22.4678, -34.006, 48.6023, -141.076, -70.8625, 55.713
7.61587, 49, -22.3813, -34.0196, 48.6009, -141.088, -70.8152, 55.99
7.62392, 49, -22.2937, -34.0312, 48.5978, -141.103, -70.7695, 56.2701
7.63194, 49, -22.2052, -34.0408, 48.593, -141.121, -70.725, 56.5525
7.63987, 50, -22.1154, -34.0485, 48.5862, -141.14, -70.6807, 56.8376
7.64747, 50, -22.0248, -34.0537, 48.5776, -141.161, -70.6379, 57.1254
7.65606, 50, -21.9333, -34.0567, 48.5669, -141.185, -70.5966, 57.4161
7.66401, 50, -21.8407, -34.0578, 48.5542, -141.21, -70.5557, 57.7094
7.67188, 50, -21.747, -34.0568, 48.5398, -141.239, -70.5157, 58.0051
7.67992, 50, -21.6521, -34.0535, 48.5234, -141.269, -70.4776, 58.3039
7.68816, 50, -21.5561, -34.0477, 48.5049, -141.302, -70.4408, 58.6051
7.69541, 50, -21.4592, -34.0393, 48.4845, -141.336, -70.4047, 58.9085
7.70404, 50, -21.3615, -34.0284, 48.4621, -141.373, -70.3697, 59.2142
7.71237, 51, -21.2627, -34.015, 48.4375, -141.413, -70.3366, 59.5225
7.71968, 51, -21.163, -33.9993, 48.4108, -141.455, -70.3049, 59.8332
7.7276, 51, -21.1128, -33.9809, 48.382, -141.498, -70.2743, 60.1462
7.73599, 51, -20.9608, -33.9596, 48.3513, -141.545, -70.2446, 60.4618
7.74403, 51, -20.858, -33.9357, 48.3186, -141.593, -70.2167, 60.7798
7.75091, 51, -20.8062, -33.9228, 48.3015, -141.618, -70.2034, 60.9397
7.76001, 51, -20.6492, -33.8795, 48.2466, -141.698, -70.1663, 61.4223
7.76688, 51, -20.5965, -33.8638, 48.2273, -141.725, -70.1548, 61.5844
7.77612, 52, -20.4371, -33.8118, 48.1661, -141.81, -70.1224, 62.0739
7.78288, 52, -20.3835, -33.7932, 48.1446, -141.84, -70.1123, 62.2382
7.7925, 52, -20.2215, -33.7331, 48.0771, -141.932, -70.0842, 62.7342
7.80217, 52, -20.1121, -33.6892, 48.0292, -141.997, -70.0679, 63.0676
7.80686, 52, -20.0572, -33.6662, 48.0045, -142.03, -70.0605, 63.2349
7.81638, 52, -19.8908, -33.5927, 47.9269, -142.132, -70.0414, 63.7394
7.82525, 52, -19.7786, -33.5399, 47.8724, -142.203, -70.0311, 64.0783
7.83086, 52, -19.7223, -33.5125, 47.8442, -142.24, -70.0267, 64.2485
7.84047, 52, -19.5524, -33.4254, 47.7567, -142.352, -70.0165, 64.7616
7.84938, 53, -19.4383, -33.3635, 47.6955, -142.43, -70.0123, 65.1063
7.85488, 53, -19.3809, -33.3314, 47.6641, -142.469, -70.0109, 65.2791
7.86471, 53, -19.2655, -33.2648, 47.5996, -142.55, -70.0092, 65.8
7.87102, 53, -19.1492, -33.1952, 47.5328, -142.633, -70.0096, 65.9745
7.87987, 53, -19.0321, -33.1225, 47.4637, -142.718, -70.0115, 66.3248
7.88788, 53, -18.9142, -33.0466, 47.3923, -142.806, -70.0157, 66.6767
7.89601, 53, -18.7957, -32.9674, 47.3186, -142.895, -70.0222, 67.0301
7.90386, 53, -18.6765, -32.885, 47.2426, -142.986, -70.0311, 67.3853
7.91365, 54, -18.4964, -32.7552, 47.124, -143.126, -70.0493, 67.92
7.91992, 54, -18.436, -32.7102, 47.0834, -143.174, -70.0567, 68.0988
7.92795, 54, -18.3146, -32.6179, 47.0005, -143.271, -70.0737, 68.4575
7.93586, 54, -18.1926, -32.5224, 46.9154, -143.37, -70.0936, 68.8175
7.94404, 54, -18.0701, -32.4237, 46.828, -143.471, -70.1164, 69.1787
7.95342, 54, -17.8851, -32.2691, 46.6924, -143.626, -70.155, 69.7231
7.95994, 54, -17.8232, -32.2158, 46.6461, -143.678, -70.169, 69.905
7.96693, 54, -17.699, -32.1068, 46.5514, -143.784, -70.1991, 70.2692
7.97593, 54, -17.5744, -31.9945, 46.4544, -143.892, -70.2324, 70.6349
7.98386, 55, -17.4492, -31.8787, 46.3554, -144.001, -70.2689, 71.0015
7.99113, 55, -17.3235, -31.7596, 46.2541, -144.112, -70.3077, 71.369
7.99993, 55, -17.1975, -31.6372, 46.1507, -144.225, -70.349, 71.7376
8.00788, 55, -17.0711, -31.5111, 46.0449, -144.339, -70.394, 72.1066
8.01586, 55, -16.9442, -31.3814, 45.9366, -144.455, -70.4417, 72.476
8.02395, 55, -16.8168, -31.2483, 45.8258, -144.572, -70.4914, 72.8464
8.03186, 55, -16.6892, -31.112, 45.7129, -144.69, -70.5453, 73.2171
8.03993, 55, -16.5613, -30.9725, 45.598, -144.81, -70.6017, 73.5882
8.04807, 56, -16.4332, -30.8294, 45.4809, -144.931, -70.6609, 73.9601
8.05593, 56, -16.3049, -30.6829, 45.3616, -145.053, -70.7237, 74.332
8.06402, 56, -16.1765, -30.5328, 45.2398, -145.176, -70.7886, 74.7041
8.07191, 56, -16.0477, -30.3796, 45.1158, -145.3, -70.8577, 75.0768
8.07987, 56, -15.9189, -30.2232, 44.9896, -145.425, -70.9291, 75.4495
8.08793, 56, -15.79, -30.0634, 44.8615, -145.552, -71.0043, 75.8225
8.09594, 56, -15.661, -29.8997, 44.7314, -145.679, -71.0821, 76.1958
8.10386, 56, -15.5317, -29.7327, 44.5991, -145.807, -71.1638, 76.5688
8.11289, 56, -15.4022, -29.5627, 44.4646, -145.935, -71.2481, 76.9413
8.12086, 57, -15.2726, -29.3897, 44.328, -146.064, -71.3355, 77.314
8.12885, 57, -15.143, -29.2129, 44.1893, -146.194, -71.4265, 77.6864
8.13705, 57, -15.0135, -29.0325, 44.0487, -146.325, -71.5206, 78.0583
8.14404, 57, -14.8842, -28.8493, 43.9062, -146.455, -71.6176, 78.4303
8.15191, 57, -14.7549, -28.6639, 43.7617, -146.587, -71.7184, 78.8015
8.16065, 57, -14.6256, -28.4751, 43.6155, -146.718, -71.8223, 79.1721
8.16799, 57, -14.4965, -28.2823, 43.4674, -146.85, -71.9291, 79.5425
8.17586, 57, -14.3675, -28.0864, 43.317, -146.982, -72.0397, 79.9125
8.18609, 58, -14.2388, -27.8881, 43.1648, -147.114, -72.1533, 80.2815
8.19215, 58, -14.1102, -27.6865, 43.0112, -147.247, -72.2699, 80.6502
8.19937, 58, -13.9819, -27.4813, 42.8559, -147.379, -72.39, 81.0177
8.20797, 58, -13.8539, -27.2735, 42.6987, -147.511, -72.5129, 81.384
8.21617, 58, -13.7262, -27.0631, 42.5394, -147.643, -72.6394, 81.7498
8.22343, 58, -13.6625, -26.8493, 42.3788, -147.775, -72.7691, 82.1143
8.23192, 58, -13.4719, -26.6323, 42.217, -147.907, -72.9021, 82.4778
8.24003, 58, -13.3455, -26.4127, 42.0535, -148.038, -73.0381, 82.8403
8.24789, 58, -13.2193, -26.1896, 41.8879, -148.169, -73.1773, 83.2014
8.25594, 59, -13.0934, -25.963, 41.721, -148.299, -73.3195, 83.5607
8.26586, 59, -12.9681, -25.7342, 41.5534, -148.429, -73.4646, 83.9191
8.27197, 59, -12.8432, -25.5027, 41.3843, -148.558, -73.613, 84.2763
8.27889, 59, -12.781, -25.3859, 41.2989, -148.623, -73.6882, 84.4541
8.28842, 59, -12.5952, -25.032, 41.0409, -148.815, -73.9185, 84.9858
8.29619, 59, -12.472, -24.7931, 40.868, -148.942, -74.0759, 85.3385
8.30285, 59, -12.4106, -24.6724, 40.7811, -149.006, -74.1556, 85.5139
8.31237, 59, -12.2269, -24.3074, 40.5174, -149.194, -74.3992, 86.0375
8.32032, 59, -12.1051, -24.0615, 40.3403, -149.319, -74.5651, 86.3845
8.32854, 60, -11.984, -23.8127, 40.1628, -149.442, -74.7339, 86.7292
8.33685, 60, -11.8635, -23.5619, 39.9841, -149.564, -74.9053, 87.0722
8.34297, 60, -11.8036, -23.4356, 39.8941, -149.625, -74.992, 87.243
8.35085, 60, -11.6842, -23.1807, 39.7136, -149.746, -75.1673, 87.5828
8.36041, 60, -11.5657, -22.9237, 39.5331, -149.865, -75.3455, 88.0882
8.36786, 60, -11.4478, -22.6657, 39.3516, -149.983, -75.5261, 88.2557
8.37484, 60, -11.3305, -22.4054, 39.1685, -150.1, -75.709, 88.5892
8.38494, 60, -11.1559, -22.0126, 38.8933, -150.273, -75.988, 89.0847
8.39081, 61, -11.0981, -21.8807, 38.8014, -150.33, -76.0822, 89.2488
8.39985, 61, -10.9832, -21.6149, 38.6168, -150.442, -76.2722, 89.5753
8.40802, 61, -10.8691, -21.3478, 38.4312, -150.553, -76.4645, 89.8989
8.41498, 61, -10.7558, -21.0793, 38.2461, -150.663, -76.6589, 90.2195
8.42389, 61, -10.6433, -20.8089, 38.0609, -150.771, -76.8557, 90.5376
8.43194, 61, -10.5317, -20.5375, 37.8744, -150.877, -77.0548, 90.8531
8.43984, 61, -10.421, -20.2643, 37.6878, -150.982, -77.2556, 91.1658
8.44787, 61, -10.3109, -19.9892, 37.5016, -151.085, -77.4585, 91.4756
8.45744, 61, -10.1478, -19.5752, 37.2212, -151.236, -77.7662, 91.9349
8.46385, 62, -10.0939, -19.4364, 37.1275, -151.286, -77.8695, 92.0863
8.47184, 62, -9.98682, -19.1585, 36.9409, -151.384, -78.0775, 92.3867
8.47884, 62, -9.88052, -18.8796, 36.7548, -151.48, -78.2871, 92.6841
8.49037, 62, -9.77538, -18.4591, 36.4744, -151.62, -78.604, 93.1246
8.49493, 62, -9.67124, -18.319, 36.381, -151.666, -78.7104, 93.2697
8.50469, 62, -9.56783, -18.0384, 36.1949, -151.756, -78.9243, 93.5573
8.51087, 62, -9.46509, -17.7574, 36.0088, -151.844, -79.1395, 93.842
8.51984, 62, -9.36326, -17.4762, 35.8224, -151.931, -79.356, 94.1233
8.53203, 63, -9.21229, -17.0523, 35.5446, -152.057, -79.6828, 94.538
8.53599, 63, -9.16247, -16.911, 35.4525, -152.098, -79.7924, 94.6743
8.54382, 63, -9.06352, -16.628, 35.2679, -152.179, -80.0124, 94.9443
8.55191, 63, -8.96548, -16.3444, 35.0833, -152.258, -80.2335, 95.2107
8.55984, 63, -8.8685, -16.0612, 34.9002, -152.334, -80.4554, 95.4732
8.56785, 63, -8.77246, -15.7772, 34.7178, -152.408, -80.6783, 95.7317
8.57593, 63, -8.67743, -15.4932, 34.5354, -152.481, -80.9018, 95.9863
8.58391, 63, -8.58338, -15.21, 34.3538, -152.552, -81.126, 96.2374
8.59188, 63, -8.49028, -14.9267, 34.1738, -152.62, -81.3506, 96.4839
8.59987, 64, -8.39835, -14.644, 33.9944, -152.686, -81.5758, 96.7262
8.60809, 64, -8.30751, -14.3611, 33.8151, -152.751, -81.8013, 96.9643
8.61586, 64, -8.2177, -14.0778, 33.6373, -152.813, -82.0272, 97.1982
8.62384, 64, -8.12885, -13.7956, 33.4609, -152.873, -82.2534, 97.4279
8.63191, 64, -8.04067, -13.514, 33.285, -152.931, -82.4799, 97.6531
8.63984, 64, -7.95323, -13.2335, 33.1096, -152.987, -82.7066, 97.8738
8.64785, 64, -7.86675, -12.9539, 32.9359, -153.041, -82.9335, 98.09
8.65586, 64, -7.78127, -12.6741, 32.7637, -153.093, -83.1605, 98.3019
8.66413, 65, -7.69674, -12.3957, 32.592, -153.142, -83.3877, 98.5091
8.67156, 65, -7.61324, -12.1181, 32.4213, -153.19, -83.6148, 98.7115
8.68035, 65, -7.53069, -11.8411, 32.2526, -153.235, -83.8418, 98.9089
8.68889, 65, -7.44938, -11.5654, 32.0852, -153.278, -84.0686, 99.1012
8.69594, 65, -7.36902, -11.2897, 31.9184, -153.32, -84.2953, 99.2885
8.70486, 65, -7.28967, -11.015, 31.753, -153.359, -84.5218, 99.4709
8.71231, 65, -7.21125, -10.7417, 31.5896, -153.397, -84.748, 99.6484
8.71963, 65, -7.13363, -10.4692, 31.4276, -153.432, -84.9738, 99.8206
8.72983, 65, -7.05699, -10.1984, 31.2664, -153.465, -85.1991, 99.9878
8.73644, 66, -6.98132, -9.92852, 31.1068, -153.497, -85.4241, 100.149
8.74397, 66, -6.90641, -9.65924, 30.9491, -153.526, -85.6485, 100.305
8.75187, 66, -6.8325, -9.39203, 30.7928, -153.553, -85.8726, 100.456
8.76147, 66, -6.75928, -9.12632, 30.6376, -153.578, -86.0961, 100.601
8.76839, 66, -6.68688, -8.8621, 30.4838, -153.601, -86.319, 100.741
8.77483, 66, -6.65098, -8.7308, 30.4076, -153.612, -86.4302, 100.809
8.78487, 66, -6.54438, -8.33843, 30.1817, -153.642, -86.7628, 101.003
8.79217, 66, -6.47454, -8.07849, 30.0327, -153.66, -86.9839, 101.126
8.79883, 66, -6.43996, -7.94937, 29.9588, -153.668, -87.0941, 101.185
8.80986, 67, -6.33755, -7.56367, 29.7394, -153.689, -87.4241, 101.352
8.81645, 67, -6.27035, -7.30857, 29.5954, -153.701, -87.6432, 101.457
8.82441, 67, -6.20397, -7.05526, 29.4529, -153.71, -87.8616, 101.555
8.83624, 67, -6.13839, -6.80285, 29.3119, -153.718, -88.0792, 101.647
8.83885, 67, -6.10594, -6.67725, 29.242, -153.722, -88.1877, 101.69
8.84847, 67, -6.00976, -6.30406, 29.0349, -153.729, -88.5119, 101.812
8.85646, 67, -5.97801, -6.18044, 28.899, -153.731, -88.727, 101.886
8.86465, 67, -5.91515, -5.93442, 28.8317, -153.732, -88.8342, 101.92
8.87185, 68, -5.85311, -5.69045, 28.6981, -153.733, -89.0479, 101.983
8.88185, 68, -5.76141, -5.32666, 28.5007, -153.732, -89.3667, 102.067
8.88783, 68, -5.73116, -5.20603, 28.4357, -153.731, -89.4725, 102.091
8.89592, 68, -5.67107, -4.96677, 28.3071, -153.726, -89.6834, 102.134
8.90306, 68, -5.61172, -4.72958, 28.1801, -153.72, -89.8936, 102.171
8.91186, 68, -5.55307, -4.49406, 28.0547, -153.713, -90.103, 102.2
8.91982, 68, -5.49499, -4.26112, 27.9309, -153.704, -90.3116, 102.224
8.92685, 68, -5.43767, -4.03004, 27.8086, -153.693, -90.5194, 102.24
8.93585, 68, -5.38112, -3.80013, 27.688, -153.68, -90.7265, 102.25
8.94387, 69, -5.32522, -3.57238, 27.5692, -153.665, -90.9326, 102.254
8.95098, 69, -5.27006, -3.34702, 27.4519, -153.649, -91.1381, 102.252
8.96225, 69, -5.21538, -3.12289, 27.3363, -153.631, -91.3426, 102.233
8.96684, 69, -5.16126, -2.90054, 27.2222, -153.611, -91.5462, 102.223
8.97583, 69, -5.10783, -2.68049, 27.1095, -153.59, -91.7488, 102.197
8.98382, 69, -5.05487, -2.46197, 26.9986, -153.568, -91.9504, 102.164
8.99282, 69, -5.00248, -2.24477, 26.8892, -153.544, -92.1512, 102.123
8.99985, 69, -4.95077, -2.03015, 26.7815, -153.52, -92.351, 102.074
9.00786, 70, -4.89954, -1.8178, 26.6754, -153.493, -92.5497, 102.018
9.01583, 70, -4.84866, -1.60684, 26.5707, -153.465, -92.7478, 101.954
9.02492, 70, -4.79828, -1.39785, 26.4674, -153.436, -92.9448, 101.881
9.03098, 70, -4.74823, -1.19122, 26.3657, -153.406, -93.1411, 101.802
9.04088, 70, -4.69849, -0.986184, 26.2657, -153.375, -93.3366, 101.714
9.04784, 70, -4.64931, -0.782737, 26.1673, -153.343, -93.5311, 101.618
9.05587, 70, -4.60063, -0.58192, 26.0705, -153.309, -93.7249, 101.515
9.06384, 70, -4.55225, -0.383579, 25.9749, -153.274, -93.9178, 101.404
9.07283, 70, -4.50435, -0.186835, 25.8805, -153.239, -94.1099, 101.285
9.07983, 71, -4.45695, 0.0080207, 25.7875, -153.203, -94.3013, 101.158
9.08789, 71, -4.40981, 0.200172, 25.6963, -153.165, -94.4918, 101.023
9.09692, 71, -4.36294, 0.3902, 25.6067, -153.127, -94.6814, 100.881
9.10398, 71, -4.31632, 0.578858, 25.5186, -153.088, -94.8701, 100.73
9.11189, 71, -4.26986, 0.76577, 25.4318, -153.048, -95.0579, 100.572
9.12062, 71, -4.22354, 0.949908, 25.3463, -153.007, -95.2446, 100.406
9.12785, 71, -4.17747, 1.13182, 25.262, -152.966, -95.4305, 100.233
9.13589, 71, -4.13171, 1.31225, 25.1791, -152.924, -95.6156, 100.052
9.146, 72, -4.08602, 1.4905, 25.0979, -152.881, -95.7994, 99.8629
9.15183, 72, -4.0405, 1.66586, 25.0182, -152.839, -95.9824, 99.6665
9.15989, 72, -3.99509, 1.8392, 24.9399, -152.796, -96.1643, 99.4621
9.16785, 72, -3.9497, 2.01074, 24.8628, -152.752, -96.3452, 99.2504
9.17606, 72, -3.90437, 2.18001, 24.787, -152.707, -96.525, 99.0311
9.18383, 72, -3.85907, 2.34641, 24.7125, -152.664, -96.7037, 98.8044
9.19208, 72, -3.8137, 2.51033, 24.6394, -152.619, -96.8812, 98.5704
9.19991, 72, -3.76835, 2.67226, 24.5677, -152.574, -97.0575, 98.329
9.20799, 72, -3.72321, 2.83189, 24.4972, -152.53, -97.2327, 98.0804
9.21622, 73, -3.67804, 2.98876, 24.4281, -152.485, -97.4067, 97.8248
9.22368, 73, -3.63273, 3.14284, 24.3604, -152.44, -97.5793, 97.5621
9.23199, 73, -3.58737, 3.29472, 24.2941, -152.396, -97.7508, 97.2922
9.23988, 73, -3.542, 3.44419, 24.2292, -152.352, -97.9205, 97.0154
9.24783, 73, -3.49641, 3.59087, 24.1656, -152.308, -98.0889, 96.7321
9.25593, 73, -3.45055, 3.73462, 24.1033, -152.265, -98.256, 96.442
9.26394, 73, -3.40454, 3.87534, 24.0423, -152.222, -98.4213, 96.1453
9.27082, 73, -3.38142, 3.94464, 24.0123, -152.2, -98.5034, 95.9945
9.27997, 73, -3.31158, 4.14836, 23.9243, -152.136, -98.7467, 95.5334
9.28682, 74, -3.2882, 4.2148, 23.8956, -152.115, -98.8269, 95.3765
9.29641, 74, -3.21778, 4.40935, 23.8116, -152.054, -99.0645, 94.8979
9.30501, 74, -3.1704, 4.53505, 23.7574, -152.013, -99.2203, 94.5721
9.31081, 74, -3.14658, 4.59665, 23.7308, -151.993, -99.2974, 94.4072
9.3203, 74, -3.0749, 4.77683, 23.6531, -151.935, -99.5254, 93.9044
9.32919, 74, -3.0267, 4.89294, 23.6031, -151.896, -99.6744, 93.5629
9.3348, 74, -3.0024, 4.94977, 23.5787, -151.877, -99.7482, 93.3902
9.34446, 74, -2.92923, 5.11511, 23.5075, -151.823, -99.965, 92.8653
9.35324, 75, -2.88008, 5.22087, 23.4619, -151.789, -100.106, 92.51
9.35882, 75, -2.85531, 5.27238, 23.4396, -151.772, -100.176, 92.331
9.36867, 75, -2.80556, 5.37261, 23.3748, -151.721, -100.381, 91.7881
9.37495, 75, -2.75568, 5.46903, 23.354, -151.706, -100.447, 91.605
9.38382, 75, -2.70536, 5.56167, 23.3135, -151.675, -100.579, 91.2364
9.39184, 75, -2.65451, 5.65036, 23.2745, -151.646, -100.707, 90.8645
9.39981, 75, -2.60331, 5.73498, 23.2371, -151.617, -100.832, 90.4894
9.40781, 75, -2.5517, 5.81549, 23.2012, -151.589, -100.953, 90.1118
9.41761, 76, -2.47339, 5.92835, 23.1504, -151.551, -101.129, 89.5408
9.42383, 76, -2.44713, 5.96384, 23.1343, -151.539, -101.186, 89.3494
9.43187, 76, -2.39431, 6.0315, 23.1034, -151.516, -101.296, 88.9654
9.43981, 76, -2.34114, 6.09478, 23.074, -151.495, -101.403, 88.5793
9.44796, 76, -2.28769, 6.15361, 23.0465, -151.475, -101.506, 88.1917
9.45738, 76, -2.20679, 6.23339, 23.0086, -151.447, -101.652, 87.6082
9.46387, 76, -2.17963, 6.25762, 22.9969, -151.438, -101.698, 87.413
9.47081, 76, -2.12513, 6.30244, 22.9747, -151.422, -101.788, 87.022
9.47981, 76, -2.07023, 6.34253, 22.9543, -151.408, -101.874, 86.6303
9.48784, 77, -2.01499, 6.3778, 22.9359, -151.395, -101.954, 86.2383
9.49766, 77, -1.95943, 6.42091, 22.9117, -151.379, -102.066, 85.651
9.50381, 77, -1.90358, 6.43283, 22.9046, -151.374, -102.101, 85.4555
9.5119, 77, -1.84748, 6.45294, 22.892, -151.366, -102.167, 85.0648
9.52086, 77, -1.79115, 6.46755, 22.8815, -151.359, -102.227, 84.6749
9.52781, 77, -1.73441, 6.47672, 22.873, -151.353, -102.283, 84.2854
9.53587, 77, -1.67746, 6.48084, 22.8666, -151.349, -102.333, 83.8967
9.54603, 77, -1.59168, 6.47762, 22.8608, -151.345, -102.397, 83.3168
9.55087, 77, -1.56297, 6.47384, 22.8599, -151.344, -102.416, 83.1241
9.55988, 78, -1.50548, 6.46221, 22.8595, -151.343, -102.45, 82.7395
9.5678, 78, -1.44771, 6.44498, 22.8612, -151.343, -102.478, 82.3571
9.57594, 78, -1.38986, 6.42179, 22.8652, -151.344, -102.499, 81.9766
9.58486, 78, -1.33201, 6.39302, 22.8715, -151.346, -102.515, 81.5983
9.59181, 78, -1.27393, 6.3586, 22.8802, -151.35, -102.525, 81.2226
9.59992, 78, -1.21572, 6.3183, 22.8915, -151.355, -102.529, 80.8496
9.6078, 78, -1.15744, 6.2721, 22.905, -151.361, -102.528, 80.4786
9.6158, 78, -1.09905, 6.22011, 22.9211, -151.369, -102.52, 80.1106
9.62383, 79, -1.04062, 6.16202, 22.94, -151.378, -102.506, 79.7451
9.63187, 79, -0.982047, 6.09784, 22.9613, -151.387, -102.486, 79.3823
9.63989, 79, -0.923318, 6.02749, 22.9853, -151.398, -102.459, 79.0232
9.64799, 79, -0.864645, 5.95099, 23.0121, -151.41, -102.425, 78.6669
9.6553, 79, -0.805851, 5.86857, 23.0414, -151.423, -102.385, 78.3136
9.66381, 79, -0.747094, 5.78006, 23.0737, -151.437, -102.338, 77.9637
9.67196, 79, -0.688431, 5.68545, 23.1088, -151.452, -102.284, 77.6171
9.67983, 79, -0.629775, 5.58474, 23.1466, -151.468, -102.223, 77.2738
9.68783, 79, -0.571137, 5.4778, 23.1873, -151.485, -102.156, 76.9342
9.69603, 80, -0.512481, 5.36451, 23.2311, -151.502, -102.082, 76.5984
9.7034, 80, -0.453938, 5.24509, 23.2778, -151.52, -102.001, 76.266
9.71196, 80, -0.39543, 5.11945, 23.3275, -151.538, -101.914, 75.9371
9.72245, 80, -0.33698, 4.98768, 23.3801, -151.556, -101.819, 75.6122
9.72813, 80, -0.278665, 4.84961, 23.436, -151.576, -101.718, 75.2908
9.73591, 80, -0.220401, 4.70512, 23.495, -151.596, -101.609, 74.9727
9.74382, 80, -0.162063, 4.55443, 23.5571, -151.617, -101.494, 74.6589
9.75188, 80, -0.103905, 4.39801, 23.6225, -151.638, -101.372, 74.3488
9.76016, 81, -0.0456963, 4.23554, 23.691, -151.659, -101.243, 74.0419
9.76687, 81, -0.0165538, 4.15187, 23.7264, -151.67, -101.176, 73.8898
9.77624, 81, 0.0706772, 3.89097, 23.8376, -151.702, -100.964, 73.4392
9.78498, 81, 0.128783, 3.70979, 23.9158, -151.724, -100.815, 73.1433
9.79205, 81, 0.186696, 3.52342, 23.9975, -151.747, -100.658, 72.8511
9.7988, 81, 0.215557, 3.4281, 24.0396, -151.758, -100.577, 72.7064
9.80892, 81, 0.302052, 3.1318, 24.1715, -151.792, -100.324, 72.2782
9.81625, 81, 0.35952, 2.92671, 24.2638, -151.814, -100.147, 71.9973
9.82279, 81, 0.388253, 2.82224, 24.3112, -151.826, -100.056, 71.8581
9.833, 82, 0.474504, 2.50007, 24.4584, -151.859, -99.7717, 71.4457
9.8404, 82, 0.531859, 2.27706, 24.5608, -151.882, -99.5742, 71.1751
9.84924, 82, 0.58929, 2.04846, 24.6669, -151.905, -99.3702, 70.9079
9.85489, 82, 0.618014, 1.93198, 24.7213, -151.916, -99.2658, 70.7755
9.8628, 82, 0.675211, 1.69379, 24.833, -151.938, -99.0518, 70.5133
9.8739, 82, 0.760852, 1.32498, 25.0076, -151.971, -98.7185, 70.127
9.87901, 82, 0.789424, 1.19927, 25.0675, -151.982, -98.6041, 69.9999
9.88982, 82, 0.875076, 0.812737, 25.2523, -152.014, -98.2516, 69.6235
9.89579, 83, 0.903691, 0.681242, 25.3157, -152.025, -98.1309, 69.4995
9.90382, 83, 0.961013, 0.414131, 25.4453, -152.047, -97.8852, 69.2539
9.91081, 83, 1.01829, 0.140562, 25.579, -152.068, -97.6334, 69.0117
9.9198, 83, 1.07562, -0.138052, 25.7162, -152.088, -97.3755, 68.7724
9.93026, 83, 1.13296, -0.421639, 25.9283, -152.117, -96.977, 68.4192
9.9348, 83, 1.19024, -0.710459, 26.0009, -152.127, -96.841, 68.303
9.94379, 83, 1.24756, -1.00383, 26.1489, -152.145, -96.5647, 68.0731
9.95411, 83, 1.33355, -1.45435, 26.3774, -152.173, -96.1397, 67.7345
9.95885, 83, 1.36229, -1.60696, 26.4552, -152.183, -95.9951, 67.623
9.96776, 84, 1.41987, -1.91635, 26.6138, -152.201, -95.7019, 67.4023
9.97578, 84, 1.47745, -2.23077, 26.7763, -152.218, -95.4035, 67.1848
9.98386, 84, 1.53538, -2.54956, 26.9424, -152.234, -95.0993, 66.9704
9.99079, 84, 1.59338, -2.87348, 27.1113, -152.249, -94.7897, 66.7595
9.99995, 84, 1.65142, -3.20157, 27.2837, -152.264, -94.4746, 66.5515
10.0068, 84, 1.70967, -3.53463, 27.4606, -152.278, -94.1545, 66.3466
10.0159, 84, 1.76803, -3.87155, 27.6414, -152.291, -93.8294, 66.1446
10.0248, 84, 1.82658, -4.21294, 27.8246, -152.304, -93.4996, 65.9455
10.0318, 84, 1.88534, -4.55876, 28.0108, -152.317, -93.1651, 65.7497
10.0398, 85, 1.94424, -4.90905, 28.201, -152.328, -92.8261, 65.5569
10.0478, 85, 2.00351, -5.2628, 28.3944, -152.339, -92.4827, 65.3672
10.0558, 85, 2.06302, -5.61976, 28.5903, -152.349, -92.1351, 65.1808
10.0638, 85, 2.12264, -5.98009, 28.7901, -152.357, -91.7834, 64.9975
10.0759, 85, 2.21245, -6.52643, 29.0965, -152.369, -91.2479, 64.7288
10.079, 85, 2.24249, -6.70981, 29.1999, -152.372, -91.0677, 64.641
10.088, 85, 2.30272, -7.07889, 29.409, -152.378, -90.7045, 64.4678
10.0958, 85, 2.36318, -7.4512, 29.6216, -152.383, -90.3377, 64.2975
10.1038, 86, 2.42388, -7.82678, 29.8361, -152.386, -89.9676, 64.1306
10.1118, 86, 2.48509, -8.20509, 30.0533, -152.389, -89.5941, 63.9669
10.1198, 86, 2.54673, -8.58595, 30.2738, -152.39, -89.2176, 63.8071
10.128, 86, 2.60868, -8.9691, 30.4964, -152.391, -88.8379, 63.6513
10.1353, 86, 2.67098, -9.3545, 30.7216, -152.391, -88.4559, 63.4996
10.1428, 86, 2.73355, -9.7414, 30.9498, -152.391, -88.071, 63.3516
10.1518, 86, 2.79626, -10.1302, 31.1797, -152.389, -87.6838, 63.2074
10.1599, 86, 2.85915, -10.5204, 31.4118, -152.386, -87.2943, 63.0669
10.1678, 86, 2.92218, -10.9124, 31.6467, -152.381, -86.9027, 62.9302
10.1758, 87, 2.9855, -11.3049, 31.8829, -152.376, -86.5092, 62.7976
10.1839, 87, 3.04911, -11.6988, 32.1212, -152.368, -86.1137, 62.6696
10.192, 87, 3.11325, -12.0937, 32.3615, -152.359, -85.7167, 62.5462
10.201, 87, 3.17776, -12.4898, 32.6031, -152.349, -85.318, 62.4279
10.208, 87, 3.2426, -12.886, 32.8468, -152.337, -84.9183, 62.3144
10.2159, 87, 3.3077, -13.2831, 33.0923, -152.323, -84.5168, 62.2055
10.2279, 87, 3.40557, -13.88, 33.4626, -152.3, -83.9129, 62.0511
10.2319, 87, 3.43831, -14.0789, 33.5868, -152.291, -83.7111, 62.0023
10.2399, 88, 3.50393, -14.4768, 33.8354, -152.274, -83.3067, 61.908
10.2484, 88, 3.56975, -14.8747, 34.0855, -152.255, -82.9018, 61.8189
10.2561, 88, 3.6359, -15.2726, 34.3373, -152.234, -82.4964, 61.7356
10.2639, 88, 3.70242, -15.6696, 34.5895, -152.212, -82.0902, 61.658
10.272, 88, 3.76908, -16.066, 34.8428, -152.187, -81.6839, 61.5871
10.2788, 88, 3.80237, -16.2639, 34.9699, -152.174, -81.4809, 61.5535
10.288, 88, 3.9025, -16.8571, 35.3513, -152.133, -80.8709, 61.4617
10.2948, 88, 3.93596, -17.0543, 35.4791, -152.119, -80.6676, 61.4344
10.3041, 88, 4.03647, -17.6447, 35.8626, -152.074, -80.058, 61.3614
10.3122, 89, 4.10354, -18.0368, 36.1187, -152.042, -79.6514, 61.3201
10.3202, 89, 4.1708, -18.4283, 36.3756, -152.007, -79.2448, 61.286
10.3272, 89, 4.20453, -18.6233, 36.504, -151.989, -79.0415, 61.2719
10.3402, 89, 4.30577, -19.207, 36.8897, -151.932, -78.2297, 61.234
10.3427, 89, 4.33956, -19.401, 37.0182, -151.912, -78.2297, 61.234
10.354, 89, 4.44085, -19.9808, 37.4034, -151.849, -77.623, 61.2242
10.3604, 89, 4.50831, -20.3645, 37.6609, -151.805, -77.2191, 61.225
10.3683, 89, 4.54206, -20.556, 37.7895, -151.783, -77.0173, 61.2344
10.3758, 89, 4.60952, -20.9374, 38.0466, -151.735, -76.6144, 61.242
10.3846, 90, 4.67696, -21.3173, 38.3041, -151.686, -76.2115, 61.2769
10.3918, 90, 4.74426, -21.6946, 38.5607, -151.635, -75.8092, 61.2929
10.3998, 90, 4.81154, -22.0706, 38.8174, -151.581, -75.4075, 61.3317
10.4068, 90, 4.87882, -22.4446, 39.0739, -151.527, -75.0067, 61.3791
10.4158, 90, 4.94604, -22.8173, 39.3295, -151.469, -74.6068, 61.4353
10.4238, 90, 5.01332, -23.1875, 39.5853, -151.409, -74.2078, 61.5017
10.4308, 90, 5.08055, -23.5562, 39.8404, -151.348, -73.8091, 61.5776
10.4398, 90, 5.14775, -23.9227, 40.0951, -151.283, -73.4113, 61.6624
10.4477, 91, 5.21479, -24.2871, 40.3495, -151.217, -73.0141, 61.7581
10.4558, 91, 5.28159, -24.6485, 40.6027, -151.148, -72.6176, 61.8629
10.4639, 91, 5.34821, -25.0078, 40.8559, -151.077, -72.2217, 61.9782
10.4708, 91, 5.41455, -25.3648, 41.1086, -151.003, -71.8262, 62.1036
10.4822, 91, 5.51407, -25.8971, 41.4863, -150.889, -71.2343, 62.3122
10.488, 91, 5.5473, -26.0732, 41.612, -150.85, -71.0375, 62.3871
10.4981, 91, 5.61386, -26.4239, 41.8623, -150.77, -70.4477, 62.6289
10.5038, 91, 5.68034, -26.7725, 42.112, -150.687, -70.2513, 62.7153
10.5119, 91, 5.74696, -27.1189, 42.3611, -150.603, -69.8591, 62.8969
10.5198, 92, 5.81355, -27.4629, 42.6087, -150.516, -69.4673, 63.09
10.5278, 92, 5.87995, -27.8042, 42.8562, -150.427, -69.0757, 63.2948
10.5358, 92, 5.94654, -28.144, 43.1027, -150.336, -68.6842, 63.5116
10.5438, 92, 6.01331, -28.4815, 43.3483, -150.243, -68.2929, 63.7407
10.5518, 92, 6.08022, -28.8169, 43.5934, -150.148, -67.9017, 63.9826
10.56, 92, 6.14721, -29.1489, 43.8367, -150.051, -67.5111, 64.2369
10.5677, 92, 6.21443, -29.4789, 44.0788, -149.953, -67.1205, 64.504
10.5758, 92, 6.28205, -29.8062, 44.3206, -149.854, -66.7302, 64.7841
10.5837, 93, 6.35002, -30.1312, 44.5606, -149.753, -66.3401, 65.0782
10.5918, 93, 6.41849, -30.4532, 44.7997, -149.65, -65.9497, 65.3867
10.5998, 93, 6.48746, -30.7724, 45.0378, -149.546, -65.5595, 65.7097
10.608, 93, 6.55733, -31.0898, 45.2738, -149.441, -65.1692, 66.048
10.6175, 93, 6.62798, -31.4047, 45.5087, -149.335, -64.7789, 66.4017
10.6228, 93, 6.69926, -31.7173, 45.7419, -149.228, -64.3886, 66.7701
10.6327, 93, 6.77133, -32.0261, 45.9729, -149.121, -63.9982, 67.1531
10.6398, 93, 6.84422, -32.3321, 46.203, -149.015, -63.6074, 67.5506
10.6478, 93, 6.91826, -32.6354, 46.4314, -148.909, -63.2167, 67.9621
10.6572, 94, 6.99335, -32.935, 46.6574, -148.804, -62.8257, 68.3893
10.6638, 94, 7.06971, -33.2315, 46.8816, -148.7, -62.4351, 68.8326
10.6718, 94, 7.14764, -33.5239, 47.1028, -148.596, -62.0445, 69.2931
10.6798, 94, 7.22743, -33.8131, 47.321, -148.494, -61.6541, 69.7707
10.688, 94, 7.30897, -34.0992, 47.5374, -148.394, -61.2639, 70.2645
10.6959, 94, 7.39221, -34.3809, 47.7514, -148.296, -60.8736, 70.775
10.7039, 94, 7.47746, -34.6591, 47.962, -148.2, -60.4839, 71.3008
10.7114, 94, 7.56465, -34.9326, 48.1702, -148.109, -60.0944, 71.842
10.7199, 95, 7.65373, -35.2007, 48.3749, -148.021, -59.7056, 72.3978
10.7279, 95, 7.74494, -35.4644, 48.5748, -147.938, -59.3185, 72.9699
10.7363, 95, 7.83848, -35.723, 48.7711, -147.86, -58.9328, 73.5587
10.7434, 95, 7.88624, -35.8505, 48.868, -147.787, -58.5488, 74.1647
10.7527, 95, 8.03362, -36.226, 49.151, -147.718, -58.1666, 74.7868
10.7601, 95, 8.13493, -36.4685, 49.3335, -147.655, -57.7861, 75.4261
10.769, 95, 8.23875, -36.7043, 49.5123, -147.599, -57.4072, 76.0805
10.7768, 95, 8.34525, -36.9343, 49.6864, -147.549, -57.0308, 76.748
10.7839, 95, 8.45434, -37.157, 49.8547, -147.507, -56.6568, 77.4295
10.792, 96, 8.5658, -37.3718, 50.0175, -147.473, -56.2866, 78.1249
10.7988, 96, 8.62248, -37.4765, 50.0968, -147.458, -56.103, 78.4775
10.8082, 96, 8.79669, -37.7799, 50.3241, -147.429, -55.5603, 79.5554
10.8148, 96, 8.8563, -37.8772, 50.3963, -147.423, -55.382, 79.9223
10.8243, 96, 9.03925, -38.1569, 50.6027, -147.417, -54.8552, 81.0415
10.8332, 96, 9.16409, -38.3326, 50.732, -147.425, -54.5103, 81.802
10.8389, 96, 9.22738, -38.4171, 50.7942, -147.432, -54.3397, 82.187
10.8487, 96, 9.4206, -38.6555, 50.9704, -147.469, -53.837, 83.3558
10.8563, 97, 9.55127, -38.8014, 51.0786, -147.505, -53.5103, 84.1461
10.8644, 97, 9.68332, -38.9368, 51.1784, -147.55, -53.1914, 84.9464
10.8732, 97, 9.75001, -39.001, 51.2251, -147.577, -53.0354, 85.7517
10.8788, 97, 9.88497, -39.1222, 51.3117, -147.639, -52.7313, 86.1566
10.8897, 97, 10.0905, -39.2846, 51.4247, -147.749, -52.295, 87.3843
10.8958, 97, 10.1596, -39.3331, 51.458, -147.791, -52.1547, 87.7955
10.9038, 97, 10.2986, -39.4212, 51.5182, -147.88, -51.8811, 88.6225
10.9118, 97, 10.4381, -39.4969, 51.5701, -147.978, -51.6172, 89.4559
10.9188, 97, 10.5774, -39.5606, 51.6135, -148.084, -51.3631, 90.2898
10.9278, 98, 10.7161, -39.6116, 51.6478, -148.198, -51.1196, 91.1262
10.9358, 98, 10.854, -39.6498, 51.6729, -148.32, -50.8887, 91.9644
10.9438, 98, 10.9914, -39.6764, 51.6884, -148.45, -50.6715, 92.7999
10.9519, 98, 11.1285, -39.6919, 51.6938, -148.587, -50.469, 93.636
10.9628, 98, 11.3329, -39.693, 51.6834, -148.805, -50.1929, 94.8832
10.9678, 98, 11.4003, -39.687, 51.675, -148.881, -50.1078, 95.2972
10.9758, 98, 11.534, -39.6652, 51.6514, -149.035, -49.9481, 96.1245
10.9838, 98, 11.6658, -39.6305, 51.6189, -149.194, -49.8015, 96.9459
10.992, 99, 11.7952, -39.5825, 51.5774, -149.357, -49.6687, 97.7634
10.9998, 99, 11.9219, -39.5211, 51.5266, -149.523, -49.55, 98.5759
11.0088, 99, 12.0461, -39.447, 51.4661, -149.692, -49.447, 99.378
11.0158, 99, 12.1681, -39.3609, 51.3956, -149.863, -49.361, 100.173
11.0239, 99, 12.2874, -39.2631, 51.315, -150.036, -49.2913, 100.959
11.0318, 99, 12.4033, -39.1529, 51.2247, -150.21, -49.2388, 101.733
11.0398, 99, 12.5157, -39.0297, 51.125, -150.384, -49.2023, 102.499
11.0478, 99, 12.6244, -38.8937, 51.0165, -150.558, -49.1808, 103.254
11.0558, 99, 12.7292, -38.7452, 50.8996, -150.73, -49.1733, 103.997
11.0638, 100, 12.8301, -38.5846, 50.7739, -150.902, -49.1806, 104.731
11.0718, 100, 12.9269, -38.4127, 50.6394, -151.071, -49.2036, 105.452
11.0798, 100, 13.02, -38.2299, 50.496, -151.238, -49.2426, 106.159
11.0878, 100, 13.1095, -38.0359, 50.344, -151.402, -49.2998, 106.855
11.0958, 100, 13.1947, -37.8302, 50.184, -151.563, -49.3727, 107.535
11.1043, 100, 13.2753, -37.6138, 50.0158, -151.72, -49.4622, 108.201
11.1109, 100, 13.3512, -37.3862, 49.8391, -151.874, -49.5666, 108.853
11.1198, 100, 13.4225, -37.1469, 49.655, -152.022, -49.686, 109.493
11.1279, 100, 13.4893, -36.8968, 49.4636, -152.166, -49.8196, 110.117
11.1348, 101, 13.5515, -36.6355, 49.2637, -152.305, -49.9681, 110.729
11.1438, 101, 13.6095, -36.363, 49.0556, -152.439, -50.1314, 111.326
11.1526, 101, 13.6634, -36.0816, 48.8408, -152.567, -50.3101, 111.909
11.1597, 101, 13.7131, -35.7904, 48.6181, -152.689, -50.5038, 112.475
11.1678, 101, 13.7587, -35.4898, 48.3878, -152.806, -50.7119, 113.028
11.1772, 101, 13.7997, -35.1795, 48.1516, -152.917, -50.9337, 113.566
11.1838, 101, 13.8362, -34.8584, 47.9084, -153.022, -51.1686, 114.091
11.1918, 101, 13.8686, -34.5282, 47.6588, -153.121, -51.4157, 114.602
11.1998, 102, 13.8967, -34.188, 47.4036, -153.214, -51.6751, 115.099
11.2079, 102, 13.9207, -33.8391, 47.1417, -153.3, -51.9472, 115.583
11.2161, 102, 13.9408, -33.4813, 46.8742, -153.38, -52.232, 116.054
11.2233, 102, 13.9575, -33.1169, 46.6006, -153.454, -52.5298, 116.51
11.2322, 102, 13.9709, -32.7448, 46.3211, -153.522, -52.8401, 116.952
11.2394, 102, 13.9762, -32.3649, 46.0366, -153.584, -53.1618, 117.383
11.2479, 102, 13.987, -31.9765, 45.7468, -153.64, -53.4938, 117.8
11.2548, 102, 13.9889, -31.7797, 45.6005, -153.666, -53.6636, 118.005
11.2627, 102, 13.9902, -31.3807, 45.3042, -153.713, -54.0101, 118.405
11.2718, 103, 13.9861, -30.7691, 44.8516, -153.774, -54.547, 118.984
11.2799, 103, 13.9793, -30.3526, 44.5448, -153.808, -54.9167, 119.355
11.2879, 103, 13.9699, -29.9304, 44.2343, -153.835, -55.2961, 119.715
11.2959, 103, 13.9583, -29.5034, 43.9194, -153.857, -55.6851, 120.063
11.3041, 103, 13.9443, -29.07, 43.6009, -153.874, -56.0835, 120.4
11.3108, 103, 13.9363, -28.8512, 43.4404, -153.88, -56.2856, 120.565
11.3201, 103, 13.9086, -28.1864, 42.955, -153.893, -56.9026, 121.045
11.3267, 103, 13.8982, -27.9622, 42.7921, -153.896, -57.1115, 121.2
11.3363, 104, 13.8638, -27.282, 42.3002, -153.897, -57.7466, 121.651
11.3443, 104, 13.838, -26.8224, 41.9698, -153.891, -58.1775, 121.941
11.3523, 104, 13.8104, -26.3598, 41.637, -153.88, -58.6145, 122.22
11.3604, 104, 13.7816, -25.8944, 41.3023, -153.865, -59.0578, 122.489
11.3683, 104, 13.7668, -25.6607, 41.1345, -153.846, -59.5074, 122.75
11.3764, 104, 13.7361, -25.1914, 40.7983, -153.835, -59.9616, 123.002
11.3844, 104, 13.7044, -24.7197, 40.4606, -153.811, -60.1899, 123.125
11.3917, 104, 13.6721, -24.2462, 40.1223, -153.782, -60.6489, 123.368
11.4009, 104, 13.6222, -23.5331, 39.615, -153.734, -61.3407, 123.723
11.4078, 104, 13.6052, -23.2946, 39.4463, -153.717, -61.5718, 123.84
11.4158, 104, 13.5706, -22.8176, 39.1096, -153.682, -62.0346, 124.073
11.4237, 104, 13.5357, -22.3401, 38.7743, -153.645, -62.4973, 124.304
11.4317, 104, 13.5006, -21.8631, 38.4395, -153.605, -62.9598, 124.533
11.4398, 104, 13.4656, -21.3872, 38.1064, -153.564, -63.4221, 124.762
11.4478, 104, 13.4305, -20.9121, 37.7743, -153.522, -63.8838, 124.989
11.4557, 104, 13.3954, -20.4381, 37.444, -153.477, -64.3448, 125.216
11.4627, 104, 13.3607, -19.9645, 37.1145, -153.431, -64.8053, 125.442
11.4718, 104, 13.3261, -19.4914, 36.7872, -153.383, -65.2654, 125.667
11.4798, 104, 13.2915, -19.0195, 36.4609, -153.334, -65.7249, 125.891
11.4867, 104, 13.2569, -18.5481, 36.1362, -153.283, -66.1839, 126.115
11.4957, 104, 13.2225, -18.0773, 35.8127, -153.231, -66.6428, 126.338
11.5037, 104, 13.188, -17.6074, 35.4915, -153.177, -67.1008, 126.56
11.5127, 104, 13.1537, -17.1384, 35.1712, -153.122, -67.5578, 126.781
11.5197, 104, 13.1195, -16.6705, 34.8524, -153.065, -68.0141, 127.002
11.5287, 104, 13.0855, -16.2039, 34.5348, -153.006, -68.4695, 127.223
11.5348, 104, 13.0519, -15.738, 34.2195, -152.947, -68.9247, 127.443
11.5437, 104, 13.0186, -15.2731, 33.9056, -152.885, -69.3792, 127.662
11.5517, 104, 12.9855, -14.8094, 33.5934, -152.823, -69.8332, 127.881
11.5597, 104, 12.9525, -14.346, 33.2824, -152.759, -70.2867, 128.099
11.5678, 104, 12.9199, -13.8833, 32.9732, -152.693, -70.7391, 128.317
11.5758, 104, 12.8874, -13.4215, 32.666, -152.627, -71.1903, 128.535
11.5838, 104, 12.8549, -12.9608, 32.3599, -152.558, -71.6409, 128.752
11.5917, 104, 12.8227, -12.5014, 32.0562, -152.489, -72.0908, 128.969
11.5998, 104, 12.7905, -12.043, 31.7538, -152.418, -72.54, 129.186
11.6077, 104, 12.7585, -11.5863, 31.4536, -152.346, -72.9882, 129.402
11.6176, 104, 12.727, -11.13, 31.1543, -152.272, -73.4359, 129.619
