rpiRobotics/ARM-21-02-F-19-Robot-Motion-Program/data_performance_abb/curve_1/baseline/100L/realrobot/bisect/run_3realrobot_curve_exe_v75.0_z10.csv
timestamp, cmd_num, J1, J2, J3, J4, J5, J6
0.000545, -1, 11.3779, 13.614, 17.3393, -145.519, -97.923, 142.516
0.004747, -1, 11.3779, 13.6141, 17.3393, -145.519, -97.923, 142.516
0.008642, -1, 11.3779, 13.6141, 17.3393, -145.519, -97.923, 142.516
0.036011, -1, 11.3779, 13.614, 17.3393, -145.519, -97.923, 142.516
0.037586, -1, 11.3779, 13.614, 17.3393, -145.519, -97.923, 142.516
0.038868, -1, 11.3779, 13.614, 17.3393, -145.519, -97.923, 142.516
0.040916, -1, 11.3779, 13.614, 17.3393, -145.519, -97.923, 142.516
0.048174, -1, 11.3779, 13.614, 17.3393, -145.519, -97.923, 142.516
0.055399, -1, 11.3772, 13.614, 17.3393, -145.519, -97.923, 142.516
0.063389, -1, 11.3747, 13.6137, 17.3392, -145.519, -97.923, 142.516
0.071442, -1, 11.3683, 13.6127, 17.339, -145.519, -97.923, 142.516
0.079402, -1, 11.3572, 13.6107, 17.3384, -145.52, -97.923, 142.514
0.087386, -1, 11.3398, 13.607, 17.3376, -145.522, -97.9228, 142.506
0.095438, -1, 11.3131, 13.6008, 17.3368, -145.525, -97.922, 142.485
0.103561, -1, 11.275, 13.5914, 17.3362, -145.532, -97.9202, 142.445
0.111457, -1, 11.225, 13.5788, 17.3363, -145.544, -97.9167, 142.38
0.119396, -1, 11.1635, 13.5632, 17.338, -145.561, -97.9112, 142.284
0.128748, -1, 11.0904, 13.5439, 17.342, -145.584, -97.9034, 142.075
0.135389, -1, 11.0055, 13.5207, 17.3483, -145.613, -97.8933, 141.988
0.145004, -1, 10.8565, 13.4798, 17.362, -145.666, -97.8745, 141.681
0.152187, -1, 10.8015, 13.4644, 17.3673, -145.686, -97.8675, 141.565
0.159393, -1, 10.6831, 13.4315, 17.3785, -145.728, -97.8528, 141.319
0.16916, -1, 10.5541, 13.3958, 17.3898, -145.773, -97.8375, 140.924
0.176298, -1, 10.416, 13.3578, 17.4004, -145.819, -97.8216, 140.789
0.184387, -1, 10.2713, 13.3182, 17.4106, -145.866, -97.8055, 140.514
0.191463, -1, 10.1218, 13.2778, 17.4207, -145.913, -97.7888, 140.238
0.200169, -1, 9.96939, 13.2367, 17.4307, -145.961, -97.7719, 139.959
0.207432, -1, 9.81476, 13.1955, 17.4407, -146.009, -97.7546, 139.68
0.215456, -1, 9.65922, 13.1541, 17.4508, -146.057, -97.7375, 139.401
0.224047, -1, 9.50407, 13.1129, 17.4607, -146.105, -97.7205, 139.121
0.23145, -1, 9.34935, 13.0717, 17.4705, -146.153, -97.7038, 138.842
0.239393, -1, 9.19499, 13.0306, 17.4805, -146.201, -97.6871, 138.562
0.248749, -1, 9.04123, 12.9896, 17.4904, -146.249, -97.6703, 138.282
0.255534, -1, 8.88758, 12.9486, 17.5005, -146.297, -97.6534, 138.003
0.263382, -1, 8.73414, 12.9076, 17.5106, -146.345, -97.6363, 137.723
0.271388, -1, 8.58123, 12.8666, 17.5206, -146.393, -97.6188, 137.443
0.279494, -1, 8.4285, 12.8254, 17.5308, -146.441, -97.6013, 137.162
0.287395, -1, 8.27544, 12.7841, 17.541, -146.489, -97.5841, 136.882
0.295389, -1, 8.12197, 12.7427, 17.5511, -146.536, -97.5671, 136.602
0.303454, -1, 7.96807, 12.7011, 17.5613, -146.585, -97.5503, 136.322
0.311403, -1, 7.81351, 12.6596, 17.5714, -146.632, -97.5337, 136.042
0.319403, -1, 7.65857, 12.6179, 17.5815, -146.68, -97.5171, 135.762
0.327457, -1, 7.5035, 12.5764, 17.5917, -146.729, -97.5002, 135.481
0.335387, -1, 7.3483, 12.535, 17.6018, -146.776, -97.483, 135.201
0.343385, -1, 7.19315, 12.4935, 17.612, -146.824, -97.4655, 134.921
0.351493, -1, 7.03796, 12.4522, 17.6223, -146.873, -97.4482, 134.641
0.359395, -1, 6.88271, 12.411, 17.6325, -146.921, -97.4313, 134.361
0.367496, -1, 6.72773, 12.3698, 17.6429, -146.968, -97.4144, 134.08
0.375501, -1, 6.5731, 12.3286, 17.6533, -147.017, -97.3977, 133.8
0.383476, -1, 6.4187, 12.2874, 17.6636, -147.065, -97.3809, 133.519
0.391549, -1, 6.2644, 12.2461, 17.674, -147.113, -97.364, 133.239
0.39949, -1, 6.11016, 12.2047, 17.6841, -147.161, -97.3469, 132.958
0.407504, -1, 5.95571, 12.1633, 17.6944, -147.209, -97.3294, 132.677
0.415563, -1, 5.80107, 12.1218, 17.7047, -147.257, -97.3118, 132.397
0.42339, -1, 5.64626, 12.0801, 17.7148, -147.305, -97.2943, 132.116
0.43141, -1, 5.49119, 12.0386, 17.7251, -147.353, -97.2773, 131.835
0.439491, -1, 5.33591, 11.997, 17.7353, -147.401, -97.2603, 131.554
0.447468, -1, 5.18041, 11.9554, 17.7455, -147.45, -97.2436, 131.273
0.455556, -1, 5.02456, 11.9138, 17.756, -147.498, -97.2269, 130.992
0.46365, -1, 4.86861, 11.8723, 17.7664, -147.546, -97.2098, 130.711
0.471609, -1, 4.71283, 11.8308, 17.7768, -147.594, -97.1926, 130.43
0.47982, -1, 4.5571, 11.7894, 17.7871, -147.642, -97.1751, 130.15
0.488453, -1, 4.4014, 11.748, 17.7974, -147.69, -97.1577, 129.869
0.49583, -1, 4.24596, 11.7066, 17.8078, -147.739, -97.1405, 129.588
0.637252, -1, 1.52269, 10.9786, 17.9892, -148.585, -96.8415, 124.66
0.638569, -1, 1.52269, 10.9786, 17.9892, -148.585, -96.8415, 124.66
0.639766, -1, 1.52269, 10.9786, 17.9892, -148.585, -96.8415, 124.66
0.641792, -1, 1.44468, 10.9578, 17.9944, -148.609, -96.8331, 124.519
0.643089, -1, 1.44468, 10.9578, 17.9944, -148.609, -96.8331, 124.519
0.644947, -1, 1.3667, 10.937, 17.9996, -148.633, -96.8247, 124.378
0.646306, -1, 1.3667, 10.937, 17.9996, -148.633, -96.8247, 124.378
0.649572, -1, 1.28876, 10.9162, 18.0048, -148.657, -96.8163, 124.237
0.78742, -1, -1.36542, 10.2062, 18.181, -149.482, -96.5253, 119.432
0.788608, -1, -1.36542, 10.2062, 18.181, -149.482, -96.5253, 119.432
0.790647, -1, -1.44373, 10.1853, 18.1862, -149.506, -96.5169, 119.29
0.791877, -1, -1.44373, 10.1853, 18.1862, -149.506, -96.5169, 119.29
0.793162, -1, -1.44373, 10.1853, 18.1862, -149.506, -96.5169, 119.29
0.795329, -1, -1.52203, 10.1645, 18.1914, -149.53, -96.5085, 119.149
0.796612, -1, -1.52203, 10.1645, 18.1914, -149.53, -96.5085, 119.149
0.800433, -1, -1.60032, 10.1436, 18.1967, -149.554, -96.5, 119.007
0.803325, -1, -1.67848, 10.1227, 18.202, -149.579, -96.4915, 118.866
0.806194, -1, -1.67848, 10.1227, 18.202, -149.579, -96.483, 118.724
0.80767, -1, -1.75649, 10.1018, 18.2072, -149.603, -96.483, 118.724
0.808864, -1, -1.75649, 10.1018, 18.2072, -149.603, -96.483, 118.724
0.810894, -1, -1.83434, 10.0809, 18.2124, -149.628, -96.4744, 118.582
0.812119, -1, -1.83434, 10.0809, 18.2124, -149.628, -96.4744, 118.582
0.813365, -1, -1.83434, 10.0809, 18.2124, -149.628, -96.4744, 118.582
0.820142, -1, -1.98977, 10.039, 18.2228, -149.676, -96.4567, 118.299
0.821335, -1, -1.98977, 10.039, 18.2228, -149.676, -96.4567, 118.299
0.823375, -1, -2.06739, 10.0181, 18.228, -149.7, -96.4479, 118.157
0.824585, -1, -2.06739, 10.0181, 18.228, -149.7, -96.4479, 118.157
0.82731, -1, -2.14497, 9.99718, 18.2332, -149.725, -96.4391, 118.015
0.829449, -1, -2.14497, 9.99718, 18.2332, -149.725, -96.4391, 118.015
0.831526, -1, -2.22256, 9.97629, 18.2383, -149.749, -96.4304, 117.874
0.834524, -1, -2.30016, 9.95541, 18.2435, -149.774, -96.4217, 117.732
0.835882, -1, -2.30016, 9.95541, 18.2435, -149.774, -96.4217, 117.732
0.837304, -1, -2.30016, 9.95541, 18.2435, -149.774, -96.4217, 117.732
0.839289, -1, -2.37782, 9.9345, 18.2488, -149.798, -96.4131, 117.59
0.840556, -1, -2.37782, 9.9345, 18.2488, -149.798, -96.4131, 117.59
0.842355, -1, -2.37782, 9.9345, 18.2488, -149.822, -96.4045, 117.448
0.843803, -1, -2.45559, 9.91354, 18.254, -149.822, -96.4045, 117.448
0.845102, -1, -2.45559, 9.91354, 18.254, -149.822, -96.4045, 117.448
0.847949, -1, -2.53344, 9.89256, 18.2593, -149.846, -96.396, 117.306
0.849233, -1, -2.53344, 9.89256, 18.2593, -149.846, -96.396, 117.306
0.851873, -1, -2.61136, 9.87159, 18.2644, -149.87, -96.3876, 117.165
0.854584, -1, -2.68932, 9.85064, 18.2696, -149.895, -96.3792, 117.023
0.856024, -1, -2.68932, 9.85064, 18.2696, -149.895, -96.3792, 117.023
0.857329, -1, -2.68932, 9.85064, 18.2696, -149.895, -96.3792, 117.023
0.859419, -1, -2.76736, 9.8297, 18.2748, -149.919, -96.3709, 116.881
0.863363, -1, -2.84554, 9.80875, 18.28, -149.943, -96.3625, 116.739
0.871401, -1, -3.00221, 9.76686, 18.2904, -149.992, -96.3455, 116.456
0.879568, -1, -3.15926, 9.72498, 18.3007, -150.041, -96.3284, 116.172
0.887455, -1, -3.31677, 9.68305, 18.3112, -150.089, -96.3108, 115.888
0.895472, -1, -3.47467, 9.64107, 18.3217, -150.138, -96.2933, 115.604
0.90354, -1, -3.63251, 9.59921, 18.3321, -150.187, -96.2759, 115.32
0.911473, -1, -3.79037, 9.5574, 18.3424, -150.235, -96.2587, 115.036
0.919425, -1, -3.94839, 9.51542, 18.3528, -150.284, -96.2417, 114.752
0.927527, -1, -4.10629, 9.47353, 18.3632, -150.333, -96.2247, 114.468
0.935398, -1, -4.26405, 9.43165, 18.3735, -150.382, -96.2077, 114.183
0.94371, -1, -4.42156, 9.38966, 18.3838, -150.43, -96.1906, 113.899
0.951571, -1, -4.57875, 9.34771, 18.3941, -150.479, -96.173, 113.614
0.959471, -1, -4.7355, 9.30574, 18.4044, -150.528, -96.1553, 113.33
0.967599, -1, -4.89178, 9.26377, 18.4149, -150.577, -96.1376, 113.045
0.975729, -1, -5.0479, 9.22173, 18.4254, -150.626, -96.1204, 112.76
0.983679, -1, -5.20382, 9.17974, 18.4359, -150.674, -96.1034, 112.475
0.991896, -1, -5.35982, 9.13765, 18.4464, -150.723, -96.0865, 112.191
1.00043, -1, -5.51598, 9.09553, 18.4568, -150.772, -96.0696, 111.906
1.00788, -1, -5.6723, 9.05354, 18.4671, -150.821, -96.0526, 111.621
1.01651, -1, -5.82903, 9.01145, 18.4775, -150.87, -96.0353, 111.336
1.02395, -1, -5.98619, 8.96932, 18.4879, -150.919, -96.0178, 111.052
1.032, -1, -6.14391, 8.92724, 18.4981, -150.967, -96.0002, 110.766
1.04018, -1, -6.30216, 8.88512, 18.5085, -151.016, -95.9828, 110.481
1.04822, -1, -6.38137, 8.86408, 18.5188, -151.066, -95.9658, 110.196
1.05535, -1, -6.53983, 8.82211, 18.5239, -151.09, -95.9572, 110.054
1.06342, -1, -6.69833, 8.78003, 18.5345, -151.139, -95.9402, 109.768
1.07136, -1, -6.85707, 8.73793, 18.5449, -151.188, -95.9234, 109.483
1.07935, -1, -7.01563, 8.69587, 18.5554, -151.237, -95.9063, 109.197
1.08885, -1, -7.25331, 8.63273, 18.571, -151.311, -95.88, 108.769
1.09536, -1, -7.33236, 8.61168, 18.5762, -151.335, -95.8711, 108.626
1.10335, -1, -7.49023, 8.56946, 18.5866, -151.384, -95.8534, 108.34
1.11283, -1, -7.72664, 8.50607, 18.6023, -151.458, -95.8272, 107.912
1.11939, -1, -7.80524, 8.48499, 18.6075, -151.483, -95.8186, 107.769
1.12886, -1, -8.04036, 8.42164, 18.6231, -151.555, -95.7932, 107.34
1.13731, -1, -8.19695, 8.37932, 18.6335, -151.605, -95.7763, 107.054
1.14338, -1, -8.27528, 8.35818, 18.6387, -151.63, -95.7677, 106.912
1.15294, -1, -8.51049, 8.29469, 18.6545, -151.703, -95.7418, 106.483
1.16109, -1, -8.66756, 8.25244, 18.665, -151.752, -95.7241, 106.196
1.16736, -1, -8.74628, 8.23133, 18.6702, -151.777, -95.7153, 106.053
1.17698, -1, -8.90404, 8.18906, 18.6805, -151.825, -95.6891, 105.624
1.18517, -1, -9.06222, 8.14679, 18.6909, -151.875, -95.6805, 105.481
1.19136, -1, -9.22085, 8.10462, 18.7014, -151.924, -95.6632, 105.194
1.19942, -1, -9.37978, 8.06239, 18.7118, -151.973, -95.6461, 104.908
1.20735, -1, -9.5389, 8.02012, 18.7222, -152.022, -95.629, 104.621
1.21541, -1, -9.69812, 7.97795, 18.7326, -152.072, -95.6117, 104.334
1.22343, -1, -9.85738, 7.93582, 18.743, -152.121, -95.5942, 104.047
1.23135, -1, -10.0167, 7.8935, 18.7536, -152.17, -95.5762, 103.76
1.23943, -1, -10.176, 7.85115, 18.7642, -152.219, -95.5584, 103.474
1.24735, -1, -10.335, 7.80872, 18.7747, -152.268, -95.5409, 103.187
1.25535, -1, -10.4937, 7.76624, 18.7852, -152.318, -95.5236, 102.9
1.26343, -1, -10.6522, 7.72381, 18.7956, -152.367, -95.5066, 102.613
1.27135, -1, -10.8103, 7.68136, 18.806, -152.416, -95.4896, 102.326
1.27936, -1, -10.9681, 7.63883, 18.8165, -152.466, -95.4725, 102.039
1.28745, -1, -11.1256, 7.59635, 18.8268, -152.515, -95.4552, 101.752
1.29534, -1, -11.283, 7.5539, 18.8373, -152.564, -95.4374, 101.464
1.30335, -1, -11.4405, 7.51147, 18.8477, -152.614, -95.4196, 101.177
1.31142, -1, -11.5981, 7.46903, 18.8582, -152.663, -95.4021, 100.89
1.31946, -1, -11.7561, 7.42664, 18.8688, -152.712, -95.3846, 100.602
1.32735, -1, -11.9145, 7.38426, 18.8793, -152.762, -95.3675, 100.314
1.33542, -1, -12.0733, 7.34193, 18.8899, -152.811, -95.3503, 100.027
1.34335, -1, -12.2324, 7.29959, 18.9004, -152.86, -95.3331, 99.7387
1.35146, -1, -12.392, 7.25718, 18.9109, -152.91, -95.3156, 99.4509
1.35988, -1, -12.5519, 7.21478, 18.9214, -152.959, -95.2979, 99.1631
1.36834, -1, -12.7119, 7.1724, 18.9319, -153.009, -95.2799, 98.8755
1.37545, -1, -12.872, 7.12997, 18.9424, -153.058, -95.2621, 98.5876
1.38445, -1, -13.032, 7.08741, 18.953, -153.108, -95.2446, 98.2995
1.39144, -1, -13.1919, 7.04482, 18.9635, -153.157, -95.2273, 98.0115
1.39951, -1, -13.3516, 7.00223, 18.974, -153.207, -95.2102, 97.7235
1.40777, -1, -13.5109, 6.95956, 18.9846, -153.256, -95.1932, 97.4352
1.41545, -1, -13.6701, 6.9168, 18.9952, -153.305, -95.176, 97.1466
1.42351, -1, -13.8292, 6.87412, 19.0057, -153.355, -95.1585, 96.8581
1.43198, -1, -13.9877, 6.83143, 19.0161, -153.404, -95.1408, 96.5695
1.4394, -1, -14.1459, 6.78875, 19.0266, -153.454, -95.123, 96.2806
1.44744, -1, -14.3041, 6.74614, 19.0372, -153.503, -95.1054, 95.9916
1.45707, -1, -14.4623, 6.70346, 19.0476, -153.552, -95.0882, 95.7027
1.46436, -1, -14.6208, 6.66085, 19.0581, -153.602, -95.0709, 95.4136
1.47163, -1, -14.7797, 6.61835, 19.0686, -153.652, -95.0538, 95.1243
1.48114, -1, -14.9389, 6.57581, 19.0792, -153.701, -95.0366, 94.8351
1.48768, -1, -15.0984, 6.53317, 19.0899, -153.751, -95.019, 94.5461
1.4958, -1, -15.2584, 6.49064, 19.1005, -153.801, -95.0011, 94.2569
1.50536, -1, -15.4187, 6.44811, 19.1111, -153.85, -94.9831, 93.9676
1.51187, -1, -15.5794, 6.40541, 19.1217, -153.9, -94.9653, 93.6782
1.52045, -1, -15.7403, 6.36273, 19.1322, -153.949, -94.9478, 93.3891
1.52945, -1, -15.9009, 6.32, 19.1428, -153.999, -94.9305, 93.0997
1.53595, -1, -16.0616, 6.27714, 19.1534, -154.049, -94.9135, 92.8101
1.54393, -1, -16.142, 6.25574, 19.1586, -154.098, -94.8963, 92.5204
1.55282, -1, -16.3027, 6.19147, 19.1744, -154.148, -94.8789, 92.2309
1.55989, -1, -16.4632, 6.16999, 19.1796, -154.173, -94.8701, 92.0862
1.56844, -1, -16.7033, 6.10562, 19.1954, -154.247, -94.8433, 91.651
1.57536, -1, -16.7832, 6.08418, 19.2007, -154.272, -94.8344, 91.506
1.58338, -1, -16.9425, 6.04124, 19.2113, -154.322, -94.8167, 91.216
1.59259, -1, -17.1812, 5.97688, 19.2272, -154.396, -94.7905, 90.7808
1.59934, -1, -17.2607, 5.95546, 19.2325, -154.421, -94.7818, 90.6357
1.60738, -1, -17.4199, 5.91267, 19.243, -154.471, -94.7646, 90.3456
1.61681, -1, -17.659, 5.84853, 19.2591, -154.546, -94.7384, 89.9103
1.62333, -1, -17.7387, 5.82716, 19.2644, -154.571, -94.7295, 89.7651
1.63136, -1, -17.8983, 5.78441, 19.275, -154.621, -94.7116, 89.4747
1.64089, -1, -18.1387, 5.7203, 19.2909, -154.695, -94.6844, 89.039
1.65042, -1, -18.2995, 5.67755, 19.3015, -154.745, -94.6667, 88.7486
1.65536, -1, -18.38, 5.65617, 19.3068, -154.77, -94.6579, 88.6032
1.66333, -1, -18.5413, 5.61328, 19.3176, -154.82, -94.6406, 88.3123
1.6714, -1, -18.7029, 5.57032, 19.3282, -154.87, -94.6233, 88.0215
1.67933, -1, -18.8645, 5.52738, 19.3388, -154.92, -94.606, 87.7306
1.68833, -1, -19.0261, 5.48441, 19.3493, -154.97, -94.5886, 87.4395
1.69542, -1, -19.1876, 5.44129, 19.3599, -155.02, -94.5707, 87.1482
1.70438, -1, -19.349, 5.39818, 19.3704, -155.07, -94.5526, 86.8569
1.71132, -1, -19.5101, 5.35505, 19.381, -155.12, -94.5346, 86.5654
1.71944, -1, -19.6709, 5.31186, 19.3916, -155.17, -94.5169, 86.2739
1.72734, -1, -19.8315, 5.26876, 19.4021, -155.22, -94.4993, 85.9822
1.73541, -1, -19.9919, 5.22566, 19.4127, -155.27, -94.4819, 85.6909
1.74333, -1, -20.1519, 5.18255, 19.4235, -155.32, -94.4646, 85.3995
1.75134, -1, -20.3117, 5.13965, 19.4342, -155.37, -94.4471, 85.1079
1.7594, -1, -20.4718, 5.09673, 19.445, -155.42, -94.4293, 84.816
1.76733, -1, -20.6319, 5.05374, 19.4557, -155.47, -94.4113, 84.5244
1.77536, -1, -20.7922, 5.01085, 19.4663, -155.521, -94.3932, 84.2326
1.78339, -1, -20.9529, 4.96798, 19.477, -155.57, -94.3755, 83.9404
1.79133, -1, -21.1141, 4.92493, 19.4876, -155.62, -94.3581, 83.6484
1.79933, -1, -21.2756, 4.88192, 19.4982, -155.671, -94.3408, 83.3566
1.80739, -1, -21.4376, 4.8388, 19.5088, -155.721, -94.3236, 83.0644
1.81535, -1, -21.5998, 4.79555, 19.5194, -155.771, -94.3064, 82.7719
1.82336, -1, -21.762, 4.7524, 19.5301, -155.822, -94.2888, 82.4794
1.83139, -1, -21.9244, 4.70908, 19.5409, -155.871, -94.271, 82.1868
1.83933, -1, -22.0868, 4.6657, 19.5516, -155.922, -94.253, 81.8943
1.84736, -1, -22.2492, 4.62237, 19.5623, -155.972, -94.2352, 81.6015
1.85542, -1, -22.4115, 4.57901, 19.573, -156.022, -94.2176, 81.3089
1.86333, -1, -22.5733, 4.53562, 19.5837, -156.073, -94.2002, 81.0162
1.87156, -1, -22.735, 4.49224, 19.5943, -156.123, -94.1828, 80.7234
1.87966, -1, -22.8964, 4.4489, 19.605, -156.173, -94.1653, 80.4304
1.88746, -1, -23.0575, 4.40563, 19.6157, -156.223, -94.1475, 80.1377
1.89575, -1, -23.2185, 4.36238, 19.6263, -156.274, -94.1294, 79.8447
1.90343, -1, -23.3794, 4.31916, 19.6371, -156.324, -94.1111, 79.5513
1.91144, -1, -23.5402, 4.27597, 19.648, -156.375, -94.093, 79.2579
1.91991, -1, -23.7013, 4.23278, 19.6587, -156.425, -94.0752, 78.9646
1.92733, -1, -23.8626, 4.18961, 19.6695, -156.475, -94.0576, 78.6712
1.93534, -1, -24.0241, 4.14635, 19.6802, -156.526, -94.0403, 78.3773
1.94415, -1, -24.1861, 4.10302, 19.6909, -156.576, -94.0229, 78.0835
1.95146, -1, -24.3487, 4.05967, 19.7016, -156.626, -94.0052, 77.7897
1.95958, -1, -24.5115, 4.01626, 19.7122, -156.677, -93.9872, 77.4956
1.96831, -1, -24.6745, 3.97275, 19.7228, -156.727, -93.9689, 77.2014
1.97556, -1, -24.8377, 3.92923, 19.7334, -156.777, -93.951, 76.9075
1.98362, -1, -25.0012, 3.8857, 19.7441, -156.828, -93.9332, 76.6135
1.99258, -1, -25.1645, 3.84216, 19.755, -156.878, -93.9156, 76.3194
1.99972, -1, -25.3276, 3.79862, 19.7658, -156.929, -93.8982, 76.025
2.00813, -1, -25.4903, 3.75505, 19.7766, -156.979, -93.8807, 75.7309
2.01679, -1, -25.6531, 3.71141, 19.7873, -157.029, -93.8629, 75.4366
2.02387, -1, -25.8156, 3.66791, 19.7979, -157.08, -93.8448, 75.142
2.03243, -1, -25.9778, 3.62449, 19.8086, -157.13, -93.8264, 74.8473
2.0407, -1, -26.1398, 3.58098, 19.8194, -157.181, -93.8082, 74.5527
2.04791, -1, -26.2206, 3.55927, 19.8248, -157.232, -93.7903, 74.2581
2.05658, -1, -26.463, 3.49428, 19.8408, -157.282, -93.7725, 73.9632
2.06332, -1, -26.5439, 3.47256, 19.8462, -157.307, -93.7637, 73.8156
2.07132, -1, -26.7058, 3.42911, 19.8569, -157.358, -93.7461, 73.5206
2.07937, -1, -26.8681, 3.38565, 19.8677, -157.409, -93.7285, 73.2254
2.0897, -1, -27.1122, 3.32028, 19.884, -157.485, -93.7016, 72.7824
2.09537, -1, -27.1937, 3.29851, 19.8894, -157.51, -93.6924, 72.6348
2.10331, -1, -27.3569, 3.25497, 19.9001, -157.561, -93.6741, 72.3397
2.11131, -1, -27.5207, 3.21119, 19.9108, -157.611, -93.656, 72.0444
2.11937, -1, -27.6846, 3.16747, 19.9216, -157.662, -93.6381, 71.7489
2.12887, -1, -27.9307, 3.10194, 19.9377, -157.738, -93.6116, 71.3056
2.13788, -1, -28.0948, 3.05824, 19.9485, -157.789, -93.5939, 71.0098
2.14487, -1, -28.2589, 3.0145, 19.9593, -157.84, -93.5761, 70.714
2.1531, -1, -28.4231, 2.97075, 19.97, -157.89, -93.5579, 70.4179
2.15933, -1, -28.505, 2.94891, 19.9754, -157.915, -93.5487, 70.27
2.16738, -1, -28.6685, 2.90527, 19.9863, -157.966, -93.5302, 69.9742
2.17707, -1, -28.8319, 2.8616, 20.0026, -158.042, -93.503, 69.5299
2.18332, -1, -28.9949, 2.81795, 20.0079, -158.068, -93.4941, 69.3817
2.19232, -1, -29.1577, 2.77433, 20.0186, -158.119, -93.4764, 69.0853
2.20036, -1, -29.3204, 2.7307, 20.0294, -158.169, -93.4587, 68.7887
2.20732, -1, -29.4832, 2.68708, 20.0402, -158.221, -93.4411, 68.4921
2.21538, -1, -29.646, 2.64337, 20.0509, -158.272, -93.4231, 68.1953
2.22337, -1, -29.8091, 2.59961, 20.0617, -158.322, -93.4049, 67.8987
2.23131, -1, -29.9722, 2.55589, 20.0724, -158.374, -93.3865, 67.6022
2.23933, -1, -30.1356, 2.51208, 20.0833, -158.425, -93.3683, 67.3053
2.24731, -1, -30.2995, 2.46816, 20.0943, -158.475, -93.3503, 67.0082
2.25541, -1, -30.4638, 2.42425, 20.1051, -158.526, -93.3325, 66.7114
2.26331, -1, -30.6285, 2.3803, 20.116, -158.577, -93.3148, 66.4143
2.27132, -1, -30.7935, 2.33633, 20.1267, -158.628, -93.2971, 66.1169
2.2794, -1, -30.9585, 2.29244, 20.1375, -158.679, -93.2791, 65.8196
2.28731, -1, -31.1235, 2.24845, 20.1484, -158.73, -93.2608, 65.5225
2.29531, -1, -31.2884, 2.2045, 20.1592, -158.781, -93.2422, 65.225
2.30338, -1, -31.4532, 2.16068, 20.1699, -158.832, -93.2238, 64.9273
2.31131, -1, -31.6178, 2.11674, 20.1806, -158.883, -93.2059, 64.6297
2.31932, -1, -31.7823, 2.07281, 20.1915, -158.935, -93.1881, 64.3319
2.3274, -1, -31.9464, 2.02898, 20.2024, -158.986, -93.1705, 64.034
2.33531, -1, -32.1102, 1.98505, 20.2133, -159.037, -93.1529, 63.7359
2.34331, -1, -32.2739, 1.94113, 20.2243, -159.088, -93.1351, 63.4381
2.35138, -1, -32.4374, 1.89722, 20.2352, -159.139, -93.1168, 63.1403
2.35939, -1, -32.6012, 1.85316, 20.2461, -159.19, -93.0984, 62.8422
2.36736, -1, -32.7651, 1.80915, 20.257, -159.242, -93.0801, 62.5438
2.37535, -1, -32.9291, 1.76511, 20.2679, -159.293, -93.0621, 62.2456
2.38341, -1, -33.0934, 1.72093, 20.2788, -159.344, -93.0442, 61.9472
2.39144, -1, -33.2582, 1.67677, 20.2896, -159.396, -93.0263, 61.6485
2.39943, -1, -33.4234, 1.63263, 20.3005, -159.447, -93.0085, 61.35
2.40746, -1, -33.5889, 1.58842, 20.3114, -159.498, -92.9904, 61.0514
2.41542, -1, -33.7546, 1.54424, 20.3224, -159.549, -92.972, 60.7526
2.42348, -1, -33.9203, 1.50006, 20.3333, -159.6, -92.9533, 60.4535
2.43147, -1, -34.0861, 1.45591, 20.3441, -159.652, -92.9347, 60.1546
2.43933, -1, -34.252, 1.41184, 20.355, -159.703, -92.9164, 59.8554
2.44737, -1, -34.418, 1.36768, 20.3659, -159.754, -92.8985, 59.5559
2.45541, -1, -34.5837, 1.32353, 20.3768, -159.806, -92.8807, 59.2565
2.4634, -1, -34.7491, 1.27941, 20.3877, -159.857, -92.8629, 58.9572
2.47241, -1, -34.9142, 1.23523, 20.3985, -159.908, -92.8449, 58.6579
2.47968, -1, -35.0789, 1.19111, 20.4094, -159.96, -92.8266, 58.3583
2.48766, -1, -35.2435, 1.14687, 20.4204, -160.011, -92.8081, 58.0586
2.4957, -1, -35.408, 1.10265, 20.4315, -160.063, -92.7896, 57.7589
2.50379, -1, -35.5716, 1.05867, 20.4427, -160.114, -92.7715, 57.4591
2.51245, -1, -35.7329, 1.01512, 20.454, -160.165, -92.7535, 57.1598
2.51988, -1, -35.8911, 0.972316, 20.4655, -160.216, -92.7357, 56.8624
2.52843, -1, -36.0449, 0.930823, 20.4774, -160.267, -92.7181, 56.5691
2.53591, -1, -36.1926, 0.891183, 20.4893, -160.315, -92.7008, 56.2833
2.54444, -1, -36.3319, 0.854011, 20.5011, -160.362, -92.684, 56.01
2.55193, -1, -36.3977, 0.836573, 20.5123, -160.405, -92.668, 55.7559
2.56033, -1, -36.5777, 0.788968, 20.5223, -160.444, -92.6536, 55.5266
2.56735, -1, -36.6313, 0.774817, 20.5268, -160.461, -92.6471, 55.4231
2.57638, -1, -36.77, 0.73815, 20.5373, -160.505, -92.6311, 55.1631
2.58334, -1, -36.8089, 0.727784, 20.5397, -160.517, -92.6269, 55.094
2.59136, -1, -36.8765, 0.709873, 20.5428, -160.537, -92.6202, 54.982
2.59933, -1, -36.931, 0.69553, 20.5442, -160.551, -92.6156, 54.9019
2.60731, -1, -36.9728, 0.684524, 20.5446, -160.56, -92.6126, 54.8475
2.61529, -1, -37.0036, 0.676423, 20.5444, -160.566, -92.6108, 54.8142
2.6247, -1, -37.0323, 0.6689, 20.5437, -160.57, -92.6095, 54.7895
2.63131, -1, -37.0381, 0.667449, 20.5436, -160.571, -92.6094, 54.7854
2.6409, 2, -37.0475, 0.665179, 20.5433, -160.572, -92.6091, 54.7794
2.64885, 2, -37.0487, 0.664629, 20.5432, -160.573, -92.609, 54.778
2.65724, 2, -37.0483, 0.664403, 20.5432, -160.573, -92.6089, 54.7774
2.66335, 2, -37.0481, 0.664341, 20.5432, -160.573, -92.6088, 54.7773
2.6729, 2, -37.048, 0.66424, 20.5432, -160.573, -92.6089, 54.7771
2.68123, 2, -37.0487, 0.664168, 20.5432, -160.573, -92.6089, 54.7771
2.68733, 2, -37.0492, 0.664145, 20.5431, -160.573, -92.609, 54.7772
2.69635, 2, -37.0503, 0.664054, 20.543, -160.573, -92.609, 54.7773
2.70432, 2, -37.0516, 0.663832, 20.5428, -160.573, -92.6091, 54.7775
2.71132, 2, -37.0529, 0.663573, 20.5427, -160.573, -92.6091, 54.7777
2.71932, 2, -37.0541, 0.663332, 20.5425, -160.573, -92.6092, 54.7778
2.72736, 2, -37.055, 0.663127, 20.5423, -160.573, -92.6092, 54.7781
2.73532, 2, -37.0555, 0.663023, 20.5422, -160.573, -92.6092, 54.7783
2.74331, 2, -37.0554, 0.66298, 20.542, -160.573, -92.6092, 54.7785
2.75132, 2, -37.0548, 0.662978, 20.5419, -160.573, -92.6093, 54.7787
2.75938, 2, -37.0539, 0.66305, 20.5419, -160.573, -92.6094, 54.7789
2.76731, 2, -37.0529, 0.66311, 20.5418, -160.573, -92.6094, 54.7792
2.77532, 2, -37.0513, 0.663202, 20.5417, -160.573, -92.6094, 54.7794
2.78333, 2, -37.0498, 0.663324, 20.5417, -160.573, -92.6094, 54.7796
2.79131, 2, -37.0487, 0.663389, 20.5416, -160.573, -92.6094, 54.7798
2.79932, 2, -37.048, 0.663419, 20.5416, -160.573, -92.6094, 54.7798
2.80732, 2, -37.0476, 0.663399, 20.5416, -160.573, -92.6094, 54.7799
2.8153, 2, -37.0476, 0.663344, 20.5416, -160.573, -92.6094, 54.78
2.82331, 2, -37.0478, 0.663273, 20.5415, -160.573, -92.6095, 54.7801
2.83135, 2, -37.048, 0.663205, 20.5415, -160.573, -92.6095, 54.7801
2.83931, 2, -37.0486, 0.66315, 20.5415, -160.573, -92.6095, 54.7802
2.84732, 2, -37.0494, 0.663118, 20.5415, -160.573, -92.6095, 54.7802
2.85532, 2, -37.0502, 0.663114, 20.5415, -160.573, -92.6095, 54.7802
2.86331, 2, -37.051, 0.663109, 20.5415, -160.573, -92.6095, 54.7802
2.87132, 2, -37.0515, 0.663142, 20.5415, -160.573, -92.6096, 54.7803
2.87937, 2, -37.0517, 0.663186, 20.5414, -160.573, -92.6096, 54.7803
2.88737, 2, -37.0517, 0.663214, 20.5414, -160.573, -92.6096, 54.7804
2.89545, 2, -37.0517, 0.663227, 20.5415, -160.573, -92.6096, 54.7804
2.90343, 2, -37.0514, 0.663233, 20.5415, -160.573, -92.6096, 54.7805
2.91141, 2, -37.051, 0.663235, 20.5415, -160.573, -92.6096, 54.7805
2.91943, 2, -37.0507, 0.663226, 20.5414, -160.573, -92.6096, 54.7806
2.92748, 2, -37.0504, 0.663195, 20.5414, -160.573, -92.6096, 54.7806
2.93532, 2, -37.0502, 0.663169, 20.5414, -160.573, -92.6096, 54.7807
2.94332, 2, -37.0501, 0.66315, 20.5414, -160.573, -92.6096, 54.7807
2.95136, 2, -37.05, 0.663136, 20.5414, -160.573, -92.6096, 54.7808
2.95937, 2, -37.05, 0.66313, 20.5414, -160.573, -92.6096, 54.7809
2.96743, 2, -37.0501, 0.663139, 20.5414, -160.573, -92.6096, 54.7809
2.97576, 2, -37.0502, 0.663151, 20.5414, -160.572, -92.6096, 54.781
2.98356, 2, -37.0503, 0.663172, 20.5413, -160.572, -92.6096, 54.781
2.99192, 2, -37.0506, 0.66322, 20.5413, -160.572, -92.6096, 54.781
3.00038, 2, -37.0507, 0.663237, 20.5413, -160.572, -92.6096, 54.7811
3.00771, 2, -37.0508, 0.663242, 20.5413, -160.572, -92.6096, 54.7811
3.01616, 2, -37.0508, 0.66324, 20.5413, -160.572, -92.6097, 54.7812
3.02421, 2, -37.0508, 0.663239, 20.5413, -160.572, -92.6098, 54.7812
3.03184, 2, -37.0508, 0.663227, 20.5413, -160.572, -92.6098, 54.7812
3.04041, 2, -37.0508, 0.663214, 20.5413, -160.572, -92.6098, 54.7812
3.04792, 2, -37.0507, 0.663178, 20.5413, -160.572, -92.6098, 54.7813
3.05644, 2, -37.0506, 0.663192, 20.5413, -160.572, -92.6098, 54.7813
3.0642, 2, -37.0506, 0.663168, 20.5413, -160.572, -92.6098, 54.7814
3.07131, 2, -37.0506, 0.663161, 20.5413, -160.572, -92.6098, 54.7814
3.07931, 2, -37.0506, 0.663179, 20.5413, -160.572, -92.6098, 54.7814
3.08809, 2, -37.0506, 0.663192, 20.5412, -160.572, -92.6098, 54.7815
3.09534, 2, -37.0506, 0.663209, 20.5412, -160.572, -92.6098, 54.7815
3.10329, 2, -37.0506, 0.663225, 20.5412, -160.572, -92.6098, 54.7816
3.11129, 2, -37.0506, 0.663239, 20.5412, -160.572, -92.6098, 54.7816
3.11932, 2, -37.0506, 0.663255, 20.5412, -160.572, -92.6098, 54.7817
3.12729, 2, -37.0506, 0.663253, 20.5412, -160.572, -92.6098, 54.7817
3.13715, 2, -37.0506, 0.663246, 20.5412, -160.572, -92.6098, 54.7817
3.1434, 2, -37.0506, 0.663243, 20.5412, -160.572, -92.6099, 54.7817
3.15129, 2, -37.0506, 0.66324, 20.5412, -160.572, -92.6099, 54.7818
3.16117, 2, -37.0505, 0.663226, 20.5412, -160.572, -92.6098, 54.7818
3.16739, 2, -37.0505, 0.663219, 20.5412, -160.572, -92.6098, 54.7818
3.17529, 2, -37.0505, 0.663192, 20.5412, -160.572, -92.6098, 54.7819
3.18516, 2, -37.0505, 0.663206, 20.5412, -160.572, -92.6098, 54.782
3.19131, 2, -37.0505, 0.663216, 20.5412, -160.572, -92.6098, 54.782
3.20034, 2, -37.0505, 0.663228, 20.5411, -160.572, -92.6098, 54.782
3.20928, 2, -37.0505, 0.663247, 20.5411, -160.572, -92.6098, 54.782
3.21531, 2, -37.0505, 0.663244, 20.5411, -160.572, -92.6098, 54.782
3.22329, 2, -37.0505, 0.663248, 20.5411, -160.572, -92.6099, 54.782
3.23133, 2, -37.0505, 0.663247, 20.5411, -160.572, -92.6099, 54.782
3.23932, 2, -37.0505, 0.663242, 20.5411, -160.572, -92.6099, 54.7821
3.24729, 2, -37.0505, 0.66324, 20.5411, -160.572, -92.6099, 54.7821
3.25529, 2, -37.0505, 0.663228, 20.5411, -160.572, -92.6099, 54.7822
3.26335, 2, -37.0505, 0.663215, 20.5411, -160.572, -92.6099, 54.7822
3.2713, 2, -37.0504, 0.66322, 20.5411, -160.572, -92.6099, 54.7822
3.2793, 2, -37.0504, 0.663211, 20.5411, -160.572, -92.6099, 54.7822
3.28731, 2, -37.0504, 0.663225, 20.541, -160.572, -92.6099, 54.7822
3.29528, 2, -37.0504, 0.663232, 20.541, -160.572, -92.6099, 54.7823
3.30329, 2, -37.0504, 0.663235, 20.541, -160.572, -92.6099, 54.7823
3.31131, 2, -37.0504, 0.663236, 20.541, -160.572, -92.6099, 54.7823
3.3193, 2, -37.0504, 0.663237, 20.541, -160.572, -92.6099, 54.7824
3.32729, 2, -37.0504, 0.663245, 20.5411, -160.572, -92.6099, 54.7824
3.33533, 2, -37.0504, 0.663246, 20.541, -160.572, -92.6099, 54.7824
3.34328, 2, -37.0504, 0.663249, 20.541, -160.572, -92.6099, 54.7824
3.35128, 2, -37.0503, 0.66326, 20.541, -160.572, -92.61, 54.7824
3.35932, 2, -37.0503, 0.66326, 20.541, -160.572, -92.61, 54.7824
3.36729, 2, -37.0503, 0.663248, 20.541, -160.572, -92.61, 54.7825
3.3753, 2, -37.0503, 0.663242, 20.541, -160.572, -92.6099, 54.7825
3.38334, 2, -37.0503, 0.66324, 20.541, -160.572, -92.61, 54.7824
3.3914, 2, -37.0503, 0.663239, 20.541, -160.572, -92.61, 54.7825
3.39942, 2, -37.0503, 0.663245, 20.541, -160.572, -92.61, 54.7825
3.40741, 2, -37.0503, 0.663246, 20.541, -160.572, -92.6099, 54.7826
3.41541, 2, -37.0503, 0.663254, 20.5409, -160.572, -92.61, 54.7826
3.4234, 2, -37.0503, 0.663245, 20.5409, -160.572, -92.61, 54.7826
3.43146, 2, -37.0502, 0.663253, 20.5409, -160.572, -92.61, 54.7826
3.4393, 2, -37.0502, 0.663245, 20.5409, -160.572, -92.61, 54.7826
3.44732, 2, -37.0502, 0.663253, 20.5409, -160.572, -92.61, 54.7826
3.4554, 2, -37.0502, 0.663245, 20.5409, -160.572, -92.61, 54.7826
3.46335, 2, -37.0502, 0.663253, 20.5409, -160.572, -92.61, 54.7826
3.4714, 2, -37.0502, 0.663245, 20.5409, -160.572, -92.61, 54.7826
3.47957, 2, -37.0502, 0.663241, 20.5409, -160.572, -92.61, 54.7826
3.48754, 2, -37.0501, 0.663239, 20.5409, -160.572, -92.61, 54.7827
3.49559, 2, -37.0501, 0.663251, 20.5409, -160.572, -92.61, 54.7826
3.50377, 2, -37.0501, 0.663244, 20.5409, -160.572, -92.61, 54.7826
3.51234, 2, -37.0501, 0.663253, 20.5409, -160.572, -92.61, 54.7826
3.5198, 2, -37.0501, 0.663257, 20.5409, -160.572, -92.6101, 54.7826
3.52838, 2, -37.05, 0.663266, 20.5409, -160.572, -92.6101, 54.7826
3.53583, 2, -37.05, 0.663275, 20.5408, -160.572, -92.61, 54.7826
3.54439, 2, -37.05, 0.663272, 20.5408, -160.572, -92.61, 54.7827
3.55198, 2, -37.05, 0.663266, 20.5408, -160.572, -92.61, 54.7827
3.56042, 2, -37.05, 0.663263, 20.5408, -160.572, -92.61, 54.7827
3.56785, 2, -37.0499, 0.663262, 20.5408, -160.572, -92.61, 54.7828
3.57633, 2, -37.0499, 0.663268, 20.5408, -160.572, -92.61, 54.7828
3.58328, 2, -37.0499, 0.663273, 20.5408, -160.572, -92.61, 54.7828
3.59235, 2, -37.0499, 0.663264, 20.5408, -160.572, -92.61, 54.7829
3.59933, 2, -37.0499, 0.663256, 20.5408, -160.572, -92.6101, 54.7829
3.60727, 2, -37.0499, 0.663265, 20.5408, -160.572, -92.6101, 54.7828
3.61529, 2, -37.0499, 0.663275, 20.5408, -160.572, -92.6101, 54.7828
3.62467, 2, -37.0498, 0.663268, 20.5407, -160.572, -92.6101, 54.7828
3.63128, 2, -37.0498, 0.663273, 20.5407, -160.572, -92.6102, 54.7828
3.64117, 2, -37.0498, 0.66328, 20.5407, -160.572, -92.6101, 54.7828
3.64727, 2, -37.0498, 0.663281, 20.5407, -160.572, -92.6101, 54.7828
3.65528, 2, -37.0498, 0.663282, 20.5407, -160.572, -92.6101, 54.7829
3.66484, 2, -37.0497, 0.663283, 20.5407, -160.572, -92.61, 54.7829
3.673, 2, -37.0497, 0.663282, 20.5407, -160.571, -92.61, 54.7829
3.68109, 2, -37.0497, 0.663293, 20.5407, -160.571, -92.61, 54.7828
3.68733, 2, -37.0497, 0.663288, 20.5407, -160.571, -92.6101, 54.7828
3.69631, 2, -37.0497, 0.663285, 20.5407, -160.572, -92.6101, 54.7828
3.70428, 4, -37.0497, 0.663284, 20.5407, -160.572, -92.6102, 54.7828
3.71133, 4, -37.0496, 0.663283, 20.5407, -160.572, -92.6101, 54.7828
3.71926, 4, -37.0496, 0.663276, 20.5407, -160.572, -92.6101, 54.7829
3.72726, 4, -37.0496, 0.663275, 20.5407, -160.572, -92.6101, 54.7829
3.73538, 4, -37.0496, 0.663279, 20.5407, -160.571, -92.6101, 54.7829
3.74326, 4, -37.0496, 0.663292, 20.5407, -160.571, -92.6101, 54.7829
3.75126, 4, -37.0496, 0.663306, 20.5407, -160.571, -92.6101, 54.7829
3.75933, 4, -37.0496, 0.663301, 20.5407, -160.571, -92.6101, 54.7829
3.76729, 4, -37.0496, 0.66332, 20.5407, -160.571, -92.6101, 54.7829
3.77527, 4, -37.0495, 0.663319, 20.5407, -160.571, -92.6101, 54.7829
3.78333, 4, -37.0495, 0.663336, 20.5406, -160.571, -92.6101, 54.7829
3.79126, 4, -37.0495, 0.663333, 20.5406, -160.571, -92.6102, 54.7829
3.79926, 4, -37.0495, 0.663306, 20.5406, -160.571, -92.6101, 54.7828
3.80747, 4, -37.0495, 0.663293, 20.5406, -160.571, -92.6101, 54.7829
3.83259, 4, -37.0494, 0.663292, 20.5406, -160.571, -92.6101, 54.7829
3.83445, 4, -37.0494, 0.6633, 20.5406, -160.571, -92.6101, 54.7829
3.83589, 4, -37.0494, 0.6633, 20.5406, -160.571, -92.6101, 54.7829
3.83928, 4, -37.0494, 0.663306, 20.5406, -160.571, -92.6101, 54.7829
3.84733, 4, -37.0494, 0.663323, 20.5406, -160.571, -92.6102, 54.7829
3.85526, 4, -37.0493, 0.663327, 20.5406, -160.571, -92.6101, 54.7829
3.86326, 4, -37.049, 0.663285, 20.5406, -160.571, -92.6102, 54.7829
3.87133, 4, -37.0476, 0.662936, 20.5406, -160.571, -92.6102, 54.7829
3.87926, 4, -37.044, 0.661596, 20.5409, -160.571, -92.6102, 54.7829
3.88729, 4, -37.0383, 0.658884, 20.542, -160.571, -92.6102, 54.7829
3.8954, 4, -37.0313, 0.654984, 20.5442, -160.571, -92.6102, 54.7829
3.90339, 4, -37.0236, 0.649962, 20.5481, -160.57, -92.6102, 54.7829
3.91149, 4, -37.0142, 0.643293, 20.5544, -160.569, -92.6102, 54.7829
3.91943, 5, -37.0032, 0.634939, 20.5632, -160.567, -92.6101, 54.7828
3.92736, 5, -36.9917, 0.625314, 20.5741, -160.565, -92.6101, 54.7828
3.9354, 5, -36.9795, 0.614353, 20.5869, -160.562, -92.6099, 54.7827
3.94354, 5, -36.9656, 0.60197, 20.6014, -160.559, -92.6098, 54.7827
3.9513, 5, -36.9493, 0.588231, 20.6168, -160.556, -92.6096, 54.7826
3.95929, 5, -36.9312, 0.573353, 20.6327, -160.553, -92.6095, 54.7825
3.96763, 5, -36.912, 0.557734, 20.6493, -160.549, -92.6094, 54.7824
3.97543, 5, -36.892, 0.541732, 20.666, -160.546, -92.6092, 54.7823
3.98344, 5, -36.8714, 0.525815, 20.6825, -160.542, -92.6091, 54.7822
3.99195, 5, -36.8508, 0.509731, 20.699, -160.538, -92.6088, 54.7822
4.00107, 5, -36.8302, 0.493319, 20.7156, -160.535, -92.6084, 54.7821
4.00828, 5, -36.8096, 0.476971, 20.7322, -160.531, -92.6081, 54.7819
4.01584, 5, -36.7892, 0.460919, 20.749, -160.527, -92.6077, 54.7818
4.02513, 5, -36.769, 0.444877, 20.7661, -160.524, -92.6073, 54.7817
4.03183, 5, -36.7486, 0.428625, 20.7831, -160.52, -92.6069, 54.7815
4.04038, 5, -36.7281, 0.412539, 20.7999, -160.516, -92.6064, 54.7813
4.04782, 5, -36.7074, 0.396664, 20.8168, -160.512, -92.6059, 54.7811
4.05583, 5, -36.6971, 0.388697, 20.8336, -160.508, -92.6054, 54.7809
4.06426, 5, -36.6666, 0.364395, 20.8502, -160.504, -92.6049, 54.7807
4.07124, 5, -36.6566, 0.356318, 20.8586, -160.502, -92.6046, 54.7807
4.0793, 5, -36.6365, 0.34032, 20.8758, -160.499, -92.6041, 54.7806
4.08867, 5, -36.6062, 0.316146, 20.9011, -160.493, -92.6033, 54.7805
4.09524, 5, -36.5961, 0.307935, 20.9095, -160.491, -92.6031, 54.7804
4.1044, 5, -36.5651, 0.283596, 20.9348, -160.486, -92.6022, 54.7803
4.11125, 5, -36.5547, 0.275544, 20.9432, -160.484, -92.602, 54.7802
4.11925, 5, -36.5338, 0.259304, 20.9599, -160.48, -92.6015, 54.7801
4.12858, 5, -36.5028, 0.234656, 20.9855, -160.475, -92.6006, 54.78
4.13529, 5, -36.4925, 0.226569, 20.994, -160.473, -92.6004, 54.7799
4.14326, 5, -36.4719, 0.210515, 21.0109, -160.47, -92.5999, 54.7798
4.15276, 5, -36.4411, 0.186257, 21.036, -160.465, -92.5991, 54.7797
4.16095, 5, -36.4205, 0.170134, 21.0528, -160.461, -92.5985, 54.7795
4.16882, 5, -36.3997, 0.154264, 21.0694, -160.458, -92.5979, 54.7792
4.17533, 5, -36.3894, 0.146297, 21.0779, -160.456, -92.5976, 54.7791
4.18509, 5, -36.3689, 0.122029, 21.1034, -160.451, -92.5969, 54.7787
4.19124, 5, -36.3484, 0.113922, 21.1118, -160.45, -92.5966, 54.7786
4.19931, 5, -36.3279, 0.097945, 21.1286, -160.446, -92.5961, 54.7783
4.20896, 5, -36.3074, 0.081993, 21.1455, -160.443, -92.5956, 54.778
4.21528, 5, -36.2869, 0.0658297, 21.1622, -160.44, -92.5951, 54.7776
4.22332, 5, -36.2662, 0.0495476, 21.1787, -160.436, -92.5946, 54.7772
4.23128, 5, -36.2454, 0.0335065, 21.1954, -160.433, -92.5941, 54.7768
4.2393, 5, -36.2244, 0.0174552, 21.2123, -160.429, -92.5936, 54.7764
4.24724, 5, -36.2036, 0.00121197, 21.2291, -160.426, -92.5931, 54.7759
4.25525, 5, -36.1828, -0.0150163, 21.2457, -160.422, -92.5926, 54.7755
4.26331, 5, -36.1619, -0.0309262, 21.2626, -160.419, -92.5921, 54.775
4.27128, 5, -36.1412, -0.0468473, 21.2793, -160.415, -92.5916, 54.7746
4.27925, 5, -36.1205, -0.0629697, 21.2958, -160.412, -92.5911, 54.7741
4.28731, 5, -36.0998, -0.0789664, 21.3126, -160.408, -92.5906, 54.7736
4.29523, 5, -36.0789, -0.0947548, 21.3295, -160.404, -92.5901, 54.7731
4.3033, 5, -36.0581, -0.110702, 21.3461, -160.401, -92.5896, 54.7727
4.31131, 5, -36.0375, -0.126793, 21.3625, -160.397, -92.5891, 54.7723
4.31925, 5, -36.0169, -0.142815, 21.3792, -160.393, -92.5886, 54.7719
4.32725, 5, -35.9961, -0.158647, 21.3956, -160.389, -92.5881, 54.7715
4.3353, 5, -35.9755, -0.174572, 21.4121, -160.385, -92.5876, 54.7712
4.34327, 5, -35.9549, -0.190686, 21.4289, -160.381, -92.5872, 54.7708
4.35124, 5, -35.9339, -0.206639, 21.4457, -160.377, -92.5867, 54.7705
4.35932, 5, -35.9129, -0.222472, 21.4622, -160.374, -92.5863, 54.7702
4.36724, 5, -35.892, -0.238447, 21.4788, -160.37, -92.5858, 54.7699
4.3754, 5, -35.8712, -0.254551, 21.4953, -160.365, -92.5853, 54.7696
4.38324, 5, -35.8502, -0.270446, 21.5116, -160.362, -92.5849, 54.7694
4.39128, 5, -35.8293, -0.286166, 21.5281, -160.358, -92.5844, 54.7692
4.39964, 5, -35.8085, -0.302004, 21.5447, -160.354, -92.5839, 54.769
4.40733, 5, -35.7876, -0.318003, 21.5612, -160.35, -92.5835, 54.7687
4.41535, 5, -35.7665, -0.333766, 21.5776, -160.346, -92.583, 54.7686
4.42373, 5, -35.7456, -0.349498, 21.5942, -160.342, -92.5825, 54.7684
4.43134, 5, -35.7248, -0.365412, 21.6107, -160.338, -92.5821, 54.7683
4.43943, 5, -35.704, -0.381394, 21.6269, -160.335, -92.5816, 54.7681
4.44799, 5, -35.6831, -0.39717, 21.6434, -160.331, -92.5811, 54.768
4.4563, 5, -35.6623, -0.412887, 21.66, -160.328, -92.5807, 54.7679
4.46327, 5, -35.6414, -0.42881, 21.6764, -160.324, -92.5802, 54.7678
4.47222, 5, -35.6204, -0.444731, 21.6925, -160.32, -92.5798, 54.7677
4.47943, 5, -35.5994, -0.46043, 21.7089, -160.317, -92.5793, 54.7676
4.48753, 5, -35.5783, -0.47619, 21.7251, -160.313, -92.5789, 54.7675
4.49636, 5, -35.5574, -0.492111, 21.7412, -160.31, -92.5785, 54.7675
4.50358, 5, -35.5364, -0.508003, 21.7576, -160.306, -92.578, 54.7674
4.51176, 5, -35.5154, -0.523621, 21.774, -160.303, -92.5775, 54.7674
4.52056, 5, -35.4945, -0.539256, 21.7902, -160.299, -92.577, 54.7674
4.52775, 5, -35.4735, -0.555052, 21.8065, -160.296, -92.5766, 54.7674
4.53635, 5, -35.4524, -0.570803, 21.8228, -160.292, -92.5761, 54.7674
4.54466, 5, -35.4313, -0.586313, 21.8389, -160.288, -92.5757, 54.7673
4.5518, 5, -35.4103, -0.601948, 21.8549, -160.285, -92.5752, 54.7673
4.5604, 5, -35.3891, -0.617795, 21.8711, -160.281, -92.5747, 54.7673
4.5686, 5, -35.3786, -0.625735, 21.8793, -160.279, -92.5745, 54.7673
4.57525, 5, -35.3575, -0.641354, 21.8954, -160.276, -92.5741, 54.7674
4.58328, 5, -35.3366, -0.656884, 21.9115, -160.272, -92.5736, 54.7674
4.59315, 5, -35.3048, -0.680566, 21.9359, -160.266, -92.5729, 54.7674
4.59923, 5, -35.2942, -0.688478, 21.944, -160.265, -92.5726, 54.7674
4.60875, 5, -35.2624, -0.711844, 21.9679, -160.259, -92.572, 54.7674
4.61737, 5, -35.2413, -0.72745, 21.9841, -160.255, -92.5715, 54.7675
4.62327, 5, -35.2307, -0.735316, 21.9923, -160.253, -92.5713, 54.7675
4.63268, 5, -35.1988, -0.758873, 22.0162, -160.247, -92.5706, 54.7675
4.63927, 5, -35.1883, -0.76656, 22.0242, -160.245, -92.5703, 54.7674
4.64729, 5, -35.1673, -0.781914, 22.0403, -160.241, -92.5699, 54.7674
4.65686, 5, -35.1354, -0.805326, 22.0641, -160.235, -92.5692, 54.7675
4.66561, 5, -35.1143, -0.820851, 22.08, -160.23, -92.5687, 54.7675
4.67129, 5, -35.1038, -0.828514, 22.088, -160.228, -92.5685, 54.7675
4.68087, 5, -35.0721, -0.851707, 22.1122, -160.222, -92.5678, 54.7675
4.68724, 5, -35.0615, -0.859571, 22.1202, -160.22, -92.5676, 54.7676
4.69622, 5, -35.0404, -0.875319, 22.136, -160.216, -92.5671, 54.7676
4.70428, 5, -35.0195, -0.890829, 22.1521, -160.212, -92.5666, 54.7676
4.71227, 5, -34.9983, -0.906231, 22.1679, -160.208, -92.5661, 54.7677
4.72033, 5, -34.9771, -0.921787, 22.1835, -160.204, -92.5657, 54.7677
4.72725, 5, -34.9559, -0.93746, 22.1994, -160.2, -92.5652, 54.7677
4.73529, 5, -34.9347, -0.952873, 22.2154, -160.196, -92.5648, 54.7677
4.74324, 5, -34.9133, -0.968211, 22.2313, -160.192, -92.5643, 54.7677
4.75123, 5, -34.892, -0.983727, 22.247, -160.189, -92.5638, 54.7677
4.75929, 5, -34.8708, -0.999338, 22.263, -160.185, -92.5634, 54.7678
4.76723, 5, -34.8496, -1.01462, 22.2789, -160.181, -92.5629, 54.7678
4.77533, 5, -34.8282, -1.02979, 22.2945, -160.178, -92.5624, 54.7678
4.78335, 5, -34.8068, -1.04515, 22.3103, -160.174, -92.5619, 54.768
4.79122, 5, -34.7856, -1.06066, 22.3264, -160.17, -92.5614, 54.768
4.79923, 5, -34.7643, -1.07594, 22.3422, -160.167, -92.5609, 54.7681
4.80734, 5, -34.7429, -1.09118, 22.3578, -160.163, -92.5605, 54.7682
4.81522, 5, -34.7216, -1.10662, 22.3735, -160.16, -92.56, 54.7683
4.82323, 5, -34.7003, -1.12221, 22.3892, -160.156, -92.5595, 54.7685
4.83129, 5, -34.6789, -1.13754, 22.4047, -160.152, -92.559, 54.7686
4.8393, 5, -34.6574, -1.15279, 22.4204, -160.149, -92.5585, 54.7687
4.84844, 5, -34.6361, -1.16821, 22.4364, -160.145, -92.558, 54.7689
4.85622, 5, -34.6148, -1.18372, 22.4521, -160.141, -92.5575, 54.7691
4.86329, 5, -34.5935, -1.19897, 22.4677, -160.138, -92.5571, 54.7694
4.87122, 5, -34.5721, -1.21421, 22.4833, -160.134, -92.5566, 54.7696
4.88025, 5, -34.5509, -1.22958, 22.4989, -160.13, -92.5561, 54.77
4.88732, 5, -34.5295, -1.245, 22.5143, -160.126, -92.5557, 54.7705
4.89527, 5, -34.508, -1.26016, 22.5299, -160.122, -92.5551, 54.771
4.90838, 5, -34.4758, -1.28282, 22.5536, -160.116, -92.5544, 54.7718
4.9114, 5, -34.4651, -1.29046, 22.5614, -160.114, -92.5541, 54.7721
4.91932, 5, -34.4436, -1.30579, 22.5768, -160.11, -92.5536, 54.7728
4.92733, 5, -34.4222, -1.32088, 22.5924, -160.106, -92.5531, 54.7735
4.9354, 5, -34.4007, -1.33593, 22.608, -160.102, -92.5526, 54.7743
4.94342, 5, -34.3792, -1.35121, 22.6234, -160.098, -92.5522, 54.7751
4.95122, 5, -34.3576, -1.3666, 22.6388, -160.094, -92.5517, 54.7759
4.9596, 5, -34.336, -1.38177, 22.6547, -160.089, -92.5512, 54.7768
4.96726, 5, -34.3146, -1.39685, 22.6703, -160.085, -92.5507, 54.7777
4.97537, 5, -34.2931, -1.41208, 22.6855, -160.081, -92.5502, 54.7787
4.98352, 5, -34.2716, -1.42742, 22.701, -160.076, -92.5497, 54.7798
4.99149, 5, -34.2502, -1.44258, 22.7164, -160.072, -92.5492, 54.7807
4.99952, 5, -34.2287, -1.45758, 22.7316, -160.068, -92.5487, 54.7817
5.00794, 5, -34.207, -1.47272, 22.7469, -160.064, -92.5482, 54.7827
5.01634, 5, -34.1854, -1.48799, 22.7626, -160.06, -92.5477, 54.7837
5.02406, 5, -34.1639, -1.50311, 22.7782, -160.056, -92.5472, 54.7847
5.03211, 5, -34.1425, -1.51806, 22.7935, -160.051, -92.5467, 54.7857
5.03979, 5, -34.1209, -1.53306, 22.8089, -160.047, -92.5461, 54.7867
5.04835, 5, -34.0994, -1.54825, 22.8243, -160.043, -92.5456, 54.7878
5.05605, 5, -34.078, -1.56331, 22.8395, -160.04, -92.5451, 54.7888
5.06376, 5, -34.0672, -1.57073, 22.847, -160.038, -92.5446, 54.7897
5.07222, 5, -34.0346, -1.59322, 22.8699, -160.032, -92.5442, 54.7908
5.07986, 5, -34.0238, -1.60082, 22.8777, -160.03, -92.5439, 54.7913
5.08832, 5, -33.9915, -1.62359, 22.9007, -160.024, -92.5431, 54.7928
5.09521, 5, -33.9807, -1.63104, 22.9083, -160.022, -92.5429, 54.7933
5.10468, 5, -33.9482, -1.65341, 22.9313, -160.016, -92.5421, 54.7948
5.11125, 5, -33.9374, -1.66095, 22.939, -160.014, -92.5419, 54.7953
5.12048, 5, -33.9049, -1.68356, 22.9617, -160.009, -92.5411, 54.7968
5.12721, 5, -33.8939, -1.69097, 22.9693, -160.007, -92.5408, 54.7973
5.1366, 5, -33.8611, -1.71327, 22.9924, -160.001, -92.5401, 54.7988
5.14326, 5, -33.8503, -1.72078, 23, -159.999, -92.5398, 54.7993
5.15121, 5, -33.8287, -1.73591, 23.015, -159.995, -92.5393, 54.8003
5.15922, 5, -33.8071, -1.75085, 23.0301, -159.991, -92.5388, 54.8013
5.16917, 5, -33.7746, -1.77303, 23.0528, -159.985, -92.538, 54.8029
5.17525, 5, -33.7637, -1.7805, 23.0603, -159.983, -92.5377, 54.8035
5.18501, 5, -33.731, -1.80308, 23.0828, -159.977, -92.5369, 54.805
5.19277, 5, -33.7201, -1.81051, 23.0905, -159.975, -92.5367, 54.806
5.2002, 5, -33.6984, -1.82532, 23.1059, -159.971, -92.5362, 54.8065
5.20721, 5, -33.6768, -1.84024, 23.1209, -159.967, -92.5356, 54.8075
5.21624, 5, -33.6551, -1.8553, 23.1358, -159.963, -92.5351, 54.8085
5.22321, 5, -33.6334, -1.87029, 23.151, -159.958, -92.5346, 54.8096
5.23121, 5, -33.6117, -1.88503, 23.1659, -159.954, -92.5341, 54.8106
5.24178, 5, -33.579, -1.90726, 23.1881, -159.947, -92.5332, 54.8122
5.24729, 5, -33.5681, -1.91476, 23.1956, -159.945, -92.533, 54.8128
5.25521, 5, -33.5461, -1.92966, 23.2108, -159.941, -92.5324, 54.8138
5.2632, 5, -33.5243, -1.94432, 23.2259, -159.936, -92.5319, 54.8149
5.27121, 5, -33.5023, -1.9591, 23.2407, -159.932, -92.5314, 54.816
5.27938, 5, -33.4805, -1.97403, 23.2557, -159.928, -92.5309, 54.8171
5.28723, 5, -33.4586, -1.989, 23.2708, -159.923, -92.5303, 54.8181
5.29537, 5, -33.4368, -2.00375, 23.2856, -159.919, -92.5298, 54.8192
5.30577, 5, -33.4148, -2.02598, 23.308, -159.913, -92.5289, 54.8207
5.31227, 5, -33.3929, -2.03349, 23.3156, -159.91, -92.5286, 54.8212
5.31922, 5, -33.3712, -2.04861, 23.3308, -159.906, -92.5279, 54.8222
5.32727, 5, -33.3494, -2.06353, 23.3456, -159.902, -92.5273, 54.8231
5.3352, 5, -33.3277, -2.07849, 23.3606, -159.898, -92.5264, 54.8237
5.3432, 5, -33.306, -2.09374, 23.3758, -159.893, -92.5255, 54.8244
5.35128, 5, -33.2844, -2.10919, 23.3909, -159.889, -92.5244, 54.8249
5.35921, 5, -33.2626, -2.1245, 23.406, -159.885, -92.5232, 54.8253
5.36721, 6, -33.241, -2.13981, 23.4216, -159.88, -92.5219, 54.8255
5.37535, 6, -33.2196, -2.15543, 23.4374, -159.876, -92.5205, 54.8257
5.3832, 6, -33.1982, -2.17133, 23.4529, -159.871, -92.519, 54.8259
5.39129, 6, -33.1767, -2.1871, 23.4685, -159.867, -92.5173, 54.8259
5.39951, 6, -33.1554, -2.20294, 23.4843, -159.862, -92.5155, 54.8259
5.40732, 6, -33.1343, -2.21915, 23.5001, -159.857, -92.5136, 54.8259
5.41539, 6, -33.1129, -2.23553, 23.5158, -159.852, -92.5115, 54.8258
5.4236, 6, -33.0916, -2.25179, 23.5318, -159.847, -92.5093, 54.8256
5.43131, 6, -33.0705, -2.26813, 23.5482, -159.842, -92.507, 54.8254
5.43952, 6, -33.0494, -2.28478, 23.5643, -159.836, -92.5046, 54.8252
5.44831, 6, -33.0284, -2.30157, 23.5806, -159.831, -92.5021, 54.8248
5.45522, 6, -33.0074, -2.31824, 23.5971, -159.825, -92.4995, 54.8244
5.4633, 6, -32.9865, -2.33514, 23.6137, -159.819, -92.4967, 54.8239
5.47211, 6, -32.9656, -2.35242, 23.6301, -159.813, -92.4938, 54.8231
5.48026, 6, -32.9446, -2.36966, 23.6469, -159.807, -92.4909, 54.8223
5.48822, 6, -32.9236, -2.38677, 23.6639, -159.8, -92.4878, 54.8215
5.49544, 6, -32.9029, -2.40416, 23.6806, -159.793, -92.4846, 54.8207
5.50356, 7, -32.8822, -2.42183, 23.6974, -159.787, -92.4814, 54.8196
5.51243, 7, -32.8615, -2.43937, 23.7144, -159.78, -92.4781, 54.8182
5.51963, 7, -32.8409, -2.457, 23.7314, -159.773, -92.4746, 54.8163
5.52774, 7, -32.8204, -2.47505, 23.7487, -159.766, -92.4711, 54.8138
5.53666, 7, -32.7998, -2.49317, 23.7663, -159.76, -92.4674, 54.8111
5.5438, 7, -32.7792, -2.51117, 23.7838, -159.753, -92.4636, 54.8079
5.55233, 7, -32.7589, -2.52946, 23.8013, -159.746, -92.4597, 54.8045
5.56064, 7, -32.7487, -2.54803, 23.8189, -159.74, -92.4557, 54.8009
5.56775, 7, -32.7284, -2.55727, 23.8276, -159.736, -92.4515, 54.797
5.5762, 7, -32.698, -2.5851, 23.854, -159.726, -92.4473, 54.7929
5.58478, 7, -32.688, -2.59454, 23.863, -159.723, -92.4428, 54.7887
5.59269, 7, -32.668, -2.62297, 23.89, -159.712, -92.4383, 54.7844
5.59927, 7, -32.6479, -2.6324, 23.899, -159.709, -92.436, 54.782
5.60917, 7, -32.6177, -2.66112, 23.9263, -159.698, -92.4289, 54.7751
5.61524, 7, -32.6077, -2.67075, 23.9354, -159.694, -92.4264, 54.7727
5.62532, 7, -32.5777, -2.6997, 23.9628, -159.683, -92.4188, 54.7652
5.6312, 7, -32.5677, -2.70948, 23.972, -159.679, -92.4162, 54.7627
5.64059, 8, -32.5379, -2.73908, 23.9999, -159.667, -92.408, 54.7548
5.64719, 8, -32.528, -2.74891, 24.0092, -159.663, -92.4052, 54.7521
5.65676, 8, -32.4984, -2.7787, 24.0371, -159.651, -92.3963, 54.7438
5.66477, 8, -32.4785, -2.79875, 24.0559, -159.642, -92.3902, 54.7381
5.67368, 8, -32.4588, -2.81879, 24.0747, -159.634, -92.3838, 54.7323
5.68, 8, -32.4491, -2.82891, 24.0842, -159.63, -92.3806, 54.7293
5.68719, 8, -32.4295, -2.84935, 24.1034, -159.621, -92.374, 54.7232
5.69757, 8, -32.4099, -2.86975, 24.1225, -159.613, -92.3673, 54.7169
5.70421, 8, -32.3904, -2.89021, 24.1417, -159.605, -92.3605, 54.7105
5.71405, 8, -32.3615, -2.92138, 24.1706, -159.592, -92.3503, 54.7006
5.71918, 8, -32.3518, -2.93177, 24.1802, -159.588, -92.3468, 54.6972
5.72798, 8, -32.3324, -2.95268, 24.1996, -159.579, -92.3398, 54.6902
5.7352, 8, -32.3131, -2.97385, 24.2193, -159.571, -92.333, 54.683
5.74319, 8, -32.2939, -2.99503, 24.2389, -159.562, -92.326, 54.6757
5.75202, 8, -32.2748, -3.01624, 24.2587, -159.554, -92.319, 54.6682
5.76019, 8, -32.2557, -3.03773, 24.2786, -159.545, -92.312, 54.6605
5.7672, 8, -32.2365, -3.05918, 24.2985, -159.536, -92.3049, 54.6528
5.77587, 9, -32.2176, -3.08086, 24.3186, -159.526, -92.2977, 54.6449
5.78419, 9, -32.1987, -3.10278, 24.3387, -159.517, -92.2903, 54.6371
5.79118, 9, -32.1798, -3.12459, 24.3588, -159.507, -92.2829, 54.6291
5.80168, 9, -32.1609, -3.14664, 24.379, -159.492, -92.2713, 54.6172
5.80818, 9, -32.1419, -3.16884, 24.3994, -159.487, -92.2673, 54.6131
5.81629, 9, -32.1232, -3.19103, 24.4198, -159.477, -92.2593, 54.6052
5.82505, 9, -32.1044, -3.21352, 24.4404, -159.467, -92.251, 54.5971
5.83219, 9, -32.0856, -3.2361, 24.461, -159.458, -92.2424, 54.589
5.84025, 9, -32.067, -3.25869, 24.4817, -159.448, -92.2335, 54.5807
5.8472, 9, -32.0485, -3.28157, 24.5025, -159.438, -92.2244, 54.5724
5.85603, 9, -32.03, -3.30449, 24.5234, -159.428, -92.2153, 54.5639
5.86424, 9, -32.0115, -3.32757, 24.5444, -159.419, -92.206, 54.5551
5.87118, 9, -31.9929, -3.35083, 24.5654, -159.408, -92.1968, 54.5463
5.88018, 9, -31.9745, -3.37404, 24.5865, -159.398, -92.1876, 54.5373
5.88719, 9, -31.9563, -3.39753, 24.6079, -159.388, -92.1784, 54.5281
5.89528, 9, -31.9379, -3.42104, 24.6292, -159.377, -92.1692, 54.5186
5.90422, 9, -31.9197, -3.44474, 24.6508, -159.366, -92.1598, 54.5089
5.91135, 10, -31.9016, -3.46869, 24.6722, -159.355, -92.1504, 54.4989
5.91931, 10, -31.8836, -3.49253, 24.6937, -159.344, -92.1409, 54.4887
5.9273, 10, -31.8655, -3.5166, 24.7154, -159.333, -92.1312, 54.4782
5.93535, 10, -31.8474, -3.54081, 24.7372, -159.322, -92.1213, 54.4675
5.94328, 10, -31.8293, -3.56506, 24.7592, -159.311, -92.1111, 54.4567
5.9514, 10, -31.8114, -3.58962, 24.7812, -159.3, -92.1006, 54.4459
5.95922, 10, -31.7936, -3.61412, 24.8032, -159.289, -92.0898, 54.435
5.96731, 10, -31.7758, -3.63878, 24.8254, -159.278, -92.0788, 54.4242
5.97563, 10, -31.7581, -3.66363, 24.8475, -159.267, -92.0676, 54.4135
5.9833, 10, -31.7405, -3.68855, 24.87, -159.256, -92.0565, 54.4026
5.99135, 10, -31.7229, -3.71372, 24.8925, -159.244, -92.0454, 54.3917
5.99993, 10, -31.7053, -3.73884, 24.9149, -159.233, -92.0344, 54.3809
6.0075, 10, -31.6875, -3.76413, 24.9376, -159.221, -92.0234, 54.3698
6.01554, 10, -31.6699, -3.78953, 24.9603, -159.208, -92.0125, 54.3585
6.02404, 10, -31.6523, -3.81504, 24.9832, -159.196, -92.0014, 54.3471
6.03233, 10, -31.6347, -3.84087, 25.0061, -159.184, -91.9903, 54.3355
6.03979, 10, -31.6173, -3.86662, 25.029, -159.172, -91.979, 54.3236
6.04918, 11, -31.6, -3.8926, 25.0521, -159.161, -91.9673, 54.3113
6.05574, 11, -31.5828, -3.91867, 25.0752, -159.149, -91.9553, 54.2989
6.06428, 11, -31.5656, -3.94488, 25.0986, -159.137, -91.943, 54.2861
6.072, 11, -31.5569, -3.95811, 25.1219, -159.125, -91.9304, 54.2732
6.07917, 11, -31.5395, -3.98453, 25.1336, -159.118, -91.9241, 54.2668
6.08821, 11, -31.5136, -4.02436, 25.1688, -159.1, -91.9052, 54.2473
6.09523, 11, -31.505, -4.03772, 25.1806, -159.093, -91.899, 54.2408
6.10431, 11, -31.4794, -4.07802, 25.2162, -159.074, -91.8802, 54.2215
6.11119, 11, -31.4709, -4.09157, 25.2281, -159.067, -91.8739, 54.215
6.12098, 11, -31.4455, -4.13219, 25.2639, -159.047, -91.8551, 54.1955
6.12846, 11, -31.4288, -4.15943, 25.2879, -159.034, -91.8423, 54.1822
6.1352, 11, -31.4204, -4.17307, 25.2999, -159.028, -91.8359, 54.1756
6.14466, 11, -31.3951, -4.21444, 25.3362, -159.008, -91.8161, 54.1552
6.15275, 11, -31.3783, -4.24208, 25.3603, -158.995, -91.8023, 54.1414
6.16078, 11, -31.3615, -4.26986, 25.3847, -158.982, -91.7883, 54.1272
6.1691, 11, -31.345, -4.29769, 25.4091, -158.969, -91.7742, 54.1127
6.17675, 11, -31.3284, -4.3258, 25.4338, -158.956, -91.7602, 54.0979
6.18478, 12, -31.3119, -4.35396, 25.4584, -158.942, -91.7462, 54.0829
6.19282, 12, -31.3036, -4.36805, 25.4832, -158.928, -91.7324, 54.068
6.2007, 12, -31.2873, -4.39645, 25.4955, -158.921, -91.7255, 54.0605
6.20822, 12, -31.271, -4.42491, 25.5203, -158.907, -91.7117, 54.0457
6.21618, 12, -31.2547, -4.45358, 25.5454, -158.893, -91.6978, 54.0309
6.22317, 12, -31.2384, -4.48231, 25.5704, -158.879, -91.6836, 54.0162
6.23117, 12, -31.222, -4.51115, 25.5955, -158.865, -91.6692, 54.0013
6.23997, 12, -31.2058, -4.54008, 25.6208, -158.851, -91.6543, 53.9862
6.24718, 12, -31.1897, -4.56926, 25.6463, -158.837, -91.6391, 53.971
6.25526, 12, -31.1736, -4.59854, 25.6717, -158.823, -91.6239, 53.9555
6.26419, 12, -31.1574, -4.62791, 25.6971, -158.808, -91.6088, 53.9396
6.27133, 12, -31.1414, -4.65738, 25.7226, -158.794, -91.5938, 53.9234
6.27924, 12, -31.1254, -4.68706, 25.7484, -158.779, -91.5788, 53.9069
6.28803, 12, -31.1095, -4.71691, 25.7742, -158.764, -91.5637, 53.8904
6.29517, 12, -31.0935, -4.74676, 25.8001, -158.749, -91.5485, 53.8739
6.30323, 12, -31.0775, -4.77689, 25.826, -158.734, -91.5329, 53.8576
6.31254, 12, -31.0615, -4.80712, 25.852, -158.72, -91.5169, 53.8413
6.31918, 12, -31.0457, -4.8375, 25.8782, -158.705, -91.5005, 53.8248
6.32724, 13, -31.0299, -4.86794, 25.9043, -158.691, -91.4839, 53.8083
6.33517, 13, -31.0142, -4.89852, 25.9307, -158.676, -91.4675, 53.7916
6.34423, 13, -30.9986, -4.92926, 25.9572, -158.66, -91.4512, 53.7746
6.35118, 13, -30.9831, -4.96018, 25.9838, -158.645, -91.4351, 53.7573
6.35924, 13, -30.9677, -4.99117, 26.0104, -158.629, -91.4189, 53.7395
6.36718, 13, -30.9523, -5.0223, 26.037, -158.614, -91.4025, 53.7215
6.37524, 13, -30.9369, -5.05356, 26.0638, -158.598, -91.3859, 53.7035
6.38327, 13, -30.9214, -5.085, 26.0908, -158.583, -91.369, 53.6855
6.39133, 13, -30.906, -5.11645, 26.1178, -158.567, -91.3515, 53.6676
6.40098, 13, -30.8906, -5.14809, 26.1448, -158.552, -91.3341, 53.6498
6.40733, 13, -30.8753, -5.17987, 26.172, -158.536, -91.3168, 53.6318
6.41526, 13, -30.8601, -5.21179, 26.1993, -158.52, -91.2995, 53.6136
6.42335, 13, -30.8449, -5.24373, 26.2266, -158.504, -91.2822, 53.5952
6.43163, 13, -30.8298, -5.27577, 26.254, -158.487, -91.2648, 53.5764
6.43927, 13, -30.8148, -5.30809, 26.2816, -158.471, -91.2473, 53.5572
6.4479, 13, -30.7999, -5.34049, 26.3094, -158.455, -91.2294, 53.5379
6.45646, 14, -30.785, -5.37295, 26.3371, -158.439, -91.211, 53.5186
6.4632, 14, -30.77, -5.40551, 26.3648, -158.423, -91.1924, 53.4995
6.47202, 14, -30.7551, -5.43831, 26.3926, -158.407, -91.174, 53.4806
6.48024, 14, -30.7403, -5.47124, 26.4207, -158.39, -91.1558, 53.4618
6.48737, 14, -30.7254, -5.50427, 26.4488, -158.374, -91.1377, 53.4428
6.4962, 14, -30.7107, -5.53749, 26.4769, -158.356, -91.1196, 53.4236
6.5035, 14, -30.696, -5.57092, 26.5051, -158.339, -91.101, 53.404
6.51153, 14, -30.6813, -5.60435, 26.5335, -158.322, -91.0821, 53.3839
6.52035, 14, -30.6667, -5.63783, 26.5619, -158.305, -91.0627, 53.3634
6.52776, 14, -30.6522, -5.67154, 26.5904, -158.289, -91.0432, 53.3426
6.53709, 14, -30.6377, -5.70542, 26.619, -158.272, -91.0238, 53.3218
6.54457, 14, -30.6233, -5.73939, 26.6479, -158.255, -91.0045, 53.3012
6.55181, 14, -30.6088, -5.77342, 26.6767, -158.237, -90.9853, 53.2808
6.56035, 14, -30.5943, -5.80773, 26.7055, -158.22, -90.966, 53.2603
6.56855, 14, -30.58, -5.84211, 26.7344, -158.202, -90.9463, 53.2397
6.57582, 14, -30.5729, -5.85934, 26.7637, -158.184, -90.926, 53.219
6.58491, 14, -30.5515, -5.91118, 26.7928, -158.167, -90.9055, 53.1977
6.59219, 14, -30.5374, -5.94596, 26.822, -158.149, -90.8853, 53.1761
6.5992, 15, -30.5303, -5.96336, 26.8367, -158.141, -90.8753, 53.1652
6.60911, 15, -30.5093, -6.01569, 26.881, -158.114, -90.8453, 53.1326
6.61515, 15, -30.5023, -6.03321, 26.8957, -158.105, -90.8354, 53.1219
6.6244, 15, -30.4815, -6.08601, 26.9401, -158.078, -90.805, 53.0896
6.63117, 15, -30.4745, -6.10367, 26.955, -158.069, -90.7946, 53.0788
6.64049, 15, -30.4536, -6.15676, 26.9999, -158.041, -90.763, 53.0459
6.64721, 15, -30.4467, -6.17459, 27.0148, -158.032, -90.7526, 53.0348
6.65751, 15, -30.4259, -6.22817, 27.0596, -158.004, -90.7212, 53.001
6.66322, 15, -30.419, -6.24614, 27.0747, -157.995, -90.7107, 52.9895
6.67275, 15, -30.3985, -6.30024, 27.12, -157.968, -90.6794, 52.9551
6.68162, 15, -30.3848, -6.33647, 27.1502, -157.949, -90.658, 52.9324
6.6896, 15, -30.3713, -6.37278, 27.1805, -157.93, -90.6361, 52.9096
6.69515, 15, -30.3645, -6.39103, 27.1958, -157.92, -90.625, 52.8983
6.70553, 15, -30.3511, -6.42763, 27.2263, -157.901, -90.603, 52.8754
6.71122, 15, -30.3377, -6.46432, 27.2569, -157.882, -90.5811, 52.8522
6.7202, 15, -30.3243, -6.50113, 27.2875, -157.864, -90.5594, 52.8286
6.72759, 15, -30.311, -6.53808, 27.3185, -157.845, -90.5378, 52.8046
6.73515, 16, -30.2975, -6.57514, 27.3493, -157.826, -90.5158, 52.7806
6.74316, 16, -30.2841, -6.61231, 27.3803, -157.807, -90.4933, 52.7568
6.75373, 16, -30.2642, -6.66838, 27.4271, -157.777, -90.4591, 52.7214
6.75924, 16, -30.2576, -6.68713, 27.4426, -157.767, -90.4479, 52.7095
6.76729, 16, -30.2444, -6.72465, 27.4738, -157.748, -90.4254, 52.6857
6.77516, 16, -30.2312, -6.76225, 27.5051, -157.729, -90.403, 52.6616
6.78317, 16, -30.218, -6.80013, 27.5367, -157.71, -90.3803, 52.637
6.79117, 16, -30.205, -6.83807, 27.5683, -157.69, -90.3571, 52.6121
6.79915, 16, -30.1921, -6.87609, 27.5999, -157.67, -90.3333, 52.5873
6.80737, 16, -30.1791, -6.91428, 27.6317, -157.65, -90.3097, 52.5626
6.81615, 16, -30.1662, -6.95264, 27.6635, -157.63, -90.2864, 52.538
6.82426, 16, -30.1533, -6.99109, 27.6953, -157.61, -90.2631, 52.5134
6.83215, 16, -30.1404, -7.02969, 27.7273, -157.59, -90.2398, 52.4885
6.84015, 16, -30.1275, -7.0685, 27.7595, -157.57, -90.216, 52.4632
6.84721, 16, -30.1147, -7.10738, 27.7917, -157.55, -90.1917, 52.4375
6.85517, 16, -30.1019, -7.1464, 27.8237, -157.53, -90.1675, 52.4117
6.86323, 16, -30.0892, -7.18564, 27.8561, -157.509, -90.1435, 52.3862
6.87116, 17, -30.0766, -7.22499, 27.8886, -157.488, -90.1195, 52.361
6.8792, 17, -30.064, -7.2644, 27.9211, -157.468, -90.0955, 52.3357
6.88737, 17, -30.0515, -7.304, 27.9537, -157.447, -90.0709, 52.3102
6.89517, 17, -30.0391, -7.34374, 27.9865, -157.426, -90.0459, 52.2843
6.90327, 17, -30.0268, -7.38358, 28.0192, -157.406, -90.0209, 52.2578
6.91124, 17, -30.0144, -7.42349, 28.0521, -157.385, -89.9962, 52.2311
6.91931, 17, -30.0021, -7.46353, 28.0852, -157.364, -89.9717, 52.2044
6.92733, 17, -29.9898, -7.5036, 28.1183, -157.342, -89.9471, 52.178
6.93526, 17, -29.9774, -7.54388, 28.1514, -157.321, -89.9218, 52.1516
6.94334, 17, -29.9651, -7.58424, 28.1846, -157.3, -89.8961, 52.125
6.95141, 17, -29.953, -7.62471, 28.2181, -157.279, -89.8706, 52.098
6.96351, 17, -29.9347, -7.6857, 28.2684, -157.247, -89.8327, 52.0569
6.96736, 17, -29.9287, -7.70611, 28.2852, -157.236, -89.8201, 52.0431
6.9752, 17, -29.9167, -7.7471, 28.3189, -157.214, -89.7946, 52.0158
6.98327, 17, -29.9046, -7.78819, 28.3526, -157.192, -89.7685, 51.9886
6.99162, 17, -29.8926, -7.82939, 28.3864, -157.171, -89.742, 51.9614
6.99937, 17, -29.8808, -7.87075, 28.4203, -157.149, -89.7159, 51.9339
7.0075, 18, -29.8689, -7.9123, 28.4543, -157.127, -89.69, 51.906
7.01559, 18, -29.8571, -7.9539, 28.4883, -157.106, -89.6642, 51.8776
7.02363, 18, -29.8454, -7.99566, 28.5225, -157.083, -89.6379, 51.8492
7.03225, 18, -29.8337, -8.03758, 28.5568, -157.061, -89.611, 51.8213
7.04, 18, -29.8218, -8.07952, 28.5912, -157.038, -89.5843, 51.7935
7.04824, 18, -29.8102, -8.12162, 28.6257, -157.016, -89.5577, 51.7654
7.05576, 18, -29.7985, -8.16387, 28.6603, -156.994, -89.5312, 51.7371
7.06428, 18, -29.7869, -8.20604, 28.6949, -156.972, -89.5045, 51.708
7.07197, 18, -29.7754, -8.24835, 28.7297, -156.949, -89.4771, 51.6788
7.08065, 18, -29.7696, -8.29092, 28.7648, -156.926, -89.4494, 51.65
7.08796, 18, -29.7582, -8.31221, 28.7822, -156.915, -89.4356, 51.6357
7.09525, 18, -29.7466, -8.35479, 28.8172, -156.892, -89.4084, 51.6071
7.10315, 18, -29.7352, -8.39755, 28.8523, -156.869, -89.3814, 51.5784
7.11232, 18, -29.7183, -8.46199, 28.9052, -156.835, -89.3401, 51.5348
7.11922, 18, -29.7126, -8.48353, 28.9228, -156.824, -89.326, 51.5201
7.12843, 18, -29.6957, -8.54852, 28.9761, -156.789, -89.284, 51.4755
7.13514, 18, -29.6901, -8.57025, 28.9939, -156.777, -89.2702, 51.4609
7.14318, 19, -29.6789, -8.61372, 29.0293, -156.754, -89.2425, 51.4318
7.1526, 19, -29.6619, -8.67937, 29.0828, -156.719, -89.2005, 51.3878
7.15927, 19, -29.6563, -8.70131, 29.1007, -156.708, -89.1861, 51.3731
7.16863, 19, -29.6397, -8.76724, 29.1543, -156.673, -89.1431, 51.3279
7.17672, 19, -29.6286, -8.81139, 29.1903, -156.649, -89.115, 51.2978
7.185, 19, -29.6176, -8.85564, 29.2264, -156.625, -89.0869, 51.2679
7.19273, 19, -29.6122, -8.89995, 29.2625, -156.602, -89.0584, 51.2381
7.20078, 19, -29.6013, -8.94436, 29.2988, -156.578, -89.0294, 51.2082
7.20814, 19, -29.5904, -8.9666, 29.317, -156.566, -89.0148, 51.1931
7.21707, 19, -29.5796, -9.03348, 29.3715, -156.531, -88.9718, 51.147
7.227, 19, -29.5636, -9.07817, 29.4081, -156.506, -88.9432, 51.1158
7.23215, 19, -29.5582, -9.10057, 29.4265, -156.494, -88.9288, 51.1004
7.23996, 19, -29.5475, -9.14546, 29.4632, -156.469, -88.8994, 51.0696
7.24719, 19, -29.537, -9.19046, 29.4999, -156.445, -88.8697, 51.0389
7.25514, 19, -29.5265, -9.23575, 29.5368, -156.421, -88.8403, 51.0078
7.26397, 19, -29.5159, -9.28115, 29.5738, -156.397, -88.8113, 50.9763
7.27213, 19, -29.5053, -9.32662, 29.6108, -156.373, -88.7821, 50.9444
7.28021, 20, -29.4949, -9.37234, 29.648, -156.348, -88.7523, 50.9128
7.28796, 20, -29.4845, -9.41823, 29.6852, -156.323, -88.7222, 50.8815
7.29518, 20, -29.4741, -9.46416, 29.7224, -156.298, -88.6925, 50.85
7.3032, 20, -29.4637, -9.51026, 29.7597, -156.273, -88.6629, 50.8182
7.31357, 20, -29.4534, -9.55642, 29.7971, -156.249, -88.6331, 50.7696
7.31914, 20, -29.4432, -9.60266, 29.8346, -156.224, -88.6025, 50.7533
7.32726, 20, -29.4329, -9.64916, 29.8722, -156.198, -88.5719, 50.7211
7.33515, 20, -29.4227, -9.69558, 29.91, -156.173, -88.5416, 50.6893
7.34413, 20, -29.4127, -9.74212, 29.9477, -156.148, -88.5116, 50.6574
7.35213, 20, -29.4026, -9.78881, 29.9857, -156.123, -88.4813, 50.625
7.35915, 20, -29.3925, -9.83552, 30.0236, -156.098, -88.4503, 50.5921
7.36891, 20, -29.3825, -9.88242, 30.0617, -156.072, -88.4193, 50.5591
7.37521, 20, -29.3726, -9.92948, 30.1, -156.046, -88.3885, 50.5266
7.38314, 20, -29.3627, -9.97669, 30.1381, -156.02, -88.3578, 50.4943
7.39213, 20, -29.3527, -10.024, 30.1763, -155.995, -88.3267, 50.4618
7.39916, 20, -29.3428, -10.0714, 30.2148, -155.97, -88.295, 50.4288
7.40748, 20, -29.333, -10.1191, 30.2532, -155.944, -88.2635, 50.3955
7.41522, 20, -29.3232, -10.1669, 30.2918, -155.917, -88.2324, 50.3623
7.42323, 21, -29.3133, -10.2149, 30.3305, -155.891, -88.2014, 50.3294
7.43162, 21, -29.3036, -10.2628, 30.369, -155.865, -88.1697, 50.2963
7.43925, 21, -29.2939, -10.311, 30.4078, -155.839, -88.1377, 50.2633
7.44736, 21, -29.2841, -10.3592, 30.4467, -155.814, -88.1061, 50.2297
7.45579, 21, -29.2744, -10.4075, 30.4855, -155.787, -88.0747, 50.1959
7.46414, 21, -29.2648, -10.4558, 30.5245, -155.76, -88.043, 50.1625
7.47124, 21, -29.2553, -10.5043, 30.5637, -155.734, -88.0105, 50.1295
7.48004, 21, -29.2458, -10.5528, 30.6029, -155.708, -87.9781, 50.0962
7.48829, 21, -29.2362, -10.6014, 30.6422, -155.682, -87.9462, 50.0625
7.49537, 21, -29.2269, -10.6501, 30.6816, -155.655, -87.9143, 50.0284
7.50406, 21, -29.2176, -10.699, 30.721, -155.628, -87.8818, 49.9943
7.51214, 21, -29.2082, -10.748, 30.7607, -155.6, -87.849, 49.9605
7.51948, 21, -29.1988, -10.7972, 30.8003, -155.574, -87.8165, 49.9268
7.52839, 21, -29.1894, -10.8465, 30.8399, -155.547, -87.7841, 49.8928
7.53591, 21, -29.1801, -10.896, 30.8797, -155.52, -87.7515, 49.8583
7.54449, 21, -29.1708, -10.9456, 30.9196, -155.493, -87.7181, 49.8236
7.55168, 21, -29.1614, -10.9953, 30.9596, -155.465, -87.6849, 49.7895
7.56023, 22, -29.1522, -11.0451, 30.9996, -155.437, -87.6521, 49.7554
7.56864, 22, -29.1477, -11.095, 31.0396, -155.41, -87.6195, 49.7212
7.57574, 22, -29.1386, -11.12, 31.0798, -155.383, -87.586, 49.6865
7.5843, 22, -29.1249, -11.1949, 31.1201, -155.355, -87.5523, 49.6511
7.59113, 22, -29.1204, -11.2199, 31.1402, -155.341, -87.5356, 49.6335
7.5992, 22, -29.1114, -11.2701, 31.1805, -155.313, -87.5024, 49.5988
7.60832, 22, -29.0982, -11.3454, 31.2413, -155.272, -87.4521, 49.5468
7.61513, 22, -29.0938, -11.3706, 31.2616, -155.258, -87.4349, 49.5294
7.62319, 22, -29.085, -11.421, 31.3023, -155.23, -87.4008, 49.4941
7.63282, 22, -29.0719, -11.4969, 31.3634, -155.188, -87.3506, 49.4407
7.63929, 22, -29.0676, -11.5223, 31.3838, -155.173, -87.3339, 49.4231
7.64717, 22, -29.059, -11.5731, 31.4248, -155.145, -87.3, 49.3879
7.65664, 22, -29.046, -11.6498, 31.4862, -155.103, -87.2487, 49.3351
7.66549, 22, -29.0372, -11.701, 31.5272, -155.075, -87.215, 49.2991
7.67118, 22, -29.0328, -11.7266, 31.5478, -155.06, -87.1981, 49.2811
7.6815, 22, -29.0198, -11.8038, 31.6096, -155.017, -87.1465, 49.2276
7.68712, 22, -29.0155, -11.8295, 31.6303, -155.003, -87.129, 49.21
7.69669, 23, -29.0068, -11.8811, 31.6923, -154.961, -87.0774, 49.1566
7.70551, 23, -28.9982, -11.9326, 31.7337, -154.932, -87.0434, 49.1206
7.71113, 23, -28.9897, -11.9843, 31.7545, -154.918, -87.0262, 49.1025
7.72012, 23, -28.9813, -12.036, 31.7961, -154.888, -86.9912, 49.0666
7.7282, 23, -28.9729, -12.0877, 31.8376, -154.86, -86.9563, 49.0311
7.73617, 23, -28.9644, -12.1395, 31.8794, -154.831, -86.9219, 48.9956
7.74414, 23, -28.956, -12.1915, 31.9213, -154.802, -86.8874, 48.9598
7.75212, 23, -28.9477, -12.2437, 31.9631, -154.773, -86.8519, 48.9233
7.75912, 23, -28.9395, -12.2959, 32.0051, -154.743, -86.8164, 48.8869
7.76714, 23, -28.9313, -12.3484, 32.0471, -154.714, -86.7815, 48.8509
7.77533, 23, -28.9231, -12.4009, 32.0893, -154.685, -86.7465, 48.8151
7.7865, 23, -28.9111, -12.4801, 32.1526, -154.641, -86.6928, 48.7606
7.79112, 23, -28.9071, -12.5066, 32.1737, -154.626, -86.6749, 48.7422
7.79922, 23, -28.8991, -12.5594, 32.2161, -154.596, -86.6395, 48.7056
7.80712, 23, -28.8911, -12.6125, 32.2586, -154.566, -86.6042, 48.6695
7.81512, 23, -28.8829, -12.6655, 32.3011, -154.537, -86.5682, 48.6334
7.82361, 23, -28.8747, -12.7186, 32.3437, -154.507, -86.5319, 48.597
7.83112, 24, -28.8667, -12.7717, 32.3863, -154.476, -86.4964, 48.5601
7.83912, 24, -28.8588, -12.8248, 32.4291, -154.446, -86.461, 48.523
7.84913, 24, -28.8508, -12.8781, 32.4718, -154.416, -86.4249, 48.4866
7.85611, 24, -28.8428, -12.9314, 32.5146, -154.387, -86.3885, 48.4502
7.86319, 24, -28.8349, -12.985, 32.5576, -154.357, -86.3527, 48.4135
7.87113, 24, -28.827, -13.0386, 32.6006, -154.326, -86.3169, 48.3763
7.88011, 24, -28.8192, -13.0924, 32.6437, -154.295, -86.2805, 48.3388
7.88714, 24, -28.8113, -13.1465, 32.6868, -154.265, -86.2436, 48.3021
7.89518, 24, -28.8034, -13.2006, 32.73, -154.235, -86.2075, 48.2654
7.90401, 24, -28.7956, -13.2548, 32.7734, -154.204, -86.1715, 48.2285
7.91218, 24, -28.788, -13.3091, 32.8166, -154.173, -86.1349, 48.1911
7.91921, 24, -28.7804, -13.3635, 32.8601, -154.142, -86.098, 48.1535
7.92818, 24, -28.7728, -13.4178, 32.9036, -154.112, -86.0615, 48.1166
7.93525, 24, -28.7652, -13.4722, 32.9472, -154.082, -86.0252, 48.0799
7.94323, 24, -28.7577, -13.5266, 32.9909, -154.05, -85.9882, 48.0429
7.95211, 24, -28.7502, -13.581, 33.0345, -154.019, -85.9508, 48.0056
7.95915, 24, -28.7426, -13.6355, 33.0783, -153.988, -85.9141, 47.9682
7.96716, 25, -28.7349, -13.6902, 33.1221, -153.957, -85.8776, 47.9315
7.97522, 25, -28.7272, -13.745, 33.1659, -153.926, -85.8406, 47.8949
7.98326, 25, -28.7196, -13.7999, 33.2098, -153.894, -85.8031, 47.8582
7.9912, 25, -28.7121, -13.855, 33.2538, -153.863, -85.7663, 47.8208
7.99933, 25, -28.7046, -13.9102, 33.2978, -153.832, -85.7296, 47.7833
8.00766, 25, -28.6972, -13.9656, 33.3419, -153.801, -85.692, 47.7464
8.01617, 25, -28.6898, -14.021, 33.386, -153.769, -85.6543, 47.7097
8.02412, 25, -28.6824, -14.0766, 33.4303, -153.737, -85.6172, 47.6727
8.0319, 25, -28.6751, -14.1322, 33.4746, -153.705, -85.5803, 47.6352
8.04021, 25, -28.6679, -14.1878, 33.5189, -153.674, -85.5426, 47.5976
8.04896, 25, -28.6606, -14.2434, 33.5634, -153.642, -85.505, 47.5606
8.05711, 25, -28.6533, -14.299, 33.6079, -153.609, -85.4678, 47.5238
8.06422, 25, -28.646, -14.3546, 33.6525, -153.577, -85.4305, 47.4867
8.07223, 25, -28.6387, -14.4102, 33.6971, -153.545, -85.3924, 47.449
8.07977, 25, -28.6352, -14.4381, 33.7194, -153.514, -85.3545, 47.4113
8.08822, 25, -28.6245, -14.522, 33.7865, -153.481, -85.3172, 47.3742
8.09519, 25, -28.621, -14.55, 33.8088, -153.465, -85.2985, 47.3556
8.1045, 26, -28.6103, -14.6344, 33.8759, -153.416, -85.2414, 47.2999
8.11111, 26, -28.6068, -14.6625, 33.8984, -153.4, -85.2224, 47.2812
8.12028, 26, -28.5963, -14.7473, 33.9657, -153.352, -85.1659, 47.2245
8.12711, 26, -28.5928, -14.7756, 33.9882, -153.335, -85.147, 47.206
8.13637, 26, -28.5823, -14.8605, 34.0557, -153.286, -85.0893, 47.1504
8.1431, 26, -28.5788, -14.8888, 34.0783, -153.27, -85.0701, 47.1319
8.15275, 26, -28.568, -14.9737, 34.146, -153.222, -85.0134, 47.0757
8.16053, 26, -28.5609, -15.0303, 34.1913, -153.189, -84.9752, 47.0382
8.16711, 26, -28.5574, -15.0585, 34.214, -153.172, -84.9557, 47.0196
8.17665, 26, -28.5469, -15.1434, 34.282, -153.123, -84.8982, 46.9644
8.18472, 26, -28.5399, -15.2001, 34.3275, -153.09, -84.8601, 46.9275
8.19337, 26, -28.5329, -15.2568, 34.3729, -153.057, -84.8215, 46.8901
8.20098, 26, -28.5293, -15.2853, 34.3956, -153.024, -84.7825, 46.8529
8.20717, 26, -28.5224, -15.3424, 34.4412, -153.007, -84.7633, 46.8345
8.21671, 26, -28.5156, -15.3997, 34.4867, -152.974, -84.7252, 46.798
8.2241, 26, -28.5087, -15.457, 34.5322, -152.941, -84.6868, 46.7614
8.2321, 26, -28.5018, -15.5145, 34.5778, -152.908, -84.6478, 46.7243
8.24131, 27, -28.4915, -15.6008, 34.6463, -152.857, -84.5903, 46.6681
8.24716, 27, -28.4881, -15.6295, 34.6692, -152.84, -84.5711, 46.6495
8.25512, 27, -28.4813, -15.6871, 34.7148, -152.807, -84.5322, 46.6127
8.26311, 27, -28.4747, -15.7446, 34.7607, -152.774, -84.4929, 46.5759
8.27113, 27, -28.468, -15.8021, 34.8067, -152.739, -84.4543, 46.5386
8.27918, 27, -28.4612, -15.8595, 34.8525, -152.706, -84.4159, 46.5011
8.28711, 27, -28.4545, -15.917, 34.8987, -152.672, -84.3767, 46.464
8.29518, 27, -28.4478, -15.9747, 34.9448, -152.639, -84.3375, 46.4272
8.30313, 27, -28.4412, -16.0324, 34.9909, -152.604, -84.2989, 46.3904
8.31129, 27, -28.4345, -16.0903, 35.037, -152.57, -84.26, 46.3531
8.32001, 27, -28.4278, -16.1483, 35.0831, -152.536, -84.2204, 46.3156
8.32821, 27, -28.4211, -16.2065, 35.1292, -152.503, -84.1812, 46.2786
8.33614, 27, -28.4142, -16.2648, 35.1753, -152.468, -84.1426, 46.242
8.3441, 27, -28.4075, -16.3231, 35.2215, -152.433, -84.1036, 46.2056
8.35216, 27, -28.4007, -16.3815, 35.2679, -152.399, -84.0638, 46.1686
8.35912, 27, -28.394, -16.4399, 35.3143, -152.366, -84.0246, 46.1315
8.36719, 27, -28.3874, -16.4982, 35.3606, -152.331, -83.9858, 46.0951
8.37513, 27, -28.3807, -16.5565, 35.4072, -152.296, -83.9463, 46.0589
8.38315, 28, -28.374, -16.6147, 35.4538, -152.262, -83.9065, 46.0228
8.39116, 28, -28.3674, -16.673, 35.5003, -152.228, -83.8675, 45.9864
8.39915, 28, -28.3608, -16.7313, 35.5469, -152.193, -83.8286, 45.9495
8.40874, 28, -28.3542, -16.7898, 35.5936, -152.158, -83.789, 45.9131
8.41611, 28, -28.3476, -16.8483, 35.6404, -152.123, -83.7496, 45.8773
8.42416, 28, -28.3409, -16.907, 35.687, -152.089, -83.7106, 45.8415
8.43122, 28, -28.3342, -16.9658, 35.7337, -152.054, -83.6713, 45.8056
8.4401, 28, -28.3276, -17.0247, 35.7804, -152.019, -83.6313, 45.7693
8.4472, 28, -28.3211, -17.0837, 35.827, -151.984, -83.5918, 45.7332
8.4552, 28, -28.3146, -17.1426, 35.8738, -151.949, -83.5528, 45.6978
8.46447, 28, -28.3082, -17.2016, 35.9206, -151.914, -83.5132, 45.6626
8.47117, 28, -28.3018, -17.2604, 35.9675, -151.878, -83.4733, 45.6272
8.47914, 28, -28.2953, -17.3193, 36.0144, -151.843, -83.4339, 45.5913
8.48806, 28, -28.2889, -17.3781, 36.0613, -151.808, -83.3946, 45.5557
8.49617, 28, -28.2826, -17.437, 36.1084, -151.773, -83.3544, 45.5206
8.50542, 28, -28.2761, -17.4959, 36.1554, -151.737, -83.3143, 45.4857
8.51211, 28, -28.2696, -17.5549, 36.2025, -151.701, -83.275, 45.4507
8.51938, 29, -28.263, -17.6141, 36.2496, -151.666, -83.2354, 45.4155
8.52831, 29, -28.2564, -17.6733, 36.2967, -151.631, -83.195, 45.3802
8.53621, 29, -28.2498, -17.7326, 36.3439, -151.595, -83.1552, 45.3455
8.54358, 29, -28.2432, -17.7921, 36.391, -151.559, -83.1157, 45.3112
8.55257, 29, -28.2367, -17.8515, 36.4381, -151.524, -83.0754, 45.2769
8.55966, 29, -28.2301, -17.9108, 36.4852, -151.488, -83.0351, 45.2422
8.56824, 29, -28.2236, -17.9703, 36.5323, -151.452, -82.9956, 45.2071
8.57652, 29, -28.2203, -18.0297, 36.5796, -151.416, -82.956, 45.1725
8.58389, 29, -28.2137, -18.089, 36.627, -151.381, -82.9157, 45.1385
8.59172, 29, -28.2073, -18.1187, 36.6507, -151.363, -82.8955, 45.1046
8.60081, 29, -28.1976, -18.2077, 36.7218, -151.308, -82.8362, 45.0706
8.60817, 29, -28.1912, -18.2671, 36.7693, -151.272, -82.7962, 45.0361
8.61514, 29, -28.1879, -18.2969, 36.793, -151.254, -82.7759, 45.0188
8.62506, 29, -28.1781, -18.3863, 36.8641, -151.201, -82.7158, 44.9682
8.6323, 29, -28.1716, -18.446, 36.9116, -151.164, -82.6764, 44.9348
8.63916, 29, -28.1684, -18.4758, 36.9354, -151.145, -82.6565, 44.918
8.64709, 29, -28.162, -18.5357, 36.9829, -151.109, -82.616, 44.8846
8.65655, 30, -28.1525, -18.6254, 37.0541, -151.055, -82.5564, 44.8338
8.66534, 30, -28.146, -18.6853, 37.1016, -151.018, -82.5165, 44.8004
8.67111, 30, -28.1429, -18.7151, 37.1254, -151, -82.4963, 44.784
8.68063, 30, -28.1333, -18.8048, 37.1965, -150.945, -82.4356, 44.7349
8.68954, 30, -28.1269, -18.8645, 37.2441, -150.909, -82.396, 44.7024
8.69508, 30, -28.1237, -18.8944, 37.2679, -150.89, -82.3761, 44.6859
8.70466, 30, -28.1173, -18.9542, 37.3156, -150.835, -82.3153, 44.6366
8.71342, 30, -28.1107, -19.014, 37.3632, -150.817, -82.2952, 44.6204
8.71909, 30, -28.1041, -19.0739, 37.4109, -150.781, -82.2555, 44.5886
8.729, 30, -28.0975, -19.1339, 37.4585, -150.743, -82.195, 44.5411
8.7352, 30, -28.0909, -19.1939, 37.5061, -150.706, -82.1747, 44.5252
8.74309, 30, -28.0844, -19.254, 37.5538, -150.67, -82.1346, 44.4934
8.75111, 30, -28.0779, -19.314, 37.6015, -150.633, -82.0949, 44.4614
8.76008, 30, -28.0712, -19.3741, 37.6492, -150.596, -82.0547, 44.4299
8.76711, 30, -28.0646, -19.4341, 37.6968, -150.559, -82.0144, 44.3988
8.7751, 30, -28.058, -19.494, 37.7445, -150.522, -81.9746, 44.3681
8.78413, 30, -28.0513, -19.5539, 37.7922, -150.485, -81.9348, 44.3372
8.79208, 31, -28.0448, -19.6137, 37.8399, -150.448, -81.8942, 44.3061
8.80008, 31, -28.0382, -19.6736, 37.8876, -150.411, -81.8539, 44.2749
8.80711, 31, -28.0315, -19.7335, 37.9354, -150.374, -81.8143, 44.2444
8.81509, 31, -28.0248, -19.7935, 37.9832, -150.337, -81.7744, 44.2144
8.82414, 31, -28.0181, -19.8536, 38.0309, -150.299, -81.7338, 44.1846
8.83214, 31, -28.0115, -19.9137, 38.0787, -150.262, -81.6939, 44.1547
8.84012, 31, -28.0049, -19.9738, 38.1265, -150.225, -81.6542, 44.1246
8.84814, 31, -27.9984, -20.034, 38.1742, -150.187, -81.6137, 44.0943
8.85614, 31, -27.9918, -20.0941, 38.222, -150.149, -81.5731, 44.0644
8.8631, 31, -27.9851, -20.1543, 38.2698, -150.112, -81.5334, 44.035
8.87248, 31, -27.9785, -20.2143, 38.3176, -150.075, -81.4935, 44.006
8.8793, 31, -27.9719, -20.2743, 38.3653, -150.037, -81.4528, 43.9771
8.88709, 31, -27.9653, -20.3342, 38.4131, -149.999, -81.4127, 43.948
8.89516, 31, -27.9586, -20.3942, 38.4609, -149.961, -81.3729, 43.9188
8.90313, 31, -27.9518, -20.4542, 38.5085, -149.924, -81.3327, 43.8898
8.91119, 31, -27.9449, -20.5143, 38.5563, -149.886, -81.2921, 43.8616
8.91917, 31, -27.938, -20.5744, 38.604, -149.848, -81.2522, 43.8337
8.92725, 32, -27.9312, -20.6346, 38.6517, -149.811, -81.2127, 43.806
8.93522, 32, -27.9244, -20.6949, 38.6994, -149.773, -81.1723, 43.7784
8.9437, 32, -27.9175, -20.7552, 38.7471, -149.735, -81.1323, 43.7507
8.95213, 32, -27.9106, -20.8154, 38.7948, -149.697, -81.0926, 43.7228
8.95909, 32, -27.9037, -20.8756, 38.8425, -149.66, -81.0528, 43.6954
8.96805, 32, -27.8968, -20.9357, 38.8903, -149.622, -81.0123, 43.6687
8.97527, 32, -27.89, -20.9957, 38.938, -149.583, -80.9723, 43.6423
8.98313, 32, -27.8831, -21.0556, 38.9858, -149.545, -80.9328, 43.6163
8.9923, 32, -27.8761, -21.1155, 39.0335, -149.508, -80.8929, 43.5901
9.00094, 32, -27.8691, -21.1754, 39.0811, -149.47, -80.8525, 43.564
9.00818, 32, -27.862, -21.2354, 39.1288, -149.431, -80.8128, 43.5379
9.01626, 32, -27.855, -21.2954, 39.1763, -149.393, -80.7732, 43.5123
9.02356, 32, -27.8481, -21.3555, 39.224, -149.355, -80.7328, 43.4872
9.03164, 32, -27.8411, -21.4156, 39.2716, -149.317, -80.6927, 43.4626
9.04096, 32, -27.8341, -21.4758, 39.3191, -149.278, -80.6532, 43.4381
9.04823, 32, -27.8271, -21.536, 39.3666, -149.24, -80.6136, 43.4139
9.05568, 32, -27.82, -21.5961, 39.4143, -149.202, -80.5733, 43.3896
9.06493, 33, -27.8129, -21.6561, 39.4618, -149.164, -80.5335, 43.3653
9.07218, 33, -27.8059, -21.7159, 39.5093, -149.125, -80.4941, 43.3411
9.07973, 33, -27.7986, -21.7757, 39.5569, -149.087, -80.4541, 43.3175
9.09008, 33, -27.7913, -21.8354, 39.6044, -149.049, -80.4139, 43.2945
9.09707, 33, -27.7838, -21.8952, 39.652, -149.01, -80.3745, 43.2719
9.10309, 33, -27.7801, -21.925, 39.6757, -148.991, -80.3549, 43.2606
9.11211, 33, -27.7691, -22.0147, 39.7469, -148.934, -80.2953, 43.227
9.11912, 33, -27.7655, -22.0446, 39.7706, -148.915, -80.2753, 43.2159
9.12838, 33, -27.7543, -22.1345, 39.8414, -148.857, -80.2163, 43.1822
9.13507, 33, -27.7506, -22.1645, 39.8651, -148.837, -80.1966, 43.171
9.14532, 33, -27.7395, -22.2544, 39.9361, -148.78, -80.1367, 43.1384
9.15108, 33, -27.7358, -22.2844, 39.9598, -148.761, -80.1168, 43.1277
9.16045, 33, -27.7247, -22.3742, 40.0307, -148.702, -80.0582, 43.0965
9.16715, 33, -27.721, -22.4041, 40.0543, -148.683, -80.0385, 43.0864
9.17673, 33, -27.7097, -22.4935, 40.1253, -148.626, -79.9788, 43.0563
9.1846, 33, -27.7021, -22.553, 40.1725, -148.587, -79.9396, 43.0364
9.19115, 33, -27.6984, -22.5827, 40.1961, -148.567, -79.9201, 43.0264
9.20067, 34, -27.6871, -22.6718, 40.2671, -148.51, -79.8604, 42.9967
9.20861, 34, -27.6834, -22.7015, 40.2907, -148.471, -79.8205, 42.9768
9.21515, 34, -27.6758, -22.761, 40.3378, -148.451, -79.8009, 42.9671
9.22411, 34, -27.6682, -22.8205, 40.3848, -148.412, -79.7619, 42.948
9.23206, 34, -27.6606, -22.8801, 40.4318, -148.374, -79.7221, 42.9296
9.2401, 34, -27.6529, -22.9398, 40.4787, -148.335, -79.6822, 42.9115
9.24808, 34, -27.6452, -22.9994, 40.5256, -148.296, -79.643, 42.8939
9.25609, 34, -27.6373, -23.0589, 40.5725, -148.257, -79.6037, 42.8767
9.26407, 34, -27.6293, -23.1185, 40.6194, -148.219, -79.5636, 42.8597
9.27206, 34, -27.6213, -23.1778, 40.6663, -148.18, -79.5241, 42.8429
9.28011, 34, -27.6134, -23.237, 40.7131, -148.14, -79.4852, 42.826
9.28822, 34, -27.6054, -23.2962, 40.76, -148.102, -79.4458, 42.8093
9.29603, 34, -27.5973, -23.3552, 40.8068, -148.063, -79.4059, 42.7929
9.30306, 34, -27.5892, -23.4142, 40.8536, -148.025, -79.3669, 42.777
9.31111, 34, -27.5811, -23.4733, 40.9004, -147.985, -79.3279, 42.7616
9.32006, 34, -27.573, -23.5324, 40.9471, -147.946, -79.2883, 42.7468
9.32813, 34, -27.5649, -23.5915, 40.9937, -147.908, -79.2485, 42.7325
9.33503, 35, -27.5567, -23.6506, 41.0401, -147.869, -79.2097, 42.7185
9.34411, 35, -27.5485, -23.7097, 41.0867, -147.829, -79.1709, 42.705
9.35216, 35, -27.5402, -23.7688, 41.133, -147.791, -79.1313, 42.6917
9.36005, 35, -27.532, -23.8277, 41.1793, -147.752, -79.092, 42.6787
9.36812, 35, -27.5238, -23.8865, 41.2257, -147.713, -79.0534, 42.6661
9.37511, 35, -27.5154, -23.9452, 41.2721, -147.674, -79.0144, 42.6535
9.38309, 35, -27.5071, -24.0037, 41.3184, -147.635, -78.9747, 42.6411
9.39108, 35, -27.4987, -24.0622, 41.3646, -147.596, -78.9356, 42.6289
9.40006, 35, -27.4903, -24.1205, 41.4109, -147.556, -78.8971, 42.617
9.40829, 35, -27.4817, -24.1789, 41.4571, -147.518, -78.858, 42.6054
9.41605, 35, -27.4729, -24.2373, 41.5032, -147.479, -78.8186, 42.5943
9.42332, 35, -27.4641, -24.2957, 41.5493, -147.44, -78.7799, 42.5837
9.43116, 35, -27.4553, -24.3542, 41.5954, -147.4, -78.7414, 42.5736
9.43919, 35, -27.4465, -24.4126, 41.6413, -147.362, -78.7022, 42.5638
9.44756, 35, -27.4374, -24.4711, 41.6871, -147.323, -78.663, 42.5545
9.45517, 35, -27.4285, -24.5294, 41.7329, -147.283, -78.6246, 42.5457
9.46363, 35, -27.4196, -24.5877, 41.7786, -147.244, -78.5862, 42.5372
9.47147, 36, -27.4105, -24.6458, 41.8242, -147.206, -78.5472, 42.5291
9.47912, 36, -27.4015, -24.7037, 41.8698, -147.167, -78.5086, 42.5216
9.48787, 36, -27.3922, -24.7615, 41.9155, -147.127, -78.4704, 42.5145
9.49607, 36, -27.383, -24.8193, 41.9611, -147.088, -78.432, 42.5077
9.50413, 36, -27.3738, -24.877, 42.0065, -147.05, -78.3929, 42.5011
9.51216, 36, -27.3645, -24.9348, 42.0519, -147.01, -78.3545, 42.495
9.51938, 36, -27.3551, -24.9925, 42.0974, -146.971, -78.3166, 42.4891
9.52743, 36, -27.3458, -25.0503, 42.1427, -146.933, -78.2782, 42.4837
9.53625, 36, -27.3365, -25.1081, 42.1879, -146.894, -78.2394, 42.4786
9.54367, 36, -27.327, -25.1658, 42.2331, -146.854, -78.2013, 42.4739
9.55241, 36, -27.3173, -25.2235, 42.2782, -146.815, -78.1634, 42.4695
9.56109, 36, -27.3076, -25.281, 42.3233, -146.777, -78.1249, 42.4654
9.56816, 36, -27.298, -25.3384, 42.3682, -146.738, -78.0863, 42.4618
9.57582, 36, -27.2882, -25.3957, 42.4131, -146.698, -78.0484, 42.4585
9.5846, 36, -27.2783, -25.4528, 42.458, -146.659, -78.0106, 42.4557
9.59206, 36, -27.2684, -25.5098, 42.5027, -146.621, -77.9723, 42.4535
9.59906, 36, -27.2634, -25.5382, 42.5251, -146.601, -77.953, 42.4524
9.6071, 36, -27.2535, -25.5951, 42.5698, -146.562, -77.9149, 42.4506
9.61611, 37, -27.2385, -25.6804, 42.6368, -146.503, -77.8584, 42.4489
9.62306, 37, -27.2334, -25.7088, 42.6591, -146.484, -77.8393, 42.4485
9.63105, 37, -27.2234, -25.7656, 42.7035, -146.445, -77.8008, 42.4479
9.64028, 37, -27.2083, -25.8509, 42.7702, -146.386, -77.7443, 42.4475
9.64711, 37, -27.2032, -25.8793, 42.7923, -146.367, -77.7256, 42.4475
9.65643, 37, -27.1879, -25.9644, 42.8586, -146.31, -77.6684, 42.4475
9.66305, 37, -27.1827, -25.9926, 42.8807, -146.29, -77.6495, 42.4475
9.67341, 37, -27.1671, -26.0773, 42.947, -146.232, -77.5933, 42.4478
9.67911, 37, -27.1618, -26.1054, 42.969, -146.212, -77.5746, 42.4479
9.6886, 37, -27.1459, -26.1895, 43.035, -146.154, -77.5174, 42.4486
9.69754, 37, -27.1353, -26.2454, 43.0789, -146.115, -77.4798, 42.4495
9.70548, 37, -27.1245, -26.3012, 43.1227, -146.077, -77.4426, 42.4513
9.71105, 37, -27.1191, -26.3292, 43.1445, -146.058, -77.424, 42.4527
9.72007, 37, -27.1083, -26.3849, 43.1882, -146.019, -77.3861, 42.4563
9.72712, 37, -27.0974, -26.4407, 43.2318, -145.98, -77.3483, 42.4606
9.73615, 37, -27.0865, -26.4966, 43.2753, -145.941, -77.3112, 42.4659
9.74348, 37, -27.0755, -26.5523, 43.3187, -145.903, -77.2739, 42.4719
9.75105, 38, -27.0645, -26.6081, 43.362, -145.864, -77.236, 42.4784
9.75905, 38, -27.0535, -26.6638, 43.4053, -145.825, -77.1984, 42.4855
9.76966, 38, -27.0368, -26.7469, 43.47, -145.768, -77.1429, 42.4973
9.77513, 38, -27.0312, -26.7745, 43.4915, -145.749, -77.1242, 42.5015
9.78308, 38, -27.0199, -26.8296, 43.5346, -145.71, -77.0864, 42.5102
9.79106, 38, -27.0084, -26.8845, 43.5776, -145.671, -77.049, 42.5195
9.80012, 38, -26.9968, -26.9393, 43.6206, -145.634, -77.0121, 42.5292
9.80805, 38, -26.9853, -26.994, 43.6634, -145.595, -76.9751, 42.5395
9.81507, 38, -26.9736, -27.0486, 43.706, -145.556, -76.9373, 42.5504
9.8232, 38, -26.9618, -27.1031, 43.7487, -145.518, -76.9002, 42.5617
9.83111, 38, -26.95, -27.1577, 43.7912, -145.481, -76.8636, 42.5737
9.84011, 38, -26.9381, -27.2123, 43.8334, -145.442, -76.8269, 42.5862
9.84963, 38, -26.926, -27.2668, 43.8757, -145.404, -76.7896, 42.5993
9.85604, 38, -26.914, -27.3213, 43.9179, -145.366, -76.7527, 42.6132
9.86411, 38, -26.902, -27.3756, 43.96, -145.328, -76.7163, 42.6278
9.87204, 38, -26.8899, -27.4299, 44.002, -145.29, -76.6794, 42.6428
9.87912, 38, -26.8776, -27.484, 44.0438, -145.252, -76.6419, 42.6584
9.88705, 39, -26.8653, -27.5378, 44.0857, -145.214, -76.6051, 42.6744
9.89506, 39, -26.8528, -27.5915, 44.1274, -145.177, -76.5688, 42.6906
9.90406, 39, -26.8401, -27.6449, 44.1689, -145.138, -76.5322, 42.7072
9.9121, 39, -26.8274, -27.6983, 44.2105, -145.1, -76.495, 42.7245
9.92006, 39, -26.8146, -27.7516, 44.2519, -145.063, -76.4583, 42.7419
9.92804, 39, -26.8017, -27.8049, 44.2932, -145.025, -76.4221, 42.7602
9.93526, 39, -26.7888, -27.8581, 44.3344, -144.987, -76.3853, 42.7792
9.94317, 39, -26.7758, -27.9113, 44.3754, -144.949, -76.348, 42.799
9.95118, 39, -26.7627, -27.9646, 44.4163, -144.912, -76.3114, 42.8195
9.95922, 39, -26.7497, -28.0177, 44.4571, -144.875, -76.2753, 42.8403
9.96731, 39, -26.7366, -28.0707, 44.4977, -144.837, -76.2386, 42.8615
9.97623, 39, -26.7234, -28.1236, 44.5382, -144.799, -76.2015, 42.8829
9.98317, 39, -26.7101, -28.1764, 44.5787, -144.763, -76.165, 42.9047
9.99124, 39, -26.6965, -28.2289, 44.6191, -144.725, -76.1288, 42.9272
9.9992, 39, -26.6828, -28.2811, 44.6594, -144.687, -76.0921, 42.9503
10.0072, 39, -26.6691, -28.3332, 44.6995, -144.65, -76.0551, 42.9743
10.0153, 39, -26.6553, -28.3852, 44.7397, -144.614, -76.019, 42.9991
10.0233, 40, -26.6413, -28.4369, 44.7797, -144.577, -75.9832, 43.0246
10.0314, 40, -26.6273, -28.4886, 44.8194, -144.54, -75.9469, 43.0503
10.0399, 40, -26.6131, -28.5402, 44.8592, -144.503, -75.9102, 43.0762
10.0482, 40, -26.5989, -28.5917, 44.8988, -144.467, -75.8742, 43.1027
10.0555, 40, -26.5847, -28.6432, 44.9382, -144.43, -75.8384, 43.1296
10.0642, 40, -26.5704, -28.6947, 44.9776, -144.393, -75.8022, 43.1573
10.0716, 40, -26.556, -28.7461, 45.0168, -144.356, -75.7655, 43.186
10.0802, 40, -26.5414, -28.7973, 45.0558, -144.32, -75.7296, 43.215
10.0881, 40, -26.5266, -28.8483, 45.0949, -144.284, -75.694, 43.2441
10.0965, 40, -26.5192, -28.8738, 45.1336, -144.247, -75.6581, 43.2738
10.103, 40, -26.5044, -28.9246, 45.1529, -144.229, -75.6399, 43.2888
10.1121, 40, -26.4818, -29.0003, 45.2109, -144.175, -75.5859, 43.3352
10.1191, 40, -26.4743, -29.0255, 45.2302, -144.157, -75.5682, 43.3511
10.1282, 40, -26.4513, -29.1008, 45.2878, -144.102, -75.5145, 43.3997
10.1351, 40, -26.4436, -29.1258, 45.307, -144.084, -75.4963, 43.4161
10.1431, 40, -26.4283, -29.1757, 45.3451, -144.048, -75.4602, 43.4488
10.1524, 40, -26.405, -29.2504, 45.402, -143.995, -75.4071, 43.4992
10.1591, 41, -26.3972, -29.2753, 45.421, -143.977, -75.3894, 43.5165
10.1685, 41, -26.3734, -29.3498, 45.4775, -143.923, -75.3353, 43.5697
10.1766, 41, -26.3574, -29.3993, 45.515, -143.888, -75.2998, 43.6057
10.1849, 41, -26.3413, -29.4488, 45.5524, -143.853, -75.2647, 43.6422
10.1926, 41, -26.3251, -29.498, 45.5896, -143.817, -75.2293, 43.6791
10.2006, 41, -26.3089, -29.5471, 45.6267, -143.782, -75.1934, 43.7174
10.2087, 41, -26.3007, -29.596, 45.6636, -143.747, -75.158, 43.7563
10.2166, 41, -26.2843, -29.6204, 45.682, -143.712, -75.1231, 43.7954
10.2246, 41, -26.2678, -29.669, 45.7187, -143.695, -75.1057, 43.8151
10.233, 41, -26.2513, -29.7174, 45.7554, -143.66, -75.0704, 43.8753
10.2411, 41, -26.2262, -29.7896, 45.8099, -143.608, -75.0173, 43.9167
10.248, 41, -26.2177, -29.8136, 45.8279, -143.591, -74.9998, 43.9377
10.2561, 41, -26.2006, -29.8615, 45.8641, -143.556, -74.965, 43.9797
10.2641, 41, -26.1834, -29.9093, 45.9001, -143.521, -74.9298, 44.0223
10.272, 41, -26.1662, -29.9569, 45.9359, -143.488, -74.8942, 44.0659
10.28, 41, -26.1488, -30.0045, 45.9717, -143.454, -74.8591, 44.1107
10.288, 41, -26.1312, -30.0518, 46.0071, -143.42, -74.8245, 44.1558
10.296, 42, -26.1135, -30.099, 46.0424, -143.385, -74.7897, 44.201
10.3041, 42, -26.0959, -30.1461, 46.0777, -143.352, -74.7543, 44.2471
10.312, 42, -26.0781, -30.193, 46.1127, -143.319, -74.7194, 44.2942
10.32, 42, -26.06, -30.2397, 46.1475, -143.285, -74.6848, 44.3415
10.3298, 42, -26.0418, -30.2862, 46.1822, -143.234, -74.6324, 44.4134
10.336, 42, -26.0235, -30.3325, 46.2168, -143.218, -74.6146, 44.4381
10.344, 42, -26.0052, -30.3787, 46.2512, -143.185, -74.5795, 44.4879
10.3529, 42, -25.9866, -30.4246, 46.2854, -143.152, -74.545, 44.5377
10.3601, 42, -25.9678, -30.4702, 46.3196, -143.119, -74.5105, 44.5878
10.368, 42, -25.949, -30.5158, 46.3533, -143.086, -74.4754, 44.6393
10.3771, 42, -25.9301, -30.5612, 46.387, -143.054, -74.4404, 44.6916
10.3832, 42, -25.9109, -30.6063, 46.4206, -143.022, -74.406, 44.7437
10.3911, 42, -25.8915, -30.6514, 46.4539, -142.99, -74.3717, 44.7969
10.399, 42, -25.872, -30.6962, 46.4869, -142.957, -74.3368, 44.8514
10.408, 42, -25.8526, -30.7409, 46.5199, -142.925, -74.3018, 44.906
10.4162, 42, -25.8329, -30.7854, 46.5527, -142.894, -74.2675, 44.9613
10.4234, 42, -25.8131, -30.8297, 46.5853, -142.863, -74.2335, 45.0179
10.4321, 43, -25.7932, -30.8739, 46.6177, -142.831, -74.1991, 45.0753
10.4401, 43, -25.7732, -30.918, 46.65, -142.8, -74.1643, 45.1326
10.4475, 43, -25.753, -30.9617, 46.682, -142.769, -74.1302, 45.1914
10.4552, 43, -25.7325, -31.0053, 46.7137, -142.739, -74.0962, 45.251
10.4632, 43, -25.7119, -31.0487, 46.7455, -142.708, -74.0621, 45.3106
10.4718, 43, -25.6912, -31.0918, 46.777, -142.677, -74.0273, 45.3713
10.4801, 43, -25.6704, -31.1347, 46.8082, -142.646, -73.993, 45.4329
10.4871, 43, -25.6493, -31.1774, 46.8393, -142.617, -73.9593, 45.4945
10.4959, 43, -25.6283, -31.2199, 46.8704, -142.587, -73.9256, 45.5572
10.5042, 43, -25.6072, -31.2621, 46.9011, -142.557, -73.8912, 45.6208
10.5112, 43, -25.5858, -31.3042, 46.9316, -142.527, -73.8569, 45.6842
10.52, 43, -25.5641, -31.346, 46.9621, -142.497, -73.8232, 45.7488
10.528, 43, -25.5424, -31.3877, 46.9922, -142.468, -73.7896, 45.8142
10.5361, 43, -25.5205, -31.4291, 47.022, -142.44, -73.7554, 45.8796
10.5443, 43, -25.4983, -31.4703, 47.0517, -142.411, -73.721, 45.9465
10.5516, 43, -25.4759, -31.5114, 47.0813, -142.382, -73.6873, 46.0138
10.5604, 43, -25.4534, -31.5522, 47.1105, -142.353, -73.6539, 46.0814
10.5676, 43, -25.4307, -31.5928, 47.1394, -142.325, -73.6203, 46.1507
10.5761, 44, -25.4077, -31.6333, 47.1682, -142.298, -73.5862, 46.22
10.5845, 44, -25.3848, -31.6735, 47.1969, -142.27, -73.5526, 46.2902
10.5916, 44, -25.3733, -31.6936, 47.2111, -142.256, -73.5193, 46.3618
10.6001, 44, -25.3385, -31.7532, 47.2534, -142.215, -73.4859, 46.433
10.607, 44, -25.3268, -31.773, 47.2674, -142.201, -73.469, 46.4692
10.6151, 44, -25.3032, -31.8123, 47.2954, -142.175, -73.435, 46.5428
10.6242, 44, -25.2674, -31.8709, 47.3366, -142.135, -73.3852, 46.6531
10.631, 44, -25.2553, -31.8903, 47.3503, -142.121, -73.3687, 46.6909
10.6391, 44, -25.2312, -31.9288, 47.3775, -142.094, -73.3357, 46.7659
10.6487, 44, -25.1948, -31.9862, 47.4179, -142.056, -73.2854, 46.8799
10.6571, 44, -25.1704, -32.0242, 47.4444, -142.03, -73.2526, 46.9566
10.6631, 44, -25.1581, -32.0431, 47.4576, -142.018, -73.2361, 46.9951
10.6725, 44, -25.1209, -32.0994, 47.4968, -141.98, -73.1868, 47.1128
10.6814, 44, -25.0958, -32.1367, 47.5228, -141.955, -73.1533, 47.1916
10.6871, 44, -25.0831, -32.1552, 47.5356, -141.942, -73.1367, 47.2318
10.6974, 44, -25.0449, -32.2104, 47.5736, -141.906, -73.0877, 47.3527
10.703, 44, -25.0321, -32.2287, 47.5862, -141.894, -73.0715, 47.3934
10.7126, 45, -25.0063, -32.2651, 47.6112, -141.859, -73.0223, 47.5171
10.7215, 45, -24.9804, -32.3012, 47.6484, -141.835, -72.9894, 47.6001
10.727, 45, -24.9541, -32.337, 47.6605, -141.823, -72.9732, 47.6422
10.736, 45, -24.9277, -32.3726, 47.6846, -141.799, -72.9409, 47.7262
10.744, 45, -24.9014, -32.4079, 47.7086, -141.776, -72.9087, 47.8117
10.7511, 45, -24.8747, -32.4429, 47.7322, -141.754, -72.8758, 47.8973
10.759, 45, -24.8479, -32.4776, 47.7558, -141.732, -72.843, 47.9839
10.768, 45, -24.8208, -32.5121, 47.7789, -141.71, -72.8108, 48.0711
10.775, 45, -24.7933, -32.5463, 47.8018, -141.688, -72.7789, 48.1591
10.784, 45, -24.7657, -32.5803, 47.8244, -141.666, -72.7467, 48.248
10.7922, 45, -24.7381, -32.6139, 47.8468, -141.645, -72.7142, 48.3376
10.8014, 45, -24.7102, -32.6637, 47.8799, -141.614, -72.6661, 48.4735
10.807, 45, -24.6823, -32.6802, 47.8908, -141.604, -72.6503, 48.5192
10.816, 45, -24.654, -32.7128, 47.9124, -141.584, -72.6186, 48.6114
10.823, 45, -24.6254, -32.7452, 47.9338, -141.564, -72.5863, 48.7036
10.832, 45, -24.5967, -32.7772, 47.9549, -141.544, -72.5541, 48.7971
10.8395, 45, -24.5677, -32.809, 47.9757, -141.524, -72.5226, 48.891
10.8471, 46, -24.5384, -32.8403, 47.996, -141.505, -72.4914, 48.986
10.855, 46, -24.509, -32.8714, 48.0161, -141.486, -72.4599, 49.0813
10.865, 46, -24.4793, -32.9022, 48.0359, -141.468, -72.428, 49.1776
10.872, 46, -24.4494, -32.9326, 48.0554, -141.451, -72.3965, 49.2746
10.88, 46, -24.4195, -32.9628, 48.0748, -141.433, -72.3654, 49.3724
10.8888, 46, -24.3893, -32.9927, 48.0939, -141.416, -72.3345, 49.4711
10.896, 46, -24.3589, -33.0223, 48.1125, -141.399, -72.3031, 49.5707
10.9041, 46, -24.3282, -33.0514, 48.131, -141.382, -72.2714, 49.6715
10.9131, 46, -24.2973, -33.0802, 48.1491, -141.365, -72.2403, 49.7724
10.9193, 46, -24.2663, -33.1088, 48.1666, -141.349, -72.2098, 49.8744
10.9281, 46, -24.235, -33.137, 48.1841, -141.334, -72.1793, 49.9769
10.9368, 46, -24.2036, -33.1648, 48.2013, -141.319, -72.1481, 50.0803
10.9432, 46, -24.1717, -33.1923, 48.2181, -141.304, -72.1172, 50.1839
10.9512, 46, -24.1397, -33.2194, 48.2346, -141.29, -72.0868, 50.2886
10.9591, 46, -24.1075, -33.2463, 48.2509, -141.276, -72.0566, 50.394
10.968, 46, -24.0751, -33.2727, 48.2667, -141.262, -72.0264, 50.4998
10.9761, 46, -24.0424, -33.2987, 48.282, -141.249, -71.9956, 50.6069
10.9847, 47, -24.0093, -33.3244, 48.2973, -141.235, -71.9651, 50.7144
10.992, 47, -23.976, -33.3497, 48.3123, -141.222, -71.9353, 50.8232
11.0001, 47, -23.9426, -33.3748, 48.3266, -141.21, -71.9058, 50.9324
11.0099, 47, -23.909, -33.3993, 48.3407, -141.199, -71.876, 51.0425
11.016, 47, -23.875, -33.4234, 48.3545, -141.188, -71.8459, 51.1535
11.0241, 47, -23.8409, -33.4472, 48.3679, -141.177, -71.8161, 51.2646
11.0314, 47, -23.8066, -33.4705, 48.3808, -141.167, -71.7868, 51.3769
11.0394, 47, -23.7721, -33.4937, 48.3935, -141.157, -71.7578, 51.4899
11.0475, 47, -23.7374, -33.5163, 48.4061, -141.148, -71.7285, 51.6036
11.0561, 47, -23.7023, -33.5385, 48.4183, -141.139, -71.6988, 51.7183
11.065, 47, -23.667, -33.5605, 48.4301, -141.13, -71.6697, 51.8336
11.0716, 47, -23.6315, -33.5819, 48.4414, -141.121, -71.6411, 51.9497
11.0801, 47, -23.5958, -33.6029, 48.4523, -141.113, -71.6128, 52.0665
11.0881, 47, -23.5598, -33.6237, 48.463, -141.105, -71.5843, 52.184
11.0962, 47, -23.5234, -33.6438, 48.4732, -141.098, -71.5554, 52.3024
11.103, 47, -23.5052, -33.6537, 48.4782, -141.094, -71.5411, 52.3616
11.112, 47, -23.4503, -33.6831, 48.4925, -141.084, -71.4991, 52.5408
11.119, 48, -23.4318, -33.6925, 48.4971, -141.081, -71.4853, 52.601
11.1281, 48, -23.3759, -33.7204, 48.5103, -141.072, -71.4436, 52.7824
11.1362, 48, -23.3384, -33.7386, 48.5189, -141.067, -71.4155, 52.9045
11.143, 48, -23.3196, -33.7475, 48.5229, -141.065, -71.4015, 52.9658
11.1524, 48, -23.2628, -33.7734, 48.5346, -141.059, -71.3603, 53.1506
11.161, 48, -23.2245, -33.7902, 48.542, -141.056, -71.3335, 53.2748
11.1685, 48, -23.1859, -33.8066, 48.5488, -141.053, -71.3067, 53.3999
11.1765, 48, -23.1472, -33.8223, 48.5551, -141.05, -71.2796, 53.5255
11.1846, 48, -23.1083, -33.8377, 48.5612, -141.048, -71.2525, 53.6519
11.1926, 48, -23.0689, -33.8527, 48.5669, -141.046, -71.2259, 53.7791
11.2008, 48, -23.0295, -33.8674, 48.5723, -141.045, -71.1997, 53.9071
11.2088, 48, -22.9898, -33.8815, 48.5773, -141.044, -71.1738, 54.0361
11.2172, 48, -22.9498, -33.8948, 48.5818, -141.044, -71.1476, 54.1659
11.2231, 48, -22.9297, -33.9014, 48.584, -141.044, -71.1344, 54.2309
11.233, 48, -22.8691, -33.9207, 48.5896, -141.044, -71.0951, 54.4271
11.239, 48, -22.8488, -33.927, 48.5913, -141.044, -71.0823, 54.4929
11.2481, 48, -22.808, -33.9388, 48.5943, -141.044, -71.057, 54.6247
11.255, 49, -22.7669, -33.9499, 48.5969, -141.045, -71.0322, 54.7572
11.264, 49, -22.7255, -33.9606, 48.5991, -141.047, -71.0073, 54.8904
11.272, 49, -22.6839, -33.971, 48.6008, -141.049, -70.9821, 55.0244
11.28, 49, -22.642, -33.981, 48.6021, -141.052, -70.9571, 55.1591
11.288, 49, -22.5999, -33.9906, 48.6029, -141.056, -70.9327, 55.2944
11.296, 49, -22.5575, -33.9994, 48.6033, -141.06, -70.9087, 55.4306
11.304, 49, -22.5149, -34.0075, 48.6035, -141.065, -70.885, 55.5675
11.312, 49, -22.472, -34.0151, 48.6035, -141.07, -70.8612, 55.7047
11.32, 49, -22.4288, -34.0223, 48.6034, -141.076, -70.8373, 55.8427
11.3281, 49, -22.3853, -34.0291, 48.603, -141.083, -70.8135, 55.9816
11.336, 49, -22.3417, -34.0353, 48.6022, -141.09, -70.7903, 56.1213
11.344, 49, -22.2979, -34.0411, 48.6011, -141.098, -70.7677, 56.2616
11.3537, 49, -22.2538, -34.0464, 48.5995, -141.107, -70.7455, 56.4026
11.3601, 49, -22.2094, -34.0512, 48.5974, -141.116, -70.7233, 56.5443
11.369, 49, -22.1648, -34.0554, 48.5947, -141.126, -70.7012, 56.6867
11.376, 49, -22.1197, -34.0588, 48.5915, -141.137, -70.6791, 56.8295
11.384, 49, -22.0745, -34.0617, 48.5877, -141.147, -70.6572, 56.9728
11.392, 50, -22.029, -34.0641, 48.5834, -141.158, -70.6361, 57.117
11.4, 50, -21.9833, -34.0658, 48.5786, -141.17, -70.6153, 57.2619
11.4081, 50, -21.9373, -34.067, 48.5732, -141.182, -70.5949, 57.4077
11.416, 50, -21.8912, -34.0676, 48.5673, -141.194, -70.5746, 57.5539
11.4245, 50, -21.8448, -34.0678, 48.5608, -141.207, -70.5542, 57.7009
11.4314, 50, -21.798, -34.0678, 48.5538, -141.221, -70.5338, 57.8486
11.4391, 50, -21.751, -34.0674, 48.5464, -141.235, -70.5137, 57.9966
11.4471, 50, -21.7037, -34.0665, 48.5387, -141.251, -70.4943, 58.1455
11.456, 50, -21.6561, -34.065, 48.5303, -141.267, -70.4754, 58.295
11.4641, 50, -21.6083, -34.063, 48.5215, -141.283, -70.457, 58.4454
11.473, 50, -21.5603, -34.0606, 48.512, -141.3, -70.4388, 58.5964
11.4801, 50, -21.5121, -34.0575, 48.5018, -141.317, -70.4209, 58.748
11.4884, 50, -21.4635, -34.0538, 48.4912, -141.334, -70.4028, 58.9001
11.495, 50, -21.4148, -34.0494, 48.4801, -141.352, -70.3849, 59.0527
11.504, 50, -21.3659, -34.0441, 48.4684, -141.37, -70.3674, 59.2058
11.5121, 50, -21.3166, -34.0381, 48.4563, -141.39, -70.3504, 59.3596
11.5213, 50, -21.2671, -34.0313, 48.4437, -141.411, -70.334, 59.5141
11.528, 51, -21.2174, -34.0238, 48.4307, -141.431, -70.318, 59.6692
11.5361, 51, -21.1673, -34.0154, 48.4171, -141.452, -70.3025, 59.825
11.5441, 51, -21.117, -34.0064, 48.4029, -141.474, -70.2871, 59.9814
11.5521, 51, -21.0664, -33.997, 48.3881, -141.496, -70.272, 60.1382
11.5595, 51, -21.0155, -33.9869, 48.3729, -141.519, -70.2569, 60.2954
11.5684, 51, -20.9645, -33.9757, 48.3571, -141.542, -70.2419, 60.4535
11.5756, 51, -20.9132, -33.9639, 48.3407, -141.567, -70.2273, 60.6123
11.5841, 51, -20.8617, -33.9515, 48.324, -141.591, -70.2133, 60.7717
11.5925, 51, -20.81, -33.9388, 48.3067, -141.616, -70.1999, 60.9317
11.5998, 51, -20.784, -33.9254, 48.2888, -141.641, -70.1872, 61.0923
11.607, 51, -20.7318, -33.9183, 48.2796, -141.654, -70.181, 61.1728
