rpiRobotics/ARM-21-02-F-19-Robot-Motion-Program/data_performance_abb/curve_1/baseline/100L/realrobot/bisect/run_0realrobot_curve_exe_v75.0_z10.csv
timestamp, cmd_num, J1, J2, J3, J4, J5, J6
0.009734, -1, 11.3783, 13.6127, 17.3401, -145.519, -97.9231, 142.516
0.011626, -1, 11.3783, 13.6127, 17.3401, -145.519, -97.9231, 142.516
0.015319, -1, 11.3783, 13.6127, 17.3401, -145.519, -97.9231, 142.516
0.018072, -1, 11.3783, 13.6127, 17.3401, -145.519, -97.9231, 142.516
0.03997, -1, 11.3783, 13.6127, 17.3401, -145.519, -97.9231, 142.516
0.042063, -1, 11.3784, 13.6127, 17.3401, -145.519, -97.9231, 142.516
0.044736, -1, 11.3784, 13.6127, 17.3401, -145.519, -97.9231, 142.516
0.047122, -1, 11.3784, 13.6127, 17.3401, -145.519, -97.9231, 142.516
0.055149, -1, 11.3783, 13.6127, 17.3401, -145.519, -97.9231, 142.516
0.063931, -1, 11.3777, 13.6126, 17.3401, -145.519, -97.9231, 142.516
0.074297, -1, 11.3724, 13.6119, 17.34, -145.519, -97.9231, 142.516
0.079141, -1, 11.3686, 13.6113, 17.3399, -145.519, -97.9231, 142.515
0.087222, -1, 11.3575, 13.6093, 17.3393, -145.519, -97.923, 142.513
0.095145, -1, 11.3401, 13.6055, 17.3385, -145.52, -97.9229, 142.502
0.103224, -1, 11.3133, 13.5993, 17.3377, -145.524, -97.9223, 142.48
0.113276, -1, 11.2751, 13.5898, 17.3372, -145.531, -97.9208, 142.439
0.119212, -1, 11.2251, 13.5772, 17.3373, -145.542, -97.9174, 142.373
0.127143, -1, 11.1635, 13.5615, 17.339, -145.559, -97.9119, 142.277
0.135162, -1, 11.0904, 13.5421, 17.343, -145.582, -97.9041, 142.146
0.143166, -1, 11.0054, 13.5189, 17.3493, -145.611, -97.894, 141.98
0.151177, -1, 10.9087, 13.4924, 17.358, -145.645, -97.882, 141.782
0.159371, -1, 10.8013, 13.4624, 17.3684, -145.684, -97.8683, 141.557
0.167202, -1, 10.6828, 13.4295, 17.3797, -145.726, -97.8536, 141.311
0.175308, -1, 10.5538, 13.3937, 17.3909, -145.771, -97.8382, 141.05
0.183565, -1, 10.4158, 13.3557, 17.4015, -145.817, -97.8224, 140.781
0.191305, -1, 10.271, 13.3161, 17.4118, -145.864, -97.8062, 140.507
0.199315, -1, 10.1216, 13.2757, 17.4219, -145.911, -97.7896, 140.23
0.207738, -1, 9.96921, 13.2345, 17.4319, -145.959, -97.7726, 139.952
0.216165, -1, 9.81459, 13.1931, 17.4419, -146.007, -97.7553, 139.673
0.2232, -1, 9.65908, 13.1517, 17.452, -146.055, -97.7382, 139.394
0.231966, -1, 9.50398, 13.1104, 17.4619, -146.103, -97.7211, 139.115
0.240138, -1, 9.34929, 13.0692, 17.4718, -146.151, -97.7044, 138.835
0.247356, -1, 9.19488, 13.028, 17.4817, -146.199, -97.6877, 138.556
0.256177, -1, 9.041, 12.9869, 17.4917, -146.247, -97.6709, 138.277
0.263449, -1, 8.88745, 12.9459, 17.5017, -146.296, -97.6541, 137.997
0.271452, -1, 8.73402, 12.9049, 17.5118, -146.344, -97.6368, 137.718
0.280281, -1, 8.58101, 12.8637, 17.5218, -146.391, -97.6193, 137.438
0.287662, -1, 8.42826, 12.8226, 17.5321, -146.44, -97.6018, 137.158
0.296293, -1, 8.27524, 12.7813, 17.5422, -146.488, -97.5845, 136.878
0.304251, -1, 8.12169, 12.7398, 17.5524, -146.535, -97.5675, 136.598
0.311911, -1, 7.96779, 12.6983, 17.5625, -146.584, -97.5507, 136.318
0.320338, -1, 7.81325, 12.6567, 17.5726, -146.632, -97.5341, 136.038
0.328545, -1, 7.73582, 12.6151, 17.5827, -146.679, -97.5174, 135.758
0.335765, -1, 7.58087, 12.5943, 17.5929, -146.728, -97.5006, 135.478
0.344311, -1, 7.34814, 12.5321, 17.603, -146.776, -97.4834, 135.198
0.351141, -1, 7.27056, 12.5114, 17.6081, -146.799, -97.4747, 135.058
0.360247, -1, 7.03787, 12.4493, 17.6235, -146.872, -97.4486, 134.638
0.367133, -1, 6.96024, 12.4287, 17.6286, -146.896, -97.4401, 134.498
0.375181, -1, 6.80514, 12.3875, 17.6389, -146.944, -97.4231, 134.218
0.384425, -1, 6.57315, 12.3257, 17.6545, -147.016, -97.398, 133.797
0.391151, -1, 6.49591, 12.3052, 17.6597, -147.041, -97.3896, 133.657
0.400542, -1, 6.2644, 12.2433, 17.6751, -147.112, -97.3643, 133.237
0.407127, -1, 6.18728, 12.2226, 17.6802, -147.137, -97.3558, 133.096
0.416658, -1, 5.95568, 12.1606, 17.6956, -147.209, -97.3297, 132.675
0.424669, -1, 5.80099, 12.1191, 17.7059, -147.257, -97.312, 132.395
0.432781, -1, 5.64616, 12.0776, 17.716, -147.305, -97.2946, 132.114
0.440745, -1, 5.49114, 12.036, 17.7263, -147.353, -97.2775, 131.834
0.448768, -1, 5.33593, 11.9945, 17.7365, -147.401, -97.2606, 131.553
0.456751, -1, 5.25823, 11.9529, 17.7467, -147.45, -97.2438, 131.272
0.464761, -1, 5.10252, 11.9321, 17.752, -147.474, -97.2354, 130.991
0.472162, -1, 4.94658, 11.8906, 17.7624, -147.521, -97.2185, 130.851
0.480128, -1, 4.79078, 11.849, 17.7727, -147.57, -97.2014, 130.569
0.488171, -1, 4.63498, 11.8076, 17.7831, -147.618, -97.184, 130.289
0.496185, -1, 4.47924, 11.7663, 17.7934, -147.666, -97.1665, 130.008
0.504171, -1, 4.32367, 11.7249, 17.8038, -147.715, -97.1493, 129.727
0.512127, -1, 4.16845, 11.6835, 17.8142, -147.763, -97.1322, 129.446
0.645501, -1, 1.60102, 10.9973, 17.985, -148.56, -96.8501, 124.801
0.64953, -1, 1.52301, 10.9764, 17.9902, -148.584, -96.8416, 124.66
0.651604, -1, 1.44501, 10.9556, 17.9955, -148.609, -96.8332, 124.519
0.652788, -1, 1.44501, 10.9556, 17.9955, -148.609, -96.8332, 124.519
0.654654, -1, 1.36703, 10.9349, 18.0007, -148.633, -96.8248, 124.378
0.656041, -1, 1.36703, 10.9349, 18.0007, -148.633, -96.8248, 124.378
0.65736, -1, 1.36703, 10.9349, 18.0007, -148.633, -96.8248, 124.378
0.661204, -1, 1.28909, 10.9141, 18.0058, -148.657, -96.8163, 124.237
0.79831, -1, -1.36507, 10.2045, 18.182, -149.482, -96.5254, 119.432
0.800334, -1, -1.44337, 10.1836, 18.1871, -149.506, -96.517, 119.29
0.801715, -1, -1.44337, 10.1836, 18.1871, -149.506, -96.517, 119.29
0.803609, -1, -1.52168, 10.1628, 18.1924, -149.53, -96.5086, 119.148
0.805101, -1, -1.52168, 10.1628, 18.1924, -149.53, -96.5086, 119.148
0.806369, -1, -1.52168, 10.1628, 18.1924, -149.53, -96.5086, 119.148
0.808369, -1, -1.59994, 10.1419, 18.1977, -149.554, -96.5002, 119.007
0.814102, -1, -1.67808, 10.121, 18.2029, -149.579, -96.4917, 118.865
0.816262, -1, -1.75607, 10.1001, 18.2081, -149.603, -96.4832, 118.724
0.818383, -1, -1.75607, 10.1001, 18.2081, -149.603, -96.4832, 118.724
0.820422, -1, -1.83393, 10.0792, 18.2133, -149.627, -96.4745, 118.582
0.821726, -1, -1.83393, 10.0792, 18.2133, -149.627, -96.4745, 118.582
0.823497, -1, -1.83393, 10.0792, 18.2133, -149.627, -96.4745, 118.582
0.825102, -1, -1.9117, 10.0583, 18.2185, -149.652, -96.4658, 118.44
0.826307, -1, -1.9117, 10.0583, 18.2185, -149.652, -96.4658, 118.44
0.828572, -1, -1.98939, 10.0374, 18.2237, -149.676, -96.4569, 118.298
0.82976, -1, -1.98939, 10.0374, 18.2237, -149.676, -96.4569, 118.298
0.831611, -1, -1.98939, 10.0374, 18.2237, -149.676, -96.4569, 118.157
0.833103, -1, -2.06701, 10.0165, 18.229, -149.7, -96.4481, 118.157
0.834295, -1, -2.06701, 10.0165, 18.229, -149.7, -96.4481, 118.157
0.836982, -1, -2.14459, 9.99558, 18.2341, -149.725, -96.4393, 118.015
0.838233, -1, -2.14459, 9.99558, 18.2341, -149.725, -96.4393, 118.015
0.842153, -1, -2.22218, 9.97472, 18.2393, -149.749, -96.4305, 117.873
0.844069, -1, -2.29979, 9.95386, 18.2445, -149.773, -96.4218, 117.732
0.845551, -1, -2.29979, 9.95386, 18.2445, -149.773, -96.4218, 117.732
0.846809, -1, -2.29979, 9.95386, 18.2445, -149.773, -96.4218, 117.732
0.848861, -1, -2.37749, 9.93295, 18.2497, -149.797, -96.4132, 117.59
0.850045, -1, -2.37749, 9.93295, 18.2497, -149.797, -96.4132, 117.59
0.851915, -1, -2.45527, 9.91198, 18.2549, -149.822, -96.4046, 117.448
0.853289, -1, -2.45527, 9.91198, 18.2549, -149.822, -96.4046, 117.448
0.854684, -1, -2.45527, 9.91198, 18.2549, -149.822, -96.4046, 117.448
0.856636, -1, -2.53311, 9.89102, 18.2601, -149.846, -96.3962, 117.306
0.857977, -1, -2.53311, 9.89102, 18.2601, -149.846, -96.3962, 117.306
0.859183, -1, -2.53311, 9.89102, 18.2601, -149.846, -96.3962, 117.306
0.861898, -1, -2.61101, 9.87008, 18.2653, -149.87, -96.3878, 117.164
0.864165, -1, -2.689, 9.84915, 18.2705, -149.895, -96.3794, 117.022
0.871115, -1, -2.76708, 9.82823, 18.2756, -149.919, -96.371, 116.881
0.880299, -1, -3.0019, 9.76541, 18.2912, -149.992, -96.3456, 116.455
0.887137, -1, -3.08034, 9.74448, 18.2964, -150.016, -96.3371, 116.313
0.896387, -1, -3.31641, 9.68163, 18.312, -150.089, -96.311, 115.888
0.903169, -1, -3.39529, 9.66067, 18.3172, -150.113, -96.3022, 115.746
0.912671, -1, -3.63211, 9.59782, 18.3329, -150.187, -96.2759, 115.32
0.919117, -1, -3.711, 9.57694, 18.3381, -150.211, -96.2674, 115.178
0.928638, -1, -3.94795, 9.51408, 18.3536, -150.284, -96.2418, 114.751
0.937749, -1, -4.10584, 9.47222, 18.3639, -150.333, -96.2249, 114.467
0.944693, -1, -4.26364, 9.43035, 18.3742, -150.381, -96.2079, 114.183
0.952704, -1, -4.42121, 9.38842, 18.3845, -150.43, -96.1907, 113.898
0.961633, -1, -4.4998, 9.34649, 18.3949, -150.479, -96.1732, 113.613
0.967105, -1, -4.65677, 9.3255, 18.4, -150.504, -96.1644, 113.471
0.976108, -1, -4.81336, 9.28352, 18.4103, -150.552, -96.1466, 113.187
0.984166, -1, -4.96958, 9.2415, 18.4208, -150.601, -96.1292, 112.902
0.991128, -1, -5.12555, 9.19953, 18.4313, -150.65, -96.112, 112.617
0.999185, -1, -5.28148, 9.15753, 18.4418, -150.698, -96.095, 112.333
1.00711, -1, -5.43755, 9.11539, 18.4523, -150.748, -96.0781, 112.048
1.01611, -1, -5.59375, 9.07336, 18.4626, -150.796, -96.0612, 111.764
1.02412, -1, -5.75028, 9.03131, 18.473, -150.845, -96.0441, 111.479
1.03211, -1, -5.90718, 8.98918, 18.4834, -150.894, -96.0267, 111.194
1.03912, -1, -6.06459, 8.94708, 18.4936, -150.943, -96.0091, 110.909
1.04711, -1, -6.22261, 8.90501, 18.504, -150.992, -95.9916, 110.624
1.05517, -1, -6.38097, 8.86294, 18.5143, -151.041, -95.9744, 110.339
1.06311, -1, -6.53942, 8.82094, 18.5246, -151.09, -95.9574, 110.054
1.07112, -1, -6.69795, 8.77886, 18.5351, -151.139, -95.9403, 109.768
1.07918, -1, -6.85674, 8.73677, 18.5455, -151.188, -95.9234, 109.483
1.08711, -1, -7.01524, 8.69477, 18.556, -151.237, -95.9062, 109.197
1.09511, -1, -7.17371, 8.65271, 18.5665, -151.286, -95.8887, 108.912
1.10317, -1, -7.33208, 8.61059, 18.5768, -151.335, -95.871, 108.626
1.11112, -1, -7.48991, 8.56837, 18.5873, -151.384, -95.8533, 108.34
1.11917, -1, -7.64753, 8.52613, 18.5977, -151.433, -95.8358, 108.055
1.12717, -1, -7.80483, 8.48394, 18.6081, -151.482, -95.8186, 107.769
1.1351, -1, -7.9617, 8.44173, 18.6185, -151.531, -95.8016, 107.483
1.14412, -1, -8.11836, 8.39944, 18.6289, -151.58, -95.7848, 107.197
1.15113, -1, -8.27496, 8.35715, 18.6394, -151.629, -95.7678, 106.912
1.1592, -1, -8.43161, 8.31485, 18.6499, -151.678, -95.7505, 106.626
1.16731, -1, -8.58863, 8.27251, 18.6604, -151.727, -95.733, 106.34
1.17517, -1, -8.74601, 8.23028, 18.6708, -151.777, -95.7153, 106.053
1.18325, -1, -8.90371, 8.18801, 18.6811, -151.825, -95.6977, 105.767
1.19145, -1, -9.06188, 8.14571, 18.6915, -151.874, -95.6804, 105.481
1.19922, -1, -9.2205, 8.10353, 18.702, -151.924, -95.6633, 105.194
1.20732, -1, -9.37936, 8.06131, 18.7123, -151.973, -95.6462, 104.907
1.21567, -1, -9.53848, 8.01904, 18.7228, -152.022, -95.629, 104.621
1.22416, -1, -9.69771, 7.97687, 18.7332, -152.072, -95.6117, 104.334
1.2312, -1, -9.85697, 7.93475, 18.7436, -152.12, -95.5942, 104.047
1.23994, -1, -10.0163, 7.89246, 18.7542, -152.17, -95.5763, 103.76
1.2481, -1, -10.1756, 7.85012, 18.7648, -152.219, -95.5584, 103.474
1.25534, -1, -10.3346, 7.80772, 18.7753, -152.268, -95.5409, 103.187
1.26412, -1, -10.4932, 7.76524, 18.7858, -152.318, -95.5236, 102.9
1.27136, -1, -10.6518, 7.72285, 18.7962, -152.367, -95.5066, 102.613
1.27953, -1, -10.8099, 7.68042, 18.8066, -152.416, -95.4897, 102.326
1.28838, -1, -10.9676, 7.6379, 18.817, -152.465, -95.4726, 102.039
1.29559, -1, -11.1251, 7.59542, 18.8274, -152.515, -95.4552, 101.752
1.3037, -1, -11.2825, 7.553, 18.8379, -152.564, -95.4375, 101.464
1.31248, -1, -11.4401, 7.51056, 18.8483, -152.614, -95.4198, 101.177
1.31967, -1, -11.5977, 7.46812, 18.8587, -152.663, -95.4021, 100.89
1.32824, -1, -11.7556, 7.42576, 18.8693, -152.712, -95.3848, 100.602
1.33665, -1, -11.8348, 7.40457, 18.8799, -152.761, -95.3675, 100.314
1.34372, -1, -11.9934, 7.3622, 18.8852, -152.786, -95.3589, 100.17
1.35211, -1, -12.232, 7.29872, 18.9009, -152.86, -95.3331, 99.7387
1.3591, -1, -12.3117, 7.27753, 18.9062, -152.885, -95.3244, 99.5948
1.3671, -1, -12.4715, 7.23513, 18.9167, -152.935, -95.3069, 99.3069
1.37629, -1, -12.7115, 7.17159, 18.9325, -153.008, -95.28, 98.8752
1.3831, -1, -12.7915, 7.15039, 18.9377, -153.033, -95.2711, 98.7313
1.39311, -1, -13.0316, 7.08664, 18.9536, -153.107, -95.2447, 98.2991
1.3991, -1, -13.1116, 7.06535, 18.9588, -153.132, -95.236, 98.1551
1.40846, -1, -13.3512, 7.00151, 18.9746, -153.207, -95.2103, 97.723
1.41514, -1, -13.4308, 6.9802, 18.9799, -153.231, -95.2018, 97.5789
1.42311, -1, -13.5901, 6.93749, 18.9904, -153.28, -95.1847, 97.2904
1.43265, -1, -13.8287, 6.87346, 19.0062, -153.355, -95.1586, 96.8576
1.44143, -1, -13.9872, 6.83079, 19.0166, -153.404, -95.1409, 96.5692
1.44713, -1, -14.0663, 6.80944, 19.0219, -153.429, -95.132, 96.4249
1.45669, -1, -14.2244, 6.74555, 19.0377, -153.503, -95.1055, 95.9914
1.46545, -1, -14.3827, 6.72422, 19.0429, -153.528, -95.0882, 95.7026
1.47109, -1, -14.541, 6.68156, 19.0533, -153.577, -95.0796, 95.5581
1.48009, -1, -14.6997, 6.63904, 19.0638, -153.627, -95.0624, 95.2689
1.48813, -1, -14.8588, 6.59654, 19.0743, -153.676, -95.0453, 94.9798
1.49511, -1, -15.0181, 6.55393, 19.085, -153.726, -95.028, 94.6907
1.5031, -1, -15.1779, 6.51135, 19.0957, -153.776, -95.0103, 94.4016
1.5121, -1, -15.338, 6.46883, 19.1062, -153.825, -94.9923, 94.1124
1.51909, -1, -15.4985, 6.42619, 19.1168, -153.875, -94.9744, 93.8231
1.52813, -1, -15.6593, 6.38351, 19.1273, -153.925, -94.9567, 93.534
1.53614, -1, -15.82, 6.34082, 19.1378, -153.974, -94.9393, 93.2447
1.54311, -1, -15.9807, 6.29804, 19.1485, -154.024, -94.9221, 92.9551
1.55115, -1, -16.1414, 6.25521, 19.159, -154.074, -94.9049, 92.6653
1.55909, -1, -16.3022, 6.21239, 19.1695, -154.123, -94.8877, 92.3758
1.5671, -1, -16.4627, 6.16945, 19.1799, -154.172, -94.8703, 92.0863
1.57516, -1, -16.6228, 6.12648, 19.1904, -154.222, -94.8524, 91.7963
1.5831, -1, -16.7826, 6.08358, 19.201, -154.272, -94.8344, 91.5061
1.59109, -1, -16.9421, 6.04065, 19.2116, -154.322, -94.8167, 91.2162
1.59915, -1, -17.1013, 5.99774, 19.2222, -154.372, -94.7992, 90.9262
1.60712, -1, -17.2604, 5.95488, 19.2328, -154.421, -94.7819, 90.636
1.61518, -1, -17.4195, 5.91208, 19.2433, -154.471, -94.7646, 90.3458
1.62315, -1, -17.5789, 5.86934, 19.254, -154.521, -94.7472, 90.0556
1.63109, -1, -17.7384, 5.82661, 19.2646, -154.57, -94.7296, 89.7654
1.64009, -1, -17.898, 5.78388, 19.2753, -154.62, -94.7117, 89.475
1.64819, -1, -18.0581, 5.74118, 19.2859, -154.671, -94.6936, 89.1845
1.65511, -1, -18.2186, 5.69846, 19.2964, -154.72, -94.6756, 88.8941
1.66411, -1, -18.3796, 5.6557, 19.3071, -154.77, -94.658, 88.6035
1.67112, -1, -18.541, 5.61284, 19.3178, -154.82, -94.6406, 88.3125
1.67917, -1, -18.7025, 5.56993, 19.3285, -154.87, -94.6234, 88.0217
1.68802, -1, -18.8641, 5.52699, 19.3391, -154.92, -94.606, 87.731
1.69614, -1, -19.0258, 5.48403, 19.3496, -154.97, -94.5886, 87.4398
1.7032, -1, -19.1873, 5.44095, 19.3602, -155.02, -94.5708, 87.1485
1.71194, -1, -19.3486, 5.39784, 19.3708, -155.07, -94.5526, 86.8573
1.72022, -1, -19.5098, 5.35473, 19.3813, -155.12, -94.5347, 86.5657
1.72709, -1, -19.6706, 5.31154, 19.3918, -155.169, -94.5169, 86.2742
1.73641, -1, -19.8312, 5.26848, 19.4024, -155.22, -94.4994, 85.9825
1.74312, -1, -19.9916, 5.22538, 19.413, -155.27, -94.482, 85.6911
1.75121, -1, -20.1516, 5.18231, 19.4237, -155.32, -94.4646, 85.3997
1.76099, -1, -20.3114, 5.13941, 19.4345, -155.37, -94.4472, 85.108
1.76814, -1, -20.4714, 5.09649, 19.4453, -155.42, -94.4294, 84.8163
1.77541, -1, -20.6315, 5.05347, 19.456, -155.47, -94.4113, 84.5247
1.785, -1, -20.7918, 5.01059, 19.4666, -155.52, -94.3933, 84.2328
1.7921, -1, -20.9526, 4.96773, 19.4772, -155.57, -94.3756, 83.9407
1.79964, -1, -21.1137, 4.92469, 19.4879, -155.62, -94.3582, 83.6487
1.8094, -1, -21.2753, 4.88166, 19.4984, -155.671, -94.3409, 83.3568
1.81567, -1, -21.4373, 4.83856, 19.509, -155.721, -94.3237, 83.0647
1.82425, -1, -21.5994, 4.79532, 19.5196, -155.771, -94.3064, 82.7721
1.83246, -1, -21.7617, 4.75217, 19.5304, -155.822, -94.2888, 82.4795
1.83973, -1, -21.9241, 4.70888, 19.5411, -155.871, -94.271, 82.1871
1.84829, -1, -22.0864, 4.66552, 19.5518, -155.922, -94.253, 81.8945
1.85509, -1, -22.1677, 4.64386, 19.5572, -155.947, -94.2441, 81.748
1.86315, -1, -22.3301, 4.60055, 19.5678, -155.997, -94.2264, 81.4554
1.87218, -1, -22.5731, 4.5355, 19.5839, -156.073, -94.2002, 81.0165
1.87908, -1, -22.654, 4.5138, 19.5892, -156.098, -94.1915, 80.8701
1.88712, -1, -22.8155, 4.47045, 19.5998, -156.147, -94.1741, 80.5773
1.8964, -1, -23.0571, 4.40554, 19.6159, -156.223, -94.1474, 80.1379
1.90307, -1, -23.1376, 4.38391, 19.6212, -156.248, -94.1385, 79.9914
1.91112, -1, -23.2986, 4.34064, 19.6319, -156.298, -94.1203, 79.6982
1.9208, -1, -23.5399, 4.27588, 19.6481, -156.374, -94.093, 79.2581
1.93022, -1, -23.701, 4.23268, 19.6589, -156.424, -94.0753, 78.9649
1.93509, -1, -23.7816, 4.21108, 19.6643, -156.449, -94.0665, 78.8181
1.94462, -1, -24.0238, 4.14624, 19.6803, -156.525, -94.0403, 78.3777
1.95358, -1, -24.1857, 4.10291, 19.691, -156.576, -94.0229, 78.0837
1.95911, -1, -24.2669, 4.08124, 19.6963, -156.601, -94.0141, 77.9369
1.96862, -1, -24.4296, 4.03787, 19.707, -156.652, -93.9873, 77.4959
1.97607, -1, -24.5926, 3.99444, 19.7176, -156.702, -93.9782, 77.3489
1.98309, -1, -24.7557, 3.9509, 19.7282, -156.752, -93.9601, 77.0546
1.99207, -1, -24.9191, 3.90736, 19.7388, -156.803, -93.9422, 76.7608
2.00008, -1, -25.0825, 3.86384, 19.7496, -156.853, -93.9245, 76.4668
2.00807, -1, -25.2457, 3.82029, 19.7605, -156.903, -93.907, 76.1725
2.01607, -1, -25.4086, 3.77675, 19.7713, -156.954, -93.8895, 75.8782
2.02413, -1, -25.5713, 3.7331, 19.782, -157.004, -93.8719, 75.5839
2.03108, -1, -25.7339, 3.68947, 19.7927, -157.055, -93.8539, 75.2895
2.04007, -1, -25.8963, 3.64604, 19.8033, -157.105, -93.8357, 74.9949
2.04812, -1, -26.0584, 3.60256, 19.8141, -157.155, -93.8173, 74.7003
2.0561, -1, -26.2202, 3.55903, 19.8248, -157.206, -93.7991, 74.4057
2.06407, -1, -26.3818, 3.51569, 19.8355, -157.257, -93.7812, 74.1109
2.07213, -1, -26.5435, 3.47225, 19.8462, -157.307, -93.7635, 73.8158
2.07908, -1, -26.7054, 3.42882, 19.8569, -157.358, -93.746, 73.5209
2.08807, -1, -26.8677, 3.38534, 19.8678, -157.409, -93.7283, 73.2257
2.09617, -1, -27.0303, 3.3418, 19.8786, -157.459, -93.7104, 72.9305
2.10408, -1, -27.1932, 3.2982, 19.8895, -157.51, -93.6921, 72.6352
2.11207, -1, -27.3566, 3.25462, 19.9002, -157.561, -93.6739, 72.3401
2.12013, -1, -27.5203, 3.21088, 19.9109, -157.611, -93.6558, 72.0449
2.12707, -1, -27.6842, 3.16715, 19.9217, -157.662, -93.6379, 71.7494
2.13513, -1, -27.8482, 3.12348, 19.9324, -157.712, -93.6202, 71.4537
2.14307, -1, -28.0124, 3.07978, 19.9432, -157.763, -93.6026, 71.1583
2.15107, -1, -28.1765, 3.03605, 19.954, -157.814, -93.5848, 70.8625
2.16006, -1, -28.3406, 2.99232, 19.9647, -157.865, -93.5669, 70.5665
2.16817, -1, -28.5046, 2.9486, 19.9755, -157.915, -93.5487, 70.2706
2.17511, -1, -28.6681, 2.90495, 19.9864, -157.966, -93.5302, 69.9748
2.18407, -1, -28.8316, 2.86129, 19.9972, -158.017, -93.512, 69.6787
2.19214, -1, -28.9946, 2.81766, 20.008, -158.068, -93.494, 69.3822
2.19917, -1, -29.1572, 2.77404, 20.0187, -158.119, -93.4763, 69.0859
2.20724, -1, -29.32, 2.73039, 20.0295, -158.169, -93.4587, 68.7893
2.21517, -1, -29.4828, 2.68678, 20.0403, -158.221, -93.4411, 68.4926
2.22313, -1, -29.6457, 2.64307, 20.051, -158.272, -93.4231, 68.1958
2.23135, -1, -29.8087, 2.59933, 20.0618, -158.322, -93.4049, 67.8993
2.23911, -1, -29.9719, 2.55563, 20.0725, -158.374, -93.3865, 67.6026
2.24716, -1, -30.1352, 2.51185, 20.0834, -158.424, -93.3683, 67.3056
2.25518, -1, -30.2991, 2.46792, 20.0944, -158.475, -93.3503, 67.0086
2.26323, -1, -30.4634, 2.42399, 20.1053, -158.526, -93.3326, 66.7119
2.27145, -1, -30.6281, 2.38005, 20.1161, -158.577, -93.3149, 66.4148
2.27934, -1, -30.7931, 2.33609, 20.1268, -158.628, -93.2972, 66.1175
2.28743, -1, -30.9581, 2.29221, 20.1376, -158.679, -93.2793, 65.8202
2.29558, -1, -31.123, 2.24822, 20.1485, -158.73, -93.2609, 65.523
2.30419, -1, -31.2879, 2.20425, 20.1592, -158.781, -93.2424, 65.2256
2.31159, -1, -31.4527, 2.16044, 20.17, -158.832, -93.2241, 64.9279
2.32016, -1, -31.6174, 2.1165, 20.1807, -158.883, -93.206, 64.6302
2.32764, -1, -31.7817, 2.07254, 20.1916, -158.935, -93.1883, 64.3324
2.33619, -1, -31.9459, 2.0287, 20.2025, -158.986, -93.1706, 64.0344
2.34377, -1, -32.1098, 1.98479, 20.2135, -159.036, -93.1531, 63.7365
2.35229, -1, -32.2735, 1.94087, 20.2245, -159.088, -93.1352, 63.4387
2.3591, -1, -32.3553, 1.91892, 20.2299, -159.114, -93.1261, 63.2898
2.36811, -1, -32.6008, 1.85285, 20.2462, -159.19, -93.0986, 62.8427
2.37505, -1, -32.6828, 1.83082, 20.2516, -159.216, -93.0894, 62.6936
2.38422, -1, -32.9287, 1.76482, 20.268, -159.293, -93.0623, 62.2463
2.39111, -1, -33.0108, 1.74274, 20.2734, -159.318, -93.0534, 62.097
2.40035, -1, -33.2578, 1.67648, 20.2898, -159.395, -93.0266, 61.6492
2.40706, -1, -33.3403, 1.65441, 20.2952, -159.421, -93.0176, 61.4998
2.41645, -1, -33.5885, 1.58814, 20.3116, -159.498, -92.9907, 61.052
2.42307, -1, -33.6714, 1.56604, 20.3171, -159.524, -92.9815, 60.9027
2.43266, -1, -33.9199, 1.49981, 20.3334, -159.6, -92.9536, 60.4542
2.44059, -1, -34.0857, 1.45566, 20.3443, -159.651, -92.935, 60.1552
2.44863, -1, -34.2516, 1.41158, 20.3552, -159.703, -92.9168, 59.856
2.45666, -1, -34.4174, 1.36745, 20.3661, -159.754, -92.8988, 59.5565
2.4647, -1, -34.5832, 1.32331, 20.377, -159.806, -92.881, 59.2571
2.47279, -1, -34.7487, 1.27922, 20.3879, -159.857, -92.8633, 58.9578
2.48005, -1, -34.8312, 1.25715, 20.3933, -159.883, -92.8543, 58.8082
2.48712, -1, -34.9962, 1.213, 20.4042, -159.934, -92.8362, 58.5088
2.49614, -1, -35.1609, 1.16886, 20.4151, -159.986, -92.8177, 58.209
2.5041, -1, -35.3254, 1.12462, 20.4262, -160.037, -92.7992, 57.9094
2.51213, -1, -35.4896, 1.08052, 20.4373, -160.088, -92.7809, 57.6097
2.52011, -1, -35.6522, 1.03674, 20.4485, -160.14, -92.7627, 57.31
2.5281, -1, -35.8122, 0.993471, 20.4599, -160.191, -92.7449, 57.0112
2.53606, -1, -35.9683, 0.951255, 20.4716, -160.242, -92.7271, 56.7156
2.54411, -1, -36.1194, 0.910648, 20.4836, -160.291, -92.7097, 56.4257
2.55105, -1, -36.2631, 0.872152, 20.4955, -160.339, -92.6926, 56.1454
2.55913, -1, -36.3974, 0.836497, 20.5071, -160.384, -92.676, 55.8808
2.56707, -1, -36.5206, 0.803961, 20.5177, -160.425, -92.6607, 55.6383
2.57505, -1, -36.6311, 0.774715, 20.527, -160.461, -92.6472, 55.4235
2.58406, -1, -36.7272, 0.74936, 20.5346, -160.492, -92.636, 55.2414
2.59217, -1, -36.8087, 0.727709, 20.5399, -160.517, -92.627, 55.0942
2.60007, -1, -36.8764, 0.709765, 20.543, -160.537, -92.6203, 54.9821
2.60805, -1, -36.931, 0.695419, 20.5444, -160.551, -92.6156, 54.902
2.61611, -1, -36.9729, 0.684392, 20.5449, -160.56, -92.6126, 54.8478
2.62402, -1, -37.0036, 0.676278, 20.5446, -160.566, -92.6108, 54.8144
2.63215, -1, -37.0248, 0.670709, 20.5441, -160.569, -92.6098, 54.7952
2.63907, -1, -37.0382, 0.667348, 20.5437, -160.571, -92.6094, 54.7854
2.64701, 2, -37.0457, 0.665565, 20.5434, -160.572, -92.6091, 54.7808
2.65605, 2, -37.0485, 0.664734, 20.5433, -160.572, -92.609, 54.7786
2.66413, 2, -37.0486, 0.664382, 20.5433, -160.573, -92.6089, 54.7777
2.67108, 2, -37.0481, 0.664248, 20.5433, -160.573, -92.6089, 54.7773
2.67918, 2, -37.0479, 0.664191, 20.5433, -160.573, -92.6089, 54.7772
2.68713, 2, -37.0483, 0.664127, 20.5432, -160.573, -92.6089, 54.7771
2.69519, 2, -37.0492, 0.664082, 20.5432, -160.573, -92.6089, 54.7772
2.70321, 2, -37.0502, 0.663986, 20.5431, -160.573, -92.609, 54.7774
2.71115, 2, -37.0515, 0.663771, 20.5428, -160.573, -92.609, 54.7775
2.71917, 2, -37.0528, 0.663527, 20.5426, -160.573, -92.6091, 54.7776
2.72729, 2, -37.054, 0.663303, 20.5425, -160.573, -92.6091, 54.7778
2.73508, 2, -37.0549, 0.663114, 20.5423, -160.573, -92.6092, 54.778
2.74308, 2, -37.0554, 0.663004, 20.5421, -160.573, -92.6092, 54.7783
2.75117, 2, -37.0554, 0.662971, 20.5419, -160.573, -92.6093, 54.7785
2.75919, 2, -37.0548, 0.662975, 20.5418, -160.573, -92.6093, 54.7787
2.76722, 2, -37.0539, 0.66303, 20.5417, -160.573, -92.6093, 54.779
2.77558, 2, -37.0529, 0.663112, 20.5417, -160.573, -92.6093, 54.7792
2.78365, 2, -37.0513, 0.66321, 20.5417, -160.573, -92.6093, 54.7794
2.7921, 2, -37.0498, 0.663354, 20.5416, -160.573, -92.6094, 54.7796
2.79956, 2, -37.0487, 0.663406, 20.5415, -160.573, -92.6094, 54.7797
2.80822, 2, -37.048, 0.663445, 20.5415, -160.573, -92.6094, 54.7798
2.81557, 2, -37.0476, 0.663419, 20.5415, -160.573, -92.6094, 54.7799
2.82416, 2, -37.0476, 0.663383, 20.5415, -160.573, -92.6095, 54.7799
2.83213, 2, -37.0479, 0.663309, 20.5414, -160.573, -92.6095, 54.78
2.83963, 2, -37.0481, 0.66326, 20.5414, -160.573, -92.6094, 54.7801
2.84811, 2, -37.0486, 0.663204, 20.5414, -160.573, -92.6095, 54.7801
2.85592, 2, -37.0493, 0.663161, 20.5413, -160.573, -92.6095, 54.7801
2.86408, 2, -37.0502, 0.663148, 20.5413, -160.573, -92.6095, 54.7801
2.87109, 2, -37.0506, 0.663155, 20.5413, -160.573, -92.6095, 54.7802
2.88018, 2, -37.0515, 0.663195, 20.5413, -160.573, -92.6095, 54.7803
2.88704, 2, -37.0516, 0.663216, 20.5413, -160.573, -92.6095, 54.7803
2.89628, 2, -37.0518, 0.663255, 20.5413, -160.573, -92.6095, 54.7804
2.90305, 2, -37.0518, 0.663257, 20.5413, -160.573, -92.6095, 54.7804
2.91104, 2, -37.0516, 0.663271, 20.5413, -160.573, -92.6094, 54.7805
2.92058, 2, -37.0509, 0.663272, 20.5413, -160.573, -92.6095, 54.7805
2.9289, 2, -37.0506, 0.663253, 20.5413, -160.573, -92.6096, 54.7805
2.93656, 2, -37.0503, 0.663245, 20.5413, -160.573, -92.6095, 54.7806
2.94461, 2, -37.0501, 0.663212, 20.5413, -160.573, -92.6096, 54.7806
2.95303, 2, -37.0501, 0.663182, 20.5413, -160.573, -92.6096, 54.7807
2.96058, 2, -37.05, 0.663181, 20.5413, -160.573, -92.6096, 54.7807
2.9689, 2, -37.05, 0.663193, 20.5413, -160.573, -92.6096, 54.7808
2.97687, 2, -37.0501, 0.663199, 20.5412, -160.573, -92.6097, 54.7808
2.98404, 2, -37.0501, 0.6632, 20.5412, -160.572, -92.6097, 54.7809
2.99209, 2, -37.0502, 0.663213, 20.5412, -160.572, -92.6096, 54.7809
3.00095, 2, -37.0504, 0.66323, 20.5412, -160.572, -92.6097, 54.781
3.00805, 2, -37.0506, 0.66324, 20.5412, -160.572, -92.6097, 54.781
3.01604, 2, -37.0508, 0.663244, 20.5412, -160.572, -92.6097, 54.7811
3.0241, 2, -37.0508, 0.663253, 20.5412, -160.572, -92.6097, 54.7811
3.03108, 2, -37.0508, 0.663244, 20.5412, -160.572, -92.6097, 54.7812
3.03912, 2, -37.0508, 0.663241, 20.5412, -160.572, -92.6097, 54.7812
3.04703, 2, -37.0507, 0.663221, 20.5412, -160.572, -92.6097, 54.7812
3.05604, 2, -37.0507, 0.663201, 20.5411, -160.572, -92.6097, 54.7813
3.06406, 2, -37.0507, 0.663184, 20.5411, -160.572, -92.6098, 54.7813
3.07214, 2, -37.0507, 0.663195, 20.5411, -160.572, -92.6097, 54.7813
3.07905, 2, -37.0507, 0.6632, 20.5411, -160.572, -92.6098, 54.7813
3.08812, 2, -37.0506, 0.663213, 20.5411, -160.572, -92.6098, 54.7814
3.0961, 2, -37.0507, 0.663226, 20.5411, -160.572, -92.6097, 54.7814
3.10405, 2, -37.0506, 0.663232, 20.5411, -160.572, -92.6097, 54.7815
3.11209, 2, -37.0506, 0.663235, 20.5411, -160.572, -92.6098, 54.7816
3.12187, 2, -37.0506, 0.663244, 20.5411, -160.572, -92.6098, 54.7816
3.12803, 2, -37.0506, 0.663258, 20.5411, -160.572, -92.6098, 54.7817
3.1351, 2, -37.0506, 0.663266, 20.5411, -160.572, -92.6098, 54.7817
3.14306, 2, -37.0506, 0.663275, 20.5411, -160.572, -92.6098, 54.7817
3.15104, 2, -37.0506, 0.663267, 20.5411, -160.572, -92.6098, 54.7818
3.15911, 2, -37.0506, 0.663263, 20.5411, -160.572, -92.6098, 54.7817
3.16705, 2, -37.0505, 0.663254, 20.5411, -160.572, -92.6098, 54.7818
3.17506, 2, -37.0506, 0.663227, 20.5411, -160.572, -92.6098, 54.7818
3.18404, 2, -37.0506, 0.663233, 20.541, -160.572, -92.6098, 54.7818
3.19215, 2, -37.0506, 0.663217, 20.541, -160.572, -92.6099, 54.7819
3.19919, 2, -37.0505, 0.663228, 20.541, -160.572, -92.6098, 54.782
3.2072, 2, -37.0505, 0.663233, 20.541, -160.572, -92.6099, 54.782
3.21514, 2, -37.0505, 0.663243, 20.541, -160.572, -92.6099, 54.782
3.22314, 2, -37.0505, 0.663265, 20.541, -160.572, -92.6099, 54.7821
3.2312, 2, -37.0505, 0.663262, 20.541, -160.572, -92.6099, 54.782
3.2391, 2, -37.0505, 0.663273, 20.541, -160.572, -92.6099, 54.782
3.24706, 2, -37.0505, 0.663279, 20.541, -160.572, -92.6099, 54.7821
3.25514, 2, -37.0505, 0.663281, 20.541, -160.572, -92.6099, 54.7821
3.26314, 2, -37.0505, 0.663282, 20.541, -160.572, -92.6099, 54.7822
3.27137, 2, -37.0505, 0.663282, 20.541, -160.572, -92.6099, 54.7822
3.27936, 2, -37.0504, 0.663263, 20.5409, -160.572, -92.6099, 54.7822
3.28733, 2, -37.0503, 0.663249, 20.5409, -160.572, -92.6099, 54.7822
3.29547, 2, -37.0503, 0.663243, 20.5409, -160.572, -92.6099, 54.7822
3.3035, 2, -37.0504, 0.663247, 20.5409, -160.572, -92.6099, 54.7823
3.31223, 2, -37.0503, 0.663267, 20.5409, -160.572, -92.6099, 54.7823
3.31963, 2, -37.0503, 0.663275, 20.5409, -160.572, -92.6099, 54.7824
3.32813, 2, -37.0503, 0.663279, 20.5409, -160.572, -92.6099, 54.7824
3.33563, 2, -37.0503, 0.663269, 20.5409, -160.572, -92.6099, 54.7824
3.34416, 2, -37.0503, 0.663277, 20.5409, -160.572, -92.61, 54.7824
3.35168, 2, -37.0503, 0.663279, 20.5409, -160.572, -92.61, 54.7824
3.36015, 2, -37.0503, 0.663274, 20.5409, -160.572, -92.6099, 54.7824
3.36707, 2, -37.0503, 0.663281, 20.5409, -160.572, -92.61, 54.7824
3.37606, 2, -37.0503, 0.66328, 20.5409, -160.572, -92.6099, 54.7825
3.38302, 2, -37.0503, 0.663274, 20.5409, -160.572, -92.6099, 54.7825
3.39231, 2, -37.0503, 0.663272, 20.5409, -160.572, -92.61, 54.7824
3.39909, 2, -37.0503, 0.663268, 20.5409, -160.572, -92.61, 54.7824
3.40834, 2, -37.0502, 0.663255, 20.5408, -160.572, -92.61, 54.7825
3.41503, 2, -37.0502, 0.66325, 20.5408, -160.572, -92.61, 54.7825
3.42441, 2, -37.0502, 0.663269, 20.5408, -160.572, -92.6099, 54.7825
3.43101, 2, -37.0502, 0.663274, 20.5408, -160.572, -92.61, 54.7825
3.44063, 2, -37.0502, 0.663298, 20.5408, -160.572, -92.61, 54.7826
3.44856, 2, -37.0502, 0.66329, 20.5408, -160.572, -92.61, 54.7825
3.45665, 2, -37.0501, 0.663305, 20.5408, -160.572, -92.61, 54.7826
3.46466, 2, -37.0502, 0.663322, 20.5408, -160.572, -92.6099, 54.7826
3.47272, 2, -37.0501, 0.663308, 20.5408, -160.572, -92.6099, 54.7826
3.48061, 2, -37.0501, 0.6633, 20.5408, -160.572, -92.61, 54.7826
3.48802, 2, -37.0501, 0.663309, 20.5408, -160.572, -92.61, 54.7826
3.49602, 2, -37.0501, 0.663295, 20.5408, -160.572, -92.61, 54.7826
3.50408, 2, -37.0501, 0.663307, 20.5408, -160.572, -92.61, 54.7827
3.51209, 2, -37.0501, 0.663294, 20.5408, -160.572, -92.61, 54.7826
3.51998, 2, -37.0501, 0.663288, 20.5408, -160.572, -92.61, 54.7826
3.52806, 2, -37.05, 0.663285, 20.5408, -160.572, -92.61, 54.7826
3.53602, 2, -37.05, 0.663295, 20.5408, -160.572, -92.61, 54.7826
3.54402, 2, -37.05, 0.663325, 20.5408, -160.572, -92.61, 54.7826
3.55213, 2, -37.05, 0.663321, 20.5408, -160.572, -92.6101, 54.7826
3.56001, 2, -37.05, 0.663326, 20.5408, -160.572, -92.61, 54.7827
3.56803, 2, -37.05, 0.663332, 20.5407, -160.572, -92.61, 54.7827
3.57607, 2, -37.0499, 0.663331, 20.5407, -160.572, -92.6101, 54.7827
3.58403, 2, -37.05, 0.663334, 20.5407, -160.572, -92.6101, 54.7827
3.59207, 2, -37.0499, 0.663314, 20.5407, -160.572, -92.6101, 54.7828
3.60008, 2, -37.0499, 0.663339, 20.5407, -160.572, -92.6101, 54.7828
3.60976, 2, -37.0499, 0.663327, 20.5407, -160.572, -92.61, 54.7828
3.61601, 2, -37.0499, 0.663311, 20.5407, -160.572, -92.61, 54.7828
3.62409, 2, -37.0499, 0.663325, 20.5407, -160.572, -92.6101, 54.7828
3.63207, 2, -37.0498, 0.663321, 20.5407, -160.572, -92.61, 54.7828
3.63917, 2, -37.0498, 0.663326, 20.5407, -160.572, -92.61, 54.7828
3.64718, 2, -37.0498, 0.663321, 20.5407, -160.572, -92.6101, 54.7828
3.656, 2, -37.0498, 0.663349, 20.5407, -160.572, -92.61, 54.7828
3.66409, 2, -37.0497, 0.663355, 20.5407, -160.572, -92.6101, 54.7829
3.67206, 2, -37.0497, 0.663353, 20.5407, -160.572, -92.6101, 54.7829
3.67913, 2, -37.0497, 0.663359, 20.5407, -160.572, -92.6101, 54.7828
3.68719, 2, -37.0497, 0.663361, 20.5407, -160.572, -92.6101, 54.7828
3.69511, 2, -37.0497, 0.663337, 20.5406, -160.572, -92.6101, 54.7829
3.70402, 2, -37.0497, 0.663326, 20.5406, -160.572, -92.6102, 54.7829
3.7121, 4, -37.0497, 0.663326, 20.5406, -160.572, -92.6101, 54.7828
3.71914, 4, -37.0497, 0.663339, 20.5406, -160.572, -92.6101, 54.7828
3.72719, 4, -37.0496, 0.663335, 20.5406, -160.571, -92.6101, 54.7829
3.73502, 4, -37.0496, 0.663336, 20.5406, -160.571, -92.6101, 54.7829
3.74313, 4, -37.0496, 0.663344, 20.5406, -160.571, -92.6101, 54.7829
3.75111, 4, -37.0496, 0.663348, 20.5406, -160.571, -92.6102, 54.7829
3.75917, 4, -37.0496, 0.663349, 20.5406, -160.571, -92.6101, 54.7829
3.76715, 4, -37.0496, 0.66335, 20.5406, -160.571, -92.6101, 54.7829
3.77559, 4, -37.0496, 0.663358, 20.5406, -160.571, -92.6101, 54.7829
3.78409, 4, -37.0495, 0.663379, 20.5406, -160.571, -92.6101, 54.7829
3.79207, 4, -37.0495, 0.663376, 20.5406, -160.571, -92.6101, 54.7829
3.79981, 4, -37.0495, 0.663379, 20.5406, -160.571, -92.6101, 54.783
3.80818, 4, -37.0495, 0.663353, 20.5406, -160.571, -92.6101, 54.7829
3.83366, 4, -37.0494, 0.663376, 20.5405, -160.571, -92.6101, 54.7829
3.84008, 4, -37.0494, 0.663378, 20.5405, -160.571, -92.6101, 54.7829
3.84142, 4, -37.0494, 0.663378, 20.5405, -160.571, -92.6101, 54.7829
3.8427, 4, -37.0494, 0.663378, 20.5405, -160.571, -92.6101, 54.7829
3.84756, 4, -37.0494, 0.663384, 20.5405, -160.571, -92.6101, 54.7829
3.85601, 4, -37.0494, 0.663392, 20.5405, -160.571, -92.6101, 54.7829
3.86403, 4, -37.0494, 0.663394, 20.5405, -160.571, -92.6101, 54.7829
3.87104, 4, -37.0493, 0.663388, 20.5405, -160.571, -92.6101, 54.7829
3.88007, 4, -37.0476, 0.662989, 20.5406, -160.571, -92.6101, 54.7829
3.88824, 4, -37.044, 0.66162, 20.5409, -160.571, -92.6101, 54.783
3.895, 4, -37.0414, 0.660438, 20.5413, -160.571, -92.6102, 54.783
3.90428, 4, -37.0314, 0.654998, 20.5442, -160.571, -92.6102, 54.783
3.91109, 4, -37.0276, 0.652648, 20.546, -160.571, -92.6102, 54.7829
3.92038, 4, -37.0142, 0.643258, 20.5546, -160.569, -92.6101, 54.7829
3.92844, 5, -37.0032, 0.634869, 20.5634, -160.567, -92.6101, 54.7828
3.93507, 5, -36.9975, 0.630201, 20.5686, -160.566, -92.6101, 54.7827
3.9446, 5, -36.9795, 0.614226, 20.5873, -160.562, -92.6099, 54.7826
3.95263, 5, -36.9656, 0.601845, 20.6018, -160.559, -92.6097, 54.7826
3.9606, 5, -36.9493, 0.588093, 20.6172, -160.556, -92.6096, 54.7826
3.96866, 5, -36.9312, 0.573213, 20.6332, -160.553, -92.6095, 54.7825
3.97758, 5, -36.9217, 0.557553, 20.6498, -160.549, -92.6094, 54.7824
3.984, 5, -36.9021, 0.549556, 20.6581, -160.547, -92.6093, 54.7824
3.99265, 5, -36.8817, 0.533593, 20.6747, -160.544, -92.6091, 54.7822
4.00001, 5, -36.8611, 0.517634, 20.6912, -160.54, -92.609, 54.7822
4.00709, 5, -36.8405, 0.501386, 20.7079, -160.537, -92.6087, 54.7822
4.01607, 5, -36.82, 0.484918, 20.7245, -160.533, -92.6084, 54.782
4.024, 5, -36.7994, 0.468747, 20.7411, -160.529, -92.608, 54.7819
4.03211, 5, -36.7791, 0.452728, 20.7581, -160.525, -92.6076, 54.7817
4.04001, 5, -36.7588, 0.436573, 20.7752, -160.522, -92.6071, 54.7816
4.048, 5, -36.7383, 0.420361, 20.7921, -160.518, -92.6067, 54.7815
4.05606, 5, -36.7177, 0.404431, 20.809, -160.514, -92.6062, 54.7813
4.064, 5, -36.697, 0.388532, 20.8259, -160.51, -92.6058, 54.7811
4.07208, 5, -36.6767, 0.372383, 20.8426, -160.506, -92.6053, 54.781
4.08188, 5, -36.6465, 0.348191, 20.8679, -160.5, -92.6045, 54.7808
4.088, 5, -36.6364, 0.340206, 20.8764, -160.499, -92.6043, 54.7808
4.09501, 5, -36.6163, 0.324143, 20.8934, -160.495, -92.6037, 54.7807
4.104, 5, -36.596, 0.307818, 20.9102, -160.491, -92.6032, 54.7807
4.113, 5, -36.5755, 0.291566, 20.9271, -160.487, -92.6027, 54.7806
4.12443, 5, -36.5441, 0.267368, 20.9523, -160.482, -92.6018, 54.7804
4.12697, 5, -36.5337, 0.259229, 20.9607, -160.48, -92.6016, 54.7804
4.13601, 5, -36.513, 0.242774, 20.9777, -160.477, -92.601, 54.7803
4.14417, 5, -36.4924, 0.226506, 20.9948, -160.473, -92.6005, 54.7802
4.15101, 5, -36.4717, 0.21046, 21.0116, -160.47, -92.5999, 54.7802
4.15999, 5, -36.4511, 0.194384, 21.0283, -160.466, -92.5994, 54.78
4.16807, 5, -36.4306, 0.178143, 21.0452, -160.463, -92.5988, 54.7798
4.17599, 5, -36.41, 0.162189, 21.0618, -160.46, -92.5983, 54.7795
4.18401, 5, -36.3893, 0.146287, 21.0786, -160.456, -92.5978, 54.7793
4.19214, 5, -36.3687, 0.130173, 21.0955, -160.453, -92.5972, 54.779
4.19909, 5, -36.3483, 0.113931, 21.1124, -160.45, -92.5967, 54.7787
4.208, 5, -36.3277, 0.0979442, 21.1292, -160.446, -92.5962, 54.7784
4.2161, 5, -36.3073, 0.0819865, 21.146, -160.443, -92.5957, 54.7781
4.22311, 5, -36.2868, 0.0658083, 21.1628, -160.44, -92.5951, 54.7777
4.23206, 5, -36.2662, 0.0495378, 21.1792, -160.436, -92.5946, 54.7773
4.24009, 5, -36.2454, 0.033497, 21.196, -160.433, -92.5941, 54.7768
4.24799, 5, -36.2245, 0.0174363, 21.2129, -160.429, -92.5936, 54.7763
4.2551, 5, -36.2036, 0.00119833, 21.2295, -160.426, -92.5931, 54.7759
4.26391, 5, -36.1828, -0.0150104, 21.2461, -160.422, -92.5926, 54.7754
4.27206, 5, -36.1619, -0.0309492, 21.263, -160.419, -92.5921, 54.775
4.27928, 5, -36.1411, -0.0468628, 21.2798, -160.415, -92.5916, 54.7745
4.28803, 5, -36.1204, -0.0629768, 21.2962, -160.412, -92.5911, 54.7741
4.296, 5, -36.0997, -0.0789806, 21.313, -160.408, -92.5906, 54.7736
4.30409, 5, -36.0788, -0.0947687, 21.3299, -160.404, -92.5902, 54.7731
4.31229, 5, -36.0581, -0.110683, 21.3464, -160.401, -92.5897, 54.7727
4.31962, 5, -36.0375, -0.12679, 21.3629, -160.397, -92.5892, 54.7722
4.32816, 5, -36.0169, -0.142792, 21.3795, -160.393, -92.5887, 54.7719
4.33631, 5, -35.9961, -0.158634, 21.396, -160.389, -92.5882, 54.7715
4.3437, 5, -35.9755, -0.174561, 21.4124, -160.385, -92.5877, 54.7711
4.35223, 5, -35.9549, -0.190681, 21.4292, -160.381, -92.5873, 54.7708
4.36028, 5, -35.9445, -0.198693, 21.4376, -160.379, -92.587, 54.7706
4.36703, 5, -35.9235, -0.214534, 21.4542, -160.376, -92.5866, 54.7702
4.37609, 5, -35.8922, -0.238435, 21.479, -160.37, -92.5859, 54.7699
4.383, 5, -35.8818, -0.246486, 21.4873, -160.368, -92.5856, 54.7697
4.39104, 5, -35.8608, -0.26252, 21.5037, -160.363, -92.5851, 54.7694
4.40022, 5, -35.8294, -0.286124, 21.5282, -160.358, -92.5844, 54.7691
4.40698, 5, -35.8189, -0.294004, 21.5365, -160.356, -92.5842, 54.769
4.41501, 5, -35.7981, -0.309957, 21.5532, -160.352, -92.5837, 54.7688
4.42434, 5, -35.7665, -0.333704, 21.5777, -160.346, -92.583, 54.7685
4.43103, 5, -35.756, -0.341544, 21.586, -160.344, -92.5828, 54.7684
4.439, 5, -35.7352, -0.357342, 21.6027, -160.34, -92.5823, 54.7683
4.44853, 5, -35.704, -0.38134, 21.6271, -160.335, -92.5816, 54.7681
4.45732, 5, -35.6831, -0.3971, 21.6435, -160.331, -92.5812, 54.768
4.46299, 5, -35.6727, -0.404962, 21.6518, -160.329, -92.581, 54.7679
4.47258, 5, -35.6415, -0.428742, 21.6765, -160.324, -92.5803, 54.7677
4.48139, 5, -35.631, -0.436745, 21.6927, -160.321, -92.5799, 54.7676
4.48698, 5, -35.61, -0.452563, 21.7009, -160.319, -92.5796, 54.7676
4.49708, 5, -35.5784, -0.476127, 21.7253, -160.313, -92.5789, 54.7674
4.50305, 5, -35.568, -0.484065, 21.7333, -160.312, -92.5787, 54.7674
4.51203, 5, -35.547, -0.500024, 21.7495, -160.308, -92.5782, 54.7674
4.51996, 5, -35.526, -0.515745, 21.766, -160.305, -92.5777, 54.7673
4.52799, 5, -35.505, -0.531339, 21.7823, -160.301, -92.5773, 54.7673
4.53501, 5, -35.4841, -0.547033, 21.7985, -160.297, -92.5768, 54.7673
4.54399, 5, -35.4631, -0.562842, 21.8148, -160.294, -92.5763, 54.7673
4.55203, 5, -35.442, -0.578425, 21.8311, -160.29, -92.5758, 54.7673
4.559, 5, -35.421, -0.593951, 21.8471, -160.287, -92.5754, 54.7674
4.56798, 5, -35.3999, -0.609671, 21.8632, -160.283, -92.575, 54.7673
4.57603, 5, -35.3788, -0.625538, 21.8795, -160.279, -92.5746, 54.7673
4.58301, 5, -35.3578, -0.641159, 21.8956, -160.276, -92.5741, 54.7673
4.59198, 5, -35.3368, -0.656692, 21.9117, -160.272, -92.5736, 54.7673
4.59899, 5, -35.3156, -0.672411, 21.928, -160.268, -92.5732, 54.7673
4.60811, 5, -35.2944, -0.68827, 21.9442, -160.264, -92.5727, 54.7673
4.61586, 5, -35.2731, -0.703862, 21.9601, -160.261, -92.5722, 54.7673
4.62406, 5, -35.252, -0.719357, 21.9762, -160.257, -92.5717, 54.7673
4.63303, 5, -35.2308, -0.735066, 21.9925, -160.253, -92.5713, 54.7673
4.64, 5, -35.2096, -0.750843, 22.0086, -160.249, -92.5708, 54.7673
4.64811, 5, -35.1884, -0.766319, 22.0244, -160.245, -92.5703, 54.7673
4.65516, 5, -35.1673, -0.781666, 22.0404, -160.241, -92.5699, 54.7673
4.66298, 5, -35.1461, -0.797218, 22.0564, -160.237, -92.5695, 54.7674
4.67198, 5, -35.1249, -0.81288, 22.0722, -160.233, -92.569, 54.7674
4.68, 5, -35.1038, -0.828242, 22.0882, -160.228, -92.5685, 54.7674
4.68806, 5, -35.0827, -0.843651, 22.1044, -160.224, -92.568, 54.7674
4.69598, 5, -35.0616, -0.859298, 22.1204, -160.22, -92.5675, 54.7674
4.70398, 5, -35.0405, -0.875039, 22.1362, -160.216, -92.5671, 54.7675
4.7121, 5, -35.0195, -0.890538, 22.1522, -160.212, -92.5666, 54.7675
4.71909, 5, -34.9984, -0.905945, 22.168, -160.208, -92.5661, 54.7676
4.72868, 5, -34.9771, -0.921509, 22.1836, -160.204, -92.5657, 54.7676
4.73597, 5, -34.9559, -0.937216, 22.1995, -160.2, -92.5652, 54.7676
4.74397, 5, -34.9347, -0.952622, 22.2155, -160.196, -92.5648, 54.7676
4.75282, 5, -34.9134, -0.967939, 22.2314, -160.192, -92.5642, 54.7677
4.75999, 5, -34.8921, -0.983471, 22.2471, -160.189, -92.5638, 54.7678
4.76797, 5, -34.8708, -0.999081, 22.263, -160.185, -92.5633, 54.7678
4.77682, 5, -34.8496, -1.01438, 22.2789, -160.181, -92.5628, 54.7679
4.784, 5, -34.8282, -1.02958, 22.2945, -160.178, -92.5623, 54.7679
4.79197, 5, -34.8068, -1.04494, 22.3103, -160.174, -92.5619, 54.768
4.80079, 5, -34.7856, -1.06046, 22.3263, -160.17, -92.5614, 54.768
4.80805, 5, -34.7643, -1.07575, 22.3421, -160.167, -92.5609, 54.768
4.81548, 5, -34.7429, -1.09102, 22.3576, -160.163, -92.5604, 54.7681
4.82485, 5, -34.7215, -1.10646, 22.3733, -160.16, -92.56, 54.7682
4.83217, 5, -34.7003, -1.12204, 22.389, -160.156, -92.5594, 54.7683
4.83959, 5, -34.6788, -1.1374, 22.4045, -160.152, -92.559, 54.7684
4.85011, 5, -34.6574, -1.15267, 22.4202, -160.149, -92.5585, 54.7686
4.85624, 5, -34.6361, -1.1681, 22.436, -160.145, -92.558, 54.7688
4.86297, 5, -34.6254, -1.17589, 22.444, -160.143, -92.5578, 54.7689
4.872, 5, -34.5934, -1.19885, 22.4673, -160.138, -92.557, 54.7693
4.88008, 5, -34.5721, -1.21407, 22.483, -160.134, -92.5566, 54.7696
4.88696, 5, -34.5614, -1.22174, 22.4908, -160.132, -92.5563, 54.7697
4.89624, 5, -34.5294, -1.2449, 22.5139, -160.126, -92.5555, 54.7703
4.90312, 5, -34.5186, -1.25252, 22.5216, -160.124, -92.5553, 54.7706
4.91098, 5, -34.4971, -1.26761, 22.5373, -160.12, -92.5548, 54.7711
4.92037, 5, -34.4651, -1.29038, 22.5608, -160.114, -92.5541, 54.772
4.92699, 5, -34.4543, -1.29804, 22.5685, -160.113, -92.5539, 54.7724
4.93638, 5, -34.4221, -1.32078, 22.5919, -160.106, -92.5532, 54.7734
4.94457, 5, -34.4006, -1.33587, 22.6075, -160.102, -92.5527, 54.7742
4.95294, 5, -34.3791, -1.35116, 22.6228, -160.098, -92.5522, 54.775
4.96053, 5, -34.3575, -1.36657, 22.6382, -160.094, -92.5517, 54.7759
4.96861, 5, -34.336, -1.38174, 22.654, -160.089, -92.5512, 54.7769
4.97898, 5, -34.3145, -1.39682, 22.6696, -160.085, -92.5507, 54.7778
4.98461, 5, -34.3038, -1.4044, 22.6772, -160.081, -92.5502, 54.7788
4.99198, 5, -34.2823, -1.41973, 22.6926, -160.079, -92.5499, 54.7793
5.00001, 5, -34.2608, -1.435, 22.7081, -160.074, -92.5494, 54.7803
5.00796, 5, -34.2393, -1.45002, 22.7234, -160.07, -92.5489, 54.7813
5.01607, 5, -34.2178, -1.46508, 22.7386, -160.066, -92.5484, 54.7823
5.02417, 5, -34.1961, -1.48031, 22.7541, -160.062, -92.5479, 54.7833
5.03099, 5, -34.1746, -1.49555, 22.7698, -160.058, -92.5474, 54.7844
5.03996, 5, -34.1532, -1.51054, 22.7853, -160.053, -92.5469, 54.7854
5.04798, 5, -34.1317, -1.5255, 22.8006, -160.049, -92.5464, 54.7864
5.056, 5, -34.1101, -1.5406, 22.816, -160.045, -92.5459, 54.7874
5.06396, 5, -34.0886, -1.55579, 22.8313, -160.041, -92.5454, 54.7885
5.07196, 5, -34.0671, -1.57072, 22.8464, -160.038, -92.5449, 54.7895
5.08002, 5, -34.0453, -1.58566, 22.8616, -160.034, -92.5444, 54.7905
5.08797, 5, -34.0237, -1.60082, 22.8771, -160.03, -92.5438, 54.7916
5.09597, 5, -34.0022, -1.61606, 22.8926, -160.026, -92.5433, 54.7926
5.10403, 5, -33.9806, -1.63104, 22.9077, -160.022, -92.5429, 54.7935
5.11196, 5, -33.959, -1.64593, 22.9231, -160.018, -92.5423, 54.7945
5.12097, 5, -33.9373, -1.66097, 22.9385, -160.014, -92.5418, 54.7956
5.12797, 5, -33.9157, -1.67611, 22.9536, -160.011, -92.5413, 54.7966
5.13697, 5, -33.8938, -1.69099, 22.9687, -160.007, -92.5408, 54.7975
5.14476, 5, -33.872, -1.70581, 22.9841, -160.003, -92.5403, 54.7985
5.152, 5, -33.8503, -1.72078, 22.9995, -159.999, -92.5398, 54.7995
5.15996, 5, -33.8287, -1.73592, 23.0145, -159.995, -92.5393, 54.8005
5.16898, 5, -33.807, -1.75085, 23.0296, -159.991, -92.5388, 54.8015
5.17511, 5, -33.7853, -1.76563, 23.0448, -159.987, -92.5382, 54.8026
5.18308, 5, -33.7637, -1.78053, 23.0598, -159.983, -92.5377, 54.8036
5.19278, 5, -33.7419, -1.79562, 23.0747, -159.979, -92.5371, 54.8045
5.19999, 5, -33.7201, -1.81056, 23.09, -159.975, -92.5366, 54.8056
5.20797, 5, -33.6983, -1.82537, 23.1053, -159.971, -92.5361, 54.8066
5.21674, 5, -33.6766, -1.84026, 23.1204, -159.967, -92.5356, 54.8076
5.22396, 5, -33.655, -1.85533, 23.1354, -159.963, -92.535, 54.8086
5.23196, 5, -33.6333, -1.87031, 23.1505, -159.958, -92.5345, 54.8096
5.24072, 5, -33.6117, -1.88507, 23.1654, -159.954, -92.534, 54.8106
5.24799, 5, -33.59, -1.89986, 23.1802, -159.95, -92.5335, 54.8117
5.25596, 5, -33.568, -1.91479, 23.1951, -159.945, -92.533, 54.8127
5.26584, 5, -33.5462, -1.92973, 23.2104, -159.941, -92.5325, 54.8137
5.27195, 5, -33.5244, -1.9444, 23.2255, -159.936, -92.532, 54.8148
5.28003, 5, -33.5024, -1.95916, 23.2403, -159.932, -92.5315, 54.8159
5.28799, 5, -33.4806, -1.97413, 23.2553, -159.928, -92.5309, 54.8169
5.29596, 5, -33.4588, -1.98912, 23.2704, -159.923, -92.5304, 54.818
5.30403, 5, -33.4369, -2.00391, 23.2852, -159.919, -92.5298, 54.8191
5.31201, 5, -33.4149, -2.01869, 23.3001, -159.915, -92.5292, 54.8201
5.32024, 5, -33.3931, -2.03369, 23.3153, -159.91, -92.5286, 54.8211
5.32959, 5, -33.3713, -2.04882, 23.3305, -159.906, -92.5279, 54.8221
5.3355, 5, -33.3494, -2.06374, 23.3454, -159.902, -92.5272, 54.823
5.34406, 5, -33.3277, -2.07873, 23.3604, -159.898, -92.5265, 54.8237
5.35213, 5, -33.306, -2.09399, 23.3756, -159.893, -92.5255, 54.8243
5.36034, 5, -33.2952, -2.10172, 23.3832, -159.891, -92.5245, 54.8247
5.36813, 5, -33.2626, -2.12473, 23.4059, -159.885, -92.5233, 54.8252
5.37496, 6, -33.2518, -2.13237, 23.4136, -159.883, -92.5227, 54.8253
5.38478, 6, -33.2196, -2.15573, 23.4373, -159.876, -92.5206, 54.8256
5.39097, 6, -33.2089, -2.16367, 23.4451, -159.874, -92.5198, 54.8256
5.40013, 6, -33.1767, -2.1874, 23.4685, -159.867, -92.5174, 54.8257
5.40695, 6, -33.166, -2.19529, 23.4764, -159.864, -92.5164, 54.8257
5.41495, 6, -33.1449, -2.21131, 23.4923, -159.859, -92.5145, 54.8257
5.42427, 6, -33.113, -2.23588, 23.5159, -159.852, -92.5115, 54.8256
5.43099, 6, -33.1023, -2.24402, 23.5239, -159.849, -92.5105, 54.8255
5.43913, 6, -33.0811, -2.26027, 23.5402, -159.844, -92.5082, 54.8254
5.44843, 6, -33.06, -2.28513, 23.5646, -159.836, -92.5046, 54.8251
5.4572, 6, -33.0284, -2.3019, 23.5808, -159.831, -92.5021, 54.8248
5.46295, 6, -33.0179, -2.31022, 23.589, -159.828, -92.5008, 54.8245
5.47248, 6, -32.9865, -2.33547, 23.6139, -159.819, -92.4967, 54.8237
5.48132, 6, -32.9761, -2.34409, 23.6304, -159.813, -92.4939, 54.823
5.48694, 6, -32.9551, -2.36138, 23.6387, -159.81, -92.4924, 54.8226
5.49594, 6, -32.9341, -2.3785, 23.6557, -159.803, -92.4894, 54.8217
5.50301, 6, -32.9132, -2.39572, 23.6726, -159.797, -92.4863, 54.8209
5.513, 7, -32.8822, -2.42215, 23.6978, -159.787, -92.4815, 54.8195
5.51898, 7, -32.8718, -2.43092, 23.7062, -159.783, -92.4798, 54.8189
5.52797, 7, -32.8511, -2.44842, 23.7233, -159.777, -92.4763, 54.8173
5.53595, 7, -32.8307, -2.46627, 23.7404, -159.77, -92.4729, 54.8151
5.544, 7, -32.8102, -2.48443, 23.7578, -159.763, -92.4692, 54.8125
5.55098, 7, -32.7896, -2.50245, 23.7754, -159.756, -92.4655, 54.8095
5.55995, 7, -32.769, -2.52052, 23.7929, -159.75, -92.4617, 54.8063
5.568, 7, -32.7487, -2.53899, 23.8105, -159.743, -92.4577, 54.8027
5.57594, 7, -32.7284, -2.55749, 23.8281, -159.736, -92.4536, 54.7991
5.58409, 7, -32.7081, -2.57595, 23.8455, -159.729, -92.4494, 54.7952
5.59178, 7, -32.6879, -2.59472, 23.8634, -159.723, -92.4451, 54.791
5.60156, 7, -32.6579, -2.62314, 23.8905, -159.712, -92.4383, 54.7845
5.60795, 7, -32.6478, -2.63257, 23.8995, -159.709, -92.4361, 54.7822
5.61694, 7, -32.6276, -2.65159, 23.9176, -159.702, -92.4313, 54.7775
5.62294, 7, -32.6076, -2.67086, 23.9359, -159.694, -92.4264, 54.7728
5.63195, 7, -32.5876, -2.69008, 23.954, -159.687, -92.4214, 54.7679
5.64002, 7, -32.5676, -2.70952, 23.9724, -159.679, -92.4161, 54.7628
5.64796, 8, -32.5478, -2.72925, 23.9911, -159.671, -92.4107, 54.7576
5.656, 8, -32.528, -2.74893, 24.0096, -159.663, -92.4051, 54.7523
5.66394, 8, -32.5082, -2.76871, 24.0282, -159.655, -92.3993, 54.7468
5.67194, 8, -32.4885, -2.78872, 24.0469, -159.647, -92.3933, 54.741
5.68084, 8, -32.4687, -2.8087, 24.0657, -159.638, -92.387, 54.7353
5.68699, 8, -32.449, -2.82884, 24.0846, -159.63, -92.3806, 54.7294
5.696, 8, -32.4295, -2.8493, 24.1038, -159.621, -92.374, 54.7233
5.70477, 8, -32.4099, -2.86967, 24.1229, -159.613, -92.3673, 54.7171
5.71106, 8, -32.3904, -2.89015, 24.1421, -159.605, -92.3605, 54.7107
5.71995, 8, -32.3711, -2.91092, 24.1614, -159.596, -92.3536, 54.7041
5.72898, 8, -32.3518, -2.93168, 24.1806, -159.588, -92.3467, 54.6973
5.73609, 8, -32.3324, -2.95257, 24.2001, -159.579, -92.3398, 54.6904
5.74393, 8, -32.3131, -2.97376, 24.2198, -159.571, -92.333, 54.6832
5.75277, 8, -32.2939, -2.99489, 24.2394, -159.562, -92.326, 54.6758
5.76001, 8, -32.2748, -3.01613, 24.2592, -159.554, -92.319, 54.6683
5.76704, 8, -32.2557, -3.03763, 24.2791, -159.545, -92.3119, 54.6605
5.77525, 8, -32.2366, -3.05906, 24.299, -159.536, -92.3048, 54.6528
5.78394, 9, -32.2177, -3.08072, 24.3191, -159.526, -92.2976, 54.645
5.79203, 9, -32.1988, -3.1026, 24.3392, -159.517, -92.2903, 54.6371
5.79994, 9, -32.1799, -3.12441, 24.3592, -159.507, -92.2829, 54.6292
5.80796, 9, -32.1609, -3.14645, 24.3795, -159.497, -92.2753, 54.6212
5.81598, 9, -32.142, -3.16865, 24.3999, -159.487, -92.2674, 54.6132
5.82417, 9, -32.1232, -3.19084, 24.4203, -159.477, -92.2594, 54.6052
5.83148, 9, -32.1045, -3.21332, 24.4409, -159.467, -92.251, 54.5972
5.84004, 9, -32.0856, -3.23585, 24.4614, -159.458, -92.2423, 54.589
5.8481, 9, -32.067, -3.25842, 24.4821, -159.448, -92.2335, 54.5808
5.8562, 9, -32.0485, -3.28131, 24.5029, -159.438, -92.2244, 54.5725
5.86494, 9, -32.03, -3.30421, 24.5238, -159.428, -92.2152, 54.564
5.87217, 9, -32.0114, -3.32727, 24.5447, -159.418, -92.206, 54.5552
5.87893, 9, -32.0022, -3.33889, 24.5552, -159.413, -92.2014, 54.5508
5.88798, 9, -31.9745, -3.37375, 24.5869, -159.398, -92.1876, 54.5374
5.89617, 9, -31.9562, -3.39724, 24.6082, -159.388, -92.1783, 54.5282
5.90293, 9, -31.9471, -3.409, 24.6189, -159.382, -92.1737, 54.5235
5.91223, 9, -31.9196, -3.44441, 24.6511, -159.366, -92.1598, 54.509
5.91913, 10, -31.9106, -3.45637, 24.6619, -159.36, -92.1551, 54.504
5.92703, 10, -31.8925, -3.48028, 24.6832, -159.349, -92.1457, 54.4939
5.93643, 10, -31.8654, -3.51628, 24.7157, -159.333, -92.1311, 54.4782
5.94447, 10, -31.8473, -3.54049, 24.7375, -159.322, -92.1212, 54.4675
5.95303, 10, -31.8292, -3.56474, 24.7596, -159.311, -92.111, 54.4567
5.95893, 10, -31.8202, -3.577, 24.7706, -159.305, -92.1058, 54.4513
5.96877, 10, -31.7935, -3.61378, 24.8035, -159.289, -92.0897, 54.435
5.9765, 10, -31.7756, -3.63844, 24.8257, -159.278, -92.0786, 54.4242
5.9846, 10, -31.7668, -3.66332, 24.8478, -159.267, -92.0675, 54.4135
5.9927, 10, -31.7492, -3.67574, 24.859, -159.262, -92.0565, 54.4027
6.00069, 10, -31.7316, -3.70081, 24.8815, -159.25, -92.0454, 54.3918
6.00691, 10, -31.714, -3.726, 24.904, -159.239, -92.0399, 54.3864
6.01729, 10, -31.6874, -3.76383, 24.9379, -159.221, -92.0234, 54.3697
6.02302, 10, -31.6786, -3.77654, 24.9492, -159.214, -92.0179, 54.3641
6.032, 10, -31.661, -3.80194, 24.972, -159.202, -92.007, 54.3529
6.03993, 10, -31.6434, -3.82766, 24.9949, -159.19, -91.9959, 54.3414
6.04795, 10, -31.6259, -3.85347, 25.0177, -159.178, -91.9847, 54.3297
6.05619, 11, -31.6086, -3.87931, 25.0407, -159.167, -91.9732, 54.3176
6.06393, 11, -31.5913, -3.90542, 25.0638, -159.155, -91.9614, 54.3052
6.07199, 11, -31.5742, -3.93149, 25.0871, -159.143, -91.9492, 54.2925
6.07998, 11, -31.5568, -3.95788, 25.1104, -159.131, -91.9367, 54.2797
6.08792, 11, -31.5394, -3.98433, 25.1337, -159.118, -91.924, 54.2668
6.09594, 11, -31.5221, -4.01081, 25.1572, -159.106, -91.9115, 54.2538
6.10399, 11, -31.505, -4.03752, 25.1807, -159.093, -91.8989, 54.2408
6.11192, 11, -31.4879, -4.06435, 25.2044, -159.08, -91.8864, 54.2281
6.12148, 11, -31.4708, -4.0914, 25.2281, -159.067, -91.8739, 54.2151
6.12801, 11, -31.4538, -4.11843, 25.2519, -159.054, -91.8613, 54.202
6.13702, 11, -31.437, -4.14564, 25.2759, -159.041, -91.8487, 54.189
6.14408, 11, -31.4203, -4.17293, 25.3, -159.028, -91.8358, 54.1757
6.15197, 11, -31.4034, -4.2005, 25.3242, -159.015, -91.8227, 54.1622
6.15997, 11, -31.3865, -4.22815, 25.3483, -159.002, -91.8092, 54.1486
6.16793, 11, -31.3697, -4.25586, 25.3725, -158.989, -91.7954, 54.1346
6.17599, 11, -31.353, -4.28369, 25.3969, -158.976, -91.7812, 54.1202
6.18393, 11, -31.3365, -4.31167, 25.4215, -158.962, -91.7672, 54.1057
6.192, 11, -31.32, -4.33987, 25.4461, -158.949, -91.7533, 54.0906
6.19901, 12, -31.3035, -4.36808, 25.4707, -158.935, -91.7394, 54.0755
6.20794, 12, -31.2871, -4.3965, 25.4955, -158.921, -91.7256, 54.0606
6.21595, 12, -31.2709, -4.42499, 25.5203, -158.906, -91.7118, 54.0457
6.22399, 12, -31.2546, -4.4537, 25.5453, -158.893, -91.6979, 54.0307
6.23193, 12, -31.2383, -4.48245, 25.5703, -158.879, -91.6838, 54.0158
6.23994, 12, -31.2219, -4.5113, 25.5955, -158.865, -91.6693, 54.0008
6.248, 12, -31.2057, -4.54023, 25.6207, -158.851, -91.6544, 53.9857
6.25593, 12, -31.1896, -4.56942, 25.6462, -158.837, -91.6392, 53.9704
6.26413, 12, -31.1734, -4.5987, 25.6716, -158.823, -91.6239, 53.9548
6.2728, 12, -31.1573, -4.6281, 25.697, -158.808, -91.6088, 53.9388
6.27993, 12, -31.1413, -4.65762, 25.7225, -158.793, -91.5938, 53.9226
6.288, 12, -31.1254, -4.68727, 25.7482, -158.778, -91.5788, 53.906
6.29594, 12, -31.1094, -4.7171, 25.7741, -158.764, -91.5637, 53.8895
6.30409, 12, -31.0935, -4.74699, 25.7999, -158.749, -91.5485, 53.873
6.31211, 12, -31.0775, -4.77713, 25.8258, -158.734, -91.5329, 53.8567
6.32019, 12, -31.0615, -4.80738, 25.8518, -158.72, -91.5169, 53.8403
6.32751, 12, -31.0457, -4.83778, 25.8781, -158.705, -91.5005, 53.8238
6.3367, 13, -31.0299, -4.86822, 25.9042, -158.691, -91.4839, 53.8073
6.34434, 13, -31.0142, -4.89881, 25.9306, -158.676, -91.4675, 53.7906
6.3515, 13, -30.9985, -4.92959, 25.957, -158.661, -91.4513, 53.7737
6.36191, 13, -30.983, -4.96051, 25.9837, -158.645, -91.4351, 53.7564
6.36892, 13, -30.9676, -4.99147, 26.0103, -158.629, -91.4189, 53.7388
6.37592, 13, -30.9522, -5.02258, 26.0369, -158.614, -91.4026, 53.7209
6.38397, 13, -30.9369, -5.05385, 26.0636, -158.598, -91.3859, 53.703
6.39281, 13, -30.9213, -5.08526, 26.0906, -158.583, -91.3689, 53.6851
6.40001, 13, -30.9059, -5.11669, 26.1176, -158.568, -91.3515, 53.6674
6.40697, 13, -30.8982, -5.13249, 26.1311, -158.56, -91.3428, 53.6585
6.41774, 13, -30.8753, -5.18012, 26.1718, -158.536, -91.3167, 53.6315
6.42418, 13, -30.8601, -5.21198, 26.1992, -158.52, -91.2994, 53.6135
6.43099, 13, -30.8525, -5.22792, 26.2128, -158.512, -91.2908, 53.6044
6.43892, 13, -30.8373, -5.25993, 26.2401, -158.495, -91.2736, 53.5857
6.44698, 13, -30.8223, -5.29211, 26.2676, -158.479, -91.2561, 53.5668
6.45868, 13, -30.7999, -5.34071, 26.3092, -158.455, -91.2294, 53.538
6.46451, 13, -30.785, -5.37319, 26.337, -158.439, -91.211, 53.5188
6.47248, 14, -30.77, -5.40577, 26.3646, -158.423, -91.1924, 53.4997
6.48125, 14, -30.7626, -5.43857, 26.3925, -158.407, -91.1741, 53.481
6.48838, 14, -30.7477, -5.45503, 26.4065, -158.399, -91.165, 53.4716
6.49656, 14, -30.7328, -5.48795, 26.4346, -158.382, -91.1468, 53.4431
6.50396, 14, -30.718, -5.52103, 26.4627, -158.365, -91.1287, 53.4336
6.51101, 14, -30.7033, -5.55433, 26.4908, -158.348, -91.1103, 53.4141
6.52097, 14, -30.6813, -5.6045, 26.5334, -158.322, -91.0821, 53.3843
6.52692, 14, -30.6739, -5.62123, 26.5477, -158.314, -91.0725, 53.3741
6.53608, 14, -30.6595, -5.65478, 26.5761, -158.297, -91.0529, 53.3534
6.54295, 14, -30.645, -5.68862, 26.6046, -158.28, -91.0336, 53.3326
6.55199, 14, -30.6306, -5.72256, 26.6334, -158.264, -91.0142, 53.312
6.55896, 14, -30.6161, -5.75656, 26.6622, -158.246, -90.995, 53.2915
6.56797, 14, -30.6016, -5.79074, 26.691, -158.229, -90.9758, 53.271
6.57596, 14, -30.5872, -5.8251, 26.7199, -158.211, -90.9562, 53.2505
6.58292, 14, -30.5729, -5.85952, 26.749, -158.193, -90.9362, 53.2299
6.59191, 14, -30.5587, -5.89405, 26.7782, -158.176, -90.9159, 53.2088
6.59892, 14, -30.5445, -5.92872, 26.8073, -158.158, -90.8955, 53.1872
6.60792, 15, -30.5303, -5.96351, 26.8366, -158.141, -90.8754, 53.1655
6.6159, 15, -30.5163, -5.99838, 26.8661, -158.123, -90.8554, 53.1436
6.62491, 15, -30.5023, -6.03334, 26.8957, -158.106, -90.8354, 53.1221
6.63401, 15, -30.4814, -6.08614, 26.94, -158.078, -90.8051, 53.0897
6.63998, 15, -30.4745, -6.1038, 26.9549, -158.069, -90.7947, 53.0788
6.64791, 15, -30.4606, -6.13919, 26.9848, -158.05, -90.7737, 53.057
6.6559, 15, -30.4467, -6.17475, 27.0147, -158.032, -90.7526, 53.0348
6.66401, 15, -30.4328, -6.21047, 27.0445, -158.014, -90.7317, 53.0123
6.67191, 15, -30.419, -6.24635, 27.0746, -157.995, -90.7109, 52.9894
6.68003, 15, -30.4053, -6.28237, 27.1048, -157.977, -90.6899, 52.9663
6.68797, 15, -30.3917, -6.31855, 27.135, -157.959, -90.6688, 52.9435
6.6959, 15, -30.378, -6.3548, 27.1652, -157.94, -90.6471, 52.9208
6.70393, 15, -30.3645, -6.39124, 27.1956, -157.92, -90.625, 52.898
6.71197, 15, -30.3511, -6.42787, 27.2262, -157.901, -90.603, 52.8752
6.71992, 15, -30.3377, -6.46458, 27.2567, -157.882, -90.5811, 52.852
6.72791, 15, -30.3243, -6.50139, 27.2875, -157.864, -90.5594, 52.8283
6.73597, 15, -30.311, -6.53836, 27.3184, -157.845, -90.5378, 52.8042
6.7439, 16, -30.2975, -6.57543, 27.3492, -157.826, -90.5157, 52.7802
6.75191, 16, -30.2841, -6.61261, 27.3802, -157.807, -90.4932, 52.7564
6.75997, 16, -30.2708, -6.64994, 27.4114, -157.787, -90.4704, 52.7328
6.76791, 16, -30.2576, -6.68743, 27.4427, -157.767, -90.4478, 52.7091
6.77597, 16, -30.2443, -6.72492, 27.4738, -157.748, -90.4253, 52.6853
6.7839, 16, -30.2312, -6.76253, 27.5052, -157.729, -90.4029, 52.6612
6.79197, 16, -30.218, -6.80038, 27.5368, -157.709, -90.3802, 52.6366
6.79992, 16, -30.2049, -6.8383, 27.5684, -157.69, -90.357, 52.6117
6.80793, 16, -30.192, -6.87626, 27.6, -157.67, -90.3333, 52.5868
6.816, 16, -30.179, -6.91444, 27.6319, -157.65, -90.3097, 52.5622
6.82414, 16, -30.1661, -6.95281, 27.6638, -157.63, -90.2863, 52.5377
6.83282, 16, -30.1532, -6.99122, 27.6956, -157.61, -90.2631, 52.5131
6.84006, 16, -30.1403, -7.02985, 27.7275, -157.59, -90.2398, 52.4882
6.848, 16, -30.1274, -7.06868, 27.7598, -157.57, -90.2159, 52.4629
6.856, 16, -30.1146, -7.10756, 27.7919, -157.55, -90.1916, 52.4372
6.86409, 16, -30.1018, -7.14658, 27.8241, -157.53, -90.1675, 52.4114
6.87198, 16, -30.0891, -7.18584, 27.8565, -157.509, -90.1434, 52.3859
6.87992, 17, -30.0765, -7.22518, 27.889, -157.488, -90.1194, 52.3606
6.88822, 17, -30.0639, -7.26455, 27.9216, -157.467, -90.0954, 52.3353
6.89653, 17, -30.0514, -7.30412, 27.9542, -157.447, -90.0709, 52.3099
6.904, 17, -30.0391, -7.34385, 27.987, -157.426, -90.0458, 52.2839
6.91095, 17, -30.0329, -7.36377, 28.0034, -157.416, -90.0333, 52.2707
6.92106, 17, -30.0144, -7.42358, 28.0527, -157.385, -89.9961, 52.2306
6.92815, 17, -30.0021, -7.46359, 28.0858, -157.364, -89.9715, 52.204
6.93492, 17, -29.9959, -7.48361, 28.1024, -157.353, -89.9592, 52.1909
6.94436, 17, -29.9773, -7.54394, 28.1521, -157.321, -89.9217, 52.1514
6.95616, 17, -29.9651, -7.58432, 28.1854, -157.3, -89.896, 52.1115
6.9589, 17, -29.959, -7.60456, 28.2021, -157.289, -89.8832, 52.1115
6.96848, 17, -29.9408, -7.6654, 28.2524, -157.258, -89.8453, 52.0707
6.97494, 17, -29.9347, -7.68574, 28.2691, -157.247, -89.8327, 52.057
6.98469, 17, -29.9167, -7.74713, 28.3197, -157.214, -89.7945, 52.0161
6.9925, 17, -29.9106, -7.76766, 28.3366, -157.203, -89.7685, 51.989
6.99989, 17, -29.8985, -7.80878, 28.3703, -157.182, -89.7552, 51.9753
7.00794, 17, -29.8867, -7.85002, 28.4042, -157.16, -89.7289, 51.9481
7.0159, 18, -29.8749, -7.89148, 28.4382, -157.138, -89.7029, 51.9205
7.02296, 18, -29.863, -7.93305, 28.4722, -157.117, -89.6771, 51.8924
7.03194, 18, -29.8513, -7.9747, 28.5063, -157.095, -89.6512, 51.8638
7.03991, 18, -29.8396, -8.01654, 28.5407, -157.072, -89.6245, 51.8357
7.04789, 18, -29.8278, -8.05846, 28.575, -157.049, -89.5977, 51.8078
7.0559, 18, -29.816, -8.10048, 28.6094, -157.027, -89.5711, 51.7798
7.064, 18, -29.8044, -8.14264, 28.644, -157.005, -89.5446, 51.7516
7.07189, 18, -29.7928, -8.18487, 28.6787, -156.983, -89.518, 51.7229
7.0799, 18, -29.7811, -8.22711, 28.7133, -156.961, -89.491, 51.6937
7.08794, 18, -29.7697, -8.26959, 28.7483, -156.938, -89.4633, 51.6645
7.09603, 18, -29.7582, -8.31221, 28.7833, -156.915, -89.4358, 51.6358
7.10298, 18, -29.7467, -8.35482, 28.8182, -156.892, -89.4086, 51.6073
7.11195, 18, -29.7352, -8.39762, 28.8533, -156.869, -89.3816, 51.5786
7.11989, 18, -29.724, -8.44058, 28.8886, -156.847, -89.3542, 51.5497
7.1289, 18, -29.7127, -8.48366, 28.9239, -156.824, -89.3262, 51.5201
7.13599, 18, -29.7013, -8.52697, 28.9593, -156.801, -89.2982, 51.4905
7.14496, 18, -29.6902, -8.57041, 28.9948, -156.777, -89.2703, 51.461
7.15211, 19, -29.6789, -8.61391, 29.0302, -156.754, -89.2427, 51.4318
7.1609, 19, -29.6676, -8.65763, 29.0658, -156.731, -89.2148, 51.4026
7.16789, 19, -29.6563, -8.70149, 29.1016, -156.708, -89.1863, 51.3733
7.17593, 19, -29.6452, -8.74543, 29.1373, -156.685, -89.1574, 51.3434
7.18391, 19, -29.6342, -8.78951, 29.1731, -156.661, -89.1291, 51.3132
7.19189, 19, -29.6232, -8.83375, 29.2092, -156.637, -89.1009, 51.2832
7.20005, 19, -29.6123, -8.87805, 29.2452, -156.613, -89.0727, 51.2536
7.20791, 19, -29.6014, -8.92242, 29.2813, -156.59, -89.0439, 51.2237
7.2159, 19, -29.5905, -8.96688, 29.3176, -156.566, -89.0148, 51.1937
7.22399, 19, -29.5797, -9.01146, 29.354, -156.542, -88.9861, 51.1631
7.23193, 19, -29.569, -9.05613, 29.3903, -156.518, -88.9574, 51.132
7.24004, 19, -29.5583, -9.10093, 29.427, -156.494, -88.9288, 51.1011
7.24734, 19, -29.5476, -9.14584, 29.4636, -156.469, -88.8994, 51.0702
7.25489, 19, -29.5371, -9.19088, 29.5002, -156.445, -88.8697, 51.0395
7.26392, 19, -29.5266, -9.23616, 29.5371, -156.421, -88.8404, 51.0084
7.27195, 19, -29.516, -9.28155, 29.574, -156.397, -88.8113, 50.9768
7.27989, 19, -29.5054, -9.32703, 29.611, -156.373, -88.7821, 50.9448
7.28795, 19, -29.4949, -9.37274, 29.6481, -156.348, -88.7524, 50.9131
7.29515, 20, -29.4845, -9.41864, 29.6853, -156.323, -88.7223, 50.8816
7.30406, 20, -29.474, -9.46458, 29.7224, -156.298, -88.6925, 50.8502
7.31189, 20, -29.4637, -9.51069, 29.7597, -156.273, -88.6629, 50.8184
7.31996, 20, -29.4535, -9.55686, 29.7971, -156.249, -88.633, 50.7861
7.32823, 20, -29.4432, -9.60313, 29.8345, -156.224, -88.6025, 50.7534
7.33549, 20, -29.4329, -9.64963, 29.8721, -156.198, -88.5719, 50.7211
7.34404, 20, -29.4227, -9.69611, 29.9098, -156.173, -88.5416, 50.6891
7.3523, 20, -29.4126, -9.74267, 29.9475, -156.148, -88.5115, 50.6571
7.35972, 20, -29.4025, -9.7894, 29.9854, -156.123, -88.4812, 50.6248
7.36839, 20, -29.3925, -9.83613, 30.0234, -156.098, -88.4502, 50.5919
7.37618, 20, -29.3875, -9.85954, 30.0423, -156.085, -88.4347, 50.5753
7.38293, 20, -29.3776, -9.90654, 30.0805, -156.059, -88.4039, 50.5427
7.39199, 20, -29.3628, -9.97729, 30.1378, -156.02, -88.3578, 50.4942
7.40082, 20, -29.3528, -10.0246, 30.176, -155.995, -88.3266, 50.4619
7.40801, 20, -29.3429, -10.072, 30.2145, -155.97, -88.2949, 50.4289
7.4149, 20, -29.3379, -10.0958, 30.2337, -155.957, -88.2791, 50.4123
7.4229, 20, -29.3281, -10.1436, 30.2722, -155.931, -88.2479, 50.3789
7.43222, 21, -29.3133, -10.2154, 30.3301, -155.891, -88.2013, 50.3295
7.43893, 21, -29.3084, -10.2393, 30.3494, -155.878, -88.1856, 50.313
7.44692, 21, -29.2987, -10.2874, 30.388, -155.852, -88.1536, 50.28
7.45643, 21, -29.2842, -10.3596, 30.4464, -155.814, -88.1061, 50.2298
7.46538, 21, -29.2745, -10.4079, 30.4851, -155.787, -88.0747, 50.196
7.47094, 21, -29.2697, -10.432, 30.5046, -155.774, -88.0589, 50.1793
7.48051, 21, -29.2554, -10.5046, 30.5633, -155.734, -88.0104, 50.1297
7.4893, 21, -29.2506, -10.5288, 30.6025, -155.708, -87.978, 50.0965
7.49495, 21, -29.2411, -10.5774, 30.6222, -155.695, -87.9621, 50.0797
7.50527, 21, -29.2269, -10.6503, 30.6813, -155.655, -87.9142, 50.0286
7.51401, 21, -29.2223, -10.6991, 30.7206, -155.628, -87.8818, 49.9945
7.51987, 21, -29.2129, -10.7236, 30.7404, -155.614, -87.8653, 49.9776
7.52795, 21, -29.2036, -10.7727, 30.7801, -155.587, -87.8326, 49.9439
7.53587, 21, -29.1941, -10.8218, 30.8197, -155.56, -87.8002, 49.9101
7.54294, 21, -29.1847, -10.8711, 30.8594, -155.534, -87.7679, 49.8758
7.55195, 21, -29.1755, -10.9206, 30.8994, -155.506, -87.7348, 49.841
7.55889, 21, -29.1661, -10.9702, 30.9393, -155.479, -87.7014, 49.8065
7.56792, 22, -29.1568, -11.0199, 30.9793, -155.451, -87.6685, 49.7724
7.57596, 22, -29.1477, -11.0697, 31.0193, -155.424, -87.6359, 49.7383
7.58388, 22, -29.1386, -11.1197, 31.0594, -155.397, -87.603, 49.7038
7.59187, 22, -29.1295, -11.1695, 31.0997, -155.369, -87.5692, 49.6686
7.60222, 22, -29.1204, -11.2195, 31.1601, -155.327, -87.519, 49.6158
7.6069, 22, -29.1114, -11.2697, 31.1803, -155.313, -87.5024, 49.5985
7.61587, 22, -29.1027, -11.3198, 31.2208, -155.285, -87.469, 49.5638
7.62469, 22, -29.0939, -11.3701, 31.2614, -155.258, -87.435, 49.5289
7.63092, 22, -29.0851, -11.4205, 31.3021, -155.23, -87.4009, 49.4935
7.63989, 22, -29.0764, -11.471, 31.3428, -155.202, -87.3673, 49.4577
7.64894, 22, -29.0677, -11.5218, 31.3836, -155.173, -87.334, 49.4223
7.65669, 22, -29.0591, -11.5726, 31.4246, -155.145, -87.3001, 49.3873
7.66388, 22, -29.0504, -11.6237, 31.4656, -155.117, -87.2657, 49.3521
7.67273, 22, -29.0417, -11.6749, 31.5065, -155.089, -87.2319, 49.3166
7.67893, 22, -29.0329, -11.7261, 31.5477, -155.061, -87.1981, 49.2807
7.68787, 22, -29.0243, -11.7776, 31.5889, -155.031, -87.1639, 49.2451
7.6974, 22, -29.0157, -11.829, 31.6302, -155.003, -87.129, 49.2098
7.70302, 23, -29.007, -11.8806, 31.6715, -154.975, -87.0945, 49.1745
7.71195, 23, -28.9984, -11.9322, 31.7128, -154.947, -87.0604, 49.1389
7.71987, 23, -28.9899, -11.9838, 31.7543, -154.918, -87.0262, 49.1027
7.72789, 23, -28.9814, -12.0355, 31.7959, -154.888, -86.9912, 49.0669
7.73593, 23, -28.973, -12.0873, 31.8374, -154.86, -86.9563, 49.0315
7.74394, 23, -28.9645, -12.1391, 31.8792, -154.831, -86.9219, 48.9962
7.75187, 23, -28.9561, -12.1912, 31.921, -154.802, -86.8873, 48.9604
7.75987, 23, -28.9478, -12.2433, 31.9629, -154.773, -86.8519, 48.924
7.76794, 23, -28.9397, -12.2956, 32.0049, -154.743, -86.8163, 48.8876
7.77602, 23, -28.9315, -12.3481, 32.0469, -154.714, -86.7813, 48.8517
7.78308, 23, -28.9233, -12.4007, 32.0891, -154.685, -86.7464, 48.8159
7.79109, 23, -28.9153, -12.4535, 32.1313, -154.656, -86.7106, 48.7796
7.7992, 23, -28.9073, -12.5064, 32.1734, -154.626, -86.6748, 48.743
7.80734, 23, -28.8993, -12.5593, 32.2159, -154.596, -86.6394, 48.7064
7.81588, 23, -28.8912, -12.6124, 32.2583, -154.566, -86.6041, 48.6702
7.82404, 23, -28.883, -12.6654, 32.3008, -154.537, -86.5681, 48.634
7.83195, 23, -28.8749, -12.7185, 32.3434, -154.507, -86.5318, 48.5976
7.84002, 24, -28.8669, -12.7717, 32.3859, -154.476, -86.4963, 48.5607
7.84798, 24, -28.8589, -12.8248, 32.4287, -154.446, -86.4609, 48.5234
7.85598, 24, -28.8509, -12.8781, 32.4715, -154.416, -86.4248, 48.4869
7.86404, 24, -28.843, -12.9314, 32.5142, -154.387, -86.3884, 48.4503
7.87193, 24, -28.835, -12.985, 32.5572, -154.356, -86.3526, 48.4137
7.87989, 24, -28.8272, -13.0386, 32.6001, -154.326, -86.3168, 48.3763
7.88798, 24, -28.8194, -13.0925, 32.6433, -154.295, -86.2804, 48.3389
7.89593, 24, -28.8115, -13.1466, 32.6863, -154.265, -86.2435, 48.3021
7.90429, 24, -28.8037, -13.2007, 32.7295, -154.235, -86.2074, 48.2653
7.91087, 24, -28.7997, -13.2278, 32.7512, -154.22, -86.1894, 48.2469
7.92037, 24, -28.7882, -13.3093, 32.8161, -154.173, -86.1349, 48.191
7.92847, 24, -28.7807, -13.3636, 32.8595, -154.142, -86.0979, 48.1535
7.93623, 24, -28.7731, -13.418, 32.903, -154.112, -86.0616, 48.1166
7.9429, 24, -28.7692, -13.4452, 32.9248, -154.097, -86.0434, 48.0982
7.95269, 24, -28.7579, -13.5268, 32.9903, -154.05, -85.9883, 48.0428
7.96035, 24, -28.7504, -13.5812, 33.0339, -154.019, -85.9509, 48.0055
7.96843, 24, -28.7428, -13.6358, 33.0777, -153.988, -85.9143, 47.968
7.97646, 25, -28.7351, -13.6904, 33.1215, -153.957, -85.8778, 47.9313
7.98445, 25, -28.7274, -13.7452, 33.1653, -153.926, -85.8407, 47.8948
7.99247, 25, -28.7236, -13.7726, 33.2093, -153.894, -85.8033, 47.8579
8.0007, 25, -28.716, -13.8277, 33.2313, -153.863, -85.7664, 47.8206
8.00785, 25, -28.7085, -13.8829, 33.2752, -153.847, -85.7481, 47.8018
8.01595, 25, -28.7011, -13.9382, 33.3193, -153.816, -85.711, 47.7645
8.0239, 25, -28.6936, -13.9936, 33.3634, -153.785, -85.6731, 47.7278
8.03185, 25, -28.6862, -14.0492, 33.4076, -153.753, -85.6358, 47.6909
8.04006, 25, -28.6788, -14.1048, 33.4519, -153.721, -85.5989, 47.6538
8.0477, 25, -28.6715, -14.1603, 33.4962, -153.69, -85.5616, 47.6161
8.05586, 25, -28.6642, -14.2159, 33.5406, -153.658, -85.5237, 47.5789
8.06388, 25, -28.6569, -14.2715, 33.5852, -153.626, -85.4865, 47.5421
8.07195, 25, -28.6495, -14.327, 33.6297, -153.593, -85.4493, 47.5051
8.07987, 25, -28.6423, -14.3827, 33.6744, -153.561, -85.4116, 47.4679
8.08787, 25, -28.6351, -14.4384, 33.719, -153.53, -85.3734, 47.4301
8.09591, 25, -28.628, -14.4943, 33.7637, -153.498, -85.3358, 47.3928
8.10386, 25, -28.6209, -14.5502, 33.8084, -153.465, -85.2986, 47.3558
8.11188, 26, -28.6138, -14.6065, 33.8531, -153.432, -85.2607, 47.3188
8.11992, 26, -28.6067, -14.6628, 33.8979, -153.4, -85.2225, 47.2814
8.12785, 26, -28.5997, -14.7192, 33.9428, -153.368, -85.1848, 47.2436
8.13688, 26, -28.5927, -14.7758, 33.9877, -153.335, -85.1471, 47.2063
8.14391, 26, -28.5858, -14.8324, 34.0326, -153.302, -85.1087, 47.1693
8.15287, 26, -28.5787, -14.889, 34.0778, -153.27, -85.0701, 47.1322
8.16067, 26, -28.5716, -14.9456, 34.1229, -153.238, -85.0323, 47.0949
8.16686, 26, -28.5644, -15.0021, 34.168, -153.206, -84.9945, 47.0572
8.17587, 26, -28.5573, -15.0587, 34.2134, -153.172, -84.9558, 47.02
8.18494, 26, -28.5503, -15.1152, 34.2587, -153.139, -84.9172, 46.9833
8.19265, 26, -28.5433, -15.1719, 34.3042, -153.107, -84.8792, 46.9465
8.19985, 26, -28.5362, -15.2286, 34.3496, -153.074, -84.8409, 46.9093
8.20865, 26, -28.5292, -15.2855, 34.395, -153.04, -84.8019, 46.8719
8.21495, 26, -28.5223, -15.3426, 34.4405, -153.007, -84.7633, 46.835
8.22386, 26, -28.5154, -15.3998, 34.486, -152.974, -84.7253, 46.7985
8.23267, 26, -28.5087, -15.4572, 34.5315, -152.941, -84.6869, 46.762
8.2399, 26, -28.5018, -15.5146, 34.5771, -152.908, -84.6478, 46.7249
8.24805, 27, -28.4949, -15.5722, 34.6227, -152.874, -84.6094, 46.6873
8.25663, 27, -28.488, -15.6297, 34.6684, -152.84, -84.5712, 46.6503
8.26386, 27, -28.4813, -15.6872, 34.7142, -152.807, -84.5322, 46.6133
8.27185, 27, -28.4746, -15.7447, 34.7601, -152.774, -84.4929, 46.5764
8.28183, 27, -28.4679, -15.8022, 34.806, -152.739, -84.4543, 46.539
8.28791, 27, -28.4613, -15.8596, 34.8519, -152.706, -84.4158, 46.5014
8.29587, 27, -28.4546, -15.9171, 34.898, -152.672, -84.3767, 46.4641
8.30385, 27, -28.4479, -15.9747, 34.9441, -152.639, -84.3375, 46.4272
8.31201, 27, -28.4413, -16.0324, 34.9903, -152.604, -84.2988, 46.3903
8.31985, 27, -28.4346, -16.0903, 35.0364, -152.57, -84.26, 46.3531
8.32788, 27, -28.4279, -16.1484, 35.0825, -152.536, -84.2204, 46.3155
8.33791, 27, -28.4211, -16.2065, 35.1287, -152.503, -84.1812, 46.2785
8.34394, 27, -28.4143, -16.2648, 35.1748, -152.468, -84.1426, 46.242
8.35196, 27, -28.4075, -16.3232, 35.221, -152.433, -84.1036, 46.2053
8.36059, 27, -28.4008, -16.3815, 35.2674, -152.4, -84.0638, 46.1684
8.36795, 27, -28.3941, -16.4398, 35.3138, -152.366, -84.0247, 46.1313
8.3764, 27, -28.3875, -16.4982, 35.3602, -152.331, -83.9858, 46.0948
8.38405, 27, -28.3808, -16.5564, 35.4067, -152.296, -83.9462, 46.0588
8.39085, 28, -28.3774, -16.5855, 35.4301, -152.279, -83.9263, 46.0407
8.40073, 28, -28.3674, -16.6729, 35.4999, -152.228, -83.8675, 45.9862
8.40693, 28, -28.3641, -16.702, 35.5232, -152.211, -83.8481, 45.9678
8.41603, 28, -28.3542, -16.7896, 35.5932, -152.158, -83.789, 45.9129
8.42285, 28, -28.3509, -16.8189, 35.6166, -152.141, -83.7692, 45.8949
8.43085, 28, -28.3442, -16.8774, 35.6633, -152.106, -83.7301, 45.8592
8.44015, 28, -28.3342, -16.9656, 35.7333, -152.054, -83.6713, 45.8053
8.44692, 28, -28.3309, -16.9951, 35.7568, -152.036, -83.6513, 45.7872
8.455, 28, -28.3243, -17.054, 35.8034, -152.001, -83.6114, 45.7509
8.46284, 28, -28.3179, -17.113, 35.8501, -151.966, -83.5723, 45.7151
8.47305, 28, -28.3082, -17.2014, 35.9204, -151.914, -83.5132, 45.6623
8.47891, 28, -28.305, -17.2309, 35.9438, -151.896, -83.4931, 45.6445
8.48841, 28, -28.2954, -17.3191, 36.0142, -151.843, -83.4339, 45.591
8.49718, 28, -28.2921, -17.3485, 36.0377, -151.808, -83.3946, 45.5553
8.50285, 28, -28.2857, -17.4073, 36.0848, -151.791, -83.3746, 45.5377
8.51364, 28, -28.276, -17.4956, 36.1553, -151.737, -83.3144, 45.4853
8.51984, 28, -28.2728, -17.5251, 36.1789, -151.719, -83.2947, 45.4678
8.52795, 29, -28.2662, -17.5842, 36.2261, -151.684, -83.2553, 45.4327
8.53584, 29, -28.2595, -17.6434, 36.2732, -151.649, -83.2152, 45.3973
8.54292, 29, -28.2529, -17.7027, 36.3204, -151.613, -83.175, 45.3622
8.55188, 29, -28.2463, -17.7621, 36.3675, -151.577, -83.1355, 45.3278
8.55989, 29, -28.2398, -17.8215, 36.4146, -151.541, -83.0957, 45.2934
8.56686, 29, -28.2332, -17.8809, 36.4618, -151.506, -83.0552, 45.2588
8.5759, 29, -28.2267, -17.9404, 36.5089, -151.47, -83.0152, 45.2238
8.58389, 29, -28.2201, -17.9998, 36.5562, -151.434, -82.9759, 45.1888
8.59085, 29, -28.2136, -18.0591, 36.6036, -151.398, -82.9359, 45.1545
8.6, 29, -28.2071, -18.1184, 36.651, -151.363, -82.8955, 45.1205
8.60767, 29, -28.2007, -18.1778, 36.6984, -151.327, -82.8559, 45.0865
8.61747, 29, -28.191, -18.2669, 36.7696, -151.272, -82.7962, 45.035
8.62384, 29, -28.1877, -18.2966, 36.7934, -151.254, -82.7759, 45.0178
8.63191, 29, -28.1812, -18.3561, 36.8408, -151.219, -82.7356, 44.9839
8.64089, 29, -28.1747, -18.4158, 36.8883, -151.182, -82.6962, 44.9506
8.64786, 29, -28.1682, -18.4755, 36.9358, -151.145, -82.6564, 44.9174
8.65591, 29, -28.1618, -18.5354, 36.9834, -151.109, -82.616, 44.8841
8.66383, 30, -28.1555, -18.5952, 37.0308, -151.073, -82.5761, 44.8504
8.67186, 30, -28.1491, -18.655, 37.0783, -151.037, -82.5365, 44.8168
8.67983, 30, -28.1427, -18.7148, 37.1258, -151, -82.4963, 44.784
8.68783, 30, -28.1363, -18.7746, 37.1732, -150.963, -82.4556, 44.7513
8.69674, 30, -28.1299, -18.8343, 37.2209, -150.927, -82.4158, 44.7189
8.70288, 30, -28.1235, -18.8941, 37.2685, -150.89, -82.3762, 44.6863
8.71185, 30, -28.1171, -18.9538, 37.3161, -150.853, -82.3356, 44.6534
8.72065, 30, -28.1106, -19.0136, 37.3637, -150.817, -82.2953, 44.621
8.7289, 30, -28.104, -19.0735, 37.4114, -150.781, -82.2555, 44.5891
8.73585, 30, -28.0973, -19.1335, 37.4591, -150.743, -82.2154, 44.5574
8.7449, 30, -28.0907, -19.1936, 37.5067, -150.706, -82.1746, 44.5258
8.75198, 30, -28.0842, -19.2536, 37.5544, -150.67, -82.1345, 44.4938
8.75983, 30, -28.0777, -19.3137, 37.6021, -150.633, -82.0949, 44.4619
8.76862, 30, -28.0711, -19.3738, 37.6498, -150.596, -82.0547, 44.4303
8.77592, 30, -28.0645, -19.4338, 37.6975, -150.559, -82.0144, 44.3993
8.78383, 30, -28.0579, -19.4938, 37.7452, -150.522, -81.9746, 44.3684
8.79319, 30, -28.0514, -19.5537, 37.7929, -150.485, -81.9348, 44.3375
8.79983, 31, -28.0448, -19.6135, 37.8405, -150.448, -81.8942, 44.3063
8.80792, 31, -28.0383, -19.6734, 37.8882, -150.41, -81.854, 44.2751
8.81586, 31, -28.0317, -19.7333, 37.936, -150.374, -81.8143, 44.2445
8.82384, 31, -28.025, -19.7934, 37.9838, -150.337, -81.7744, 44.2146
8.83189, 31, -28.0184, -19.8534, 38.0315, -150.299, -81.7339, 44.1847
8.83998, 31, -28.0118, -19.9135, 38.0793, -150.262, -81.694, 44.1548
8.84793, 31, -28.0052, -19.9737, 38.127, -150.225, -81.6542, 44.1246
8.85593, 31, -27.9987, -20.034, 38.1747, -150.187, -81.6137, 44.0944
8.864, 31, -27.9921, -20.0941, 38.2225, -150.149, -81.5731, 44.0644
8.8721, 31, -27.9855, -20.1543, 38.2703, -150.112, -81.5334, 44.035
8.87983, 31, -27.9789, -20.2143, 38.3181, -150.075, -81.4934, 44.006
8.88799, 31, -27.9723, -20.2743, 38.3657, -150.037, -81.4528, 43.9771
8.89587, 31, -27.9657, -20.3343, 38.4135, -149.999, -81.4127, 43.9481
8.90288, 31, -27.9623, -20.3643, 38.4375, -149.98, -81.3928, 43.9334
8.91206, 31, -27.9522, -20.4543, 38.5089, -149.924, -81.3327, 43.8899
8.91888, 31, -27.9488, -20.4843, 38.5328, -149.905, -81.3124, 43.8757
8.92806, 31, -27.9384, -20.5746, 38.6044, -149.848, -81.2523, 43.8338
8.93479, 32, -27.935, -20.6046, 38.6282, -149.829, -81.2325, 43.8199
8.94423, 32, -27.9248, -20.695, 38.6997, -149.773, -81.1724, 43.7785
8.95086, 32, -27.9214, -20.7251, 38.7235, -149.754, -81.1522, 43.7646
8.96039, 32, -27.911, -20.8155, 38.7951, -149.697, -81.0926, 43.723
8.96989, 32, -27.904, -20.8757, 38.8427, -149.66, -81.0528, 43.6956
8.97645, 32, -27.8972, -20.9359, 38.8905, -149.622, -81.0123, 43.6688
8.98438, 32, -27.8903, -20.9959, 38.9382, -149.583, -80.9723, 43.6425
8.99249, 32, -27.8833, -21.0558, 38.9859, -149.545, -80.9328, 43.6163
9.00047, 32, -27.8798, -21.1157, 39.0336, -149.508, -80.8928, 43.5902
9.00782, 32, -27.8728, -21.1457, 39.0574, -149.489, -80.8725, 43.577
9.01684, 32, -27.8657, -21.2056, 39.1051, -149.451, -80.8127, 43.5379
9.02284, 32, -27.8587, -21.2656, 39.1527, -149.412, -80.793, 43.5251
9.03293, 32, -27.8482, -21.3556, 39.224, -149.355, -80.7328, 43.4872
9.03982, 32, -27.8447, -21.3857, 39.2478, -149.336, -80.7127, 43.4748
9.04787, 32, -27.8377, -21.4459, 39.2954, -149.297, -80.6729, 43.4504
9.05585, 32, -27.8307, -21.506, 39.343, -149.259, -80.6335, 43.4261
9.06382, 32, -27.8237, -21.5661, 39.3905, -149.221, -80.5935, 43.402
9.07187, 33, -27.8166, -21.6262, 39.4381, -149.183, -80.5533, 43.3776
9.07986, 33, -27.8095, -21.6861, 39.4856, -149.144, -80.5139, 43.3534
9.08782, 33, -27.8023, -21.7459, 39.5331, -149.106, -80.4743, 43.3295
9.09587, 33, -27.795, -21.8056, 39.5807, -149.068, -80.4339, 43.3063
9.10382, 33, -27.7875, -21.8654, 39.6282, -149.03, -80.3941, 43.2835
9.11183, 33, -27.7801, -21.9251, 39.6757, -148.991, -80.3549, 43.2611
9.11989, 33, -27.7727, -21.9848, 39.7231, -148.953, -80.3153, 43.2387
9.12781, 33, -27.7653, -22.0447, 39.7706, -148.915, -80.2752, 43.2164
9.13684, 33, -27.7579, -22.1046, 39.8178, -148.876, -80.2359, 43.1939
9.14392, 33, -27.7504, -22.1646, 39.8651, -148.837, -80.1966, 43.1715
9.15289, 33, -27.743, -22.2246, 39.9125, -148.799, -80.1567, 43.1495
9.15996, 33, -27.7357, -22.2845, 39.9598, -148.761, -80.1168, 43.1281
9.16687, 33, -27.7283, -22.3444, 40.007, -148.722, -80.0777, 43.1072
9.17582, 33, -27.7209, -22.4042, 40.0543, -148.683, -80.0385, 43.0868
9.18382, 33, -27.7134, -22.4638, 40.1016, -148.645, -79.9986, 43.0666
9.19188, 33, -27.7058, -22.5234, 40.1488, -148.607, -79.9591, 43.0466
9.19982, 33, -27.6982, -22.5829, 40.1961, -148.567, -79.9201, 43.0267
9.20784, 34, -27.6907, -22.6423, 40.2434, -148.529, -79.8805, 43.0067
9.21583, 34, -27.6832, -22.7017, 40.2906, -148.49, -79.8404, 42.9868
9.22383, 34, -27.6757, -22.7612, 40.3378, -148.451, -79.801, 42.9671
9.23182, 34, -27.6681, -22.8207, 40.3848, -148.412, -79.762, 42.9481
9.23989, 34, -27.6605, -22.8803, 40.4318, -148.374, -79.7222, 42.9297
9.24787, 34, -27.6528, -22.9399, 40.4787, -148.335, -79.6823, 42.9115
9.25583, 34, -27.6451, -22.9995, 40.5255, -148.296, -79.6431, 42.894
9.26389, 34, -27.6372, -23.059, 40.5725, -148.257, -79.6038, 42.8767
9.27182, 34, -27.6292, -23.1185, 40.6194, -148.219, -79.5638, 42.8597
9.28006, 34, -27.6212, -23.1778, 40.6662, -148.18, -79.5241, 42.8427
9.29126, 34, -27.6092, -23.2666, 40.7365, -148.121, -79.4657, 42.8173
9.29572, 34, -27.6052, -23.2961, 40.76, -148.102, -79.4459, 42.809
9.30396, 34, -27.5971, -23.3552, 40.8067, -148.063, -79.4061, 42.7926
9.31181, 34, -27.5891, -23.4142, 40.8535, -148.025, -79.3669, 42.7766
9.32006, 34, -27.581, -23.4732, 40.9003, -147.985, -79.3279, 42.761
9.32864, 34, -27.573, -23.5323, 40.947, -147.946, -79.2883, 42.7462
9.33619, 34, -27.5648, -23.5914, 40.9936, -147.908, -79.2486, 42.7318
9.34332, 34, -27.5565, -23.6505, 41.0401, -147.869, -79.2097, 42.7176
9.35266, 35, -27.5483, -23.7096, 41.0866, -147.83, -79.1709, 42.7041
9.36038, 35, -27.54, -23.7687, 41.133, -147.791, -79.1313, 42.6909
9.36737, 35, -27.5318, -23.8276, 41.1793, -147.752, -79.092, 42.678
9.37783, 35, -27.5236, -23.8864, 41.2257, -147.713, -79.0534, 42.6653
9.38482, 35, -27.5153, -23.9451, 41.272, -147.674, -79.0144, 42.6529
9.39182, 35, -27.5069, -24.0036, 41.3184, -147.635, -78.9747, 42.6407
9.3999, 35, -27.4986, -24.0621, 41.3646, -147.596, -78.9356, 42.6285
9.40869, 35, -27.4902, -24.1204, 41.4109, -147.556, -78.8972, 42.6167
9.41606, 35, -27.4815, -24.1788, 41.4571, -147.518, -78.8581, 42.6053
9.42287, 35, -27.4771, -24.208, 41.4802, -147.498, -78.8384, 42.5997
9.43353, 35, -27.4639, -24.2956, 41.5493, -147.44, -78.78, 42.5837
9.44015, 35, -27.4551, -24.3541, 41.5954, -147.4, -78.7415, 42.5736
9.44687, 35, -27.4507, -24.3833, 41.6183, -147.381, -78.722, 42.5687
9.45708, 35, -27.4373, -24.471, 41.6871, -147.323, -78.6631, 42.5546
9.46286, 35, -27.4328, -24.5002, 41.71, -147.303, -78.6438, 42.5502
9.47443, 35, -27.4193, -24.5876, 41.7787, -147.244, -78.5862, 42.5376
9.48049, 35, -27.4104, -24.6457, 41.8243, -147.206, -78.5472, 42.5297
9.48837, 36, -27.4013, -24.7036, 41.8699, -147.167, -78.5085, 42.5221
9.4972, 36, -27.3967, -24.7614, 41.9156, -147.127, -78.4704, 42.5148
9.5028, 36, -27.3874, -24.7903, 41.9384, -147.108, -78.4513, 42.5114
9.5118, 36, -27.3783, -24.8481, 41.9839, -147.069, -78.4125, 42.5048
9.5214, 36, -27.369, -24.9057, 42.0293, -147.03, -78.3736, 42.4986
9.52781, 36, -27.3597, -24.9634, 42.0748, -146.991, -78.3356, 42.4926
9.53581, 36, -27.3504, -25.0212, 42.1202, -146.952, -78.2975, 42.4869
9.54386, 36, -27.3411, -25.0789, 42.1654, -146.913, -78.2589, 42.4817
9.551, 36, -27.3317, -25.1367, 42.2107, -146.874, -78.2204, 42.4767
9.55984, 36, -27.3222, -25.1944, 42.2558, -146.835, -78.1824, 42.472
9.56785, 36, -27.3126, -25.252, 42.3009, -146.796, -78.1444, 42.4677
9.57481, 36, -27.3029, -25.3095, 42.3459, -146.757, -78.1056, 42.4639
9.58384, 36, -27.2932, -25.3668, 42.3908, -146.718, -78.0673, 42.4606
9.59195, 36, -27.2834, -25.424, 42.4358, -146.678, -78.0295, 42.4575
9.59986, 36, -27.2734, -25.481, 42.4806, -146.64, -77.9916, 42.4549
9.6078, 36, -27.2635, -25.538, 42.5253, -146.601, -77.953, 42.4528
9.6148, 36, -27.2536, -25.5949, 42.5701, -146.562, -77.915, 42.4511
9.62383, 37, -27.2436, -25.6517, 42.6147, -146.523, -77.8774, 42.4498
9.6318, 37, -27.2335, -25.7086, 42.6593, -146.484, -77.8393, 42.4489
9.64081, 37, -27.2235, -25.7654, 42.7038, -146.445, -77.8009, 42.4483
9.6499, 37, -27.2085, -25.8508, 42.7705, -146.386, -77.7444, 42.448
9.65595, 37, -27.2034, -25.8791, 42.7927, -146.367, -77.7257, 42.4479
9.66486, 37, -27.1932, -25.9358, 42.8368, -146.329, -77.6877, 42.4479
9.6718, 37, -27.1829, -25.9925, 42.8811, -146.29, -77.6495, 42.4479
9.67992, 37, -27.1725, -26.0489, 42.9253, -146.251, -77.6121, 42.448
9.6878, 37, -27.1619, -26.1052, 42.9694, -146.213, -77.5746, 42.4481
9.69596, 37, -27.1513, -26.1612, 43.0134, -146.174, -77.5365, 42.4485
9.70386, 37, -27.1407, -26.2173, 43.0573, -146.135, -77.4984, 42.4491
9.71179, 37, -27.13, -26.2731, 43.1012, -146.096, -77.4611, 42.4501
9.71986, 37, -27.1193, -26.329, 43.1449, -146.058, -77.4239, 42.4524
9.72786, 37, -27.1084, -26.3847, 43.1885, -146.019, -77.386, 42.4559
9.7358, 37, -27.0975, -26.4406, 43.2321, -145.98, -77.3483, 42.4601
9.74382, 37, -27.0866, -26.4964, 43.2756, -145.941, -77.3111, 42.4652
9.75191, 37, -27.0755, -26.5522, 43.319, -145.903, -77.2739, 42.4711
9.75985, 38, -27.0645, -26.608, 43.3622, -145.864, -77.2359, 42.4777
9.76779, 38, -27.0536, -26.6636, 43.4055, -145.825, -77.1983, 42.4848
9.77586, 38, -27.0424, -26.7191, 43.4487, -145.787, -77.1613, 42.4925
9.78381, 38, -27.0312, -26.7744, 43.4917, -145.749, -77.1243, 42.5007
9.79189, 38, -27.02, -26.8295, 43.5348, -145.71, -77.0865, 42.5094
9.79991, 38, -27.0085, -26.8845, 43.5777, -145.671, -77.049, 42.5187
9.80787, 38, -26.9969, -26.9392, 43.6206, -145.634, -77.0121, 42.5284
9.81582, 38, -26.9853, -26.9939, 43.6634, -145.595, -76.975, 42.5387
9.82381, 38, -26.9736, -27.0486, 43.706, -145.557, -76.9373, 42.5495
9.83189, 38, -26.9618, -27.1032, 43.7487, -145.518, -76.9001, 42.5609
9.84008, 38, -26.95, -27.1578, 43.7911, -145.481, -76.8636, 42.5731
9.85212, 38, -26.932, -27.2397, 43.8545, -145.423, -76.8081, 42.5921
9.85536, 38, -26.926, -27.267, 43.8756, -145.404, -76.7894, 42.5988
9.8639, 38, -26.914, -27.3215, 43.9178, -145.366, -76.7526, 42.6128
9.8719, 38, -26.902, -27.3759, 43.9599, -145.328, -76.7161, 42.6274
9.88003, 38, -26.8899, -27.4302, 44.0018, -145.29, -76.6792, 42.6427
9.88784, 38, -26.8777, -27.4842, 44.0436, -145.252, -76.6418, 42.6584
9.89581, 39, -26.8653, -27.538, 44.0855, -145.214, -76.605, 42.6745
9.90391, 39, -26.8528, -27.5917, 44.1272, -145.177, -76.5687, 42.6909
9.91238, 39, -26.8401, -27.6452, 44.1687, -145.138, -76.532, 42.7075
9.92, 39, -26.8273, -27.6986, 44.2104, -145.1, -76.4948, 42.7247
9.92685, 39, -26.8209, -27.7252, 44.2311, -145.081, -76.4764, 42.7334
9.93714, 39, -26.8017, -27.8051, 44.2931, -145.025, -76.422, 42.7606
9.94285, 39, -26.7952, -27.8318, 44.3137, -145.006, -76.4038, 42.77
9.9522, 39, -26.7757, -27.9117, 44.3753, -144.949, -76.3481, 42.7993
9.9588, 39, -26.7692, -27.9383, 44.3958, -144.931, -76.3297, 42.8095
9.97093, 39, -26.7497, -28.018, 44.4571, -144.875, -76.2753, 42.8406
9.97638, 39, -26.7366, -28.071, 44.4977, -144.837, -76.2386, 42.8618
9.98553, 39, -26.7234, -28.1239, 44.5383, -144.799, -76.2015, 42.8832
9.99236, 39, -26.7101, -28.1767, 44.5787, -144.763, -76.1651, 42.905
10.0004, 39, -26.6965, -28.2292, 44.6192, -144.725, -76.1289, 42.9273
10.0084, 39, -26.6897, -28.2553, 44.6394, -144.706, -76.1106, 42.9505
10.0149, 39, -26.6759, -28.3074, 44.6796, -144.669, -76.0736, 42.9624
10.0249, 39, -26.6552, -28.3854, 44.7398, -144.614, -76.0191, 42.9992
10.0317, 40, -26.6483, -28.4113, 44.7598, -144.596, -76.0011, 43.0118
10.0399, 40, -26.6343, -28.463, 44.7997, -144.558, -75.9651, 43.0372
10.0478, 40, -26.6202, -28.5146, 44.8395, -144.521, -75.9285, 43.0629
10.0558, 40, -26.6059, -28.5662, 44.8792, -144.485, -75.8921, 43.0889
10.0638, 40, -26.5917, -28.6178, 44.9187, -144.448, -75.8563, 43.1154
10.0718, 40, -26.5775, -28.6693, 44.9582, -144.411, -75.8204, 43.1428
10.0799, 40, -26.5632, -28.7207, 44.9975, -144.374, -75.7838, 43.1709
10.0878, 40, -26.5487, -28.772, 45.0365, -144.338, -75.7474, 43.1998
10.0958, 40, -26.5341, -28.8231, 45.0756, -144.302, -75.7118, 43.229
10.1038, 40, -26.5193, -28.8741, 45.1145, -144.265, -75.6762, 43.2585
10.1119, 40, -26.5044, -28.9249, 45.1531, -144.229, -75.6399, 43.2887
10.1198, 40, -26.4894, -28.9753, 45.1918, -144.193, -75.6037, 43.3194
10.1279, 40, -26.4743, -29.0257, 45.2304, -144.157, -75.5682, 43.3512
10.1358, 40, -26.4589, -29.0759, 45.2688, -144.12, -75.5326, 43.3838
10.1448, 40, -26.4436, -29.1259, 45.3071, -144.084, -75.4963, 43.4165
10.1519, 40, -26.4282, -29.1758, 45.3452, -144.048, -75.4602, 43.4495
10.1609, 40, -26.4127, -29.2256, 45.3831, -144.013, -75.4247, 43.483
10.1677, 41, -26.3971, -29.2753, 45.4211, -143.977, -75.3895, 43.5175
10.1759, 41, -26.3813, -29.3251, 45.4587, -143.941, -75.3535, 43.553
10.1838, 41, -26.3653, -29.3745, 45.4962, -143.906, -75.3176, 43.5889
10.1918, 41, -26.3493, -29.424, 45.5337, -143.871, -75.2824, 43.6249
10.1999, 41, -26.3332, -29.4734, 45.5709, -143.835, -75.2472, 43.6614
10.2078, 41, -26.317, -29.5225, 45.608, -143.799, -75.2115, 43.6989
10.2158, 41, -26.3006, -29.5715, 45.6451, -143.765, -75.1756, 43.7375
10.2238, 41, -26.2842, -29.6203, 45.6818, -143.73, -75.1405, 43.7763
10.2318, 41, -26.2677, -29.669, 45.7185, -143.695, -75.1056, 43.8155
10.2399, 41, -26.2512, -29.7174, 45.7551, -143.66, -75.0703, 43.8553
10.2478, 41, -26.2345, -29.7655, 45.7915, -143.625, -75.0347, 43.8961
10.256, 41, -26.2176, -29.8136, 45.8276, -143.591, -74.9998, 43.938
10.2639, 41, -26.2005, -29.8615, 45.8638, -143.556, -74.965, 43.98
10.2718, 41, -26.1833, -29.9092, 45.8998, -143.521, -74.9298, 44.0224
10.2799, 41, -26.1661, -29.9568, 45.9356, -143.488, -74.8942, 44.0659
10.2878, 41, -26.1487, -30.0044, 45.9713, -143.454, -74.8591, 44.1107
10.2958, 41, -26.1312, -30.0517, 46.0067, -143.42, -74.8245, 44.1555
10.3041, 42, -26.1135, -30.0989, 46.042, -143.385, -74.7897, 44.2005
10.311, 42, -26.0959, -30.146, 46.0773, -143.352, -74.7543, 44.2465
10.32, 42, -26.0781, -30.193, 46.1123, -143.319, -74.7194, 44.2935
10.3278, 42, -26.06, -30.2396, 46.1471, -143.285, -74.6849, 44.3409
10.336, 42, -26.0418, -30.2862, 46.1818, -143.251, -74.6502, 44.3886
10.3442, 42, -26.0235, -30.3324, 46.2164, -143.218, -74.6147, 44.4373
10.3514, 42, -26.0051, -30.3786, 46.2507, -143.185, -74.5796, 44.4872
10.36, 42, -25.9865, -30.4246, 46.2849, -143.152, -74.5451, 44.537
10.3682, 42, -25.9678, -30.4702, 46.3191, -143.119, -74.5106, 44.5873
10.3756, 42, -25.949, -30.5158, 46.3528, -143.086, -74.4755, 44.6388
10.3843, 42, -25.9301, -30.5612, 46.3865, -143.054, -74.4404, 44.6911
10.392, 42, -25.9205, -30.5838, 46.4033, -143.038, -74.4232, 44.7171
10.3988, 42, -25.9011, -30.6288, 46.4367, -143.006, -74.3889, 44.7697
10.4079, 42, -25.872, -30.6962, 46.4864, -142.957, -74.3368, 44.8511
10.4167, 42, -25.8525, -30.7409, 46.5194, -142.925, -74.3017, 44.9058
10.4239, 42, -25.8329, -30.7855, 46.5522, -142.894, -74.2674, 44.9612
10.4328, 42, -25.813, -30.8298, 46.5848, -142.863, -74.2335, 45.0179
10.4401, 42, -25.7932, -30.8739, 46.6172, -142.831, -74.1991, 45.0752
10.4481, 43, -25.7732, -30.918, 46.6495, -142.8, -74.1643, 45.1326
10.4548, 43, -25.7631, -30.9399, 46.6655, -142.784, -74.1472, 45.1617
10.4628, 43, -25.7427, -30.9836, 46.6974, -142.754, -74.1132, 45.221
10.4724, 43, -25.7118, -31.0487, 46.745, -142.708, -74.0621, 45.3104
10.4813, 43, -25.6912, -31.0919, 46.7765, -142.677, -74.0272, 45.371
10.4868, 43, -25.6807, -31.1134, 46.7922, -142.662, -74.01, 45.4018
10.4964, 43, -25.6493, -31.1776, 46.8388, -142.617, -73.9592, 45.4939
10.5052, 43, -25.6388, -31.1988, 46.8544, -142.587, -73.9255, 45.5567
10.5108, 43, -25.6177, -31.2411, 46.8852, -142.572, -73.9084, 45.5885
10.5207, 43, -25.5964, -31.3043, 46.9311, -142.527, -73.8568, 45.6837
10.5276, 43, -25.5748, -31.3252, 46.9463, -142.512, -73.84, 45.7158
10.5358, 43, -25.5531, -31.3669, 46.9767, -142.483, -73.8063, 45.7811
10.5439, 43, -25.5314, -31.4084, 47.0066, -142.454, -73.7725, 45.8465
10.5518, 43, -25.5093, -31.4497, 47.0364, -142.425, -73.738, 45.9125
10.5589, 43, -25.487, -31.4908, 47.066, -142.396, -73.704, 45.9799
10.5678, 43, -25.4646, -31.5318, 47.0954, -142.367, -73.6706, 46.0472
10.5748, 43, -25.4421, -31.5725, 47.1245, -142.339, -73.6373, 46.1156
10.5838, 44, -25.4192, -31.613, 47.1533, -142.312, -73.6033, 46.1851
10.5918, 44, -25.3962, -31.6533, 47.1821, -142.284, -73.5693, 46.2545
10.5988, 44, -25.3733, -31.6934, 47.2106, -142.256, -73.5359, 46.3257
10.6078, 44, -25.3501, -31.7332, 47.2389, -142.228, -73.5027, 46.3969
10.6181, 44, -25.3267, -31.7728, 47.2809, -142.188, -73.452, 46.5053
10.6228, 44, -25.3032, -31.8121, 47.2949, -142.174, -73.435, 46.5421
10.6318, 44, -25.2794, -31.8512, 47.3225, -142.148, -73.4016, 46.6153
10.6422, 44, -25.2553, -31.8901, 47.3498, -142.108, -73.3522, 46.7279
10.6468, 44, -25.2311, -31.9286, 47.377, -142.094, -73.3356, 46.7654
10.6558, 44, -25.2069, -31.9669, 47.404, -142.068, -73.302, 46.8408
10.6648, 44, -25.1825, -32.0051, 47.4308, -142.043, -73.2689, 46.9178
10.6719, 44, -25.158, -32.043, 47.4572, -142.018, -73.2361, 46.9944
10.6797, 44, -25.1333, -32.0806, 47.4834, -141.993, -73.2034, 47.0729
10.6886, 44, -25.1083, -32.118, 47.5094, -141.967, -73.17, 47.1516
10.6958, 44, -25.0831, -32.1551, 47.5352, -141.942, -73.1366, 47.2314
10.7038, 44, -25.0577, -32.1919, 47.5606, -141.918, -73.1039, 47.3123
10.7131, 44, -25.032, -32.2285, 47.5858, -141.894, -73.0715, 47.3932
10.7198, 45, -25.0062, -32.265, 47.6108, -141.87, -73.0389, 47.476
10.7278, 45, -24.9803, -32.3011, 47.6357, -141.847, -73.0058, 47.5582
10.7358, 45, -24.954, -32.3368, 47.6602, -141.823, -72.9732, 47.6423
10.7438, 45, -24.9277, -32.3724, 47.6843, -141.799, -72.9409, 47.7264
10.7518, 45, -24.9013, -32.4077, 47.7082, -141.776, -72.9087, 47.812
10.7598, 45, -24.8746, -32.4428, 47.7319, -141.754, -72.8759, 47.8978
10.7678, 45, -24.8478, -32.4775, 47.7554, -141.732, -72.843, 47.9843
10.7758, 45, -24.8207, -32.512, 47.7786, -141.71, -72.8109, 48.0715
10.7838, 45, -24.7932, -32.5462, 47.8015, -141.688, -72.779, 48.1593
10.792, 45, -24.7656, -32.5801, 47.8241, -141.666, -72.7468, 48.2482
10.7998, 45, -24.7379, -32.6137, 47.8465, -141.645, -72.7142, 48.3375
10.8079, 45, -24.7101, -32.647, 47.8686, -141.624, -72.6821, 48.4282
10.8158, 45, -24.6821, -32.6799, 47.8904, -141.604, -72.6504, 48.5191
10.8239, 45, -24.6539, -32.7125, 47.9121, -141.584, -72.6187, 48.6114
10.8318, 45, -24.6253, -32.7449, 47.9334, -141.564, -72.5864, 48.7037
10.8399, 45, -24.5966, -32.777, 47.9545, -141.544, -72.5541, 48.7972
10.8478, 45, -24.5675, -32.8088, 47.9753, -141.524, -72.5226, 48.8911
10.8559, 46, -24.5383, -32.8402, 47.9956, -141.505, -72.4914, 48.9861
10.8639, 46, -24.5089, -32.8713, 48.0156, -141.486, -72.4599, 49.0814
10.8719, 46, -24.4792, -32.9021, 48.0355, -141.468, -72.4279, 49.1778
10.8799, 46, -24.4494, -32.9326, 48.0549, -141.451, -72.3965, 49.2749
10.8878, 46, -24.4194, -32.9627, 48.0743, -141.433, -72.3654, 49.3728
10.8958, 46, -24.3892, -32.9926, 48.0934, -141.416, -72.3344, 49.4718
10.904, 46, -24.3588, -33.0222, 48.1119, -141.399, -72.303, 49.5712
10.9118, 46, -24.3281, -33.0514, 48.1304, -141.382, -72.2713, 49.6719
10.9199, 46, -24.2972, -33.0802, 48.1485, -141.365, -72.2403, 49.7727
10.928, 46, -24.2662, -33.1088, 48.166, -141.35, -72.2098, 49.8746
10.9349, 46, -24.2507, -33.123, 48.1748, -141.342, -72.1945, 49.9257
10.9442, 46, -24.2035, -33.1649, 48.2008, -141.319, -72.1482, 50.0803
10.9508, 46, -24.1876, -33.1787, 48.2092, -141.312, -72.1326, 50.132
10.9602, 46, -24.1396, -33.2196, 48.234, -141.29, -72.0868, 50.2887
10.9683, 46, -24.1075, -33.2465, 48.2503, -141.276, -72.0566, 50.394
10.9763, 46, -24.0751, -33.2729, 48.2662, -141.262, -72.0263, 50.4999
10.9843, 46, -24.0424, -33.2989, 48.2815, -141.249, -71.9955, 50.607
10.9924, 47, -24.0093, -33.3246, 48.2968, -141.235, -71.9651, 50.7146
11.0006, 47, -23.976, -33.3498, 48.3118, -141.222, -71.9353, 50.8234
11.0084, 47, -23.9594, -33.3624, 48.3262, -141.21, -71.9058, 50.9324
11.0163, 47, -23.9259, -33.3872, 48.3332, -141.204, -71.8761, 51.0426
11.0237, 47, -23.8922, -33.4115, 48.3472, -141.193, -71.861, 51.098
11.0318, 47, -23.8581, -33.4355, 48.3608, -141.182, -71.8309, 51.2092
11.0398, 47, -23.8238, -33.459, 48.374, -141.172, -71.8015, 51.3209
11.0477, 47, -23.7894, -33.4822, 48.3868, -141.162, -71.7723, 51.4335
11.0559, 47, -23.7548, -33.5052, 48.3995, -141.152, -71.7432, 51.5471
11.0651, 47, -23.72, -33.5275, 48.4179, -141.139, -71.6987, 51.7186
11.0708, 47, -23.6847, -33.5497, 48.4239, -141.134, -71.6841, 51.7761
11.0798, 47, -23.6494, -33.5714, 48.4355, -141.125, -71.6552, 51.8919
11.0878, 47, -23.6139, -33.5924, 48.4465, -141.117, -71.6268, 52.0082
11.0957, 47, -23.578, -33.6134, 48.4574, -141.109, -71.5985, 52.1254
11.1038, 47, -23.5419, -33.6339, 48.4678, -141.101, -71.5697, 52.2435
11.1118, 47, -23.5054, -33.6538, 48.4778, -141.094, -71.541, 52.3619
11.1198, 47, -23.4688, -33.6735, 48.4875, -141.087, -71.5129, 52.4811
11.1278, 48, -23.432, -33.6926, 48.4967, -141.081, -71.4852, 52.6011
11.1358, 48, -23.3948, -33.7112, 48.5056, -141.075, -71.4576, 52.7217
11.1438, 48, -23.3573, -33.7296, 48.5142, -141.07, -71.4296, 52.8434
11.1528, 48, -23.3197, -33.7476, 48.5226, -141.065, -71.4015, 52.9659
11.1598, 48, -23.282, -33.7649, 48.5304, -141.061, -71.3739, 53.0891
11.1688, 48, -23.2438, -33.7819, 48.538, -141.057, -71.3469, 53.2129
11.1765, 48, -23.2053, -33.7985, 48.5451, -141.054, -71.3202, 53.3377
11.1828, 48, -23.1667, -33.8146, 48.5517, -141.051, -71.2932, 53.4628
11.1918, 48, -23.1279, -33.8301, 48.5578, -141.049, -71.266, 53.5887
11.2008, 48, -23.0887, -33.8453, 48.5637, -141.047, -71.2392, 53.7156
11.2079, 48, -23.0494, -33.8602, 48.5693, -141.046, -71.2129, 53.8431
11.2157, 48, -23.0098, -33.8747, 48.5745, -141.045, -71.1868, 53.9717
11.2246, 48, -22.9699, -33.8883, 48.5792, -141.044, -71.1608, 54.101
11.2317, 48, -22.9299, -33.9015, 48.5836, -141.044, -71.1345, 54.231
11.2398, 48, -22.8895, -33.9144, 48.5875, -141.044, -71.1081, 54.3616
11.2485, 48, -22.8489, -33.927, 48.5909, -141.044, -71.0824, 54.4928
11.2558, 48, -22.8081, -33.9389, 48.5939, -141.044, -71.0571, 54.6247
11.2637, 49, -22.767, -33.95, 48.5965, -141.045, -71.0323, 54.7572
11.2725, 49, -22.7256, -33.9607, 48.5987, -141.047, -71.0073, 54.8903
11.2798, 49, -22.684, -33.9711, 48.6004, -141.049, -70.9822, 55.0242
11.2877, 49, -22.6421, -33.9811, 48.6017, -141.052, -70.9572, 55.1589
11.2976, 49, -22.5999, -33.9906, 48.6025, -141.056, -70.9328, 55.2942
11.3038, 49, -22.5575, -33.9994, 48.6029, -141.06, -70.9087, 55.4303
11.3117, 49, -22.5149, -34.0076, 48.6031, -141.065, -70.885, 55.5673
11.3198, 49, -22.472, -34.0152, 48.6031, -141.07, -70.8613, 55.7044
11.3279, 49, -22.4288, -34.0224, 48.6031, -141.076, -70.8373, 55.8425
11.3358, 49, -22.3854, -34.0291, 48.6027, -141.083, -70.8135, 55.9814
11.3438, 49, -22.3418, -34.0354, 48.6021, -141.09, -70.7903, 56.121
11.3536, 49, -22.2979, -34.0411, 48.601, -141.098, -70.7677, 56.2614
11.3593, 49, -22.2538, -34.0465, 48.5996, -141.107, -70.7455, 56.4025
11.3678, 49, -22.2094, -34.0513, 48.5976, -141.116, -70.7234, 56.544
11.3763, 49, -22.1648, -34.0555, 48.5951, -141.126, -70.7013, 56.6865
11.3833, 49, -22.1423, -34.0573, 48.592, -141.137, -70.679, 56.8293
11.3923, 49, -22.0745, -34.0618, 48.5883, -141.147, -70.6572, 56.9726
11.4007, 50, -22.0291, -34.0642, 48.5841, -141.159, -70.6361, 57.1167
11.4078, 50, -21.9834, -34.0659, 48.5794, -141.17, -70.6153, 57.2616
11.4166, 50, -21.9374, -34.067, 48.5741, -141.182, -70.5949, 57.4075
11.4228, 50, -21.9143, -34.0674, 48.5712, -141.188, -70.5848, 57.4806
11.432, 50, -21.8448, -34.0679, 48.5617, -141.207, -70.5541, 57.7007
11.4388, 50, -21.8214, -34.0679, 48.5583, -141.214, -70.5439, 57.7746
11.4481, 50, -21.751, -34.0675, 48.5474, -141.235, -70.5137, 57.9965
11.4547, 50, -21.7273, -34.0671, 48.5436, -141.243, -70.5039, 58.0707
11.4649, 50, -21.6561, -34.0651, 48.5314, -141.267, -70.4753, 58.2949
11.4709, 50, -21.6322, -34.0641, 48.527, -141.275, -70.4661, 58.37
11.4803, 50, -21.5604, -34.0606, 48.5131, -141.3, -70.4389, 58.5963
11.4889, 50, -21.5121, -34.0575, 48.5029, -141.317, -70.4208, 58.7479
11.4964, 50, -21.4635, -34.0538, 48.4923, -141.334, -70.4028, 58.9
11.5043, 50, -21.4148, -34.0493, 48.4812, -141.352, -70.3849, 59.0527
11.5131, 50, -21.3904, -34.0468, 48.4754, -141.37, -70.3673, 59.2057
11.5187, 50, -21.3413, -34.0411, 48.4635, -141.38, -70.3588, 59.2824
11.5297, 50, -21.2671, -34.0312, 48.4447, -141.411, -70.334, 59.5139
11.5358, 50, -21.2422, -34.0275, 48.4383, -141.421, -70.326, 59.5915
11.5438, 51, -21.1923, -34.0196, 48.425, -141.442, -70.3102, 59.7468
11.5517, 51, -21.1421, -34.0109, 48.4111, -141.463, -70.2948, 59.9029
11.5589, 51, -21.0916, -34.0017, 48.3966, -141.485, -70.2795, 60.0595
11.5677, 51, -21.041, -33.9919, 48.3815, -141.507, -70.2644, 60.2164
11.5758, 51, -20.99, -33.9811, 48.3661, -141.53, -70.2494, 60.3743
11.5827, 51, -20.9388, -33.9696, 48.35, -141.554, -70.2346, 60.5326
11.5918, 51, -20.8875, -33.9575, 48.3334, -141.579, -70.2203, 60.6918
11.5998, 51, -20.8359, -33.9449, 48.3164, -141.603, -70.2066, 60.8514
