rpiRobotics/ARM-21-02-F-19-Robot-Motion-Program/data_performance_abb/curve_1/baseline/100L/realrobot/bisect/run_2realrobot_curve_exe_v75.0_z10.csv
timestamp, cmd_num, J1, J2, J3, J4, J5, J6
0.000474, -1, 11.3779, 13.614, 17.3392, -145.519, -97.9229, 142.516
0.004453, -1, 11.3779, 13.614, 17.3392, -145.519, -97.923, 142.516
0.008387, -1, 11.3779, 13.614, 17.3392, -145.519, -97.923, 142.516
0.028984, -1, 11.378, 13.614, 17.3392, -145.519, -97.9229, 142.516
0.032301, -1, 11.378, 13.614, 17.3392, -145.519, -97.9229, 142.516
0.033721, -1, 11.378, 13.614, 17.3392, -145.519, -97.9229, 142.516
0.039123, -1, 11.378, 13.614, 17.3392, -145.519, -97.9229, 142.516
0.048444, -1, 11.3777, 13.614, 17.3392, -145.519, -97.9229, 142.516
0.056682, -1, 11.3763, 13.6138, 17.3392, -145.519, -97.923, 142.516
0.065191, -1, 11.372, 13.6132, 17.3391, -145.519, -97.9229, 142.516
0.071113, -1, 11.3683, 13.6127, 17.3389, -145.519, -97.9229, 142.516
0.080719, -1, 11.3496, 13.6091, 17.3381, -145.52, -97.9228, 142.512
0.089469, -1, 11.3279, 13.6042, 17.3373, -145.523, -97.9224, 142.497
0.095133, -1, 11.3132, 13.6008, 17.3368, -145.525, -97.9219, 142.485
0.104671, -1, 11.2515, 13.5854, 17.3362, -145.537, -97.9187, 142.415
0.112762, -1, 11.1958, 13.5713, 17.337, -145.551, -97.9142, 142.336
0.120062, -1, 11.1636, 13.5631, 17.338, -145.561, -97.9112, 142.284
0.12808, -1, 11.0905, 13.5437, 17.342, -145.584, -97.9033, 142.153
0.136173, -1, 11.0055, 13.5205, 17.3483, -145.613, -97.8932, 141.988
0.144064, -1, 10.9089, 13.494, 17.3569, -145.647, -97.8811, 141.79
0.152089, -1, 10.8015, 13.4641, 17.3673, -145.686, -97.8675, 141.565
0.160123, -1, 10.6832, 13.4312, 17.3786, -145.728, -97.8528, 141.319
0.168062, -1, 10.5542, 13.3954, 17.3898, -145.773, -97.8374, 141.058
0.176165, -1, 10.4162, 13.3575, 17.4004, -145.818, -97.8216, 140.788
0.184117, -1, 10.2714, 13.318, 17.4106, -145.866, -97.8054, 140.514
0.192094, -1, 10.122, 13.2776, 17.4207, -145.913, -97.7888, 140.237
0.200075, -1, 9.96954, 13.2365, 17.4307, -145.96, -97.7718, 139.959
0.208134, -1, 9.81493, 13.1952, 17.4408, -146.009, -97.7546, 139.68
0.21612, -1, 9.65942, 13.1539, 17.4508, -146.057, -97.7374, 139.4
0.224092, -1, 9.5043, 13.1126, 17.4607, -146.104, -97.7204, 139.121
0.232128, -1, 9.34955, 13.0715, 17.4706, -146.153, -97.7037, 138.841
0.240075, -1, 9.19516, 13.0304, 17.4805, -146.201, -97.6869, 138.562
0.248322, -1, 9.04136, 12.9894, 17.4905, -146.249, -97.6702, 138.282
0.25613, -1, 8.88776, 12.9483, 17.5006, -146.297, -97.6534, 138.002
0.26406, -1, 8.73433, 12.9073, 17.5106, -146.345, -97.6362, 137.722
0.272861, -1, 8.58138, 12.8662, 17.5207, -146.392, -97.6188, 137.442
0.279064, -1, 8.4287, 12.825, 17.5309, -146.441, -97.6013, 137.162
0.288074, -1, 8.27566, 12.7838, 17.541, -146.488, -97.584, 136.882
0.296209, -1, 8.12217, 12.7423, 17.5511, -146.536, -97.5671, 136.602
0.303073, -1, 7.96819, 12.7008, 17.5614, -146.585, -97.5502, 136.322
0.311185, -1, 7.81365, 12.6592, 17.5714, -146.632, -97.5336, 136.042
0.319302, -1, 7.65872, 12.6176, 17.5815, -146.68, -97.5169, 135.761
0.32715, -1, 7.50364, 12.5761, 17.5917, -146.728, -97.5001, 135.481
0.335223, -1, 7.34845, 12.5347, 17.6018, -146.776, -97.4829, 135.201
0.343162, -1, 7.19329, 12.4933, 17.6121, -146.824, -97.4655, 134.921
0.352056, -1, 7.03814, 12.4519, 17.6224, -146.873, -97.4482, 134.641
0.359251, -1, 6.88291, 12.4107, 17.6326, -146.92, -97.4312, 134.36
0.367128, -1, 6.72794, 12.3695, 17.643, -146.968, -97.4143, 134.08
0.375066, -1, 6.57339, 12.3282, 17.6533, -147.017, -97.3976, 133.8
0.383159, -1, 6.41895, 12.287, 17.6636, -147.065, -97.3808, 133.519
0.391092, -1, 6.26469, 12.2457, 17.6739, -147.113, -97.3639, 133.239
0.400068, -1, 6.11042, 12.2043, 17.6841, -147.161, -97.3468, 132.958
0.407303, -1, 5.95603, 12.163, 17.6944, -147.209, -97.3293, 132.677
0.415268, -1, 5.80137, 12.1215, 17.7047, -147.257, -97.3117, 132.397
0.424085, -1, 5.64649, 12.0799, 17.7148, -147.305, -97.2942, 132.116
0.432127, -1, 5.49147, 12.0383, 17.7251, -147.353, -97.2772, 131.835
0.439497, -1, 5.33619, 11.9967, 17.7353, -147.401, -97.2603, 131.554
0.447843, -1, 5.18068, 11.9551, 17.7456, -147.45, -97.2435, 131.273
0.456273, -1, 5.02478, 11.9135, 17.756, -147.498, -97.2267, 130.992
0.463594, -1, 4.86885, 11.872, 17.7664, -147.546, -97.2098, 130.711
0.47216, -1, 4.71306, 11.8305, 17.7768, -147.594, -97.1925, 130.43
0.610037, -1, 2.07062, 11.1241, 17.9527, -148.415, -96.902, 125.647
0.611225, -1, 2.07062, 11.1241, 17.9527, -148.415, -96.902, 125.647
0.613313, -1, 1.99222, 11.1033, 17.9579, -148.439, -96.8932, 125.506
0.614541, -1, 1.99222, 11.1033, 17.9579, -148.439, -96.8932, 125.506
0.61589, -1, 1.99222, 11.1033, 17.9579, -148.439, -96.8932, 125.506
0.617959, -1, 1.91392, 11.0825, 17.9631, -148.463, -96.8845, 125.365
0.619177, -1, 1.91392, 11.0825, 17.9631, -148.463, -96.8845, 125.365
0.624832, -1, 1.75735, 11.0409, 17.9735, -148.511, -96.8671, 125.083
0.763236, -1, -0.893931, 10.3314, 18.1502, -149.336, -96.5762, 120.281
0.764529, -1, -0.893931, 10.3314, 18.1502, -149.336, -96.5762, 120.281
0.766495, -1, -0.972606, 10.3106, 18.1553, -149.36, -96.5676, 120.14
0.767798, -1, -0.972606, 10.3106, 18.1553, -149.36, -96.5676, 120.14
0.769, -1, -0.972606, 10.3106, 18.1553, -149.36, -96.5676, 120.14
0.771046, -1, -1.05125, 10.2897, 18.1605, -149.384, -96.559, 119.999
0.772326, -1, -1.05125, 10.2897, 18.1605, -149.384, -96.559, 119.999
0.776245, -1, -1.12985, 10.2688, 18.1656, -149.408, -96.5505, 119.857
0.780332, -1, -1.2084, 10.2479, 18.1708, -149.433, -96.5421, 119.715
0.782284, -1, -1.28692, 10.227, 18.1759, -149.457, -96.5336, 119.574
0.783742, -1, -1.28692, 10.227, 18.1759, -149.457, -96.5336, 119.574
0.78493, -1, -1.28692, 10.227, 18.1759, -149.457, -96.5336, 119.574
0.787145, -1, -1.36535, 10.2061, 18.1811, -149.482, -96.5252, 119.432
0.788352, -1, -1.36535, 10.2061, 18.1811, -149.482, -96.5252, 119.432
0.790224, -1, -1.44368, 10.1852, 18.1862, -149.506, -96.5169, 119.29
0.791886, -1, -1.44368, 10.1852, 18.1862, -149.506, -96.5169, 119.29
0.79308, -1, -1.44368, 10.1852, 18.1862, -149.506, -96.5169, 119.29
0.795183, -1, -1.52195, 10.1643, 18.1915, -149.53, -96.5085, 119.149
0.796476, -1, -1.52195, 10.1643, 18.1915, -149.53, -96.5085, 119.149
0.798335, -1, -1.60015, 10.1435, 18.1968, -149.554, -96.5, 119.007
0.799879, -1, -1.60015, 10.1435, 18.1968, -149.554, -96.5, 119.007
0.801173, -1, -1.60015, 10.1435, 18.1968, -149.554, -96.5, 119.007
0.80801, -1, -1.75632, 10.1016, 18.2073, -149.603, -96.4829, 118.724
0.809268, -1, -1.75632, 10.1016, 18.2073, -149.603, -96.4829, 118.724
0.811331, -1, -1.83419, 10.0807, 18.2124, -149.627, -96.4743, 118.582
0.812561, -1, -1.83419, 10.0807, 18.2124, -149.627, -96.4743, 118.582
0.814441, -1, -1.91194, 10.0598, 18.2176, -149.652, -96.4655, 118.441
0.816007, -1, -1.91194, 10.0598, 18.2176, -149.652, -96.4655, 118.441
0.817222, -1, -1.91194, 10.0598, 18.2176, -149.652, -96.4655, 118.441
0.819228, -1, -1.98963, 10.0389, 18.2229, -149.676, -96.4566, 118.299
0.820535, -1, -1.98963, 10.0389, 18.2229, -149.676, -96.4566, 118.299
0.822423, -1, -1.98963, 10.0389, 18.2281, -149.7, -96.4478, 118.157
0.82383, -1, -2.06726, 10.018, 18.2281, -149.7, -96.4478, 118.157
0.825081, -1, -2.06726, 10.018, 18.2281, -149.7, -96.4478, 118.157
0.827691, -1, -2.14481, 9.99714, 18.2333, -149.725, -96.439, 118.015
0.830424, -1, -2.14481, 9.99714, 18.2385, -149.749, -96.4303, 117.874
0.831953, -1, -2.22237, 9.97627, 18.2385, -149.749, -96.4303, 117.874
0.842598, -1, -2.45547, 9.91354, 18.2541, -149.821, -96.4044, 117.448
0.848038, -1, -2.53327, 9.89258, 18.2593, -149.846, -96.396, 117.307
0.855211, -1, -2.68909, 9.85072, 18.2697, -149.895, -96.3792, 117.023
0.863151, -1, -2.8453, 9.80881, 18.28, -149.943, -96.3624, 116.739
0.871046, -1, -3.00203, 9.76691, 18.2904, -149.992, -96.3455, 116.456
0.879187, -1, -3.1591, 9.72503, 18.3008, -150.041, -96.3283, 116.172
0.887084, -1, -3.31655, 9.68309, 18.3113, -150.089, -96.3108, 115.888
0.895075, -1, -3.47445, 9.6411, 18.3217, -150.138, -96.2932, 115.604
0.903265, -1, -3.63232, 9.59921, 18.3321, -150.187, -96.2757, 115.32
0.911183, -1, -3.79016, 9.55741, 18.3425, -150.235, -96.2586, 115.036
0.919246, -1, -3.94817, 9.51541, 18.3528, -150.284, -96.2416, 114.752
0.927597, -1, -4.10608, 9.47355, 18.3632, -150.333, -96.2247, 114.468
0.936163, -1, -4.26388, 9.43167, 18.3735, -150.382, -96.2077, 114.183
0.943476, -1, -4.42147, 9.38971, 18.3838, -150.43, -96.1905, 113.899
0.951629, -1, -4.57861, 9.34779, 18.3942, -150.479, -96.173, 113.614
0.960197, -1, -4.73538, 9.30582, 18.4045, -150.528, -96.1553, 113.329
0.967574, -1, -4.89174, 9.26381, 18.4149, -150.577, -96.1376, 113.045
0.976188, -1, -5.04784, 9.22179, 18.4254, -150.626, -96.1203, 112.76
0.983665, -1, -5.20364, 9.17979, 18.4359, -150.674, -96.1033, 112.475
0.992098, -1, -5.35966, 9.1377, 18.4464, -150.723, -96.0863, 112.191
0.99981, -1, -5.43775, 9.11661, 18.4568, -150.772, -96.0695, 111.906
1.00813, -1, -5.67217, 9.05355, 18.4671, -150.821, -96.0525, 111.621
1.01503, -1, -5.75047, 9.03251, 18.4723, -150.845, -96.0439, 111.479
1.02425, -1, -5.98606, 8.96926, 18.4878, -150.919, -96.0177, 111.052
1.03104, -1, -6.06485, 8.9482, 18.493, -150.943, -96.0089, 110.909
1.04033, -1, -6.30201, 8.88507, 18.5084, -151.016, -95.9827, 110.481
1.04711, -1, -6.3812, 8.86403, 18.5136, -151.041, -95.9741, 110.339
1.05639, -1, -6.61892, 8.80098, 18.5291, -151.114, -95.9487, 109.911
1.06304, -1, -6.69823, 8.77992, 18.5344, -151.139, -95.9402, 109.768
1.07251, -1, -6.93628, 8.71682, 18.5501, -151.213, -95.9147, 109.34
1.08053, -1, -7.09478, 8.67476, 18.5606, -151.261, -95.8974, 109.055
1.08704, -1, -7.17401, 8.65372, 18.5658, -151.286, -95.8887, 108.912
1.09666, -1, -7.41121, 8.59049, 18.5813, -151.36, -95.8621, 108.483
1.10461, -1, -7.56893, 8.54825, 18.5918, -151.408, -95.8445, 108.198
1.11269, -1, -7.72649, 8.50599, 18.6022, -151.458, -95.8272, 107.912
1.12066, -1, -7.80511, 8.4849, 18.6074, -151.482, -95.8101, 107.626
1.12803, -1, -7.96195, 8.44269, 18.6179, -151.531, -95.8016, 107.483
1.13669, -1, -8.11858, 8.40036, 18.6282, -151.58, -95.7847, 107.198
1.14403, -1, -8.2752, 8.35806, 18.6386, -151.629, -95.7677, 106.912
1.15203, -1, -8.43194, 8.31574, 18.6492, -151.678, -95.7505, 106.626
1.16008, -1, -8.58893, 8.27339, 18.6597, -151.727, -95.733, 106.34
1.16805, -1, -8.74628, 8.23116, 18.6702, -151.777, -95.7153, 106.053
1.17614, -1, -8.90398, 8.18888, 18.6805, -151.825, -95.6978, 105.767
1.18403, -1, -9.06213, 8.14662, 18.6909, -151.874, -95.6804, 105.481
1.19204, -1, -9.22075, 8.10442, 18.7013, -151.924, -95.6633, 105.194
1.20011, -1, -9.37963, 8.06219, 18.7117, -151.973, -95.6462, 104.908
1.20803, -1, -9.53875, 8.0199, 18.7221, -152.022, -95.629, 104.621
1.2161, -1, -9.69796, 7.97771, 18.7325, -152.072, -95.6116, 104.334
1.22409, -1, -9.85721, 7.93557, 18.7429, -152.12, -95.5941, 104.048
1.23213, -1, -10.0166, 7.89329, 18.7536, -152.17, -95.5762, 103.761
1.24003, -1, -10.1759, 7.85094, 18.7641, -152.219, -95.5584, 103.474
1.24954, -1, -10.3349, 7.80851, 18.7746, -152.268, -95.5408, 103.187
1.25615, -1, -10.4936, 7.76603, 18.7852, -152.318, -95.5235, 102.9
1.26404, -1, -10.6521, 7.72362, 18.7955, -152.367, -95.5065, 102.613
1.27209, -1, -10.8102, 7.68119, 18.806, -152.416, -95.4895, 102.326
1.28002, -1, -10.9679, 7.63868, 18.8164, -152.466, -95.4724, 102.039
1.28803, -1, -11.1254, 7.5962, 18.8268, -152.515, -95.4551, 101.752
1.29616, -1, -11.2828, 7.55378, 18.8372, -152.564, -95.4374, 101.464
1.30313, -1, -11.4403, 7.51135, 18.8477, -152.614, -95.4195, 101.177
1.31117, -1, -11.5979, 7.46886, 18.8581, -152.663, -95.4019, 100.89
1.3191, -1, -11.7558, 7.42647, 18.8687, -152.712, -95.3846, 100.602
1.32803, -1, -11.9143, 7.38408, 18.8793, -152.761, -95.3674, 100.314
1.33616, -1, -12.0731, 7.34175, 18.8898, -152.811, -95.3502, 100.027
1.34313, -1, -12.2322, 7.29939, 18.9003, -152.86, -95.333, 99.7391
1.35149, -1, -12.3918, 7.25701, 18.9108, -152.91, -95.3156, 99.4512
1.36033, -1, -12.5517, 7.21463, 18.9213, -152.959, -95.2979, 99.1634
1.36714, -1, -12.7117, 7.17224, 18.9318, -153.008, -95.2799, 98.8757
1.37518, -1, -12.8718, 7.12982, 18.9424, -153.058, -95.262, 98.5878
1.38471, -1, -13.0319, 7.0873, 18.9529, -153.108, -95.2445, 98.2997
1.39202, -1, -13.1918, 7.04473, 18.9634, -153.157, -95.2272, 98.0118
1.39912, -1, -13.3514, 7.00221, 18.974, -153.207, -95.2101, 97.7237
1.40872, -1, -13.5107, 6.95953, 18.9846, -153.256, -95.1931, 97.4354
1.41608, -1, -13.6699, 6.91682, 18.9951, -153.305, -95.1759, 97.1468
1.42335, -1, -13.829, 6.87416, 19.0056, -153.355, -95.1584, 96.8584
1.43288, -1, -13.9874, 6.83149, 19.016, -153.404, -95.1407, 96.5698
1.44003, -1, -14.1456, 6.78886, 19.0265, -153.453, -95.1229, 96.281
1.44806, -1, -14.3038, 6.74627, 19.0371, -153.503, -95.1054, 95.9919
1.45708, -1, -14.4621, 6.70361, 19.0475, -153.552, -95.0881, 95.703
1.46411, -1, -14.6206, 6.66099, 19.058, -153.602, -95.0709, 95.4139
1.47218, -1, -14.7795, 6.61846, 19.0685, -153.652, -95.0538, 95.1246
1.48118, -1, -14.9387, 6.57591, 19.079, -153.701, -95.0366, 94.8354
1.48779, -1, -15.0983, 6.53325, 19.0898, -153.751, -95.019, 94.5463
1.49625, -1, -15.2583, 6.49068, 19.1004, -153.8, -95.0011, 94.2573
1.50303, -1, -15.3384, 6.46942, 19.1057, -153.825, -94.9921, 94.1127
1.51106, -1, -15.4988, 6.42675, 19.1164, -153.874, -94.9742, 93.8233
1.52013, -1, -15.74, 6.36273, 19.1321, -153.949, -94.9479, 93.3895
1.52701, -1, -15.8203, 6.34137, 19.1374, -153.974, -94.9392, 93.2448
1.53506, -1, -15.981, 6.29857, 19.148, -154.024, -94.922, 92.9552
1.54428, -1, -16.2221, 6.23433, 19.1637, -154.098, -94.8963, 92.5207
1.55102, -1, -16.3024, 6.2129, 19.169, -154.123, -94.8876, 92.376
1.55906, -1, -16.4629, 6.16997, 19.1795, -154.172, -94.8702, 92.0863
1.56849, -1, -16.703, 6.1056, 19.1952, -154.247, -94.8434, 91.6513
1.57501, -1, -16.7828, 6.08414, 19.2005, -154.272, -94.8344, 91.5062
1.58303, -1, -16.9422, 6.04118, 19.2111, -154.322, -94.8167, 91.2163
1.59259, -1, -17.1811, 5.97683, 19.2271, -154.396, -94.7905, 90.7811
1.60212, -1, -17.3401, 5.93398, 19.2376, -154.446, -94.7732, 90.4909
1.60701, -1, -17.4197, 5.91258, 19.2429, -154.471, -94.7646, 90.3457
1.61502, -1, -17.5791, 5.86982, 19.2535, -154.521, -94.7472, 90.0556
1.62532, -1, -17.7385, 5.82707, 19.2642, -154.57, -94.7296, 89.7654
1.63102, -1, -17.8981, 5.78431, 19.2748, -154.621, -94.7116, 89.4749
1.64112, -1, -18.1385, 5.72023, 19.2908, -154.695, -94.6845, 89.0393
1.64707, -1, -18.2188, 5.69886, 19.296, -154.72, -94.6755, 88.8942
1.65606, -1, -18.3798, 5.65612, 19.3067, -154.77, -94.6579, 88.6035
1.66401, -1, -18.5412, 5.61324, 19.3174, -154.82, -94.6405, 88.3126
1.67201, -1, -18.7027, 5.57032, 19.3281, -154.87, -94.6233, 88.0219
1.67902, -1, -18.8643, 5.52736, 19.3387, -154.92, -94.606, 87.731
1.688, -1, -19.0259, 5.4844, 19.3492, -154.97, -94.5885, 87.4399
1.69601, -1, -19.1874, 5.44129, 19.3598, -155.02, -94.5707, 87.1485
1.703, -1, -19.3487, 5.3982, 19.3704, -155.07, -94.5525, 86.8573
1.71201, -1, -19.5099, 5.35509, 19.3809, -155.12, -94.5346, 86.566
1.72007, -1, -19.6707, 5.31186, 19.3915, -155.169, -94.5169, 86.2743
1.72801, -1, -19.8313, 5.26881, 19.402, -155.22, -94.4993, 85.9827
1.736, -1, -19.9917, 5.22572, 19.4126, -155.27, -94.4819, 85.6913
1.74301, -1, -20.1517, 5.18264, 19.4234, -155.32, -94.4646, 85.3999
1.75201, -1, -20.3115, 5.13973, 19.4342, -155.37, -94.4471, 85.1081
1.76101, -1, -20.4715, 5.09682, 19.445, -155.42, -94.4294, 84.8163
1.76811, -1, -20.6316, 5.05381, 19.4557, -155.47, -94.4113, 84.5247
1.77601, -1, -20.7919, 5.01092, 19.4663, -155.52, -94.3933, 84.2328
1.78402, -1, -20.9528, 4.96803, 19.477, -155.57, -94.3756, 83.9407
1.79207, -1, -21.1139, 4.925, 19.4876, -155.62, -94.3581, 83.6487
1.80003, -1, -21.2755, 4.882, 19.4982, -155.671, -94.3408, 83.3568
1.80807, -1, -21.4375, 4.8389, 19.5087, -155.721, -94.3237, 83.0646
1.816, -1, -21.5996, 4.79567, 19.5194, -155.771, -94.3064, 82.7721
1.82403, -1, -21.7618, 4.75255, 19.5301, -155.822, -94.2888, 82.4796
1.83206, -1, -21.9242, 4.70929, 19.5408, -155.871, -94.271, 82.1871
1.84001, -1, -22.0866, 4.66595, 19.5516, -155.922, -94.2529, 81.8944
1.84803, -1, -22.2491, 4.62264, 19.5623, -155.972, -94.2352, 81.6017
1.85607, -1, -22.4113, 4.57932, 19.5729, -156.022, -94.2176, 81.3092
1.86402, -1, -22.5732, 4.53596, 19.5836, -156.073, -94.2001, 81.0165
1.87169, -1, -22.7348, 4.49259, 19.5943, -156.123, -94.1828, 80.7238
1.88007, -1, -22.8961, 4.44927, 19.6049, -156.173, -94.1653, 80.4307
1.888, -1, -23.0572, 4.40604, 19.6156, -156.223, -94.1474, 80.1378
1.89601, -1, -23.2182, 4.3628, 19.6263, -156.273, -94.1293, 79.8449
1.90408, -1, -23.3792, 4.31957, 19.6371, -156.324, -94.111, 79.5514
1.91201, -1, -23.54, 4.27639, 19.648, -156.374, -94.093, 79.2581
1.92011, -1, -23.7011, 4.23319, 19.6587, -156.425, -94.0752, 78.9649
1.92805, -1, -23.8624, 4.18999, 19.6695, -156.475, -94.0576, 78.6714
1.93536, -1, -24.0239, 4.14674, 19.6802, -156.526, -94.0402, 78.3777
1.94425, -1, -24.1859, 4.10338, 19.6908, -156.576, -94.0228, 78.0838
1.95146, -1, -24.3485, 4.05999, 19.7016, -156.626, -94.0051, 77.79
1.95958, -1, -24.5112, 4.01661, 19.7122, -156.677, -93.9872, 77.4959
1.96844, -1, -24.6743, 3.97309, 19.7228, -156.727, -93.969, 77.2017
1.97558, -1, -24.8376, 3.92955, 19.7334, -156.777, -93.951, 76.9079
1.98416, -1, -25.001, 3.88605, 19.7441, -156.828, -93.9333, 76.6139
1.99252, -1, -25.1644, 3.84247, 19.755, -156.878, -93.9156, 76.3198
1.99966, -1, -25.2459, 3.79894, 19.7658, -156.929, -93.8981, 76.0253
2.008, -1, -25.4901, 3.75533, 19.7766, -156.979, -93.8806, 75.7311
2.0168, -1, -25.6528, 3.71166, 19.7873, -157.029, -93.8628, 75.4369
2.02404, -1, -25.8153, 3.66815, 19.7979, -157.08, -93.8447, 75.1423
2.03106, -1, -25.8965, 3.64644, 19.8033, -157.105, -93.8356, 74.9949
2.04115, -1, -26.1396, 3.58117, 19.8195, -157.181, -93.8081, 74.553
2.04706, -1, -26.2204, 3.55946, 19.8248, -157.206, -93.799, 74.4057
2.05634, -1, -26.4628, 3.49444, 19.8409, -157.282, -93.7723, 73.9634
2.063, -1, -26.5437, 3.47271, 19.8463, -157.307, -93.7635, 73.8158
2.07105, -1, -26.7056, 3.42925, 19.8569, -157.358, -93.7459, 73.5209
2.08053, -1, -26.9492, 3.36406, 19.8732, -157.434, -93.7193, 73.0781
2.08941, -1, -27.112, 3.32047, 19.884, -157.485, -93.7013, 72.7827
2.09505, -1, -27.1935, 3.2987, 19.8895, -157.51, -93.6921, 72.6351
2.10465, -1, -27.4387, 3.23327, 19.9055, -157.586, -93.6647, 72.1924
2.11349, -1, -27.6025, 3.18953, 19.9162, -157.636, -93.6468, 71.897
2.1191, -1, -27.6845, 3.16767, 19.9216, -157.662, -93.6379, 71.7492
2.12859, -1, -27.8485, 3.124, 19.9324, -157.712, -93.6113, 71.306
2.13602, -1, -28.0126, 3.08031, 19.9432, -157.763, -93.6025, 71.1582
2.14306, -1, -28.1766, 3.0366, 19.954, -157.814, -93.5848, 70.8624
2.15204, -1, -28.3408, 2.99287, 19.9647, -157.864, -93.5668, 70.5664
2.16, -1, -28.5047, 2.94916, 19.9755, -157.915, -93.5486, 70.2704
2.16805, -1, -28.6683, 2.9055, 19.9864, -157.966, -93.5301, 69.9746
2.176, -1, -28.8318, 2.86182, 19.9972, -158.017, -93.5119, 69.6785
2.18399, -1, -28.9947, 2.81817, 20.008, -158.068, -93.494, 69.3821
2.191, -1, -29.1574, 2.77454, 20.0187, -158.119, -93.4763, 69.0858
2.2, -1, -29.3201, 2.73087, 20.0295, -158.169, -93.4587, 68.7891
2.20799, -1, -29.4829, 2.68728, 20.0403, -158.221, -93.4411, 68.4925
2.21604, -1, -29.6458, 2.64358, 20.051, -158.272, -93.4231, 68.1957
2.22403, -1, -29.8089, 2.59981, 20.0618, -158.322, -93.4049, 67.8991
2.23199, -1, -29.972, 2.55611, 20.0726, -158.374, -93.3865, 67.6025
2.23903, -1, -30.1354, 2.51227, 20.0835, -158.424, -93.3683, 67.3056
2.24698, -1, -30.2992, 2.46832, 20.0944, -158.475, -93.3503, 67.0087
2.256, -1, -30.4635, 2.4244, 20.1053, -158.526, -93.3326, 66.7118
2.26499, -1, -30.6283, 2.38043, 20.1161, -158.577, -93.3149, 66.4146
2.27202, -1, -30.7933, 2.33644, 20.1269, -158.628, -93.2972, 66.1173
2.28001, -1, -30.9583, 2.29255, 20.1377, -158.679, -93.2792, 65.82
2.28813, -1, -31.1233, 2.24857, 20.1486, -158.73, -93.2609, 65.5229
2.29499, -1, -31.2882, 2.2046, 20.1593, -158.781, -93.2423, 65.2255
2.30401, -1, -31.453, 2.1608, 20.1701, -158.832, -93.224, 64.9278
2.312, -1, -31.6175, 2.11685, 20.1808, -158.883, -93.206, 64.6301
2.32001, -1, -31.782, 2.07287, 20.1916, -158.935, -93.1882, 64.3322
2.3281, -1, -31.9461, 2.02902, 20.2026, -158.986, -93.1706, 64.0343
2.33598, -1, -32.11, 1.98509, 20.2135, -159.037, -93.1529, 63.7363
2.34399, -1, -32.2737, 1.94115, 20.2245, -159.088, -93.1351, 63.4385
2.35206, -1, -32.4373, 1.89721, 20.2354, -159.139, -93.117, 63.1405
2.35999, -1, -32.6011, 1.85315, 20.2462, -159.19, -93.0986, 62.8423
2.36798, -1, -32.7649, 1.80917, 20.2572, -159.242, -93.0803, 62.5441
2.37605, -1, -32.9289, 1.76511, 20.268, -159.293, -93.0623, 62.2459
2.38303, -1, -33.0933, 1.72094, 20.279, -159.344, -93.0444, 61.9474
2.39119, -1, -33.258, 1.67678, 20.2898, -159.395, -93.0266, 61.6487
2.39907, -1, -33.4232, 1.63262, 20.3007, -159.446, -93.0087, 61.3503
2.40708, -1, -33.5888, 1.58841, 20.3116, -159.498, -92.9906, 61.0517
2.41535, -1, -33.7545, 1.5442, 20.3226, -159.549, -92.9722, 60.7529
2.42321, -1, -33.9201, 1.50005, 20.3335, -159.6, -92.9535, 60.4538
2.43139, -1, -34.0859, 1.45591, 20.3444, -159.652, -92.935, 60.1547
2.43935, -1, -34.2518, 1.41182, 20.3552, -159.703, -92.9168, 59.8556
2.4474, -1, -34.4177, 1.36767, 20.3661, -159.754, -92.8988, 59.5561
2.45549, -1, -34.5834, 1.32354, 20.377, -159.806, -92.881, 59.2567
2.46356, -1, -34.7488, 1.27944, 20.3879, -159.857, -92.8632, 58.9576
2.47269, -1, -34.9139, 1.23524, 20.3987, -159.908, -92.8453, 58.6581
2.48015, -1, -35.0788, 1.19112, 20.4096, -159.96, -92.8269, 58.3586
2.48762, -1, -35.2434, 1.1469, 20.4207, -160.011, -92.8084, 58.0588
2.4962, -1, -35.4078, 1.10265, 20.4317, -160.063, -92.7899, 57.7593
2.50362, -1, -35.4898, 1.08062, 20.4373, -160.089, -92.7717, 57.4595
2.512, -1, -35.7327, 1.01511, 20.4542, -160.165, -92.7538, 57.16
2.52019, -1, -35.891, 0.972286, 20.4657, -160.216, -92.736, 56.8628
2.52701, -1, -35.9685, 0.951358, 20.4716, -160.242, -92.7272, 56.7154
2.53611, -1, -36.1925, 0.891157, 20.4896, -160.315, -92.7011, 56.2836
2.54298, -1, -36.2633, 0.872211, 20.4955, -160.339, -92.6926, 56.145
2.55227, -1, -36.4606, 0.819915, 20.5126, -160.405, -92.6682, 55.7561
2.55907, -1, -36.5207, 0.804015, 20.5177, -160.425, -92.6607, 55.6381
2.56841, -1, -36.681, 0.761609, 20.5311, -160.477, -92.6413, 55.3281
2.57497, -1, -36.7272, 0.749399, 20.5346, -160.492, -92.6359, 55.2414
2.58478, -1, -36.8441, 0.71832, 20.5417, -160.528, -92.6234, 55.0338
2.59261, -1, -36.9052, 0.702169, 20.5439, -160.544, -92.6177, 54.9386
2.60064, -1, -36.9533, 0.689538, 20.5447, -160.556, -92.6139, 54.872
2.60856, -1, -36.9894, 0.68004, 20.5448, -160.563, -92.6116, 54.8289
2.61687, -1, -37.0152, 0.673196, 20.5443, -160.568, -92.6103, 54.8034
2.62298, -1, -37.0247, 0.670714, 20.544, -160.569, -92.6098, 54.7952
2.63299, -1, -37.0424, 0.66634, 20.5435, -160.572, -92.6092, 54.7827
2.63898, -1, -37.0456, 0.665616, 20.5434, -160.572, -92.6091, 54.7809
2.64797, 2, -37.0484, 0.664795, 20.5433, -160.572, -92.609, 54.7788
2.65601, 2, -37.0486, 0.664448, 20.5433, -160.573, -92.609, 54.7778
2.66407, 2, -37.0481, 0.664301, 20.5432, -160.573, -92.6089, 54.7774
2.67202, 2, -37.048, 0.664234, 20.5432, -160.573, -92.6089, 54.7772
2.68003, 2, -37.0483, 0.664173, 20.5432, -160.573, -92.609, 54.7772
2.68698, 2, -37.0492, 0.664121, 20.5432, -160.573, -92.609, 54.7772
2.69597, 2, -37.0502, 0.664023, 20.543, -160.573, -92.609, 54.7773
2.70397, 2, -37.0515, 0.663806, 20.5428, -160.573, -92.609, 54.7775
2.71203, 2, -37.0528, 0.663554, 20.5427, -160.573, -92.609, 54.7777
2.72004, 2, -37.054, 0.663316, 20.5425, -160.573, -92.6091, 54.7779
2.72798, 2, -37.055, 0.663114, 20.5423, -160.573, -92.6091, 54.7781
2.73603, 2, -37.0554, 0.66301, 20.5421, -160.573, -92.6092, 54.7782
2.74396, 2, -37.0554, 0.66298, 20.5419, -160.573, -92.6092, 54.7785
2.75198, 2, -37.0549, 0.663004, 20.5418, -160.573, -92.6092, 54.7787
2.76009, 2, -37.0539, 0.663062, 20.5417, -160.573, -92.6093, 54.7789
2.76906, 2, -37.0529, 0.663103, 20.5417, -160.573, -92.6093, 54.7792
2.77597, 2, -37.0514, 0.663199, 20.5416, -160.573, -92.6094, 54.7793
2.78403, 2, -37.0499, 0.66333, 20.5416, -160.573, -92.6093, 54.7796
2.79204, 2, -37.0487, 0.663402, 20.5415, -160.573, -92.6094, 54.7797
2.80005, 2, -37.048, 0.663425, 20.5415, -160.573, -92.6094, 54.7798
2.80806, 2, -37.0476, 0.663409, 20.5415, -160.573, -92.6094, 54.7799
2.81596, 2, -37.0476, 0.663372, 20.5414, -160.573, -92.6094, 54.7799
2.82397, 2, -37.0479, 0.663305, 20.5414, -160.573, -92.6095, 54.7799
2.83209, 2, -37.0481, 0.66322, 20.5414, -160.573, -92.6095, 54.78
2.84006, 2, -37.0485, 0.66318, 20.5414, -160.573, -92.6095, 54.7801
2.84718, 2, -37.0493, 0.663155, 20.5413, -160.573, -92.6095, 54.7801
2.85507, 2, -37.0501, 0.663146, 20.5413, -160.573, -92.6095, 54.7801
2.86308, 2, -37.0509, 0.663159, 20.5413, -160.573, -92.6095, 54.7802
2.87198, 2, -37.0514, 0.663176, 20.5413, -160.573, -92.6095, 54.7802
2.88009, 2, -37.0516, 0.663217, 20.5413, -160.573, -92.6095, 54.7802
2.88795, 2, -37.0517, 0.663252, 20.5413, -160.573, -92.6095, 54.7803
2.89597, 2, -37.0516, 0.663269, 20.5413, -160.573, -92.6095, 54.7803
2.90403, 2, -37.0513, 0.663276, 20.5413, -160.573, -92.6095, 54.7803
2.91201, 2, -37.0509, 0.663273, 20.5413, -160.573, -92.6095, 54.7804
2.91955, 2, -37.0506, 0.663243, 20.5413, -160.573, -92.6095, 54.7805
2.92804, 2, -37.0504, 0.663245, 20.5413, -160.573, -92.6095, 54.7805
2.93597, 2, -37.0502, 0.663212, 20.5413, -160.573, -92.6095, 54.7806
2.9437, 2, -37.0501, 0.663169, 20.5413, -160.573, -92.6095, 54.7806
2.95207, 2, -37.0501, 0.663145, 20.5413, -160.573, -92.6095, 54.7806
2.96009, 2, -37.0501, 0.663152, 20.5412, -160.572, -92.6095, 54.7807
2.96789, 2, -37.0502, 0.663169, 20.5412, -160.572, -92.6095, 54.7807
2.97616, 2, -37.0503, 0.66318, 20.5412, -160.572, -92.6096, 54.7808
2.98355, 2, -37.0503, 0.663211, 20.5412, -160.572, -92.6096, 54.7808
2.99208, 2, -37.0506, 0.663233, 20.5412, -160.572, -92.6096, 54.7809
3.00024, 2, -37.0507, 0.66326, 20.5412, -160.572, -92.6096, 54.7809
3.00755, 2, -37.0508, 0.663267, 20.5412, -160.572, -92.6097, 54.7809
3.01601, 2, -37.0508, 0.663259, 20.5412, -160.572, -92.6096, 54.781
3.02296, 2, -37.0508, 0.663252, 20.5412, -160.572, -92.6097, 54.781
3.03202, 2, -37.0508, 0.663242, 20.5412, -160.572, -92.6097, 54.7811
3.04, 2, -37.0507, 0.66323, 20.5412, -160.572, -92.6097, 54.7812
3.04697, 2, -37.0507, 0.663208, 20.5412, -160.572, -92.6097, 54.7812
3.05619, 2, -37.0507, 0.663197, 20.5411, -160.572, -92.6097, 54.7813
3.06306, 2, -37.0506, 0.663188, 20.5411, -160.572, -92.6097, 54.7813
3.07238, 2, -37.0507, 0.663188, 20.5411, -160.572, -92.6097, 54.7814
3.07896, 2, -37.0507, 0.663182, 20.5411, -160.572, -92.6097, 54.7814
3.08877, 2, -37.0506, 0.663204, 20.5411, -160.572, -92.6098, 54.7814
3.09654, 2, -37.0506, 0.663247, 20.5411, -160.572, -92.6098, 54.7814
3.10454, 2, -37.0506, 0.663266, 20.5411, -160.572, -92.6098, 54.7815
3.11279, 2, -37.0506, 0.663263, 20.5411, -160.572, -92.6098, 54.7815
3.12067, 2, -37.0506, 0.663262, 20.5411, -160.572, -92.6098, 54.7816
3.1285, 2, -37.0506, 0.663268, 20.5411, -160.572, -92.6098, 54.7816
3.13679, 2, -37.0506, 0.663266, 20.5411, -160.572, -92.6098, 54.7817
3.14402, 2, -37.0506, 0.663264, 20.5411, -160.572, -92.6098, 54.7817
3.15196, 2, -37.0505, 0.663262, 20.5411, -160.572, -92.6098, 54.7817
3.16097, 2, -37.0505, 0.663249, 20.5411, -160.572, -92.6098, 54.7818
3.16697, 2, -37.0505, 0.663243, 20.5411, -160.572, -92.6098, 54.7818
3.17599, 2, -37.0505, 0.663222, 20.5411, -160.572, -92.6098, 54.7817
3.18395, 2, -37.0505, 0.663212, 20.541, -160.572, -92.6098, 54.7818
3.19201, 2, -37.0505, 0.663226, 20.541, -160.572, -92.6098, 54.7819
3.20002, 2, -37.0505, 0.663232, 20.541, -160.572, -92.6098, 54.782
3.20795, 2, -37.0505, 0.663255, 20.541, -160.572, -92.6098, 54.782
3.216, 2, -37.0505, 0.66327, 20.541, -160.572, -92.6099, 54.782
3.22396, 2, -37.0505, 0.663277, 20.541, -160.572, -92.6099, 54.782
3.23197, 2, -37.0504, 0.66328, 20.541, -160.572, -92.6099, 54.7821
3.24007, 2, -37.0504, 0.663274, 20.541, -160.572, -92.6098, 54.7821
3.24795, 2, -37.0504, 0.663274, 20.541, -160.572, -92.6098, 54.7821
3.25595, 2, -37.0504, 0.663279, 20.541, -160.572, -92.6098, 54.7821
3.26402, 2, -37.0504, 0.663261, 20.541, -160.572, -92.6098, 54.7821
3.27304, 2, -37.0503, 0.663268, 20.541, -160.572, -92.6099, 54.7822
3.28002, 2, -37.0503, 0.663276, 20.5409, -160.572, -92.6099, 54.7822
3.28801, 2, -37.0503, 0.66326, 20.5409, -160.572, -92.6099, 54.7822
3.29595, 2, -37.0503, 0.663268, 20.5409, -160.572, -92.6099, 54.7822
3.30395, 2, -37.0503, 0.663269, 20.5409, -160.572, -92.6099, 54.7823
3.31204, 2, -37.0503, 0.663252, 20.5409, -160.572, -92.6099, 54.7822
3.32001, 2, -37.0503, 0.663264, 20.5409, -160.572, -92.6099, 54.7823
3.32795, 2, -37.0502, 0.663274, 20.5409, -160.572, -92.6099, 54.7822
3.33606, 2, -37.0502, 0.663279, 20.5409, -160.572, -92.6099, 54.7823
3.34398, 2, -37.0502, 0.663281, 20.5409, -160.572, -92.6099, 54.7823
3.35196, 2, -37.0502, 0.663282, 20.5409, -160.572, -92.6099, 54.7824
3.36008, 2, -37.0502, 0.663283, 20.5409, -160.572, -92.6099, 54.7824
3.36794, 2, -37.0502, 0.663283, 20.5409, -160.572, -92.6099, 54.7824
3.37595, 2, -37.0502, 0.663283, 20.5409, -160.572, -92.6099, 54.7824
3.38402, 2, -37.0502, 0.663276, 20.5409, -160.572, -92.6099, 54.7825
3.39196, 2, -37.0502, 0.663275, 20.5408, -160.572, -92.6099, 54.7825
3.40001, 2, -37.0501, 0.663279, 20.5408, -160.572, -92.6099, 54.7825
3.40802, 2, -37.0501, 0.663281, 20.5408, -160.572, -92.6099, 54.7825
3.41591, 2, -37.0502, 0.663282, 20.5408, -160.572, -92.6099, 54.7825
3.42395, 2, -37.0501, 0.663283, 20.5408, -160.572, -92.6099, 54.7825
3.43203, 2, -37.0501, 0.663283, 20.5408, -160.572, -92.61, 54.7825
3.44001, 2, -37.0501, 0.663283, 20.5408, -160.572, -92.61, 54.7826
3.44764, 2, -37.0501, 0.663283, 20.5408, -160.572, -92.61, 54.7825
3.45605, 2, -37.0501, 0.663283, 20.5408, -160.572, -92.61, 54.7825
3.46402, 2, -37.0501, 0.663283, 20.5408, -160.572, -92.61, 54.7826
3.47204, 2, -37.0501, 0.663283, 20.5408, -160.572, -92.61, 54.7826
3.48017, 2, -37.0501, 0.663283, 20.5408, -160.572, -92.61, 54.7825
3.48751, 2, -37.0501, 0.663283, 20.5408, -160.572, -92.61, 54.7826
3.49605, 2, -37.0501, 0.663283, 20.5408, -160.572, -92.61, 54.7826
3.50416, 2, -37.05, 0.663283, 20.5408, -160.572, -92.61, 54.7825
3.51095, 2, -37.05, 0.663283, 20.5408, -160.572, -92.61, 54.7825
3.52004, 2, -37.05, 0.663283, 20.5407, -160.572, -92.61, 54.7825
3.52695, 2, -37.05, 0.663283, 20.5407, -160.572, -92.61, 54.7826
3.53599, 2, -37.05, 0.663283, 20.5407, -160.572, -92.61, 54.7826
3.5431, 2, -37.05, 0.663283, 20.5407, -160.572, -92.61, 54.7826
3.55227, 2, -37.05, 0.663283, 20.5407, -160.572, -92.6101, 54.7826
3.55894, 2, -37.05, 0.663283, 20.5407, -160.572, -92.6101, 54.7827
3.56829, 2, -37.05, 0.663295, 20.5407, -160.572, -92.6101, 54.7827
3.57498, 2, -37.0499, 0.663291, 20.5407, -160.572, -92.6101, 54.7827
3.58438, 2, -37.0499, 0.663286, 20.5407, -160.572, -92.6101, 54.7828
3.59268, 2, -37.0499, 0.663284, 20.5407, -160.572, -92.6101, 54.7828
3.6009, 2, -37.0499, 0.663283, 20.5407, -160.572, -92.6101, 54.7827
3.60849, 2, -37.0499, 0.663283, 20.5407, -160.572, -92.6101, 54.7827
3.61653, 2, -37.0499, 0.663283, 20.5407, -160.572, -92.6101, 54.7827
3.62465, 2, -37.0499, 0.663283, 20.5407, -160.572, -92.6101, 54.7828
3.63249, 2, -37.0499, 0.663283, 20.5407, -160.572, -92.6101, 54.7828
3.64074, 2, -37.0498, 0.663283, 20.5407, -160.572, -92.6102, 54.7828
3.6498, 2, -37.0498, 0.663283, 20.5407, -160.572, -92.6101, 54.7828
3.6559, 2, -37.0498, 0.663294, 20.5407, -160.572, -92.6101, 54.7828
3.66394, 2, -37.0498, 0.663314, 20.5407, -160.572, -92.6101, 54.7828
3.67204, 2, -37.0498, 0.663315, 20.5407, -160.572, -92.6102, 54.7828
3.68003, 2, -37.0498, 0.663328, 20.5407, -160.571, -92.6102, 54.7828
3.68793, 2, -37.0498, 0.663322, 20.5406, -160.572, -92.6102, 54.7828
3.69599, 2, -37.0498, 0.663319, 20.5406, -160.572, -92.6101, 54.7828
3.7039, 2, -37.0497, 0.6633, 20.5406, -160.571, -92.6101, 54.7828
3.71194, 2, -37.0497, 0.663309, 20.5406, -160.572, -92.6102, 54.7828
3.72009, 2, -37.0497, 0.663295, 20.5406, -160.572, -92.6101, 54.7829
3.72791, 4, -37.0497, 0.663288, 20.5406, -160.571, -92.6101, 54.7829
3.73593, 4, -37.0497, 0.663285, 20.5406, -160.571, -92.6102, 54.7829
3.74399, 4, -37.0496, 0.663313, 20.5406, -160.571, -92.6102, 54.783
3.75194, 4, -37.0496, 0.663334, 20.5406, -160.571, -92.6101, 54.783
3.76, 4, -37.0496, 0.663325, 20.5406, -160.571, -92.6102, 54.7829
3.7698, 4, -37.0496, 0.663343, 20.5406, -160.571, -92.6102, 54.7829
3.77593, 4, -37.0495, 0.663345, 20.5406, -160.571, -92.6102, 54.7829
3.78497, 4, -37.0495, 0.663319, 20.5406, -160.571, -92.6102, 54.7829
3.79201, 4, -37.0495, 0.663329, 20.5406, -160.571, -92.6102, 54.7829
3.79998, 4, -37.0495, 0.663341, 20.5406, -160.571, -92.6102, 54.7829
3.80793, 4, -37.0495, 0.663346, 20.5406, -160.571, -92.6102, 54.783
3.81602, 4, -37.0494, 0.663338, 20.5406, -160.571, -92.6102, 54.7829
3.82393, 4, -37.0494, 0.663337, 20.5406, -160.571, -92.6102, 54.7829
3.84901, 4, -37.0494, 0.663334, 20.5405, -160.571, -92.6102, 54.7829
3.85102, 4, -37.0493, 0.66335, 20.5405, -160.571, -92.6102, 54.7829
3.85233, 4, -37.0493, 0.66335, 20.5405, -160.571, -92.6102, 54.7829
3.8551, 4, -37.0493, 0.66335, 20.5405, -160.571, -92.6102, 54.7829
3.864, 4, -37.0492, 0.663358, 20.5405, -160.571, -92.6102, 54.7829
3.87194, 4, -37.0492, 0.663366, 20.5405, -160.571, -92.6102, 54.7829
3.87999, 4, -37.0492, 0.663363, 20.5405, -160.571, -92.6102, 54.7829
3.88799, 4, -37.049, 0.66332, 20.5405, -160.571, -92.6102, 54.7829
3.89593, 4, -37.0475, 0.662961, 20.5405, -160.571, -92.6102, 54.7829
3.90393, 4, -37.0439, 0.661551, 20.5409, -160.571, -92.6102, 54.7829
3.912, 4, -37.0383, 0.658795, 20.5419, -160.571, -92.6102, 54.7829
3.92001, 4, -37.0314, 0.654835, 20.5442, -160.571, -92.6102, 54.783
3.92793, 4, -37.0236, 0.649802, 20.5481, -160.57, -92.6102, 54.7829
3.93622, 4, -37.0142, 0.643182, 20.5545, -160.569, -92.6102, 54.7829
3.94393, 5, -37.0033, 0.634895, 20.5634, -160.567, -92.6101, 54.7829
3.95201, 5, -36.9916, 0.625359, 20.5743, -160.565, -92.61, 54.7828
3.96002, 5, -36.9794, 0.614454, 20.5872, -160.562, -92.6099, 54.7828
3.96801, 5, -36.9654, 0.602158, 20.6018, -160.559, -92.6098, 54.7827
3.97608, 5, -36.9491, 0.588473, 20.6172, -160.556, -92.6096, 54.7826
3.98405, 5, -36.9309, 0.573651, 20.6332, -160.553, -92.6095, 54.7826
3.99163, 5, -36.9117, 0.558045, 20.6498, -160.549, -92.6094, 54.7824
3.99951, 5, -36.9018, 0.542023, 20.6665, -160.546, -92.6092, 54.7824
4.00808, 5, -36.8712, 0.526088, 20.6829, -160.542, -92.6091, 54.7823
4.01554, 5, -36.8609, 0.518062, 20.6912, -160.54, -92.609, 54.7822
4.02292, 5, -36.8403, 0.501772, 20.7078, -160.537, -92.6087, 54.7821
4.03198, 5, -36.8095, 0.477138, 20.7327, -160.531, -92.6082, 54.782
4.039, 5, -36.7993, 0.469068, 20.7411, -160.529, -92.608, 54.782
4.04814, 5, -36.7689, 0.444959, 20.7667, -160.524, -92.6074, 54.7817
4.05492, 5, -36.7588, 0.436856, 20.7753, -160.522, -92.6072, 54.7817
4.0643, 5, -36.7281, 0.412658, 20.8005, -160.516, -92.6065, 54.7813
4.07097, 5, -36.7178, 0.404733, 20.809, -160.514, -92.6062, 54.7812
4.08033, 5, -36.6868, 0.380839, 20.8343, -160.508, -92.6055, 54.781
4.08695, 5, -36.6766, 0.372743, 20.8426, -160.506, -92.6052, 54.7809
4.09647, 5, -36.6464, 0.348562, 20.8679, -160.5, -92.6045, 54.7807
4.10449, 5, -36.6263, 0.332585, 20.885, -160.497, -92.604, 54.7806
4.11256, 5, -36.6061, 0.31642, 20.9019, -160.493, -92.6035, 54.7805
4.11892, 5, -36.5959, 0.30823, 20.9102, -160.491, -92.6032, 54.7805
4.12703, 5, -36.5753, 0.291923, 20.9271, -160.488, -92.6027, 54.7804
4.13659, 5, -36.5544, 0.275756, 20.944, -160.482, -92.6019, 54.7803
4.14292, 5, -36.5336, 0.259488, 20.9608, -160.48, -92.6016, 54.7803
4.15195, 5, -36.5129, 0.243027, 20.9777, -160.477, -92.601, 54.7802
4.15999, 5, -36.4923, 0.226726, 20.9948, -160.473, -92.6005, 54.7801
4.16791, 5, -36.4717, 0.210662, 21.0117, -160.47, -92.6, 54.7799
4.17596, 5, -36.4513, 0.194545, 21.0284, -160.467, -92.5994, 54.7798
4.18395, 5, -36.4308, 0.178287, 21.0453, -160.463, -92.5989, 54.7797
4.19098, 5, -36.4101, 0.162307, 21.062, -160.46, -92.5983, 54.7795
4.19996, 5, -36.3893, 0.146423, 21.0787, -160.456, -92.5978, 54.7793
4.20792, 5, -36.3687, 0.130329, 21.0956, -160.453, -92.5972, 54.779
4.21592, 5, -36.3483, 0.114093, 21.1126, -160.45, -92.5967, 54.7787
4.22397, 5, -36.3278, 0.0980832, 21.1294, -160.446, -92.5961, 54.7784
4.23194, 5, -36.3074, 0.0821335, 21.1462, -160.443, -92.5956, 54.778
4.23992, 5, -36.2869, 0.0659431, 21.163, -160.44, -92.5952, 54.7776
4.24696, 5, -36.2662, 0.0496536, 21.1795, -160.436, -92.5946, 54.7772
4.25592, 5, -36.2453, 0.0336089, 21.1961, -160.433, -92.5941, 54.7768
4.26392, 5, -36.2243, 0.0175366, 21.213, -160.429, -92.5936, 54.7764
4.272, 5, -36.2035, 0.00127993, 21.2297, -160.426, -92.593, 54.776
4.28101, 5, -36.1827, -0.0149802, 21.2464, -160.422, -92.5926, 54.7755
4.28792, 5, -36.1619, -0.0309463, 21.2633, -160.419, -92.5921, 54.7751
4.29598, 5, -36.1411, -0.0468689, 21.28, -160.415, -92.5916, 54.7746
4.30392, 5, -36.1205, -0.062949, 21.2964, -160.412, -92.5911, 54.7742
4.31191, 5, -36.0997, -0.0789679, 21.3132, -160.408, -92.5906, 54.7737
4.31994, 5, -36.0788, -0.0947628, 21.3302, -160.404, -92.5902, 54.7732
4.32799, 5, -36.058, -0.110717, 21.3467, -160.401, -92.5897, 54.7728
4.33599, 5, -36.0374, -0.126838, 21.3632, -160.397, -92.5892, 54.7723
4.34396, 5, -36.0168, -0.14286, 21.3799, -160.393, -92.5887, 54.772
4.35202, 5, -35.996, -0.15868, 21.3963, -160.389, -92.5882, 54.7716
4.35992, 5, -35.9754, -0.174607, 21.4127, -160.385, -92.5877, 54.7713
4.36792, 5, -35.9548, -0.190752, 21.4295, -160.381, -92.5872, 54.7709
4.37599, 5, -35.9338, -0.20676, 21.4463, -160.377, -92.5867, 54.7705
4.38391, 5, -35.9128, -0.222587, 21.4628, -160.373, -92.5863, 54.7702
4.39191, 5, -35.8919, -0.238576, 21.4793, -160.369, -92.5858, 54.7699
4.4, 5, -35.8711, -0.25467, 21.4959, -160.365, -92.5854, 54.7697
4.40798, 5, -35.8501, -0.270572, 21.5122, -160.362, -92.5849, 54.7694
4.41589, 5, -35.8292, -0.286282, 21.5286, -160.358, -92.5844, 54.7692
4.42399, 5, -35.8084, -0.302138, 21.5452, -160.354, -92.584, 54.769
4.43191, 5, -35.7874, -0.318141, 21.5617, -160.35, -92.5835, 54.7687
4.43997, 5, -35.7664, -0.3339, 21.5781, -160.346, -92.583, 54.7686
4.448, 5, -35.7454, -0.349633, 21.5947, -160.342, -92.5826, 54.7684
4.45536, 5, -35.7247, -0.365539, 21.6113, -160.338, -92.5821, 54.7683
4.46401, 5, -35.7038, -0.381538, 21.6275, -160.335, -92.5816, 54.7681
4.47217, 5, -35.683, -0.397296, 21.6439, -160.331, -92.5812, 54.768
4.47952, 5, -35.6622, -0.413037, 21.6605, -160.328, -92.5807, 54.7679
4.4881, 5, -35.6414, -0.42892, 21.6769, -160.324, -92.5803, 54.7678
4.49638, 5, -35.6203, -0.44488, 21.6931, -160.321, -92.5798, 54.7676
4.50362, 5, -35.5993, -0.460585, 21.7094, -160.317, -92.5793, 54.7676
4.51214, 5, -35.5783, -0.476341, 21.7257, -160.313, -92.5789, 54.7675
4.51891, 5, -35.5678, -0.484282, 21.7337, -160.312, -92.5786, 54.7675
4.52696, 5, -35.5468, -0.500223, 21.7499, -160.308, -92.5782, 54.7675
4.53602, 5, -35.5153, -0.523769, 21.7745, -160.303, -92.5774, 54.7674
4.54297, 5, -35.5048, -0.531569, 21.7827, -160.301, -92.5772, 54.7674
4.55095, 5, -35.4839, -0.547286, 21.7989, -160.297, -92.5768, 54.7674
4.56043, 5, -35.4523, -0.570939, 21.8233, -160.292, -92.5761, 54.7673
4.56694, 5, -35.4418, -0.5787, 21.8313, -160.29, -92.5759, 54.7673
4.57495, 5, -35.4207, -0.594229, 21.8473, -160.287, -92.5754, 54.7673
4.58438, 5, -35.3892, -0.617893, 21.8715, -160.281, -92.5747, 54.7674
4.59316, 5, -35.3681, -0.63366, 21.8878, -160.278, -92.5743, 54.7673
4.59891, 5, -35.3576, -0.641428, 21.8958, -160.276, -92.574, 54.7673
4.60878, 5, -35.3261, -0.664798, 21.92, -160.27, -92.5733, 54.7673
4.61728, 5, -35.3049, -0.680623, 21.9363, -160.266, -92.5729, 54.7673
4.62312, 5, -35.2943, -0.688528, 21.9443, -160.264, -92.5726, 54.7674
4.63088, 5, -35.2731, -0.704132, 21.9603, -160.261, -92.5722, 54.7674
4.64168, 5, -35.2414, -0.727467, 21.9846, -160.255, -92.5715, 54.7674
4.64851, 5, -35.2307, -0.735339, 21.9927, -160.253, -92.5713, 54.7674
4.65592, 5, -35.2095, -0.751115, 22.0088, -160.249, -92.5708, 54.7675
4.66391, 5, -35.1884, -0.766617, 22.0246, -160.245, -92.5703, 54.7675
4.6709, 5, -35.1674, -0.781965, 22.0406, -160.241, -92.5699, 54.7675
4.67994, 5, -35.1462, -0.797507, 22.0566, -160.237, -92.5694, 54.7675
4.68794, 5, -35.1249, -0.813181, 22.0724, -160.233, -92.5689, 54.7675
4.69492, 5, -35.1038, -0.828549, 22.0884, -160.228, -92.5684, 54.7675
4.70395, 5, -35.0828, -0.843922, 22.1047, -160.224, -92.568, 54.7675
4.71196, 5, -35.0616, -0.859575, 22.1206, -160.22, -92.5675, 54.7675
4.71892, 5, -35.0406, -0.87532, 22.1364, -160.216, -92.5671, 54.7676
4.72789, 5, -35.0196, -0.890804, 22.1524, -160.212, -92.5666, 54.7676
4.73596, 5, -34.9985, -0.906207, 22.1683, -160.208, -92.5661, 54.7677
4.74372, 5, -34.9772, -0.921777, 22.1838, -160.204, -92.5657, 54.7677
4.75196, 5, -34.956, -0.93745, 22.1997, -160.2, -92.5651, 54.7678
4.75991, 5, -34.9348, -0.952864, 22.2159, -160.196, -92.5647, 54.7678
4.76778, 5, -34.9135, -0.968204, 22.2317, -160.192, -92.5642, 54.7678
4.77596, 5, -34.8922, -0.983744, 22.2474, -160.189, -92.5637, 54.7679
4.785, 5, -34.8709, -0.999355, 22.2633, -160.185, -92.5633, 54.7679
4.79169, 5, -34.8497, -1.01464, 22.2792, -160.181, -92.5628, 54.7679
4.79998, 5, -34.8283, -1.02981, 22.2948, -160.178, -92.5623, 54.768
4.8079, 5, -34.8069, -1.04517, 22.3106, -160.174, -92.5618, 54.768
4.81591, 5, -34.7857, -1.06066, 22.3266, -160.17, -92.5614, 54.768
4.82399, 5, -34.7644, -1.07593, 22.3424, -160.167, -92.5609, 54.7681
4.83189, 5, -34.743, -1.09119, 22.3579, -160.163, -92.5605, 54.7682
4.83992, 5, -34.7217, -1.10659, 22.3737, -160.16, -92.56, 54.7683
4.84801, 5, -34.7004, -1.12214, 22.3893, -160.156, -92.5594, 54.7684
4.85593, 5, -34.679, -1.13747, 22.4048, -160.152, -92.5589, 54.7686
4.8651, 5, -34.6576, -1.15274, 22.4205, -160.149, -92.5585, 54.7687
4.87189, 5, -34.6362, -1.16815, 22.4364, -160.145, -92.558, 54.7688
4.87998, 5, -34.6149, -1.18364, 22.4522, -160.141, -92.5575, 54.7691
4.88789, 5, -34.5935, -1.19889, 22.4677, -160.138, -92.5571, 54.7693
4.8959, 5, -34.5722, -1.21411, 22.4833, -160.134, -92.5566, 54.7696
4.90396, 5, -34.5509, -1.2295, 22.4989, -160.13, -92.5561, 54.7699
4.9119, 5, -34.5295, -1.24493, 22.5142, -160.126, -92.5557, 54.7704
4.92171, 5, -34.508, -1.26012, 22.5297, -160.122, -92.5551, 54.7709
4.92795, 5, -34.4865, -1.27519, 22.5455, -160.118, -92.5546, 54.7714
4.93589, 5, -34.4652, -1.29042, 22.5612, -160.114, -92.5541, 54.772
4.9439, 5, -34.4436, -1.30574, 22.5766, -160.11, -92.5537, 54.7727
4.95197, 5, -34.4222, -1.32084, 22.5922, -160.106, -92.5532, 54.7734
4.95992, 5, -34.4007, -1.33591, 22.6078, -160.102, -92.5527, 54.7742
4.968, 5, -34.3793, -1.35118, 22.6231, -160.098, -92.5522, 54.775
4.976, 5, -34.3577, -1.36659, 22.6385, -160.094, -92.5517, 54.7759
4.98399, 5, -34.3361, -1.38175, 22.6544, -160.089, -92.5512, 54.7769
4.99154, 5, -34.3147, -1.39682, 22.6699, -160.085, -92.5507, 54.7778
5.00006, 5, -34.2931, -1.41204, 22.6852, -160.081, -92.5502, 54.7787
5.00801, 5, -34.2716, -1.42738, 22.7006, -160.076, -92.5497, 54.7796
5.01606, 5, -34.2501, -1.44252, 22.7161, -160.072, -92.5492, 54.7807
5.02346, 5, -34.2394, -1.45003, 22.7237, -160.07, -92.5489, 54.7812
5.03194, 5, -34.207, -1.47263, 22.7464, -160.064, -92.5481, 54.7827
5.04028, 5, -34.1853, -1.48791, 22.7621, -160.06, -92.5476, 54.7837
5.04807, 5, -34.1639, -1.50301, 22.7777, -160.055, -92.5471, 54.7847
5.05491, 5, -34.1532, -1.51046, 22.7854, -160.053, -92.5469, 54.7852
5.06421, 5, -34.1208, -1.5329, 22.8083, -160.047, -92.5462, 54.7868
5.07089, 5, -34.11, -1.54047, 22.816, -160.045, -92.5459, 54.7872
5.08037, 5, -34.0778, -1.56314, 22.8388, -160.04, -92.5452, 54.7888
5.08695, 5, -34.067, -1.57055, 22.8463, -160.038, -92.5449, 54.7893
5.09638, 5, -34.0345, -1.59301, 22.8693, -160.032, -92.5441, 54.7909
5.10449, 5, -34.0129, -1.60824, 22.8848, -160.028, -92.5436, 54.7919
5.11248, 5, -33.9914, -1.62337, 22.9, -160.024, -92.5431, 54.7929
5.12046, 5, -33.9698, -1.63826, 22.9152, -160.02, -92.5426, 54.7939
5.12852, 5, -33.9481, -1.65317, 22.9306, -160.016, -92.5421, 54.7949
5.13661, 5, -33.9373, -1.66071, 22.9382, -160.013, -92.5415, 54.796
5.14455, 5, -33.9157, -1.67584, 22.9533, -160.011, -92.5411, 54.797
5.15249, 5, -33.8939, -1.69071, 22.9685, -160.007, -92.5408, 54.7975
5.15991, 5, -33.872, -1.70551, 22.9839, -160.003, -92.5403, 54.7985
5.16793, 5, -33.8503, -1.72046, 22.9992, -159.999, -92.5398, 54.7995
5.17588, 5, -33.8287, -1.73559, 23.0142, -159.995, -92.5392, 54.8005
5.18407, 5, -33.807, -1.75052, 23.0293, -159.991, -92.5387, 54.8015
5.19318, 5, -33.7745, -1.77271, 23.052, -159.985, -92.538, 54.8031
5.19989, 5, -33.7637, -1.78018, 23.0594, -159.983, -92.5377, 54.8036
5.2079, 5, -33.742, -1.79524, 23.0743, -159.979, -92.5371, 54.8045
5.21599, 5, -33.7201, -1.8102, 23.0895, -159.975, -92.5367, 54.8056
5.22388, 5, -33.6983, -1.82501, 23.1049, -159.971, -92.5361, 54.8065
5.23189, 5, -33.6767, -1.83992, 23.1199, -159.967, -92.5356, 54.8075
5.23996, 5, -33.655, -1.85497, 23.1348, -159.963, -92.535, 54.8086
5.24789, 5, -33.6333, -1.86997, 23.15, -159.958, -92.5345, 54.8095
5.25589, 5, -33.6117, -1.88473, 23.1649, -159.954, -92.534, 54.8106
5.26551, 5, -33.5899, -1.8995, 23.1796, -159.95, -92.5332, 54.8122
5.27188, 5, -33.568, -1.91446, 23.1945, -159.945, -92.533, 54.8127
5.28089, 5, -33.5461, -1.92937, 23.2098, -159.941, -92.5324, 54.8138
5.28789, 5, -33.5243, -1.94405, 23.2249, -159.936, -92.5319, 54.8148
5.29691, 5, -33.5023, -1.95882, 23.2397, -159.932, -92.5314, 54.8158
5.30468, 5, -33.4804, -1.97379, 23.2547, -159.928, -92.5308, 54.8169
5.31088, 5, -33.4586, -1.98879, 23.2697, -159.923, -92.5303, 54.8179
5.31988, 5, -33.4367, -2.00353, 23.2846, -159.919, -92.5297, 54.8191
5.32893, 5, -33.4148, -2.01833, 23.2994, -159.915, -92.5292, 54.8202
5.33505, 5, -33.393, -2.03333, 23.3145, -159.91, -92.5286, 54.8211
5.34642, 5, -33.3603, -2.05589, 23.3372, -159.904, -92.5276, 54.8225
5.35272, 5, -33.3494, -2.06333, 23.3447, -159.902, -92.5273, 54.8229
5.35899, 5, -33.3277, -2.07833, 23.3596, -159.898, -92.5264, 54.8237
5.36788, 5, -33.3061, -2.0936, 23.3749, -159.893, -92.5256, 54.8243
5.37725, 5, -33.2844, -2.10909, 23.39, -159.889, -92.5245, 54.8248
5.3839, 5, -33.2626, -2.1244, 23.4051, -159.885, -92.5233, 54.8252
5.39194, 6, -33.241, -2.13973, 23.4207, -159.88, -92.522, 54.8254
5.39989, 6, -33.2196, -2.15538, 23.4365, -159.876, -92.5205, 54.8256
5.40787, 6, -33.1981, -2.17129, 23.4522, -159.871, -92.519, 54.8256
5.41595, 6, -33.1767, -2.18707, 23.4677, -159.867, -92.5173, 54.8257
5.42397, 6, -33.1554, -2.20293, 23.4836, -159.862, -92.5155, 54.8257
5.43188, 6, -33.1342, -2.21916, 23.4994, -159.857, -92.5135, 54.8257
5.4399, 6, -33.1129, -2.23557, 23.5151, -159.852, -92.5115, 54.8256
5.44796, 6, -33.0916, -2.2518, 23.5312, -159.847, -92.5093, 54.8255
5.45602, 6, -33.0705, -2.26813, 23.5475, -159.842, -92.507, 54.8254
5.46333, 6, -33.0495, -2.28484, 23.5637, -159.836, -92.5046, 54.8251
5.47199, 6, -33.0284, -2.30164, 23.5799, -159.831, -92.502, 54.8247
5.47997, 6, -33.0074, -2.3183, 23.5965, -159.825, -92.4994, 54.8243
5.48803, 6, -32.9865, -2.33523, 23.613, -159.819, -92.4967, 54.8237
5.4963, 6, -32.9656, -2.35251, 23.6295, -159.813, -92.4939, 54.823
5.50362, 6, -32.9446, -2.36971, 23.6464, -159.806, -92.4909, 54.8222
5.51246, 6, -32.9237, -2.38685, 23.6633, -159.8, -92.4878, 54.8214
5.51963, 6, -32.9133, -2.39549, 23.6717, -159.793, -92.4847, 54.8206
5.52805, 7, -32.8822, -2.42193, 23.6969, -159.787, -92.4814, 54.8195
5.53668, 7, -32.8615, -2.43945, 23.7139, -159.78, -92.4781, 54.8181
5.54394, 7, -32.8409, -2.45712, 23.7309, -159.773, -92.4746, 54.8163
5.55088, 7, -32.8307, -2.46614, 23.7396, -159.77, -92.4729, 54.8151
5.5609, 7, -32.7999, -2.49335, 23.7658, -159.76, -92.4674, 54.8111
5.56816, 7, -32.7794, -2.51135, 23.7834, -159.753, -92.4636, 54.808
5.57488, 7, -32.7691, -2.52044, 23.7921, -159.75, -92.4616, 54.8064
5.58498, 7, -32.7386, -2.54822, 23.8185, -159.74, -92.4557, 54.8011
5.59236, 7, -32.7183, -2.56669, 23.836, -159.733, -92.4515, 54.7972
5.59899, 7, -32.7082, -2.57595, 23.8447, -159.729, -92.4494, 54.7952
5.60994, 7, -32.678, -2.60425, 23.8717, -159.719, -92.4428, 54.7889
5.61645, 7, -32.658, -2.62317, 23.8897, -159.712, -92.4383, 54.7845
5.62488, 7, -32.6378, -2.6421, 23.9078, -159.705, -92.4337, 54.7799
5.63324, 7, -32.6278, -2.66129, 23.926, -159.698, -92.4289, 54.7752
5.63886, 7, -32.6077, -2.67093, 23.9351, -159.694, -92.4264, 54.7728
5.64787, 7, -32.5877, -2.69018, 23.9533, -159.687, -92.4214, 54.7678
5.65493, 7, -32.5677, -2.70967, 23.9717, -159.679, -92.4162, 54.7628
5.66466, 8, -32.5478, -2.7294, 23.9904, -159.671, -92.4108, 54.7549
5.67187, 8, -32.528, -2.74909, 24.0089, -159.663, -92.4052, 54.7521
5.67994, 8, -32.5083, -2.76889, 24.0275, -159.655, -92.3994, 54.7466
5.68791, 8, -32.4885, -2.78892, 24.0463, -159.647, -92.3933, 54.741
5.69591, 8, -32.4688, -2.80891, 24.065, -159.638, -92.387, 54.7352
5.70392, 8, -32.4491, -2.82907, 24.0839, -159.63, -92.3806, 54.7293
5.71186, 8, -32.4296, -2.84949, 24.1031, -159.621, -92.374, 54.7232
5.71988, 8, -32.4099, -2.86986, 24.1222, -159.613, -92.3673, 54.7169
5.72794, 8, -32.3904, -2.89032, 24.1415, -159.605, -92.3605, 54.7106
5.73586, 8, -32.3711, -2.9111, 24.1608, -159.596, -92.3537, 54.7039
5.74401, 8, -32.3518, -2.93187, 24.18, -159.588, -92.3468, 54.6971
5.75268, 8, -32.3325, -2.95276, 24.1994, -159.58, -92.3399, 54.6903
5.7589, 8, -32.3131, -2.97392, 24.2191, -159.571, -92.333, 54.6831
5.76787, 8, -32.2939, -2.99507, 24.2388, -159.563, -92.326, 54.6758
5.77686, 8, -32.2748, -3.01626, 24.2586, -159.554, -92.319, 54.6682
5.78386, 8, -32.2556, -3.03772, 24.2785, -159.545, -92.312, 54.6606
5.79292, 8, -32.2365, -3.05915, 24.2984, -159.536, -92.3049, 54.6527
5.79987, 9, -32.2175, -3.08084, 24.3184, -159.526, -92.2977, 54.6449
5.80786, 9, -32.1987, -3.10271, 24.3385, -159.517, -92.2904, 54.6371
5.81857, 9, -32.1703, -3.1355, 24.3687, -159.502, -92.2791, 54.6252
5.82393, 9, -32.1608, -3.14657, 24.3789, -159.497, -92.2753, 54.6213
5.83189, 9, -32.1419, -3.16877, 24.3993, -159.487, -92.2675, 54.6132
5.83988, 9, -32.1232, -3.19091, 24.4198, -159.477, -92.2594, 54.6052
5.84787, 9, -32.1044, -3.21338, 24.4403, -159.467, -92.2511, 54.5971
5.8559, 9, -32.0856, -3.23591, 24.4609, -159.458, -92.2424, 54.589
5.86391, 9, -32.067, -3.25846, 24.4816, -159.448, -92.2336, 54.5807
5.872, 9, -32.0486, -3.2813, 24.5024, -159.438, -92.2245, 54.5723
5.87898, 9, -32.0301, -3.30419, 24.5233, -159.428, -92.2154, 54.5637
5.88787, 9, -32.0115, -3.32724, 24.5443, -159.419, -92.2062, 54.5551
5.89586, 9, -31.9929, -3.35049, 24.5653, -159.409, -92.197, 54.5462
5.90391, 9, -31.9745, -3.37369, 24.5865, -159.398, -92.1878, 54.5373
5.91187, 9, -31.9563, -3.39716, 24.6078, -159.388, -92.1785, 54.528
5.91988, 9, -31.9379, -3.42065, 24.6292, -159.377, -92.1692, 54.5185
5.92793, 9, -31.9197, -3.44433, 24.6508, -159.366, -92.1599, 54.5088
5.93586, 10, -31.9016, -3.46827, 24.6722, -159.355, -92.1505, 54.4988
5.94386, 10, -31.8836, -3.49213, 24.6937, -159.344, -92.141, 54.4885
5.95193, 10, -31.8654, -3.51616, 24.7154, -159.333, -92.1313, 54.478
5.95987, 10, -31.8473, -3.54035, 24.7372, -159.322, -92.1214, 54.4673
5.96799, 10, -31.8293, -3.56461, 24.7592, -159.311, -92.1112, 54.4566
5.97594, 10, -31.8114, -3.58916, 24.7813, -159.3, -92.1006, 54.4457
5.984, 10, -31.7936, -3.61366, 24.8032, -159.289, -92.0899, 54.435
5.99195, 10, -31.7757, -3.63829, 24.8254, -159.278, -92.0788, 54.4242
6, 10, -31.758, -3.66315, 24.8476, -159.267, -92.0676, 54.4133
6.00803, 10, -31.7404, -3.68805, 24.87, -159.256, -92.0565, 54.4026
6.01612, 10, -31.7228, -3.71324, 24.8925, -159.244, -92.0454, 54.3917
6.02451, 10, -31.7051, -3.73834, 24.915, -159.233, -92.0344, 54.3807
6.0321, 10, -31.6873, -3.76366, 24.9377, -159.221, -92.0233, 54.3696
6.0399, 10, -31.6697, -3.78907, 24.9604, -159.208, -92.0124, 54.3584
6.04796, 10, -31.6521, -3.81456, 24.9833, -159.196, -92.0013, 54.347
6.05603, 10, -31.6346, -3.8404, 25.0062, -159.184, -91.9902, 54.3353
6.06294, 10, -31.6258, -3.85329, 25.0177, -159.178, -91.9846, 54.3293
6.07214, 11, -31.5999, -3.89212, 25.0522, -159.161, -91.9672, 54.3111
6.07885, 11, -31.5913, -3.90517, 25.0638, -159.155, -91.9612, 54.3049
6.08837, 11, -31.5655, -3.9444, 25.0988, -159.137, -91.9428, 54.2857
6.09634, 11, -31.5481, -3.9709, 25.1221, -159.125, -91.9302, 54.2728
6.10438, 11, -31.5308, -3.9973, 25.1455, -159.112, -91.9176, 54.2598
6.11328, 11, -31.5135, -4.02393, 25.169, -159.1, -91.905, 54.2468
6.1189, 11, -31.505, -4.03728, 25.1808, -159.093, -91.8988, 54.2403
6.12847, 11, -31.4793, -4.07758, 25.2164, -159.073, -91.88, 54.2209
6.13648, 11, -31.4708, -4.10463, 25.2402, -159.06, -91.8675, 54.2079
6.14527, 11, -31.4539, -4.11814, 25.2641, -159.047, -91.855, 54.195
6.15086, 11, -31.4371, -4.14536, 25.2761, -159.041, -91.8487, 54.1884
6.16178, 11, -31.4119, -4.18638, 25.3123, -159.021, -91.8293, 54.1685
6.16787, 11, -31.4035, -4.20019, 25.3244, -159.015, -91.8226, 54.1617
6.17591, 11, -31.3865, -4.22786, 25.3485, -159.002, -91.8091, 54.148
6.18384, 11, -31.3698, -4.25554, 25.3727, -158.989, -91.7952, 54.1341
6.19085, 11, -31.3532, -4.28339, 25.3971, -158.976, -91.7812, 54.1197
6.19989, 11, -31.3367, -4.31137, 25.4217, -158.962, -91.7671, 54.1051
6.20805, 12, -31.3201, -4.33959, 25.4464, -158.949, -91.7531, 54.0902
6.21591, 12, -31.3036, -4.36778, 25.471, -158.935, -91.7393, 54.0752
6.22385, 12, -31.2873, -4.39624, 25.4957, -158.92, -91.7254, 54.0603
6.23186, 12, -31.271, -4.42472, 25.5206, -158.906, -91.7117, 54.0454
6.24201, 12, -31.2466, -4.46781, 25.5581, -158.886, -91.6908, 54.0233
6.24786, 12, -31.2384, -4.4822, 25.5706, -158.879, -91.6836, 54.0159
6.2559, 12, -31.222, -4.51107, 25.5957, -158.865, -91.6692, 54.001
6.26384, 12, -31.2058, -4.54004, 25.621, -158.851, -91.6544, 53.986
6.27188, 12, -31.1896, -4.56923, 25.6464, -158.837, -91.6392, 53.9708
6.28086, 12, -31.1735, -4.59855, 25.6718, -158.823, -91.6239, 53.9552
6.29197, 12, -31.1493, -4.64275, 25.71, -158.801, -91.6013, 53.9313
6.29581, 12, -31.1413, -4.65751, 25.7228, -158.793, -91.5938, 53.9232
6.30389, 12, -31.1254, -4.6872, 25.7485, -158.778, -91.5788, 53.9066
6.31185, 12, -31.1094, -4.71706, 25.7743, -158.764, -91.5637, 53.8902
6.31987, 12, -31.0935, -4.74697, 25.8002, -158.749, -91.5484, 53.8736
6.32795, 12, -31.0775, -4.77715, 25.826, -158.734, -91.5328, 53.8573
6.33587, 12, -31.0615, -4.80742, 25.8521, -158.72, -91.5168, 53.8411
6.34393, 12, -31.0457, -4.83785, 25.8782, -158.705, -91.5004, 53.8246
6.35092, 13, -31.0299, -4.86832, 25.9044, -158.691, -91.4839, 53.808
6.3599, 13, -31.0142, -4.89891, 25.9307, -158.676, -91.4675, 53.7913
6.36794, 13, -30.9985, -4.92974, 25.9572, -158.661, -91.4512, 53.7744
6.37584, 13, -30.983, -4.96069, 25.9838, -158.645, -91.435, 53.7571
6.38384, 13, -30.9676, -4.9917, 26.0104, -158.629, -91.4188, 53.7394
6.39192, 13, -30.9522, -5.02283, 26.037, -158.614, -91.4026, 53.7215
6.39985, 13, -30.9368, -5.05412, 26.0638, -158.598, -91.386, 53.7035
6.40796, 13, -30.9212, -5.08555, 26.0908, -158.583, -91.3689, 53.6857
6.41591, 13, -30.9058, -5.11699, 26.1179, -158.568, -91.3515, 53.668
6.42384, 13, -30.8905, -5.14865, 26.1449, -158.552, -91.3341, 53.6502
6.43201, 13, -30.8752, -5.18044, 26.1721, -158.536, -91.3167, 53.6321
6.43919, 13, -30.86, -5.21238, 26.1994, -158.52, -91.2994, 53.614
6.44733, 13, -30.8448, -5.24432, 26.2268, -158.504, -91.2822, 53.5956
6.45596, 13, -30.8297, -5.27644, 26.2542, -158.487, -91.2648, 53.5769
6.46385, 13, -30.8147, -5.30878, 26.2818, -158.471, -91.2472, 53.5578
6.47218, 13, -30.7998, -5.34117, 26.3096, -158.455, -91.2294, 53.5385
6.47934, 13, -30.7849, -5.37366, 26.3374, -158.439, -91.211, 53.5192
6.48793, 14, -30.77, -5.40626, 26.3651, -158.423, -91.1923, 53.5001
6.49645, 14, -30.755, -5.4391, 26.393, -158.407, -91.174, 53.4812
6.50397, 14, -30.7402, -5.47199, 26.4211, -158.391, -91.1559, 53.4623
6.51194, 14, -30.7253, -5.50503, 26.4492, -158.374, -91.1377, 53.4433
6.52059, 14, -30.7106, -5.53821, 26.4773, -158.357, -91.1196, 53.4242
6.52789, 14, -30.6959, -5.57165, 26.5055, -158.339, -91.1011, 53.4045
6.53591, 14, -30.6813, -5.60512, 26.534, -158.322, -91.0821, 53.3844
6.54486, 14, -30.6667, -5.63859, 26.5624, -158.306, -91.0627, 53.3638
6.55222, 14, -30.6522, -5.67232, 26.5909, -158.289, -91.0432, 53.3431
6.56035, 14, -30.6378, -5.70622, 26.6196, -158.272, -91.0239, 53.3223
6.56686, 14, -30.6305, -5.7232, 26.634, -158.264, -91.0143, 53.312
6.57488, 14, -30.616, -5.75722, 26.6629, -158.246, -90.995, 53.2915
6.58418, 14, -30.5944, -5.80855, 26.7061, -158.22, -90.9661, 53.2609
6.59087, 14, -30.5872, -5.82573, 26.7205, -158.211, -90.9562, 53.2506
6.60031, 14, -30.5658, -5.8774, 26.7642, -158.184, -90.9261, 53.2195
6.60683, 14, -30.5587, -5.89468, 26.7788, -158.176, -90.9159, 53.2089
6.61488, 14, -30.5445, -5.92936, 26.8079, -158.158, -90.8955, 53.1874
6.62445, 15, -30.5233, -5.98154, 26.8519, -158.132, -90.8654, 53.1547
6.63329, 15, -30.5093, -6.01642, 26.8815, -158.115, -90.8454, 53.133
6.63891, 15, -30.5023, -6.03393, 26.8962, -158.106, -90.8354, 53.1222
6.64857, 15, -30.4884, -6.08671, 26.9406, -158.078, -90.805, 53.0899
6.65585, 15, -30.4745, -6.10434, 26.9555, -158.069, -90.7947, 53.079
6.66296, 15, -30.4606, -6.1397, 26.9854, -158.05, -90.7737, 53.0572
6.67288, 15, -30.4397, -6.1931, 27.0301, -158.023, -90.7422, 53.0239
6.67983, 15, -30.4328, -6.21094, 27.0451, -158.014, -90.7317, 53.0126
6.6869, 15, -30.419, -6.24677, 27.0751, -157.995, -90.7108, 52.9897
6.69607, 15, -30.4053, -6.28278, 27.1053, -157.977, -90.6899, 52.9667
6.7037, 15, -30.3916, -6.31891, 27.1354, -157.959, -90.6688, 52.9437
6.71185, 15, -30.378, -6.35516, 27.1657, -157.94, -90.6471, 52.9211
6.71986, 15, -30.3645, -6.39156, 27.1961, -157.92, -90.625, 52.8983
6.72783, 15, -30.351, -6.42815, 27.2266, -157.901, -90.603, 52.8754
6.73486, 15, -30.3376, -6.46482, 27.2572, -157.882, -90.5812, 52.8523
6.74384, 15, -30.3243, -6.5016, 27.2879, -157.864, -90.5595, 52.8286
6.75088, 15, -30.3109, -6.53853, 27.3188, -157.845, -90.5378, 52.8046
6.75988, 16, -30.2975, -6.57558, 27.3496, -157.826, -90.5159, 52.7805
6.76783, 16, -30.2841, -6.61277, 27.3806, -157.807, -90.4933, 52.7566
6.77735, 16, -30.2708, -6.65008, 27.4117, -157.787, -90.4706, 52.733
6.78388, 16, -30.2576, -6.68755, 27.443, -157.768, -90.448, 52.7094
6.79289, 16, -30.2444, -6.72503, 27.4741, -157.748, -90.4255, 52.6857
6.79887, 16, -30.2312, -6.7626, 27.5055, -157.729, -90.4031, 52.6615
6.80787, 16, -30.218, -6.80048, 27.5371, -157.709, -90.3804, 52.6369
6.81663, 16, -30.2049, -6.83837, 27.5686, -157.69, -90.3572, 52.6121
6.82382, 16, -30.192, -6.87635, 27.6002, -157.67, -90.3335, 52.5872
6.83187, 16, -30.1791, -6.91453, 27.6321, -157.65, -90.31, 52.5627
6.84088, 16, -30.1662, -6.95287, 27.664, -157.63, -90.2866, 52.5382
6.84798, 16, -30.1533, -6.9913, 27.6958, -157.61, -90.2633, 52.5136
6.85518, 16, -30.1404, -7.02989, 27.7277, -157.59, -90.24, 52.4888
6.86298, 16, -30.1274, -7.06871, 27.7599, -157.57, -90.2162, 52.4635
6.87186, 16, -30.1146, -7.10756, 27.7921, -157.55, -90.1919, 52.4378
6.87989, 16, -30.1018, -7.14657, 27.8242, -157.53, -90.1676, 52.4121
6.88918, 16, -30.0891, -7.18582, 27.8566, -157.509, -90.1436, 52.3866
6.89582, 17, -30.0765, -7.22514, 27.8891, -157.488, -90.1196, 52.3614
6.90389, 17, -30.064, -7.26448, 27.9216, -157.468, -90.0956, 52.3361
6.91183, 17, -30.0514, -7.30403, 27.9542, -157.447, -90.071, 52.3106
6.91984, 17, -30.0391, -7.34374, 27.987, -157.426, -90.0459, 52.2846
6.92782, 17, -30.0267, -7.38355, 28.0198, -157.406, -90.0209, 52.2582
6.93589, 17, -30.0144, -7.4235, 28.0526, -157.385, -89.9962, 52.2313
6.94383, 17, -30.0021, -7.4635, 28.0857, -157.364, -89.9715, 52.2047
6.95186, 17, -29.9897, -7.50359, 28.1189, -157.342, -89.9469, 52.1783
6.95987, 17, -29.9773, -7.54385, 28.152, -157.321, -89.9216, 52.1519
6.96802, 17, -29.9651, -7.58422, 28.1852, -157.3, -89.896, 52.1252
6.97623, 17, -29.9529, -7.62468, 28.2187, -157.279, -89.8705, 52.0984
6.98344, 17, -29.9407, -7.66528, 28.2522, -157.258, -89.8452, 52.071
6.99198, 17, -29.9286, -7.70604, 28.2858, -157.236, -89.82, 52.0435
6.99993, 17, -29.9166, -7.74701, 28.3195, -157.214, -89.7945, 52.0163
7.00796, 17, -29.9045, -7.78809, 28.3532, -157.192, -89.7683, 51.9891
7.01602, 17, -29.8925, -7.82927, 28.387, -157.171, -89.7419, 51.9618
7.02389, 17, -29.8807, -7.87063, 28.421, -157.149, -89.7158, 51.9343
7.03189, 18, -29.8689, -7.9122, 28.455, -157.127, -89.6899, 51.9065
7.04002, 18, -29.8571, -7.95382, 28.489, -157.105, -89.6641, 51.8781
7.04789, 18, -29.8454, -7.9956, 28.5232, -157.083, -89.6378, 51.8497
7.05591, 18, -29.8336, -8.03752, 28.5576, -157.061, -89.611, 51.8218
7.06398, 18, -29.8218, -8.07947, 28.5919, -157.038, -89.5843, 51.7938
7.07085, 18, -29.816, -8.10051, 28.6092, -157.027, -89.571, 51.7798
7.08009, 18, -29.7985, -8.16387, 28.6611, -156.994, -89.5313, 51.7374
7.08689, 18, -29.7927, -8.185, 28.6784, -156.983, -89.518, 51.7229
7.09655, 18, -29.7753, -8.24844, 28.7305, -156.949, -89.4771, 51.6793
7.10428, 18, -29.7639, -8.29107, 28.7655, -156.926, -89.4494, 51.6503
7.11273, 18, -29.7523, -8.33369, 28.8004, -156.903, -89.4221, 51.6218
7.12133, 18, -29.7408, -8.37636, 28.8354, -156.88, -89.3948, 51.5931
7.12685, 18, -29.7351, -8.39781, 28.853, -156.869, -89.3814, 51.5787
7.13646, 18, -29.7183, -8.46228, 28.9059, -156.835, -89.3401, 51.5349
7.14455, 18, -29.7126, -8.50544, 28.9412, -156.812, -89.312, 51.5053
7.15237, 18, -29.7012, -8.52712, 28.9589, -156.801, -89.298, 51.4904
7.15984, 18, -29.69, -8.57055, 28.9945, -156.777, -89.2702, 51.461
7.16783, 19, -29.6788, -8.61401, 29.0299, -156.754, -89.2425, 51.4319
7.17583, 19, -29.6675, -8.65775, 29.0655, -156.73, -89.2147, 51.4027
7.18541, 19, -29.6508, -8.72357, 29.1192, -156.696, -89.1718, 51.3583
7.19183, 19, -29.6452, -8.74554, 29.137, -156.685, -89.1575, 51.3432
7.19992, 19, -29.6342, -8.78961, 29.1728, -156.661, -89.1291, 51.313
7.20785, 19, -29.6232, -8.83382, 29.2088, -156.637, -89.1009, 51.2831
7.21587, 19, -29.6123, -8.87813, 29.2449, -156.613, -89.0728, 51.2534
7.22382, 19, -29.6013, -8.92249, 29.2809, -156.59, -89.0439, 51.2236
7.23183, 19, -29.5904, -8.96694, 29.3172, -156.566, -89.0148, 51.1935
7.24232, 19, -29.5743, -9.03386, 29.3717, -156.531, -88.9718, 51.1473
7.24781, 19, -29.5689, -9.05621, 29.3899, -156.518, -88.9575, 51.1317
7.25582, 19, -29.5583, -9.101, 29.4266, -156.494, -88.9288, 51.1006
7.26388, 19, -29.5476, -9.1459, 29.4632, -156.469, -88.8994, 51.0698
7.27182, 19, -29.5371, -9.19093, 29.4998, -156.445, -88.8696, 51.039
7.27983, 19, -29.5266, -9.2362, 29.5367, -156.421, -88.8403, 51.0079
7.28881, 19, -29.516, -9.28158, 29.5736, -156.397, -88.8112, 50.9763
7.29581, 19, -29.5053, -9.32704, 29.6106, -156.373, -88.7821, 50.9444
7.30403, 20, -29.4949, -9.37276, 29.6478, -156.348, -88.7523, 50.9128
7.31398, 20, -29.4793, -9.44159, 29.7034, -156.31, -88.7073, 50.8657
7.319, 20, -29.474, -9.46457, 29.722, -156.298, -88.6924, 50.85
7.32788, 20, -29.4637, -9.51067, 29.7593, -156.273, -88.6627, 50.8182
7.33581, 20, -29.4535, -9.55683, 29.7967, -156.249, -88.633, 50.786
7.3439, 20, -29.4432, -9.60311, 29.8341, -156.224, -88.6025, 50.7534
7.35181, 20, -29.4329, -9.6496, 29.8717, -156.198, -88.5718, 50.7212
7.35982, 20, -29.4227, -9.69607, 29.9094, -156.173, -88.5416, 50.6892
7.36794, 20, -29.4126, -9.74262, 29.9471, -156.148, -88.5116, 50.6571
7.37585, 20, -29.4025, -9.78933, 29.985, -156.123, -88.4812, 50.6248
7.38396, 20, -29.3925, -9.83604, 30.0229, -156.098, -88.4502, 50.5919
7.39123, 20, -29.3825, -9.88292, 30.0609, -156.072, -88.4192, 50.5588
7.39881, 20, -29.3727, -9.92999, 30.0992, -156.046, -88.3885, 50.5264
7.40782, 20, -29.3627, -9.97716, 30.1373, -156.02, -88.3578, 50.4939
7.41589, 20, -29.3528, -10.0245, 30.1755, -155.995, -88.3266, 50.4614
7.42381, 20, -29.3429, -10.0719, 30.2139, -155.97, -88.2949, 50.4286
7.43182, 20, -29.333, -10.1195, 30.2523, -155.944, -88.2635, 50.3951
7.43989, 20, -29.3232, -10.1674, 30.2909, -155.917, -88.2324, 50.3618
7.44782, 21, -29.3134, -10.2153, 30.3296, -155.891, -88.2014, 50.329
7.45594, 21, -29.3036, -10.2633, 30.3681, -155.865, -88.1698, 50.296
7.46382, 21, -29.2939, -10.3114, 30.4069, -155.839, -88.1378, 50.2629
7.47183, 21, -29.2842, -10.3596, 30.4458, -155.814, -88.1062, 50.2292
7.48019, 21, -29.2745, -10.4079, 30.4846, -155.787, -88.0748, 50.1956
7.48738, 21, -29.2648, -10.4561, 30.5236, -155.76, -88.043, 50.1623
7.49591, 21, -29.2553, -10.5046, 30.5627, -155.734, -88.0105, 50.1293
7.50426, 21, -29.2459, -10.5531, 30.6019, -155.708, -87.9781, 50.096
7.51157, 21, -29.2363, -10.6016, 30.6412, -155.682, -87.9462, 50.0623
7.51993, 21, -29.2269, -10.6504, 30.6806, -155.655, -87.9143, 50.0281
7.5286, 21, -29.2177, -10.6991, 30.72, -155.628, -87.8818, 49.9941
7.53635, 21, -29.2083, -10.7481, 30.7596, -155.6, -87.8489, 49.9604
7.54387, 21, -29.1989, -10.7973, 30.7993, -155.574, -87.8164, 49.9267
7.55275, 21, -29.1895, -10.8465, 30.8389, -155.547, -87.784, 49.8926
7.56008, 21, -29.1802, -10.896, 30.8787, -155.52, -87.7514, 49.8581
7.56685, 21, -29.1755, -10.9207, 30.8987, -155.506, -87.7348, 49.8407
7.57482, 21, -29.1662, -10.9703, 30.9386, -155.479, -87.7014, 49.8063
7.58411, 22, -29.1523, -11.0449, 30.9987, -155.437, -87.6521, 49.7551
7.5908, 22, -29.1478, -11.0699, 31.0187, -155.424, -87.6358, 49.738
7.60031, 22, -29.1341, -11.1448, 31.0789, -155.383, -87.586, 49.686
7.60684, 22, -29.1296, -11.1697, 31.099, -155.369, -87.569, 49.6683
7.61724, 22, -29.116, -11.2448, 31.1594, -155.327, -87.5188, 49.6155
7.62423, 22, -29.1115, -11.2699, 31.1999, -155.299, -87.4857, 49.5809
7.63079, 22, -29.1027, -11.3201, 31.2201, -155.285, -87.469, 49.5635
7.64125, 22, -29.0939, -11.3956, 31.281, -155.244, -87.4178, 49.5113
7.64844, 22, -29.0852, -11.4208, 31.3014, -155.23, -87.384, 49.4757
7.65681, 22, -29.0764, -11.4714, 31.3421, -155.188, -87.3506, 49.4401
7.6638, 22, -29.0678, -11.5222, 31.3829, -155.173, -87.3339, 49.4226
7.6716, 22, -29.0591, -11.573, 31.4239, -155.145, -87.3, 49.3875
7.67983, 22, -29.0505, -11.6241, 31.4649, -155.117, -87.2656, 49.3524
7.68781, 22, -29.0417, -11.6753, 31.5058, -155.089, -87.2319, 49.3169
7.69559, 22, -29.0329, -11.7265, 31.547, -155.061, -87.198, 49.2809
7.70286, 22, -29.0243, -11.778, 31.5882, -155.032, -87.164, 49.2453
7.71189, 22, -29.0157, -11.8295, 31.6296, -155.003, -87.129, 49.2099
7.71981, 23, -29.007, -11.881, 31.671, -154.975, -87.0945, 49.1745
7.72781, 23, -28.9983, -11.9326, 31.7123, -154.947, -87.0605, 49.1388
7.7348, 23, -28.9899, -11.9842, 31.7539, -154.918, -87.0262, 49.1026
7.74536, 23, -28.9772, -12.0618, 31.8163, -154.874, -86.9737, 49.049
7.7518, 23, -28.973, -12.0877, 31.8371, -154.86, -86.9563, 49.0313
7.75987, 23, -28.9645, -12.1395, 31.8789, -154.831, -86.9218, 48.9959
7.76861, 23, -28.9561, -12.1915, 31.9207, -154.802, -86.8871, 48.9601
7.7749, 23, -28.9478, -12.2437, 31.9626, -154.773, -86.8517, 48.9236
7.78387, 23, -28.9396, -12.2959, 32.0047, -154.743, -86.8162, 48.8871
7.79362, 23, -28.9314, -12.3484, 32.0466, -154.7, -86.7638, 48.8333
7.80626, 23, -28.9192, -12.4274, 32.11, -154.656, -86.7105, 48.779
7.8077, 23, -28.9152, -12.4538, 32.1311, -154.656, -86.7105, 48.779
7.81665, 23, -28.9072, -12.5066, 32.1733, -154.626, -86.6747, 48.7424
7.82379, 23, -28.8992, -12.5595, 32.2157, -154.596, -86.6394, 48.7058
7.8318, 23, -28.8911, -12.6125, 32.2582, -154.566, -86.6041, 48.6697
7.84054, 23, -28.883, -12.6655, 32.3007, -154.537, -86.5682, 48.6336
7.8468, 23, -28.8749, -12.7185, 32.3433, -154.507, -86.532, 48.5972
7.85579, 24, -28.8669, -12.7716, 32.3859, -154.477, -86.4964, 48.5602
7.86457, 24, -28.8589, -12.8247, 32.4286, -154.446, -86.4611, 48.523
7.87286, 24, -28.8509, -12.878, 32.4714, -154.416, -86.425, 48.4865
7.87983, 24, -28.8429, -12.9313, 32.5142, -154.387, -86.3886, 48.45
7.89113, 24, -28.835, -12.9849, 32.5571, -154.356, -86.3528, 48.3947
7.89496, 24, -28.8272, -13.0385, 32.6001, -154.326, -86.317, 48.376
7.90386, 24, -28.8193, -13.0924, 32.6432, -154.295, -86.2807, 48.3387
7.91179, 24, -28.8114, -13.1465, 32.6863, -154.265, -86.2438, 48.3019
7.91981, 24, -28.8036, -13.2006, 32.7295, -154.235, -86.2076, 48.2652
7.92789, 24, -28.7958, -13.2548, 32.7728, -154.204, -86.1716, 48.2283
7.93579, 24, -28.7882, -13.3091, 32.8161, -154.173, -86.135, 48.191
7.94401, 24, -28.7806, -13.3635, 32.8595, -154.142, -86.098, 48.1534
7.95186, 24, -28.7729, -13.4178, 32.903, -154.112, -86.0616, 48.1165
7.9598, 24, -28.7653, -13.4722, 32.9466, -154.082, -86.0254, 48.0797
7.96779, 24, -28.7578, -13.5266, 32.9902, -154.05, -85.9883, 48.0428
7.97589, 24, -28.7503, -13.5811, 33.0339, -154.019, -85.951, 48.0055
7.98392, 24, -28.7427, -13.6356, 33.0776, -153.988, -85.9142, 47.9681
7.99194, 25, -28.735, -13.6903, 33.1215, -153.957, -85.8778, 47.9314
7.99991, 25, -28.7273, -13.7451, 33.1653, -153.926, -85.8407, 47.8949
8.0079, 25, -28.7196, -13.8, 33.2092, -153.894, -85.8032, 47.8582
8.01594, 25, -28.7121, -13.8551, 33.2532, -153.863, -85.7664, 47.8209
8.02401, 25, -28.7047, -13.9104, 33.2972, -153.832, -85.7296, 47.7835
8.03186, 25, -28.6973, -13.9658, 33.3413, -153.801, -85.692, 47.7465
8.03988, 25, -28.6898, -14.0213, 33.3854, -153.769, -85.6544, 47.7097
8.04793, 25, -28.6825, -14.0769, 33.4297, -153.737, -85.6173, 47.6726
8.05588, 25, -28.6752, -14.1325, 33.474, -153.705, -85.5803, 47.6351
8.06433, 25, -28.6679, -14.188, 33.5183, -153.674, -85.5426, 47.5975
8.07201, 25, -28.6606, -14.2436, 33.5629, -153.642, -85.505, 47.5604
8.07882, 25, -28.657, -14.2714, 33.5852, -153.626, -85.4864, 47.542
8.08818, 25, -28.646, -14.3548, 33.6521, -153.577, -85.4305, 47.4864
8.09479, 25, -28.6424, -14.3827, 33.6744, -153.561, -85.4115, 47.4677
8.10438, 25, -28.6317, -14.4663, 33.7414, -153.514, -85.3544, 47.411
8.11231, 25, -28.6246, -14.5222, 33.7861, -153.481, -85.3171, 47.3738
8.12042, 25, -28.6175, -14.5783, 33.8308, -153.449, -85.2796, 47.3368
8.12834, 26, -28.6105, -14.6346, 33.8756, -153.416, -85.2414, 47.2997
8.13638, 26, -28.6034, -14.6909, 33.9205, -153.384, -85.2035, 47.2621
8.14456, 26, -28.5965, -14.7475, 33.9654, -153.352, -85.1659, 47.2243
8.15233, 26, -28.593, -14.7757, 33.9879, -153.335, -85.128, 47.1874
8.16035, 26, -28.5861, -14.8323, 34.0329, -153.302, -85.1087, 47.1688
8.16784, 26, -28.579, -14.8888, 34.078, -153.27, -85.0701, 47.1317
8.17578, 26, -28.5719, -14.9454, 34.1232, -153.238, -85.0322, 47.0944
8.18387, 26, -28.5647, -15.0019, 34.1684, -153.206, -84.9944, 47.0567
8.1918, 26, -28.5576, -15.0584, 34.2137, -153.172, -84.9557, 47.0195
8.19978, 26, -28.5506, -15.1149, 34.2591, -153.139, -84.9172, 46.9828
8.20804, 26, -28.5435, -15.1715, 34.3046, -153.107, -84.8792, 46.946
8.21557, 26, -28.5365, -15.2282, 34.3501, -153.074, -84.8409, 46.9089
8.22284, 26, -28.5295, -15.2851, 34.3955, -153.04, -84.8019, 46.8714
8.23186, 26, -28.5226, -15.3422, 34.4412, -153.007, -84.7634, 46.8346
8.23979, 26, -28.5157, -15.3994, 34.4865, -152.974, -84.7253, 46.7981
8.2478, 26, -28.5089, -15.4568, 34.5321, -152.941, -84.687, 46.7616
8.25586, 26, -28.502, -15.5143, 34.5778, -152.908, -84.6479, 46.7245
8.26381, 27, -28.4951, -15.5719, 34.6235, -152.874, -84.6095, 46.687
8.27178, 27, -28.4883, -15.6294, 34.6693, -152.84, -84.5712, 46.6499
8.28066, 27, -28.4815, -15.6869, 34.715, -152.807, -84.5323, 46.6131
8.28779, 27, -28.4748, -15.7444, 34.7609, -152.773, -84.493, 46.5762
8.29677, 27, -28.4682, -15.8019, 34.8069, -152.739, -84.4543, 46.5391
8.30462, 27, -28.4615, -15.8593, 34.8528, -152.706, -84.4159, 46.5016
8.31178, 27, -28.4548, -15.9168, 34.899, -152.672, -84.3767, 46.4646
8.31978, 27, -28.4482, -15.9745, 34.9451, -152.639, -84.3374, 46.4278
8.32883, 27, -28.4415, -16.0321, 34.9913, -152.604, -84.2988, 46.3909
8.33814, 27, -28.4315, -16.1191, 35.0604, -152.553, -84.2403, 46.3349
8.34383, 27, -28.4281, -16.1481, 35.0835, -152.536, -84.2204, 46.316
8.35259, 27, -28.4213, -16.2063, 35.1297, -152.503, -84.1812, 46.279
8.35881, 27, -28.4145, -16.2646, 35.1758, -152.468, -84.1426, 46.2423
8.36779, 27, -28.4078, -16.323, 35.222, -152.433, -84.1036, 46.2057
8.37665, 27, -28.401, -16.3814, 35.2684, -152.4, -84.0638, 46.1688
8.38288, 27, -28.3944, -16.4397, 35.3148, -152.366, -84.0246, 46.1317
8.39187, 27, -28.3878, -16.4981, 35.3611, -152.331, -83.9858, 46.0951
8.40075, 28, -28.3811, -16.5564, 35.4077, -152.296, -83.9462, 46.0589
8.40779, 28, -28.3744, -16.6146, 35.4542, -152.262, -83.9065, 46.0228
8.41578, 28, -28.3678, -16.6728, 35.5008, -152.228, -83.8674, 45.9863
8.42573, 28, -28.3612, -16.7311, 35.5474, -152.193, -83.8286, 45.9494
8.43178, 28, -28.3546, -16.7895, 35.5941, -152.158, -83.7889, 45.913
8.43985, 28, -28.3479, -16.8481, 35.6408, -152.123, -83.7495, 45.8772
8.44779, 28, -28.3413, -16.9068, 35.6874, -152.089, -83.7105, 45.8414
8.45578, 28, -28.3346, -16.9656, 35.7341, -152.054, -83.6713, 45.8054
8.46396, 28, -28.328, -17.0245, 35.7808, -152.019, -83.6313, 45.769
8.47178, 28, -28.3215, -17.0835, 35.8274, -151.984, -83.5919, 45.733
8.48316, 28, -28.315, -17.1424, 35.8742, -151.949, -83.5528, 45.6799
8.48796, 28, -28.3086, -17.2015, 35.921, -151.914, -83.5132, 45.6622
8.49587, 28, -28.3021, -17.2603, 35.9679, -151.878, -83.4732, 45.6267
8.50393, 28, -28.2956, -17.3192, 36.0148, -151.843, -83.4339, 45.5909
8.51224, 28, -28.2891, -17.378, 36.0618, -151.808, -83.3946, 45.5552
8.51936, 28, -28.2827, -17.4369, 36.1089, -151.773, -83.3544, 45.5201
8.52853, 28, -28.2762, -17.4957, 36.1558, -151.737, -83.3143, 45.4852
8.53595, 28, -28.2697, -17.5548, 36.2029, -151.701, -83.275, 45.4503
8.54397, 29, -28.263, -17.6139, 36.2501, -151.666, -83.2354, 45.4151
8.55257, 29, -28.2564, -17.6731, 36.2973, -151.631, -83.195, 45.3798
8.55988, 29, -28.2497, -17.7324, 36.3443, -151.594, -83.1552, 45.3451
8.56789, 29, -28.2432, -17.7919, 36.3914, -151.559, -83.1157, 45.3107
8.5771, 29, -28.2366, -17.8513, 36.4385, -151.524, -83.0755, 45.2763
8.58285, 29, -28.2333, -17.881, 36.4621, -151.506, -83.0553, 45.2591
8.59212, 29, -28.2234, -17.9702, 36.5328, -151.452, -82.9956, 45.2066
8.59877, 29, -28.2202, -17.9999, 36.5565, -151.434, -82.976, 45.1892
8.60686, 29, -28.2136, -18.0592, 36.6038, -151.398, -82.9361, 45.155
8.61632, 29, -28.2039, -18.1482, 36.6748, -151.345, -82.8758, 45.1041
8.62605, 29, -28.1975, -18.2075, 36.7222, -151.308, -82.8363, 45.0702
8.63232, 29, -28.1911, -18.267, 36.7697, -151.272, -82.7964, 45.0359
8.64039, 29, -28.1846, -18.3264, 36.8171, -151.237, -82.7558, 45.0017
8.64929, 29, -28.1814, -18.386, 36.8646, -151.201, -82.716, 44.9684
8.65484, 29, -28.1748, -18.4159, 36.8883, -151.182, -82.6963, 44.9517
8.66691, 29, -28.1652, -18.5055, 36.9596, -151.127, -82.6364, 44.9018
8.67306, 29, -28.1588, -18.5653, 37.007, -151.091, -82.5961, 44.8682
8.67977, 30, -28.1557, -18.5952, 37.0307, -151.073, -82.5762, 44.8513
8.68785, 30, -28.1493, -18.6551, 37.0782, -151.037, -82.5366, 44.8175
8.69477, 30, -28.1429, -18.7149, 37.1257, -151, -82.4963, 44.7845
8.70377, 30, -28.1365, -18.7746, 37.1731, -150.963, -82.4556, 44.7517
8.71183, 30, -28.1301, -18.8344, 37.2207, -150.927, -82.4158, 44.7192
8.71982, 30, -28.1237, -18.8941, 37.2682, -150.89, -82.3762, 44.6863
8.72777, 30, -28.1173, -18.954, 37.3159, -150.853, -82.3356, 44.6534
8.73581, 30, -28.1108, -19.0137, 37.3635, -150.817, -82.2953, 44.6208
8.74292, 30, -28.1042, -19.0736, 37.4112, -150.781, -82.2556, 44.5889
8.75166, 30, -28.0976, -19.1336, 37.4588, -150.744, -82.2154, 44.5571
8.75875, 30, -28.091, -19.1937, 37.5064, -150.706, -82.1747, 44.5254
8.76777, 30, -28.0845, -19.2537, 37.5541, -150.67, -82.1346, 44.4935
8.77576, 30, -28.078, -19.3138, 37.6018, -150.633, -82.0949, 44.4615
8.78382, 30, -28.0714, -19.3739, 37.6494, -150.596, -82.0547, 44.4298
8.79076, 30, -28.0648, -19.434, 37.6971, -150.559, -82.0144, 44.3987
8.79978, 30, -28.0582, -19.4939, 37.7447, -150.522, -81.9746, 44.3679
8.80783, 30, -28.0516, -19.5538, 37.7924, -150.486, -81.9346, 44.3369
8.81576, 31, -28.0451, -19.6137, 37.84, -150.448, -81.8941, 44.3058
8.82376, 31, -28.0386, -19.6736, 37.8877, -150.411, -81.8539, 44.2746
8.83178, 31, -28.0319, -19.7335, 37.9354, -150.374, -81.8142, 44.244
8.8401, 31, -28.0253, -19.7935, 37.9832, -150.337, -81.7742, 44.2141
8.84776, 31, -28.0186, -19.8536, 38.0309, -150.299, -81.7336, 44.1842
8.85579, 31, -28.012, -19.9137, 38.0787, -150.262, -81.6938, 44.1544
8.86463, 31, -28.0054, -19.9738, 38.1264, -150.225, -81.654, 44.1244
8.87176, 31, -27.9989, -20.0341, 38.1741, -150.187, -81.6135, 44.0941
8.87981, 31, -27.9923, -20.0942, 38.2219, -150.149, -81.5731, 44.0642
8.88882, 31, -27.9857, -20.1544, 38.2697, -150.112, -81.5333, 44.0349
8.89591, 31, -27.979, -20.2143, 38.3175, -150.075, -81.4934, 44.0058
8.90354, 31, -27.9725, -20.2744, 38.3652, -150.037, -81.4527, 43.9769
8.91256, 31, -27.9658, -20.3343, 38.413, -149.999, -81.4126, 43.9479
8.91976, 31, -27.9591, -20.3943, 38.4607, -149.961, -81.3728, 43.9187
8.92776, 31, -27.9524, -20.4542, 38.5083, -149.924, -81.3326, 43.8898
8.93657, 31, -27.9455, -20.5143, 38.5561, -149.886, -81.2921, 43.8616
8.94376, 31, -27.9387, -20.5745, 38.6038, -149.848, -81.2523, 43.8337
8.95175, 32, -27.9318, -20.6346, 38.6515, -149.811, -81.2127, 43.806
8.96058, 32, -27.9251, -20.6949, 38.6991, -149.773, -81.1723, 43.7785
8.96777, 32, -27.9182, -20.7552, 38.7468, -149.735, -81.1322, 43.7507
8.97584, 32, -27.9113, -20.8155, 38.7945, -149.697, -81.0927, 43.7229
8.98582, 32, -27.9044, -20.8756, 38.8421, -149.66, -81.0528, 43.6955
8.99188, 32, -27.8975, -20.9357, 38.8899, -149.622, -81.0123, 43.6689
8.99987, 32, -27.8906, -20.9958, 38.9376, -149.583, -80.9723, 43.6426
9.00786, 32, -27.8837, -21.0557, 38.9854, -149.545, -80.9328, 43.6164
9.01601, 32, -27.8767, -21.1155, 39.0331, -149.508, -80.8928, 43.5903
9.02391, 32, -27.8696, -21.1754, 39.0807, -149.47, -80.8524, 43.5642
9.03187, 32, -27.8624, -21.2354, 39.1284, -149.431, -80.8128, 43.5382
9.04008, 32, -27.8554, -21.2953, 39.1759, -149.393, -80.7732, 43.5125
9.04785, 32, -27.8484, -21.3554, 39.2236, -149.355, -80.7328, 43.4875
9.05583, 32, -27.8413, -21.4155, 39.2712, -149.317, -80.6927, 43.4629
9.06391, 32, -27.8343, -21.4756, 39.3188, -149.278, -80.6532, 43.4385
9.0719, 32, -27.8272, -21.5358, 39.3663, -149.24, -80.6136, 43.4142
9.08008, 32, -27.8201, -21.5958, 39.4139, -149.202, -80.5733, 43.3899
9.08812, 33, -27.813, -21.6559, 39.4615, -149.164, -80.5336, 43.3654
9.09475, 33, -27.8094, -21.6858, 39.4852, -149.144, -80.5139, 43.3532
9.10425, 33, -27.7985, -21.7755, 39.5566, -149.087, -80.4542, 43.3176
9.11375, 33, -27.7911, -21.8352, 39.6042, -149.049, -80.4139, 43.2946
9.12025, 33, -27.7836, -21.895, 39.6518, -149.01, -80.3744, 43.272
9.1284, 33, -27.7762, -21.9547, 39.6992, -148.972, -80.3352, 43.2494
9.13631, 33, -27.7688, -22.0145, 39.7467, -148.934, -80.2952, 43.2271
9.14434, 33, -27.7614, -22.0744, 39.7941, -148.895, -80.2555, 43.2047
9.15248, 33, -27.7539, -22.1343, 39.8413, -148.857, -80.2163, 43.1822
9.16063, 33, -27.7502, -22.1943, 39.8887, -148.818, -80.1768, 43.1599
9.16773, 33, -27.7428, -22.2243, 39.9124, -148.799, -80.1568, 43.149
9.17581, 33, -27.7354, -22.2842, 39.9597, -148.761, -80.1169, 43.1275
9.18375, 33, -27.728, -22.3441, 40.007, -148.722, -80.0778, 43.1066
9.19177, 33, -27.7205, -22.4038, 40.0543, -148.683, -80.0386, 43.0862
9.19982, 33, -27.7129, -22.4635, 40.1016, -148.645, -79.9986, 43.066
9.20778, 33, -27.7053, -22.523, 40.1488, -148.607, -79.9591, 43.0461
9.21581, 33, -27.6977, -22.5825, 40.1961, -148.567, -79.92, 43.0262
9.2238, 34, -27.6902, -22.6419, 40.2435, -148.529, -79.8804, 43.0062
9.23175, 34, -27.6827, -22.7013, 40.2907, -148.49, -79.8403, 42.9863
9.23975, 34, -27.6751, -22.7609, 40.3378, -148.451, -79.8009, 42.9667
9.24779, 34, -27.6675, -22.8204, 40.3849, -148.412, -79.7618, 42.9476
9.25578, 34, -27.6599, -22.88, 40.4319, -148.374, -79.722, 42.9293
9.26381, 34, -27.6523, -22.9395, 40.4789, -148.335, -79.6822, 42.9112
9.27175, 34, -27.6445, -22.9991, 40.5257, -148.296, -79.643, 42.8936
9.27975, 34, -27.6366, -23.0586, 40.5727, -148.257, -79.6037, 42.8764
9.28782, 34, -27.6286, -23.1181, 40.6196, -148.219, -79.5637, 42.8593
9.29678, 34, -27.6206, -23.1775, 40.6665, -148.18, -79.524, 42.8425
9.30388, 34, -27.6126, -23.2367, 40.7133, -148.14, -79.4852, 42.8257
9.31179, 34, -27.6046, -23.2958, 40.7603, -148.102, -79.4459, 42.8089
9.31974, 34, -27.5965, -23.3549, 40.807, -148.063, -79.406, 42.7926
9.32774, 34, -27.5884, -23.4139, 40.8538, -148.025, -79.3669, 42.7765
9.33583, 34, -27.5803, -23.4729, 40.9006, -147.985, -79.3279, 42.7611
9.34373, 34, -27.5723, -23.532, 40.9473, -147.947, -79.2883, 42.7463
9.35175, 34, -27.5641, -23.5911, 40.9939, -147.908, -79.2485, 42.7319
9.35978, 35, -27.5559, -23.6502, 41.0404, -147.869, -79.2097, 42.718
9.36774, 35, -27.5476, -23.7093, 41.0869, -147.829, -79.1709, 42.7045
9.37576, 35, -27.5394, -23.7684, 41.1333, -147.791, -79.1313, 42.6913
9.38386, 35, -27.5313, -23.8273, 41.1796, -147.752, -79.0921, 42.6784
9.39178, 35, -27.523, -23.8861, 41.226, -147.713, -79.0535, 42.6657
9.39982, 35, -27.5147, -23.9448, 41.2723, -147.674, -79.0145, 42.6532
9.40774, 35, -27.5063, -24.0033, 41.3187, -147.635, -78.9748, 42.641
9.41576, 35, -27.498, -24.0618, 41.3649, -147.596, -78.9357, 42.6288
9.42384, 35, -27.4895, -24.1202, 41.4112, -147.556, -78.8972, 42.617
9.43175, 35, -27.4809, -24.1786, 41.4574, -147.518, -78.8581, 42.6055
9.43975, 35, -27.4722, -24.237, 41.5035, -147.479, -78.8187, 42.5944
9.44802, 35, -27.4634, -24.2954, 41.5496, -147.44, -78.78, 42.5837
9.45589, 35, -27.4546, -24.3539, 41.5957, -147.4, -78.7415, 42.5736
9.46374, 35, -27.4458, -24.4123, 41.6416, -147.362, -78.7022, 42.5639
9.47206, 35, -27.4368, -24.4708, 41.6874, -147.323, -78.6631, 42.5547
9.47974, 35, -27.4279, -24.5291, 41.7332, -147.283, -78.6245, 42.5458
9.48801, 35, -27.4189, -24.5874, 41.7789, -147.244, -78.5862, 42.5374
9.49605, 36, -27.41, -24.6455, 41.8245, -147.206, -78.5472, 42.5294
9.50331, 36, -27.4009, -24.7034, 41.8701, -147.167, -78.5086, 42.5218
9.51221, 36, -27.3917, -24.7612, 41.9157, -147.127, -78.4704, 42.5147
9.52036, 36, -27.3826, -24.819, 41.9613, -147.088, -78.432, 42.5079
9.52786, 36, -27.3734, -24.8768, 42.0068, -147.05, -78.393, 42.5014
9.53642, 36, -27.3642, -24.9345, 42.0522, -147.011, -78.3545, 42.4952
9.54474, 36, -27.3548, -24.9923, 42.0976, -146.971, -78.3165, 42.4895
9.55182, 36, -27.3455, -25.0501, 42.1429, -146.933, -78.2782, 42.484
9.5606, 36, -27.3362, -25.1079, 42.1881, -146.894, -78.2395, 42.479
9.56896, 36, -27.3267, -25.1657, 42.2333, -146.854, -78.2014, 42.4742
9.57679, 36, -27.3172, -25.2233, 42.2785, -146.815, -78.1635, 42.4698
9.58468, 36, -27.3075, -25.2808, 42.3236, -146.777, -78.125, 42.4658
9.59312, 36, -27.2979, -25.3382, 42.3685, -146.738, -78.0863, 42.4622
9.59879, 36, -27.293, -25.3669, 42.391, -146.718, -78.0673, 42.4605
9.60893, 36, -27.2782, -25.4526, 42.4584, -146.659, -78.0106, 42.4561
9.61623, 36, -27.2683, -25.5096, 42.503, -146.621, -77.9722, 42.4537
9.62276, 36, -27.2634, -25.5381, 42.5255, -146.601, -77.9529, 42.4527
9.63077, 36, -27.2535, -25.5951, 42.5703, -146.562, -77.9149, 42.451
9.64133, 37, -27.2385, -25.6804, 42.6372, -146.503, -77.8584, 42.4492
9.64913, 37, -27.2284, -25.7373, 42.6817, -146.465, -77.8199, 42.4485
9.65482, 37, -27.2235, -25.7657, 42.7039, -146.445, -77.8008, 42.4482
9.66649, 37, -27.2134, -25.8226, 42.7484, -146.406, -77.7442, 42.4479
9.67173, 37, -27.2033, -25.8794, 42.7928, -146.367, -77.7256, 42.4478
9.67878, 37, -27.1931, -25.9361, 42.837, -146.329, -77.6876, 42.4478
9.68779, 37, -27.1828, -25.9927, 42.8812, -146.29, -77.6494, 42.4478
9.69573, 37, -27.1725, -26.0491, 42.9254, -146.251, -77.612, 42.4478
9.70279, 37, -27.1619, -26.1054, 42.9695, -146.212, -77.5746, 42.448
9.71178, 37, -27.1513, -26.1615, 43.0135, -146.174, -77.5365, 42.4484
9.7252, 37, -27.1301, -26.2734, 43.1013, -146.096, -77.4612, 42.4504
9.72775, 37, -27.1301, -26.2734, 43.1013, -146.096, -77.4612, 42.4504
9.73575, 37, -27.1193, -26.3293, 43.1451, -146.058, -77.424, 42.4528
9.74372, 37, -27.1085, -26.3851, 43.1887, -146.019, -77.3861, 42.4564
9.75072, 37, -27.0976, -26.4409, 43.2323, -145.98, -77.3483, 42.4607
9.75976, 37, -27.0867, -26.4968, 43.2758, -145.941, -77.3112, 42.4659
9.76773, 37, -27.0756, -26.5525, 43.3193, -145.903, -77.274, 42.4719
9.77472, 38, -27.0647, -26.6083, 43.3625, -145.864, -77.236, 42.4784
9.78373, 38, -27.0537, -26.664, 43.4058, -145.825, -77.1983, 42.4856
9.79272, 38, -27.0426, -26.7194, 43.449, -145.787, -77.1614, 42.4932
9.79979, 38, -27.0314, -26.7747, 43.492, -145.749, -77.1244, 42.5015
9.80877, 38, -27.0201, -26.8298, 43.5351, -145.71, -77.0866, 42.5101
9.81479, 38, -27.0086, -26.8847, 43.5781, -145.671, -77.0491, 42.5194
9.82379, 38, -26.9971, -26.9395, 43.621, -145.634, -77.0122, 42.529
9.83172, 38, -26.9855, -26.9942, 43.6638, -145.595, -76.9751, 42.5394
9.8399, 38, -26.9738, -27.0489, 43.7064, -145.557, -76.9372, 42.5502
9.84777, 38, -26.962, -27.1034, 43.7491, -145.518, -76.9001, 42.5616
9.85573, 38, -26.9501, -27.158, 43.7916, -145.48, -76.8636, 42.5736
9.86373, 38, -26.9382, -27.2126, 43.8338, -145.442, -76.8269, 42.5862
9.87179, 38, -26.9261, -27.2671, 43.8761, -145.404, -76.7895, 42.5995
9.87972, 38, -26.9141, -27.3216, 43.9182, -145.366, -76.7527, 42.6134
9.88778, 38, -26.9021, -27.3759, 43.9603, -145.328, -76.7162, 42.6279
9.89583, 38, -26.89, -27.4302, 44.0023, -145.29, -76.6793, 42.6432
9.90373, 38, -26.8778, -27.4842, 44.044, -145.252, -76.6419, 42.6589
9.91173, 39, -26.8655, -27.538, 44.0859, -145.214, -76.6051, 42.6749
9.9198, 39, -26.853, -27.5917, 44.1276, -145.177, -76.5688, 42.6911
9.92775, 39, -26.8402, -27.6452, 44.169, -145.139, -76.5322, 42.7077
9.93579, 39, -26.8275, -27.6986, 44.2106, -145.1, -76.495, 42.7248
9.94373, 39, -26.8148, -27.7519, 44.252, -145.063, -76.4583, 42.7425
9.95173, 39, -26.8018, -27.8051, 44.2933, -145.025, -76.4221, 42.7606
9.95979, 39, -26.7889, -27.8584, 44.3345, -144.987, -76.3854, 42.7796
9.96773, 39, -26.7759, -27.9116, 44.3755, -144.949, -76.3481, 42.7994
9.97573, 39, -26.7628, -27.9649, 44.4164, -144.912, -76.3115, 42.8198
9.98396, 39, -26.7498, -28.0179, 44.4571, -144.875, -76.2753, 42.8407
9.99238, 39, -26.7367, -28.071, 44.4977, -144.837, -76.2386, 42.8617
9.99982, 39, -26.7235, -28.1239, 44.5383, -144.799, -76.2015, 42.8831
10.0079, 39, -26.7101, -28.1766, 44.5788, -144.763, -76.1651, 42.9049
10.0158, 39, -26.6966, -28.2291, 44.6192, -144.725, -76.1288, 42.9273
10.0238, 39, -26.6828, -28.2814, 44.6594, -144.687, -76.0922, 42.9503
10.0319, 39, -26.6691, -28.3335, 44.6996, -144.65, -76.0552, 42.9742
10.0397, 39, -26.6553, -28.3855, 44.7397, -144.614, -76.019, 42.9991
10.0477, 40, -26.6413, -28.4372, 44.7797, -144.577, -75.9832, 43.0244
10.0559, 40, -26.6273, -28.4889, 44.8195, -144.54, -75.947, 43.0499
10.0638, 40, -26.6131, -28.5405, 44.8593, -144.503, -75.9103, 43.0758
10.0718, 40, -26.5989, -28.5921, 44.8989, -144.467, -75.8743, 43.1021
10.08, 40, -26.5847, -28.6436, 44.9383, -144.43, -75.8386, 43.1289
10.0867, 40, -26.5775, -28.6693, 44.9581, -144.411, -75.8205, 43.1427
10.096, 40, -26.556, -28.7464, 45.0169, -144.356, -75.7656, 43.1853
10.1028, 40, -26.5487, -28.772, 45.0364, -144.338, -75.7476, 43.1999
10.1122, 40, -26.5266, -28.8486, 45.0949, -144.284, -75.6942, 43.2437
10.1202, 40, -26.5118, -28.8995, 45.1337, -144.247, -75.6582, 43.2735
10.1286, 40, -26.4969, -28.9501, 45.1723, -144.211, -75.6218, 43.3039
10.1372, 40, -26.4818, -29.0004, 45.211, -144.175, -75.5859, 43.3352
10.1427, 40, -26.4742, -29.0256, 45.2303, -144.157, -75.5682, 43.3512
10.1509, 40, -26.4589, -29.0758, 45.2687, -144.12, -75.5326, 43.3838
10.1605, 40, -26.4359, -29.1507, 45.3261, -144.066, -75.4781, 43.4331
10.1677, 40, -26.4282, -29.1756, 45.3451, -144.048, -75.4602, 43.4497
10.1757, 40, -26.4127, -29.2254, 45.383, -144.013, -75.4247, 43.4832
10.1837, 41, -26.3971, -29.2751, 45.421, -143.977, -75.3894, 43.5177
10.1917, 41, -26.3813, -29.3248, 45.4587, -143.941, -75.3534, 43.5532
10.2013, 41, -26.3574, -29.3989, 45.5149, -143.888, -75.2999, 43.607
10.2068, 41, -26.3494, -29.4237, 45.5336, -143.871, -75.2823, 43.6251
10.2158, 41, -26.3332, -29.473, 45.5709, -143.835, -75.2472, 43.6616
10.2238, 41, -26.317, -29.5221, 45.608, -143.799, -75.2114, 43.6989
10.2318, 41, -26.3007, -29.5711, 45.6451, -143.765, -75.1756, 43.7375
10.2397, 41, -26.2842, -29.6199, 45.6819, -143.73, -75.1404, 43.7764
10.2477, 41, -26.2678, -29.6685, 45.7185, -143.695, -75.1056, 43.8156
10.2581, 41, -26.2429, -29.741, 45.7734, -143.642, -75.0524, 43.8755
10.2627, 41, -26.2345, -29.7651, 45.7915, -143.625, -75.0346, 43.8961
10.2717, 41, -26.2176, -29.8131, 45.8276, -143.591, -74.9997, 43.9379
10.2798, 41, -26.2006, -29.8609, 45.8638, -143.556, -74.9649, 43.9799
10.2877, 41, -26.1834, -29.9086, 45.8998, -143.521, -74.9297, 44.0222
10.2967, 41, -26.1662, -29.9562, 45.9356, -143.488, -74.894, 44.0657
10.3027, 41, -26.1488, -30.0037, 45.9714, -143.454, -74.859, 44.1103
10.3117, 41, -26.1312, -30.0511, 46.0068, -143.42, -74.8244, 44.1552
10.3197, 42, -26.1136, -30.0982, 46.042, -143.385, -74.7896, 44.2001
10.3278, 42, -26.0959, -30.1453, 46.0774, -143.352, -74.7542, 44.246
10.3357, 42, -26.0781, -30.1923, 46.1124, -143.319, -74.7193, 44.293
10.3437, 42, -26.06, -30.239, 46.1471, -143.285, -74.6848, 44.3404
10.3517, 42, -26.0419, -30.2855, 46.1819, -143.251, -74.65, 44.3882
10.3598, 42, -26.0236, -30.3317, 46.2164, -143.218, -74.6145, 44.4369
10.3678, 42, -26.0052, -30.3779, 46.2508, -143.185, -74.5794, 44.4868
10.3757, 42, -25.9866, -30.4238, 46.285, -143.152, -74.5449, 44.5367
10.3838, 42, -25.9679, -30.4694, 46.3191, -143.119, -74.5105, 44.5869
10.3918, 42, -25.9491, -30.515, 46.3529, -143.086, -74.4753, 44.6384
10.3999, 42, -25.9302, -30.5604, 46.3866, -143.054, -74.4403, 44.6908
10.4079, 42, -25.911, -30.6055, 46.4202, -143.022, -74.4059, 44.7431
10.4157, 42, -25.8916, -30.6506, 46.4534, -142.99, -74.3716, 44.7964
10.4237, 42, -25.8721, -30.6954, 46.4865, -142.957, -74.3367, 44.8511
10.4318, 42, -25.8526, -30.7402, 46.5195, -142.925, -74.3017, 44.9058
10.4397, 42, -25.8329, -30.7847, 46.5523, -142.894, -74.2674, 44.9612
10.4477, 42, -25.8131, -30.829, 46.5848, -142.863, -74.2334, 45.0179
10.456, 43, -25.7932, -30.8732, 46.6173, -142.831, -74.199, 45.0754
10.4637, 43, -25.7733, -30.9172, 46.6496, -142.8, -74.1642, 45.1329
10.4718, 43, -25.753, -30.961, 46.6816, -142.769, -74.1301, 45.1916
10.4797, 43, -25.7325, -31.0046, 46.7133, -142.739, -74.0961, 45.2513
10.4877, 43, -25.7119, -31.048, 46.7451, -142.708, -74.062, 45.3109
10.4961, 43, -25.6913, -31.0911, 46.7766, -142.677, -74.0273, 45.3714
10.5032, 43, -25.6705, -31.1341, 46.8078, -142.646, -73.993, 45.4329
10.5118, 43, -25.6494, -31.1768, 46.839, -142.617, -73.9593, 45.4944
10.5202, 43, -25.6284, -31.2193, 46.87, -142.587, -73.9256, 45.5571
10.5273, 43, -25.6073, -31.2616, 46.9007, -142.557, -73.8912, 45.6207
10.5358, 43, -25.5858, -31.3037, 46.9312, -142.527, -73.8569, 45.684
10.5445, 43, -25.5641, -31.3456, 46.9617, -142.497, -73.8232, 45.7486
10.5526, 43, -25.5424, -31.3873, 46.9918, -142.468, -73.7896, 45.8139
10.56, 43, -25.5205, -31.4287, 47.0216, -142.44, -73.7554, 45.8791
10.5686, 43, -25.4983, -31.47, 47.0513, -142.411, -73.721, 45.9458
10.5758, 43, -25.4759, -31.5111, 47.0809, -142.382, -73.6874, 46.0129
10.5847, 43, -25.4535, -31.552, 47.1101, -142.353, -73.654, 46.0804
10.592, 43, -25.4307, -31.5926, 47.1391, -142.325, -73.6205, 46.1494
10.5987, 44, -25.4193, -31.6129, 47.1535, -142.312, -73.6034, 46.1841
10.609, 44, -25.3848, -31.6733, 47.1966, -142.27, -73.5527, 46.289
10.6162, 44, -25.3618, -31.7133, 47.225, -142.242, -73.5194, 46.3607
10.6227, 44, -25.3502, -31.7332, 47.2391, -142.228, -73.5027, 46.3964
10.6332, 44, -25.3151, -31.7925, 47.2811, -142.188, -73.452, 46.5051
10.6401, 44, -25.3033, -31.8122, 47.2951, -142.174, -73.435, 46.5786
10.6483, 44, -25.2674, -31.8708, 47.3364, -142.135, -73.3852, 46.6526
10.6573, 44, -25.2554, -31.9095, 47.3637, -142.108, -73.3523, 46.728
10.6645, 44, -25.2191, -31.948, 47.3908, -142.081, -73.319, 46.8029
10.6733, 44, -25.1948, -31.9862, 47.4178, -142.055, -73.2854, 46.8794
10.6797, 44, -25.1826, -32.0053, 47.4311, -142.043, -73.2689, 46.9179
10.6877, 44, -25.1581, -32.0431, 47.4575, -142.018, -73.2361, 46.9945
10.6957, 44, -25.1334, -32.0808, 47.4837, -141.993, -73.2034, 47.0731
10.7037, 44, -25.1083, -32.1182, 47.5098, -141.967, -73.1701, 47.1518
10.7118, 44, -25.0831, -32.1553, 47.5356, -141.942, -73.1366, 47.2314
10.7197, 44, -25.0577, -32.1922, 47.561, -141.918, -73.1039, 47.3122
10.7267, 44, -25.032, -32.2289, 47.5862, -141.894, -73.0715, 47.3931
10.7357, 45, -25.0062, -32.2653, 47.6112, -141.87, -73.0389, 47.4759
10.7437, 45, -24.9802, -32.3014, 47.6361, -141.847, -73.0058, 47.5581
10.7507, 45, -24.9539, -32.3372, 47.6605, -141.823, -72.9731, 47.6423
10.7612, 45, -24.9275, -32.3905, 47.6966, -141.788, -72.9248, 47.7688
10.7668, 45, -24.9011, -32.4082, 47.7085, -141.776, -72.9087, 47.8119
10.7758, 45, -24.8745, -32.4432, 47.7322, -141.754, -72.8757, 47.8976
10.7845, 45, -24.8477, -32.4779, 47.7557, -141.732, -72.843, 47.9842
10.7917, 45, -24.8206, -32.5124, 47.7789, -141.71, -72.8108, 48.0714
10.8007, 45, -24.7931, -32.5466, 47.8018, -141.688, -72.779, 48.1593
10.8087, 45, -24.7655, -32.5806, 47.8244, -141.666, -72.7468, 48.2482
10.8164, 45, -24.7378, -32.6142, 47.8468, -141.645, -72.7142, 48.3376
10.8238, 45, -24.7099, -32.6474, 47.869, -141.624, -72.6821, 48.4282
10.8327, 45, -24.6819, -32.6804, 47.8907, -141.604, -72.6504, 48.5192
10.8397, 45, -24.6537, -32.713, 47.9123, -141.584, -72.6187, 48.6115
10.8477, 45, -24.6251, -32.7454, 47.9337, -141.564, -72.5863, 48.7038
10.8564, 45, -24.5964, -32.7774, 47.9548, -141.544, -72.5542, 48.7974
10.8637, 45, -24.5674, -32.8092, 47.9756, -141.524, -72.5226, 48.8913
10.8717, 46, -24.5382, -32.8406, 47.9959, -141.505, -72.4914, 48.9863
10.8805, 46, -24.5088, -32.8717, 48.0159, -141.486, -72.46, 49.0817
10.8868, 46, -24.479, -32.9024, 48.0357, -141.468, -72.428, 49.1781
10.8957, 46, -24.4492, -32.9329, 48.0552, -141.451, -72.3965, 49.2752
10.9071, 46, -24.4042, -32.9781, 48.0842, -141.425, -72.35, 49.4223
10.9109, 46, -24.3891, -32.993, 48.0937, -141.416, -72.3345, 49.472
10.9198, 46, -24.3587, -33.0225, 48.1122, -141.399, -72.3031, 49.5714
10.9277, 46, -24.328, -33.0516, 48.1307, -141.382, -72.2714, 49.672
10.9357, 46, -24.2971, -33.0804, 48.1488, -141.365, -72.2404, 49.7728
10.9438, 46, -24.2661, -33.109, 48.1663, -141.349, -72.2098, 49.8747
10.9517, 46, -24.2349, -33.1372, 48.1837, -141.334, -72.1792, 49.9771
10.9645, 46, -24.1876, -33.1788, 48.2094, -141.312, -72.1326, 50.1321
10.9678, 46, -24.1716, -33.1925, 48.2177, -141.304, -72.1172, 50.1841
10.9757, 46, -24.1396, -33.2195, 48.2342, -141.29, -72.0868, 50.2887
10.9837, 46, -24.1075, -33.2465, 48.2505, -141.276, -72.0566, 50.394
10.9918, 46, -24.0751, -33.2728, 48.2663, -141.262, -72.0263, 50.5
10.9998, 46, -24.0424, -33.2988, 48.2817, -141.249, -71.9955, 50.607
11.0078, 47, -24.0093, -33.3245, 48.297, -141.235, -71.9651, 50.7146
11.0158, 47, -23.976, -33.3497, 48.3119, -141.222, -71.9353, 50.8234
11.0238, 47, -23.9426, -33.3747, 48.3263, -141.21, -71.9058, 50.9327
11.0318, 47, -23.909, -33.3992, 48.3403, -141.199, -71.876, 51.0428
11.0399, 47, -23.8752, -33.4234, 48.3542, -141.188, -71.8458, 51.1538
11.0477, 47, -23.8409, -33.4471, 48.3675, -141.177, -71.8161, 51.2649
11.0557, 47, -23.8066, -33.4704, 48.3805, -141.167, -71.7868, 51.3773
11.0638, 47, -23.7721, -33.4936, 48.3932, -141.157, -71.7578, 51.4903
11.0719, 47, -23.7374, -33.5162, 48.4058, -141.148, -71.7285, 51.604
11.0801, 47, -23.7023, -33.5384, 48.418, -141.139, -71.6987, 51.7188
11.0879, 47, -23.667, -33.5604, 48.4298, -141.13, -71.6696, 51.834
11.096, 47, -23.6316, -33.5817, 48.441, -141.121, -71.6409, 51.9501
11.1027, 47, -23.6138, -33.5922, 48.4465, -141.117, -71.6268, 52.0083
11.112, 47, -23.5599, -33.6236, 48.4626, -141.105, -71.5842, 52.1845
11.1187, 47, -23.5417, -33.6337, 48.4678, -141.101, -71.5698, 52.2436
11.1282, 47, -23.487, -33.6634, 48.4827, -141.091, -71.5269, 52.4214
11.1363, 47, -23.4503, -33.6829, 48.4922, -141.084, -71.499, 52.541
11.1443, 48, -23.4133, -33.7017, 48.5013, -141.078, -71.4714, 52.6614
11.1523, 48, -23.376, -33.7202, 48.51, -141.072, -71.4436, 52.7824
11.1604, 48, -23.3384, -33.7385, 48.5185, -141.067, -71.4154, 52.9044
11.1683, 48, -23.3196, -33.7474, 48.5226, -141.063, -71.3875, 53.0274
11.1763, 48, -23.2819, -33.7647, 48.5304, -141.061, -71.3738, 53.1509
11.1837, 48, -23.2438, -33.7817, 48.538, -141.057, -71.3468, 53.2129
11.1917, 48, -23.2053, -33.7983, 48.5451, -141.054, -71.3202, 53.3376
11.1997, 48, -23.1667, -33.8144, 48.5517, -141.051, -71.2932, 53.4628
11.2077, 48, -23.1279, -33.83, 48.5578, -141.049, -71.266, 53.5887
11.2157, 48, -23.0887, -33.8451, 48.5638, -141.047, -71.2391, 53.7156
11.2239, 48, -23.0494, -33.86, 48.5693, -141.046, -71.2128, 53.8431
11.2348, 48, -22.9899, -33.8814, 48.5769, -141.044, -71.1738, 54.0363
11.2397, 48, -22.97, -33.8881, 48.5792, -141.044, -71.1607, 54.101
11.2477, 48, -22.9298, -33.9013, 48.5836, -141.044, -71.1344, 54.2309
11.2557, 48, -22.8895, -33.9142, 48.5875, -141.044, -71.108, 54.3615
11.2637, 48, -22.8489, -33.9268, 48.5909, -141.044, -71.0823, 54.4929
11.2718, 48, -22.8081, -33.9387, 48.5939, -141.044, -71.0571, 54.6246
11.2797, 49, -22.7671, -33.9498, 48.5965, -141.045, -71.0322, 54.7571
11.2877, 49, -22.7256, -33.9606, 48.5987, -141.047, -71.0074, 54.8904
11.2966, 49, -22.6841, -33.9709, 48.6004, -141.049, -70.9822, 55.0243
11.3037, 49, -22.6422, -33.9809, 48.6017, -141.052, -70.9572, 55.1592
11.3127, 49, -22.6, -33.9904, 48.6025, -141.056, -70.9327, 55.2945
11.3204, 49, -22.5576, -33.9992, 48.6029, -141.06, -70.9087, 55.4307
11.3267, 49, -22.515, -34.0074, 48.6031, -141.065, -70.885, 55.5676
11.3357, 49, -22.472, -34.015, 48.6032, -141.07, -70.8613, 55.7048
11.3448, 49, -22.4289, -34.0222, 48.6031, -141.076, -70.8373, 55.8428
11.3565, 49, -22.3854, -34.0289, 48.6024, -141.086, -70.8018, 56.0514
11.3595, 49, -22.3418, -34.0352, 48.602, -141.09, -70.7904, 56.1214
11.3685, 49, -22.298, -34.0409, 48.6009, -141.098, -70.7677, 56.2618
11.3757, 49, -22.2539, -34.0462, 48.5994, -141.107, -70.7455, 56.4028
11.3837, 49, -22.2095, -34.0511, 48.5973, -141.116, -70.7235, 56.5444
11.3924, 49, -22.1648, -34.0552, 48.5948, -141.126, -70.7013, 56.6868
11.3997, 49, -22.1198, -34.0587, 48.5916, -141.137, -70.6791, 56.8295
11.4077, 49, -22.0745, -34.0616, 48.5879, -141.147, -70.6573, 56.9727
11.4164, 50, -22.0291, -34.064, 48.5837, -141.158, -70.6361, 57.117
11.4237, 50, -21.9834, -34.0657, 48.5789, -141.17, -70.6154, 57.2618
11.4317, 50, -21.9374, -34.0668, 48.5736, -141.182, -70.5949, 57.4075
11.4417, 50, -21.8912, -34.0675, 48.5677, -141.194, -70.5746, 57.5537
11.4477, 50, -21.8448, -34.0677, 48.5613, -141.207, -70.5542, 57.7007
11.4558, 50, -21.798, -34.0678, 48.5543, -141.221, -70.5338, 57.8483
11.4637, 50, -21.7509, -34.0674, 48.547, -141.235, -70.5137, 57.9964
11.4717, 50, -21.7037, -34.0665, 48.5393, -141.251, -70.4943, 58.1452
11.4801, 50, -21.6561, -34.065, 48.531, -141.267, -70.4753, 58.2948
11.4877, 50, -21.6083, -34.0631, 48.5222, -141.283, -70.4569, 58.4451
11.4964, 50, -21.5604, -34.0607, 48.5128, -141.3, -70.4388, 58.5961
11.5039, 50, -21.5121, -34.0577, 48.5026, -141.317, -70.4208, 58.7477
11.5118, 50, -21.4636, -34.054, 48.4919, -141.334, -70.4028, 58.8998
11.5198, 50, -21.4149, -34.0497, 48.4809, -141.352, -70.3849, 59.0523
11.5284, 50, -21.3659, -34.0445, 48.4692, -141.37, -70.3673, 59.2054
11.5358, 50, -21.3166, -34.0385, 48.4571, -141.39, -70.3504, 59.3592
11.5442, 50, -21.2671, -34.0318, 48.4444, -141.411, -70.334, 59.5137
11.5516, 51, -21.2174, -34.0243, 48.4314, -141.431, -70.318, 59.6689
11.5597, 51, -21.1673, -34.0159, 48.4178, -141.452, -70.3024, 59.8247
11.5685, 51, -21.117, -34.0069, 48.4035, -141.474, -70.287, 59.9811
11.5761, 51, -21.0664, -33.9975, 48.3887, -141.496, -70.2718, 60.1379
11.5839, 51, -21.0156, -33.9873, 48.3735, -141.519, -70.2568, 60.2953
11.5928, 51, -20.9645, -33.9762, 48.3577, -141.542, -70.2418, 60.4534
11.6, 51, -20.9133, -33.9644, 48.3413, -141.567, -70.2273, 60.6121
