rpiRobotics/ARM-21-02-F-19-Robot-Motion-Program/data_performance_abb/curve_1/baseline/100L/realrobot/bisect/run_3realrobot_curve_exe_v93.75_z10.csv
timestamp, cmd_num, J1, J2, J3, J4, J5, J6
0.00037, -1, 11.378, 13.614, 17.3392, -145.519, -97.923, 142.516
0.005163, -1, 11.378, 13.614, 17.3392, -145.519, -97.923, 142.516
0.007861, -1, 11.378, 13.614, 17.3392, -145.519, -97.923, 142.516
0.029055, -1, 11.3781, 13.614, 17.3392, -145.519, -97.923, 142.516
0.031752, -1, 11.3781, 13.614, 17.3392, -145.519, -97.923, 142.516
0.034565, -1, 11.3781, 13.614, 17.3393, -145.519, -97.923, 142.516
0.039276, -1, 11.3781, 13.614, 17.3393, -145.519, -97.923, 142.516
0.047404, -1, 11.378, 13.614, 17.3392, -145.519, -97.923, 142.516
0.055294, -1, 11.3773, 13.614, 17.3392, -145.519, -97.923, 142.516
0.063303, -1, 11.3747, 13.6137, 17.3392, -145.519, -97.923, 142.516
0.071406, -1, 11.3683, 13.6129, 17.339, -145.519, -97.923, 142.516
0.07937, -1, 11.3572, 13.611, 17.3385, -145.52, -97.923, 142.514
0.087375, -1, 11.3398, 13.6074, 17.3377, -145.521, -97.9228, 142.506
0.095455, -1, 11.3131, 13.6012, 17.3369, -145.525, -97.9221, 142.484
0.103817, -1, 11.275, 13.5919, 17.3363, -145.532, -97.9203, 142.444
0.112266, -1, 11.225, 13.5794, 17.3364, -145.543, -97.9169, 142.379
0.119458, -1, 11.1636, 13.5638, 17.3381, -145.561, -97.9114, 142.283
0.128056, -1, 11.0906, 13.5446, 17.342, -145.584, -97.9036, 142.152
0.136296, -1, 11.0056, 13.5214, 17.3484, -145.613, -97.8935, 141.987
0.143314, -1, 10.909, 13.495, 17.357, -145.647, -97.8814, 141.789
0.153036, -1, 10.8017, 13.4652, 17.3674, -145.685, -97.8678, 141.564
0.160279, -1, 10.6833, 13.4323, 17.3786, -145.728, -97.8531, 141.317
0.167568, -1, 10.5543, 13.3967, 17.3899, -145.772, -97.8377, 141.057
0.17719, -1, 10.4162, 13.3588, 17.4005, -145.818, -97.8219, 140.787
0.183627, -1, 10.2714, 13.3192, 17.4107, -145.866, -97.8057, 140.513
0.191777, -1, 10.1219, 13.2789, 17.4208, -145.913, -97.7891, 140.236
0.20132, -1, 9.96948, 13.2378, 17.4308, -145.96, -97.7722, 139.958
0.207834, -1, 9.81485, 13.1965, 17.4408, -146.009, -97.7549, 139.679
0.216445, -1, 9.65932, 13.1552, 17.4509, -146.057, -97.7378, 139.399
0.225332, -1, 9.50418, 13.1139, 17.4608, -146.104, -97.7207, 139.12
0.231905, -1, 9.34946, 13.0728, 17.4706, -146.153, -97.704, 138.84
0.240468, -1, 9.19507, 13.0317, 17.4806, -146.201, -97.6872, 138.561
0.247269, -1, 9.1181, 13.0111, 17.4856, -146.224, -97.6788, 138.421
0.256444, -1, 8.8877, 12.9496, 17.5007, -146.297, -97.6537, 138.002
0.263263, -1, 8.81092, 12.9291, 17.5057, -146.321, -97.6451, 137.862
0.273121, -1, 8.58129, 12.8675, 17.5208, -146.392, -97.619, 137.442
0.280465, -1, 8.42857, 12.8263, 17.531, -146.441, -97.6015, 137.161
0.287269, -1, 8.35211, 12.8057, 17.5361, -146.465, -97.5928, 137.021
0.29724, -1, 8.122, 12.7435, 17.5513, -146.536, -97.5672, 136.601
0.303291, -1, 8.04508, 12.7228, 17.5564, -146.56, -97.5588, 136.461
0.312648, -1, 7.81345, 12.6604, 17.5716, -146.632, -97.5338, 136.041
0.321469, -1, 7.65854, 12.6188, 17.5817, -146.68, -97.5172, 135.761
0.327263, -1, 7.58105, 12.598, 17.5868, -146.704, -97.5088, 135.621
0.336889, -1, 7.34833, 12.5359, 17.602, -146.776, -97.4831, 135.201
0.343335, -1, 7.27074, 12.5152, 17.6071, -146.8, -97.4744, 135.06
0.352885, -1, 7.03802, 12.453, 17.6225, -146.872, -97.4485, 134.64
0.360903, -1, 6.96043, 12.4324, 17.6328, -146.92, -97.4314, 134.36
0.367331, -1, 6.80536, 12.3912, 17.638, -146.944, -97.423, 134.22
0.376988, -1, 6.65056, 12.3499, 17.6484, -147.017, -97.3978, 133.799
0.384259, -1, 6.49609, 12.3087, 17.6587, -147.041, -97.3895, 133.659
0.391335, -1, 6.34175, 12.2675, 17.669, -147.089, -97.3727, 133.379
0.399266, -1, 6.18751, 12.2261, 17.6793, -147.137, -97.3556, 133.098
0.40727, -1, 6.03313, 12.1847, 17.6895, -147.185, -97.3383, 132.817
0.41533, -1, 5.87854, 12.1433, 17.6998, -147.233, -97.3207, 132.537
0.423357, -1, 5.7238, 12.1017, 17.71, -147.281, -97.3032, 132.256
0.431351, -1, 5.56887, 12.06, 17.7202, -147.329, -97.286, 131.975
0.439309, -1, 5.41372, 12.0185, 17.7304, -147.377, -97.269, 131.694
0.447264, -1, 5.25831, 11.9768, 17.7406, -147.426, -97.2522, 131.413
0.455338, -1, 5.10255, 11.9352, 17.751, -147.474, -97.2354, 131.133
0.463292, -1, 4.94659, 11.8936, 17.7614, -147.521, -97.2185, 130.852
0.471298, -1, 4.79077, 11.8521, 17.7718, -147.57, -97.2014, 130.571
0.47938, -1, 4.63499, 11.8106, 17.7822, -147.618, -97.184, 130.29
0.487259, -1, 4.47927, 11.7692, 17.7925, -147.666, -97.1665, 130.009
0.618963, -1, 1.99201, 11.083, 17.9633, -148.463, -96.8846, 125.365
0.620393, -1, 1.91373, 11.083, 17.9633, -148.463, -96.8846, 125.365
0.621614, -1, 1.91373, 11.083, 17.9633, -148.463, -96.8846, 125.365
0.624307, -1, 1.83548, 11.0623, 17.9684, -148.488, -96.8759, 125.224
0.625515, -1, 1.83548, 11.0623, 17.9684, -148.488, -96.8759, 125.224
0.627595, -1, 1.75725, 11.0415, 17.9737, -148.511, -96.8673, 125.083
0.628861, -1, 1.75725, 11.0415, 17.9737, -148.511, -96.8673, 125.083
0.631615, -1, 1.67906, 11.0206, 17.9789, -148.536, -96.8587, 124.942
0.76933, -1, -0.972635, 10.3109, 18.1555, -149.36, -96.5677, 120.14
0.770524, -1, -0.972635, 10.3109, 18.1555, -149.36, -96.5677, 120.14
0.772438, -1, -1.05125, 10.29, 18.1606, -149.384, -96.5591, 119.998
0.773773, -1, -1.05125, 10.29, 18.1606, -149.384, -96.5591, 119.998
0.775242, -1, -1.05125, 10.29, 18.1606, -149.384, -96.5591, 119.998
0.777391, -1, -1.12982, 10.2691, 18.1658, -149.408, -96.5506, 119.857
0.778701, -1, -1.12982, 10.2691, 18.1658, -149.408, -96.5506, 119.857
0.78455, -1, -1.28691, 10.2272, 18.1761, -149.457, -96.5338, 119.574
0.786028, -1, -1.28691, 10.2272, 18.1761, -149.457, -96.5338, 119.574
0.78723, -1, -1.28691, 10.2272, 18.1761, -149.457, -96.5338, 119.574
0.789265, -1, -1.36534, 10.2063, 18.1812, -149.482, -96.5254, 119.432
0.790567, -1, -1.36534, 10.2063, 18.1812, -149.482, -96.5254, 119.432
0.79252, -1, -1.44367, 10.1855, 18.1864, -149.506, -96.517, 119.29
0.79386, -1, -1.44367, 10.1855, 18.1864, -149.506, -96.517, 119.29
0.795223, -1, -1.44367, 10.1855, 18.1864, -149.506, -96.517, 119.29
0.800684, -1, -1.60016, 10.1437, 18.1969, -149.554, -96.5001, 119.007
0.802061, -1, -1.60016, 10.1437, 18.1969, -149.554, -96.5001, 119.007
0.803329, -1, -1.60016, 10.1437, 18.1969, -149.554, -96.5001, 119.007
0.806743, -1, -1.6783, 10.1228, 18.2022, -149.579, -96.4916, 118.866
0.808661, -1, -1.75634, 10.1019, 18.2074, -149.603, -96.4831, 118.724
0.810102, -1, -1.75634, 10.1019, 18.2074, -149.603, -96.4831, 118.724
0.811307, -1, -1.75634, 10.1019, 18.2074, -149.603, -96.4831, 118.724
0.815291, -1, -1.83419, 10.081, 18.2125, -149.627, -96.4744, 118.582
0.81732, -1, -1.91192, 10.0601, 18.2177, -149.652, -96.4656, 118.441
0.818614, -1, -1.91192, 10.0601, 18.2177, -149.652, -96.4656, 118.441
0.819795, -1, -1.91192, 10.0601, 18.2177, -149.652, -96.4656, 118.441
0.821888, -1, -1.98959, 10.0392, 18.223, -149.676, -96.4568, 118.299
0.823101, -1, -1.98959, 10.0392, 18.223, -149.676, -96.4568, 118.299
0.825264, -1, -2.06721, 10.0183, 18.2282, -149.7, -96.448, 118.157
0.826505, -1, -2.06721, 10.0183, 18.2282, -149.7, -96.448, 118.157
0.830984, -1, -2.1448, 9.99739, 18.2334, -149.725, -96.4392, 118.015
0.832844, -1, -2.22239, 9.97648, 18.2385, -149.749, -96.4304, 117.874
0.834265, -1, -2.22239, 9.97648, 18.2385, -149.749, -96.4304, 117.874
0.835527, -1, -2.22239, 9.97648, 18.2385, -149.749, -96.4304, 117.874
0.837565, -1, -2.30002, 9.95559, 18.2437, -149.773, -96.4217, 117.732
0.839259, -1, -2.30002, 9.95559, 18.2437, -149.773, -96.4217, 117.732
0.848844, -1, -2.53331, 9.89276, 18.2594, -149.846, -96.396, 117.307
0.85701, -1, -2.68916, 9.85088, 18.2697, -149.895, -96.3793, 117.023
0.863308, -1, -2.76718, 9.82994, 18.2749, -149.919, -96.3709, 116.881
0.873072, -1, -2.92363, 9.788, 18.2853, -149.967, -96.3456, 116.456
0.87926, -1, -3.08049, 9.74611, 18.2956, -150.016, -96.3371, 116.314
0.888237, -1, -3.23773, 9.70421, 18.306, -150.065, -96.3197, 116.03
0.896299, -1, -3.3955, 9.66222, 18.3165, -150.113, -96.3021, 115.746
0.903265, -1, -3.55339, 9.62025, 18.3269, -150.162, -96.2846, 115.462
0.911425, -1, -3.71122, 9.57843, 18.3373, -150.211, -96.2673, 115.178
0.9203, -1, -3.86915, 9.53653, 18.3476, -150.259, -96.2503, 114.894
0.927262, -1, -4.02712, 9.49458, 18.358, -150.308, -96.2333, 114.61
0.935362, -1, -4.18494, 9.45274, 18.3683, -150.357, -96.2164, 114.325
0.943295, -1, -4.34265, 9.41083, 18.3786, -150.406, -96.1993, 114.041
0.95128, -1, -4.49998, 9.36886, 18.3889, -150.455, -96.1819, 113.756
0.959311, -1, -4.65698, 9.32691, 18.3992, -150.504, -96.1643, 113.472
0.967243, -1, -4.81347, 9.28494, 18.4096, -150.552, -96.1466, 113.187
0.975335, -1, -4.96971, 9.24292, 18.42, -150.601, -96.1292, 112.902
0.983344, -1, -5.1257, 9.20092, 18.4305, -150.65, -96.112, 112.618
0.991249, -1, -5.28163, 9.15889, 18.441, -150.698, -96.0951, 112.333
0.999301, -1, -5.43774, 9.11674, 18.4515, -150.748, -96.0782, 112.049
1.00731, -1, -5.59394, 9.07465, 18.4618, -150.796, -96.0613, 111.764
1.01532, -1, -5.75047, 9.03259, 18.4722, -150.845, -96.0442, 111.479
1.02359, -1, -5.90744, 8.99048, 18.4826, -150.894, -96.0268, 111.194
1.0314, -1, -6.06483, 8.94836, 18.4929, -150.943, -96.0091, 110.909
1.03936, -1, -6.22281, 8.90627, 18.5032, -150.992, -95.9916, 110.624
1.04807, -1, -6.38113, 8.86418, 18.5135, -151.041, -95.9744, 110.339
1.05624, -1, -6.53963, 8.82216, 18.5238, -151.09, -95.9574, 110.054
1.06342, -1, -6.69811, 8.78009, 18.5343, -151.139, -95.9404, 109.768
1.07208, -1, -6.85682, 8.738, 18.5448, -151.188, -95.9234, 109.483
1.07932, -1, -7.01539, 8.69595, 18.5553, -151.237, -95.9062, 109.197
1.08761, -1, -7.1739, 8.65387, 18.5657, -151.286, -95.8888, 108.912
1.09619, -1, -7.33221, 8.61177, 18.5761, -151.335, -95.871, 108.626
1.10335, -1, -7.49003, 8.56952, 18.5865, -151.384, -95.8533, 108.341
1.11184, -1, -7.64768, 8.52724, 18.597, -151.433, -95.8358, 108.055
1.1203, -1, -7.80501, 8.48505, 18.6074, -151.482, -95.8186, 107.769
1.12725, -1, -7.96183, 8.44283, 18.6178, -151.531, -95.8016, 107.483
1.13611, -1, -8.11847, 8.40052, 18.6282, -151.58, -95.7847, 107.198
1.14478, -1, -8.27507, 8.35824, 18.6387, -151.629, -95.7677, 106.912
1.15131, -1, -8.43181, 8.31591, 18.6492, -151.678, -95.7505, 106.626
1.16018, -1, -8.58878, 8.27356, 18.6597, -151.727, -95.733, 106.34
1.16745, -1, -8.7462, 8.23132, 18.6701, -151.777, -95.7153, 106.053
1.17554, -1, -8.90395, 8.18904, 18.6804, -151.825, -95.6977, 105.767
1.18441, -1, -9.06209, 8.14678, 18.6908, -151.874, -95.6804, 105.481
1.1916, -1, -9.22069, 8.10458, 18.7013, -151.924, -95.6633, 105.194
1.19977, -1, -9.37959, 8.06234, 18.7116, -151.973, -95.6462, 104.908
1.20856, -1, -9.5387, 8.02006, 18.7221, -152.022, -95.629, 104.621
1.2158, -1, -9.69791, 7.97788, 18.7325, -152.072, -95.6117, 104.334
1.22434, -1, -9.85714, 7.93573, 18.7429, -152.121, -95.5942, 104.047
1.23265, -1, -10.0165, 7.89341, 18.7535, -152.17, -95.5763, 103.76
1.23981, -1, -10.0962, 7.87225, 18.7641, -152.219, -95.5585, 103.474
1.2483, -1, -10.3348, 7.80866, 18.7746, -152.268, -95.5409, 103.187
1.25669, -1, -10.4142, 7.78743, 18.7799, -152.293, -95.5323, 103.044
1.26323, -1, -10.5727, 7.74499, 18.7904, -152.343, -95.5152, 102.757
1.27129, -1, -10.7311, 7.70261, 18.8007, -152.392, -95.4982, 102.47
1.28123, -1, -10.9679, 7.63885, 18.8164, -152.465, -95.4725, 102.039
1.28725, -1, -11.0467, 7.61759, 18.8216, -152.49, -95.4639, 101.896
1.29645, -1, -11.2828, 7.55394, 18.8372, -152.564, -95.4375, 101.464
1.30323, -1, -11.3615, 7.53271, 18.8425, -152.589, -95.4286, 101.321
1.31131, -1, -11.5191, 7.49026, 18.8529, -152.638, -95.4109, 101.034
1.31922, -1, -11.6769, 7.44783, 18.8634, -152.687, -95.3934, 100.746
1.32964, -1, -11.9143, 7.38426, 18.8793, -152.762, -95.3675, 100.314
1.33534, -1, -11.9936, 7.36307, 18.8846, -152.786, -95.3589, 100.17
1.34481, -1, -12.2322, 7.29954, 18.9004, -152.86, -95.3332, 99.7389
1.35367, -1, -12.3917, 7.25715, 18.9108, -152.91, -95.3158, 99.4512
1.3593, -1, -12.4716, 7.23595, 18.9161, -152.935, -95.307, 99.3072
1.36934, -1, -12.7116, 7.1724, 18.9319, -153.008, -95.2801, 98.8755
1.37529, -1, -12.7917, 7.15121, 18.9372, -153.033, -95.2711, 98.7317
1.38426, -1, -12.9518, 7.10876, 18.9477, -153.083, -95.2535, 98.4435
1.39123, -1, -13.1118, 7.06622, 18.9583, -153.132, -95.2362, 98.1555
1.39923, -1, -13.2716, 7.02365, 18.9688, -153.182, -95.219, 97.8676
1.40729, -1, -13.431, 6.98109, 18.9794, -153.231, -95.202, 97.5794
1.41529, -1, -13.5903, 6.93838, 18.9899, -153.28, -95.1849, 97.2909
1.42323, -1, -13.7495, 6.89567, 19.0005, -153.33, -95.1674, 97.0022
1.43131, -1, -13.9083, 6.85303, 19.0109, -153.379, -95.1498, 96.7139
1.43923, -1, -14.0665, 6.81033, 19.0214, -153.429, -95.132, 96.4252
1.44727, -1, -14.2247, 6.76773, 19.0319, -153.478, -95.1143, 96.1363
1.45535, -1, -14.383, 6.7251, 19.0423, -153.528, -95.0969, 95.8474
1.46323, -1, -14.5413, 6.68244, 19.0528, -153.577, -95.0797, 95.5585
1.47128, -1, -14.7, 6.63988, 19.0634, -153.627, -95.0625, 95.2692
1.47927, -1, -14.8591, 6.59736, 19.0738, -153.676, -95.0454, 94.98
1.48723, -1, -15.0184, 6.55473, 19.0845, -153.726, -95.028, 94.6909
1.49535, -1, -15.1782, 6.51211, 19.0952, -153.776, -95.0103, 94.4018
1.50322, -1, -15.3384, 6.4696, 19.1058, -153.825, -94.9923, 94.1128
1.51124, -1, -15.4988, 6.42697, 19.1164, -153.875, -94.9744, 93.8234
1.51929, -1, -15.6595, 6.38429, 19.1269, -153.925, -94.9567, 93.5342
1.52723, -1, -15.8203, 6.34159, 19.1375, -153.974, -94.9394, 93.2449
1.53533, -1, -15.981, 6.2988, 19.1481, -154.024, -94.9221, 92.9554
1.54329, -1, -16.1418, 6.25597, 19.1586, -154.074, -94.9049, 92.6656
1.55125, -1, -16.3025, 6.21313, 19.1691, -154.123, -94.8877, 92.3761
1.55923, -1, -16.4629, 6.17019, 19.1796, -154.173, -94.8702, 92.0866
1.56729, -1, -16.6231, 6.12721, 19.19, -154.222, -94.8524, 91.7965
1.57533, -1, -16.7829, 6.0843, 19.2006, -154.272, -94.8343, 91.5064
1.58338, -1, -16.9423, 6.04137, 19.2112, -154.322, -94.8166, 91.2165
1.59138, -1, -17.1015, 5.99844, 19.2218, -154.372, -94.7991, 90.9263
1.59933, -1, -17.2606, 5.95558, 19.2324, -154.421, -94.7818, 90.6361
1.6074, -1, -17.4198, 5.91277, 19.2429, -154.471, -94.7645, 90.3459
1.61544, -1, -17.5792, 5.87002, 19.2536, -154.521, -94.7471, 90.0558
1.62323, -1, -17.7386, 5.8273, 19.2643, -154.57, -94.7295, 89.7655
1.6314, -1, -17.8982, 5.78453, 19.275, -154.621, -94.7115, 89.4751
1.63926, -1, -18.0582, 5.74181, 19.2856, -154.671, -94.6934, 89.1847
1.64741, -1, -18.2188, 5.69908, 19.2961, -154.72, -94.6754, 88.8943
1.65546, -1, -18.3797, 5.65633, 19.3068, -154.77, -94.6578, 88.6037
1.66336, -1, -18.5411, 5.61346, 19.3175, -154.82, -94.6405, 88.3127
1.67146, -1, -18.7027, 5.57053, 19.3282, -154.87, -94.6232, 88.0219
1.67959, -1, -18.8642, 5.5276, 19.3388, -154.92, -94.6059, 87.7311
1.68756, -1, -19.0258, 5.48461, 19.3493, -154.97, -94.5884, 87.4399
1.69577, -1, -19.1873, 5.44149, 19.3598, -155.02, -94.5706, 87.1486
1.70428, -1, -19.3488, 5.3984, 19.3705, -155.07, -94.5525, 86.8572
1.71172, -1, -19.5099, 5.3553, 19.381, -155.12, -94.5345, 86.5658
1.72036, -1, -19.6708, 5.31209, 19.3915, -155.169, -94.5168, 86.2743
1.72783, -1, -19.8314, 5.26901, 19.4021, -155.22, -94.4993, 85.9826
1.7364, -1, -19.9918, 5.22594, 19.4127, -155.27, -94.482, 85.6911
1.74402, -1, -20.0719, 5.18283, 19.4234, -155.32, -94.4646, 85.3997
1.75267, -1, -20.2317, 5.16136, 19.4289, -155.345, -94.4559, 85.1081
1.75921, -1, -20.3916, 5.11848, 19.4396, -155.395, -94.4383, 84.9622
1.76824, -1, -20.6317, 5.05396, 19.4557, -155.47, -94.4113, 84.5247
1.77522, -1, -20.7118, 5.03251, 19.461, -155.495, -94.4023, 84.3788
1.78326, -1, -20.8723, 4.98966, 19.4716, -155.545, -94.3844, 84.0868
1.79128, -1, -21.0333, 4.94666, 19.4823, -155.595, -94.3669, 83.7945
1.79922, -1, -21.1946, 4.90363, 19.4929, -155.646, -94.3495, 83.5027
1.80726, -1, -21.3563, 4.86061, 19.5035, -155.696, -94.3323, 83.2107
1.81672, -1, -21.5995, 4.7958, 19.5194, -155.771, -94.3065, 82.7721
1.82552, -1, -21.7618, 4.75266, 19.5301, -155.822, -94.2889, 82.4796
1.83127, -1, -21.8429, 4.73104, 19.5355, -155.846, -94.28, 82.3334
1.84115, -1, -22.0865, 4.66601, 19.5516, -155.922, -94.253, 81.8944
1.84721, -1, -22.1678, 4.64435, 19.557, -155.947, -94.2441, 81.748
1.85527, -1, -22.3302, 4.60104, 19.5676, -155.997, -94.2264, 81.4554
1.86485, -1, -22.5732, 4.53599, 19.5836, -156.073, -94.2002, 81.0166
1.87365, -1, -22.654, 4.51429, 19.5889, -156.098, -94.1915, 80.7238
1.87928, -1, -22.8156, 4.47091, 19.5996, -156.148, -94.1741, 80.5772
1.88906, -1, -22.9767, 4.42758, 19.6103, -156.198, -94.1565, 80.2843
1.89521, -1, -23.1378, 4.38436, 19.621, -156.248, -94.1385, 79.9915
1.9042, -1, -23.2988, 4.3411, 19.6316, -156.298, -94.1203, 79.6983
1.91225, -1, -23.4596, 4.2979, 19.6425, -156.349, -94.1021, 79.4049
1.92022, -1, -23.6206, 4.25465, 19.6533, -156.4, -94.0842, 79.1115
1.92721, -1, -23.7818, 4.21142, 19.6641, -156.45, -94.0665, 78.8182
1.93521, -1, -23.9431, 4.16821, 19.6748, -156.5, -94.049, 78.5246
1.94328, -1, -24.1048, 4.12488, 19.6854, -156.551, -94.0316, 78.2308
1.95128, -1, -24.2671, 4.08154, 19.6961, -156.601, -94.014, 77.937
1.95921, -1, -24.4298, 4.03815, 19.7068, -156.652, -93.9963, 77.6431
1.96729, -1, -24.5927, 3.99469, 19.7174, -156.702, -93.9782, 77.3489
1.97521, -1, -24.7558, 3.95113, 19.728, -156.752, -93.9601, 77.0548
1.98323, -1, -24.9192, 3.9076, 19.7386, -156.803, -93.9422, 76.7609
1.99129, -1, -25.0826, 3.86405, 19.7494, -156.853, -93.9245, 76.4668
1.99924, -1, -25.2459, 3.82046, 19.7603, -156.903, -93.907, 76.1725
2.00721, -1, -25.4087, 3.77688, 19.7711, -156.954, -93.8895, 75.8782
2.01557, -1, -25.5715, 3.73325, 19.7818, -157.004, -93.8718, 75.584
2.02321, -1, -25.7341, 3.68965, 19.7924, -157.055, -93.8539, 75.2895
2.03122, -1, -25.8964, 3.64621, 19.8031, -157.105, -93.8356, 74.9948
2.04003, -1, -26.0586, 3.60273, 19.8139, -157.155, -93.8172, 74.7002
2.04826, -1, -26.2203, 3.55924, 19.8246, -157.206, -93.7991, 74.4057
2.05521, -1, -26.3819, 3.51591, 19.8353, -157.257, -93.7812, 74.1109
2.06399, -1, -26.5437, 3.47248, 19.8461, -157.307, -93.7635, 73.8158
2.07221, -1, -26.7055, 3.42906, 19.8568, -157.358, -93.7459, 73.5208
2.07932, -1, -26.8678, 3.3856, 19.8676, -157.409, -93.7283, 73.2257
2.0918, -1, -27.112, 3.3202, 19.8839, -157.485, -93.7013, 72.7826
2.09628, -1, -27.1935, 3.2984, 19.8893, -157.51, -93.6922, 72.6351
2.10337, -1, -27.3568, 3.25483, 19.9, -157.561, -93.6739, 72.34
2.11131, -1, -27.5205, 3.21105, 19.9107, -157.611, -93.6558, 72.0448
2.11936, -1, -27.6844, 3.16731, 19.9215, -157.662, -93.638, 71.7492
2.12739, -1, -27.8485, 3.12365, 19.9322, -157.712, -93.6202, 71.4536
2.13521, -1, -28.0126, 3.07993, 19.943, -157.763, -93.6026, 71.1581
2.14324, -1, -28.1766, 3.03621, 19.9538, -157.814, -93.5848, 70.8624
2.15156, -1, -28.3408, 2.99248, 19.9645, -157.865, -93.5669, 70.5664
2.15928, -1, -28.5047, 2.94875, 19.9754, -157.915, -93.5486, 70.2704
2.16743, -1, -28.6683, 2.9051, 19.9863, -157.966, -93.5302, 69.9746
2.17544, -1, -28.8317, 2.86143, 19.9971, -158.017, -93.5119, 69.6784
2.18348, -1, -28.9947, 2.81777, 20.0079, -158.068, -93.494, 69.382
2.19167, -1, -29.1574, 2.77415, 20.0186, -158.119, -93.4763, 69.0856
2.19959, -1, -29.3201, 2.73052, 20.0293, -158.169, -93.4587, 68.7891
2.20769, -1, -29.4829, 2.6869, 20.0402, -158.221, -93.441, 68.4923
2.21633, -1, -29.6457, 2.64317, 20.0509, -158.272, -93.4231, 68.1956
2.22375, -1, -29.8088, 2.59941, 20.0617, -158.322, -93.405, 67.8991
2.23229, -1, -29.972, 2.5557, 20.0725, -158.374, -93.3866, 67.6025
2.23984, -1, -30.1354, 2.51189, 20.0834, -158.424, -93.3684, 67.3055
2.24838, -1, -30.2993, 2.46793, 20.0943, -158.475, -93.3504, 67.0085
2.2557, -1, -30.3814, 2.44597, 20.0998, -158.501, -93.3416, 66.8602
2.26423, -1, -30.6283, 2.38007, 20.116, -158.577, -93.315, 66.4146
2.2712, -1, -30.7108, 2.35807, 20.1214, -158.602, -93.3062, 66.266
2.2792, -1, -30.8759, 2.31417, 20.1322, -158.654, -93.2884, 65.9686
2.28837, -1, -31.1233, 2.24826, 20.1485, -158.73, -93.2611, 65.5228
2.2952, -1, -31.2058, 2.22626, 20.1539, -158.755, -93.2518, 65.3742
2.30442, -1, -31.453, 2.16054, 20.17, -158.832, -93.2242, 64.9277
2.3112, -1, -31.5353, 2.13859, 20.1754, -158.858, -93.2151, 64.7789
2.32057, -1, -31.782, 2.07265, 20.1916, -158.935, -93.1883, 64.3323
2.32725, -1, -31.8641, 2.05073, 20.1971, -158.96, -93.1795, 64.1834
2.33685, -1, -32.1099, 1.98486, 20.2135, -159.037, -93.153, 63.7364
2.34473, -1, -32.2737, 1.94091, 20.2245, -159.088, -93.1352, 63.4386
2.35276, -1, -32.4372, 1.89696, 20.2353, -159.139, -93.1171, 63.1407
2.36081, -1, -32.601, 1.85289, 20.2462, -159.19, -93.0987, 62.8424
2.36877, -1, -32.6829, 1.83088, 20.2572, -159.242, -93.0804, 62.5442
2.37685, -1, -32.8468, 1.78688, 20.268, -159.293, -93.0623, 62.246
2.38479, -1, -33.011, 1.74274, 20.2735, -159.318, -93.0534, 62.0968
2.39218, -1, -33.1756, 1.69856, 20.2844, -159.37, -93.0355, 61.7982
2.40019, -1, -33.3406, 1.65442, 20.2952, -159.421, -93.0177, 61.4994
2.40823, -1, -33.506, 1.61023, 20.3061, -159.472, -92.9996, 61.201
2.41623, -1, -33.6717, 1.56604, 20.3171, -159.524, -92.9814, 60.9024
2.42422, -1, -33.8372, 1.52187, 20.328, -159.575, -92.9628, 60.6035
2.43222, -1, -34.003, 1.47773, 20.3389, -159.626, -92.9441, 60.3042
2.44018, -1, -34.1688, 1.4336, 20.3498, -159.677, -92.9257, 60.0053
2.44818, -1, -34.3347, 1.38954, 20.3607, -159.729, -92.9076, 59.7059
2.45634, -1, -34.5006, 1.34538, 20.3716, -159.78, -92.8897, 59.4064
2.4632, -1, -34.6662, 1.30126, 20.3825, -159.832, -92.872, 59.1072
2.47126, -1, -34.8314, 1.25713, 20.3933, -159.883, -92.8541, 58.8079
2.4792, -1, -34.9964, 1.21295, 20.4042, -159.934, -92.836, 58.5084
2.48721, -1, -35.161, 1.16878, 20.4151, -159.986, -92.8175, 58.2087
2.49525, -1, -35.3256, 1.12451, 20.4262, -160.037, -92.799, 57.9091
2.50319, -1, -35.4898, 1.08037, 20.4373, -160.089, -92.7807, 57.6094
2.51119, -1, -35.6524, 1.0366, 20.4485, -160.14, -92.7626, 57.3096
2.51933, -1, -35.8123, 0.993333, 20.4599, -160.191, -92.7447, 57.011
2.52719, -1, -35.9684, 0.951128, 20.4716, -160.242, -92.727, 56.7153
2.53519, -1, -36.1196, 0.91051, 20.4836, -160.291, -92.7095, 56.4254
2.5433, -1, -36.2633, 0.872034, 20.4955, -160.339, -92.6925, 56.1451
2.55119, -1, -36.3975, 0.836412, 20.5071, -160.384, -92.6759, 55.8804
2.5592, -1, -36.5207, 0.803895, 20.5177, -160.425, -92.6606, 55.6381
2.56726, -1, -36.6311, 0.774672, 20.527, -160.461, -92.6472, 55.4233
2.57522, -1, -36.7273, 0.749304, 20.5346, -160.492, -92.6359, 55.2413
2.58325, -1, -36.8087, 0.72766, 20.5399, -160.517, -92.6269, 55.0942
2.59135, -1, -36.8763, 0.709713, 20.543, -160.537, -92.6202, 54.9822
2.59929, -1, -36.9309, 0.695399, 20.5444, -160.551, -92.6156, 54.9022
2.60729, -1, -36.9727, 0.68439, 20.5448, -160.56, -92.6126, 54.8477
2.61536, -1, -37.0035, 0.676266, 20.5446, -160.566, -92.6108, 54.8144
2.6233, -1, -37.0247, 0.670695, 20.5441, -160.569, -92.6098, 54.7954
2.63119, -1, -37.038, 0.667372, 20.5437, -160.571, -92.6093, 54.7856
2.6396, -1, -37.0455, 0.665612, 20.5434, -160.572, -92.6091, 54.781
2.64722, 2, -37.0484, 0.664805, 20.5434, -160.572, -92.609, 54.7789
2.65524, 2, -37.0485, 0.664442, 20.5433, -160.573, -92.6089, 54.7779
2.6637, 2, -37.0481, 0.664309, 20.5433, -160.573, -92.6089, 54.7775
2.67134, 2, -37.0479, 0.664268, 20.5432, -160.573, -92.6089, 54.7774
2.67942, 2, -37.0482, 0.664208, 20.5432, -160.573, -92.609, 54.7774
2.68778, 2, -37.0492, 0.664165, 20.5432, -160.573, -92.609, 54.7775
2.69554, 2, -37.0502, 0.664074, 20.5431, -160.573, -92.609, 54.7776
2.70427, 2, -37.0515, 0.66386, 20.5429, -160.573, -92.609, 54.7777
2.7121, 2, -37.0529, 0.663594, 20.5426, -160.573, -92.6091, 54.7778
2.7197, 2, -37.054, 0.663339, 20.5425, -160.573, -92.6092, 54.778
2.72827, 2, -37.055, 0.663132, 20.5423, -160.573, -92.6092, 54.7781
2.73597, 2, -37.0554, 0.66303, 20.5421, -160.573, -92.6092, 54.7783
2.74436, 2, -37.0554, 0.662983, 20.5419, -160.573, -92.6093, 54.7785
2.75172, 2, -37.0552, 0.662981, 20.5419, -160.573, -92.6093, 54.7787
2.76022, 2, -37.0539, 0.663072, 20.5418, -160.573, -92.6093, 54.7789
2.76718, 2, -37.0534, 0.663107, 20.5417, -160.573, -92.6093, 54.779
2.77627, 2, -37.0513, 0.663261, 20.5417, -160.573, -92.6094, 54.7794
2.78323, 2, -37.0506, 0.663327, 20.5416, -160.573, -92.6094, 54.7795
2.79241, 2, -37.0487, 0.663476, 20.5415, -160.573, -92.6095, 54.7797
2.79919, 2, -37.0483, 0.663483, 20.5415, -160.573, -92.6095, 54.7797
2.80723, 2, -37.0478, 0.663462, 20.5415, -160.573, -92.6095, 54.7798
2.81518, 2, -37.0476, 0.663426, 20.5415, -160.573, -92.6095, 54.7799
2.82483, 2, -37.0479, 0.663341, 20.5415, -160.573, -92.6095, 54.7799
2.83264, 2, -37.0481, 0.663267, 20.5414, -160.573, -92.6095, 54.78
2.83919, 2, -37.0484, 0.663246, 20.5414, -160.573, -92.6095, 54.78
2.84911, 2, -37.0494, 0.663178, 20.5414, -160.573, -92.6094, 54.7801
2.85697, 2, -37.0502, 0.663169, 20.5414, -160.573, -92.6095, 54.7801
2.86318, 2, -37.0507, 0.66318, 20.5414, -160.573, -92.6095, 54.7801
2.87304, 2, -37.0515, 0.663215, 20.5413, -160.573, -92.6095, 54.7802
2.87929, 2, -37.0517, 0.663237, 20.5413, -160.573, -92.6095, 54.7802
2.88877, 2, -37.0518, 0.663262, 20.5413, -160.573, -92.6095, 54.7803
2.89724, 2, -37.0517, 0.663276, 20.5413, -160.573, -92.6095, 54.7803
2.90325, 2, -37.0516, 0.663278, 20.5413, -160.573, -92.6096, 54.7803
2.91118, 2, -37.0511, 0.663281, 20.5413, -160.573, -92.6095, 54.7803
2.91919, 2, -37.0508, 0.663282, 20.5413, -160.573, -92.6095, 54.7804
2.92724, 2, -37.0505, 0.663275, 20.5413, -160.573, -92.6095, 54.7805
2.93517, 2, -37.0503, 0.663226, 20.5413, -160.573, -92.6096, 54.7805
2.94318, 2, -37.0502, 0.663206, 20.5413, -160.573, -92.6095, 54.7805
2.95133, 2, -37.0502, 0.663194, 20.5413, -160.572, -92.6096, 54.7806
2.95919, 2, -37.0501, 0.663181, 20.5413, -160.573, -92.6096, 54.7806
2.96717, 2, -37.0501, 0.663175, 20.5412, -160.573, -92.6096, 54.7807
2.97524, 2, -37.0502, 0.663214, 20.5412, -160.573, -92.6096, 54.7808
2.98318, 2, -37.0503, 0.663227, 20.5412, -160.573, -92.6096, 54.7808
2.99119, 2, -37.0506, 0.663252, 20.5412, -160.572, -92.6096, 54.7809
2.99928, 2, -37.0508, 0.663269, 20.5412, -160.572, -92.6096, 54.7809
3.00718, 2, -37.0509, 0.663276, 20.5412, -160.572, -92.6096, 54.7809
3.01517, 2, -37.0509, 0.66328, 20.5412, -160.572, -92.6097, 54.781
3.02329, 2, -37.0509, 0.663282, 20.5412, -160.572, -92.6097, 54.781
3.03117, 2, -37.0508, 0.663275, 20.5412, -160.572, -92.6097, 54.7811
3.03918, 2, -37.0508, 0.663255, 20.5412, -160.572, -92.6097, 54.7811
3.04727, 2, -37.0508, 0.663227, 20.5412, -160.572, -92.6097, 54.7811
3.05517, 2, -37.0508, 0.663214, 20.5412, -160.572, -92.6097, 54.7812
3.06318, 2, -37.0508, 0.663216, 20.5412, -160.572, -92.6098, 54.7813
3.07125, 2, -37.0508, 0.66322, 20.5411, -160.572, -92.6097, 54.7813
3.07922, 2, -37.0508, 0.663211, 20.5411, -160.572, -92.6098, 54.7813
3.08725, 2, -37.0507, 0.663245, 20.5411, -160.572, -92.6098, 54.7814
3.09532, 2, -37.0507, 0.663258, 20.5411, -160.572, -92.6098, 54.7814
3.10327, 2, -37.0507, 0.663267, 20.5411, -160.572, -92.6098, 54.7815
3.11127, 2, -37.0507, 0.663286, 20.5411, -160.572, -92.6098, 54.7815
3.11934, 2, -37.0507, 0.663292, 20.5411, -160.572, -92.6098, 54.7816
3.12727, 2, -37.0507, 0.663287, 20.5411, -160.572, -92.6098, 54.7816
3.13518, 2, -37.0507, 0.663278, 20.5411, -160.572, -92.6098, 54.7816
3.14333, 2, -37.0507, 0.663275, 20.5411, -160.572, -92.6098, 54.7817
3.15122, 2, -37.0507, 0.663267, 20.5411, -160.572, -92.6098, 54.7817
3.15925, 2, -37.0507, 0.663263, 20.5411, -160.572, -92.6098, 54.7817
3.1674, 2, -37.0506, 0.663262, 20.5411, -160.572, -92.6098, 54.7817
3.17534, 2, -37.0506, 0.663273, 20.5411, -160.572, -92.6098, 54.7818
3.18339, 2, -37.0506, 0.663271, 20.541, -160.572, -92.6098, 54.7818
3.19171, 2, -37.0506, 0.663265, 20.541, -160.572, -92.6098, 54.7818
3.19978, 2, -37.0506, 0.66327, 20.541, -160.572, -92.6099, 54.7819
3.20819, 2, -37.0506, 0.663277, 20.541, -160.572, -92.6098, 54.7819
3.21599, 2, -37.0506, 0.66331, 20.541, -160.572, -92.6098, 54.7819
3.22432, 2, -37.0506, 0.663303, 20.541, -160.572, -92.6099, 54.7819
3.23168, 2, -37.0506, 0.663292, 20.541, -160.572, -92.6099, 54.782
3.24026, 2, -37.0506, 0.663287, 20.541, -160.572, -92.6099, 54.782
3.24773, 2, -37.0505, 0.663286, 20.541, -160.572, -92.6099, 54.7821
3.25631, 2, -37.0505, 0.663275, 20.541, -160.572, -92.6099, 54.7821
3.26393, 2, -37.0505, 0.663278, 20.541, -160.572, -92.6099, 54.7822
3.27225, 2, -37.0505, 0.663281, 20.541, -160.572, -92.6099, 54.7822
3.27917, 2, -37.0505, 0.663282, 20.5409, -160.572, -92.6099, 54.7822
3.28827, 2, -37.0505, 0.663283, 20.5409, -160.572, -92.6099, 54.7822
3.29516, 2, -37.0504, 0.663283, 20.5409, -160.572, -92.6099, 54.7822
3.3044, 2, -37.0504, 0.663283, 20.5409, -160.572, -92.6099, 54.7822
3.31122, 2, -37.0504, 0.663283, 20.5409, -160.572, -92.6099, 54.7822
3.32065, 2, -37.0504, 0.663294, 20.5409, -160.572, -92.6098, 54.7823
3.32718, 2, -37.0504, 0.663301, 20.5409, -160.572, -92.6098, 54.7823
3.33674, 2, -37.0504, 0.6633, 20.5409, -160.572, -92.6099, 54.7824
3.34473, 2, -37.0504, 0.663309, 20.5409, -160.572, -92.6099, 54.7824
3.35268, 2, -37.0504, 0.663302, 20.5409, -160.572, -92.6099, 54.7824
3.36079, 2, -37.0504, 0.663292, 20.5408, -160.572, -92.6099, 54.7824
3.36877, 2, -37.0504, 0.663287, 20.5408, -160.572, -92.6099, 54.7824
3.37679, 2, -37.0503, 0.663285, 20.5408, -160.572, -92.61, 54.7824
3.38479, 2, -37.0503, 0.663284, 20.5408, -160.572, -92.6099, 54.7824
3.3922, 2, -37.0503, 0.663283, 20.5408, -160.572, -92.61, 54.7824
3.40014, 2, -37.0503, 0.663283, 20.5408, -160.572, -92.6099, 54.7825
3.40815, 2, -37.0503, 0.663276, 20.5408, -160.572, -92.6099, 54.7825
3.41625, 2, -37.0503, 0.663275, 20.5408, -160.572, -92.6099, 54.7825
3.42415, 2, -37.0503, 0.66329, 20.5408, -160.572, -92.6099, 54.7825
3.43217, 2, -37.0503, 0.663294, 20.5408, -160.572, -92.61, 54.7825
3.4402, 2, -37.0503, 0.663299, 20.5408, -160.572, -92.61, 54.7825
3.44814, 2, -37.0503, 0.663327, 20.5408, -160.572, -92.61, 54.7825
3.45621, 2, -37.0502, 0.663311, 20.5408, -160.572, -92.61, 54.7826
3.46425, 2, -37.0503, 0.663307, 20.5408, -160.572, -92.61, 54.7826
3.47214, 2, -37.0502, 0.6633, 20.5408, -160.572, -92.61, 54.7826
3.48015, 2, -37.0502, 0.663298, 20.5408, -160.572, -92.61, 54.7826
3.48824, 2, -37.0502, 0.66329, 20.5408, -160.572, -92.61, 54.7826
3.4962, 2, -37.0502, 0.663279, 20.5408, -160.572, -92.61, 54.7826
3.50415, 2, -37.0502, 0.663276, 20.5408, -160.572, -92.6101, 54.7826
3.51221, 2, -37.0502, 0.66328, 20.5408, -160.572, -92.61, 54.7826
3.52014, 2, -37.0501, 0.6633, 20.5407, -160.572, -92.61, 54.7826
3.52815, 2, -37.0501, 0.663302, 20.5407, -160.572, -92.61, 54.7826
3.53515, 2, -37.0501, 0.663299, 20.5407, -160.572, -92.61, 54.7827
3.54316, 2, -37.0501, 0.66332, 20.5407, -160.572, -92.61, 54.7827
3.55127, 2, -37.0501, 0.663336, 20.5407, -160.572, -92.61, 54.7826
3.55916, 2, -37.05, 0.663315, 20.5407, -160.572, -92.61, 54.7827
3.56725, 2, -37.05, 0.663316, 20.5407, -160.572, -92.61, 54.7827
3.57523, 2, -37.05, 0.663298, 20.5407, -160.572, -92.61, 54.7827
3.5832, 2, -37.05, 0.66329, 20.5407, -160.572, -92.6099, 54.7827
3.59124, 2, -37.0499, 0.663286, 20.5407, -160.572, -92.61, 54.7828
3.59933, 2, -37.0499, 0.663295, 20.5407, -160.572, -92.61, 54.7828
3.60725, 2, -37.0499, 0.663307, 20.5407, -160.572, -92.61, 54.7829
3.61525, 2, -37.0499, 0.663301, 20.5407, -160.572, -92.6101, 54.7828
3.62333, 2, -37.0499, 0.663302, 20.5407, -160.572, -92.6101, 54.7828
3.63121, 2, -37.0499, 0.66331, 20.5407, -160.572, -92.6101, 54.7828
3.63916, 2, -37.0498, 0.663314, 20.5407, -160.572, -92.6101, 54.7828
3.64753, 2, -37.0498, 0.663334, 20.5407, -160.572, -92.6101, 54.7829
3.65928, 2, -37.0498, 0.663358, 20.5406, -160.572, -92.6101, 54.7829
3.6633, 2, -37.0498, 0.663363, 20.5406, -160.572, -92.6101, 54.7829
3.67135, 2, -37.0498, 0.663361, 20.5406, -160.572, -92.6101, 54.7828
3.6797, 2, -37.0498, 0.663356, 20.5406, -160.571, -92.6101, 54.7829
3.68814, 2, -37.0497, 0.663353, 20.5406, -160.571, -92.6101, 54.7829
3.69589, 2, -37.0497, 0.663333, 20.5406, -160.571, -92.6101, 54.7829
3.70441, 2, -37.0497, 0.663343, 20.5406, -160.571, -92.6101, 54.7829
3.71157, 2, -37.0497, 0.663318, 20.5406, -160.571, -92.6101, 54.7829
3.71974, 2, -37.0497, 0.66331, 20.5406, -160.571, -92.6101, 54.7829
3.72826, 4, -37.0497, 0.663332, 20.5406, -160.571, -92.6101, 54.7828
3.73569, 4, -37.0496, 0.663354, 20.5406, -160.571, -92.6101, 54.7829
3.74425, 4, -37.0496, 0.663352, 20.5406, -160.571, -92.6101, 54.7829
3.75199, 4, -37.0496, 0.663352, 20.5406, -160.571, -92.6101, 54.7829
3.75967, 4, -37.0495, 0.663364, 20.5405, -160.571, -92.6101, 54.783
3.76816, 4, -37.0495, 0.663362, 20.5405, -160.571, -92.6101, 54.7829
3.77513, 4, -37.0495, 0.663366, 20.5405, -160.571, -92.6101, 54.7829
3.78314, 4, -37.0495, 0.663358, 20.5405, -160.571, -92.6101, 54.7829
3.79224, 4, -37.0495, 0.663373, 20.5405, -160.571, -92.6102, 54.7829
3.79915, 4, -37.0494, 0.66338, 20.5405, -160.571, -92.6101, 54.7829
3.80835, 4, -37.0494, 0.663363, 20.5405, -160.571, -92.6102, 54.783
3.81522, 4, -37.0494, 0.663366, 20.5405, -160.571, -92.6101, 54.783
3.82313, 4, -37.0494, 0.663363, 20.5405, -160.571, -92.6102, 54.783
3.83131, 4, -37.0494, 0.663356, 20.5405, -160.571, -92.6101, 54.783
3.85461, 4, -37.0493, 0.663363, 20.5404, -160.571, -92.6102, 54.7829
3.85648, 4, -37.0493, 0.663363, 20.5404, -160.571, -92.6102, 54.783
3.85797, 4, -37.0493, 0.663367, 20.5404, -160.571, -92.6102, 54.783
3.86485, 4, -37.0493, 0.66337, 20.5404, -160.571, -92.6101, 54.7829
3.87302, 4, -37.0493, 0.663384, 20.5404, -160.571, -92.6102, 54.7829
3.87916, 4, -37.0492, 0.663388, 20.5404, -160.571, -92.6102, 54.7829
3.88812, 4, -37.049, 0.663325, 20.5405, -160.571, -92.6102, 54.783
3.8969, 4, -37.0475, 0.662925, 20.5405, -160.571, -92.6102, 54.783
3.90415, 4, -37.0436, 0.661321, 20.5409, -160.571, -92.6102, 54.7829
3.91213, 4, -37.0371, 0.65801, 20.5422, -160.571, -92.6102, 54.7829
3.92018, 4, -37.029, 0.653186, 20.5449, -160.571, -92.6102, 54.7829
3.92715, 4, -37.0197, 0.646979, 20.5497, -160.57, -92.6101, 54.783
3.93532, 4, -37.0083, 0.638821, 20.5574, -160.569, -92.6101, 54.7829
3.94314, 5, -36.9948, 0.628572, 20.568, -160.566, -92.6101, 54.7829
3.95122, 5, -36.9803, 0.616628, 20.5814, -160.564, -92.61, 54.7828
3.95913, 5, -36.9648, 0.603263, 20.5975, -160.56, -92.6098, 54.7827
3.96713, 5, -36.9475, 0.588369, 20.6153, -160.557, -92.6097, 54.7826
3.97542, 5, -36.9276, 0.571414, 20.6346, -160.553, -92.6094, 54.7825
3.98313, 5, -36.9052, 0.552693, 20.6549, -160.548, -92.6092, 54.7824
3.99113, 5, -36.8811, 0.533288, 20.6754, -160.544, -92.6091, 54.7823
4, 5, -36.8559, 0.513577, 20.6961, -160.539, -92.6088, 54.7822
4.00819, 5, -36.8304, 0.49336, 20.717, -160.535, -92.6085, 54.782
4.01619, 5, -36.8047, 0.472977, 20.7377, -160.53, -92.6081, 54.7819
4.02415, 5, -36.779, 0.452763, 20.7587, -160.525, -92.6077, 54.7818
4.03118, 5, -36.7534, 0.432417, 20.7797, -160.521, -92.6072, 54.7816
4.03916, 5, -36.728, 0.412055, 20.8006, -160.516, -92.6067, 54.7814
4.04792, 5, -36.7024, 0.391915, 20.8217, -160.511, -92.6062, 54.7812
4.05624, 5, -36.6769, 0.371738, 20.8427, -160.506, -92.6056, 54.781
4.06326, 5, -36.6514, 0.351631, 20.8637, -160.502, -92.605, 54.7808
4.07194, 5, -36.6257, 0.331742, 20.8849, -160.497, -92.6044, 54.7807
4.08012, 5, -36.6001, 0.31175, 20.9058, -160.492, -92.6038, 54.7805
4.08739, 5, -36.5747, 0.291779, 20.927, -160.488, -92.6032, 54.7804
4.09609, 5, -36.5492, 0.271781, 20.9481, -160.483, -92.6025, 54.7803
4.10323, 5, -36.5238, 0.251584, 20.9692, -160.479, -92.6018, 54.7802
4.1116, 5, -36.4985, 0.231322, 20.9903, -160.474, -92.6011, 54.7801
4.12063, 5, -36.4729, 0.211145, 21.0111, -160.47, -92.6005, 54.78
4.12812, 5, -36.447, 0.190899, 21.032, -160.465, -92.5998, 54.7799
4.13575, 5, -36.4211, 0.17058, 21.053, -160.461, -92.5992, 54.7798
4.14492, 5, -36.3951, 0.150413, 21.0739, -160.457, -92.5986, 54.7796
4.15212, 5, -36.3691, 0.130188, 21.095, -160.453, -92.5979, 54.7794
4.16, 5, -36.3433, 0.109892, 21.1159, -160.448, -92.5972, 54.7792
4.16895, 5, -36.3175, 0.0898592, 21.1368, -160.444, -92.5965, 54.779
4.17618, 5, -36.2917, 0.0698704, 21.1577, -160.44, -92.5959, 54.7787
4.18426, 5, -36.2659, 0.0497649, 21.1786, -160.436, -92.5952, 54.7784
4.19142, 5, -36.2398, 0.0298262, 21.1995, -160.432, -92.5946, 54.7781
4.19956, 5, -36.2138, 0.0098853, 21.2204, -160.427, -92.5939, 54.7777
4.20836, 5, -36.1881, -0.0102067, 21.2412, -160.423, -92.5933, 54.7773
4.21559, 5, -36.1623, -0.0301661, 21.2621, -160.419, -92.5927, 54.7769
4.22373, 5, -36.1367, -0.0500812, 21.283, -160.414, -92.5921, 54.7765
4.23253, 5, -36.1108, -0.0701893, 21.3039, -160.41, -92.5915, 54.776
4.2397, 5, -36.0848, -0.0901586, 21.3247, -160.405, -92.5908, 54.7755
4.24823, 5, -36.0587, -0.110148, 21.3454, -160.401, -92.5902, 54.775
4.25661, 5, -36.0457, -0.120209, 21.3557, -160.396, -92.5896, 54.7746
4.26364, 5, -36.0197, -0.140343, 21.3764, -160.394, -92.5893, 54.7744
4.27168, 5, -35.9936, -0.160309, 21.3971, -160.389, -92.5887, 54.7739
4.28093, 5, -35.9546, -0.190252, 21.4283, -160.381, -92.5878, 54.7732
4.28906, 5, -35.9285, -0.210173, 21.4491, -160.377, -92.5872, 54.7728
4.29626, 5, -35.9023, -0.229949, 21.4697, -160.372, -92.5866, 54.7724
4.30311, 5, -35.8893, -0.239887, 21.48, -160.369, -92.5863, 54.7722
4.31111, 5, -35.8633, -0.259825, 21.5007, -160.364, -92.5857, 54.7719
4.32041, 5, -35.8241, -0.289409, 21.5316, -160.357, -92.5847, 54.7714
4.32711, 5, -35.8111, -0.299288, 21.5419, -160.354, -92.5844, 54.7712
4.33518, 5, -35.7851, -0.319197, 21.5625, -160.35, -92.5839, 54.7709
4.34311, 5, -35.7589, -0.33898, 21.583, -160.345, -92.5833, 54.7706
4.35117, 5, -35.7329, -0.358735, 21.6037, -160.34, -92.5827, 54.7703
4.36071, 5, -35.6939, -0.388611, 21.6344, -160.333, -92.5818, 54.77
4.37389, 5, -35.6547, -0.418199, 21.6652, -160.326, -92.5809, 54.7698
4.37673, 5, -35.6416, -0.428125, 21.6754, -160.324, -92.5806, 54.7697
4.38475, 5, -35.6285, -0.438068, 21.6957, -160.32, -92.58, 54.7695
4.39211, 5, -35.6022, -0.457789, 21.7058, -160.317, -92.5798, 54.7695
4.39921, 5, -35.5759, -0.477503, 21.7262, -160.313, -92.5792, 54.7694
4.40817, 5, -35.5497, -0.497368, 21.7466, -160.308, -92.5786, 54.7693
4.41512, 5, -35.5235, -0.517096, 21.767, -160.304, -92.578, 54.7692
4.42319, 5, -35.4973, -0.536639, 21.7872, -160.299, -92.5773, 54.7691
4.43119, 5, -35.471, -0.556296, 21.8075, -160.295, -92.5768, 54.769
4.43911, 5, -35.4447, -0.575924, 21.8278, -160.291, -92.5762, 54.769
4.44711, 5, -35.4184, -0.595411, 21.8479, -160.286, -92.5757, 54.7689
4.45513, 5, -35.3921, -0.615084, 21.8682, -160.282, -92.5751, 54.7689
4.4632, 5, -35.3658, -0.634756, 21.8884, -160.277, -92.5745, 54.769
4.47112, 5, -35.3396, -0.654204, 21.9085, -160.272, -92.5739, 54.7689
4.47911, 5, -35.3132, -0.673781, 21.9288, -160.268, -92.5733, 54.7689
4.48718, 5, -35.2867, -0.693482, 21.9489, -160.263, -92.5727, 54.7689
4.49511, 5, -35.2603, -0.712982, 21.9691, -160.258, -92.5722, 54.7689
4.50311, 5, -35.2339, -0.732525, 21.9893, -160.253, -92.5715, 54.7689
4.51216, 5, -35.2074, -0.752178, 22.0093, -160.248, -92.571, 54.7689
4.52017, 5, -35.181, -0.771567, 22.0292, -160.243, -92.5704, 54.7689
4.5281, 5, -35.1545, -0.79091, 22.0492, -160.238, -92.5698, 54.7689
4.53523, 5, -35.1279, -0.810381, 22.0692, -160.233, -92.5692, 54.7689
4.54311, 5, -35.1015, -0.829686, 22.0893, -160.228, -92.5686, 54.769
4.55112, 5, -35.075, -0.849028, 22.1094, -160.223, -92.568, 54.7691
4.55922, 5, -35.0485, -0.868571, 22.1292, -160.218, -92.5675, 54.769
4.56711, 5, -35.0222, -0.888006, 22.1492, -160.213, -92.5669, 54.7691
4.57519, 5, -34.9957, -0.907304, 22.169, -160.208, -92.5662, 54.769
4.58313, 5, -34.9692, -0.926732, 22.1888, -160.203, -92.5657, 54.7691
4.59118, 5, -34.9428, -0.946183, 22.2088, -160.198, -92.5651, 54.7691
4.59927, 5, -34.9164, -0.965443, 22.2286, -160.193, -92.5645, 54.7691
4.60723, 5, -34.8899, -0.984807, 22.2484, -160.188, -92.5639, 54.7692
4.61525, 5, -34.8633, -1.00423, 22.2683, -160.184, -92.5633, 54.7693
4.62328, 5, -34.8367, -1.02342, 22.2881, -160.179, -92.5627, 54.7692
4.63139, 5, -34.8098, -1.04255, 22.3079, -160.174, -92.5621, 54.7692
4.64013, 5, -34.7832, -1.06186, 22.3277, -160.17, -92.5615, 54.7693
4.64737, 5, -34.7566, -1.08105, 22.3473, -160.165, -92.5609, 54.7694
4.65515, 5, -34.7299, -1.10018, 22.3669, -160.161, -92.5603, 54.7694
4.66319, 5, -34.7033, -1.11952, 22.3866, -160.156, -92.5597, 54.7695
4.67133, 5, -34.6765, -1.13875, 22.4062, -160.152, -92.5591, 54.7696
4.68025, 5, -34.6496, -1.15787, 22.4259, -160.147, -92.5584, 54.7697
4.6874, 5, -34.623, -1.17713, 22.4455, -160.142, -92.5578, 54.7698
4.69566, 5, -34.5962, -1.1963, 22.4651, -160.138, -92.5572, 54.77
4.70492, 5, -34.5696, -1.21546, 22.4846, -160.133, -92.5566, 54.7702
4.71214, 5, -34.543, -1.23471, 22.504, -160.128, -92.556, 54.7704
4.71962, 5, -34.5162, -1.25391, 22.5235, -160.124, -92.5554, 54.7707
4.72821, 5, -34.4894, -1.27295, 22.543, -160.119, -92.5548, 54.771
4.73572, 5, -34.4627, -1.29202, 22.5625, -160.114, -92.5542, 54.7713
4.74427, 5, -34.4358, -1.31105, 22.582, -160.109, -92.5536, 54.7718
4.7517, 5, -34.4224, -1.32999, 22.6015, -160.104, -92.553, 54.7724
4.76206, 5, -34.3821, -1.34896, 22.6209, -160.099, -92.5523, 54.773
4.76705, 5, -34.3685, -1.35851, 22.6306, -160.096, -92.5521, 54.7733
4.77709, 5, -34.328, -1.38702, 22.6598, -160.088, -92.5511, 54.7746
4.78317, 5, -34.3146, -1.39644, 22.6695, -160.085, -92.5508, 54.775
4.7925, 5, -34.2744, -1.42495, 22.6984, -160.077, -92.5498, 54.7764
4.79912, 5, -34.2609, -1.43449, 22.7081, -160.075, -92.5494, 54.777
4.80909, 5, -34.2205, -1.46283, 22.7369, -160.067, -92.5486, 54.7786
4.81643, 5, -34.1933, -1.48182, 22.7563, -160.061, -92.548, 54.7798
4.82316, 5, -34.1798, -1.49135, 22.766, -160.059, -92.5477, 54.7805
4.83264, 5, -34.1395, -1.51962, 22.7948, -160.051, -92.5467, 54.7823
4.8407, 5, -34.1126, -1.53845, 22.8142, -160.046, -92.546, 54.7836
4.84858, 5, -34.0858, -1.5574, 22.8333, -160.041, -92.5454, 54.7849
4.85525, 5, -34.0724, -1.56677, 22.8428, -160.039, -92.5451, 54.7855
4.86308, 5, -34.0453, -1.58547, 22.8619, -160.034, -92.5445, 54.7869
4.87268, 5, -34.0048, -1.61385, 22.8907, -160.026, -92.5435, 54.789
4.88078, 5, -33.9777, -1.63259, 22.9097, -160.022, -92.5428, 54.7903
4.88893, 5, -33.9642, -1.6419, 22.9193, -160.019, -92.5425, 54.7916
4.89667, 5, -33.937, -1.66062, 22.9386, -160.014, -92.5419, 54.7923
4.90809, 5, -33.8964, -1.68881, 22.9671, -160.007, -92.5409, 54.7943
4.91204, 5, -33.8828, -1.69812, 22.9766, -160.005, -92.5406, 54.795
4.92008, 5, -33.8556, -1.71677, 22.9957, -160, -92.5399, 54.7963
4.9281, 5, -33.8286, -1.73561, 23.0146, -159.995, -92.5393, 54.7976
4.93615, 5, -33.8015, -1.75435, 23.0335, -159.99, -92.5386, 54.799
4.9431, 5, -33.7743, -1.77292, 23.0524, -159.985, -92.538, 54.8003
4.95109, 5, -33.7471, -1.7916, 23.0713, -159.98, -92.5373, 54.8017
4.96009, 5, -33.7198, -1.81037, 23.0902, -159.975, -92.5366, 54.8031
4.96814, 5, -33.6927, -1.82898, 23.1091, -159.97, -92.5359, 54.8045
4.97636, 5, -33.6656, -1.84756, 23.1279, -159.965, -92.5353, 54.8059
4.9856, 5, -33.6385, -1.86633, 23.1468, -159.959, -92.5346, 54.8072
4.99215, 5, -33.6114, -1.88489, 23.1656, -159.954, -92.534, 54.8086
5.00012, 5, -33.5841, -1.90334, 23.1842, -159.949, -92.5333, 54.81
5.00809, 5, -33.5568, -1.92198, 23.203, -159.943, -92.5326, 54.8114
5.01621, 5, -33.5295, -1.94054, 23.2217, -159.938, -92.532, 54.8128
5.02469, 5, -33.5022, -1.95902, 23.2404, -159.932, -92.5313, 54.8142
5.0311, 5, -33.4749, -1.97774, 23.2591, -159.927, -92.5307, 54.8156
5.04009, 5, -33.4477, -1.99647, 23.2778, -159.921, -92.5299, 54.817
5.04891, 5, -33.4203, -2.01502, 23.2964, -159.916, -92.5292, 54.8184
5.05514, 5, -33.3929, -2.0338, 23.3153, -159.91, -92.5285, 54.8197
5.06317, 5, -33.3658, -2.0527, 23.3341, -159.905, -92.5276, 54.8209
5.07121, 5, -33.3386, -2.07148, 23.3528, -159.9, -92.5266, 54.8219
5.08122, 5, -33.3115, -2.09049, 23.3718, -159.894, -92.5255, 54.8228
5.08808, 5, -33.2845, -2.10972, 23.3909, -159.889, -92.5241, 54.8235
5.09542, 6, -33.2573, -2.12891, 23.41, -159.883, -92.5226, 54.8239
5.10319, 6, -33.2303, -2.14829, 23.4294, -159.878, -92.5209, 54.8242
5.11122, 6, -33.2036, -2.16798, 23.4489, -159.872, -92.519, 54.8244
5.11964, 6, -33.1768, -2.18775, 23.4685, -159.866, -92.5169, 54.8245
5.12809, 6, -33.1502, -2.2077, 23.4883, -159.86, -92.5147, 54.8245
5.1353, 6, -33.1236, -2.228, 23.5081, -159.854, -92.5122, 54.8244
5.14349, 6, -33.097, -2.24838, 23.5281, -159.848, -92.5095, 54.8243
5.15111, 6, -33.0705, -2.26889, 23.5483, -159.841, -92.5067, 54.8241
5.1592, 6, -33.0442, -2.2897, 23.5686, -159.834, -92.5036, 54.8237
5.16801, 6, -33.0179, -2.31057, 23.5891, -159.827, -92.5004, 54.8232
5.17615, 6, -32.9917, -2.3317, 23.6098, -159.82, -92.497, 54.8225
5.18334, 6, -32.9655, -2.35313, 23.6306, -159.812, -92.4935, 54.8216
5.19135, 6, -32.9393, -2.37461, 23.6515, -159.805, -92.4898, 54.8207
5.19991, 6, -32.9132, -2.39626, 23.6725, -159.797, -92.4859, 54.8197
5.20753, 7, -32.8874, -2.41818, 23.6936, -159.788, -92.4819, 54.8186
5.21618, 7, -32.8616, -2.44014, 23.7149, -159.78, -92.4777, 54.817
5.22367, 7, -32.8358, -2.4624, 23.7363, -159.771, -92.4733, 54.8148
5.23224, 7, -32.8102, -2.48493, 23.758, -159.763, -92.4688, 54.8119
5.23963, 7, -32.7844, -2.50748, 23.7798, -159.755, -92.4641, 54.8084
5.24819, 7, -32.7589, -2.53031, 23.8015, -159.746, -92.4593, 54.8046
5.25593, 7, -32.7335, -2.55337, 23.8236, -159.738, -92.4543, 54.8004
5.26426, 7, -32.7081, -2.57658, 23.8457, -159.729, -92.4489, 54.7958
5.27109, 7, -32.6955, -2.58829, 23.8568, -159.725, -92.4462, 54.7934
5.28015, 7, -32.6578, -2.62369, 23.8905, -159.712, -92.4378, 54.7858
5.28708, 7, -32.6452, -2.63557, 23.9017, -159.707, -92.4349, 54.7831
5.29527, 7, -32.62, -2.6595, 23.9243, -159.698, -92.429, 54.7774
5.30462, 7, -32.5951, -2.69559, 23.9587, -159.684, -92.4197, 54.7685
5.31106, 8, -32.5701, -2.70782, 23.9702, -159.68, -92.4164, 54.7654
5.31914, 8, -32.5454, -2.73242, 23.9933, -159.67, -92.4097, 54.759
5.32847, 8, -32.5082, -2.76941, 24.028, -159.655, -92.399, 54.749
5.33509, 8, -32.4959, -2.78193, 24.0397, -159.649, -92.3953, 54.7456
5.34525, 8, -32.4588, -2.8195, 24.075, -159.634, -92.3837, 54.7349
5.35112, 8, -32.4465, -2.83214, 24.0869, -159.628, -92.3797, 54.7311
5.36126, 8, -32.4099, -2.87043, 24.1227, -159.613, -92.3672, 54.7195
5.36711, 8, -32.3977, -2.88322, 24.1346, -159.608, -92.363, 54.7156
5.37686, 8, -32.3613, -2.922, 24.1707, -159.592, -92.3503, 54.7034
5.3855, 8, -32.3493, -2.93503, 24.195, -159.581, -92.3417, 54.6948
5.39111, 8, -32.325, -2.96133, 24.2072, -159.576, -92.3374, 54.6904
5.40109, 8, -32.2889, -3.00094, 24.244, -159.56, -92.3242, 54.6766
5.40708, 8, -32.277, -3.01426, 24.2564, -159.554, -92.3198, 54.6719
5.41511, 8, -32.2531, -3.04104, 24.2812, -159.543, -92.311, 54.6624
5.42422, 9, -32.2293, -3.0679, 24.3062, -159.532, -92.302, 54.6526
5.43207, 9, -32.2056, -3.09512, 24.3313, -159.52, -92.2929, 54.6427
5.44014, 9, -32.182, -3.12245, 24.3564, -159.508, -92.2835, 54.6326
5.44708, 9, -32.1583, -3.14996, 24.3817, -159.496, -92.274, 54.6226
5.45608, 9, -32.1347, -3.17765, 24.4071, -159.483, -92.2641, 54.6124
5.46412, 9, -32.1114, -3.20559, 24.4328, -159.471, -92.2538, 54.6021
5.47422, 9, -32.0764, -3.24786, 24.4714, -159.453, -92.2377, 54.5866
5.47907, 9, -32.0647, -3.26205, 24.4844, -159.447, -92.2321, 54.5813
5.48707, 9, -32.0415, -3.29065, 24.5104, -159.434, -92.2208, 54.5707
5.49613, 9, -32.0183, -3.31938, 24.5366, -159.422, -92.2094, 54.5598
5.50417, 9, -31.995, -3.34839, 24.5628, -159.409, -92.198, 54.5487
5.51108, 9, -31.972, -3.3775, 24.5893, -159.396, -92.1864, 54.5373
5.52021, 9, -31.9493, -3.40684, 24.6159, -159.383, -92.1748, 54.5256
5.52705, 9, -31.9265, -3.43637, 24.6427, -159.37, -92.1632, 54.5136
5.53507, 10, -31.9038, -3.46619, 24.6696, -159.356, -92.1515, 54.5011
5.5441, 10, -31.8813, -3.49611, 24.6965, -159.342, -92.1395, 54.4883
5.55213, 10, -31.8586, -3.52623, 24.7236, -159.328, -92.1272, 54.4751
5.55908, 10, -31.836, -3.55653, 24.751, -159.315, -92.1146, 54.4617
5.56808, 10, -31.8136, -3.58714, 24.7785, -159.301, -92.1016, 54.4481
5.57617, 10, -31.7913, -3.61782, 24.806, -159.288, -92.0882, 54.4345
5.58307, 10, -31.7691, -3.64872, 24.8337, -159.274, -92.0743, 54.421
5.59208, 10, -31.747, -3.67983, 24.8616, -159.26, -92.0605, 54.4074
5.60013, 10, -31.725, -3.71122, 24.8897, -159.245, -92.0467, 54.3937
5.6072, 10, -31.7029, -3.74266, 24.9178, -159.231, -92.033, 54.3799
5.61663, 10, -31.6809, -3.7743, 24.9461, -159.216, -92.0192, 54.3659
5.628, 10, -31.648, -3.82216, 24.9891, -159.193, -91.9985, 54.3444
5.63206, 10, -31.6371, -3.83825, 25.0034, -159.186, -91.9914, 54.3371
5.64087, 11, -31.6152, -3.87048, 25.032, -159.171, -91.9772, 54.3221
5.64809, 11, -31.5935, -3.90292, 25.0608, -159.156, -91.9624, 54.3068
5.65524, 11, -31.572, -3.93559, 25.09, -159.141, -91.9472, 54.291
5.66712, 11, -31.5395, -3.98508, 25.1337, -159.118, -91.9238, 54.2668
5.67114, 11, -31.5287, -4.00162, 25.1484, -159.11, -91.916, 54.2587
5.67921, 11, -31.5073, -4.03492, 25.1778, -159.094, -91.9004, 54.2426
5.688, 11, -31.4861, -4.06845, 25.2075, -159.078, -91.8847, 54.2264
5.69608, 11, -31.4647, -4.10224, 25.2372, -159.062, -91.869, 54.2101
5.70343, 11, -31.4435, -4.13615, 25.267, -159.045, -91.8532, 54.1936
5.7125, 11, -31.4225, -4.17021, 25.2971, -159.029, -91.8372, 54.177
5.71953, 11, -31.4015, -4.20464, 25.3273, -159.013, -91.8207, 54.1599
5.72843, 11, -31.3804, -4.23924, 25.3576, -158.997, -91.8038, 54.1427
5.73565, 11, -31.3595, -4.27396, 25.3879, -158.98, -91.7863, 54.125
5.74431, 11, -31.3388, -4.30887, 25.4186, -158.964, -91.7688, 54.1067
5.75261, 12, -31.3181, -4.34409, 25.4494, -158.946, -91.7514, 54.088
5.75985, 12, -31.3077, -4.36176, 25.4802, -158.929, -91.734, 54.0693
5.76815, 12, -31.277, -4.415, 25.5112, -158.912, -91.7167, 54.0507
5.77509, 12, -31.2669, -4.43285, 25.5268, -158.903, -91.7081, 54.0414
5.7841, 12, -31.2363, -4.48679, 25.5738, -158.877, -91.6815, 54.0135
5.79107, 12, -31.2261, -4.50483, 25.5895, -158.868, -91.6724, 54.0041
5.8007, 12, -31.1957, -4.55917, 25.6369, -158.842, -91.6444, 53.9756
5.80858, 12, -31.1756, -4.59573, 25.6687, -158.824, -91.6255, 53.9562
5.81507, 12, -31.1655, -4.61406, 25.6846, -158.815, -91.6161, 53.9463
5.82509, 12, -31.1354, -4.66931, 25.7325, -158.788, -91.5879, 53.9159
5.83106, 12, -31.1254, -4.68785, 25.7486, -158.778, -91.5785, 53.9057
5.84092, 12, -31.0957, -4.74379, 25.797, -158.751, -91.55, 53.8749
5.84846, 12, -31.0857, -4.78139, 25.8293, -158.732, -91.5304, 53.8544
5.85506, 12, -31.0658, -4.80025, 25.8456, -158.723, -91.5204, 53.8443
5.86467, 13, -31.036, -4.85718, 25.8947, -158.696, -91.4898, 53.8133
5.87265, 13, -31.0164, -4.89535, 25.9275, -158.677, -91.4694, 53.7925
5.88079, 13, -30.9968, -4.93385, 25.9605, -158.658, -91.4491, 53.7712
5.88927, 13, -30.9773, -4.97252, 25.9938, -158.639, -91.4288, 53.7496
5.89512, 13, -30.9676, -4.99191, 26.0104, -158.629, -91.4187, 53.7386
5.90411, 13, -30.9484, -5.03084, 26.0437, -158.61, -91.3981, 53.7163
5.91208, 13, -30.9292, -5.07001, 26.0773, -158.59, -91.3771, 53.6941
5.91912, 13, -30.9099, -5.10928, 26.111, -158.571, -91.3555, 53.6719
5.92712, 13, -30.8907, -5.14877, 26.1448, -158.552, -91.3338, 53.6497
5.93506, 13, -30.8716, -5.18852, 26.1787, -158.532, -91.3122, 53.6271
5.94406, 13, -30.8526, -5.22837, 26.2129, -158.512, -91.2906, 53.6043
5.95105, 13, -30.8337, -5.26836, 26.2471, -158.491, -91.269, 53.581
5.95906, 13, -30.8149, -5.30867, 26.2815, -158.471, -91.247, 53.5573
5.9683, 14, -30.7962, -5.34916, 26.3162, -158.451, -91.2244, 53.5331
5.97771, 14, -30.7683, -5.41013, 26.3681, -158.421, -91.1899, 53.4973
5.98408, 14, -30.759, -5.43061, 26.3855, -158.411, -91.1784, 53.4855
5.99211, 14, -30.7403, -5.47172, 26.4205, -158.39, -91.1557, 53.462
5.99908, 14, -30.7218, -5.51301, 26.4557, -158.369, -91.133, 53.4381
6.00806, 14, -30.7033, -5.55456, 26.4908, -158.348, -91.11, 53.4137
6.01851, 14, -30.6758, -5.61734, 26.5439, -158.316, -91.0745, 53.3761
6.02306, 14, -30.6667, -5.63828, 26.5617, -158.305, -91.0624, 53.3633
6.03105, 14, -30.6486, -5.68046, 26.5973, -158.284, -91.0382, 53.3375
6.04005, 14, -30.6306, -5.72292, 26.6332, -158.263, -91.0141, 53.3117
6.04824, 14, -30.6125, -5.76548, 26.6692, -158.241, -90.9901, 53.2862
6.05605, 14, -30.5944, -5.80826, 26.7052, -158.219, -90.9659, 53.2606
6.06329, 14, -30.5765, -5.85129, 26.7415, -158.197, -90.9411, 53.2348
6.07104, 14, -30.5587, -5.89445, 26.778, -158.175, -90.9157, 53.2085
6.07922, 15, -30.5409, -5.93778, 26.8145, -158.154, -90.8904, 53.1816
6.08706, 15, -30.5232, -5.98129, 26.8511, -158.132, -90.8653, 53.1544
6.09509, 15, -30.5057, -6.02497, 26.8881, -158.11, -90.8403, 53.1274
6.10406, 15, -30.4883, -6.06886, 26.9251, -158.087, -90.8151, 53.1006
6.11205, 15, -30.4709, -6.11299, 26.9623, -158.064, -90.7892, 53.0735
6.12011, 15, -30.4535, -6.15728, 26.9996, -158.041, -90.7629, 53.046
6.12731, 15, -30.436, -6.20175, 27.037, -158.018, -90.7368, 53.0182
6.13598, 15, -30.4187, -6.24648, 27.0745, -157.995, -90.7107, 52.9897
6.14412, 15, -30.4016, -6.29147, 27.1123, -157.972, -90.6845, 52.961
6.15167, 15, -30.3845, -6.33664, 27.1501, -157.949, -90.6578, 52.9326
6.16005, 15, -30.3675, -6.38207, 27.188, -157.925, -90.6303, 52.904
6.16812, 15, -30.3507, -6.4278, 27.2261, -157.901, -90.6029, 52.8753
6.17519, 15, -30.334, -6.47369, 27.2644, -157.878, -90.5757, 52.8461
6.18431, 15, -30.3173, -6.51979, 27.3029, -157.854, -90.5486, 52.8163
6.19221, 16, -30.3005, -6.56612, 27.3415, -157.831, -90.5213, 52.7863
6.2001, 16, -30.2838, -6.6126, 27.3802, -157.807, -90.4931, 52.7567
6.20819, 16, -30.2671, -6.65934, 27.4192, -157.782, -90.4647, 52.7271
6.21557, 16, -30.2505, -6.70621, 27.4582, -157.757, -90.4366, 52.6974
6.22416, 16, -30.2341, -6.75317, 27.4973, -157.733, -90.4085, 52.6672
6.23156, 16, -30.2176, -6.80043, 27.5367, -157.709, -90.3802, 52.6366
6.24024, 16, -30.2013, -6.84781, 27.5763, -157.685, -90.351, 52.6054
6.24761, 16, -30.1852, -6.89537, 27.616, -157.66, -90.3215, 52.5746
6.25614, 16, -30.169, -6.9432, 27.6558, -157.635, -90.2923, 52.5439
6.26369, 16, -30.161, -6.96718, 27.6758, -157.609, -90.2632, 52.513
6.27205, 16, -30.1367, -7.03951, 27.7357, -157.584, -90.2339, 52.4817
6.2797, 16, -30.1287, -7.06375, 27.7558, -157.572, -90.219, 52.4498
6.28844, 16, -30.1047, -7.13675, 27.8162, -157.534, -90.1736, 52.4176
6.29609, 16, -30.0889, -7.18579, 27.8566, -157.509, -90.1436, 52.3859
6.30427, 17, -30.0731, -7.23502, 27.8973, -157.483, -90.1136, 52.3543
6.31106, 17, -30.0652, -7.2597, 27.9176, -157.47, -90.0985, 52.3384
6.32027, 17, -30.0418, -7.33408, 27.9789, -157.431, -90.0521, 52.2901
6.32704, 17, -30.0341, -7.35898, 27.9994, -157.418, -90.0364, 52.2736
6.33649, 17, -30.011, -7.43391, 28.0611, -157.379, -89.9901, 52.2239
6.34448, 17, -29.9956, -7.48397, 28.1025, -157.353, -89.9593, 52.1909
6.35259, 17, -29.9801, -7.53426, 28.144, -157.326, -89.928, 52.158
6.36065, 17, -29.9648, -7.58471, 28.1855, -157.299, -89.896, 52.1248
6.36859, 17, -29.9496, -7.63527, 28.2274, -157.273, -89.8643, 52.0911
6.37668, 17, -29.9344, -7.68605, 28.2694, -157.247, -89.8327, 52.057
6.38549, 17, -29.9194, -7.73708, 28.3115, -157.219, -89.8009, 52.023
6.39109, 17, -29.9119, -7.7627, 28.3326, -157.206, -89.7848, 52.006
6.40104, 17, -29.8894, -7.83985, 28.396, -157.165, -89.7354, 51.9549
6.40721, 18, -29.882, -7.86568, 28.4172, -157.151, -89.7192, 51.9377
6.41609, 18, -29.8673, -7.91758, 28.4597, -157.124, -89.6868, 51.9029
6.42409, 18, -29.8526, -7.96969, 28.5023, -157.097, -89.6543, 51.8676
6.43211, 18, -29.8379, -8.02203, 28.5451, -157.069, -89.621, 51.8325
6.44009, 18, -29.8232, -8.07452, 28.5881, -157.04, -89.5876, 51.7976
6.44803, 18, -29.8086, -8.12727, 28.6312, -157.013, -89.5544, 51.7625
6.45605, 18, -29.7941, -8.18017, 28.6745, -156.985, -89.5212, 51.7267
6.46304, 18, -29.7797, -8.23306, 28.7178, -156.957, -89.4873, 51.6904
6.47207, 18, -29.7653, -8.28627, 28.7615, -156.929, -89.4528, 51.6542
6.48006, 18, -29.7509, -8.33951, 28.8052, -156.9, -89.4187, 51.6184
6.48819, 18, -29.7366, -8.39291, 28.8491, -156.872, -89.3848, 51.5823
6.49604, 18, -29.7225, -8.44652, 28.8932, -156.843, -89.3505, 51.5459
6.5042, 18, -29.7084, -8.50033, 28.9373, -156.815, -89.3154, 51.5089
6.51443, 18, -29.6944, -8.55444, 28.9817, -156.771, -89.2632, 51.4536
6.52005, 19, -29.6804, -8.60874, 29.026, -156.756, -89.2459, 51.4353
6.52804, 19, -29.6662, -8.66336, 29.0705, -156.727, -89.2109, 51.3987
6.53611, 19, -29.6522, -8.71821, 29.1152, -156.698, -89.1751, 51.3617
6.54403, 19, -29.6384, -8.77331, 29.1599, -156.67, -89.1395, 51.3239
6.55415, 19, -29.6177, -8.85639, 29.2274, -156.625, -89.0866, 51.268
6.55909, 19, -29.611, -8.88417, 29.2499, -156.61, -89.0688, 51.2494
6.56704, 19, -29.5973, -8.93981, 29.2951, -156.58, -89.0326, 51.212
6.57604, 19, -29.5838, -8.99554, 29.3405, -156.551, -88.9965, 51.1739
6.58411, 19, -29.5705, -9.05147, 29.386, -156.521, -88.9606, 51.1352
6.59124, 19, -29.5572, -9.10744, 29.4317, -156.49, -88.9246, 51.0966
6.59907, 19, -29.5439, -9.16356, 29.4776, -156.46, -88.8877, 51.0581
6.60738, 19, -29.5307, -9.21992, 29.5235, -156.43, -88.8508, 51.0194
6.61609, 19, -29.5174, -9.27644, 29.5697, -156.4, -88.8144, 50.98
6.62313, 19, -29.5041, -9.33315, 29.616, -156.369, -88.7779, 50.9402
6.63123, 20, -29.491, -9.39018, 29.6624, -156.338, -88.7405, 50.901
6.63914, 20, -29.478, -9.4475, 29.7089, -156.307, -88.7031, 50.8617
6.64712, 20, -29.465, -9.50507, 29.7555, -156.276, -88.6661, 50.822
6.6551, 20, -29.4522, -9.56281, 29.8022, -156.245, -88.6287, 50.7816
6.66309, 20, -29.4394, -9.62088, 29.8489, -156.214, -88.5904, 50.7412
6.67108, 20, -29.4266, -9.67911, 29.8959, -156.182, -88.5525, 50.7012
6.67979, 20, -29.414, -9.73741, 29.9431, -156.15, -88.5148, 50.6612
6.6881, 20, -29.4015, -9.7959, 29.9904, -156.119, -88.4768, 50.6205
6.69524, 20, -29.389, -9.85443, 30.0379, -156.088, -88.4381, 50.5794
6.70364, 20, -29.3765, -9.91313, 30.0856, -156.055, -88.3996, 50.5386
6.71219, 20, -29.3641, -9.97194, 30.1333, -156.023, -88.3612, 50.4981
6.71944, 20, -29.3516, -10.031, 30.1812, -155.991, -88.3222, 50.4572
6.7288, 20, -29.3393, -10.0901, 30.2292, -155.96, -88.2827, 50.4158
6.73762, 21, -29.327, -10.1496, 30.2774, -155.927, -88.2436, 50.3742
6.74366, 21, -29.3148, -10.2093, 30.3257, -155.894, -88.2048, 50.333
6.75295, 21, -29.3026, -10.2692, 30.374, -155.862, -88.1652, 50.2917
6.76059, 21, -29.2905, -10.3294, 30.4225, -155.829, -88.1255, 50.2501
6.76813, 21, -29.2784, -10.3898, 30.471, -155.797, -88.0861, 50.2079
6.77502, 21, -29.2724, -10.4201, 30.4953, -155.78, -88.0665, 50.187
6.78466, 21, -29.2546, -10.511, 30.5685, -155.73, -88.0059, 50.1247
6.79208, 21, -29.2427, -10.5719, 30.6175, -155.697, -87.9656, 50.0828
6.79907, 21, -29.2368, -10.6024, 30.6421, -155.681, -87.9457, 50.0616
6.80904, 21, -29.2192, -10.6938, 30.716, -155.63, -87.8855, 49.9976
6.81618, 21, -29.2074, -10.755, 30.7655, -155.596, -87.8444, 49.9554
6.82305, 21, -29.2015, -10.7856, 30.7903, -155.58, -87.8241, 49.9343
6.83479, 21, -29.1838, -10.8778, 30.8647, -155.53, -87.7634, 49.87
6.84044, 21, -29.1722, -10.9396, 30.9146, -155.495, -87.7219, 49.8267
6.84705, 22, -29.1665, -10.9705, 30.9396, -155.478, -87.7011, 49.8053
6.85506, 22, -29.1549, -11.0326, 30.9896, -155.444, -87.6601, 49.7626
6.86463, 22, -29.1378, -11.1262, 31.0647, -155.393, -87.5984, 49.6978
6.87368, 22, -29.1264, -11.1887, 31.115, -155.358, -87.5563, 49.6538
6.88062, 22, -29.1152, -11.2515, 31.1653, -155.323, -87.5146, 49.6101
6.88864, 22, -29.1096, -11.3145, 31.2158, -155.288, -87.4731, 49.5669
6.89729, 22, -29.0986, -11.346, 31.2411, -155.271, -87.452, 49.5234
6.90303, 22, -29.0876, -11.409, 31.2919, -155.237, -87.4093, 49.5012
6.91315, 22, -29.0712, -11.504, 31.3682, -155.184, -87.3464, 49.4348
6.91909, 22, -29.0657, -11.5358, 31.3938, -155.166, -87.3254, 49.413
6.92808, 22, -29.0548, -11.5992, 31.445, -155.131, -87.2827, 49.3691
6.936, 22, -29.0439, -11.663, 31.4963, -155.096, -87.2401, 49.3249
6.94402, 22, -29.033, -11.7269, 31.5477, -155.06, -87.1979, 49.2802
6.9522, 22, -29.0222, -11.7911, 31.5992, -155.024, -87.1549, 49.2358
6.95929, 23, -29.0115, -11.8554, 31.6509, -154.989, -87.1114, 49.1916
6.96702, 23, -29.0008, -11.9199, 31.7025, -154.953, -87.0688, 49.147
6.97607, 23, -28.9902, -11.9846, 31.7544, -154.917, -87.026, 49.1019
6.98401, 23, -28.9796, -12.0494, 31.8063, -154.881, -86.9821, 49.0573
6.99207, 23, -28.969, -12.1143, 31.8583, -154.845, -86.9389, 49.013
7.00069, 23, -28.9584, -12.1794, 31.9105, -154.809, -86.8958, 48.9683
7.00702, 23, -28.948, -12.2446, 31.9629, -154.772, -86.8516, 48.9229
7.01602, 23, -28.9377, -12.3099, 32.0153, -154.735, -86.8074, 48.8777
7.0256, 23, -28.9275, -12.3755, 32.0678, -154.699, -86.7639, 48.8105
7.03202, 23, -28.9172, -12.4412, 32.1206, -154.663, -86.7196, 48.7879
7.04101, 23, -28.9072, -12.507, 32.1734, -154.625, -86.6748, 48.7421
7.04702, 23, -28.8971, -12.5731, 32.2264, -154.588, -86.6307, 48.6967
7.06229, 23, -28.8818, -12.6724, 32.3327, -154.514, -86.5409, 48.6061
7.06399, 23, -28.8768, -12.7056, 32.3327, -154.514, -86.5409, 48.6061
7.07283, 24, -28.8668, -12.7721, 32.3859, -154.476, -86.4965, 48.56
7.07909, 24, -28.8569, -12.8387, 32.4393, -154.438, -86.4521, 48.5139
7.08811, 24, -28.8469, -12.9054, 32.4927, -154.401, -86.4067, 48.4684
7.09926, 24, -28.8321, -13.0058, 32.5731, -154.344, -86.3393, 48.3993
7.10308, 24, -28.8272, -13.0393, 32.6, -154.325, -86.3168, 48.3759
7.11201, 24, -28.8174, -13.1066, 32.6539, -154.287, -86.2711, 48.3295
7.12004, 24, -28.8075, -13.174, 32.7078, -154.25, -86.2255, 48.2836
7.12721, 24, -28.7977, -13.2416, 32.7619, -154.211, -86.1805, 48.2375
7.13513, 24, -28.7881, -13.3093, 32.8161, -154.173, -86.1348, 48.1908
7.14314, 24, -28.7785, -13.3772, 32.8704, -154.134, -86.0887, 48.1442
7.15174, 24, -28.7689, -13.4452, 32.9248, -154.096, -86.0434, 48.0982
7.16008, 24, -28.7594, -13.5133, 32.9793, -154.058, -85.9975, 48.052
7.16802, 24, -28.7499, -13.5815, 33.0338, -154.018, -85.9509, 48.0053
7.17619, 25, -28.7405, -13.6498, 33.0885, -153.98, -85.9051, 47.9587
7.18318, 25, -28.731, -13.7183, 33.1432, -153.941, -85.8593, 47.9129
7.19124, 25, -28.7214, -13.7868, 33.198, -153.902, -85.8125, 47.8669
7.20014, 25, -28.7121, -13.8556, 33.253, -153.862, -85.7663, 47.8201
7.20734, 25, -28.7029, -13.9245, 33.3082, -153.824, -85.7201, 47.7735
7.21542, 25, -28.6935, -13.9936, 33.3633, -153.784, -85.673, 47.7274
7.22405, 25, -28.6842, -14.0629, 33.4186, -153.744, -85.6264, 47.6813
7.23157, 25, -28.6751, -14.1322, 33.474, -153.705, -85.5802, 47.6345
7.24016, 25, -28.6659, -14.2018, 33.5294, -153.665, -85.533, 47.5881
7.24835, 25, -28.6568, -14.2715, 33.585, -153.625, -85.4862, 47.542
7.25613, 25, -28.6476, -14.3412, 33.6407, -153.585, -85.4397, 47.4956
7.26362, 25, -28.6386, -14.4109, 33.6965, -153.545, -85.3922, 47.4486
7.27235, 25, -28.6297, -14.4809, 33.7523, -153.505, -85.345, 47.4019
7.28052, 25, -28.6208, -14.5509, 33.8082, -153.464, -85.2983, 47.3556
7.287, 26, -28.6164, -14.5859, 33.8361, -153.444, -85.2747, 47.3324
7.29605, 26, -28.6031, -14.6912, 33.9202, -153.384, -85.2032, 47.2621
7.30306, 26, -28.5987, -14.7265, 33.9484, -153.364, -85.1798, 47.2385
7.3123, 26, -28.5857, -14.8323, 34.0327, -153.302, -85.1084, 47.1689
7.32126, 26, -28.5768, -14.9029, 34.0892, -153.262, -85.0605, 47.1224
7.32705, 26, -28.5724, -14.9383, 34.1174, -153.242, -85.0368, 47.0989
7.33642, 26, -28.5591, -15.0446, 34.2022, -153.18, -84.9652, 47.0286
7.343, 26, -28.5547, -15.08, 34.2306, -153.159, -84.941, 47.0056
7.35248, 26, -28.5416, -15.1865, 34.3158, -153.098, -84.8695, 46.9363
7.35902, 26, -28.5372, -15.222, 34.3442, -153.077, -84.8455, 46.913
7.37031, 26, -28.524, -15.3287, 34.4295, -153.015, -84.7727, 46.8432
7.37683, 26, -28.5155, -15.4, 34.4865, -152.974, -84.7251, 46.7975
7.38457, 26, -28.5069, -15.4714, 34.5435, -152.932, -84.6769, 46.7517
7.39359, 26, -28.5026, -15.5072, 34.6006, -152.89, -84.6284, 46.705
7.39901, 27, -28.494, -15.5789, 34.6292, -152.869, -84.6044, 46.6816
7.40909, 27, -28.4812, -15.6867, 34.715, -152.807, -84.5319, 46.6125
7.41507, 27, -28.477, -15.7227, 34.7437, -152.786, -84.5074, 46.5895
7.42504, 27, -28.4645, -15.8307, 34.8298, -152.722, -84.4351, 46.5197
7.431, 27, -28.4603, -15.8667, 34.8585, -152.701, -84.4109, 46.4964
7.44, 27, -28.4519, -15.9389, 34.9161, -152.659, -84.3617, 46.4503
7.44701, 27, -28.4436, -16.0111, 34.9738, -152.617, -84.3131, 46.4043
7.45605, 27, -28.4354, -16.0834, 35.0315, -152.574, -84.2647, 46.358
7.46406, 27, -28.427, -16.1558, 35.0892, -152.532, -84.2153, 46.3113
7.47101, 27, -28.4186, -16.2283, 35.1469, -152.489, -84.1666, 46.2654
7.48003, 27, -28.4101, -16.301, 35.2047, -152.446, -84.1181, 46.2196
7.48702, 27, -28.4017, -16.3737, 35.2626, -152.403, -84.0686, 46.1735
7.49618, 27, -28.3933, -16.4465, 35.3205, -152.361, -84.0197, 46.1273
7.50663, 28, -28.3807, -16.5559, 35.4077, -152.296, -83.9461, 46.0594
7.511, 28, -28.3766, -16.5925, 35.4368, -152.274, -83.9212, 46.0367
7.52, 28, -28.3682, -16.6656, 35.4949, -152.232, -83.8723, 45.9911
7.528, 28, -28.36, -16.7386, 35.5532, -152.188, -83.8236, 45.9452
7.537, 28, -28.3518, -16.8118, 35.6116, -152.144, -83.7739, 45.9
7.54475, 28, -28.3436, -16.8851, 35.6699, -152.102, -83.725, 45.8551
7.551, 28, -28.3352, -16.9584, 35.7283, -152.058, -83.6759, 45.81
7.56007, 28, -28.327, -17.0318, 35.7868, -152.014, -83.626, 45.7646
7.567, 28, -28.3188, -17.1053, 35.8452, -151.97, -83.5769, 45.72
7.57601, 28, -28.3107, -17.1789, 35.9036, -151.927, -83.5278, 45.6758
7.58401, 28, -28.3025, -17.2525, 35.9622, -151.882, -83.4779, 45.6313
7.59306, 28, -28.2944, -17.3262, 36.0209, -151.838, -83.4288, 45.5865
7.59927, 28, -28.2864, -17.4, 36.0796, -151.794, -83.3794, 45.5422
7.60714, 28, -28.2783, -17.4738, 36.1384, -151.75, -83.3292, 45.4984
7.61535, 29, -28.2702, -17.5477, 36.1973, -151.705, -83.2799, 45.4545
7.62317, 29, -28.262, -17.6217, 36.2562, -151.662, -83.2302, 45.4103
7.63117, 29, -28.2537, -17.6957, 36.3151, -151.617, -83.18, 45.3664
7.63962, 29, -28.2455, -17.7698, 36.374, -151.572, -83.1305, 45.3232
7.64803, 29, -28.2374, -17.8439, 36.433, -151.528, -83.0804, 45.2801
7.656, 29, -28.2292, -17.918, 36.4919, -151.483, -83.0302, 45.2365
7.66407, 29, -28.221, -17.9923, 36.5509, -151.438, -82.9808, 45.193
7.672, 29, -28.2129, -18.0665, 36.6101, -151.393, -82.9307, 45.1503
7.68001, 29, -28.2048, -18.1409, 36.6692, -151.349, -82.8806, 45.1078
7.68807, 29, -28.1968, -18.2152, 36.7285, -151.303, -82.8312, 45.0652
7.696, 29, -28.1887, -18.2897, 36.7878, -151.258, -82.7809, 45.0223
7.704, 29, -28.1806, -18.3642, 36.8471, -151.214, -82.7308, 44.9802
7.71206, 29, -28.1724, -18.4388, 36.9065, -151.168, -82.6814, 44.9386
7.72021, 29, -28.1644, -18.5134, 36.9659, -151.122, -82.6311, 44.897
7.72745, 30, -28.1564, -18.5879, 37.0252, -151.077, -82.5811, 44.855
7.73608, 30, -28.1484, -18.6627, 37.0846, -151.031, -82.5314, 44.8133
7.74398, 30, -28.1404, -18.7374, 37.1439, -150.986, -82.4809, 44.7723
7.75216, 30, -28.1323, -18.812, 37.2033, -150.94, -82.4308, 44.7316
7.75956, 30, -28.1243, -18.8869, 37.2627, -150.894, -82.3811, 44.6907
7.7681, 30, -28.1163, -18.9617, 37.3222, -150.848, -82.3305, 44.6495
7.77571, 30, -28.1122, -18.9991, 37.3817, -150.803, -82.2804, 44.6092
7.78412, 30, -28.0999, -19.1115, 37.4413, -150.757, -82.2305, 44.5693
7.791, 30, -28.0958, -19.1491, 37.4711, -150.734, -82.2051, 44.5495
7.8001, 30, -28.0835, -19.2616, 37.5605, -150.665, -82.1297, 44.4896
7.80699, 30, -28.0795, -19.299, 37.5903, -150.642, -82.1048, 44.4696
7.81517, 30, -28.0712, -19.374, 37.6499, -150.596, -82.0546, 44.4302
7.82323, 30, -28.063, -19.449, 37.7095, -150.549, -82.0043, 44.3913
7.8331, 31, -28.0506, -19.5613, 37.7989, -150.48, -81.9296, 44.3332
7.83906, 31, -28.0465, -19.5988, 37.8286, -150.457, -81.9042, 44.3137
7.84844, 31, -28.0342, -19.7111, 37.918, -150.387, -81.8291, 44.2558
7.85505, 31, -28.03, -19.7486, 37.9479, -150.364, -81.8043, 44.2369
7.86521, 31, -28.0175, -19.8612, 38.0373, -150.294, -81.7287, 44.1807
7.87105, 31, -28.0133, -19.8987, 38.0672, -150.27, -81.7037, 44.162
7.88122, 31, -28.001, -20.0114, 38.1568, -150.201, -81.6288, 44.1055
7.88701, 31, -27.9969, -20.0489, 38.1867, -150.177, -81.6035, 44.0867
7.89714, 31, -27.9844, -20.1616, 38.2762, -150.106, -81.5284, 44.0314
7.90299, 31, -27.9803, -20.1991, 38.3061, -150.083, -81.5034, 44.0133
7.9131, 31, -27.9678, -20.3117, 38.3955, -150.012, -81.4276, 43.9588
7.91903, 31, -27.9637, -20.3492, 38.4254, -149.989, -81.4027, 43.9406
7.92808, 31, -27.9553, -20.4243, 38.485, -149.942, -81.3528, 43.9043
7.93598, 31, -27.9468, -20.4994, 38.5446, -149.895, -81.3022, 43.8689
7.94417, 32, -27.9382, -20.5745, 38.6043, -149.847, -81.2522, 43.8339
7.951, 32, -27.9297, -20.6496, 38.6639, -149.801, -81.2026, 43.7992
7.96013, 32, -27.9212, -20.7248, 38.7235, -149.754, -81.1522, 43.7646
7.96798, 32, -27.9125, -20.8, 38.7832, -149.706, -81.1025, 43.7299
7.976, 32, -27.9039, -20.8751, 38.8428, -149.659, -81.0526, 43.6956
7.98406, 32, -27.8952, -20.9503, 38.9024, -149.612, -81.0021, 43.6624
7.99108, 32, -27.8866, -21.0254, 38.9621, -149.563, -80.9524, 43.6296
8.0001, 32, -27.878, -21.1005, 39.0217, -149.517, -80.9026, 43.597
8.00799, 32, -27.8692, -21.1755, 39.0812, -149.469, -80.8523, 43.5642
8.016, 32, -27.8604, -21.2505, 39.1408, -149.421, -80.8028, 43.5318
8.02404, 32, -27.8517, -21.3255, 39.2003, -149.374, -80.7528, 43.5001
8.03199, 32, -27.843, -21.4005, 39.2598, -149.326, -80.7025, 43.4692
8.04183, 32, -27.8342, -21.4756, 39.3192, -149.254, -80.6283, 43.4234
8.047, 32, -27.8253, -21.5505, 39.3787, -149.23, -80.6033, 43.4082
8.056, 33, -27.8165, -21.6256, 39.4382, -149.183, -80.5531, 43.3777
8.06398, 33, -27.8076, -21.7006, 39.4976, -149.134, -80.5038, 43.3474
8.07204, 33, -27.7986, -21.7755, 39.557, -149.087, -80.4539, 43.3179
8.08004, 33, -27.7894, -21.8504, 39.6164, -149.039, -80.4039, 43.2893
8.08799, 33, -27.7801, -21.9253, 39.6757, -148.99, -80.3549, 43.2611
8.09607, 33, -27.771, -22.0001, 39.7351, -148.943, -80.3051, 43.233
8.10398, 33, -27.7618, -22.0748, 39.7943, -148.895, -80.2553, 43.2051
8.11201, 33, -27.7525, -22.1496, 39.8535, -148.846, -80.2064, 43.1771
8.11908, 33, -27.7432, -22.2244, 39.9126, -148.799, -80.1565, 43.1497
8.12735, 33, -27.734, -22.2991, 39.9717, -148.751, -80.1068, 43.1232
8.13519, 33, -27.7247, -22.3738, 40.0308, -148.702, -80.0581, 43.0972
8.14309, 33, -27.7153, -22.4485, 40.0899, -148.654, -80.0084, 43.0718
8.15113, 33, -27.7059, -22.5231, 40.149, -148.606, -79.959, 43.0467
8.16023, 33, -27.6965, -22.5977, 40.208, -148.557, -79.9101, 43.0217
8.16816, 34, -27.687, -22.6721, 40.2671, -148.509, -79.8603, 42.9967
8.176, 34, -27.6775, -22.7465, 40.326, -148.461, -79.8107, 42.9721
8.18401, 34, -27.6679, -22.8209, 40.3849, -148.411, -79.7619, 42.9482
8.19203, 34, -27.6584, -22.8952, 40.4437, -148.364, -79.712, 42.9253
8.20003, 34, -27.6488, -22.9695, 40.5023, -148.315, -79.6627, 42.9029
8.2098, 34, -27.6389, -23.0437, 40.561, -148.266, -79.6137, 42.881
8.21542, 34, -27.629, -23.1179, 40.6197, -148.218, -79.5638, 42.8596
8.22336, 34, -27.619, -23.1921, 40.6782, -148.169, -79.5146, 42.8385
8.23142, 34, -27.609, -23.2662, 40.7368, -148.12, -79.4659, 42.8175
8.23959, 34, -27.5989, -23.3403, 40.7954, -148.073, -79.4161, 42.7968
8.24836, 34, -27.5887, -23.4142, 40.8538, -148.024, -79.3671, 42.7768
8.25555, 34, -27.5786, -23.4882, 40.9122, -147.975, -79.3183, 42.7574
8.26495, 34, -27.5685, -23.562, 40.9706, -147.927, -79.2686, 42.7391
8.27259, 35, -27.5582, -23.6358, 41.0288, -147.878, -79.2197, 42.7214
8.28013, 35, -27.5478, -23.7095, 41.087, -147.829, -79.1712, 42.7043
8.28798, 35, -27.5376, -23.7831, 41.145, -147.781, -79.1217, 42.6878
8.29698, 35, -27.5273, -23.8566, 41.203, -147.732, -79.073, 42.6717
8.30402, 35, -27.5169, -23.93, 41.2609, -147.683, -79.0244, 42.656
8.31093, 35, -27.5116, -23.9667, 41.2899, -147.659, -78.9997, 42.6483
8.32083, 35, -27.4958, -24.0766, 41.3766, -147.585, -78.9263, 42.6255
8.32824, 35, -27.4852, -24.1496, 41.4344, -147.536, -78.8779, 42.611
8.33502, 35, -27.4798, -24.1862, 41.4633, -147.512, -78.8533, 42.6039
8.34514, 35, -27.4634, -24.2958, 41.5498, -147.439, -78.7801, 42.5839
8.35102, 35, -27.458, -24.3323, 41.5786, -147.414, -78.756, 42.5775
8.36093, 35, -27.4415, -24.4417, 41.6648, -147.342, -78.6827, 42.5595
8.36845, 35, -27.4359, -24.5144, 41.722, -147.293, -78.6343, 42.5483
8.37654, 35, -27.419, -24.5872, 41.7793, -147.244, -78.5862, 42.5378
8.38514, 36, -27.4076, -24.6599, 41.8363, -147.196, -78.5375, 42.5279
8.39103, 36, -27.4018, -24.6961, 41.8648, -147.171, -78.5133, 42.5232
8.40073, 36, -27.3847, -24.8047, 41.9503, -147.098, -78.4415, 42.5101
8.40916, 36, -27.3732, -24.8771, 42.0071, -147.049, -78.3929, 42.502
8.41503, 36, -27.3675, -24.9132, 42.0355, -147.025, -78.3688, 42.4982
8.42503, 36, -27.3501, -25.0215, 42.1207, -146.951, -78.2974, 42.4874
8.43097, 36, -27.3443, -25.0575, 42.1491, -146.927, -78.2732, 42.4841
8.44001, 36, -27.3325, -25.1296, 42.2056, -146.879, -78.2251, 42.4779
8.44802, 36, -27.3205, -25.2015, 42.2621, -146.829, -78.1776, 42.4724
8.45597, 36, -27.3084, -25.2733, 42.3185, -146.781, -78.1296, 42.4673
8.46401, 36, -27.2963, -25.3449, 42.3746, -146.732, -78.0814, 42.4629
8.47097, 36, -27.2841, -25.4166, 42.4308, -146.683, -78.034, 42.4592
8.48001, 36, -27.2718, -25.488, 42.4868, -146.635, -77.9864, 42.4561
8.49363, 37, -27.247, -25.6305, 42.5985, -146.537, -77.8913, 42.4518
8.49598, 37, -27.247, -25.6305, 42.5985, -146.537, -77.8913, 42.4518
8.50397, 37, -27.2344, -25.7016, 42.6542, -146.489, -77.8438, 42.4506
8.51096, 37, -27.2218, -25.7726, 42.7098, -146.44, -77.7959, 42.4499
8.52001, 37, -27.2092, -25.8435, 42.7654, -146.391, -77.7489, 42.4496
8.52796, 37, -27.1965, -25.9143, 42.8208, -146.343, -77.7017, 42.4495
8.53597, 37, -27.1837, -25.985, 42.8761, -146.294, -77.6541, 42.4495
8.54496, 37, -27.1707, -26.0555, 42.9313, -146.245, -77.6072, 42.4497
8.55198, 37, -27.1575, -26.1259, 42.9864, -146.198, -77.5601, 42.45
8.5601, 37, -27.1442, -26.1961, 43.0413, -146.149, -77.5125, 42.4508
8.56698, 37, -27.1309, -26.2661, 43.0961, -146.1, -77.4656, 42.4523
8.57597, 37, -27.1174, -26.3361, 43.1507, -146.052, -77.4189, 42.4556
8.58411, 37, -27.1039, -26.4058, 43.2052, -146.004, -77.3715, 42.4603
8.59203, 37, -27.0903, -26.4756, 43.2597, -145.955, -77.3249, 42.466
8.59997, 38, -27.0765, -26.5452, 43.314, -145.907, -77.2783, 42.4729
8.60798, 38, -27.0628, -26.6147, 43.3681, -145.859, -77.2309, 42.4806
8.61603, 38, -27.049, -26.6842, 43.4223, -145.81, -77.1843, 42.4894
8.62396, 38, -27.035, -26.7534, 43.4762, -145.763, -77.138, 42.4989
8.63201, 38, -27.0208, -26.8224, 43.5299, -145.715, -77.091, 42.5093
8.64006, 38, -27.0065, -26.8913, 43.5836, -145.666, -77.0443, 42.5206
8.64797, 38, -26.992, -26.96, 43.6371, -145.619, -76.9982, 42.5326
8.65606, 38, -26.9775, -27.0284, 43.6905, -145.571, -76.9514, 42.5455
8.66405, 38, -26.9628, -27.0967, 43.7437, -145.522, -76.9047, 42.5594
8.67196, 38, -26.9481, -27.1648, 43.7968, -145.475, -76.859, 42.5743
8.68001, 38, -26.9332, -27.2329, 43.8496, -145.427, -76.8127, 42.5901
8.68796, 38, -26.9181, -27.3008, 43.9024, -145.379, -76.7662, 42.6067
8.69596, 38, -26.903, -27.3686, 43.955, -145.333, -76.7205, 42.6245
8.70432, 38, -26.8878, -27.4363, 44.0074, -145.285, -76.6744, 42.6433
8.71288, 39, -26.8725, -27.5038, 44.0597, -145.237, -76.6278, 42.6627
8.72098, 39, -26.8569, -27.5713, 44.1119, -145.19, -76.5823, 42.6828
8.72889, 39, -26.8412, -27.6384, 44.1638, -145.143, -76.5366, 42.7035
8.73628, 39, -26.8253, -27.7054, 44.2157, -145.095, -76.4902, 42.7251
8.74372, 39, -26.8093, -27.7721, 44.2674, -145.048, -76.4447, 42.7473
8.75453, 39, -26.7933, -27.8386, 44.319, -145.001, -76.3991, 42.7706
8.76037, 39, -26.7771, -27.9051, 44.3703, -144.953, -76.3526, 42.795
8.76751, 39, -26.7607, -27.9713, 44.4215, -144.907, -76.307, 42.8205
8.77607, 39, -26.7444, -28.0374, 44.4725, -144.86, -76.2617, 42.8467
8.78471, 39, -26.7279, -28.1034, 44.5232, -144.813, -76.2155, 42.8731
8.79196, 39, -26.7113, -28.1694, 44.5739, -144.767, -76.1697, 42.9003
8.79901, 39, -26.7029, -28.2022, 44.5991, -144.744, -76.1472, 42.9144
8.80859, 39, -26.6772, -28.3005, 44.6747, -144.673, -76.0784, 42.9579
8.81892, 40, -26.66, -28.3658, 44.7248, -144.627, -76.0327, 42.9884
8.82296, 40, -26.6514, -28.3983, 44.7499, -144.604, -76.0103, 43.0041
8.83227, 40, -26.6252, -28.4954, 44.8246, -144.534, -75.9424, 43.052
8.83897, 40, -26.6164, -28.5277, 44.8495, -144.511, -75.9195, 43.0682
8.84841, 40, -26.5897, -28.6241, 44.9238, -144.443, -75.8521, 43.118
8.85496, 40, -26.5808, -28.6562, 44.9484, -144.42, -75.8297, 43.1351
8.86445, 40, -26.5539, -28.7521, 45.0221, -144.351, -75.7612, 43.1885
8.87261, 40, -26.5356, -28.8159, 45.071, -144.306, -75.7165, 43.225
8.88058, 40, -26.5171, -28.8794, 45.1196, -144.26, -75.6718, 43.262
8.88852, 40, -26.4984, -28.9428, 45.1678, -144.215, -75.6264, 43.3
8.89659, 40, -26.4797, -29.0061, 45.2161, -144.17, -75.5816, 43.3394
8.90562, 40, -26.4702, -29.0377, 45.2401, -144.147, -75.5372, 43.38
8.91195, 40, -26.4511, -29.1005, 45.288, -144.101, -75.5146, 43.4004
8.92058, 40, -26.4319, -29.1631, 45.3358, -144.057, -75.4693, 43.4417
8.92973, 41, -26.4125, -29.2254, 45.3832, -144.012, -75.4249, 43.4837
8.93685, 41, -26.3931, -29.2875, 45.4306, -143.967, -75.3805, 43.5494
8.94398, 41, -26.3733, -29.3493, 45.4776, -143.923, -75.3355, 43.5717
8.95193, 41, -26.3533, -29.411, 45.5245, -143.879, -75.2911, 43.6167
8.96005, 41, -26.3332, -29.4725, 45.5712, -143.834, -75.2471, 43.6624
8.96799, 41, -26.313, -29.5338, 45.6177, -143.79, -75.2023, 43.7095
8.97767, 41, -26.2925, -29.5949, 45.6639, -143.747, -75.1579, 43.7579
8.98396, 41, -26.2719, -29.6558, 45.7097, -143.703, -75.1142, 43.8066
8.99199, 41, -26.2512, -29.7165, 45.7555, -143.659, -75.0701, 43.8563
9.00233, 41, -26.2197, -29.807, 45.8235, -143.595, -75.0039, 43.9338
9.00694, 41, -26.209, -29.8371, 45.846, -143.573, -74.9822, 43.9599
9.01595, 41, -26.1876, -29.8968, 45.8911, -143.53, -74.9384, 44.0126
9.02294, 41, -26.1661, -29.9564, 45.9359, -143.487, -74.8939, 44.0669
9.03276, 41, -26.1445, -30.0157, 45.9805, -143.445, -74.8503, 44.1226
9.03996, 42, -26.1225, -30.0746, 46.0248, -143.402, -74.807, 44.1785
9.04896, 42, -26.1004, -30.1334, 46.0689, -143.36, -74.7629, 44.2354
9.05596, 42, -26.078, -30.192, 46.1128, -143.318, -74.7192, 44.2941
9.06494, 42, -26.0554, -30.2503, 46.1562, -143.276, -74.676, 44.3533
9.07521, 42, -26.0212, -30.3374, 46.2212, -143.213, -74.61, 44.4442
9.07894, 42, -26.0097, -30.3663, 46.2426, -143.193, -74.5881, 44.4754
9.08795, 42, -25.9866, -30.424, 46.2854, -143.152, -74.545, 44.5378
9.09602, 42, -25.9632, -30.4812, 46.328, -143.111, -74.5017, 44.601
9.10395, 42, -25.9397, -30.5383, 46.3701, -143.07, -74.4577, 44.666
9.11195, 42, -25.9158, -30.5948, 46.4121, -143.03, -74.4145, 44.7313
9.12005, 42, -25.8916, -30.6512, 46.4538, -142.989, -74.3716, 44.798
9.1281, 42, -25.8672, -30.7071, 46.4952, -142.949, -74.3279, 44.8663
9.13504, 42, -25.8427, -30.7628, 46.5364, -142.91, -74.2846, 44.9349
9.14305, 42, -25.8179, -30.8183, 46.5772, -142.871, -74.2421, 45.0052
9.15194, 43, -25.7931, -30.8734, 46.6178, -142.831, -74.199, 45.0768
9.16008, 43, -25.7681, -30.9284, 46.6581, -142.792, -74.1557, 45.1488
9.16695, 43, -25.7427, -30.9831, 46.698, -142.754, -74.1132, 45.2228
9.17597, 43, -25.717, -31.0375, 46.7376, -142.715, -74.0705, 45.2972
9.18304, 43, -25.6911, -31.0917, 46.7771, -142.677, -74.0272, 45.3727
9.19103, 43, -25.665, -31.1455, 46.8161, -142.639, -73.9845, 45.4496
9.19946, 43, -25.6386, -31.1988, 46.8548, -142.602, -73.9425, 45.5268
9.20716, 43, -25.6121, -31.2518, 46.8934, -142.564, -73.8997, 45.6061
9.21522, 43, -25.5853, -31.3044, 46.9316, -142.527, -73.8568, 45.6854
9.22347, 43, -25.5582, -31.3566, 46.9696, -142.49, -73.8148, 45.7664
9.23204, 43, -25.531, -31.4084, 47.0071, -142.454, -73.7724, 45.8483
9.24005, 43, -25.5036, -31.4599, 47.0443, -142.418, -73.7295, 45.9311
9.24867, 43, -25.4757, -31.5112, 47.0813, -142.381, -73.6873, 46.0154
9.2563, 44, -25.4474, -31.5621, 47.1178, -142.346, -73.6456, 46.1002
9.26359, 44, -25.4188, -31.6127, 47.1539, -142.311, -73.6032, 46.1871
9.27286, 44, -25.39, -31.6631, 47.1897, -142.277, -73.5608, 46.2744
9.28009, 44, -25.3611, -31.7132, 47.2253, -142.242, -73.5193, 46.3638
9.28764, 44, -25.3466, -31.7381, 47.2429, -142.225, -73.4774, 46.4532
9.29868, 44, -25.3027, -31.8121, 47.2953, -142.174, -73.435, 46.5447
9.30294, 44, -25.2879, -31.8366, 47.3126, -142.158, -73.4141, 46.5906
9.31203, 44, -25.2429, -31.9095, 47.3638, -142.108, -73.3522, 46.7304
9.31898, 44, -25.2278, -31.9335, 47.3808, -142.091, -73.3313, 46.7773
9.32822, 44, -25.1821, -32.005, 47.4312, -142.043, -73.2687, 46.9202
9.33494, 44, -25.1667, -32.0286, 47.4478, -142.027, -73.2482, 46.9683
9.34499, 44, -25.12, -32.0987, 47.4969, -141.98, -73.1865, 47.115
9.35108, 44, -25.1043, -32.122, 47.5131, -141.964, -73.1656, 47.1643
9.35892, 44, -25.0728, -32.1682, 47.5453, -141.933, -73.1241, 47.2643
9.36923, 45, -25.025, -32.2368, 47.5927, -141.888, -73.0632, 47.4163
9.37493, 45, -25.0089, -32.2595, 47.6083, -141.873, -73.0428, 47.4678
9.3845, 45, -24.96, -32.327, 47.6547, -141.829, -72.981, 47.6232
9.39338, 45, -24.927, -32.3716, 47.6848, -141.799, -72.9407, 47.7284
9.40058, 45, -24.8938, -32.4157, 47.7147, -141.771, -72.9003, 47.835
9.40853, 45, -24.8771, -32.4376, 47.7296, -141.757, -72.8797, 47.9422
9.41594, 45, -24.8434, -32.481, 47.7589, -141.729, -72.8388, 47.9964
9.42301, 45, -24.8095, -32.524, 47.7877, -141.702, -72.7988, 48.1056
9.43306, 45, -24.7579, -32.5876, 47.8303, -141.661, -72.7385, 48.2716
9.439, 45, -24.7406, -32.6086, 47.8443, -141.648, -72.7182, 48.3276
9.44798, 45, -24.7057, -32.6501, 47.872, -141.621, -72.678, 48.4407
9.45594, 45, -24.6706, -32.691, 47.8992, -141.596, -72.6385, 48.555
9.46399, 45, -24.6349, -32.7316, 47.926, -141.571, -72.5984, 48.6702
9.47214, 45, -24.599, -32.7718, 47.9523, -141.546, -72.5581, 48.7865
9.47918, 46, -24.5628, -32.8114, 47.9784, -141.522, -72.5188, 48.9042
9.48693, 46, -24.5262, -32.8506, 48.0037, -141.498, -72.4797, 49.0229
9.49597, 46, -24.4893, -32.8893, 48.0287, -141.475, -72.4399, 49.1429
9.50395, 46, -24.4521, -32.9275, 48.0531, -141.453, -72.4003, 49.264
9.51199, 46, -24.4146, -32.9653, 48.0772, -141.431, -72.3615, 49.3863
9.52056, 46, -24.3768, -33.0025, 48.1008, -141.41, -72.3226, 49.5102
9.52693, 46, -24.3386, -33.0392, 48.1239, -141.388, -72.2831, 49.6352
9.53594, 46, -24.3, -33.0753, 48.1466, -141.368, -72.2441, 49.7613
9.54487, 46, -24.2612, -33.111, 48.1687, -141.348, -72.206, 49.8887
9.55193, 46, -24.2221, -33.1461, 48.1904, -141.329, -72.1675, 50.0172
9.55998, 46, -24.1825, -33.1807, 48.2116, -141.31, -72.1287, 50.1466
9.56898, 46, -24.1425, -33.2147, 48.2322, -141.292, -72.0906, 50.2772
9.57508, 46, -24.1023, -33.2483, 48.2525, -141.275, -72.0529, 50.4089
9.58392, 46, -24.0618, -33.2812, 48.2722, -141.257, -72.0148, 50.5418
9.59093, 47, -24.0207, -33.3135, 48.2914, -141.241, -71.9765, 50.6761
9.59998, 47, -23.9792, -33.3452, 48.3101, -141.224, -71.9391, 50.8116
9.60802, 47, -23.9374, -33.3766, 48.3281, -141.209, -71.9022, 50.9481
9.61915, 47, -23.8741, -33.4221, 48.3543, -141.188, -71.8459, 51.1554
9.62301, 47, -23.8527, -33.437, 48.3629, -141.181, -71.8272, 51.2248
9.63194, 47, -23.8098, -33.4663, 48.3793, -141.168, -71.7906, 51.3647
9.64008, 47, -23.7667, -33.4952, 48.3952, -141.156, -71.7542, 51.5061
9.64793, 47, -23.7232, -33.5233, 48.4108, -141.145, -71.7173, 51.6487
9.65592, 47, -23.6793, -33.5509, 48.4258, -141.133, -71.6805, 51.7925
9.66403, 47, -23.635, -33.5777, 48.44, -141.123, -71.6445, 51.9374
9.67196, 47, -23.5903, -33.6041, 48.4538, -141.113, -71.6091, 52.0835
9.67997, 47, -23.5452, -33.6299, 48.467, -141.103, -71.5733, 52.2307
9.68799, 47, -23.4996, -33.6548, 48.4796, -141.094, -71.5375, 52.3788
9.6962, 48, -23.4538, -33.6792, 48.4914, -141.086, -71.5026, 52.5281
9.70408, 48, -23.4076, -33.7029, 48.5027, -141.078, -71.4679, 52.6787
9.712, 48, -23.3608, -33.7258, 48.5135, -141.071, -71.4331, 52.8305
9.72019, 48, -23.3139, -33.7483, 48.5238, -141.065, -71.398, 52.9837
9.72761, 48, -23.2666, -33.7698, 48.5336, -141.06, -71.3638, 53.1378
9.73596, 48, -23.2188, -33.7907, 48.5427, -141.056, -71.3302, 53.2931
9.74406, 48, -23.1706, -33.811, 48.551, -141.052, -71.2966, 53.4495
9.75156, 48, -23.1221, -33.8304, 48.5588, -141.049, -71.2627, 53.6069
9.76012, 48, -23.0731, -33.8493, 48.5661, -141.047, -71.2294, 53.7657
9.7683, 48, -23.0238, -33.8675, 48.5727, -141.046, -71.1967, 53.9258
9.77574, 48, -22.9741, -33.8848, 48.5787, -141.045, -71.1641, 54.0873
9.78454, 48, -22.9239, -33.9014, 48.5841, -141.045, -71.1312, 54.2496
9.79227, 48, -22.8733, -33.9174, 48.5889, -141.045, -71.0986, 54.413
9.80272, 48, -22.8225, -33.9326, 48.593, -141.045, -71.0668, 54.5775
9.80688, 49, -22.7969, -33.9398, 48.5947, -141.045, -71.0511, 54.6601
9.81493, 49, -22.7453, -33.9536, 48.5977, -141.047, -71.02, 54.826
9.8242, 49, -22.6673, -33.9729, 48.601, -141.051, -70.973, 55.0772
9.83091, 49, -22.6411, -33.979, 48.6017, -141.053, -70.9574, 55.1615
9.84114, 49, -22.5619, -33.9964, 48.6029, -141.061, -70.912, 55.4158
9.84696, 49, -22.5353, -34.0016, 48.6031, -141.063, -70.8971, 55.5013
9.85697, 49, -22.4549, -34.0159, 48.6032, -141.073, -70.8525, 55.7587
9.86438, 49, -22.4007, -34.0246, 48.6027, -141.081, -70.8226, 55.9317
9.87097, 49, -22.3735, -34.0286, 48.6022, -141.085, -70.8079, 56.0187
9.8813, 49, -22.2914, -34.0396, 48.5999, -141.1, -70.7653, 56.2815
9.88698, 49, -22.2638, -34.0429, 48.5987, -141.105, -70.7513, 56.3695
9.89663, 49, -22.1805, -34.0516, 48.5942, -141.123, -70.7097, 56.6354
9.90449, 49, -22.1525, -34.0541, 48.5901, -141.136, -70.682, 56.8137
9.91247, 49, -22.0961, -34.0581, 48.5877, -141.142, -70.6683, 56.9032
9.92105, 50, -22.0395, -34.0613, 48.5795, -141.163, -70.6285, 57.1735
9.92689, 50, -21.9824, -34.0635, 48.5764, -141.17, -70.6155, 57.2642
9.93591, 50, -21.9249, -34.0649, 48.5696, -141.185, -70.59, 57.4465
9.94293, 50, -21.8671, -34.0655, 48.5619, -141.201, -70.5646, 57.6296
9.95191, 50, -21.8088, -34.0657, 48.5534, -141.217, -70.539, 57.8137
9.95996, 50, -21.75, -34.0653, 48.5442, -141.236, -70.514, 57.9988
9.96789, 50, -21.6908, -34.064, 48.5344, -141.255, -70.4898, 58.185
9.97596, 50, -21.6312, -34.0618, 48.5236, -141.275, -70.4664, 58.3725
9.98398, 50, -21.5713, -34.0588, 48.5122, -141.295, -70.4436, 58.5609
9.99192, 50, -21.511, -34.0548, 48.4997, -141.316, -70.421, 58.7502
9.99991, 50, -21.4503, -34.0497, 48.4865, -141.338, -70.3985, 58.9404
10.0069, 50, -21.3893, -34.0435, 48.4725, -141.361, -70.3764, 59.1315
10.0161, 50, -21.3279, -34.0362, 48.4575, -141.385, -70.3551, 59.3233
10.0239, 51, -21.2662, -34.0279, 48.4419, -141.411, -70.3345, 59.5163
10.0335, 51, -21.204, -34.0185, 48.4256, -141.45, -70.3048, 59.8076
10.0399, 51, -21.1413, -34.0081, 48.4084, -141.463, -70.2951, 59.9052
10.0489, 51, -21.0782, -33.9968, 48.3902, -141.49, -70.2761, 60.1009
10.0549, 51, -21.0147, -33.9841, 48.3713, -141.519, -70.2573, 60.2977
10.0639, 51, -20.9508, -33.9701, 48.3515, -141.549, -70.2387, 60.4953
10.0719, 51, -20.8866, -33.955, 48.331, -141.579, -70.2209, 60.6941
10.08, 51, -20.8221, -33.9391, 48.3098, -141.61, -70.204, 60.8937
10.0879, 51, -20.7571, -33.9224, 48.2876, -141.641, -70.188, 61.0942
10.0959, 51, -20.6917, -33.9044, 48.2646, -141.675, -70.1726, 61.2954
10.104, 51, -20.6261, -33.8853, 48.2408, -141.709, -70.158, 61.4974
10.1121, 51, -20.56, -33.8652, 48.2161, -141.743, -70.1439, 61.7005
10.1207, 51, -20.4936, -33.8439, 48.1906, -141.778, -70.1303, 61.9046
10.1271, 51, -20.4268, -33.8214, 48.1641, -141.815, -70.1173, 62.1091
10.1361, 52, -20.3598, -33.7978, 48.1369, -141.852, -70.1046, 62.3147
10.144, 52, -20.2923, -33.7729, 48.1089, -141.89, -70.0925, 62.5208
10.1519, 52, -20.2244, -33.7472, 48.08, -141.929, -70.0811, 62.7282
10.1633, 52, -20.122, -33.7059, 48.035, -141.99, -70.0657, 63.0409
10.1669, 52, -20.0876, -33.6916, 48.0196, -142.011, -70.061, 63.1455
10.1759, 52, -20.0187, -33.6622, 47.9881, -142.052, -70.0521, 63.3552
10.184, 52, -19.9493, -33.6316, 47.9558, -142.094, -70.0441, 63.5653
10.1919, 52, -19.8797, -33.5998, 47.9226, -142.138, -70.0369, 63.7762
10.1999, 52, -19.8097, -33.5669, 47.8886, -142.182, -70.0304, 63.9881
10.208, 52, -19.7394, -33.5328, 47.8536, -142.227, -70.0247, 64.2006
10.2159, 52, -19.669, -33.4976, 47.8177, -142.273, -70.0198, 64.4139
10.2239, 52, -19.5982, -33.4612, 47.7811, -142.32, -70.0157, 64.6277
10.232, 52, -19.5271, -33.4235, 47.7436, -142.367, -70.0123, 64.8423
10.2401, 52, -19.4558, -33.3847, 47.7051, -142.416, -70.0097, 65.0577
10.2481, 53, -19.384, -33.3446, 47.6658, -142.465, -70.0079, 65.2737
10.2555, 53, -19.3117, -33.3032, 47.6257, -142.516, -70.0069, 65.4905
10.264, 53, -19.2392, -33.2606, 47.5846, -142.567, -70.0063, 65.7078
10.2721, 53, -19.1664, -33.2168, 47.5427, -142.619, -70.0063, 65.9256
10.2795, 53, -19.1298, -33.1944, 47.4998, -142.671, -70.0068, 66.1443
10.288, 53, -19.0199, -33.1255, 47.456, -142.725, -70.0081, 66.3636
10.2959, 53, -18.9463, -33.0781, 47.4115, -142.779, -70.0102, 66.5833
10.304, 53, -18.8724, -33.0295, 47.3658, -142.835, -70.0133, 66.8037
10.3109, 53, -18.8354, -33.0047, 47.3427, -142.863, -70.0152, 66.9141
10.32, 53, -18.7239, -32.9284, 47.2721, -142.947, -70.0224, 67.2467
10.3269, 53, -18.6865, -32.9023, 47.248, -142.976, -70.0253, 67.3578
10.3351, 53, -18.6116, -32.8492, 47.1993, -143.034, -70.0319, 67.5804
10.3443, 53, -18.5364, -32.7671, 47.1245, -143.122, -70.0439, 67.9151
10.3509, 53, -18.4609, -32.7391, 47.0992, -143.152, -70.0484, 68.0268
10.3603, 54, -18.3472, -32.6531, 47.0217, -143.242, -70.0636, 68.3628
10.3669, 54, -18.3092, -32.6237, 46.9954, -143.273, -70.0692, 68.4751
10.3774, 54, -18.1948, -32.5339, 46.9154, -143.365, -70.0881, 68.8128
10.3851, 54, -18.1183, -32.4725, 46.8609, -143.429, -70.1024, 69.0383
10.391, 54, -18.08, -32.4413, 46.8333, -143.46, -70.1099, 69.1512
10.4012, 54, -17.9646, -32.3457, 46.7492, -143.556, -70.134, 69.4911
10.4069, 54, -17.926, -32.3133, 46.7206, -143.589, -70.1424, 69.6046
10.4165, 54, -17.8486, -32.2473, 46.6629, -143.654, -70.1597, 69.8319
10.4253, 54, -17.7711, -32.1799, 46.6044, -143.72, -70.178, 70.0597
10.4309, 54, -17.6933, -32.1112, 46.5448, -143.786, -70.1972, 70.2876
10.4399, 54, -17.6154, -32.0412, 46.4844, -143.854, -70.2178, 70.5161
10.4469, 54, -17.5374, -31.9697, 46.4232, -143.921, -70.2397, 70.745
10.4559, 54, -17.459, -31.8968, 46.3611, -143.99, -70.263, 70.9742
10.4661, 55, -17.3413, -31.7851, 46.2664, -144.094, -70.2994, 71.3185
10.4719, 55, -17.302, -31.7472, 46.2344, -144.129, -70.312, 71.4334
10.4799, 55, -17.2232, -31.6706, 46.1697, -144.199, -70.338, 71.664
10.4901, 55, -17.1046, -31.5531, 46.0709, -144.306, -70.3794, 72.0101
10.4949, 55, -17.0649, -31.5133, 46.0375, -144.342, -70.394, 72.1256
10.5039, 55, -16.9855, -31.4327, 45.97, -144.414, -70.4238, 72.3567
10.5141, 55, -16.8662, -31.3093, 45.8669, -144.524, -70.4697, 72.7035
10.5189, 55, -16.8264, -31.2675, 45.8321, -144.561, -70.4855, 72.8194
10.5279, 55, -16.7469, -31.1829, 45.762, -144.634, -70.5184, 73.0512
10.536, 55, -16.6671, -31.0969, 45.691, -144.709, -70.553, 73.2832
10.5429, 55, -16.5873, -31.0096, 45.6192, -144.783, -70.5883, 73.5152
10.5519, 55, -16.5072, -30.921, 45.5466, -144.859, -70.6243, 73.7474
10.5618, 55, -16.4271, -30.831, 45.473, -144.934, -70.6618, 73.9799
10.5673, 55, -16.3468, -30.7396, 45.3986, -145.011, -70.701, 74.2124
10.575, 56, -16.2664, -30.6468, 45.3232, -145.087, -70.7407, 74.4452
10.5839, 56, -16.186, -30.5527, 45.247, -145.165, -70.7812, 74.6777
10.592, 56, -16.1055, -30.4573, 45.1698, -145.242, -70.8238, 74.9105
10.5999, 56, -16.0248, -30.3606, 45.0919, -145.32, -70.8677, 75.1436
10.6079, 56, -15.9443, -30.2626, 45.0132, -145.398, -70.9121, 75.3766
10.616, 56, -15.8637, -30.1633, 44.9337, -145.477, -70.9582, 75.6096
10.6239, 56, -15.7831, -30.0627, 44.8534, -145.556, -71.006, 75.8426
10.632, 56, -15.7025, -29.9606, 44.7723, -145.635, -71.054, 76.0761
10.6399, 56, -15.6216, -29.8572, 44.6902, -145.715, -71.1038, 76.3095
10.6479, 56, -15.5406, -29.7525, 44.6072, -145.795, -71.1552, 76.5428
10.656, 56, -15.4596, -29.6465, 44.5234, -145.875, -71.207, 76.7759
10.6639, 56, -15.3785, -29.5392, 44.4387, -145.956, -71.2608, 77.0087
10.6719, 56, -15.2976, -29.4308, 44.3534, -146.037, -71.3156, 77.2417
10.6801, 56, -15.2167, -29.3209, 44.2674, -146.118, -71.371, 77.4744
10.688, 57, -15.1358, -29.2098, 44.1806, -146.199, -71.4288, 77.7072
10.6959, 57, -15.0549, -29.0973, 44.093, -146.281, -71.4869, 77.9397
10.704, 57, -14.9741, -28.9835, 44.0045, -146.362, -71.5468, 78.1721
10.7119, 57, -14.8931, -28.8684, 43.9151, -146.444, -71.6078, 78.4046
10.72, 57, -14.8123, -28.7521, 43.8249, -146.526, -71.6695, 78.6369
10.7298, 57, -14.7313, -28.6346, 43.7341, -146.608, -71.7336, 78.8689
10.7354, 57, -14.6505, -28.5156, 43.6427, -146.69, -71.798, 79.1007
10.744, 57, -14.5697, -28.3953, 43.5505, -146.773, -71.8647, 79.3321
10.752, 57, -14.4891, -28.2739, 43.4576, -146.856, -71.9316, 79.5637
10.76, 57, -14.4085, -28.1513, 43.3638, -146.938, -72.0007, 79.7951
10.7684, 57, -14.328, -28.0276, 43.2692, -147.021, -72.0705, 80.0259
10.7755, 57, -14.2475, -27.9027, 43.1738, -147.104, -72.1421, 80.2564
10.7849, 57, -14.1671, -27.7765, 43.0777, -147.186, -72.2141, 80.487
10.7928, 58, -14.0867, -27.6491, 42.9812, -147.269, -72.288, 80.7174
10.7999, 58, -14.0064, -27.5204, 42.884, -147.352, -72.3629, 80.9474
10.8079, 58, -13.9263, -27.3906, 42.7861, -147.434, -72.4391, 81.1767
10.8169, 58, -13.8463, -27.2598, 42.6876, -147.517, -72.5163, 81.4057
10.824, 58, -13.7666, -27.1275, 42.5882, -147.6, -72.595, 81.6343
10.8308, 58, -13.7268, -27.0608, 42.5382, -147.641, -72.6349, 81.7485
10.8409, 58, -13.6075, -26.8589, 42.3875, -147.765, -72.7564, 82.0906
10.8483, 58, -13.5282, -26.7229, 42.2863, -147.847, -72.8387, 82.3179
10.8549, 58, -13.4886, -26.6545, 42.2356, -147.888, -72.8806, 82.4314
10.8651, 58, -13.3696, -26.448, 42.0824, -148.012, -73.008, 82.7713
10.8709, 58, -13.33, -26.3785, 42.0309, -148.053, -73.0509, 82.8845
10.8804, 58, -13.2115, -26.1684, 41.8755, -148.175, -73.1818, 83.2231
10.8886, 58, -13.1328, -26.0269, 41.7709, -148.257, -73.2704, 83.4481
10.8965, 58, -13.0543, -25.8847, 41.6661, -148.338, -73.3599, 83.6724
10.9048, 59, -12.976, -25.7414, 41.5609, -148.419, -73.451, 83.8963
10.911, 59, -12.937, -25.6694, 41.5081, -148.46, -73.4969, 84.0081
10.9205, 59, -12.859, -25.5243, 41.4022, -148.541, -73.5897, 84.3426
10.9279, 59, -12.7813, -25.3781, 41.2957, -148.622, -73.6835, 84.4538
10.9359, 59, -12.7037, -25.2308, 41.1883, -148.702, -73.7787, 84.6755
10.9439, 59, -12.6262, -25.0828, 41.0804, -148.782, -73.875, 84.8969
10.9519, 59, -12.5489, -24.9337, 40.9723, -148.862, -73.9723, 85.118
10.9599, 59, -12.4719, -24.7834, 40.8638, -148.941, -74.0712, 85.3382
10.9679, 59, -12.395, -24.6322, 40.7549, -149.021, -74.1712, 85.5577
10.9759, 59, -12.3184, -24.4801, 40.6454, -149.099, -74.2719, 85.7762
10.984, 59, -12.2418, -24.3273, 40.535, -149.178, -74.3742, 85.9941
10.9919, 59, -12.1655, -24.1736, 40.4242, -149.256, -74.4774, 86.2114
11, 59, -12.0896, -24.0186, 40.3133, -149.334, -74.5816, 86.4279
11.0104, 60, -11.9763, -23.7845, 40.1466, -149.45, -74.7403, 86.7511
11.0149, 60, -11.9386, -23.7061, 40.0909, -149.488, -74.7936, 86.8584
11.0239, 60, -11.8636, -23.549, 39.9792, -149.564, -74.9011, 87.0724
11.0309, 60, -11.7886, -23.3908, 39.8667, -149.64, -75.0098, 87.2859
11.0399, 60, -11.714, -23.2314, 39.7538, -149.715, -75.119, 87.4985
11.0501, 60, -11.6027, -22.991, 39.584, -149.827, -75.2855, 87.8157
11.0549, 60, -11.5657, -22.9108, 39.5274, -149.865, -75.3414, 87.9209
11.0639, 60, -11.4918, -22.7499, 39.4139, -149.939, -75.4538, 88.1308
11.0719, 60, -11.4183, -22.5879, 39.3, -150.013, -75.5676, 88.3399
11.08, 60, -11.3449, -22.4247, 39.1856, -150.085, -75.6821, 88.5484
11.0879, 60, -11.2719, -22.2608, 39.0707, -150.158, -75.7976, 88.7559
11.0959, 60, -11.1993, -22.0967, 38.9558, -150.23, -75.914, 88.9623
11.104, 60, -11.1269, -21.9317, 38.8408, -150.301, -76.031, 89.1677
11.1119, 60, -11.0548, -21.7656, 38.7258, -150.372, -76.1494, 89.3724
11.1201, 61, -10.9831, -21.5987, 38.6105, -150.443, -76.2684, 89.5763
11.127, 61, -10.9117, -21.4316, 38.4948, -150.512, -76.3883, 89.779
11.1359, 61, -10.8405, -21.2643, 38.3788, -150.581, -76.5091, 89.9805
11.144, 61, -10.7698, -21.0961, 38.2628, -150.65, -76.6306, 90.1808
11.152, 61, -10.6995, -20.9269, 38.1469, -150.717, -76.7533, 90.3801
11.1599, 61, -10.6294, -20.7575, 38.031, -150.785, -76.8766, 90.5785
11.1679, 61, -10.5597, -20.588, 37.9147, -150.851, -77.001, 90.776
11.1759, 61, -10.4902, -20.4178, 37.798, -150.917, -77.1262, 90.9724
11.1839, 61, -10.4209, -20.2465, 37.6812, -150.982, -77.2521, 91.1676
11.1919, 61, -10.352, -20.0746, 37.5644, -151.047, -77.3789, 91.3615
11.1999, 61, -10.2835, -19.9028, 37.4477, -151.111, -77.5062, 91.5544
11.2079, 61, -10.2154, -19.7308, 37.3311, -151.175, -77.6345, 91.7464
11.2159, 61, -10.1477, -19.5578, 37.2143, -151.237, -77.7631, 91.937
11.2241, 61, -10.0804, -19.384, 37.0974, -151.299, -77.8926, 92.1263
11.2325, 62, -10.0134, -19.2102, 36.9805, -151.361, -78.0224, 92.3143
11.2399, 62, -9.94675, -19.0366, 36.8638, -151.421, -78.1531, 92.5008
11.248, 62, -9.88038, -18.8623, 36.7472, -151.481, -78.2843, 92.6863
11.2562, 62, -9.8146, -18.6873, 36.6307, -151.54, -78.4161, 92.8706
11.2635, 62, -9.74913, -18.5124, 36.514, -151.598, -78.5484, 93.0537
11.272, 62, -9.68395, -18.3378, 36.3972, -151.656, -78.681, 93.2354
11.2801, 62, -9.61906, -18.1629, 36.2805, -151.712, -78.8146, 93.4159
11.2875, 62, -9.58669, -17.9871, 36.1639, -151.769, -78.9484, 93.595
11.2964, 62, -9.4901, -17.811, 36.0476, -151.824, -79.0831, 93.7731
11.3043, 62, -9.45803, -17.723, 35.9895, -151.851, -79.1505, 93.9501
11.3109, 62, -9.3942, -17.5473, 35.8733, -151.906, -79.2857, 94.0381
11.3211, 62, -9.29928, -17.2823, 35.6991, -151.986, -79.4893, 94.2998
11.3297, 62, -9.23657, -17.1047, 35.5833, -152.038, -79.6257, 94.4723
11.3361, 62, -9.17439, -16.9276, 35.4678, -152.09, -79.7626, 94.6433
11.3429, 63, -9.14341, -16.8392, 35.4101, -152.115, -79.8312, 94.7282
11.3522, 63, -9.05106, -16.5736, 35.2376, -152.191, -80.0378, 94.9808
11.3589, 63, -9.02044, -16.4848, 35.18, -152.216, -80.1068, 95.0645
11.3683, 63, -8.92902, -16.2187, 35.0075, -152.288, -80.3145, 95.3129
11.3764, 63, -8.86861, -16.042, 34.893, -152.336, -80.4534, 95.4766
11.3844, 63, -8.8085, -15.865, 34.7787, -152.383, -80.5928, 95.6388
11.3925, 63, -8.74884, -15.6875, 34.6648, -152.429, -80.7324, 95.7992
11.4004, 63, -8.6896, -15.5104, 34.551, -152.474, -80.8723, 95.9584
11.4084, 63, -8.63054, -15.3337, 34.4373, -152.519, -81.0124, 96.1159
11.4166, 63, -8.60116, -15.1567, 34.324, -152.562, -81.1526, 96.272
11.4239, 63, -8.54272, -15.0679, 34.2675, -152.584, -81.2228, 96.3495
11.4309, 63, -8.48458, -14.8902, 34.155, -152.626, -81.3635, 96.5031
11.4409, 63, -8.39831, -14.6247, 33.9869, -152.688, -81.5747, 96.7304
11.448, 63, -8.36976, -14.5363, 33.931, -152.708, -81.6453, 96.8051
11.4558, 64, -8.31289, -14.359, 33.8193, -152.749, -81.7863, 96.9534
11.4639, 64, -8.25655, -14.1814, 33.7078, -152.788, -81.9275, 97.1002
11.4719, 64, -8.20062, -14.0047, 33.5969, -152.826, -82.0687, 97.2454
11.4789, 64, -8.145, -13.8288, 33.4865, -152.863, -82.21, 97.389
11.4879, 64, -8.08979, -13.653, 33.3766, -152.901, -82.3515, 97.531
11.4959, 64, -8.03484, -13.477, 33.2669, -152.937, -82.4931, 97.671
11.5029, 64, -7.98017, -13.3014, 33.1574, -152.972, -82.6349, 97.8097
11.5119, 64, -7.92592, -13.1266, 33.0482, -153.006, -82.7767, 97.9462
11.5199, 64, -7.87198, -12.9516, 32.9396, -153.04, -82.9186, 98.0811
11.5269, 64, -7.81844, -12.7763, 32.8317, -153.073, -83.0603, 98.2142
11.5359, 64, -7.76545, -12.6013, 32.7244, -153.104, -83.2024, 98.3457
11.544, 64, -7.71274, -12.427, 32.6174, -153.135, -83.3443, 98.4753
11.5536, 64, -7.66041, -12.253, 32.5106, -153.166, -83.4864, 98.6662
11.5599, 65, -7.60853, -12.0787, 32.4042, -153.195, -83.6283, 98.729
11.5679, 65, -7.55701, -11.9047, 32.2985, -153.224, -83.7704, 98.8529
11.576, 65, -7.50587, -11.7316, 32.1935, -153.251, -83.9121, 98.9749
11.5839, 65, -7.4552, -11.5593, 32.0892, -153.278, -84.0541, 99.0946
11.5927, 65, -7.4048, -11.3867, 31.9852, -153.304, -84.1957, 99.2127
11.5989, 65, -7.35468, -11.2143, 31.8814, -153.33, -84.3374, 99.3287
11.6079, 65, -7.30503, -11.0428, 31.778, -153.355, -84.4789, 99.4427
