rpiRobotics/ARM-21-02-F-19-Robot-Motion-Program/data_performance_abb/curve_1/baseline/100L/realrobot/bisect/run_4realrobot_curve_exe_v103.125_z10.csv
timestamp, cmd_num, J1, J2, J3, J4, J5, J6
0.00036, -1, 11.3778, 13.6139, 17.3392, -145.519, -97.923, 142.516
0.004179, -1, 11.3778, 13.6139, 17.3392, -145.519, -97.923, 142.516
0.008379, -1, 11.3778, 13.6139, 17.3392, -145.519, -97.923, 142.516
0.029195, -1, 11.3778, 13.6139, 17.3393, -145.519, -97.923, 142.516
0.03126, -1, 11.3778, 13.6139, 17.3393, -145.519, -97.923, 142.516
0.034532, -1, 11.3778, 13.6139, 17.3393, -145.519, -97.9229, 142.516
0.039238, -1, 11.3778, 13.6139, 17.3393, -145.519, -97.923, 142.516
0.047243, -1, 11.3776, 13.6139, 17.3393, -145.519, -97.9229, 142.516
0.055343, -1, 11.376, 13.6138, 17.3392, -145.519, -97.9229, 142.516
0.063349, -1, 11.3717, 13.6133, 17.3391, -145.519, -97.9229, 142.516
0.071327, -1, 11.363, 13.6121, 17.3387, -145.519, -97.9229, 142.515
0.079393, -1, 11.349, 13.6094, 17.338, -145.52, -97.9227, 142.511
0.087663, -1, 11.3274, 13.6047, 17.3371, -145.523, -97.9224, 142.496
0.095343, -1, 11.2952, 13.5971, 17.3363, -145.528, -97.9212, 142.466
0.103353, -1, 11.2511, 13.5862, 17.336, -145.537, -97.9186, 142.413
0.111365, -1, 11.1954, 13.5722, 17.3368, -145.551, -97.9142, 142.333
0.119365, -1, 11.1282, 13.555, 17.3397, -145.572, -97.9075, 142.22
0.12734, -1, 11.0494, 13.5338, 17.3448, -145.598, -97.8985, 142.072
0.135274, -1, 10.9586, 13.5091, 17.3523, -145.629, -97.8873, 141.89
0.143389, -1, 10.8567, 13.4811, 17.3619, -145.665, -97.8744, 141.678
0.151471, -1, 10.7439, 13.4498, 17.3729, -145.707, -97.8602, 141.441
0.159461, -1, 10.6201, 13.4155, 17.3842, -145.75, -97.8451, 141.187
0.167607, -1, 10.4863, 13.3787, 17.3952, -145.795, -97.8295, 140.921
0.17564, -1, 10.3446, 13.3399, 17.4056, -145.842, -97.8135, 140.649
0.184261, -1, 10.1972, 13.2999, 17.4157, -145.889, -97.7971, 140.373
0.191789, -1, 10.0461, 13.2592, 17.4257, -145.937, -97.7803, 140.096
0.200385, -1, 9.89246, 13.218, 17.4357, -145.985, -97.7632, 139.817
0.207818, -1, 9.73717, 13.1766, 17.4457, -146.033, -97.7459, 139.538
0.216345, -1, 9.58177, 13.1353, 17.4557, -146.08, -97.7289, 139.258
0.223855, -1, 9.4269, 13.0942, 17.4655, -146.129, -97.712, 138.979
0.232404, -1, 9.27234, 13.0531, 17.4754, -146.177, -97.6953, 138.7
0.239825, -1, 9.19521, 13.0325, 17.4804, -146.201, -97.6786, 138.42
0.248278, -1, 8.96465, 12.971, 17.4954, -146.273, -97.6618, 138.14
0.255282, -1, 8.88786, 12.9505, 17.5005, -146.297, -97.6534, 138
0.264525, -1, 8.65791, 12.889, 17.5156, -146.368, -97.6275, 137.581
0.271242, -1, 8.58151, 12.8685, 17.5206, -146.392, -97.6188, 137.441
0.279362, -1, 8.42883, 12.8273, 17.5307, -146.441, -97.6012, 137.161
0.287327, -1, 8.27578, 12.7861, 17.5409, -146.488, -97.584, 136.881
0.295293, -1, 8.1223, 12.7446, 17.5511, -146.536, -97.567, 136.601
0.30328, -1, 7.96831, 12.7031, 17.5613, -146.584, -97.5502, 136.321
0.312742, -1, 7.73626, 12.6407, 17.5764, -146.656, -97.5253, 135.9
0.32078, -1, 7.58122, 12.599, 17.5866, -146.704, -97.5085, 135.62
0.329547, -1, 7.42605, 12.5575, 17.5967, -146.752, -97.4915, 135.34
0.335233, -1, 7.34844, 12.5368, 17.6018, -146.776, -97.4829, 135.2
0.344826, -1, 7.11572, 12.4746, 17.6172, -146.848, -97.4568, 134.78
0.35364, -1, 7.0381, 12.4539, 17.6274, -146.897, -97.4397, 134.5
0.359222, -1, 6.88283, 12.4127, 17.6325, -146.92, -97.4312, 134.36
0.368246, -1, 6.72786, 12.3715, 17.6429, -146.968, -97.4143, 134.079
0.37621, -1, 6.5733, 12.3303, 17.6533, -147.017, -97.3976, 133.799
0.383235, -1, 6.41888, 12.2891, 17.6636, -147.065, -97.3809, 133.519
0.392222, -1, 6.26463, 12.2478, 17.674, -147.113, -97.364, 133.238
0.399288, -1, 6.11042, 12.2064, 17.6842, -147.161, -97.3468, 132.958
0.407223, -1, 5.95599, 12.165, 17.6944, -147.209, -97.3293, 132.677
0.415785, -1, 5.8013, 12.1235, 17.7047, -147.257, -97.3117, 132.396
0.423233, -1, 5.6465, 12.0818, 17.7149, -147.305, -97.2943, 132.116
0.431219, -1, 5.49147, 12.0402, 17.7251, -147.353, -97.2772, 131.835
0.440006, -1, 5.33622, 11.9986, 17.7354, -147.401, -97.2603, 131.554
0.447241, -1, 5.18065, 11.9569, 17.7457, -147.45, -97.2436, 131.273
0.455222, -1, 5.02473, 11.9153, 17.7561, -147.498, -97.2268, 130.992
0.464088, -1, 4.86882, 11.8737, 17.7665, -147.545, -97.2098, 130.711
0.472288, -1, 4.71302, 11.8322, 17.7769, -147.594, -97.1926, 130.43
0.479219, -1, 4.55722, 11.7908, 17.7872, -147.642, -97.1751, 130.149
0.488029, -1, 4.40149, 11.7493, 17.7976, -147.69, -97.1577, 129.869
0.496277, -1, 4.246, 11.7079, 17.808, -147.739, -97.1405, 129.588
0.630028, -1, 1.67907, 11.0212, 17.9788, -148.536, -96.8584, 124.942
0.63521, -1, 1.52289, 10.9795, 17.9893, -148.584, -96.8414, 124.66
0.636667, -1, 1.52289, 10.9795, 17.9893, -148.584, -96.8414, 124.66
0.637853, -1, 1.52289, 10.9795, 17.9893, -148.584, -96.8414, 124.66
0.6399, -1, 1.44488, 10.9587, 17.9945, -148.609, -96.833, 124.519
0.641095, -1, 1.44488, 10.9587, 17.9945, -148.609, -96.833, 124.519
0.64239, -1, 1.44488, 10.9587, 17.9945, -148.609, -96.833, 124.519
0.646254, -1, 1.36688, 10.9379, 17.9997, -148.633, -96.8246, 124.378
0.783301, -1, -1.287, 10.2277, 18.176, -149.457, -96.5336, 119.574
0.785411, -1, -1.36541, 10.2068, 18.1812, -149.482, -96.5252, 119.432
0.786603, -1, -1.36541, 10.2068, 18.1812, -149.482, -96.5252, 119.432
0.788502, -1, -1.44373, 10.1859, 18.1863, -149.506, -96.5168, 119.291
0.789954, -1, -1.44373, 10.1859, 18.1863, -149.506, -96.5168, 119.291
0.791155, -1, -1.44373, 10.1859, 18.1863, -149.506, -96.5168, 119.291
0.793242, -1, -1.52202, 10.1651, 18.1916, -149.53, -96.5084, 119.149
0.796678, -1, -1.6003, 10.1442, 18.1969, -149.554, -96.5, 119.007
0.798048, -1, -1.6003, 10.1442, 18.1969, -149.554, -96.5, 119.007
0.799383, -1, -1.6003, 10.1442, 18.1969, -149.554, -96.5, 119.007
0.802823, -1, -1.67845, 10.1232, 18.2021, -149.579, -96.4914, 118.866
0.804805, -1, -1.75646, 10.1023, 18.2073, -149.603, -96.4829, 118.724
0.806166, -1, -1.75646, 10.1023, 18.2073, -149.603, -96.4829, 118.724
0.807351, -1, -1.75646, 10.1023, 18.2073, -149.603, -96.4829, 118.724
0.809386, -1, -1.83432, 10.0814, 18.2125, -149.627, -96.4743, 118.583
0.810982, -1, -1.83432, 10.0814, 18.2125, -149.627, -96.4743, 118.583
0.812787, -1, -1.91207, 10.0605, 18.2177, -149.652, -96.4655, 118.441
0.81429, -1, -1.91207, 10.0605, 18.2177, -149.652, -96.4655, 118.441
0.815508, -1, -1.91207, 10.0605, 18.2177, -149.652, -96.4655, 118.441
0.817707, -1, -1.98977, 10.0396, 18.2229, -149.676, -96.4566, 118.299
0.818942, -1, -1.98977, 10.0396, 18.2229, -149.676, -96.4566, 118.299
0.820849, -1, -2.06738, 10.0186, 18.2282, -149.7, -96.4478, 118.157
0.825505, -1, -2.14496, 9.99772, 18.2334, -149.725, -96.439, 118.016
0.827615, -1, -2.14496, 9.99772, 18.2334, -149.725, -96.439, 118.016
0.829689, -1, -2.22255, 9.97682, 18.2385, -149.749, -96.4303, 117.874
0.830917, -1, -2.22255, 9.97682, 18.2385, -149.749, -96.4303, 117.874
0.832772, -1, -2.30019, 9.95592, 18.2437, -149.773, -96.4216, 117.732
0.834216, -1, -2.30019, 9.95592, 18.2437, -149.773, -96.4216, 117.732
0.835497, -1, -2.30019, 9.95592, 18.2437, -149.773, -96.4216, 117.732
0.837479, -1, -2.37789, 9.93499, 18.2489, -149.797, -96.413, 117.59
0.83889, -1, -2.37789, 9.93499, 18.2489, -149.797, -96.413, 117.59
0.840694, -1, -2.37789, 9.93499, 18.2542, -149.822, -96.4044, 117.449
0.842213, -1, -2.45566, 9.91402, 18.2542, -149.822, -96.4044, 117.449
0.843621, -1, -2.45566, 9.91402, 18.2542, -149.822, -96.4044, 117.449
0.845621, -1, -2.53349, 9.89305, 18.2594, -149.846, -96.396, 117.307
0.847237, -1, -2.53349, 9.89305, 18.2594, -149.846, -96.396, 117.307
0.855205, -1, -2.68936, 9.85113, 18.2697, -149.895, -96.3792, 117.023
0.864996, -1, -2.84555, 9.80921, 18.2801, -149.943, -96.3624, 116.739
0.871272, -1, -3.0022, 9.7673, 18.2904, -149.992, -96.3455, 116.456
0.880242, -1, -3.15926, 9.72543, 18.3008, -150.041, -96.3283, 116.172
0.888222, -1, -3.31675, 9.68349, 18.3113, -150.089, -96.3108, 115.888
0.896178, -1, -3.4746, 9.6415, 18.3218, -150.138, -96.2932, 115.604
0.903214, -1, -3.63245, 9.59962, 18.3322, -150.187, -96.2758, 115.32
0.912193, -1, -3.79031, 9.55778, 18.3425, -150.235, -96.2587, 115.036
0.919265, -1, -3.94828, 9.5158, 18.3528, -150.284, -96.2417, 114.752
0.927205, -1, -4.10616, 9.47389, 18.3632, -150.333, -96.2247, 114.468
0.935204, -1, -4.26395, 9.432, 18.3735, -150.381, -96.2077, 114.183
0.943282, -1, -4.42153, 9.39003, 18.3838, -150.43, -96.1906, 113.899
0.951248, -1, -4.57869, 9.34807, 18.3942, -150.479, -96.1731, 113.614
0.959214, -1, -4.73545, 9.3061, 18.4045, -150.528, -96.1553, 113.329
0.967336, -1, -4.89189, 9.26409, 18.4149, -150.577, -96.1377, 113.045
0.975204, -1, -5.04796, 9.22204, 18.4254, -150.626, -96.1203, 112.76
0.98323, -1, -5.20381, 9.18004, 18.4359, -150.674, -96.1033, 112.475
0.991256, -1, -5.35984, 9.13795, 18.4464, -150.723, -96.0864, 112.191
0.999223, -1, -5.51603, 9.09581, 18.4568, -150.772, -96.0695, 111.906
1.00725, -1, -5.67234, 9.05381, 18.4671, -150.821, -96.0526, 111.621
1.01526, -1, -5.8291, 9.01169, 18.4775, -150.87, -96.0353, 111.337
1.02322, -1, -5.98633, 8.96954, 18.4879, -150.919, -96.0178, 111.052
1.03127, -1, -6.14403, 8.92745, 18.4981, -150.967, -96.0002, 110.767
1.03921, -1, -6.3022, 8.88536, 18.5085, -151.016, -95.9828, 110.481
1.04727, -1, -6.46058, 8.84333, 18.5187, -151.066, -95.9657, 110.196
1.05526, -1, -6.61904, 8.80131, 18.5292, -151.114, -95.9487, 109.911
1.06331, -1, -6.77764, 8.75918, 18.5397, -151.163, -95.9317, 109.626
1.07135, -1, -6.93626, 8.71711, 18.5502, -151.213, -95.9147, 109.34
1.07931, -1, -7.09474, 8.67508, 18.5607, -151.261, -95.8975, 109.055
1.08735, -1, -7.25318, 8.63295, 18.5711, -151.31, -95.8799, 108.769
1.09542, -1, -7.41128, 8.59076, 18.5814, -151.36, -95.8621, 108.484
1.1033, -1, -7.56906, 8.54849, 18.5919, -151.408, -95.8445, 108.198
1.1113, -1, -7.72653, 8.50624, 18.6023, -151.458, -95.8271, 107.912
1.11941, -1, -7.88362, 8.46407, 18.6127, -151.507, -95.81, 107.627
1.12723, -1, -8.04034, 8.42177, 18.6231, -151.555, -95.7931, 107.341
1.13535, -1, -8.19694, 8.37946, 18.6335, -151.605, -95.7761, 107.055
1.14333, -1, -8.35357, 8.33715, 18.644, -151.654, -95.7591, 106.769
1.15132, -1, -8.51046, 8.29475, 18.6545, -151.703, -95.7417, 106.483
1.15949, -1, -8.66761, 8.25248, 18.665, -151.752, -95.7241, 106.197
1.16748, -1, -8.82512, 8.21022, 18.6754, -151.801, -95.7064, 105.91
1.17553, -1, -8.98306, 8.16789, 18.6857, -151.85, -95.6891, 105.624
1.18367, -1, -9.14144, 8.12565, 18.6962, -151.899, -95.6718, 105.338
1.19164, -1, -9.30026, 8.08346, 18.7066, -151.948, -95.6547, 105.051
1.20029, -1, -9.45931, 8.04115, 18.717, -151.997, -95.6375, 104.764
1.20781, -1, -9.61852, 7.99891, 18.7274, -152.047, -95.6204, 104.478
1.21643, -1, -9.77768, 7.95675, 18.7378, -152.096, -95.603, 104.191
1.22376, -1, -9.937, 7.91448, 18.7483, -152.145, -95.5852, 103.904
1.23229, -1, -10.0963, 7.87215, 18.759, -152.195, -95.5672, 103.617
1.2398, -1, -10.1759, 7.85096, 18.7642, -152.219, -95.5584, 103.331
1.24819, -1, -10.4143, 7.78729, 18.78, -152.293, -95.5321, 103.044
1.25526, -1, -10.4937, 7.76605, 18.7852, -152.318, -95.5236, 102.9
1.26429, -1, -10.7312, 7.70241, 18.8008, -152.392, -95.498, 102.47
1.27119, -1, -10.8102, 7.68116, 18.806, -152.416, -95.4895, 102.326
1.28047, -1, -11.0468, 7.61734, 18.8216, -152.49, -95.4638, 101.896
1.28721, -1, -11.1255, 7.59613, 18.8268, -152.515, -95.4551, 101.752
1.29651, -1, -11.3617, 7.53244, 18.8425, -152.589, -95.4285, 101.321
1.30326, -1, -11.4405, 7.51122, 18.8477, -152.614, -95.4196, 101.177
1.3126, -1, -11.6771, 7.44753, 18.8635, -152.687, -95.3933, 100.746
1.31924, -1, -11.7561, 7.42634, 18.8688, -152.712, -95.3846, 100.602
1.32881, -1, -11.9938, 7.36276, 18.8846, -152.786, -95.3588, 100.171
1.33679, -1, -12.1528, 7.32041, 18.8952, -152.835, -95.3416, 99.8829
1.34476, -1, -12.3121, 7.27804, 18.9056, -152.885, -95.3243, 99.5951
1.35284, -1, -12.4718, 7.23562, 18.9161, -152.935, -95.3068, 99.3071
1.3608, -1, -12.5518, 7.21444, 18.9214, -152.984, -95.2889, 99.0194
1.36871, -1, -12.7118, 7.17207, 18.9319, -153.008, -95.2799, 98.8756
1.37693, -1, -12.872, 7.12966, 18.9424, -153.058, -95.2532, 98.4436
1.38418, -1, -13.032, 7.08713, 18.953, -153.108, -95.2446, 98.2996
1.3922, -1, -13.1919, 7.04457, 18.9635, -153.157, -95.2273, 98.0114
1.40023, -1, -13.3516, 7.00199, 18.974, -153.207, -95.2102, 97.7234
1.40824, -1, -13.5109, 6.95932, 18.9846, -153.256, -95.1931, 97.435
1.41623, -1, -13.6701, 6.91659, 18.9952, -153.305, -95.1759, 97.1464
1.42422, -1, -13.8292, 6.87396, 19.0057, -153.355, -95.1585, 96.8578
1.43218, -1, -13.9877, 6.8313, 19.0161, -153.404, -95.1407, 96.5693
1.44019, -1, -14.1458, 6.78864, 19.0266, -153.453, -95.1229, 96.2805
1.44824, -1, -14.304, 6.74605, 19.0371, -153.503, -95.1054, 95.9915
1.45625, -1, -14.4622, 6.70338, 19.0475, -153.552, -95.0882, 95.7027
1.46424, -1, -14.6207, 6.66076, 19.0581, -153.602, -95.071, 95.4136
1.47217, -1, -14.7796, 6.61825, 19.0686, -153.652, -95.0539, 95.1244
1.48018, -1, -14.9389, 6.57573, 19.0791, -153.701, -95.0367, 94.8352
1.48824, -1, -15.0984, 6.53309, 19.0898, -153.751, -95.0191, 94.5463
1.49624, -1, -15.2584, 6.49053, 19.1005, -153.801, -95.0013, 94.2572
1.50418, -1, -15.4187, 6.44797, 19.1111, -153.85, -94.9833, 93.9681
1.5112, -1, -15.5792, 6.4053, 19.1217, -153.9, -94.9655, 93.6788
1.51918, -1, -15.74, 6.36262, 19.1321, -153.949, -94.948, 93.3895
1.52797, -1, -15.9008, 6.3199, 19.1427, -153.999, -94.9307, 93.1001
1.5363, -1, -16.0616, 6.27706, 19.1533, -154.049, -94.9135, 92.8104
1.54319, -1, -16.2223, 6.23427, 19.1638, -154.098, -94.8963, 92.5207
1.552, -1, -16.3829, 6.19137, 19.1743, -154.148, -94.8789, 92.2313
1.56026, -1, -16.5432, 6.14843, 19.1848, -154.198, -94.8612, 91.9416
1.56722, -1, -16.7032, 6.10553, 19.1953, -154.247, -94.8433, 91.6514
1.5763, -1, -16.8628, 6.06262, 19.2059, -154.297, -94.8255, 91.3614
1.58327, -1, -17.0221, 6.01974, 19.2165, -154.347, -94.8079, 91.0714
1.5913, -1, -17.1812, 5.97683, 19.2271, -154.396, -94.7905, 90.7813
1.60036, -1, -17.3403, 5.93401, 19.2377, -154.446, -94.7731, 90.491
1.60728, -1, -17.4996, 5.89125, 19.2483, -154.496, -94.7558, 90.201
1.61535, -1, -17.659, 5.84854, 19.259, -154.546, -94.7383, 89.9108
1.62382, -1, -17.8185, 5.80577, 19.2696, -154.595, -94.7206, 89.6206
1.63123, -1, -17.9783, 5.76304, 19.2803, -154.646, -94.7024, 89.3301
1.63957, -1, -18.1386, 5.72034, 19.2908, -154.695, -94.6844, 89.0399
1.64879, -1, -18.2994, 5.6776, 19.3014, -154.745, -94.6666, 88.7494
1.65624, -1, -18.4606, 5.63483, 19.3121, -154.796, -94.6491, 88.4586
1.66348, -1, -18.6221, 5.59188, 19.3228, -154.845, -94.6318, 88.1675
1.67296, -1, -18.7836, 5.54896, 19.3335, -154.895, -94.6146, 87.8767
1.68017, -1, -18.9452, 5.506, 19.344, -154.945, -94.5973, 87.5856
1.68789, -1, -19.1068, 5.46295, 19.3545, -154.995, -94.5796, 87.2943
1.69725, -1, -19.2683, 5.41985, 19.3651, -155.045, -94.5616, 87.003
1.70378, -1, -19.4296, 5.37676, 19.3757, -155.095, -94.5435, 86.7117
1.71242, -1, -19.5906, 5.3336, 19.3862, -155.145, -94.5257, 86.4201
1.72167, -1, -19.7513, 5.29048, 19.3968, -155.195, -94.508, 86.1284
1.72777, -1, -19.9118, 5.24743, 19.4073, -155.245, -94.4905, 85.8369
1.73641, -1, -20.072, 5.20431, 19.4181, -155.294, -94.4731, 85.5455
1.74368, -1, -20.1519, 5.1828, 19.4235, -155.32, -94.4644, 85.3997
1.7522, -1, -20.3917, 5.11846, 19.4396, -155.395, -94.4381, 84.962
1.75917, -1, -20.4718, 5.09696, 19.445, -155.42, -94.4292, 84.8161
1.76821, -1, -20.7119, 5.0325, 19.461, -155.495, -94.4021, 84.3785
1.77525, -1, -20.7921, 5.01106, 19.4663, -155.521, -94.3932, 84.2325
1.78468, -1, -21.0334, 4.94666, 19.4823, -155.595, -94.3667, 83.7943
1.79119, -1, -21.114, 4.92514, 19.4876, -155.62, -94.3581, 83.6484
1.80055, -1, -21.3565, 4.8606, 19.5035, -155.696, -94.3322, 83.2104
1.80724, -1, -21.4376, 4.83904, 19.5088, -155.721, -94.3236, 83.0643
1.81656, -1, -21.6808, 4.77425, 19.5248, -155.797, -94.2976, 82.6256
1.82317, -1, -21.7619, 4.75269, 19.5301, -155.822, -94.2887, 82.4793
1.83308, -1, -22.0055, 4.68775, 19.5462, -155.896, -94.2618, 82.0405
1.83923, -1, -22.0867, 4.66607, 19.5516, -155.922, -94.2528, 81.8941
1.8488, -1, -22.3304, 4.60109, 19.5677, -155.997, -94.2262, 81.4552
1.85677, -1, -22.4115, 4.55775, 19.5783, -156.047, -94.2088, 81.1627
1.86476, -1, -22.5733, 4.53607, 19.5836, -156.073, -94.1914, 80.87
1.87117, -1, -22.7349, 4.49267, 19.5943, -156.123, -94.1827, 80.7235
1.88016, -1, -22.8962, 4.44933, 19.605, -156.173, -94.1652, 80.4305
1.88724, -1, -23.0573, 4.40606, 19.6157, -156.223, -94.1474, 80.1377
1.89523, -1, -23.2184, 4.36282, 19.6264, -156.273, -94.1292, 79.8447
1.90319, -1, -23.3793, 4.31956, 19.6371, -156.324, -94.1109, 79.5515
1.91123, -1, -23.5401, 4.27635, 19.648, -156.375, -94.0929, 79.258
1.91917, -1, -23.7012, 4.23313, 19.6587, -156.425, -94.0751, 78.9649
1.92724, -1, -23.8625, 4.18991, 19.6695, -156.475, -94.0576, 78.6715
1.93517, -1, -24.024, 4.14661, 19.6802, -156.526, -94.0402, 78.3777
1.94318, -1, -24.1861, 4.10327, 19.6908, -156.576, -94.0228, 78.0838
1.95123, -1, -24.3485, 4.05986, 19.7015, -156.626, -94.0052, 77.79
1.95916, -1, -24.5114, 4.01643, 19.7121, -156.677, -93.9872, 77.4959
1.96717, -1, -24.6744, 3.9729, 19.7227, -156.727, -93.969, 77.2017
1.97529, -1, -24.8377, 3.92933, 19.7334, -156.777, -93.9509, 76.9077
1.98318, -1, -25.0011, 3.88581, 19.744, -156.828, -93.9332, 76.6138
1.99118, -1, -25.1644, 3.84223, 19.7549, -156.878, -93.9156, 76.3196
1.99923, -1, -25.3275, 3.79865, 19.7657, -156.929, -93.8981, 76.0251
2.00716, -1, -25.4903, 3.75505, 19.7765, -156.979, -93.8805, 75.7309
2.01517, -1, -25.6529, 3.71142, 19.7872, -157.029, -93.8627, 75.4366
2.02327, -1, -25.8154, 3.66789, 19.7978, -157.08, -93.8446, 75.142
2.03116, -1, -25.9777, 3.62446, 19.8086, -157.13, -93.8262, 74.8472
2.03932, -1, -26.1396, 3.58094, 19.8193, -157.181, -93.8079, 74.5528
2.04717, -1, -26.3012, 3.53753, 19.83, -157.232, -93.79, 74.2583
2.05517, -1, -26.4629, 3.49414, 19.8408, -157.282, -93.7722, 73.9633
2.06339, -1, -26.6248, 3.45067, 19.8514, -157.333, -93.7547, 73.6681
2.07122, -1, -26.7868, 3.40722, 19.8622, -157.383, -93.7371, 73.3731
2.07931, -1, -26.9493, 3.3637, 19.873, -157.434, -93.7194, 73.078
2.08753, -1, -27.1122, 3.32006, 19.8838, -157.485, -93.7013, 72.7825
2.09527, -1, -27.2753, 3.27648, 19.8947, -157.535, -93.683, 72.4874
2.1033, -1, -27.4388, 3.23282, 19.9053, -157.586, -93.6648, 72.1922
2.1117, -1, -27.6026, 3.18906, 19.9161, -157.636, -93.6468, 71.8969
2.11941, -1, -27.7666, 3.14538, 19.9268, -157.687, -93.629, 71.6012
2.1272, -1, -27.9307, 3.10172, 19.9376, -157.738, -93.6114, 71.3057
2.136, -1, -28.0948, 3.05804, 19.9484, -157.789, -93.5937, 71.01
2.14421, -1, -28.2589, 3.01431, 19.9591, -157.839, -93.5758, 70.7141
2.15127, -1, -28.4229, 2.97057, 19.9699, -157.89, -93.5578, 70.4181
2.16028, -1, -28.5866, 2.92689, 19.9808, -157.941, -93.5393, 70.1224
2.16742, -1, -28.7502, 2.88327, 19.9916, -157.992, -93.5209, 69.8264
2.17554, -1, -28.9134, 2.83963, 20.0024, -158.042, -93.5029, 69.53
2.18431, -1, -29.0762, 2.79603, 20.0131, -158.094, -93.4851, 69.2336
2.19157, -1, -29.2388, 2.75243, 20.0238, -158.144, -93.4674, 68.9372
2.19973, -1, -29.4016, 2.7088, 20.0346, -158.195, -93.4499, 68.6406
2.20854, -1, -29.5645, 2.66516, 20.0454, -158.246, -93.4321, 68.3437
2.21569, -1, -29.7275, 2.62142, 20.0561, -158.297, -93.4141, 68.0472
2.22425, -1, -29.8906, 2.5777, 20.0669, -158.348, -93.3957, 67.7506
2.23255, -1, -30.0539, 2.53398, 20.0777, -158.399, -93.3774, 67.4538
2.2398, -1, -30.2175, 2.49009, 20.0886, -158.45, -93.3593, 67.1567
2.24826, -1, -30.3816, 2.44619, 20.0995, -158.501, -93.3415, 66.8599
2.25517, -1, -30.4638, 2.42424, 20.105, -158.526, -93.3326, 66.7114
2.26314, -1, -30.6285, 2.38029, 20.1158, -158.577, -93.3149, 66.4143
2.27218, -1, -30.876, 2.31437, 20.1319, -158.654, -93.2883, 65.9683
2.27921, -1, -30.9585, 2.29242, 20.1374, -158.679, -93.2793, 65.8198
2.28715, -1, -31.1234, 2.24842, 20.1482, -158.73, -93.261, 65.5226
2.2964, -1, -31.3707, 2.18253, 20.1644, -158.807, -93.2333, 65.0764
2.30314, -1, -31.4531, 2.16062, 20.1698, -158.832, -93.2242, 64.9276
2.31125, -1, -31.6176, 2.11669, 20.1805, -158.883, -93.2062, 64.6299
2.32064, -1, -31.8642, 2.05077, 20.1969, -158.96, -93.1796, 64.1831
2.32714, -1, -31.9462, 2.02885, 20.2024, -158.986, -93.1708, 64.0341
2.33522, -1, -32.1101, 1.98493, 20.2133, -159.037, -93.1531, 63.7362
2.34473, -1, -32.3556, 1.91902, 20.2298, -159.114, -93.1262, 63.2894
2.35362, -1, -32.5192, 1.87502, 20.2406, -159.165, -93.1079, 62.9914
2.35929, -1, -32.6011, 1.85299, 20.2461, -159.19, -93.0987, 62.8422
2.36956, -1, -32.765, 1.80898, 20.2625, -159.268, -93.0713, 62.3949
2.37518, -1, -32.9289, 1.76494, 20.2679, -159.293, -93.0623, 62.2457
2.38414, -1, -33.0933, 1.72078, 20.2788, -159.344, -93.0444, 61.9472
2.39219, -1, -33.2581, 1.67662, 20.2897, -159.396, -93.0266, 61.6486
2.39921, -1, -33.4232, 1.63248, 20.3005, -159.447, -93.0087, 61.3501
2.40724, -1, -33.5888, 1.58831, 20.3115, -159.498, -92.9906, 61.0515
2.41515, -1, -33.7545, 1.54411, 20.3225, -159.549, -92.9722, 60.7528
2.42314, -1, -33.9202, 1.49997, 20.3334, -159.6, -92.9535, 60.4536
2.43122, -1, -34.086, 1.45581, 20.3443, -159.652, -92.9349, 60.1546
2.43922, -1, -34.2519, 1.41173, 20.3552, -159.703, -92.9167, 59.8556
2.44714, -1, -34.4178, 1.3676, 20.3661, -159.754, -92.8986, 59.556
2.45523, -1, -34.5837, 1.32344, 20.377, -159.806, -92.8808, 59.2566
2.46314, -1, -34.7491, 1.27933, 20.3879, -159.857, -92.863, 58.9574
2.4712, -1, -34.9141, 1.23515, 20.3988, -159.908, -92.845, 58.6581
2.47931, -1, -35.079, 1.19103, 20.4097, -159.96, -92.8267, 58.3584
2.48714, -1, -35.2435, 1.14681, 20.4207, -160.011, -92.8082, 58.0587
2.49516, -1, -35.4079, 1.10258, 20.4318, -160.063, -92.7898, 57.7591
2.50321, -1, -35.5714, 1.05864, 20.4429, -160.114, -92.7716, 57.4593
2.51114, -1, -35.7328, 1.01504, 20.4543, -160.165, -92.7535, 57.1598
2.5192, -1, -35.891, 0.972236, 20.4658, -160.216, -92.7358, 56.8625
2.52723, -1, -36.0447, 0.930751, 20.4777, -160.267, -92.7182, 56.5692
2.53517, -1, -36.1925, 0.891132, 20.4896, -160.315, -92.7008, 56.2834
2.54313, -1, -36.3317, 0.853962, 20.5014, -160.362, -92.684, 56.0102
2.55122, -1, -36.4607, 0.819863, 20.5126, -160.405, -92.668, 55.756
2.55921, -1, -36.5777, 0.788904, 20.5226, -160.444, -92.6536, 55.5269
2.56715, -1, -36.6812, 0.761584, 20.5311, -160.477, -92.6412, 55.328
2.57529, -1, -36.77, 0.738091, 20.5376, -160.505, -92.6311, 55.1633
2.58325, -1, -36.8444, 0.718306, 20.5418, -160.528, -92.6233, 55.0337
2.59124, -1, -36.9054, 0.702181, 20.5439, -160.544, -92.6177, 54.9385
2.59936, -1, -36.9535, 0.689544, 20.5448, -160.556, -92.6139, 54.8718
2.60727, -1, -36.9895, 0.680043, 20.5448, -160.563, -92.6116, 54.8287
2.61542, -1, -37.0153, 0.673223, 20.5443, -160.568, -92.6103, 54.8033
2.62331, -1, -37.0324, 0.668839, 20.5438, -160.57, -92.6095, 54.7895
2.63114, -1, -37.0425, 0.666353, 20.5436, -160.572, -92.6092, 54.7828
2.63945, 2, -37.0476, 0.66514, 20.5434, -160.572, -92.6091, 54.7796
2.6473, 2, -37.0487, 0.664588, 20.5434, -160.573, -92.6089, 54.7782
2.65547, 2, -37.0483, 0.664376, 20.5433, -160.573, -92.6089, 54.7776
2.66332, 2, -37.048, 0.664287, 20.5433, -160.573, -92.6089, 54.7773
2.67141, 2, -37.048, 0.664227, 20.5433, -160.573, -92.6089, 54.7772
2.67995, 2, -37.0486, 0.664157, 20.5433, -160.573, -92.6089, 54.7773
2.68814, 2, -37.0497, 0.664107, 20.5432, -160.573, -92.609, 54.7774
2.69564, 2, -37.0508, 0.663944, 20.543, -160.573, -92.609, 54.7775
2.70429, 2, -37.0522, 0.663668, 20.5428, -160.573, -92.609, 54.7776
2.71167, 2, -37.0534, 0.663422, 20.5426, -160.573, -92.609, 54.7778
2.72027, 2, -37.0546, 0.663201, 20.5424, -160.573, -92.6091, 54.7779
2.72808, 2, -37.0553, 0.663042, 20.5423, -160.573, -92.6091, 54.7782
2.73571, 2, -37.0555, 0.662972, 20.5421, -160.573, -92.6092, 54.7783
2.7442, 2, -37.0552, 0.662955, 20.5419, -160.573, -92.6093, 54.7786
2.7524, 2, -37.0544, 0.663004, 20.5418, -160.573, -92.6093, 54.7788
2.7592, 2, -37.054, 0.663043, 20.5418, -160.573, -92.6093, 54.7789
2.76817, 2, -37.0522, 0.663164, 20.5417, -160.573, -92.6094, 54.7793
2.77517, 2, -37.0513, 0.66322, 20.5417, -160.573, -92.6094, 54.7794
2.78426, 2, -37.0492, 0.663372, 20.5416, -160.573, -92.6094, 54.7796
2.79118, 2, -37.0487, 0.66338, 20.5416, -160.573, -92.6094, 54.7798
2.80079, 2, -37.0478, 0.663384, 20.5415, -160.573, -92.6095, 54.7799
2.80844, 2, -37.0476, 0.663378, 20.5415, -160.573, -92.6095, 54.7799
2.81525, 2, -37.0476, 0.663358, 20.5415, -160.573, -92.6095, 54.7799
2.82473, 2, -37.048, 0.663229, 20.5415, -160.573, -92.6095, 54.78
2.83264, 2, -37.0483, 0.663185, 20.5415, -160.573, -92.6095, 54.78
2.84066, 2, -37.0489, 0.663152, 20.5414, -160.573, -92.6094, 54.7801
2.84908, 2, -37.0498, 0.663137, 20.5414, -160.573, -92.6095, 54.7801
2.85667, 2, -37.0506, 0.663112, 20.5414, -160.573, -92.6095, 54.7801
2.8647, 2, -37.051, 0.663116, 20.5414, -160.573, -92.6095, 54.7801
2.87287, 2, -37.0515, 0.663128, 20.5414, -160.573, -92.6095, 54.7802
2.88015, 2, -37.0517, 0.663169, 20.5414, -160.573, -92.6096, 54.7802
2.88812, 2, -37.0518, 0.663193, 20.5414, -160.573, -92.6096, 54.7803
2.89617, 2, -37.0518, 0.663217, 20.5414, -160.573, -92.6095, 54.7803
2.90312, 2, -37.0514, 0.663228, 20.5414, -160.573, -92.6095, 54.7804
2.91122, 2, -37.051, 0.663233, 20.5414, -160.573, -92.6095, 54.7805
2.9192, 2, -37.0506, 0.663237, 20.5413, -160.573, -92.6096, 54.7804
2.92712, 2, -37.0504, 0.663201, 20.5413, -160.573, -92.6095, 54.7805
2.93612, 2, -37.0502, 0.663164, 20.5413, -160.573, -92.6096, 54.7806
2.94418, 2, -37.0501, 0.663143, 20.5413, -160.573, -92.6096, 54.7806
2.95112, 2, -37.0501, 0.663133, 20.5413, -160.573, -92.6096, 54.7806
2.95926, 2, -37.0501, 0.663128, 20.5413, -160.573, -92.6096, 54.7806
2.96712, 2, -37.0502, 0.663126, 20.5413, -160.573, -92.6096, 54.7806
2.97514, 2, -37.0503, 0.663145, 20.5413, -160.573, -92.6097, 54.7807
2.98324, 2, -37.0504, 0.663188, 20.5412, -160.573, -92.6097, 54.7808
2.99112, 2, -37.0507, 0.663196, 20.5412, -160.573, -92.6097, 54.7809
2.99918, 2, -37.0508, 0.663219, 20.5412, -160.572, -92.6097, 54.7809
3.00719, 2, -37.0509, 0.663229, 20.5412, -160.573, -92.6097, 54.781
3.01514, 2, -37.0509, 0.663223, 20.5412, -160.572, -92.6097, 54.7811
3.02312, 2, -37.0509, 0.663205, 20.5412, -160.572, -92.6097, 54.7811
3.03215, 2, -37.0508, 0.663193, 20.5412, -160.572, -92.6097, 54.7811
3.0392, 2, -37.0508, 0.663168, 20.5412, -160.572, -92.6098, 54.7812
3.04712, 2, -37.0508, 0.66315, 20.5412, -160.572, -92.6098, 54.7812
3.05521, 2, -37.0508, 0.663143, 20.5411, -160.572, -92.6098, 54.7813
3.06313, 2, -37.0507, 0.663145, 20.5412, -160.572, -92.6098, 54.7813
3.07113, 2, -37.0507, 0.663151, 20.5412, -160.572, -92.6098, 54.7813
3.07932, 2, -37.0507, 0.663149, 20.5412, -160.572, -92.6097, 54.7814
3.08723, 2, -37.0507, 0.663155, 20.5411, -160.572, -92.6098, 54.7814
3.09524, 2, -37.0506, 0.663192, 20.5411, -160.572, -92.6097, 54.7815
3.10329, 2, -37.0506, 0.663217, 20.5411, -160.572, -92.6098, 54.7815
3.11126, 2, -37.0507, 0.66321, 20.5411, -160.572, -92.6098, 54.7815
3.11928, 2, -37.0507, 0.663206, 20.5411, -160.572, -92.6098, 54.7816
3.1273, 2, -37.0507, 0.663212, 20.5411, -160.572, -92.6098, 54.7816
3.13518, 2, -37.0506, 0.663219, 20.5411, -160.572, -92.6098, 54.7816
3.14315, 2, -37.0506, 0.663229, 20.5411, -160.572, -92.6098, 54.7816
3.15127, 2, -37.0506, 0.663204, 20.5411, -160.572, -92.6098, 54.7817
3.15969, 2, -37.0506, 0.663173, 20.5411, -160.572, -92.6099, 54.7817
3.16812, 2, -37.0506, 0.663159, 20.5411, -160.572, -92.6099, 54.7818
3.17547, 2, -37.0506, 0.663158, 20.5411, -160.572, -92.6099, 54.7818
3.18373, 2, -37.0506, 0.663159, 20.5411, -160.572, -92.6099, 54.7818
3.19212, 2, -37.0506, 0.663183, 20.541, -160.572, -92.6099, 54.7818
3.19964, 2, -37.0505, 0.663205, 20.541, -160.572, -92.6099, 54.7819
3.20833, 2, -37.0505, 0.663224, 20.541, -160.572, -92.6099, 54.7819
3.21567, 2, -37.0505, 0.663236, 20.541, -160.572, -92.6099, 54.7819
3.22421, 2, -37.0505, 0.663237, 20.541, -160.572, -92.6099, 54.782
3.23197, 2, -37.0505, 0.66325, 20.541, -160.572, -92.6099, 54.782
3.24023, 2, -37.0505, 0.663243, 20.5411, -160.572, -92.6099, 54.782
3.24775, 2, -37.0505, 0.663222, 20.541, -160.572, -92.6098, 54.7821
3.25633, 2, -37.0504, 0.66323, 20.541, -160.572, -92.6099, 54.782
3.26311, 2, -37.0504, 0.663222, 20.541, -160.572, -92.6099, 54.7821
3.27215, 2, -37.0504, 0.663204, 20.541, -160.572, -92.6099, 54.7821
3.28019, 2, -37.0504, 0.663204, 20.541, -160.572, -92.6099, 54.7821
3.28711, 2, -37.0504, 0.663204, 20.541, -160.572, -92.6099, 54.7822
3.29631, 2, -37.0504, 0.663227, 20.541, -160.572, -92.6099, 54.7823
3.30311, 2, -37.0504, 0.66322, 20.541, -160.572, -92.6099, 54.7823
3.31111, 2, -37.0504, 0.663204, 20.541, -160.572, -92.6099, 54.7823
3.3205, 2, -37.0503, 0.663247, 20.541, -160.572, -92.6099, 54.7823
3.3271, 2, -37.0503, 0.663258, 20.541, -160.572, -92.6099, 54.7824
3.33664, 2, -37.0503, 0.66326, 20.541, -160.572, -92.6099, 54.7824
3.34466, 2, -37.0503, 0.663248, 20.541, -160.572, -92.6099, 54.7824
3.35303, 2, -37.0503, 0.663242, 20.541, -160.572, -92.6099, 54.7824
3.36068, 2, -37.0503, 0.66324, 20.5409, -160.572, -92.6099, 54.7825
3.36868, 2, -37.0503, 0.663239, 20.5409, -160.572, -92.6099, 54.7825
3.37698, 2, -37.0503, 0.663238, 20.5409, -160.572, -92.6099, 54.7825
3.38412, 2, -37.0503, 0.663238, 20.5409, -160.572, -92.6099, 54.7825
3.3921, 2, -37.0502, 0.66325, 20.5409, -160.572, -92.6099, 54.7825
3.40016, 2, -37.0502, 0.663251, 20.5409, -160.572, -92.6099, 54.7825
3.4071, 2, -37.0502, 0.663249, 20.5409, -160.572, -92.6099, 54.7825
3.41611, 2, -37.0502, 0.663255, 20.5409, -160.572, -92.6099, 54.7825
3.4242, 2, -37.0502, 0.663246, 20.5409, -160.572, -92.61, 54.7825
3.4311, 2, -37.0502, 0.663249, 20.5409, -160.572, -92.61, 54.7825
3.44011, 2, -37.0502, 0.663248, 20.5409, -160.572, -92.61, 54.7825
3.44816, 2, -37.0502, 0.66325, 20.5409, -160.572, -92.61, 54.7826
3.45512, 2, -37.0501, 0.66326, 20.5409, -160.572, -92.61, 54.7825
3.46318, 2, -37.0502, 0.663268, 20.5409, -160.572, -92.6099, 54.7825
3.4711, 2, -37.0501, 0.663269, 20.5409, -160.572, -92.61, 54.7825
3.47916, 2, -37.0501, 0.663271, 20.5408, -160.572, -92.61, 54.7825
3.48723, 2, -37.0501, 0.663265, 20.5408, -160.572, -92.61, 54.7826
3.49511, 2, -37.0501, 0.663263, 20.5408, -160.572, -92.61, 54.7826
3.5031, 2, -37.0501, 0.663261, 20.5408, -160.572, -92.61, 54.7826
3.5121, 2, -37.0501, 0.663261, 20.5408, -160.572, -92.61, 54.7826
3.5202, 2, -37.05, 0.663273, 20.5408, -160.572, -92.61, 54.7826
3.52809, 2, -37.05, 0.663278, 20.5408, -160.572, -92.61, 54.7826
3.5361, 2, -37.05, 0.663274, 20.5408, -160.572, -92.61, 54.7826
3.54416, 2, -37.0499, 0.663261, 20.5408, -160.572, -92.61, 54.7827
3.5511, 2, -37.0499, 0.663266, 20.5408, -160.572, -92.61, 54.7827
3.55923, 2, -37.0499, 0.663263, 20.5408, -160.572, -92.61, 54.7827
3.5671, 2, -37.0499, 0.663261, 20.5408, -160.572, -92.61, 54.7827
3.57515, 2, -37.0499, 0.663249, 20.5408, -160.572, -92.6101, 54.7827
3.58328, 2, -37.0499, 0.663255, 20.5408, -160.572, -92.6101, 54.7827
3.59121, 2, -37.0499, 0.663265, 20.5407, -160.572, -92.61, 54.7827
3.59925, 2, -37.0498, 0.663275, 20.5407, -160.572, -92.6101, 54.7828
3.60728, 2, -37.0498, 0.663279, 20.5407, -160.572, -92.6101, 54.7828
3.61525, 2, -37.0498, 0.663274, 20.5407, -160.572, -92.61, 54.7828
3.62316, 2, -37.0498, 0.663262, 20.5407, -160.572, -92.61, 54.7828
3.63128, 2, -37.0498, 0.663273, 20.5407, -160.572, -92.6101, 54.7827
3.63948, 2, -37.0498, 0.663266, 20.5407, -160.572, -92.6101, 54.7828
3.64828, 2, -37.0498, 0.663275, 20.5407, -160.572, -92.6101, 54.7828
3.65528, 2, -37.0498, 0.663279, 20.5407, -160.572, -92.6101, 54.7829
3.6633, 2, -37.0497, 0.663281, 20.5407, -160.572, -92.6101, 54.7829
3.67192, 2, -37.0497, 0.663275, 20.5407, -160.572, -92.61, 54.7829
3.68011, 2, -37.0497, 0.663274, 20.5407, -160.572, -92.6101, 54.7829
3.68748, 2, -37.0497, 0.663272, 20.5407, -160.572, -92.6101, 54.7829
3.69594, 2, -37.0497, 0.663273, 20.5407, -160.572, -92.6101, 54.7828
3.70414, 2, -37.0496, 0.663278, 20.5407, -160.572, -92.6101, 54.7829
3.71167, 2, -37.0496, 0.663281, 20.5407, -160.572, -92.6101, 54.7829
3.72052, 2, -37.0495, 0.663282, 20.5406, -160.572, -92.6101, 54.7829
3.72762, 4, -37.0495, 0.663282, 20.5406, -160.571, -92.6101, 54.7829
3.7362, 4, -37.0495, 0.663283, 20.5406, -160.572, -92.6101, 54.7829
3.74402, 4, -37.0495, 0.663283, 20.5406, -160.572, -92.6101, 54.7829
3.75165, 4, -37.0495, 0.663283, 20.5406, -160.572, -92.6101, 54.7829
3.76016, 4, -37.0495, 0.663283, 20.5406, -160.572, -92.6101, 54.7829
3.76709, 4, -37.0495, 0.663283, 20.5406, -160.572, -92.6101, 54.7829
3.77522, 4, -37.0494, 0.663283, 20.5406, -160.572, -92.6101, 54.7829
3.78418, 4, -37.0494, 0.663314, 20.5406, -160.571, -92.6101, 54.7829
3.7911, 4, -37.0494, 0.663304, 20.5406, -160.571, -92.6102, 54.7829
3.8003, 4, -37.0494, 0.663302, 20.5406, -160.571, -92.6101, 54.7829
3.80714, 4, -37.0493, 0.663296, 20.5406, -160.571, -92.6101, 54.7829
3.81685, 4, -37.0493, 0.663299, 20.5406, -160.571, -92.6101, 54.783
3.82494, 4, -37.0493, 0.66329, 20.5405, -160.571, -92.6101, 54.783
3.84999, 4, -37.0493, 0.663288, 20.5405, -160.571, -92.6102, 54.783
3.85124, 4, -37.0492, 0.663321, 20.5405, -160.571, -92.6102, 54.783
3.85327, 4, -37.0491, 0.663331, 20.5405, -160.571, -92.6102, 54.7829
3.85514, 4, -37.0491, 0.663331, 20.5405, -160.571, -92.6102, 54.7829
3.86566, 4, -37.0491, 0.663314, 20.5405, -160.571, -92.6102, 54.7829
3.87266, 4, -37.0491, 0.663326, 20.5405, -160.571, -92.6102, 54.7829
3.8792, 4, -37.0491, 0.663328, 20.5405, -160.571, -92.6102, 54.7829
3.88814, 4, -37.0484, 0.663193, 20.5405, -160.571, -92.6101, 54.7829
3.89511, 4, -37.0458, 0.662274, 20.5407, -160.571, -92.6102, 54.7829
3.9041, 4, -37.0402, 0.659731, 20.5415, -160.571, -92.6102, 54.7829
3.91212, 4, -37.0323, 0.655309, 20.5435, -160.571, -92.6102, 54.783
3.92012, 4, -37.023, 0.649337, 20.5474, -160.571, -92.6102, 54.783
3.92813, 4, -37.0118, 0.641606, 20.5541, -160.569, -92.6102, 54.7829
3.93608, 5, -36.9982, 0.631562, 20.5639, -160.567, -92.6101, 54.7829
3.94308, 5, -36.9827, 0.619401, 20.5769, -160.565, -92.61, 54.7828
3.9511, 5, -36.9663, 0.605603, 20.5932, -160.561, -92.6098, 54.7827
3.9601, 5, -36.9485, 0.590323, 20.6117, -160.557, -92.6096, 54.7826
3.96813, 5, -36.9284, 0.572939, 20.6321, -160.553, -92.6094, 54.7826
3.97609, 5, -36.9053, 0.553244, 20.6539, -160.548, -92.6093, 54.7824
3.98408, 5, -36.8796, 0.532381, 20.6763, -160.544, -92.6091, 54.7823
3.99108, 5, -36.8524, 0.510937, 20.699, -160.539, -92.6087, 54.7822
3.99913, 5, -36.8246, 0.488821, 20.7219, -160.534, -92.6085, 54.7821
4.00715, 5, -36.7964, 0.466584, 20.7448, -160.529, -92.608, 54.7819
4.0151, 5, -36.768, 0.444348, 20.7678, -160.524, -92.6075, 54.7817
4.02309, 5, -36.7398, 0.421917, 20.7908, -160.518, -92.607, 54.7815
4.03208, 5, -36.7115, 0.399591, 20.8138, -160.513, -92.6065, 54.7813
4.04019, 5, -36.6835, 0.377329, 20.8368, -160.508, -92.6059, 54.7811
4.04708, 5, -36.6556, 0.355063, 20.86, -160.503, -92.6053, 54.7808
4.05609, 5, -36.6274, 0.333061, 20.8833, -160.497, -92.6046, 54.7806
4.06408, 5, -36.5993, 0.311034, 20.9063, -160.492, -92.6039, 54.7804
4.07116, 5, -36.5711, 0.289146, 20.9294, -160.487, -92.6033, 54.7802
4.07918, 5, -36.5428, 0.267235, 20.9526, -160.482, -92.6025, 54.7801
4.0872, 5, -36.5149, 0.245081, 20.9757, -160.477, -92.6018, 54.7799
4.09529, 5, -36.4871, 0.223037, 20.9989, -160.472, -92.6012, 54.7799
4.10322, 5, -36.4593, 0.200987, 21.0219, -160.468, -92.6004, 54.7798
4.1112, 5, -36.4314, 0.178736, 21.0449, -160.463, -92.5997, 54.7797
4.11934, 5, -36.403, 0.156593, 21.0679, -160.458, -92.599, 54.7797
4.12714, 5, -36.3744, 0.134348, 21.0909, -160.453, -92.5983, 54.7795
4.1351, 5, -36.3458, 0.112001, 21.114, -160.449, -92.5976, 54.7793
4.14319, 5, -36.3173, 0.0898829, 21.1369, -160.444, -92.5969, 54.7791
4.15111, 5, -36.2888, 0.0676855, 21.1597, -160.439, -92.5962, 54.7789
4.1593, 5, -36.2603, 0.0455203, 21.1826, -160.435, -92.5954, 54.7787
4.16728, 5, -36.2316, 0.0235397, 21.2057, -160.43, -92.5947, 54.7783
4.17532, 5, -36.2031, 0.00144809, 21.2285, -160.425, -92.594, 54.778
4.18347, 5, -36.1746, -0.0205205, 21.2515, -160.421, -92.5933, 54.7777
4.19143, 5, -36.1461, -0.0423334, 21.2744, -160.416, -92.5926, 54.7773
4.19947, 5, -36.1177, -0.0642809, 21.2973, -160.411, -92.5919, 54.7769
4.20763, 5, -36.0892, -0.0861035, 21.3203, -160.406, -92.5912, 54.7765
4.21623, 5, -36.0608, -0.107995, 21.343, -160.401, -92.5905, 54.7759
4.22367, 5, -36.0325, -0.130093, 21.3658, -160.396, -92.5898, 54.7755
4.23218, 5, -36.004, -0.152021, 21.3886, -160.39, -92.5891, 54.775
4.24012, 5, -35.9754, -0.173981, 21.4113, -160.385, -92.5885, 54.7746
4.24766, 5, -35.9612, -0.18503, 21.4227, -160.383, -92.5878, 54.7742
4.25608, 5, -35.9179, -0.217917, 21.4569, -160.374, -92.5871, 54.7738
4.26307, 5, -35.9035, -0.228867, 21.4682, -160.372, -92.5868, 54.7735
4.27211, 5, -35.8604, -0.261891, 21.5022, -160.364, -92.5859, 54.773
4.27913, 5, -35.846, -0.272788, 21.5135, -160.361, -92.5855, 54.7728
4.28826, 5, -35.8029, -0.305459, 21.5476, -160.353, -92.5845, 54.7722
4.29508, 5, -35.7885, -0.316399, 21.5589, -160.35, -92.5841, 54.772
4.30313, 5, -35.7595, -0.338113, 21.5815, -160.345, -92.5835, 54.7717
4.31243, 5, -35.7165, -0.370754, 21.6155, -160.337, -92.5825, 54.7713
4.31913, 5, -35.7022, -0.38164, 21.6268, -160.335, -92.5822, 54.7712
4.32853, 5, -35.6592, -0.41414, 21.6607, -160.327, -92.5812, 54.7709
4.33507, 5, -35.6449, -0.425014, 21.672, -160.325, -92.5809, 54.7708
4.3455, 5, -35.6017, -0.457564, 21.7056, -160.317, -92.5799, 54.7705
4.35116, 5, -35.5873, -0.468409, 21.7168, -160.315, -92.5796, 54.7704
4.36071, 5, -35.5442, -0.501164, 21.7505, -160.307, -92.5787, 54.7702
4.36949, 5, -35.5298, -0.522835, 21.773, -160.302, -92.578, 54.7702
4.37513, 5, -35.501, -0.53366, 21.7841, -160.3, -92.5777, 54.7701
4.38407, 5, -35.4721, -0.555382, 21.8064, -160.295, -92.577, 54.7701
4.39209, 5, -35.443, -0.576963, 21.8287, -160.29, -92.5763, 54.7699
4.39907, 5, -35.414, -0.598512, 21.851, -160.285, -92.5757, 54.7699
4.40708, 5, -35.3851, -0.620205, 21.8733, -160.28, -92.5751, 54.7699
4.41608, 5, -35.3561, -0.641701, 21.8956, -160.275, -92.5744, 54.7698
4.42309, 5, -35.3271, -0.663131, 21.9177, -160.27, -92.5737, 54.7698
4.43109, 5, -35.298, -0.684702, 21.94, -160.265, -92.5731, 54.7698
4.44007, 5, -35.2689, -0.706142, 21.9622, -160.26, -92.5725, 54.7698
4.44707, 5, -35.2399, -0.727583, 21.9845, -160.254, -92.5718, 54.7698
4.45509, 5, -35.2108, -0.749126, 22.0065, -160.249, -92.5712, 54.7698
4.46407, 5, -35.1818, -0.770493, 22.0285, -160.243, -92.5705, 54.7698
4.47107, 5, -35.1528, -0.791793, 22.0505, -160.238, -92.5699, 54.7698
4.47963, 5, -35.1236, -0.813209, 22.0726, -160.232, -92.5693, 54.7698
4.48707, 5, -35.0945, -0.834472, 22.0947, -160.227, -92.5686, 54.7698
4.49506, 5, -35.0655, -0.855892, 22.1166, -160.221, -92.568, 54.7699
4.50387, 5, -35.0363, -0.877389, 22.1385, -160.215, -92.5674, 54.7699
4.51214, 5, -35.0072, -0.898675, 22.1604, -160.21, -92.5667, 54.77
4.52006, 5, -34.9779, -0.920003, 22.1822, -160.204, -92.566, 54.7701
4.52824, 5, -34.9487, -0.941386, 22.2041, -160.199, -92.5654, 54.7701
4.53588, 5, -34.9197, -0.962569, 22.226, -160.194, -92.5647, 54.7701
4.54409, 5, -34.8906, -0.983865, 22.2477, -160.188, -92.5641, 54.7702
4.55207, 5, -34.8614, -1.00518, 22.2696, -160.183, -92.5634, 54.7702
4.56089, 5, -34.832, -1.02626, 22.2914, -160.178, -92.5627, 54.7702
4.56707, 5, -34.8026, -1.04738, 22.3131, -160.173, -92.5621, 54.7703
4.57694, 5, -34.7734, -1.06855, 22.3349, -160.168, -92.5614, 54.7704
4.58317, 5, -34.7442, -1.08965, 22.3564, -160.163, -92.5607, 54.7704
4.59125, 5, -34.7149, -1.11084, 22.378, -160.158, -92.5601, 54.7705
4.59921, 5, -34.6856, -1.13205, 22.3997, -160.153, -92.5594, 54.7705
4.60719, 5, -34.6562, -1.15315, 22.4213, -160.148, -92.5587, 54.7706
4.61524, 5, -34.6269, -1.17431, 22.4429, -160.143, -92.5581, 54.7707
4.62327, 5, -34.5975, -1.19539, 22.4644, -160.138, -92.5574, 54.7708
4.63107, 5, -34.5681, -1.21647, 22.4858, -160.133, -92.5567, 54.7709
4.63934, 5, -34.5386, -1.23767, 22.5071, -160.127, -92.556, 54.7711
4.6471, 5, -34.5091, -1.25869, 22.5286, -160.122, -92.5554, 54.7713
4.65597, 5, -34.4797, -1.27967, 22.5501, -160.117, -92.5546, 54.7717
4.66411, 5, -34.4503, -1.30071, 22.5714, -160.111, -92.554, 54.772
4.6712, 5, -34.4208, -1.32158, 22.5928, -160.106, -92.5533, 54.7724
4.67927, 5, -34.3913, -1.34246, 22.6142, -160.1, -92.5526, 54.7729
4.68773, 5, -34.3616, -1.36347, 22.6355, -160.094, -92.5519, 54.7734
4.69795, 5, -34.3319, -1.38433, 22.657, -160.089, -92.5513, 54.7741
4.70416, 5, -34.3024, -1.40515, 22.6781, -160.083, -92.5506, 54.7749
4.71159, 5, -34.2728, -1.42608, 22.6993, -160.077, -92.5499, 54.7758
4.72015, 5, -34.2433, -1.44694, 22.7205, -160.071, -92.5492, 54.7768
4.72768, 5, -34.2136, -1.46777, 22.7416, -160.065, -92.5485, 54.7779
4.73616, 5, -34.1839, -1.48868, 22.763, -160.06, -92.5478, 54.7791
4.74367, 5, -34.1542, -1.5095, 22.7841, -160.054, -92.5471, 54.7804
4.7527, 5, -34.1246, -1.53024, 22.8051, -160.048, -92.5464, 54.7817
4.76007, 5, -34.0949, -1.55103, 22.8263, -160.043, -92.5457, 54.783
4.7671, 5, -34.0801, -1.56138, 22.8368, -160.04, -92.5453, 54.7838
4.77616, 5, -34.0354, -1.59239, 22.8684, -160.032, -92.5442, 54.7858
4.78305, 5, -34.0206, -1.60279, 22.879, -160.029, -92.5439, 54.7865
4.79114, 5, -33.9909, -1.62354, 22.9, -160.024, -92.5432, 54.7879
4.80024, 5, -33.9462, -1.6544, 22.9315, -160.016, -92.5421, 54.7901
4.80706, 5, -33.9313, -1.66474, 22.942, -160.013, -92.5417, 54.7908
4.81635, 5, -33.8864, -1.69564, 22.9735, -160.005, -92.5406, 54.7931
4.82305, 5, -33.8714, -1.70589, 22.984, -160.003, -92.5403, 54.7938
4.83292, 5, -33.8267, -1.73688, 23.0152, -159.995, -92.5393, 54.7962
4.84053, 5, -33.7969, -1.75742, 23.036, -159.989, -92.5385, 54.7977
4.84721, 5, -33.782, -1.76766, 23.0463, -159.986, -92.5381, 54.7984
4.85797, 5, -33.7371, -1.79853, 23.0776, -159.978, -92.5371, 54.8007
4.86464, 5, -33.7071, -1.81909, 23.0984, -159.972, -92.5364, 54.8023
4.87267, 5, -33.6772, -1.83959, 23.1191, -159.967, -92.5356, 54.8038
4.88095, 5, -33.6623, -1.84986, 23.1295, -159.961, -92.5349, 54.8053
4.88805, 5, -33.6324, -1.87039, 23.1501, -159.958, -92.5345, 54.8061
4.89607, 5, -33.6025, -1.89084, 23.1707, -159.952, -92.5338, 54.8076
4.90405, 5, -33.5725, -1.91124, 23.1914, -159.946, -92.5331, 54.8092
4.91214, 5, -33.5425, -1.93167, 23.2121, -159.94, -92.5324, 54.8108
4.92005, 5, -33.5126, -1.95209, 23.2326, -159.934, -92.5316, 54.8124
4.92805, 5, -33.4826, -1.97257, 23.2532, -159.928, -92.5308, 54.814
4.93607, 5, -33.4526, -1.99313, 23.2739, -159.922, -92.53, 54.8156
4.94425, 5, -33.4225, -2.01368, 23.2944, -159.916, -92.5293, 54.8172
4.95502, 5, -33.3775, -2.04467, 23.3256, -159.907, -92.5279, 54.8192
4.9601, 5, -33.3625, -2.05508, 23.3359, -159.904, -92.5274, 54.8199
4.96805, 5, -33.3326, -2.07588, 23.3565, -159.899, -92.5263, 54.821
4.97606, 5, -33.3029, -2.09692, 23.3775, -159.893, -92.525, 54.8218
4.98413, 6, -33.2731, -2.11814, 23.3985, -159.887, -92.5234, 54.8225
4.99357, 6, -33.2432, -2.13933, 23.4198, -159.877, -92.5207, 54.8232
5.0001, 6, -33.2137, -2.16086, 23.4413, -159.874, -92.5196, 54.8233
5.00811, 6, -33.1842, -2.18262, 23.4628, -159.868, -92.5174, 54.8234
5.018, 6, -33.1402, -2.21562, 23.4954, -159.858, -92.5136, 54.8234
5.02404, 6, -33.1255, -2.22681, 23.5063, -159.854, -92.5123, 54.8234
5.0321, 6, -33.0962, -2.24923, 23.5284, -159.847, -92.5093, 54.8233
5.03907, 6, -33.0672, -2.27182, 23.5507, -159.84, -92.5061, 54.823
5.0484, 6, -33.0382, -2.29474, 23.5731, -159.833, -92.5027, 54.8227
5.05606, 6, -33.0093, -2.31773, 23.5957, -159.825, -92.4992, 54.8222
5.06412, 6, -32.9806, -2.34114, 23.6185, -159.817, -92.4954, 54.8214
5.07106, 6, -32.9518, -2.36477, 23.6415, -159.808, -92.4914, 54.8204
5.08025, 7, -32.923, -2.38844, 23.6646, -159.799, -92.4872, 54.8193
5.08711, 7, -32.8945, -2.41251, 23.6877, -159.79, -92.4828, 54.8181
5.09526, 7, -32.8661, -2.43666, 23.7111, -159.781, -92.4783, 54.8166
5.10345, 7, -32.8378, -2.4611, 23.7347, -159.772, -92.4735, 54.8143
5.11117, 7, -32.8096, -2.4859, 23.7585, -159.763, -92.4685, 54.8112
5.11916, 7, -32.7813, -2.51071, 23.7825, -159.754, -92.4633, 54.8076
5.12759, 7, -32.7531, -2.53588, 23.8065, -159.744, -92.4579, 54.8034
5.13605, 7, -32.7253, -2.56126, 23.8308, -159.735, -92.4522, 54.7988
5.14427, 7, -32.6974, -2.58688, 23.8552, -159.726, -92.4464, 54.7937
5.15223, 7, -32.6697, -2.61284, 23.8798, -159.716, -92.4403, 54.7883
5.15914, 7, -32.642, -2.63889, 23.9045, -159.706, -92.434, 54.7825
5.16714, 7, -32.6144, -2.66518, 23.9295, -159.696, -92.4275, 54.7764
5.17601, 7, -32.587, -2.69173, 23.9546, -159.686, -92.4206, 54.77
5.18334, 8, -32.5596, -2.71863, 23.98, -159.675, -92.4134, 54.7632
5.19174, 8, -32.5323, -2.74569, 24.0055, -159.664, -92.4058, 54.7562
5.20036, 8, -32.5051, -2.77295, 24.031, -159.653, -92.3979, 54.7489
5.20745, 8, -32.4779, -2.80042, 24.0567, -159.642, -92.3896, 54.7411
5.21703, 8, -32.4509, -2.8281, 24.0828, -159.63, -92.381, 54.7331
5.22433, 8, -32.4239, -2.85614, 24.1091, -159.619, -92.372, 54.7248
5.2317, 8, -32.3971, -2.88421, 24.1353, -159.607, -92.3628, 54.7162
5.24128, 8, -32.3705, -2.91265, 24.1617, -159.596, -92.3534, 54.7072
5.25332, 8, -32.3439, -2.95571, 24.2018, -159.578, -92.3393, 54.6932
5.25563, 8, -32.3305, -2.95571, 24.2018, -159.578, -92.3345, 54.6883
5.26426, 8, -32.2907, -2.99929, 24.2422, -159.561, -92.325, 54.6783
5.27106, 8, -32.2775, -3.0139, 24.2558, -159.555, -92.3201, 54.6731
5.28041, 9, -32.2382, -3.05811, 24.2968, -159.536, -92.3054, 54.6573
5.28704, 9, -32.2251, -3.07299, 24.3105, -159.529, -92.3004, 54.6519
5.29623, 9, -32.1861, -3.11797, 24.3519, -159.51, -92.2851, 54.6354
5.30303, 9, -32.173, -3.13305, 24.3657, -159.503, -92.2798, 54.6299
5.31228, 9, -32.134, -3.17872, 24.4077, -159.483, -92.2636, 54.6131
5.3204, 9, -32.1084, -3.20945, 24.4359, -159.469, -92.2523, 54.6019
5.32704, 9, -32.0955, -3.22494, 24.4501, -159.463, -92.2465, 54.5962
5.33653, 9, -32.057, -3.27164, 24.4926, -159.443, -92.2283, 54.5788
5.34552, 9, -32.0316, -3.30313, 24.5213, -159.429, -92.2158, 54.5669
5.35105, 9, -32.0188, -3.31894, 24.5358, -159.422, -92.2096, 54.5608
5.35909, 9, -31.9932, -3.35079, 24.5647, -159.408, -92.197, 54.5485
5.36868, 9, -31.9554, -3.39893, 24.6084, -159.387, -92.178, 54.5295
5.37746, 9, -31.9429, -3.41511, 24.6378, -159.372, -92.1652, 54.5163
5.38307, 10, -31.9179, -3.44772, 24.6526, -159.364, -92.1587, 54.5095
5.39317, 10, -31.8806, -3.49706, 24.6971, -159.342, -92.1391, 54.4886
5.39914, 10, -31.8682, -3.51362, 24.712, -159.334, -92.1323, 54.4813
5.40808, 10, -31.8433, -3.54689, 24.742, -159.319, -92.1186, 54.4667
5.41604, 10, -31.8185, -3.58047, 24.7722, -159.304, -92.1044, 54.4518
5.42408, 10, -31.794, -3.6142, 24.8025, -159.289, -92.0897, 54.4368
5.43203, 10, -31.7695, -3.64819, 24.833, -159.274, -92.0746, 54.422
5.44023, 10, -31.7452, -3.68241, 24.8637, -159.259, -92.0595, 54.407
5.44701, 10, -31.721, -3.71695, 24.8946, -159.243, -92.0443, 54.3919
5.45609, 10, -31.6968, -3.75154, 24.9256, -159.226, -92.0292, 54.3765
5.46403, 10, -31.6727, -3.78638, 24.9568, -159.21, -92.014, 54.361
5.47203, 10, -31.6487, -3.82157, 24.9883, -159.193, -91.9987, 54.3452
5.47899, 11, -31.6246, -3.85703, 25.0198, -159.177, -91.9831, 54.3289
5.48803, 11, -31.6007, -3.89261, 25.0514, -159.161, -91.9671, 54.3121
5.49604, 11, -31.5769, -3.92839, 25.0834, -159.144, -91.9505, 54.2947
5.50303, 11, -31.5531, -3.96464, 25.1155, -159.127, -91.9335, 54.2773
5.51155, 11, -31.5294, -4.001, 25.1475, -159.11, -91.9163, 54.2595
5.51903, 11, -31.5058, -4.03758, 25.1799, -159.093, -91.8991, 54.2417
5.52803, 11, -31.4825, -4.07455, 25.2126, -159.075, -91.8819, 54.2239
5.5362, 11, -31.4591, -4.11175, 25.2453, -159.057, -91.8646, 54.2059
5.54385, 11, -31.4358, -4.14906, 25.2782, -159.039, -91.8471, 54.1878
5.55203, 11, -31.4127, -4.18673, 25.3113, -159.021, -91.8292, 54.1693
5.56007, 11, -31.3894, -4.22473, 25.3446, -159.004, -91.8108, 54.1505
5.56805, 11, -31.3663, -4.26285, 25.3779, -158.986, -91.7919, 54.1311
5.57604, 11, -31.3434, -4.3012, 25.4116, -158.967, -91.7726, 54.1112
5.58495, 12, -31.3207, -4.33989, 25.4454, -158.949, -91.7535, 54.0909
5.59203, 12, -31.298, -4.3788, 25.4793, -158.929, -91.7345, 54.0705
5.60003, 12, -31.2755, -4.41794, 25.5134, -158.91, -91.7154, 54.05
5.60946, 12, -31.2532, -4.45733, 25.5478, -158.891, -91.6961, 54.0296
5.61521, 12, -31.2306, -4.49689, 25.5823, -158.872, -91.6763, 54.009
5.62349, 12, -31.2082, -4.53669, 25.6169, -158.853, -91.656, 53.9883
5.63117, 12, -31.186, -4.57677, 25.6518, -158.834, -91.6353, 53.9671
5.63937, 12, -31.1639, -4.61706, 25.6868, -158.814, -91.6146, 53.9455
5.64809, 12, -31.1419, -4.65759, 25.7219, -158.794, -91.5939, 53.9234
5.65604, 12, -31.1199, -4.69837, 25.7573, -158.773, -91.5732, 53.9009
5.66312, 12, -31.0982, -4.73937, 25.7928, -158.753, -91.5522, 53.8783
5.67112, 12, -31.0763, -4.78075, 25.8283, -158.733, -91.5307, 53.8559
5.67935, 13, -31.0543, -4.82234, 25.8642, -158.713, -91.5085, 53.8332
5.68729, 13, -31.0327, -4.86417, 25.9002, -158.693, -91.486, 53.8103
5.69542, 13, -31.0111, -4.90625, 25.9364, -158.672, -91.4636, 53.7871
5.70365, 13, -30.9896, -4.94865, 25.9728, -158.651, -91.4414, 53.7634
5.71206, 13, -30.9682, -4.99129, 26.0093, -158.629, -91.419, 53.7392
5.72017, 13, -30.947, -5.03415, 26.046, -158.608, -91.3964, 53.7146
5.72769, 13, -30.9258, -5.07729, 26.0829, -158.587, -91.3732, 53.6899
5.73652, 13, -30.9045, -5.12059, 26.12, -158.566, -91.3493, 53.6655
5.74451, 13, -30.8834, -5.16415, 26.1572, -158.544, -91.3256, 53.6407
5.75259, 13, -30.8625, -5.20797, 26.1946, -158.522, -91.3018, 53.6157
5.75957, 13, -30.8521, -5.22992, 26.2135, -158.511, -91.29, 53.5902
5.76803, 13, -30.8208, -5.2961, 26.27, -158.477, -91.254, 53.5642
5.77506, 13, -30.8105, -5.31835, 26.289, -158.466, -91.2418, 53.551
5.78302, 14, -30.79, -5.36291, 26.3272, -158.444, -91.2168, 53.5245
5.79207, 14, -30.7593, -5.43014, 26.3844, -158.411, -91.1789, 53.4853
5.79903, 14, -30.749, -5.45271, 26.4037, -158.4, -91.1664, 53.4722
5.80824, 14, -30.7185, -5.52083, 26.4616, -158.365, -91.1289, 53.4328
5.81501, 14, -30.7084, -5.54367, 26.4809, -158.353, -91.1163, 53.4194
5.8252, 14, -30.678, -5.61265, 26.5393, -158.318, -91.0774, 53.3783
5.83123, 14, -30.668, -5.63572, 26.5589, -158.307, -91.064, 53.3642
5.84045, 14, -30.648, -5.70542, 26.6178, -158.272, -91.0242, 53.3217
5.84704, 14, -30.6281, -5.72881, 26.6376, -158.26, -91.011, 53.3076
5.85658, 14, -30.5983, -5.79928, 26.6971, -158.224, -90.9712, 53.2655
5.86464, 14, -30.5785, -5.84653, 26.7369, -158.2, -90.9441, 53.2371
5.87348, 14, -30.559, -5.89403, 26.777, -158.176, -90.9162, 53.2082
5.88079, 15, -30.5395, -5.94173, 26.8172, -158.152, -90.8884, 53.1787
5.88865, 15, -30.5297, -5.96565, 26.8373, -158.128, -90.8609, 53.1489
5.89602, 15, -30.5103, -6.01362, 26.8779, -158.116, -90.8471, 53.1341
5.90503, 15, -30.4815, -6.08608, 26.939, -158.078, -90.8054, 53.0896
5.91102, 15, -30.472, -6.11034, 26.9595, -158.065, -90.7911, 53.0747
5.92001, 15, -30.4528, -6.15902, 27.0005, -158.04, -90.7621, 53.0444
5.92708, 15, -30.4337, -6.20797, 27.0417, -158.015, -90.7334, 53.0136
5.9375, 15, -30.4148, -6.28193, 27.1038, -157.977, -90.6903, 52.9667
5.94406, 15, -30.396, -6.30674, 27.1246, -157.965, -90.6757, 52.951
5.95103, 15, -30.3772, -6.35656, 27.1662, -157.939, -90.646, 52.9199
5.96002, 15, -30.3586, -6.40665, 27.208, -157.912, -90.6158, 52.8884
5.96806, 15, -30.3401, -6.45712, 27.2501, -157.886, -90.5858, 52.8566
5.97605, 15, -30.3218, -6.5078, 27.2923, -157.86, -90.556, 52.8241
5.98402, 16, -30.3034, -6.55871, 27.3347, -157.835, -90.526, 52.7911
5.99202, 16, -30.285, -6.60987, 27.3773, -157.808, -90.4952, 52.7585
6.00009, 16, -30.2667, -6.66131, 27.4202, -157.781, -90.464, 52.7259
6.00806, 16, -30.2486, -6.71286, 27.4632, -157.754, -90.433, 52.6932
6.01608, 16, -30.2305, -6.76461, 27.5063, -157.728, -90.4021, 52.66
6.02506, 16, -30.2124, -6.81664, 27.5497, -157.701, -90.3708, 52.6261
6.03216, 16, -30.1945, -6.86876, 27.5932, -157.674, -90.3385, 52.5919
6.04009, 16, -30.1767, -6.92118, 27.6371, -157.646, -90.3061, 52.5582
6.04801, 16, -30.159, -6.97384, 27.681, -157.618, -90.2741, 52.5243
6.05603, 16, -30.1413, -7.02678, 27.725, -157.591, -90.242, 52.4901
6.06407, 16, -30.1236, -7.08002, 27.7693, -157.564, -90.2091, 52.4552
6.07202, 16, -30.106, -7.13353, 27.8136, -157.536, -90.1758, 52.4199
6.07998, 17, -30.0886, -7.18743, 27.858, -157.508, -90.1428, 52.385
6.08801, 17, -30.0713, -7.2416, 27.9028, -157.479, -90.1098, 52.3501
6.09608, 17, -30.054, -7.29603, 27.9476, -157.451, -90.0763, 52.3149
6.10408, 17, -30.0369, -7.35073, 27.9927, -157.423, -90.0419, 52.279
6.11201, 17, -30.0199, -7.40568, 28.0378, -157.394, -90.0078, 52.2425
6.11918, 17, -30.003, -7.46075, 28.0832, -157.365, -89.974, 52.206
6.1281, 17, -29.9861, -7.51594, 28.1288, -157.335, -89.9399, 52.1698
6.13762, 17, -29.9691, -7.57142, 28.1745, -157.306, -89.9048, 52.1333
6.14401, 17, -29.9524, -7.62704, 28.2205, -157.278, -89.8698, 52.0963
6.15208, 17, -29.9356, -7.68284, 28.2667, -157.249, -89.8351, 52.0587
6.16001, 17, -29.9191, -7.73889, 28.3131, -157.219, -89.8001, 52.0213
6.168, 17, -29.9026, -7.79523, 28.3595, -157.188, -89.7641, 51.984
6.17826, 18, -29.8862, -7.8518, 28.4061, -157.159, -89.728, 51.9464
6.18408, 18, -29.87, -7.90876, 28.4529, -157.129, -89.6925, 51.9081
6.19201, 18, -29.8539, -7.96603, 28.4997, -157.099, -89.6568, 51.8692
6.20025, 18, -29.8378, -8.02361, 28.5467, -157.068, -89.6202, 51.8306
6.20746, 18, -29.8216, -8.08141, 28.594, -157.037, -89.5833, 51.7922
6.21543, 18, -29.8055, -8.13952, 28.6415, -157.006, -89.5469, 51.7533
6.22424, 18, -29.7896, -8.19779, 28.689, -156.976, -89.5103, 51.7138
6.23197, 18, -29.7737, -8.25623, 28.7368, -156.945, -89.4726, 51.674
6.23979, 18, -29.7579, -8.31487, 28.7849, -156.913, -89.4348, 51.6345
6.24846, 18, -29.7422, -8.37359, 28.833, -156.882, -89.3975, 51.595
6.25563, 18, -29.7266, -8.43248, 28.8814, -156.851, -89.36, 51.5551
6.26418, 18, -29.7112, -8.49154, 28.93, -156.82, -89.3215, 51.5145
6.27234, 18, -29.7034, -8.52121, 28.9543, -156.804, -89.3022, 51.4942
6.27896, 19, -29.6881, -8.5807, 29.0031, -156.771, -89.264, 51.4539
6.28806, 19, -29.6649, -8.67052, 29.0766, -156.723, -89.2064, 51.3935
6.295, 19, -29.6572, -8.70063, 29.1012, -156.708, -89.1868, 51.3732
6.30408, 19, -29.6344, -8.7914, 29.1749, -156.66, -89.1279, 51.3113
6.31101, 19, -29.6268, -8.82182, 29.1996, -156.643, -89.1086, 51.2908
6.32114, 19, -29.6043, -8.91351, 29.274, -156.594, -89.0498, 51.2295
6.32862, 19, -29.5893, -8.97484, 29.3238, -156.562, -89.0099, 51.188
6.33736, 19, -29.5746, -9.03643, 29.3738, -156.529, -88.9704, 51.1457
6.343, 19, -29.5672, -9.06728, 29.3988, -156.512, -88.9506, 51.1244
6.35261, 19, -29.5453, -9.15995, 29.4744, -156.462, -88.8903, 51.0611
6.36057, 19, -29.5307, -9.22199, 29.5249, -156.429, -88.8498, 51.0185
6.36863, 19, -29.5161, -9.28417, 29.5757, -156.396, -88.8096, 50.9753
6.37782, 20, -29.5015, -9.34653, 29.6267, -156.362, -88.7693, 50.9318
6.38459, 20, -29.4943, -9.37784, 29.6522, -156.327, -88.728, 50.8887
6.39259, 20, -29.4799, -9.4407, 29.7034, -156.31, -88.7075, 50.8454
6.39999, 20, -29.4656, -9.50386, 29.7546, -156.277, -88.6667, 50.8235
6.40704, 20, -29.4515, -9.56724, 29.806, -156.243, -88.6255, 50.7791
6.416, 20, -29.4373, -9.63104, 29.8575, -156.208, -88.5835, 50.7346
6.42404, 20, -29.4233, -9.69505, 29.9092, -156.173, -88.5418, 50.6908
6.43597, 20, -29.4025, -9.79156, 29.9871, -156.121, -88.4795, 50.6241
6.44142, 20, -29.3888, -9.85611, 30.0393, -156.087, -88.4368, 50.5789
6.44706, 20, -29.3819, -9.88847, 30.0655, -156.069, -88.4156, 50.5564
6.45608, 20, -29.3682, -9.95328, 30.118, -156.033, -88.3735, 50.5117
6.46399, 20, -29.3544, -10.0182, 30.1705, -155.998, -88.3308, 50.467
6.472, 20, -29.3408, -10.0833, 30.2234, -155.963, -88.2874, 50.4213
6.47906, 21, -29.3273, -10.1487, 30.2764, -155.927, -88.2444, 50.3755
6.48806, 21, -29.3138, -10.2143, 30.3296, -155.891, -88.2017, 50.3302
6.496, 21, -29.3005, -10.28, 30.3828, -155.856, -88.158, 50.2846
6.503, 21, -29.2872, -10.3461, 30.4362, -155.82, -88.1144, 50.2385
6.51204, 21, -29.2738, -10.4125, 30.4897, -155.784, -88.0711, 50.1922
6.521, 21, -29.2607, -10.479, 30.5433, -155.747, -88.0272, 50.1465
6.52727, 21, -29.2478, -10.5458, 30.5971, -155.711, -87.9826, 50.1006
6.53605, 21, -29.2348, -10.6129, 30.6511, -155.675, -87.9387, 50.054
6.54401, 21, -29.2218, -10.6802, 30.7053, -155.638, -87.8945, 50.0071
6.552, 21, -29.2089, -10.7476, 30.7597, -155.6, -87.8493, 49.9607
6.56006, 21, -29.1959, -10.8151, 30.8143, -155.564, -87.8047, 49.9142
6.56799, 21, -29.1829, -10.8829, 30.8689, -155.527, -87.7601, 49.8669
6.57687, 22, -29.1702, -10.9509, 30.9238, -155.489, -87.7144, 49.8194
6.583, 22, -29.1575, -11.0191, 30.9789, -155.451, -87.6691, 49.7725
6.59199, 22, -29.1449, -11.0875, 31.034, -155.414, -87.6242, 49.7252
6.60137, 22, -29.1324, -11.1561, 31.0893, -155.376, -87.5782, 49.6772
6.60716, 22, -29.1199, -11.225, 31.1447, -155.338, -87.5321, 49.629
6.61509, 22, -29.1076, -11.2941, 31.2001, -155.299, -87.4864, 49.5815
6.6231, 22, -29.0955, -11.3634, 31.2559, -155.262, -87.44, 49.5336
6.63274, 22, -29.0834, -11.4329, 31.3118, -155.223, -87.3933, 49.4849
6.64053, 22, -29.0713, -11.5027, 31.3678, -155.184, -87.3473, 49.4363
6.6477, 22, -29.0593, -11.5726, 31.4241, -155.146, -87.3008, 49.3881
6.656, 22, -29.0473, -11.6428, 31.4805, -155.107, -87.2537, 49.3396
6.66405, 22, -29.0353, -11.7131, 31.537, -155.068, -87.2073, 49.2903
6.67201, 22, -29.0234, -11.7837, 31.5937, -155.028, -87.1602, 49.2414
6.68004, 23, -29.0116, -11.8544, 31.6506, -154.989, -87.1124, 49.1928
6.68728, 23, -28.9998, -11.9253, 31.7074, -154.95, -87.0656, 49.1436
6.69623, 23, -28.9881, -11.9963, 31.7645, -154.91, -87.0182, 49.094
6.70343, 23, -28.9765, -12.0676, 31.8216, -154.87, -86.9701, 49.0451
6.71137, 23, -28.9648, -12.139, 31.8789, -154.831, -86.9227, 48.9962
6.72035, 23, -28.9532, -12.2106, 31.9364, -154.791, -86.8748, 48.9467
6.72791, 23, -28.9419, -12.2824, 31.994, -154.751, -86.826, 48.8967
6.73553, 23, -28.9306, -12.3544, 32.0518, -154.711, -86.7779, 48.8473
6.74416, 23, -28.9193, -12.4267, 32.1098, -154.671, -86.7295, 48.7978
6.75162, 23, -28.9082, -12.4991, 32.1679, -154.63, -86.6803, 48.7476
6.76016, 23, -28.8971, -12.5718, 32.2261, -154.589, -86.6317, 48.6976
6.76775, 23, -28.8915, -12.6082, 32.2553, -154.568, -86.6074, 48.6728
6.77631, 24, -28.8748, -12.7176, 32.343, -154.507, -86.5331, 48.5978
6.78303, 24, -28.8693, -12.7541, 32.3722, -154.486, -86.5087, 48.5725
6.79213, 24, -28.8529, -12.8639, 32.4603, -154.424, -86.4351, 48.4968
6.79997, 24, -28.8474, -12.9374, 32.519, -154.383, -86.3851, 48.4466
6.8082, 24, -28.8312, -13.0111, 32.578, -154.341, -86.3359, 48.3958
6.81498, 24, -28.8258, -13.048, 32.6076, -154.32, -86.3112, 48.3702
6.82482, 24, -28.8095, -13.1591, 32.6964, -154.258, -86.2357, 48.2942
6.83473, 24, -28.7987, -13.2334, 32.7559, -154.216, -86.1862, 48.2436
6.839, 24, -28.7934, -13.2707, 32.7857, -154.195, -86.1613, 48.218
6.84937, 24, -28.7776, -13.3826, 32.8751, -154.131, -86.0853, 48.1411
6.85505, 24, -28.7723, -13.4199, 32.905, -154.111, -86.0603, 48.1158
6.86476, 24, -28.7564, -13.5324, 32.9949, -154.046, -85.9846, 48.0394
6.8734, 24, -28.746, -13.6075, 33.0549, -154.004, -85.9337, 47.9879
6.87905, 25, -28.7408, -13.6451, 33.085, -153.983, -85.9086, 47.9624
6.88869, 25, -28.7303, -13.758, 33.1753, -153.918, -85.8323, 47.8866
6.89953, 25, -28.7147, -13.8336, 33.2357, -153.875, -85.7813, 47.8354
6.90293, 25, -28.7096, -13.8715, 33.266, -153.853, -85.756, 47.8096
6.91201, 25, -28.6994, -13.9473, 33.3266, -153.811, -85.7047, 47.7585
6.92002, 25, -28.6893, -14.0233, 33.3872, -153.767, -85.6531, 47.7079
6.92714, 25, -28.6791, -14.0995, 33.4482, -153.723, -85.6021, 47.6566
6.93596, 25, -28.6691, -14.1759, 33.5091, -153.68, -85.5506, 47.605
6.94404, 25, -28.659, -14.2525, 33.5703, -153.636, -85.499, 47.5542
6.95198, 25, -28.649, -14.3291, 33.6315, -153.591, -85.4478, 47.5033
6.96, 25, -28.639, -14.4059, 33.6928, -153.548, -85.3957, 47.4517
6.96803, 25, -28.6293, -14.4828, 33.7542, -153.504, -85.3437, 47.4002
6.97503, 26, -28.6195, -14.5599, 33.8156, -153.459, -85.2923, 47.3492
6.98404, 26, -28.6096, -14.6371, 33.8772, -153.415, -85.2399, 47.2981
6.99199, 26, -28.5999, -14.7144, 33.939, -153.371, -85.1879, 47.2463
7.00001, 26, -28.5903, -14.7919, 34.0007, -153.325, -85.1359, 47.1952
7.00798, 26, -28.5806, -14.8695, 34.0627, -153.28, -85.0831, 47.1442
7.01605, 26, -28.5709, -14.9472, 34.1248, -153.236, -85.0308, 47.0927
7.0232, 26, -28.5611, -15.0251, 34.187, -153.191, -84.9784, 47.0411
7.03102, 26, -28.5515, -15.1031, 34.2492, -153.145, -84.9253, 46.9905
7.04004, 26, -28.5419, -15.1811, 34.3117, -153.101, -84.873, 46.9396
7.048, 26, -28.5323, -15.2593, 34.374, -153.055, -84.8199, 46.8883
7.05601, 26, -28.5227, -15.3377, 34.4366, -153.009, -84.7668, 46.8374
7.064, 26, -28.5132, -15.4162, 34.4992, -152.964, -84.7143, 46.7872
7.07327, 27, -28.5038, -15.4948, 34.5619, -152.918, -84.661, 46.7364
7.07903, 27, -28.4943, -15.5736, 34.6247, -152.872, -84.6081, 46.6851
7.08798, 27, -28.4849, -15.6526, 34.6875, -152.826, -84.5551, 46.6344
7.09735, 27, -28.4756, -15.7317, 34.7505, -152.78, -84.5013, 46.5839
7.10397, 27, -28.4664, -15.8109, 34.8137, -152.733, -84.4482, 46.5327
7.11205, 27, -28.4572, -15.8902, 34.8769, -152.687, -84.3948, 46.4816
7.11998, 27, -28.4481, -15.9696, 34.9403, -152.641, -84.3408, 46.4311
7.13142, 27, -28.4344, -16.0889, 35.0354, -152.57, -84.2609, 46.3546
7.13511, 27, -28.4299, -16.1288, 35.0671, -152.547, -84.2338, 46.329
7.14306, 27, -28.4207, -16.2085, 35.1306, -152.501, -84.1799, 46.2782
7.15198, 27, -28.4115, -16.2884, 35.1941, -152.453, -84.1267, 46.228
7.16004, 27, -28.4023, -16.3683, 35.2578, -152.406, -84.0722, 46.1772
7.16797, 27, -28.3932, -16.4484, 35.3215, -152.359, -84.0184, 46.1264
7.17522, 28, -28.384, -16.5286, 35.3854, -152.311, -83.9646, 46.0765
7.18311, 28, -28.3748, -16.609, 35.4494, -152.264, -83.9101, 46.0266
7.19119, 28, -28.3656, -16.6893, 35.5135, -152.217, -83.8565, 45.9764
7.19932, 28, -28.3566, -16.7698, 35.5777, -152.169, -83.8024, 45.9261
7.20736, 28, -28.3476, -16.8504, 35.6419, -152.121, -83.7481, 45.8767
7.21542, 28, -28.3385, -16.9311, 35.7061, -152.074, -83.6943, 45.8273
7.22382, 28, -28.3294, -17.0118, 35.7704, -152.025, -83.6396, 45.7775
7.23207, 28, -28.3205, -17.0925, 35.8346, -151.977, -83.5854, 45.7282
7.23953, 28, -28.3116, -17.1735, 35.899, -151.93, -83.5315, 45.6794
7.24815, 28, -28.3026, -17.2544, 35.9635, -151.88, -83.4765, 45.6304
7.25555, 28, -28.2936, -17.3354, 36.028, -151.832, -83.4225, 45.5812
7.26403, 28, -28.2848, -17.4166, 36.0927, -151.784, -83.3679, 45.5326
7.27199, 28, -28.2759, -17.4978, 36.1574, -151.735, -83.313, 45.4846
7.27956, 29, -28.2714, -17.5385, 36.1898, -151.71, -83.286, 45.4604
7.28807, 29, -28.2578, -17.6606, 36.2871, -151.638, -83.2036, 45.3877
7.29596, 29, -28.2488, -17.7421, 36.3519, -151.588, -83.149, 45.3399
7.30413, 29, -28.2398, -17.8236, 36.4167, -151.54, -83.0942, 45.2925
7.31098, 29, -28.2353, -17.8644, 36.4492, -151.515, -83.0665, 45.2687
7.32081, 29, -28.2218, -17.9868, 36.5464, -151.441, -82.9846, 45.1968
7.33113, 29, -28.2127, -18.0685, 36.6115, -151.392, -82.9294, 45.1498
7.33633, 29, -28.2038, -18.1503, 36.6766, -151.343, -82.8744, 45.1031
7.34296, 29, -28.1994, -18.1912, 36.7092, -151.318, -82.8473, 45.0796
7.35102, 29, -28.1905, -18.273, 36.7744, -151.268, -82.7922, 45.0324
7.36054, 29, -28.1771, -18.396, 36.8723, -151.194, -82.7098, 44.9629
7.3712, 29, -28.1682, -18.478, 36.9376, -151.143, -82.6551, 44.917
7.37491, 30, -28.1639, -18.519, 36.9703, -151.119, -82.6273, 44.894
7.38457, 30, -28.1507, -18.6421, 37.0682, -151.044, -82.5452, 44.8246
7.39353, 30, -28.1462, -18.6833, 37.1335, -150.993, -82.4897, 44.7793
7.40197, 30, -28.1329, -18.8064, 37.1988, -150.944, -82.4345, 44.7343
7.40796, 30, -28.1285, -18.8475, 37.2315, -150.918, -82.4072, 44.7118
7.41598, 30, -28.1196, -18.9299, 37.2969, -150.867, -82.3521, 44.6665
7.4231, 30, -28.1106, -19.0123, 37.3623, -150.818, -82.2966, 44.6218
7.43194, 30, -28.1015, -19.0947, 37.4278, -150.767, -82.2417, 44.578
7.43996, 30, -28.0925, -19.1772, 37.4933, -150.716, -82.186, 44.5343
7.44798, 30, -28.0835, -19.2597, 37.5589, -150.666, -82.1309, 44.4903
7.45596, 30, -28.0746, -19.3421, 37.6245, -150.615, -82.0761, 44.4466
7.46403, 30, -28.0656, -19.4247, 37.69, -150.564, -82.0206, 44.4038
7.47232, 31, -28.0565, -19.5071, 37.7556, -150.514, -81.9659, 44.3612
7.47995, 31, -28.0475, -19.5895, 37.8211, -150.462, -81.9104, 44.3185
7.48796, 31, -28.0384, -19.6719, 37.8866, -150.411, -81.8551, 44.2759
7.49807, 31, -28.0247, -19.7957, 37.985, -150.335, -81.7728, 44.2137
7.50301, 31, -28.0202, -19.837, 38.0178, -150.309, -81.745, 44.1931
7.51201, 31, -28.0111, -19.9195, 38.0836, -150.257, -81.69, 44.1519
7.52001, 31, -28.0021, -20.0021, 38.1493, -150.206, -81.6351, 44.1105
7.53107, 31, -27.9884, -20.1261, 38.2478, -150.128, -81.5519, 44.0493
7.53595, 31, -27.9839, -20.1674, 38.2807, -150.103, -81.5246, 44.0292
7.54396, 31, -27.9747, -20.25, 38.3462, -150.052, -81.4692, 43.9893
7.55207, 31, -27.9655, -20.3326, 38.4118, -149.999, -81.4139, 43.9493
7.55996, 31, -27.9562, -20.4152, 38.4774, -149.948, -81.359, 43.9094
7.56799, 31, -27.9468, -20.4979, 38.5429, -149.896, -81.3034, 43.8704
7.57596, 32, -27.9375, -20.5805, 38.6085, -149.844, -81.2486, 43.8318
7.58404, 32, -27.9281, -20.6632, 38.6741, -149.792, -81.1936, 43.7938
7.59197, 32, -27.9188, -20.7459, 38.7397, -149.74, -81.1384, 43.7557
7.60009, 32, -27.9093, -20.8285, 38.8053, -149.688, -81.0838, 43.7176
7.60796, 32, -27.8998, -20.9112, 38.8709, -149.636, -81.0284, 43.6804
7.61595, 32, -27.8902, -20.9938, 38.9366, -149.584, -80.9734, 43.6441
7.62417, 32, -27.8807, -21.0764, 39.0022, -149.532, -80.919, 43.608
7.63196, 32, -27.8711, -21.159, 39.0677, -149.48, -80.8635, 43.572
7.63995, 32, -27.8614, -21.2415, 39.1332, -149.426, -80.8089, 43.5363
7.64803, 32, -27.8518, -21.3241, 39.1986, -149.374, -80.754, 43.5014
7.65595, 32, -27.8422, -21.4066, 39.2641, -149.322, -80.6987, 43.4673
7.66396, 32, -27.8325, -21.4891, 39.3295, -149.269, -80.6445, 43.4335
7.67217, 33, -27.8228, -21.5715, 39.395, -149.217, -80.5894, 43.3999
7.67904, 33, -27.813, -21.654, 39.4604, -149.164, -80.5346, 43.3664
7.68735, 33, -27.8032, -21.7364, 39.5258, -149.111, -80.4803, 43.3335
7.69672, 33, -27.7932, -21.8187, 39.5911, -149.059, -80.425, 43.3017
7.70395, 33, -27.783, -21.9011, 39.6565, -149.006, -80.3708, 43.2703
7.71197, 33, -27.7729, -21.9835, 39.7217, -148.953, -80.3163, 43.2393
7.72098, 33, -27.7629, -22.0657, 39.7868, -148.901, -80.2615, 43.2085
7.72989, 33, -27.7526, -22.148, 39.852, -148.847, -80.2075, 43.1778
7.73605, 33, -27.7424, -22.2302, 39.9171, -148.795, -80.1526, 43.1477
7.74445, 33, -27.7322, -22.3123, 39.9822, -148.742, -80.0982, 43.1185
7.75156, 33, -27.722, -22.3944, 40.0472, -148.688, -80.0445, 43.0901
7.76006, 33, -27.7116, -22.4765, 40.1122, -148.636, -79.9897, 43.0623
7.77036, 33, -27.7011, -22.5585, 40.1772, -148.582, -79.9358, 43.0347
7.7749, 34, -27.6959, -22.5995, 40.2097, -148.555, -79.9089, 43.0211
7.78412, 34, -27.6804, -22.7224, 40.3071, -148.476, -79.8266, 42.98
7.79103, 34, -27.6751, -22.7633, 40.3394, -148.449, -79.7997, 42.9667
7.80101, 34, -27.6593, -22.886, 40.4365, -148.369, -79.7183, 42.9283
7.80808, 34, -27.6487, -22.9676, 40.501, -148.316, -79.664, 42.9037
7.81496, 34, -27.6433, -23.0084, 40.5332, -148.289, -79.6371, 42.8917
7.82315, 34, -27.6324, -23.09, 40.5977, -148.236, -79.5826, 42.868
7.83092, 34, -27.6214, -23.1716, 40.6622, -148.183, -79.528, 42.8447
7.84031, 34, -27.6049, -23.2938, 40.7588, -148.102, -79.4474, 42.8102
7.84696, 34, -27.5994, -23.3346, 40.791, -148.076, -79.4199, 42.7989
7.85652, 34, -27.5826, -23.4566, 40.8874, -147.995, -79.3392, 42.7663
7.86447, 34, -27.5715, -23.538, 40.9516, -147.942, -79.2848, 42.7457
7.87259, 35, -27.5603, -23.6192, 41.0156, -147.889, -79.2308, 42.7261
7.88075, 35, -27.549, -23.7003, 41.0796, -147.835, -79.1774, 42.707
7.88854, 35, -27.5433, -23.7813, 41.1434, -147.782, -79.123, 42.6888
7.89656, 35, -27.532, -23.8217, 41.1752, -147.755, -79.0961, 42.671
7.90455, 35, -27.5205, -23.9025, 41.2389, -147.701, -79.0429, 42.6623
7.91203, 35, -27.509, -23.9831, 41.3026, -147.648, -78.9886, 42.6454
7.92069, 35, -27.4975, -24.0637, 41.3661, -147.594, -78.9349, 42.6286
7.92777, 35, -27.4857, -24.1441, 41.4297, -147.54, -78.8817, 42.6126
7.93594, 35, -27.4738, -24.2245, 41.4932, -147.487, -78.8275, 42.5972
7.94394, 35, -27.4619, -24.3048, 41.5566, -147.433, -78.7743, 42.5827
7.952, 35, -27.4498, -24.385, 41.6199, -147.379, -78.7208, 42.5691
7.95995, 35, -27.4376, -24.465, 41.683, -147.326, -78.667, 42.5563
7.96944, 35, -27.4191, -24.5851, 41.7774, -147.245, -78.5874, 42.5386
7.97594, 36, -27.4129, -24.625, 41.8087, -147.218, -78.5607, 42.5331
7.984, 36, -27.4003, -24.7048, 41.8714, -147.165, -78.5074, 42.5227
7.99406, 36, -27.3814, -24.8244, 41.9654, -147.084, -78.4282, 42.5083
7.99998, 36, -27.3752, -24.8642, 41.9966, -147.058, -78.4014, 42.5038
8.00795, 36, -27.3626, -24.9437, 42.0591, -147.004, -78.3486, 42.4955
8.01594, 36, -27.3498, -25.023, 42.1216, -146.95, -78.2962, 42.4877
8.02483, 36, -27.3369, -25.1023, 42.1839, -146.897, -78.2429, 42.4807
8.03195, 36, -27.3238, -25.1815, 42.2461, -146.842, -78.1905, 42.4743
8.04094, 36, -27.3105, -25.2604, 42.3082, -146.789, -78.1379, 42.4686
8.04695, 36, -27.2972, -25.3392, 42.3699, -146.736, -78.0849, 42.4637
8.05596, 36, -27.2838, -25.418, 42.4317, -146.681, -78.0328, 42.4595
8.063, 36, -27.2702, -25.4965, 42.4933, -146.628, -77.9803, 42.4562
8.07191, 37, -27.2566, -25.5749, 42.5548, -146.574, -77.9277, 42.4536
8.08, 37, -27.2429, -25.6532, 42.6162, -146.521, -77.8758, 42.4519
8.08795, 37, -27.229, -25.7314, 42.6774, -146.468, -77.8232, 42.4508
8.096, 37, -27.2151, -25.8095, 42.7386, -146.414, -77.771, 42.4502
8.10394, 37, -27.2012, -25.8874, 42.7997, -146.361, -77.7194, 42.45
8.11195, 37, -27.1872, -25.9652, 42.8606, -146.308, -77.667, 42.45
8.12013, 37, -27.1729, -26.0427, 42.9214, -146.254, -77.6152, 42.4501
8.12823, 37, -27.1584, -26.1202, 42.9821, -146.201, -77.5635, 42.4504
8.13507, 37, -27.1438, -26.1974, 43.0425, -146.147, -77.5111, 42.4512
8.1435, 37, -27.1291, -26.2744, 43.1028, -146.094, -77.4597, 42.4532
8.15111, 37, -27.1143, -26.3513, 43.1628, -146.041, -77.4082, 42.4572
8.15898, 37, -27.0994, -26.4281, 43.2228, -145.988, -77.3561, 42.4625
8.16781, 37, -27.0844, -26.5048, 43.2827, -145.935, -77.305, 42.4693
8.17593, 38, -27.0692, -26.5812, 43.3424, -145.882, -77.2534, 42.4773
8.18398, 38, -27.0541, -26.6576, 43.402, -145.828, -77.2016, 42.4864
8.19363, 38, -27.0387, -26.7338, 43.4613, -145.776, -77.1507, 42.4965
8.19994, 38, -27.0232, -26.8097, 43.5205, -145.723, -77.0991, 42.5078
8.208, 38, -27.0075, -26.8855, 43.5796, -145.669, -77.0476, 42.5199
8.21609, 38, -26.9915, -26.9611, 43.6385, -145.617, -76.9969, 42.5332
8.22378, 38, -26.9755, -27.0365, 43.6971, -145.564, -76.9453, 42.5473
8.23209, 38, -26.9593, -27.1116, 43.7557, -145.512, -76.8943, 42.5626
8.24003, 38, -26.9431, -27.1866, 43.814, -145.46, -76.844, 42.5791
8.2476, 38, -26.9266, -27.2615, 43.8721, -145.407, -76.7927, 42.5967
8.25612, 38, -26.91, -27.336, 43.9301, -145.355, -76.7421, 42.6156
8.26352, 38, -26.9017, -27.4105, 43.9879, -145.303, -76.6917, 42.6358
8.27201, 39, -26.8765, -27.4848, 44.0455, -145.25, -76.6404, 42.6569
8.28006, 39, -26.8595, -27.5589, 44.1029, -145.198, -76.5902, 42.6788
8.28797, 39, -26.8421, -27.6329, 44.1601, -145.146, -76.5399, 42.7014
8.29699, 39, -26.8246, -27.7065, 44.2172, -145.093, -76.4889, 42.7251
8.304, 39, -26.807, -27.78, 44.2741, -145.042, -76.4389, 42.7496
8.31098, 39, -26.7982, -27.8167, 44.3025, -145.016, -76.414, 42.7623
8.32016, 39, -26.7715, -27.9264, 44.3872, -144.938, -76.3376, 42.8026
8.32705, 39, -26.7625, -27.9629, 44.4154, -144.913, -76.3126, 42.8166
8.33631, 39, -26.7354, -28.0719, 44.4993, -144.835, -76.2375, 42.8598
8.34308, 39, -26.7263, -28.1082, 44.5272, -144.809, -76.2119, 42.8745
8.35555, 39, -26.6987, -28.2167, 44.6108, -144.733, -76.1369, 42.9201
8.35887, 39, -26.6893, -28.2527, 44.6385, -144.707, -76.1119, 42.9359
8.36851, 39, -26.661, -28.3605, 44.7214, -144.63, -76.0362, 42.9855
8.3765, 40, -26.6419, -28.432, 44.7764, -144.58, -75.9869, 43.0202
8.38456, 40, -26.6226, -28.5032, 44.8312, -144.528, -75.9367, 43.0554
8.39258, 40, -26.6129, -28.5741, 44.8858, -144.478, -75.8867, 43.0914
8.40055, 40, -26.5933, -28.6095, 44.913, -144.453, -75.8375, 43.1285
8.40795, 40, -26.5736, -28.6801, 44.9672, -144.402, -75.8126, 43.1476
8.41672, 40, -26.5539, -28.7505, 45.0212, -144.352, -75.7623, 43.187
8.42382, 40, -26.5338, -28.8205, 45.075, -144.303, -75.7132, 43.2271
8.43193, 40, -26.5134, -28.8904, 45.1284, -144.252, -75.6639, 43.268
8.43992, 40, -26.4928, -28.9601, 45.1816, -144.202, -75.614, 43.3101
8.44699, 40, -26.4722, -29.0295, 45.2346, -144.153, -75.565, 43.3539
8.45592, 40, -26.4513, -29.0986, 45.2873, -144.102, -75.5157, 43.3988
8.46392, 40, -26.4301, -29.1675, 45.3398, -144.053, -75.466, 43.4442
8.47092, 41, -26.4088, -29.236, 45.392, -144.004, -75.4172, 43.4907
8.47992, 41, -26.3873, -29.3044, 45.4441, -143.955, -75.3682, 43.539
8.49039, 41, -26.3543, -29.4063, 45.5215, -143.882, -75.2944, 43.6129
8.49494, 41, -26.3433, -29.4402, 45.5472, -143.858, -75.2703, 43.638
8.50393, 41, -26.3212, -29.5077, 45.5985, -143.809, -75.2214, 43.6891
8.51552, 41, -26.2876, -29.6085, 45.6747, -143.737, -75.148, 43.7687
8.52174, 41, -26.2648, -29.6754, 45.7252, -143.689, -75.0999, 43.8227
8.52705, 41, -26.2534, -29.7087, 45.7504, -143.665, -75.0756, 43.8503
8.53598, 41, -26.2304, -29.7752, 45.8004, -143.617, -75.0268, 43.9068
8.54498, 41, -26.207, -29.8412, 45.85, -143.57, -74.9789, 43.9646
8.55192, 41, -26.1834, -29.907, 45.8995, -143.522, -74.9305, 44.0228
8.56001, 41, -26.1598, -29.9725, 45.9488, -143.476, -74.8817, 44.0831
8.56815, 42, -26.1358, -30.0376, 45.9977, -143.429, -74.8341, 44.1446
8.57592, 42, -26.1116, -30.1024, 46.0464, -143.382, -74.786, 44.2066
8.58399, 42, -26.0872, -30.1669, 46.0948, -143.336, -74.7375, 44.2702
8.59195, 42, -26.0624, -30.2311, 46.1428, -143.29, -74.69, 44.3352
8.59999, 42, -26.0373, -30.295, 46.1905, -143.243, -74.642, 44.4008
8.60791, 42, -26.0121, -30.3586, 46.2379, -143.198, -74.5934, 44.4687
8.616, 42, -25.9867, -30.4219, 46.285, -143.153, -74.546, 44.5372
8.62392, 42, -25.961, -30.4849, 46.3318, -143.107, -74.4983, 44.6067
8.63193, 42, -25.9352, -30.5475, 46.3781, -143.063, -74.45, 44.6783
8.64019, 42, -25.9088, -30.6096, 46.4243, -143.019, -74.4027, 44.7501
8.6479, 42, -25.8821, -30.6715, 46.4699, -142.974, -74.3552, 44.8242
8.65592, 42, -25.8553, -30.7329, 46.5153, -142.93, -74.307, 44.8995
8.66399, 42, -25.8282, -30.794, 46.5604, -142.887, -74.26, 44.9756
8.67193, 43, -25.8009, -30.8548, 46.6051, -142.844, -74.213, 45.0542
8.67992, 43, -25.7734, -30.9153, 46.6496, -142.8, -74.1653, 45.133
8.68962, 43, -25.7455, -30.9754, 46.6935, -142.758, -74.1184, 45.2139
8.69518, 43, -25.7173, -31.0353, 46.7371, -142.716, -74.0715, 45.2959
8.70343, 43, -25.6889, -31.0948, 46.7804, -142.673, -74.0238, 45.379
8.712, 43, -25.6602, -31.1539, 46.8232, -142.632, -73.9771, 45.4637
8.7242, 43, -25.6165, -31.2416, 46.887, -142.571, -73.9071, 45.593
8.72741, 43, -25.6018, -31.2707, 46.9081, -142.55, -73.8834, 45.6368
8.736, 43, -25.572, -31.3285, 46.9499, -142.509, -73.8368, 45.7246
8.74401, 43, -25.5422, -31.3858, 46.9914, -142.469, -73.7905, 45.8145
8.75208, 43, -25.5121, -31.4426, 47.0324, -142.429, -73.7433, 45.9049
8.76005, 43, -25.4817, -31.499, 47.0731, -142.389, -73.6966, 45.9973
8.76757, 43, -25.4508, -31.555, 47.1134, -142.35, -73.6508, 46.0905
8.77609, 44, -25.4194, -31.6107, 47.1531, -142.312, -73.6041, 46.1859
8.78393, 44, -25.3877, -31.666, 47.1924, -142.274, -73.5576, 46.2821
8.79391, 44, -25.3558, -31.721, 47.2314, -142.236, -73.5119, 46.3803
8.80012, 44, -25.3237, -31.7756, 47.27, -142.198, -73.4656, 46.4792
8.80696, 44, -25.3076, -31.8027, 47.2892, -142.18, -73.4423, 46.5294
8.8161, 44, -25.2585, -31.8835, 47.3458, -142.125, -73.3737, 46.6819
8.82298, 44, -25.2419, -31.9101, 47.3644, -142.107, -73.351, 46.7335
8.83224, 44, -25.1919, -31.9892, 47.42, -142.053, -73.282, 46.8897
8.83905, 44, -25.175, -32.0153, 47.4383, -142.036, -73.2593, 46.9426
8.84871, 44, -25.1239, -32.0928, 47.4923, -141.984, -73.1916, 47.1036
8.85642, 44, -25.0892, -32.1439, 47.528, -141.949, -73.1457, 47.2125
8.86536, 44, -25.0544, -32.1944, 47.5631, -141.916, -73.1006, 47.3232
8.87095, 45, -25.0368, -32.2195, 47.5804, -141.899, -73.0784, 47.379
8.88052, 45, -24.9836, -32.2943, 47.6318, -141.85, -73.0105, 47.5486
8.88952, 45, -24.9475, -32.3434, 47.6654, -141.818, -72.9658, 47.6634
8.89678, 45, -24.9293, -32.3679, 47.6984, -141.786, -72.9215, 47.7798
8.90441, 45, -24.8928, -32.4166, 47.7148, -141.77, -72.8991, 47.8385
8.9119, 45, -24.8559, -32.4646, 47.7472, -141.74, -72.8539, 47.9567
8.91897, 45, -24.8187, -32.5122, 47.7791, -141.71, -72.8096, 48.0763
8.92804, 45, -24.7809, -32.5593, 47.8103, -141.679, -72.7658, 48.1977
8.93606, 45, -24.743, -32.6057, 47.8412, -141.65, -72.7211, 48.3204
8.94373, 45, -24.7046, -32.6514, 47.8717, -141.621, -72.677, 48.4447
8.95196, 45, -24.6659, -32.6965, 47.9015, -141.593, -72.6335, 48.5706
8.9599, 45, -24.6267, -32.741, 47.9308, -141.566, -72.5892, 48.6976
8.96795, 46, -24.587, -32.7849, 47.9597, -141.538, -72.545, 48.826
8.97598, 46, -24.547, -32.8282, 47.9881, -141.512, -72.5021, 48.956
8.98393, 46, -24.5066, -32.8709, 48.0157, -141.486, -72.4587, 49.0871
8.9919, 46, -24.4657, -32.913, 48.0428, -141.461, -72.4149, 49.2197
8.9999, 46, -24.4245, -32.9547, 48.0695, -141.437, -72.3721, 49.354
9.00836, 46, -24.3831, -32.9958, 48.0956, -141.414, -72.3294, 49.4899
9.01591, 46, -24.3411, -33.0362, 48.121, -141.39, -72.286, 49.6273
9.0239, 46, -24.2987, -33.0761, 48.1459, -141.367, -72.2432, 49.766
9.03361, 46, -24.256, -33.1154, 48.1703, -141.346, -72.1801, 49.9766
9.04004, 46, -24.2128, -33.1539, 48.1941, -141.325, -72.1588, 50.0476
9.04889, 46, -24.1691, -33.1918, 48.2172, -141.305, -72.1161, 50.1904
9.05602, 46, -24.125, -33.2289, 48.2398, -141.285, -72.0745, 50.3344
9.06392, 46, -24.0806, -33.2654, 48.2618, -141.266, -72.0329, 50.48
9.0719, 47, -24.0356, -33.3011, 48.2831, -141.247, -71.9907, 50.6271
9.0825, 47, -23.9672, -33.3535, 48.3141, -141.221, -71.9289, 50.8505
9.08804, 47, -23.9442, -33.3707, 48.324, -141.212, -71.9086, 50.9256
9.09591, 47, -23.898, -33.4043, 48.3433, -141.196, -71.8675, 51.0772
9.1039, 47, -23.8511, -33.4373, 48.362, -141.181, -71.8262, 51.2299
9.11192, 47, -23.8039, -33.4695, 48.3801, -141.167, -71.786, 51.3839
9.11997, 47, -23.7563, -33.5012, 48.3976, -141.154, -71.7459, 51.5397
9.12796, 47, -23.7083, -33.532, 48.4147, -141.141, -71.7052, 51.6966
9.13605, 47, -23.6598, -33.562, 48.431, -141.129, -71.6652, 51.8553
9.14302, 47, -23.6109, -33.5912, 48.4464, -141.118, -71.626, 52.0153
9.1509, 47, -23.5615, -33.6198, 48.4613, -141.107, -71.5868, 52.1767
9.15989, 47, -23.5115, -33.6475, 48.4754, -141.097, -71.5473, 52.3395
9.16809, 48, -23.4612, -33.6744, 48.4887, -141.087, -71.5087, 52.5034
9.17497, 48, -23.4104, -33.7005, 48.5012, -141.079, -71.4705, 52.6689
9.18397, 48, -23.359, -33.7257, 48.5131, -141.072, -71.4322, 52.8358
9.1919, 48, -23.3074, -33.7503, 48.5244, -141.065, -71.3937, 53.0044
9.20002, 48, -23.2553, -33.7739, 48.535, -141.06, -71.3562, 53.1741
9.20796, 48, -23.2026, -33.7968, 48.5448, -141.055, -71.3193, 53.3452
9.2159, 48, -23.1496, -33.8188, 48.5537, -141.051, -71.2822, 53.5178
9.22399, 48, -23.0959, -33.8398, 48.562, -141.048, -71.245, 53.6916
9.23218, 48, -23.0418, -33.8603, 48.5697, -141.047, -71.2088, 53.8672
9.24106, 48, -22.9872, -33.8797, 48.5765, -141.045, -71.173, 54.0442
9.24742, 48, -22.9322, -33.898, 48.5825, -141.045, -71.1369, 54.2227
9.256, 48, -22.8765, -33.9156, 48.5879, -141.045, -71.1009, 54.4022
9.26443, 48, -22.8207, -33.9323, 48.5924, -141.045, -71.0659, 54.583
9.27148, 49, -22.7925, -33.9402, 48.5944, -141.047, -71.0316, 54.7652
9.27991, 49, -22.7073, -33.9625, 48.5989, -141.05, -70.9972, 54.9484
9.28879, 49, -22.6498, -33.9763, 48.6009, -141.053, -70.9628, 55.1334
9.29593, 49, -22.5919, -33.9893, 48.6021, -141.058, -70.9293, 55.3195
9.30398, 49, -22.5335, -34.0012, 48.6026, -141.064, -70.8964, 55.507
9.31089, 49, -22.5041, -34.0066, 48.6027, -141.068, -70.8801, 55.6012
9.31889, 49, -22.4449, -34.0168, 48.6027, -141.075, -70.8473, 55.7903
9.32864, 49, -22.3553, -34.0305, 48.6014, -141.089, -70.7987, 56.077
9.33782, 49, -22.2949, -34.0384, 48.5996, -141.1, -70.7674, 56.2699
9.34425, 49, -22.2341, -34.0454, 48.597, -141.112, -70.7369, 56.4638
9.35089, 49, -22.2036, -34.0486, 48.5954, -141.118, -70.7217, 56.5614
9.36122, 49, -22.111, -34.0563, 48.5889, -141.139, -70.6759, 56.8556
9.36716, 50, -22.08, -34.0583, 48.5863, -141.146, -70.661, 56.9542
9.37844, 50, -21.9862, -34.0625, 48.5769, -141.169, -70.6176, 57.2523
9.38291, 50, -21.9546, -34.0634, 48.5733, -141.177, -70.6035, 57.3523
9.39244, 50, -21.8911, -34.0647, 48.5609, -141.203, -70.5614, 57.6542
9.4005, 50, -21.8272, -34.0648, 48.5563, -141.222, -70.5334, 57.857
9.40964, 50, -21.7302, -34.0639, 48.5414, -141.242, -70.5062, 58.0609
9.41588, 50, -21.6975, -34.0631, 48.536, -141.253, -70.493, 58.1634
9.42394, 50, -21.632, -34.0607, 48.5242, -141.275, -70.4673, 58.3696
9.43207, 50, -21.566, -34.0571, 48.5115, -141.297, -70.4422, 58.5768
9.43893, 50, -21.4997, -34.0523, 48.4978, -141.32, -70.4173, 58.7851
9.448, 50, -21.4329, -34.0463, 48.4832, -141.345, -70.3926, 58.9945
9.45589, 50, -21.3658, -34.0389, 48.4676, -141.37, -70.3685, 59.2049
9.4639, 50, -21.2981, -34.0303, 48.4508, -141.398, -70.3455, 59.4165
9.47194, 51, -21.2298, -34.0204, 48.4332, -141.426, -70.3233, 59.6295
9.48001, 51, -21.1611, -34.0093, 48.4147, -141.455, -70.3017, 59.8435
9.48797, 51, -21.0918, -33.9971, 48.3951, -141.484, -70.2807, 60.0587
9.49589, 51, -21.022, -33.9834, 48.3745, -141.516, -70.2599, 60.2748
9.5039, 51, -20.9517, -33.9681, 48.353, -141.548, -70.2395, 60.4921
9.51189, 51, -20.8811, -33.9516, 48.3303, -141.582, -70.2201, 60.7109
9.51993, 51, -20.81, -33.934, 48.3069, -141.616, -70.2015, 60.9305
9.52813, 51, -20.7385, -33.9151, 48.2823, -141.651, -70.184, 61.1514
9.53579, 51, -20.6664, -33.8949, 48.2567, -141.688, -70.1674, 61.3729
9.54396, 51, -20.5941, -33.8734, 48.2303, -141.726, -70.1516, 61.5955
9.55295, 51, -20.5213, -33.8506, 48.2027, -141.764, -70.1364, 61.8194
9.55988, 51, -20.4479, -33.8264, 48.174, -141.803, -70.1218, 62.0442
9.56803, 52, -20.3742, -33.8008, 48.1442, -141.844, -70.1077, 62.27
9.57624, 52, -20.3, -33.7738, 48.1136, -141.886, -70.0943, 62.4966
9.58389, 52, -20.2254, -33.7456, 48.0819, -141.929, -70.0818, 62.7246
9.59188, 52, -20.1503, -33.7159, 48.0491, -141.973, -70.0703, 62.9536
9.60127, 52, -20.0749, -33.6846, 48.0154, -142.018, -70.0598, 63.1836
9.60796, 52, -19.9991, -33.6519, 47.9806, -142.064, -70.0502, 63.4142
9.61588, 52, -19.9226, -33.6179, 47.9447, -142.111, -70.0416, 63.6457
9.62388, 52, -19.8459, -33.5823, 47.9077, -142.159, -70.034, 63.8782
9.63272, 52, -19.7687, -33.5454, 47.8698, -142.208, -70.0274, 64.1117
9.63989, 52, -19.6913, -33.5072, 47.8307, -142.259, -70.0217, 64.3461
9.64797, 52, -19.6135, -33.4675, 47.7906, -142.31, -70.0169, 64.5811
9.65595, 52, -19.5354, -33.4263, 47.7495, -142.362, -70.013, 64.8168
9.6639, 52, -19.4569, -33.3838, 47.7071, -142.416, -70.0101, 65.0538
9.6712, 53, -19.3779, -33.3397, 47.6638, -142.47, -70.0081, 65.2915
9.67892, 53, -19.2983, -33.2941, 47.6195, -142.525, -70.007, 65.53
9.68798, 53, -19.2185, -33.247, 47.574, -142.582, -70.0066, 65.769
9.69592, 53, -19.1384, -33.1985, 47.5276, -142.639, -70.0069, 66.0088
9.70393, 53, -19.0578, -33.1485, 47.4799, -142.698, -70.0078, 66.2497
9.712, 53, -18.977, -33.0969, 47.4313, -142.757, -70.0097, 66.4913
9.71988, 53, -18.8958, -33.0438, 47.3815, -142.818, -70.0128, 66.7335
9.72818, 53, -18.8143, -32.9893, 47.3307, -142.879, -70.017, 66.9765
9.73618, 53, -18.7325, -32.9332, 47.2788, -142.941, -70.0224, 67.2205
9.74344, 53, -18.6503, -32.8756, 47.2257, -143.004, -70.0291, 67.4651
9.75198, 53, -18.5678, -32.8164, 47.1715, -143.068, -70.037, 67.7103
9.76038, 53, -18.4849, -32.7557, 47.1163, -143.133, -70.0461, 67.9558
9.76778, 54, -18.4016, -32.6934, 47.06, -143.199, -70.0567, 68.2019
9.77605, 54, -18.3181, -32.6296, 47.0026, -143.266, -70.0686, 68.4489
9.78471, 54, -18.2344, -32.5642, 46.9443, -143.334, -70.0819, 68.6963
9.79193, 54, -18.1504, -32.4973, 46.8848, -143.403, -70.0968, 68.9442
9.79992, 54, -18.0661, -32.4288, 46.8242, -143.472, -70.1131, 69.1926
9.80883, 54, -17.9814, -32.3588, 46.7625, -143.543, -70.1307, 69.4418
9.81632, 54, -17.8964, -32.2871, 46.6997, -143.614, -70.1491, 69.6916
9.82289, 54, -17.8538, -32.2507, 46.6679, -143.65, -70.1587, 69.8167
9.8321, 54, -17.7257, -32.139, 46.5707, -143.759, -70.1892, 70.1924
9.83887, 54, -17.6829, -32.1009, 46.5378, -143.795, -70.2001, 70.3178
9.8483, 54, -17.5543, -31.9844, 46.4375, -143.907, -70.235, 70.6951
9.85631, 54, -17.4682, -31.9046, 46.3692, -143.982, -70.2603, 70.9472
9.8631, 55, -17.4251, -31.8641, 46.3348, -144.02, -70.2734, 71.0734
9.87283, 55, -17.2956, -31.7402, 46.2298, -144.135, -70.3142, 71.4525
9.88165, 55, -17.2089, -31.6556, 46.1584, -144.213, -70.3429, 71.706
9.88905, 55, -17.1219, -31.5695, 46.086, -144.291, -70.3732, 71.9597
9.89695, 55, -17.0347, -31.4818, 46.0124, -144.37, -70.4054, 72.2139
9.90442, 55, -16.991, -31.4373, 45.9752, -144.41, -70.4384, 72.4679
9.91269, 55, -16.9035, -31.3471, 45.8999, -144.49, -70.4552, 72.5951
9.92129, 55, -16.772, -31.2089, 45.7848, -144.611, -70.5077, 72.9774
9.92694, 55, -16.7282, -31.162, 45.746, -144.652, -70.5263, 73.105
9.93779, 55, -16.5966, -31.019, 45.6281, -144.775, -70.5842, 73.4876
9.94387, 55, -16.5527, -30.9706, 45.5883, -144.816, -70.6038, 73.6153
9.95187, 55, -16.4647, -30.8724, 45.5079, -144.899, -70.6441, 73.8708
9.95992, 55, -16.3765, -30.7726, 45.4263, -144.983, -70.6865, 74.1267
9.9669, 56, -16.2882, -30.671, 45.3438, -145.067, -70.7302, 74.3825
9.97608, 56, -16.1997, -30.5678, 45.26, -145.152, -70.7744, 74.6383
9.98687, 56, -16.0667, -30.4099, 45.1324, -145.28, -70.8451, 75.0224
9.99191, 56, -16.0223, -30.3565, 45.0895, -145.323, -70.8693, 75.1506
9.99987, 56, -15.9336, -30.2486, 45.0029, -145.409, -70.9182, 75.4069
10.008, 56, -15.845, -30.1391, 44.9153, -145.496, -70.9695, 75.6632
10.0159, 56, -15.7564, -30.0279, 44.8267, -145.583, -71.0221, 75.9196
10.0239, 56, -15.6677, -29.915, 44.7371, -145.67, -71.0754, 76.1764
10.0319, 56, -15.5787, -29.8006, 44.6463, -145.758, -71.1313, 76.4331
10.0415, 56, -15.4897, -29.6846, 44.5545, -145.846, -71.1881, 76.8177
10.048, 56, -15.4005, -29.5671, 44.4615, -145.935, -71.2465, 76.9458
10.0559, 56, -15.3114, -29.4481, 44.3678, -146.024, -71.3068, 77.2021
10.0638, 57, -15.2223, -29.3275, 44.2733, -146.113, -71.3675, 77.4582
10.072, 57, -15.1333, -29.2052, 44.1778, -146.202, -71.431, 77.7142
10.0798, 57, -15.0443, -29.0813, 44.0813, -146.292, -71.4951, 77.9699
10.0879, 57, -14.9554, -28.9558, 43.9838, -146.381, -71.5614, 78.2256
10.096, 57, -14.8665, -28.8289, 43.8852, -146.472, -71.6285, 78.4812
10.104, 57, -14.7775, -28.7004, 43.7857, -146.562, -71.6975, 78.7365
10.1119, 57, -14.6886, -28.5703, 43.6855, -146.652, -71.7682, 78.9917
10.1199, 57, -14.5996, -28.4386, 43.5845, -146.743, -71.8404, 79.2463
10.1281, 57, -14.5108, -28.3053, 43.4826, -146.834, -71.9141, 79.5011
10.1359, 57, -14.4221, -28.1706, 43.3797, -146.924, -71.9893, 79.7555
10.1439, 57, -14.3336, -28.0348, 43.2758, -147.015, -72.0662, 80.0097
10.1519, 57, -14.2451, -27.8974, 43.1709, -147.106, -72.1447, 80.2633
10.1599, 57, -14.1566, -27.7584, 43.0651, -147.197, -72.2242, 80.517
10.1693, 58, -14.0683, -27.618, 42.9588, -147.288, -72.3056, 80.7703
10.1753, 58, -13.98, -27.4761, 42.8517, -147.379, -72.3883, 81.023
10.1839, 58, -13.8919, -27.3331, 42.7438, -147.47, -72.4726, 81.2751
10.1919, 58, -13.804, -27.1885, 42.6351, -147.561, -72.5583, 81.5266
10.1999, 58, -13.7162, -27.0422, 42.5253, -147.652, -72.6458, 81.7781
10.2079, 58, -13.6287, -26.8942, 42.4147, -147.743, -72.7348, 82.029
10.2159, 58, -13.5415, -26.745, 42.3036, -147.833, -72.8252, 82.2792
10.2239, 58, -13.4544, -26.5945, 42.1918, -147.924, -72.9174, 82.5288
10.2319, 58, -13.3673, -26.4428, 42.0793, -148.014, -73.011, 82.7782
10.24, 58, -13.2804, -26.2894, 41.9659, -148.104, -73.1059, 83.0269
10.2481, 58, -13.1935, -26.1347, 41.8516, -148.194, -73.2025, 83.2749
10.256, 58, -13.107, -25.9788, 41.7365, -148.284, -73.3004, 83.5221
10.264, 59, -13.0206, -25.8221, 41.621, -148.373, -73.3993, 83.7686
10.2722, 59, -12.9345, -25.6641, 41.505, -148.463, -73.5002, 84.0149
10.28, 59, -12.8489, -25.5045, 41.3884, -148.552, -73.6023, 84.2602
10.2869, 59, -12.8061, -25.4242, 41.3299, -148.596, -73.6538, 84.3825
10.296, 59, -12.6782, -25.1816, 41.1529, -148.729, -73.8109, 84.7484
10.3039, 59, -12.5931, -25.0187, 41.0341, -148.816, -73.9172, 84.9919
10.312, 59, -12.5081, -24.8543, 40.9148, -148.904, -74.0251, 85.2347
10.3201, 59, -12.4235, -24.6884, 40.7952, -148.991, -74.1345, 85.4764
10.3269, 59, -12.3812, -24.6049, 40.7351, -149.035, -74.1897, 85.5969
10.3362, 59, -12.2548, -24.3536, 40.554, -149.165, -74.3573, 85.9569
10.3429, 59, -12.2128, -24.2694, 40.4933, -149.208, -74.4139, 86.0766
10.3522, 59, -12.0874, -24.0148, 40.3104, -149.336, -74.5853, 86.4341
10.3589, 59, -12.0459, -23.9291, 40.2492, -149.378, -74.6433, 86.5529
10.3689, 60, -11.9216, -23.6709, 40.0654, -149.505, -74.8186, 86.9074
10.3762, 60, -11.8803, -23.5846, 39.9423, -149.589, -74.9373, 87.1427
10.3829, 60, -11.7977, -23.4111, 39.8805, -149.631, -74.9972, 87.26
10.3925, 60, -11.6746, -23.1482, 39.6945, -149.755, -75.178, 87.6104
10.4005, 60, -11.5929, -22.9718, 39.5698, -149.837, -75.3004, 87.8427
10.4087, 60, -11.5522, -22.7953, 39.4449, -149.919, -75.4237, 88.0737
10.4159, 60, -11.4711, -22.7068, 39.3823, -149.959, -75.4859, 88.189
10.4239, 60, -11.3902, -22.5287, 39.2568, -150.04, -75.6115, 88.4189
10.4319, 60, -11.3098, -22.3492, 39.1309, -150.12, -75.7378, 88.6477
10.439, 60, -11.2299, -22.1691, 39.0047, -150.2, -75.8654, 88.8753
10.449, 60, -11.1105, -21.8978, 38.8148, -150.318, -76.0586, 89.2143
10.4549, 60, -11.0708, -21.8067, 38.7514, -150.357, -76.1236, 89.3269
10.4657, 61, -10.9525, -21.5314, 38.561, -150.473, -76.3202, 89.663
10.4748, 61, -10.874, -21.3475, 38.4337, -150.549, -76.4527, 89.8855
10.4788, 61, -10.8348, -21.2555, 38.3701, -150.587, -76.5192, 89.9962
10.4879, 61, -10.7569, -21.0707, 38.2426, -150.662, -76.653, 90.2164
10.4959, 61, -10.6795, -20.8847, 38.1149, -150.736, -76.7881, 90.4353
10.5038, 61, -10.6026, -20.6982, 37.987, -150.81, -76.9241, 90.6534
10.5109, 61, -10.5261, -20.5116, 37.859, -150.883, -77.0614, 90.87
10.5199, 61, -10.4499, -20.3244, 37.7307, -150.955, -77.1995, 91.0854
10.5279, 61, -10.374, -20.1358, 37.6024, -151.026, -77.3386, 91.2992
10.5359, 61, -10.2986, -19.9467, 37.4739, -151.097, -77.4785, 91.5117
10.5455, 61, -10.2237, -19.7577, 37.3454, -151.167, -77.6193, 91.723
10.5519, 61, -10.1491, -19.5682, 37.2168, -151.236, -77.7608, 91.9329
10.5638, 62, -10.0751, -19.3775, 37.0883, -151.304, -77.9032, 92.2446
10.569, 62, -10.0015, -19.1864, 36.9599, -151.371, -78.0461, 92.3477
10.5759, 62, -9.92811, -18.9952, 36.8316, -151.438, -78.19, 92.5527
10.5839, 62, -9.85531, -18.8034, 36.7032, -151.503, -78.3345, 92.7563
10.5919, 62, -9.78305, -18.6108, 36.5749, -151.567, -78.4799, 92.9587
10.5999, 62, -9.71115, -18.4182, 36.4464, -151.632, -78.6254, 93.1593
10.608, 62, -9.63965, -18.2261, 36.3181, -151.694, -78.7719, 93.3584
10.6161, 62, -9.56848, -18.0335, 36.1899, -151.756, -78.919, 93.5559
10.6238, 62, -9.49774, -17.8401, 36.0619, -151.817, -79.067, 93.7519
10.6319, 62, -9.42737, -17.6467, 35.934, -151.877, -79.2155, 93.9466
10.6399, 62, -9.35753, -17.4533, 35.8062, -151.937, -79.3646, 94.1395
10.6479, 62, -9.28818, -17.2591, 35.6787, -151.995, -79.5141, 94.3308
10.6559, 62, -9.21928, -17.064, 35.5514, -152.053, -79.6642, 94.5202
10.6638, 63, -9.15092, -16.8692, 35.4244, -152.109, -79.8149, 94.7075
10.6719, 63, -9.08292, -16.6746, 35.2976, -152.164, -79.9663, 94.8932
10.6799, 63, -9.01547, -16.4795, 35.171, -152.219, -80.1181, 95.0773
10.6886, 63, -8.94831, -16.2841, 35.0446, -152.273, -80.2703, 95.2596
10.6958, 63, -8.8817, -16.0894, 34.9187, -152.325, -80.4229, 95.4401
10.7039, 63, -8.81549, -15.8947, 34.7929, -152.377, -80.5761, 95.6187
10.7129, 63, -8.74985, -15.6995, 34.6675, -152.427, -80.7297, 95.7953
10.72, 63, -8.68475, -15.5045, 34.5423, -152.478, -80.8835, 95.9702
10.7279, 63, -8.61998, -15.3101, 34.4174, -152.526, -81.0377, 96.1434
10.736, 63, -8.55565, -15.1157, 34.293, -152.574, -81.192, 96.3147
10.7439, 63, -8.49168, -14.9207, 34.1691, -152.621, -81.3465, 96.484
10.7519, 63, -8.4282, -14.7257, 34.0456, -152.667, -81.5014, 96.6514
10.762, 64, -8.36529, -14.5312, 33.9225, -152.711, -81.6565, 96.8165
10.768, 64, -8.30275, -14.3365, 33.7997, -152.756, -81.8117, 96.9795
10.7761, 64, -8.24075, -14.1412, 33.6774, -152.799, -81.967, 97.1405
10.784, 64, -8.17923, -13.9467, 33.5555, -152.84, -82.1222, 97.2997
10.7919, 64, -8.1182, -13.7531, 33.4342, -152.881, -82.2778, 97.457
10.7999, 64, -8.05763, -13.5597, 33.3134, -152.921, -82.4335, 97.612
10.808, 64, -7.99741, -13.3664, 33.193, -152.96, -82.5895, 97.765
10.8163, 64, -7.93771, -13.1738, 33.0729, -152.998, -82.7454, 97.9158
10.824, 64, -7.8784, -12.9815, 32.9535, -153.035, -82.9015, 98.0643
10.8309, 64, -7.84889, -12.8854, 32.894, -153.054, -82.9795, 98.138
10.8403, 64, -7.7612, -12.5967, 32.7163, -153.107, -83.2137, 98.3557
10.8468, 64, -7.73221, -12.5007, 32.6574, -153.124, -83.2918, 98.427
10.857, 64, -7.6459, -12.214, 32.4814, -153.174, -83.526, 98.6379
10.8643, 65, -7.58887, -12.0228, 32.3647, -153.206, -83.6822, 98.7756
10.8723, 65, -7.53226, -11.8317, 32.2487, -153.237, -83.8384, 98.911
10.8816, 65, -7.47624, -11.6416, 32.1334, -153.267, -83.9944, 99.0437
10.8899, 65, -7.42066, -11.4521, 32.019, -153.295, -84.1503, 99.1743
10.8964, 65, -7.36542, -11.2624, 31.9048, -153.324, -84.3061, 99.3025
10.9053, 65, -7.33798, -11.1676, 31.8479, -153.351, -84.4619, 99.4282
10.911, 65, -7.2835, -10.9788, 31.7345, -153.365, -84.5398, 99.4904
10.9188, 65, -7.22941, -10.7912, 31.6219, -153.39, -84.6953, 99.6128
10.9279, 65, -7.17587, -10.6037, 31.51, -153.415, -84.8507, 99.7328
10.9359, 65, -7.12279, -10.4164, 31.399, -153.438, -85.0059, 99.8504
10.9439, 65, -7.06998, -10.2299, 31.2885, -153.462, -85.1611, 99.9654
10.9518, 65, -7.01764, -10.0442, 31.1786, -153.484, -85.3157, 100.078
10.9601, 66, -6.96571, -9.85856, 31.0691, -153.505, -85.4704, 100.188
10.9679, 66, -6.91402, -9.67319, 30.9605, -153.525, -85.6246, 100.295
10.9758, 66, -6.86286, -9.48907, 30.8527, -153.544, -85.7789, 100.399
10.9842, 66, -6.81232, -9.30614, 30.7459, -153.562, -85.9327, 100.501
10.9918, 66, -6.76205, -9.12345, 30.6397, -153.578, -86.0864, 100.601
10.9998, 66, -6.71228, -8.94101, 30.5338, -153.595, -86.2397, 100.698
11.0095, 66, -6.63837, -8.66959, 30.3763, -153.618, -86.469, 100.838
11.0166, 66, -6.61386, -8.57951, 30.3242, -153.625, -86.5452, 100.883
11.0229, 66, -6.56515, -8.39936, 30.2208, -153.639, -86.6977, 100.972
11.0319, 66, -6.51702, -8.21952, 30.1183, -153.652, -86.8499, 101.058
11.0388, 66, -6.46925, -8.04081, 30.0164, -153.664, -87.0019, 101.142
11.0479, 66, -6.42177, -7.86327, 29.915, -153.675, -87.1534, 101.222
11.0568, 66, -6.37479, -7.68596, 29.8142, -153.684, -87.3046, 101.299
11.0629, 67, -6.32829, -7.50897, 29.7142, -153.693, -87.4556, 101.374
11.0719, 67, -6.28205, -7.3332, 29.6153, -153.701, -87.6063, 101.445
11.0845, 67, -6.21342, -7.07173, 29.4685, -153.711, -87.8318, 101.548
11.0869, 67, -6.19075, -6.98475, 29.42, -153.714, -87.9067, 101.58
11.0959, 67, -6.14564, -6.81097, 29.3233, -153.719, -88.0563, 101.643
11.1038, 67, -6.1009, -6.63828, 29.227, -153.724, -88.2054, 101.704
11.112, 67, -6.05653, -6.46708, 29.1315, -153.728, -88.3543, 101.761
11.1199, 67, -6.01261, -6.29649, 29.0369, -153.73, -88.5027, 101.815
11.1279, 67, -5.96907, -6.12609, 28.9434, -153.733, -88.6508, 101.867
11.1358, 67, -5.92595, -5.95657, 28.8508, -153.734, -88.7984, 101.916
11.1439, 67, -5.88318, -5.78843, 28.7589, -153.735, -88.9457, 101.96
11.1518, 67, -5.84067, -5.62093, 28.6674, -153.735, -89.0921, 102.002
11.1601, 68, -5.79853, -5.4536, 28.5767, -153.735, -89.2384, 102.041
11.1668, 68, -5.75677, -5.28706, 28.4866, -153.734, -89.384, 102.078
11.1758, 68, -5.71522, -5.12194, 28.3976, -153.733, -89.5293, 102.111
11.1838, 68, -5.67395, -4.95803, 28.3095, -153.73, -89.6743, 102.14
11.1918, 68, -5.63303, -4.79471, 28.2221, -153.726, -89.8188, 102.166
11.1999, 68, -5.59262, -4.63206, 28.1354, -153.722, -89.9628, 102.188
11.2079, 68, -5.55251, -4.47057, 28.0494, -153.716, -90.1067, 102.208
11.2159, 68, -5.51262, -4.31023, 27.964, -153.71, -90.2502, 102.225
11.2239, 68, -5.47303, -4.15065, 27.8794, -153.703, -90.3933, 102.238
11.2321, 68, -5.43392, -3.9916, 27.7957, -153.695, -90.536, 102.249
11.2399, 68, -5.39513, -3.83326, 27.7128, -153.686, -90.6784, 102.256
11.248, 68, -5.35652, -3.67597, 27.6308, -153.677, -90.8204, 102.259
11.2583, 69, -5.31821, -3.51978, 27.5495, -153.666, -90.962, 102.261
11.2641, 69, -5.28034, -3.36435, 27.469, -153.655, -91.1032, 102.261
11.2729, 69, -5.24277, -3.20944, 27.3892, -153.643, -91.2442, 102.257
11.2806, 69, -5.20533, -3.05551, 27.3102, -153.63, -91.3846, 102.249
11.2899, 69, -5.16825, -2.90284, 27.2318, -153.616, -91.5245, 102.237
11.2968, 69, -5.13141, -2.75123, 27.1542, -153.601, -91.664, 102.221
11.3046, 69, -5.09488, -2.60024, 27.0772, -153.586, -91.8029, 102.201
11.3119, 69, -5.0585, -2.45013, 27.0012, -153.57, -91.9415, 102.178
11.32, 69, -5.02232, -2.30104, 26.9259, -153.554, -92.0796, 102.152
11.328, 69, -4.98661, -2.15309, 26.8513, -153.537, -92.2173, 102.121
11.335, 69, -4.96884, -2.07949, 26.8143, -153.529, -92.2859, 102.104
11.3466, 69, -4.9158, -1.85986, 26.7044, -153.502, -92.4913, 102.048
11.3508, 69, -4.89817, -1.78696, 26.668, -153.493, -92.5594, 102.027
11.3603, 70, -4.84568, -1.56973, 26.5602, -153.464, -92.7634, 101.961
11.3683, 70, -4.81114, -1.42619, 26.4893, -153.444, -92.8988, 101.911
11.3764, 70, -4.77675, -1.28366, 26.4192, -153.423, -93.034, 101.857
11.3844, 70, -4.74258, -1.14185, 26.3498, -153.402, -93.1686, 101.801
11.3924, 70, -4.70858, -1.00091, 26.2811, -153.381, -93.303, 101.74
11.4004, 70, -4.67491, -0.860938, 26.2131, -153.359, -93.4368, 101.675
11.4086, 70, -4.64145, -0.722142, 26.1458, -153.336, -93.5703, 101.608
11.4164, 70, -4.62481, -0.653175, 26.1124, -153.324, -93.637, 101.572
11.4239, 70, -4.59157, -0.516054, 26.0461, -153.301, -93.77, 101.498
11.4326, 70, -4.55839, -0.379784, 25.9804, -153.277, -93.9026, 101.421
11.4396, 70, -4.52547, -0.244359, 25.9154, -153.253, -94.0347, 101.341
11.4468, 70, -4.49274, -0.109941, 25.851, -153.229, -94.1666, 101.256
11.4558, 70, -4.46012, 0.0234527, 25.7875, -153.204, -94.298, 101.168
11.4639, 71, -4.4276, 0.155764, 25.7247, -153.178, -94.4292, 101.076
11.4718, 71, -4.39519, 0.287227, 25.6626, -153.151, -94.5599, 100.981
11.4798, 71, -4.36301, 0.417965, 25.6012, -153.125, -94.69, 100.882
11.4879, 71, -4.33095, 0.547757, 25.5405, -153.099, -94.8198, 100.779
11.4958, 71, -4.29898, 0.676616, 25.4804, -153.072, -94.9491, 100.673
11.5038, 71, -4.26708, 0.80434, 25.4211, -153.044, -95.0781, 100.563
11.5119, 71, -4.23525, 0.930924, 25.3623, -153.015, -95.2065, 100.449
11.5198, 71, -4.20368, 1.05653, 25.3042, -152.987, -95.3346, 100.331
11.5279, 71, -4.17226, 1.18124, 25.2467, -152.959, -95.4623, 100.211
11.5359, 71, -4.14094, 1.30484, 25.1899, -152.931, -95.5895, 100.087
11.5454, 71, -4.10956, 1.42737, 25.1337, -152.901, -95.7163, 99.9584
11.5518, 71, -4.07819, 1.54877, 25.0782, -152.871, -95.8423, 99.8267
11.5608, 72, -4.04698, 1.66893, 25.0234, -152.842, -95.9682, 99.6915
11.5679, 72, -4.01576, 1.78823, 24.9694, -152.812, -96.0931, 99.5525
11.5769, 72, -3.98473, 1.90658, 24.9159, -152.783, -96.2179, 99.4098
11.584, 72, -3.95362, 2.02392, 24.8631, -152.752, -96.3422, 99.2635
11.5909, 72, -3.92246, 2.14028, 24.8109, -152.722, -96.4659, 99.1138
11.6012, 72, -3.89148, 2.25545, 24.7593, -152.692, -96.5894, 98.9607
