rpiRobotics/ARM-21-02-F-19-Robot-Motion-Program/data_performance_abb/curve_1/baseline/100L/realrobot/bisect/run_4realrobot_curve_exe_v112.5_z10.csv
timestamp, cmd_num, J1, J2, J3, J4, J5, J6
0.000462, -1, 11.3778, 13.6139, 17.3393, -145.519, -97.923, 142.516
0.004684, -1, 11.3778, 13.6139, 17.3393, -145.519, -97.923, 142.516
0.008557, -1, 11.3778, 13.6139, 17.3393, -145.519, -97.923, 142.516
0.0299, -1, 11.3778, 13.6138, 17.3393, -145.519, -97.923, 142.516
0.032544, -1, 11.3778, 13.6138, 17.3393, -145.519, -97.923, 142.516
0.033785, -1, 11.3778, 13.6138, 17.3393, -145.519, -97.923, 142.516
0.039851, -1, 11.3778, 13.6138, 17.3393, -145.519, -97.923, 142.516
0.048312, -1, 11.3775, 13.6138, 17.3392, -145.519, -97.923, 142.516
0.055305, -1, 11.377, 13.6138, 17.3392, -145.519, -97.9229, 142.516
0.063294, -1, 11.3743, 13.6136, 17.3392, -145.519, -97.9229, 142.516
0.071355, -1, 11.368, 13.6128, 17.339, -145.519, -97.9229, 142.516
0.079301, -1, 11.3568, 13.6109, 17.3385, -145.52, -97.9229, 142.514
0.087295, -1, 11.3394, 13.6073, 17.3377, -145.521, -97.9228, 142.505
0.095346, -1, 11.3127, 13.6013, 17.3368, -145.525, -97.9221, 142.483
0.103544, -1, 11.2746, 13.5919, 17.3362, -145.532, -97.9203, 142.443
0.111306, -1, 11.2247, 13.5795, 17.3363, -145.544, -97.9169, 142.377
0.119336, -1, 11.1633, 13.564, 17.338, -145.561, -97.9113, 142.282
0.129256, -1, 11.0493, 13.5337, 17.3449, -145.598, -97.8987, 142.072
0.135295, -1, 11.0053, 13.5218, 17.3484, -145.613, -97.8933, 141.986
0.144851, -1, 10.8565, 13.481, 17.362, -145.666, -97.8746, 141.678
0.15303, -1, 10.7437, 13.4497, 17.373, -145.707, -97.8604, 141.441
0.159297, -1, 10.6831, 13.4329, 17.3786, -145.728, -97.853, 141.316
0.167392, -1, 10.554, 13.3973, 17.3898, -145.773, -97.8376, 141.056
0.177341, -1, 10.3442, 13.3398, 17.4056, -145.842, -97.8137, 140.649
0.183317, -1, 10.271, 13.3199, 17.4107, -145.866, -97.8056, 140.512
0.191368, -1, 10.1215, 13.2796, 17.4208, -145.913, -97.7889, 140.235
0.200089, -1, 9.96913, 13.2386, 17.4308, -145.961, -97.772, 139.957
0.20829, -1, 9.81445, 13.1973, 17.4408, -146.009, -97.7547, 139.678
0.215357, -1, 9.65887, 13.1559, 17.4509, -146.057, -97.7376, 139.398
0.223974, -1, 9.50371, 13.1147, 17.4608, -146.105, -97.7206, 139.119
0.232318, -1, 9.34907, 13.0736, 17.4706, -146.153, -97.7038, 138.84
0.240365, -1, 9.1947, 13.0325, 17.4806, -146.201, -97.6871, 138.56
0.248417, -1, 9.04084, 12.9915, 17.4906, -146.249, -97.6704, 138.28
0.255358, -1, 8.88724, 12.9505, 17.5006, -146.297, -97.6535, 138.001
0.263295, -1, 8.73388, 12.9095, 17.5107, -146.345, -97.6364, 137.721
0.271303, -1, 8.581, 12.8684, 17.5208, -146.392, -97.6189, 137.441
0.280326, -1, 8.42829, 12.8273, 17.531, -146.441, -97.6014, 137.161
0.288376, -1, 8.27526, 12.786, 17.5411, -146.488, -97.5841, 136.881
0.296359, -1, 8.12172, 12.7445, 17.5513, -146.536, -97.5671, 136.601
0.304284, -1, 7.96779, 12.703, 17.5615, -146.585, -97.5504, 136.321
0.311291, -1, 7.81321, 12.6614, 17.5716, -146.632, -97.5337, 136.041
0.319305, -1, 7.65825, 12.6197, 17.5817, -146.68, -97.5171, 135.761
0.32737, -1, 7.50326, 12.5782, 17.5919, -146.728, -97.5003, 135.481
0.335349, -1, 7.34803, 12.5368, 17.602, -146.776, -97.4831, 135.201
0.34339, -1, 7.19291, 12.4953, 17.6123, -146.824, -97.4657, 134.92
0.351314, -1, 7.03772, 12.4539, 17.6226, -146.873, -97.4484, 134.64
0.359317, -1, 6.88249, 12.4127, 17.6328, -146.921, -97.4314, 134.36
0.367466, -1, 6.72753, 12.3714, 17.6432, -146.968, -97.4145, 134.08
0.375374, -1, 6.57289, 12.3301, 17.6535, -147.017, -97.3978, 133.799
0.383389, -1, 6.41841, 12.2889, 17.6639, -147.065, -97.381, 133.519
0.391448, -1, 6.26416, 12.2476, 17.6742, -147.113, -97.3641, 133.239
0.399405, -1, 6.10997, 12.2062, 17.6844, -147.161, -97.3469, 132.958
0.407415, -1, 5.95548, 12.1648, 17.6946, -147.209, -97.3294, 132.677
0.415468, -1, 5.80083, 12.1233, 17.7049, -147.257, -97.3118, 132.397
0.424395, -1, 5.64607, 12.0816, 17.7151, -147.305, -97.2944, 132.116
0.431322, -1, 5.49103, 12.04, 17.7253, -147.353, -97.2773, 131.835
0.439396, -1, 5.33579, 11.9983, 17.7356, -147.401, -97.2604, 131.554
0.447361, -1, 5.1803, 11.9567, 17.7458, -147.45, -97.2437, 131.273
0.455483, -1, 5.02444, 11.9151, 17.7563, -147.498, -97.2269, 130.992
0.463594, -1, 4.86852, 11.8735, 17.7667, -147.546, -97.2099, 130.711
0.471607, -1, 4.71273, 11.832, 17.777, -147.594, -97.1926, 130.43
0.479756, -1, 4.55691, 11.7905, 17.7874, -147.642, -97.1751, 130.149
0.61743, -1, 1.91362, 11.0835, 17.9634, -148.463, -96.8846, 125.365
0.618633, -1, 1.91362, 11.0835, 17.9634, -148.463, -96.8846, 125.365
0.619816, -1, 1.91362, 11.0835, 17.9634, -148.463, -96.8846, 125.365
0.622535, -1, 1.83534, 11.0627, 17.9686, -148.487, -96.8759, 125.224
0.623727, -1, 1.83534, 11.0627, 17.9686, -148.487, -96.8759, 125.224
0.625814, -1, 1.75709, 11.0419, 17.9738, -148.511, -96.8672, 125.083
0.627098, -1, 1.75709, 11.0419, 17.9738, -148.511, -96.8672, 125.083
0.63042, -1, 1.67888, 11.021, 17.979, -148.535, -96.8585, 124.942
0.77494, -1, -1.13011, 10.2693, 18.1658, -149.408, -96.5506, 119.857
0.776315, -1, -1.13011, 10.2693, 18.1658, -149.408, -96.5506, 119.857
0.780365, -1, -1.20864, 10.2484, 18.1709, -149.433, -96.5422, 119.716
0.782477, -1, -1.28717, 10.2275, 18.1761, -149.457, -96.5337, 119.574
0.783778, -1, -1.28717, 10.2275, 18.1761, -149.457, -96.5337, 119.574
0.785021, -1, -1.28717, 10.2275, 18.1761, -149.457, -96.5337, 119.574
0.787073, -1, -1.3656, 10.2066, 18.1812, -149.482, -96.5253, 119.432
0.790005, -1, -1.44391, 10.1857, 18.1864, -149.506, -96.517, 119.291
0.791351, -1, -1.44391, 10.1857, 18.1864, -149.506, -96.517, 119.291
0.792662, -1, -1.44391, 10.1857, 18.1864, -149.506, -96.517, 119.291
0.794634, -1, -1.52215, 10.1649, 18.1916, -149.53, -96.5085, 119.149
0.796166, -1, -1.52215, 10.1649, 18.1916, -149.53, -96.5085, 119.149
0.798101, -1, -1.60037, 10.144, 18.1969, -149.554, -96.5, 119.008
0.799481, -1, -1.60037, 10.144, 18.1969, -149.554, -96.5, 119.008
0.800665, -1, -1.60037, 10.144, 18.1969, -149.554, -96.5, 119.008
0.806935, -1, -1.75654, 10.1021, 18.2074, -149.603, -96.4829, 118.724
0.808247, -1, -1.75654, 10.1021, 18.2074, -149.603, -96.4829, 118.724
0.810103, -1, -1.75654, 10.1021, 18.2074, -149.603, -96.4829, 118.583
0.81147, -1, -1.83442, 10.0812, 18.2126, -149.628, -96.4743, 118.583
0.812671, -1, -1.83442, 10.0812, 18.2126, -149.628, -96.4743, 118.583
0.814742, -1, -1.91219, 10.0603, 18.2178, -149.652, -96.4656, 118.441
0.816103, -1, -1.91219, 10.0603, 18.2178, -149.652, -96.4656, 118.441
0.819296, -1, -1.98987, 10.0394, 18.223, -149.676, -96.4568, 118.299
0.820562, -1, -1.98987, 10.0394, 18.223, -149.676, -96.4568, 118.299
0.822438, -1, -2.06746, 10.0185, 18.2282, -149.7, -96.4479, 118.157
0.823788, -1, -2.06746, 10.0185, 18.2282, -149.7, -96.4479, 118.157
0.825061, -1, -2.06746, 10.0185, 18.2282, -149.7, -96.4479, 118.157
0.827746, -1, -2.145, 9.99757, 18.2334, -149.725, -96.4391, 118.016
0.830468, -1, -2.22256, 9.97667, 18.2385, -149.749, -96.4303, 117.874
0.831919, -1, -2.22256, 9.97667, 18.2385, -149.749, -96.4303, 117.874
0.835237, -1, -2.30017, 9.95577, 18.2437, -149.773, -96.4217, 117.732
0.836499, -1, -2.30017, 9.95577, 18.2437, -149.773, -96.4217, 117.732
0.838374, -1, -2.37785, 9.93484, 18.2489, -149.797, -96.4131, 117.59
0.83978, -1, -2.37785, 9.93484, 18.2489, -149.797, -96.4131, 117.59
0.841087, -1, -2.37785, 9.93484, 18.2489, -149.797, -96.4131, 117.59
0.843134, -1, -2.45564, 9.91387, 18.2542, -149.821, -96.4046, 117.449
0.844343, -1, -2.45564, 9.91387, 18.2542, -149.821, -96.4046, 117.449
0.847311, -1, -2.53349, 9.89291, 18.2594, -149.846, -96.3961, 117.307
0.855361, -1, -2.68937, 9.851, 18.2697, -149.895, -96.3792, 117.023
0.863303, -1, -2.84553, 9.80908, 18.2801, -149.943, -96.3624, 116.74
0.871333, -1, -3.00223, 9.76714, 18.2905, -149.992, -96.3455, 116.456
0.879424, -1, -3.15933, 9.72523, 18.3008, -150.041, -96.3284, 116.172
0.887375, -1, -3.31682, 9.68329, 18.3113, -150.089, -96.3108, 115.888
0.895368, -1, -3.4747, 9.64128, 18.3218, -150.137, -96.2933, 115.604
0.903438, -1, -3.63251, 9.59939, 18.3322, -150.187, -96.2759, 115.32
0.911379, -1, -3.79039, 9.55756, 18.3425, -150.235, -96.2587, 115.036
0.919272, -1, -3.94842, 9.51555, 18.3529, -150.284, -96.2417, 114.752
0.927349, -1, -4.10627, 9.47369, 18.3632, -150.333, -96.2247, 114.468
0.935311, -1, -4.26404, 9.4318, 18.3735, -150.381, -96.2077, 114.183
0.943303, -1, -4.42163, 9.38983, 18.3838, -150.43, -96.1906, 113.899
0.951766, -1, -4.57871, 9.34788, 18.3942, -150.479, -96.173, 113.614
0.959416, -1, -4.73539, 9.30589, 18.4045, -150.528, -96.1553, 113.33
0.967502, -1, -4.89175, 9.26388, 18.4149, -150.577, -96.1377, 113.045
0.975704, -1, -5.04785, 9.22185, 18.4254, -150.626, -96.1204, 112.76
0.984355, -1, -5.20377, 9.17985, 18.4359, -150.674, -96.1034, 112.476
0.991687, -1, -5.35985, 9.13774, 18.4464, -150.723, -96.0864, 112.191
1.00022, -1, -5.51602, 9.0956, 18.4568, -150.772, -96.0697, 111.906
1.00782, -1, -5.67232, 9.05357, 18.4671, -150.821, -96.0526, 111.621
1.01642, -1, -5.82907, 9.01145, 18.4775, -150.87, -96.0354, 111.337
1.02403, -1, -5.98623, 8.96931, 18.4878, -150.919, -96.0178, 111.052
1.03185, -1, -6.14398, 8.92722, 18.4981, -150.967, -96.0003, 110.767
1.04033, -1, -6.30223, 8.88508, 18.5085, -151.016, -95.9829, 110.481
1.04726, -1, -6.38141, 8.86405, 18.5136, -151.041, -95.9743, 110.339
1.05526, -1, -6.53987, 8.82204, 18.5239, -151.09, -95.9572, 110.054
1.06331, -1, -6.69846, 8.77995, 18.5344, -151.139, -95.9403, 109.769
1.07246, -1, -6.93645, 8.71681, 18.5501, -151.213, -95.9148, 109.34
1.07926, -1, -7.01569, 8.69579, 18.5554, -151.237, -95.9062, 109.197
1.08849, -1, -7.25335, 8.63265, 18.571, -151.31, -95.88, 108.769
1.09527, -1, -7.33242, 8.61157, 18.5761, -151.335, -95.8711, 108.626
1.10325, -1, -7.49028, 8.56936, 18.5866, -151.384, -95.8534, 108.341
1.11128, -1, -7.64792, 8.52711, 18.597, -151.433, -95.8359, 108.055
1.11926, -1, -7.80516, 8.4849, 18.6075, -151.482, -95.8187, 107.769
1.12876, -1, -8.04031, 8.42154, 18.623, -151.555, -95.7932, 107.341
1.13699, -1, -8.19692, 8.37923, 18.6334, -151.605, -95.7763, 107.055
1.14515, -1, -8.35354, 8.33695, 18.6439, -151.654, -95.7592, 106.769
1.15133, -1, -8.43193, 8.31577, 18.6492, -151.678, -95.7505, 106.626
1.16097, -1, -8.66767, 8.2523, 18.665, -151.752, -95.7242, 106.197
1.16727, -1, -8.74643, 8.23119, 18.6702, -151.777, -95.7153, 106.053
1.17689, -1, -8.90413, 8.18892, 18.6805, -151.825, -95.6978, 105.624
1.18329, -1, -9.06225, 8.14663, 18.6909, -151.874, -95.6805, 105.481
1.19226, -1, -9.22088, 8.10442, 18.7013, -151.924, -95.6632, 105.194
1.19931, -1, -9.37982, 8.06219, 18.7117, -151.973, -95.6462, 104.908
1.20726, -1, -9.53895, 8.01988, 18.7221, -152.022, -95.629, 104.621
1.21527, -1, -9.69814, 7.97771, 18.7325, -152.072, -95.6117, 104.334
1.22332, -1, -9.8574, 7.93556, 18.7429, -152.12, -95.5941, 104.047
1.23127, -1, -10.0167, 7.89323, 18.7536, -152.17, -95.5763, 103.761
1.23933, -1, -10.1759, 7.85087, 18.7641, -152.219, -95.5584, 103.474
1.24725, -1, -10.335, 7.80846, 18.7746, -152.268, -95.5408, 103.187
1.25526, -1, -10.4936, 7.76598, 18.7852, -152.318, -95.5237, 102.9
1.26333, -1, -10.6521, 7.72355, 18.7955, -152.367, -95.5067, 102.613
1.27126, -1, -10.8103, 7.68112, 18.8059, -152.416, -95.4896, 102.327
1.27926, -1, -10.968, 7.6386, 18.8164, -152.466, -95.4725, 102.039
1.28733, -1, -11.1256, 7.59611, 18.8268, -152.515, -95.4552, 101.752
1.29525, -1, -11.283, 7.55369, 18.8372, -152.564, -95.4374, 101.465
1.30328, -1, -11.4405, 7.51125, 18.8476, -152.614, -95.4197, 101.177
1.31134, -1, -11.5982, 7.46878, 18.8581, -152.663, -95.402, 100.89
1.31925, -1, -11.7561, 7.42639, 18.8687, -152.712, -95.3846, 100.602
1.32729, -1, -11.9145, 7.38399, 18.8792, -152.762, -95.3675, 100.314
1.3353, -1, -12.0733, 7.34162, 18.8898, -152.811, -95.3503, 100.027
1.34329, -1, -12.2324, 7.29924, 18.9003, -152.86, -95.3331, 99.7391
1.35139, -1, -12.392, 7.25685, 18.9107, -152.91, -95.3157, 99.4512
1.35989, -1, -12.5518, 7.21444, 18.9212, -152.959, -95.2979, 99.1634
1.36825, -1, -12.7118, 7.17205, 18.9317, -153.008, -95.28, 98.8756
1.37537, -1, -12.8719, 7.12965, 18.9422, -153.058, -95.2621, 98.5877
1.38431, -1, -13.032, 7.08711, 18.9528, -153.108, -95.2446, 98.2996
1.39136, -1, -13.1919, 7.04455, 18.9633, -153.157, -95.2273, 98.0116
1.39942, -1, -13.3516, 7.002, 18.9738, -153.207, -95.2103, 97.7236
1.40853, -1, -13.5109, 6.95935, 18.9844, -153.256, -95.1931, 97.4351
1.41545, -1, -13.6701, 6.91662, 18.9949, -153.305, -95.1759, 97.1465
1.42343, -1, -13.8291, 6.87397, 19.0055, -153.355, -95.1585, 96.8581
1.43191, -1, -13.9876, 6.83128, 19.0159, -153.404, -95.1408, 96.5696
1.43929, -1, -14.1458, 6.78862, 19.0264, -153.453, -95.123, 96.2808
1.44735, -1, -14.304, 6.74604, 19.0369, -153.503, -95.1054, 95.9917
1.45704, -1, -14.4623, 6.70337, 19.0473, -153.552, -95.0881, 95.7028
1.46427, -1, -14.6208, 6.66077, 19.0578, -153.602, -95.0709, 95.4137
1.47157, -1, -14.7796, 6.61829, 19.0683, -153.652, -95.0538, 95.1246
1.48117, -1, -14.9388, 6.57575, 19.0788, -153.701, -95.0366, 94.8354
1.48762, -1, -15.0984, 6.53309, 19.0896, -153.751, -95.019, 94.5463
1.49573, -1, -15.2584, 6.49055, 19.1002, -153.8, -95.0012, 94.2572
1.50525, -1, -15.4186, 6.44801, 19.1108, -153.85, -94.9832, 93.968
1.51183, -1, -15.5793, 6.40533, 19.1214, -153.9, -94.9653, 93.6787
1.52037, -1, -15.74, 6.36266, 19.1318, -153.949, -94.9479, 93.3896
1.52937, -1, -15.9007, 6.31996, 19.1425, -153.999, -94.9306, 93.1001
1.53587, -1, -16.0614, 6.27712, 19.1531, -154.049, -94.9135, 92.8103
1.54443, -1, -16.2222, 6.23435, 19.1636, -154.098, -94.8963, 92.5207
1.55125, -1, -16.3025, 6.21293, 19.1688, -154.123, -94.8877, 92.376
1.55929, -1, -16.4631, 6.16999, 19.1793, -154.172, -94.8702, 92.0864
1.56834, -1, -16.7032, 6.10559, 19.195, -154.247, -94.8434, 91.6514
1.57524, -1, -16.7831, 6.08414, 19.2003, -154.272, -94.8344, 91.5063
1.58329, -1, -16.9425, 6.04118, 19.2109, -154.322, -94.8168, 91.2163
1.5925, -1, -17.1812, 5.97682, 19.2268, -154.396, -94.7905, 90.7812
1.59924, -1, -17.2607, 5.9554, 19.2321, -154.421, -94.7818, 90.6361
1.60731, -1, -17.4199, 5.91258, 19.2427, -154.471, -94.7645, 90.3459
1.61677, -1, -17.659, 5.84845, 19.2586, -154.546, -94.7384, 89.9106
1.62627, -1, -17.8185, 5.80571, 19.2693, -154.595, -94.7206, 89.6203
1.63128, -1, -17.8983, 5.78435, 19.2746, -154.621, -94.7116, 89.4751
1.6408, -1, -18.1386, 5.72027, 19.2905, -154.695, -94.6845, 89.0393
1.65034, -1, -18.2993, 5.67754, 19.3011, -154.745, -94.6667, 88.7488
1.65524, -1, -18.3798, 5.65619, 19.3064, -154.77, -94.6579, 88.6035
1.66486, -1, -18.5412, 5.5918, 19.3225, -154.845, -94.6319, 88.1672
1.67132, -1, -18.7028, 5.57034, 19.3278, -154.87, -94.6233, 88.0219
1.68101, -1, -18.8644, 5.5274, 19.3384, -154.92, -94.5973, 87.5855
1.68823, -1, -19.026, 5.48438, 19.349, -154.97, -94.5885, 87.44
1.6963, -1, -19.1875, 5.44129, 19.3595, -155.02, -94.5707, 87.1486
1.70324, -1, -19.3489, 5.3982, 19.3701, -155.07, -94.5526, 86.8574
1.71125, -1, -19.5101, 5.35508, 19.3807, -155.12, -94.5346, 86.5659
1.71931, -1, -19.671, 5.31186, 19.3912, -155.169, -94.5169, 86.2744
1.72726, -1, -19.8316, 5.2688, 19.4018, -155.22, -94.4994, 85.9827
1.73531, -1, -19.992, 5.22568, 19.4124, -155.27, -94.482, 85.6912
1.74327, -1, -20.152, 5.18257, 19.4232, -155.32, -94.4646, 85.3998
1.75125, -1, -20.3118, 5.1397, 19.4339, -155.37, -94.4472, 85.1081
1.75931, -1, -20.4718, 5.09676, 19.4447, -155.42, -94.4294, 84.8163
1.76725, -1, -20.6319, 5.05378, 19.4554, -155.47, -94.4113, 84.5246
1.77526, -1, -20.7921, 5.01091, 19.4661, -155.52, -94.3933, 84.2327
1.78331, -1, -20.9529, 4.96805, 19.4767, -155.57, -94.3755, 83.9406
1.79125, -1, -21.114, 4.92503, 19.4873, -155.62, -94.3581, 83.6485
1.79926, -1, -21.2755, 4.88203, 19.4979, -155.671, -94.3409, 83.3566
1.80733, -1, -21.4375, 4.83895, 19.5085, -155.721, -94.3237, 83.0645
1.81525, -1, -21.5997, 4.79573, 19.5191, -155.771, -94.3064, 82.7719
1.8233, -1, -21.7619, 4.75258, 19.5299, -155.822, -94.2888, 82.4795
1.83126, -1, -21.9243, 4.70932, 19.5406, -155.871, -94.271, 82.187
1.83924, -1, -22.0867, 4.66594, 19.5514, -155.922, -94.2529, 81.8942
1.84734, -1, -22.2492, 4.62263, 19.5621, -155.972, -94.2352, 81.6016
1.85529, -1, -22.4115, 4.57927, 19.5727, -156.022, -94.2176, 81.3089
1.86326, -1, -22.5734, 4.53592, 19.5834, -156.073, -94.2002, 81.0164
1.87165, -1, -22.735, 4.49254, 19.594, -156.123, -94.1827, 80.7238
1.87932, -1, -22.8963, 4.4492, 19.6047, -156.173, -94.1652, 80.4308
1.88734, -1, -23.0574, 4.40596, 19.6154, -156.223, -94.1475, 80.138
1.89572, -1, -23.2185, 4.36271, 19.6261, -156.273, -94.1293, 79.8449
1.90334, -1, -23.3793, 4.31948, 19.6369, -156.324, -94.111, 79.5516
1.91138, -1, -23.5402, 4.27627, 19.6477, -156.374, -94.093, 79.2582
1.92004, -1, -23.7013, 4.23306, 19.6585, -156.425, -94.0752, 78.965
1.9283, -1, -23.8625, 4.18987, 19.6693, -156.475, -94.0577, 78.6715
1.93528, -1, -24.0241, 4.14659, 19.6799, -156.526, -94.0402, 78.3777
1.94413, -1, -24.186, 4.10326, 19.6905, -156.576, -94.0228, 78.084
1.95129, -1, -24.3485, 4.05994, 19.7013, -156.626, -94.0052, 77.7902
1.95933, -1, -24.5113, 4.01655, 19.7119, -156.677, -93.9872, 77.4961
1.96845, -1, -24.6743, 3.97304, 19.7225, -156.727, -93.9691, 77.2018
1.97555, -1, -24.8376, 3.9295, 19.7331, -156.777, -93.9511, 76.9078
1.98373, -1, -25.0011, 3.88597, 19.7438, -156.828, -93.9334, 76.6138
1.99248, -1, -25.1644, 3.84241, 19.7547, -156.878, -93.9158, 76.3197
1.99966, -1, -25.3275, 3.79887, 19.7655, -156.929, -93.8983, 76.0252
2.00779, -1, -25.4903, 3.75527, 19.7763, -156.979, -93.8807, 75.731
2.01688, -1, -25.653, 3.71162, 19.787, -157.029, -93.8629, 75.4366
2.02433, -1, -25.8155, 3.6681, 19.7976, -157.08, -93.8448, 75.1421
2.03183, -1, -25.9777, 3.62471, 19.8083, -157.13, -93.8264, 74.8474
2.04087, -1, -26.1397, 3.58116, 19.8191, -157.181, -93.8081, 74.5529
2.04824, -1, -26.3013, 3.53778, 19.8298, -157.232, -93.7901, 74.2582
2.0558, -1, -26.3821, 3.51613, 19.8352, -157.257, -93.7812, 74.1108
2.06527, -1, -26.6247, 3.451, 19.8513, -157.333, -93.7547, 73.6681
2.07123, -1, -26.7057, 3.42928, 19.8566, -157.358, -93.7459, 73.5207
2.08035, -1, -26.9493, 3.36408, 19.8729, -157.434, -93.7193, 73.0779
2.08963, -1, -27.1121, 3.3205, 19.8837, -157.485, -93.7013, 72.7825
2.09528, -1, -27.1936, 3.2987, 19.8891, -157.51, -93.6921, 72.635
2.10461, -1, -27.4387, 3.23328, 19.9052, -157.586, -93.6647, 72.1923
2.11123, -1, -27.5206, 3.21139, 19.9105, -157.611, -93.6557, 72.0446
2.12061, -1, -27.7665, 3.14585, 19.9267, -157.687, -93.629, 71.6012
2.12723, -1, -27.8486, 3.12404, 19.9321, -157.712, -93.6201, 71.4535
2.13775, -1, -28.0948, 3.0585, 19.9483, -157.789, -93.5937, 71.0102
2.14331, -1, -28.1768, 3.03663, 19.9537, -157.814, -93.5848, 70.8623
2.15281, -1, -28.423, 2.97104, 19.9698, -157.89, -93.5577, 70.4182
2.16184, -1, -28.5049, 2.92738, 19.9807, -157.941, -93.5393, 70.1224
2.16882, -1, -28.6685, 2.90555, 19.9862, -157.992, -93.5209, 69.8263
2.1768, -1, -28.8319, 2.86189, 19.997, -158.017, -93.5118, 69.53
2.18425, -1, -28.9949, 2.81824, 20.0078, -158.068, -93.494, 69.3818
2.19222, -1, -29.1576, 2.77461, 20.0185, -158.119, -93.4763, 69.0855
2.20027, -1, -29.3203, 2.731, 20.0293, -158.169, -93.4587, 68.7889
2.20823, -1, -29.4831, 2.68741, 20.0401, -158.221, -93.4411, 68.4922
2.21626, -1, -29.6459, 2.64369, 20.0509, -158.272, -93.4231, 68.1954
2.22418, -1, -29.809, 2.59993, 20.0617, -158.322, -93.4049, 67.8988
2.23129, -1, -29.9721, 2.5562, 20.0725, -158.374, -93.3865, 67.6022
2.23924, -1, -30.1355, 2.5124, 20.0833, -158.424, -93.3682, 67.3052
2.24726, -1, -30.2994, 2.46843, 20.0943, -158.475, -93.3503, 67.0082
2.25529, -1, -30.4637, 2.42449, 20.1052, -158.526, -93.3325, 66.7115
2.26323, -1, -30.6285, 2.38052, 20.1161, -158.577, -93.3148, 66.4144
2.27122, -1, -30.7935, 2.33652, 20.1268, -158.628, -93.2971, 66.117
2.2793, -1, -30.9585, 2.2926, 20.1377, -158.679, -93.2791, 65.8198
2.28726, -1, -31.1235, 2.24859, 20.1485, -158.73, -93.2609, 65.5226
2.29523, -1, -31.2884, 2.20462, 20.1593, -158.781, -93.2424, 65.2252
2.30328, -1, -31.4532, 2.1608, 20.1701, -158.832, -93.224, 64.9274
2.31124, -1, -31.6177, 2.11683, 20.1808, -158.883, -93.206, 64.6298
2.31923, -1, -31.7821, 2.07287, 20.1917, -158.935, -93.1882, 64.332
2.32729, -1, -31.9463, 2.02899, 20.2027, -158.986, -93.1707, 64.0341
2.33523, -1, -32.1101, 1.98504, 20.2136, -159.037, -93.153, 63.7361
2.34323, -1, -32.2738, 1.9411, 20.2246, -159.088, -93.1352, 63.4383
2.3513, -1, -32.4374, 1.89714, 20.2355, -159.139, -93.117, 63.1404
2.35926, -1, -32.6011, 1.85308, 20.2463, -159.19, -93.0986, 62.8421
2.36732, -1, -32.765, 1.80905, 20.2573, -159.242, -93.0803, 62.5438
2.37526, -1, -32.929, 1.76499, 20.2682, -159.293, -93.0622, 62.2458
2.38337, -1, -33.0934, 1.72079, 20.2791, -159.344, -93.0443, 61.9473
2.39134, -1, -33.2582, 1.67658, 20.29, -159.395, -93.0266, 61.6486
2.39932, -1, -33.4233, 1.63243, 20.3008, -159.446, -93.0087, 61.35
2.40739, -1, -33.5889, 1.58825, 20.3118, -159.498, -92.9906, 61.0515
2.41537, -1, -33.7546, 1.54404, 20.3227, -159.549, -92.9722, 60.7526
2.42329, -1, -33.9203, 1.49988, 20.3336, -159.6, -92.9535, 60.4535
2.43136, -1, -34.0861, 1.45572, 20.3445, -159.652, -92.935, 60.1546
2.43925, -1, -34.252, 1.41163, 20.3554, -159.703, -92.9167, 59.8554
2.44728, -1, -34.4179, 1.36747, 20.3663, -159.754, -92.8987, 59.556
2.45534, -1, -34.5837, 1.32334, 20.3772, -159.806, -92.8809, 59.2566
2.46334, -1, -34.7491, 1.27924, 20.388, -159.857, -92.8632, 58.9573
2.47248, -1, -34.914, 1.23509, 20.3989, -159.908, -92.8452, 58.658
2.47995, -1, -35.0788, 1.19092, 20.4098, -159.96, -92.8269, 58.3583
2.48833, -1, -35.2435, 1.14668, 20.4209, -160.011, -92.8084, 58.0587
2.49563, -1, -35.408, 1.10244, 20.4319, -160.063, -92.7899, 57.7591
2.50377, -1, -35.5715, 1.05847, 20.443, -160.114, -92.7717, 57.4593
2.51239, -1, -35.7329, 1.01489, 20.4544, -160.165, -92.7537, 57.1598
2.51976, -1, -35.8911, 0.97208, 20.4659, -160.216, -92.7359, 56.8625
2.52831, -1, -36.0448, 0.930611, 20.4777, -160.267, -92.7184, 56.5692
2.53585, -1, -36.1926, 0.890998, 20.4897, -160.315, -92.701, 56.2835
2.54431, -1, -36.3319, 0.853855, 20.5015, -160.362, -92.6842, 56.0102
2.55188, -1, -36.3977, 0.819759, 20.5127, -160.405, -92.6681, 55.756
2.56028, -1, -36.5778, 0.788835, 20.5226, -160.444, -92.6537, 55.5267
2.56725, -1, -36.6313, 0.774697, 20.5271, -160.461, -92.6472, 55.4232
2.57624, -1, -36.7699, 0.738042, 20.5377, -160.506, -92.6311, 55.1632
2.58328, -1, -36.8088, 0.727697, 20.54, -160.517, -92.6269, 55.0941
2.59243, -1, -36.9053, 0.702165, 20.544, -160.544, -92.6176, 54.9385
2.59929, -1, -36.9309, 0.695433, 20.5445, -160.551, -92.6155, 54.902
2.60894, -1, -36.9894, 0.680058, 20.5449, -160.563, -92.6115, 54.8289
2.61656, -1, -37.0152, 0.673223, 20.5444, -160.568, -92.6102, 54.8034
2.62326, -1, -37.0248, 0.670731, 20.5441, -160.569, -92.6098, 54.7953
2.63277, -1, -37.0423, 0.666344, 20.5436, -160.572, -92.6092, 54.7828
2.63919, 2, -37.0455, 0.665634, 20.5435, -160.572, -92.6091, 54.7809
2.64878, 2, -37.0487, 0.664586, 20.5434, -160.573, -92.6089, 54.7782
2.65726, 2, -37.0484, 0.664365, 20.5434, -160.573, -92.6089, 54.7776
2.66321, 2, -37.0481, 0.664304, 20.5434, -160.573, -92.6089, 54.7774
2.67127, 2, -37.048, 0.664253, 20.5434, -160.573, -92.6089, 54.7773
2.68111, 2, -37.0487, 0.664182, 20.5433, -160.573, -92.6089, 54.7773
2.68721, 2, -37.0492, 0.664151, 20.5433, -160.573, -92.609, 54.7773
2.69534, 2, -37.0502, 0.66406, 20.5432, -160.573, -92.609, 54.7774
2.70425, 2, -37.0515, 0.663854, 20.543, -160.573, -92.609, 54.7775
2.71222, 2, -37.0529, 0.663596, 20.5428, -160.573, -92.6091, 54.7778
2.7202, 2, -37.054, 0.663335, 20.5426, -160.573, -92.6091, 54.7779
2.72826, 2, -37.0549, 0.66313, 20.5424, -160.573, -92.6092, 54.7781
2.73623, 2, -37.0554, 0.663048, 20.5422, -160.573, -92.6093, 54.7783
2.74327, 2, -37.0554, 0.663002, 20.5421, -160.573, -92.6093, 54.7785
2.75125, 2, -37.0548, 0.663014, 20.5419, -160.573, -92.6093, 54.7787
2.7592, 2, -37.0539, 0.663048, 20.5419, -160.573, -92.6093, 54.779
2.76728, 2, -37.0529, 0.663127, 20.5418, -160.573, -92.6094, 54.7792
2.77521, 2, -37.0513, 0.66323, 20.5417, -160.573, -92.6094, 54.7794
2.78322, 2, -37.0498, 0.663349, 20.5417, -160.573, -92.6094, 54.7796
2.79133, 2, -37.0487, 0.663422, 20.5416, -160.573, -92.6094, 54.7797
2.79921, 2, -37.048, 0.663452, 20.5416, -160.573, -92.6094, 54.7798
2.80722, 2, -37.0477, 0.663429, 20.5416, -160.573, -92.6095, 54.7799
2.81528, 2, -37.0477, 0.663381, 20.5416, -160.573, -92.6095, 54.7799
2.8232, 2, -37.0479, 0.663272, 20.5415, -160.573, -92.6094, 54.7799
2.8312, 2, -37.0481, 0.663212, 20.5415, -160.573, -92.6095, 54.78
2.83928, 2, -37.0486, 0.663169, 20.5415, -160.573, -92.6095, 54.78
2.84723, 2, -37.0494, 0.663157, 20.5415, -160.573, -92.6095, 54.7801
2.8552, 2, -37.0503, 0.66314, 20.5415, -160.573, -92.6095, 54.7801
2.86331, 2, -37.051, 0.663131, 20.5415, -160.573, -92.6095, 54.7802
2.87125, 2, -37.0515, 0.663147, 20.5415, -160.573, -92.6095, 54.7802
2.87926, 2, -37.0518, 0.663201, 20.5414, -160.573, -92.6095, 54.7803
2.88736, 2, -37.0518, 0.663233, 20.5415, -160.573, -92.6095, 54.7803
2.89531, 2, -37.0518, 0.663248, 20.5415, -160.573, -92.6095, 54.7804
2.90331, 2, -37.0514, 0.663242, 20.5415, -160.573, -92.6095, 54.7804
2.91137, 2, -37.0509, 0.66324, 20.5414, -160.573, -92.6095, 54.7804
2.91935, 2, -37.0506, 0.663239, 20.5414, -160.573, -92.6096, 54.7805
2.92727, 2, -37.0504, 0.663227, 20.5414, -160.573, -92.6096, 54.7805
2.9354, 2, -37.0502, 0.663189, 20.5414, -160.573, -92.6096, 54.7805
2.94324, 2, -37.0501, 0.663166, 20.5414, -160.573, -92.6096, 54.7806
2.95124, 2, -37.0501, 0.663163, 20.5414, -160.573, -92.6096, 54.7806
2.95934, 2, -37.0502, 0.663147, 20.5414, -160.573, -92.6096, 54.7807
2.96761, 2, -37.0502, 0.663142, 20.5413, -160.572, -92.6096, 54.7808
2.97622, 2, -37.0503, 0.663168, 20.5413, -160.572, -92.6096, 54.7808
2.98383, 2, -37.0505, 0.663213, 20.5413, -160.572, -92.6096, 54.7809
2.99229, 2, -37.0507, 0.663239, 20.5413, -160.572, -92.6096, 54.7809
2.99959, 2, -37.0508, 0.663255, 20.5413, -160.572, -92.6096, 54.7809
3.00783, 2, -37.0509, 0.663253, 20.5413, -160.572, -92.6097, 54.781
3.01635, 2, -37.0509, 0.663257, 20.5413, -160.572, -92.6097, 54.781
3.02375, 2, -37.0508, 0.663252, 20.5413, -160.572, -92.6097, 54.7811
3.03231, 2, -37.0508, 0.663233, 20.5413, -160.572, -92.6098, 54.7812
3.04008, 2, -37.0507, 0.663217, 20.5413, -160.572, -92.6098, 54.7812
3.0478, 2, -37.0507, 0.663202, 20.5413, -160.572, -92.6098, 54.7813
3.0562, 2, -37.0507, 0.66318, 20.5412, -160.572, -92.6098, 54.7813
3.06407, 2, -37.0507, 0.663162, 20.5412, -160.572, -92.6098, 54.7813
3.0712, 2, -37.0506, 0.663165, 20.5412, -160.572, -92.6098, 54.7813
3.08039, 2, -37.0506, 0.663168, 20.5412, -160.572, -92.6098, 54.7814
3.08811, 2, -37.0506, 0.663169, 20.5412, -160.572, -92.6098, 54.7814
3.0952, 2, -37.0506, 0.663199, 20.5412, -160.572, -92.6097, 54.7814
3.10445, 2, -37.0506, 0.663253, 20.5412, -160.572, -92.6098, 54.7815
3.11119, 2, -37.0506, 0.663263, 20.5412, -160.572, -92.6098, 54.7815
3.11919, 2, -37.0506, 0.663274, 20.5412, -160.572, -92.6098, 54.7816
3.12877, 2, -37.0506, 0.66328, 20.5412, -160.572, -92.6098, 54.7816
3.1371, 2, -37.0506, 0.663274, 20.5412, -160.572, -92.6098, 54.7816
3.14319, 2, -37.0506, 0.663262, 20.5412, -160.572, -92.6098, 54.7817
3.15284, 2, -37.0506, 0.663245, 20.5412, -160.572, -92.6098, 54.7817
3.16102, 2, -37.0505, 0.663241, 20.5412, -160.572, -92.6098, 54.7817
3.1672, 2, -37.0506, 0.66324, 20.5412, -160.572, -92.6098, 54.7818
3.17526, 2, -37.0506, 0.663209, 20.5411, -160.572, -92.6099, 54.7818
3.18504, 2, -37.0505, 0.663224, 20.5411, -160.572, -92.6098, 54.7819
3.19119, 2, -37.0505, 0.663228, 20.5411, -160.572, -92.6098, 54.7819
3.20018, 2, -37.0505, 0.663233, 20.5411, -160.572, -92.6098, 54.7819
3.20906, 2, -37.0505, 0.663255, 20.5411, -160.572, -92.6098, 54.7819
3.21526, 2, -37.0505, 0.66327, 20.5411, -160.572, -92.6098, 54.782
3.22326, 2, -37.0505, 0.663277, 20.5411, -160.572, -92.6098, 54.782
3.23119, 2, -37.0504, 0.66328, 20.5411, -160.572, -92.6099, 54.782
3.23919, 2, -37.0504, 0.663282, 20.5411, -160.572, -92.6098, 54.7821
3.24727, 2, -37.0504, 0.663263, 20.5411, -160.572, -92.6098, 54.7821
3.25522, 2, -37.0504, 0.663257, 20.5411, -160.572, -92.6098, 54.7821
3.26319, 2, -37.0504, 0.663263, 20.5411, -160.572, -92.6098, 54.7821
3.27126, 2, -37.0504, 0.663262, 20.5411, -160.572, -92.6099, 54.7822
3.2792, 2, -37.0504, 0.663249, 20.541, -160.572, -92.6099, 54.7822
3.28718, 2, -37.0504, 0.663243, 20.541, -160.572, -92.6099, 54.7822
3.29525, 2, -37.0503, 0.663252, 20.541, -160.572, -92.6099, 54.7823
3.30319, 2, -37.0504, 0.663264, 20.541, -160.572, -92.6099, 54.7823
3.31119, 2, -37.0504, 0.663274, 20.541, -160.572, -92.6099, 54.7823
3.31927, 2, -37.0504, 0.663279, 20.541, -160.572, -92.6099, 54.7823
3.3272, 2, -37.0504, 0.663281, 20.541, -160.572, -92.6099, 54.7823
3.33519, 2, -37.0504, 0.663282, 20.541, -160.572, -92.6099, 54.7824
3.34326, 2, -37.0503, 0.663283, 20.541, -160.572, -92.6099, 54.7824
3.35119, 2, -37.0503, 0.663283, 20.541, -160.572, -92.61, 54.7824
3.35919, 2, -37.0503, 0.663283, 20.541, -160.572, -92.6099, 54.7824
3.3673, 2, -37.0503, 0.663283, 20.541, -160.572, -92.6099, 54.7825
3.37523, 2, -37.0503, 0.663276, 20.5409, -160.572, -92.6099, 54.7825
3.38324, 2, -37.0503, 0.663275, 20.5409, -160.572, -92.6099, 54.7825
3.39134, 2, -37.0502, 0.66326, 20.5409, -160.572, -92.6099, 54.7825
3.39932, 2, -37.0502, 0.66326, 20.5409, -160.572, -92.6099, 54.7825
3.4073, 2, -37.0502, 0.663267, 20.5409, -160.572, -92.61, 54.7825
3.41535, 2, -37.0502, 0.663276, 20.5409, -160.572, -92.61, 54.7825
3.42333, 2, -37.0502, 0.66328, 20.5409, -160.572, -92.61, 54.7826
3.43119, 2, -37.0502, 0.663281, 20.5409, -160.572, -92.61, 54.7826
3.43926, 2, -37.0502, 0.663282, 20.5409, -160.572, -92.6099, 54.7826
3.44723, 2, -37.0502, 0.663283, 20.5409, -160.572, -92.6099, 54.7825
3.45527, 2, -37.0502, 0.663283, 20.5409, -160.572, -92.61, 54.7825
3.46337, 2, -37.0502, 0.663283, 20.5409, -160.572, -92.61, 54.7825
3.47133, 2, -37.0501, 0.663283, 20.5409, -160.572, -92.61, 54.7826
3.47946, 2, -37.0501, 0.663283, 20.5409, -160.572, -92.6101, 54.7826
3.48754, 2, -37.0501, 0.663276, 20.5409, -160.572, -92.61, 54.7827
3.49554, 2, -37.0501, 0.663275, 20.5408, -160.572, -92.61, 54.7826
3.50366, 2, -37.0501, 0.663279, 20.5408, -160.572, -92.6101, 54.7826
3.51172, 2, -37.0501, 0.663281, 20.5408, -160.572, -92.61, 54.7827
3.52033, 2, -37.0501, 0.663282, 20.5408, -160.572, -92.61, 54.7828
3.52781, 2, -37.05, 0.663283, 20.5408, -160.572, -92.6101, 54.7828
3.53628, 2, -37.05, 0.663283, 20.5408, -160.572, -92.6101, 54.7828
3.54375, 2, -37.05, 0.663283, 20.5408, -160.572, -92.6101, 54.7828
3.55225, 2, -37.05, 0.663283, 20.5408, -160.572, -92.6102, 54.7828
3.55979, 2, -37.05, 0.663283, 20.5408, -160.572, -92.6101, 54.7828
3.56827, 2, -37.0499, 0.663283, 20.5408, -160.572, -92.6101, 54.7828
3.57518, 2, -37.0499, 0.663283, 20.5408, -160.572, -92.6101, 54.7828
3.58422, 2, -37.0499, 0.663271, 20.5408, -160.572, -92.6101, 54.7828
3.59122, 2, -37.0499, 0.663275, 20.5407, -160.572, -92.6101, 54.7828
3.60041, 2, -37.0499, 0.66328, 20.5407, -160.572, -92.6101, 54.7828
3.60724, 2, -37.0499, 0.663281, 20.5407, -160.572, -92.6101, 54.7828
3.61656, 2, -37.0499, 0.663282, 20.5407, -160.572, -92.6101, 54.7828
3.62318, 2, -37.0499, 0.663283, 20.5407, -160.572, -92.6101, 54.7828
3.63261, 2, -37.0498, 0.663283, 20.5407, -160.572, -92.6101, 54.7828
3.63931, 2, -37.0498, 0.663283, 20.5407, -160.572, -92.6101, 54.7828
3.64717, 2, -37.0498, 0.663312, 20.5407, -160.572, -92.6101, 54.7828
3.65519, 2, -37.0498, 0.663322, 20.5407, -160.572, -92.6101, 54.7828
3.66476, 2, -37.0497, 0.663319, 20.5407, -160.572, -92.6101, 54.7828
3.6728, 2, -37.0497, 0.663336, 20.5407, -160.572, -92.6101, 54.7828
3.68014, 2, -37.0497, 0.66333, 20.5407, -160.572, -92.6101, 54.7828
3.68817, 2, -37.0497, 0.663304, 20.5407, -160.572, -92.6101, 54.7829
3.69625, 2, -37.0497, 0.663311, 20.5407, -160.572, -92.6101, 54.7829
3.70318, 4, -37.0497, 0.663307, 20.5407, -160.572, -92.6101, 54.7829
3.71134, 4, -37.0497, 0.663312, 20.5407, -160.572, -92.6101, 54.7829
3.72022, 4, -37.0497, 0.663304, 20.5407, -160.572, -92.6101, 54.7829
3.72718, 4, -37.0497, 0.663322, 20.5407, -160.572, -92.6101, 54.7829
3.73524, 4, -37.0496, 0.663337, 20.5406, -160.571, -92.6102, 54.7829
3.74317, 4, -37.0496, 0.663345, 20.5406, -160.572, -92.6102, 54.7829
3.75117, 4, -37.0496, 0.663348, 20.5406, -160.571, -92.6102, 54.7829
3.75927, 4, -37.0495, 0.66335, 20.5406, -160.571, -92.6101, 54.7829
3.76718, 4, -37.0495, 0.663339, 20.5406, -160.571, -92.6101, 54.783
3.77526, 4, -37.0495, 0.663338, 20.5406, -160.572, -92.6101, 54.783
3.78324, 4, -37.0495, 0.663345, 20.5406, -160.572, -92.6101, 54.783
3.79117, 4, -37.0495, 0.663348, 20.5406, -160.571, -92.6102, 54.783
3.79917, 4, -37.0495, 0.66335, 20.5406, -160.571, -92.6101, 54.783
3.82518, 4, -37.0494, 0.663328, 20.5406, -160.571, -92.6101, 54.7829
3.82838, 4, -37.0494, 0.663336, 20.5406, -160.571, -92.6102, 54.7829
3.83034, 4, -37.0493, 0.663341, 20.5405, -160.571, -92.6102, 54.7829
3.83187, 4, -37.0493, 0.663341, 20.5405, -160.571, -92.6102, 54.7829
3.84021, 4, -37.0493, 0.663328, 20.5405, -160.571, -92.6102, 54.7829
3.84718, 4, -37.0493, 0.663348, 20.5405, -160.571, -92.6101, 54.783
3.85616, 4, -37.049, 0.663307, 20.5405, -160.571, -92.6101, 54.7829
3.86317, 4, -37.0475, 0.662917, 20.5406, -160.571, -92.6102, 54.7829
3.87121, 4, -37.0435, 0.661263, 20.541, -160.571, -92.6102, 54.783
3.87929, 4, -37.0363, 0.657628, 20.5424, -160.571, -92.6101, 54.7829
3.88724, 4, -37.027, 0.652111, 20.5455, -160.571, -92.6102, 54.7829
3.89527, 4, -37.0161, 0.644781, 20.5511, -160.57, -92.6102, 54.7829
3.90355, 4, -37.0029, 0.635207, 20.5598, -160.568, -92.6102, 54.7828
3.91223, 5, -36.987, 0.623083, 20.5719, -160.566, -92.6101, 54.7828
3.91928, 5, -36.9696, 0.608882, 20.5877, -160.562, -92.6099, 54.7827
3.92739, 5, -36.9511, 0.593135, 20.6066, -160.558, -92.6098, 54.7827
3.93518, 5, -36.9309, 0.575406, 20.6277, -160.554, -92.6096, 54.7826
3.94319, 5, -36.9076, 0.555085, 20.6507, -160.549, -92.6093, 54.7825
3.95148, 5, -36.8809, 0.532941, 20.6748, -160.544, -92.6091, 54.7824
3.95925, 5, -36.8521, 0.509834, 20.6993, -160.539, -92.6087, 54.7823
3.96732, 5, -36.8222, 0.485939, 20.7242, -160.533, -92.6083, 54.7821
3.97543, 5, -36.7916, 0.461855, 20.7492, -160.528, -92.6078, 54.7819
3.98339, 5, -36.7608, 0.437657, 20.7744, -160.522, -92.6073, 54.7816
3.99159, 5, -36.7298, 0.41329, 20.7994, -160.516, -92.6068, 54.7814
3.99978, 5, -36.6988, 0.388958, 20.8244, -160.511, -92.6062, 54.7811
4.0082, 5, -36.6681, 0.364543, 20.8495, -160.505, -92.6056, 54.781
4.01575, 5, -36.6376, 0.340374, 20.8748, -160.499, -92.6049, 54.7808
4.02431, 5, -36.6069, 0.316247, 20.9, -160.494, -92.6041, 54.7806
4.0317, 5, -36.5762, 0.292209, 20.9252, -160.488, -92.6034, 54.7805
4.04026, 5, -36.5453, 0.268273, 20.9505, -160.483, -92.6027, 54.7804
4.04803, 5, -36.5145, 0.24417, 20.9757, -160.477, -92.602, 54.7803
4.05572, 5, -36.4992, 0.232134, 20.9883, -160.475, -92.6012, 54.7803
4.06417, 5, -36.4537, 0.196177, 21.0259, -160.467, -92.6005, 54.7802
4.07116, 5, -36.4385, 0.184106, 21.0385, -160.464, -92.6001, 54.7802
4.08019, 5, -36.3928, 0.147979, 21.0762, -160.456, -92.599, 54.7799
4.08724, 5, -36.3775, 0.135889, 21.0888, -160.454, -92.5986, 54.7798
4.09667, 5, -36.331, 0.09954, 21.1263, -160.446, -92.5974, 54.7795
4.10317, 5, -36.3154, 0.0874898, 21.1388, -160.444, -92.597, 54.7794
4.11252, 5, -36.2686, 0.0511855, 21.1762, -160.436, -92.5959, 54.779
4.11917, 5, -36.2529, 0.0391116, 21.1888, -160.433, -92.5955, 54.7788
4.12852, 5, -36.206, 0.00296878, 21.2263, -160.426, -92.5943, 54.7783
4.13517, 5, -36.1904, -0.0091149, 21.2388, -160.423, -92.5939, 54.7782
4.14532, 5, -36.1436, -0.045015, 21.2762, -160.415, -92.5928, 54.7776
4.15122, 5, -36.1281, -0.0569974, 21.2887, -160.412, -92.5924, 54.7774
4.16079, 5, -36.0811, -0.0927568, 21.3263, -160.404, -92.5913, 54.7767
4.16969, 5, -36.05, -0.116621, 21.3511, -160.399, -92.5905, 54.7763
4.17522, 5, -36.0345, -0.128598, 21.3635, -160.396, -92.5902, 54.776
4.18564, 5, -36.0035, -0.152405, 21.3884, -160.388, -92.589, 54.7753
4.19116, 5, -35.9726, -0.176225, 21.4132, -160.385, -92.5887, 54.7751
4.20018, 5, -35.9416, -0.200189, 21.4381, -160.379, -92.5879, 54.7746
4.2082, 5, -35.9104, -0.223987, 21.4629, -160.373, -92.5872, 54.7741
4.21615, 5, -35.8792, -0.247928, 21.4876, -160.367, -92.5864, 54.7737
4.22322, 5, -35.8479, -0.271841, 21.5123, -160.361, -92.5857, 54.7733
4.23116, 5, -35.8164, -0.295618, 21.537, -160.355, -92.585, 54.773
4.23917, 5, -35.785, -0.31951, 21.5617, -160.35, -92.5843, 54.7726
4.24722, 5, -35.7534, -0.343296, 21.5863, -160.344, -92.5836, 54.7723
4.25516, 5, -35.7219, -0.367074, 21.611, -160.338, -92.5829, 54.772
4.26319, 5, -35.6906, -0.390831, 21.6356, -160.333, -92.5822, 54.7717
4.27125, 5, -35.6592, -0.414462, 21.6603, -160.327, -92.5815, 54.7714
4.27917, 5, -35.6277, -0.438164, 21.6848, -160.322, -92.5807, 54.7712
4.28716, 5, -35.5961, -0.461729, 21.7092, -160.316, -92.58, 54.771
4.29523, 5, -35.5647, -0.485412, 21.7337, -160.311, -92.5793, 54.7708
4.30315, 5, -35.5335, -0.509092, 21.7582, -160.305, -92.5786, 54.7707
4.31116, 5, -35.5022, -0.53261, 21.7826, -160.3, -92.5779, 54.7706
4.31923, 5, -35.4708, -0.55626, 21.807, -160.295, -92.5772, 54.7705
4.32717, 5, -35.4393, -0.579801, 21.8313, -160.289, -92.5765, 54.7704
4.33517, 5, -35.4078, -0.603355, 21.8555, -160.284, -92.5758, 54.7703
4.34321, 5, -35.3762, -0.627023, 21.8799, -160.278, -92.5751, 54.7704
4.35115, 5, -35.3446, -0.650474, 21.9041, -160.273, -92.5744, 54.7703
4.35923, 5, -35.3128, -0.674008, 21.9283, -160.267, -92.5736, 54.7703
4.36716, 5, -35.2809, -0.697565, 21.9525, -160.262, -92.5729, 54.7702
4.37519, 5, -35.2492, -0.720968, 21.9768, -160.256, -92.5722, 54.7703
4.38344, 5, -35.2174, -0.744471, 22.0009, -160.25, -92.5715, 54.7702
4.39229, 5, -35.1856, -0.767779, 22.0249, -160.244, -92.5708, 54.7702
4.3993, 5, -35.1538, -0.791002, 22.049, -160.238, -92.5701, 54.7702
4.40737, 5, -35.1219, -0.814296, 22.073, -160.232, -92.5693, 54.7702
4.41525, 5, -35.0903, -0.837458, 22.0971, -160.226, -92.5686, 54.7703
4.42326, 5, -35.0587, -0.860817, 22.1211, -160.22, -92.5679, 54.7704
4.43153, 5, -35.0271, -0.884178, 22.145, -160.214, -92.5672, 54.7704
4.44019, 5, -34.9952, -0.907333, 22.1688, -160.208, -92.5665, 54.7704
4.44718, 5, -34.9634, -0.930655, 22.1926, -160.202, -92.5658, 54.7705
4.45519, 5, -34.9316, -0.953896, 22.2166, -160.196, -92.5651, 54.7705
4.46322, 5, -34.8998, -0.977108, 22.2403, -160.19, -92.5644, 54.7706
4.47129, 5, -34.868, -1.00042, 22.264, -160.184, -92.5637, 54.7706
4.47945, 5, -34.8361, -1.02351, 22.2878, -160.179, -92.5629, 54.7706
4.4874, 5, -34.804, -1.04658, 22.3115, -160.173, -92.5622, 54.7706
4.49556, 5, -34.772, -1.06967, 22.3352, -160.168, -92.5614, 54.7706
4.50358, 5, -34.74, -1.0927, 22.3587, -160.162, -92.5607, 54.7707
4.51219, 5, -34.708, -1.11583, 22.3823, -160.157, -92.56, 54.7707
4.51979, 5, -34.6759, -1.13891, 22.4059, -160.151, -92.5593, 54.7708
4.52847, 5, -34.6438, -1.16186, 22.4295, -160.146, -92.5585, 54.7709
4.53628, 5, -34.6119, -1.18491, 22.453, -160.14, -92.5578, 54.771
4.54379, 5, -34.5798, -1.20786, 22.4765, -160.135, -92.5571, 54.7712
4.55225, 5, -34.5478, -1.2309, 22.4998, -160.129, -92.5563, 54.7713
4.55978, 5, -34.5317, -1.24244, 22.5232, -160.123, -92.5556, 54.7716
4.56821, 5, -34.4835, -1.27681, 22.5467, -160.117, -92.5549, 54.7718
4.57517, 5, -34.4674, -1.28828, 22.5584, -160.114, -92.5545, 54.7719
4.58421, 5, -34.4193, -1.32263, 22.5933, -160.106, -92.5534, 54.7726
4.59114, 5, -34.4032, -1.33402, 22.605, -160.102, -92.553, 54.7728
4.60069, 5, -34.3547, -1.36837, 22.64, -160.093, -92.5518, 54.7737
4.60872, 5, -34.3224, -1.39111, 22.6633, -160.087, -92.551, 54.7744
4.61515, 5, -34.3062, -1.40244, 22.6749, -160.084, -92.5507, 54.7748
4.62461, 5, -34.2578, -1.43663, 22.7096, -160.074, -92.5496, 54.7762
4.63114, 5, -34.2417, -1.44797, 22.7212, -160.071, -92.5492, 54.7767
4.64065, 5, -34.193, -1.48204, 22.7559, -160.062, -92.548, 54.7784
4.64973, 5, -34.1606, -1.50475, 22.7792, -160.055, -92.5473, 54.7798
4.65741, 5, -34.1283, -1.52732, 22.8022, -160.049, -92.5465, 54.7811
4.66315, 5, -34.1121, -1.53865, 22.8137, -160.046, -92.5461, 54.7818
4.67273, 5, -34.0798, -1.57254, 22.8482, -160.037, -92.545, 54.7839
4.6792, 5, -34.0473, -1.58382, 22.8597, -160.034, -92.5446, 54.7847
4.68872, 5, -34.0149, -1.6065, 22.8828, -160.028, -92.5434, 54.787
4.69614, 5, -33.9825, -1.62911, 22.9057, -160.022, -92.5431, 54.7878
4.7032, 5, -33.95, -1.65157, 22.9286, -160.017, -92.5422, 54.7894
4.71219, 5, -33.9176, -1.67417, 22.9516, -160.011, -92.5415, 54.7909
4.7202, 5, -33.885, -1.6966, 22.9745, -160.005, -92.5407, 54.7925
4.73077, 5, -33.8361, -1.7303, 23.0087, -159.996, -92.5395, 54.795
4.73619, 5, -33.8199, -1.74159, 23.02, -159.993, -92.5391, 54.7958
4.74413, 5, -33.7872, -1.76392, 23.0428, -159.987, -92.5383, 54.7975
4.75118, 5, -33.7546, -1.78631, 23.0655, -159.981, -92.5375, 54.7991
4.75915, 5, -33.7218, -1.80879, 23.0882, -159.975, -92.5367, 54.8008
4.76717, 5, -33.6891, -1.8311, 23.111, -159.969, -92.5359, 54.8025
4.77521, 5, -33.6566, -1.85354, 23.1335, -159.963, -92.5351, 54.8042
4.78313, 5, -33.624, -1.8759, 23.1561, -159.956, -92.5343, 54.8059
4.79116, 5, -33.5913, -1.89815, 23.1786, -159.95, -92.5335, 54.8076
4.79935, 5, -33.5585, -1.92053, 23.2011, -159.943, -92.5327, 54.8094
4.8082, 5, -33.5257, -1.94275, 23.2237, -159.937, -92.5319, 54.8111
4.81617, 5, -33.4931, -1.96511, 23.2461, -159.93, -92.5311, 54.8129
4.82415, 5, -33.4604, -1.98758, 23.2686, -159.924, -92.5303, 54.8146
4.83118, 5, -33.4277, -2.00995, 23.2911, -159.917, -92.5294, 54.8163
4.83914, 5, -33.395, -2.03252, 23.3137, -159.911, -92.5284, 54.8179
4.8472, 5, -33.3624, -2.05521, 23.3363, -159.904, -92.5274, 54.8193
4.85514, 5, -33.3298, -2.0779, 23.3588, -159.898, -92.5261, 54.8205
4.86314, 5, -33.2974, -2.10096, 23.3817, -159.891, -92.5246, 54.8215
4.87121, 6, -33.2648, -2.12408, 23.4047, -159.885, -92.5228, 54.8222
4.87915, 6, -33.2324, -2.14732, 23.4281, -159.878, -92.5208, 54.8226
4.88719, 6, -33.2003, -2.17099, 23.4515, -159.871, -92.5185, 54.8228
4.89545, 6, -33.1681, -2.19474, 23.475, -159.864, -92.516, 54.8229
4.9042, 6, -33.1361, -2.21889, 23.4988, -159.857, -92.513, 54.8229
4.91125, 6, -33.1041, -2.24333, 23.5227, -159.849, -92.5099, 54.8228
4.91925, 6, -33.0722, -2.26784, 23.5471, -159.841, -92.5065, 54.8226
4.92762, 6, -33.0407, -2.29282, 23.5714, -159.833, -92.5029, 54.8222
4.93534, 6, -33.0092, -2.31791, 23.596, -159.824, -92.499, 54.8215
4.94317, 6, -32.9778, -2.34342, 23.6209, -159.816, -92.4948, 54.8205
4.95193, 6, -32.9464, -2.36922, 23.6459, -159.806, -92.4904, 54.8195
4.96018, 7, -32.9151, -2.39512, 23.6712, -159.797, -92.4858, 54.8184
4.96746, 7, -32.8841, -2.42141, 23.6965, -159.787, -92.481, 54.8169
4.97591, 7, -32.8532, -2.44789, 23.722, -159.777, -92.4759, 54.8148
4.98412, 7, -32.8223, -2.47479, 23.7479, -159.767, -92.4705, 54.8118
4.99178, 7, -32.7915, -2.50187, 23.774, -159.757, -92.465, 54.8081
5.00039, 7, -32.7608, -2.52921, 23.8002, -159.747, -92.4591, 54.8037
5.00758, 7, -32.7303, -2.55693, 23.8265, -159.737, -92.453, 54.7988
5.01664, 7, -32.7, -2.58483, 23.8531, -159.726, -92.4466, 54.7936
5.02424, 7, -32.6697, -2.61314, 23.88, -159.716, -92.44, 54.7878
5.03166, 7, -32.6395, -2.64158, 23.9069, -159.705, -92.4331, 54.7816
5.04076, 7, -32.6093, -2.67027, 23.9342, -159.694, -92.4259, 54.775
5.04826, 7, -32.5794, -2.69932, 23.9616, -159.683, -92.4183, 54.7681
5.05571, 8, -32.5645, -2.72875, 23.9894, -159.671, -92.4103, 54.7608
5.06491, 8, -32.52, -2.75833, 24.0172, -159.659, -92.402, 54.753
5.07213, 8, -32.4903, -2.78822, 24.0452, -159.647, -92.3931, 54.7448
5.07921, 8, -32.4755, -2.80324, 24.0592, -159.64, -92.3885, 54.7407
5.08927, 8, -32.4313, -2.84882, 24.102, -159.622, -92.3742, 54.7275
5.09662, 8, -32.4167, -2.86412, 24.1306, -159.609, -92.3642, 54.7182
5.10316, 8, -32.3875, -2.89493, 24.145, -159.603, -92.3592, 54.7134
5.11351, 8, -32.3438, -2.94171, 24.1885, -159.584, -92.3439, 54.6985
5.11917, 8, -32.3292, -2.95746, 24.2031, -159.578, -92.3388, 54.6933
5.12853, 8, -32.2859, -3.00508, 24.2472, -159.558, -92.323, 54.677
5.13512, 8, -32.2716, -3.02107, 24.2621, -159.551, -92.3177, 54.6714
5.14525, 9, -32.2286, -3.06939, 24.3069, -159.531, -92.3016, 54.654
5.15113, 9, -32.2144, -3.08568, 24.322, -159.524, -92.2961, 54.6481
5.16195, 9, -32.1718, -3.13486, 24.3672, -159.502, -92.2791, 54.6299
5.16736, 9, -32.1576, -3.15141, 24.3824, -159.495, -92.2733, 54.6238
5.17673, 9, -32.1154, -3.20144, 24.4284, -159.473, -92.2552, 54.6054
5.18473, 9, -32.1014, -3.21831, 24.4438, -159.465, -92.2425, 54.5929
5.19213, 9, -32.0734, -3.25217, 24.4747, -159.451, -92.2359, 54.5866
5.20175, 9, -32.0456, -3.28639, 24.5058, -159.436, -92.2157, 54.5673
5.20819, 9, -32.0177, -3.32088, 24.5373, -159.421, -92.2088, 54.5607
5.21617, 9, -31.9899, -3.35569, 24.5688, -159.406, -92.1951, 54.5472
5.22412, 9, -31.9623, -3.39068, 24.6006, -159.39, -92.1813, 54.5334
5.23213, 10, -31.9349, -3.42598, 24.6326, -159.374, -92.1674, 54.5192
5.24017, 10, -31.9076, -3.46167, 24.6649, -159.358, -92.1533, 54.5044
5.24811, 10, -31.8805, -3.49758, 24.6972, -159.341, -92.1389, 54.489
5.25512, 10, -31.8534, -3.53374, 24.7298, -159.325, -92.1241, 54.4732
5.26332, 10, -31.8264, -3.57021, 24.7627, -159.309, -92.1087, 54.457
5.27212, 10, -31.7996, -3.60694, 24.7957, -159.292, -92.0929, 54.4408
5.27915, 10, -31.7728, -3.64392, 24.8289, -159.276, -92.0765, 54.4244
5.28712, 10, -31.7462, -3.68121, 24.8624, -159.259, -92.0601, 54.408
5.29519, 10, -31.7198, -3.71884, 24.8961, -159.242, -92.0435, 54.3915
5.30312, 10, -31.6933, -3.75664, 24.9299, -159.224, -92.027, 54.3747
5.31113, 10, -31.6671, -3.79473, 24.9641, -159.206, -92.0105, 54.3575
5.31918, 10, -31.641, -3.83326, 24.9985, -159.188, -91.9937, 54.3401
5.32712, 11, -31.6148, -3.87197, 25.0328, -159.17, -91.9764, 54.3221
5.33514, 11, -31.5888, -3.91093, 25.0675, -159.152, -91.9587, 54.3035
5.34318, 11, -31.5628, -3.95026, 25.1025, -159.134, -91.9403, 54.2844
5.35113, 11, -31.5367, -3.98988, 25.1375, -159.116, -91.9216, 54.2651
5.35928, 11, -31.5109, -4.02976, 25.1727, -159.097, -91.9029, 54.2456
5.36717, 11, -31.4855, -4.06998, 25.2083, -159.077, -91.8841, 54.2261
5.37512, 11, -31.46, -4.11058, 25.244, -159.057, -91.8652, 54.2065
5.38333, 11, -31.4346, -4.15135, 25.2799, -159.038, -91.8461, 54.1866
5.39119, 11, -31.4094, -4.19247, 25.3161, -159.019, -91.8264, 54.1664
5.3992, 11, -31.384, -4.23396, 25.3524, -158.999, -91.8062, 54.1457
5.40759, 11, -31.3588, -4.27564, 25.3888, -158.98, -91.7854, 54.1245
5.41521, 12, -31.334, -4.31761, 25.4256, -158.959, -91.7644, 54.1025
5.42322, 12, -31.3091, -4.35991, 25.4626, -158.939, -91.7437, 54.0803
5.43171, 12, -31.2845, -4.40249, 25.4997, -158.918, -91.7229, 54.0579
5.44024, 12, -31.2601, -4.44535, 25.5371, -158.897, -91.702, 54.0356
5.44716, 12, -31.2357, -4.48842, 25.5748, -158.876, -91.6805, 54.0131
5.45667, 12, -31.2112, -4.53172, 25.6125, -158.855, -91.6584, 53.9905
5.46442, 12, -31.187, -4.5754, 25.6506, -158.834, -91.6359, 53.9674
5.47121, 12, -31.1628, -4.61931, 25.6888, -158.813, -91.6133, 53.9438
5.47928, 12, -31.1387, -4.66346, 25.7271, -158.79, -91.5908, 53.9195
5.48736, 12, -31.1147, -4.70797, 25.7658, -158.768, -91.568, 53.8949
5.49537, 12, -31.091, -4.75281, 25.8046, -158.746, -91.545, 53.8703
5.50357, 12, -31.0671, -4.798, 25.8434, -158.724, -91.5213, 53.8457
5.51155, 13, -31.0433, -4.84347, 25.8826, -158.703, -91.4969, 53.821
5.52022, 13, -31.0198, -4.88923, 25.9221, -158.68, -91.4725, 53.7959
5.52799, 13, -30.9964, -4.93539, 25.9617, -158.657, -91.4482, 53.7704
5.5366, 13, -30.9729, -4.98183, 26.0015, -158.634, -91.4238, 53.7441
5.54368, 13, -30.9497, -5.02853, 26.0415, -158.611, -91.3991, 53.7174
5.55274, 13, -30.9266, -5.07557, 26.0819, -158.588, -91.3738, 53.6908
5.56027, 13, -30.9034, -5.12286, 26.1223, -158.564, -91.3479, 53.664
5.56777, 13, -30.8919, -5.1466, 26.1426, -158.553, -91.322, 53.6372
5.57703, 13, -30.8578, -5.21825, 26.2039, -158.517, -91.2961, 53.6098
5.58414, 13, -30.8351, -5.26624, 26.245, -158.492, -91.2702, 53.582
5.59117, 13, -30.8237, -5.29036, 26.2656, -158.48, -91.257, 53.5678
5.6012, 14, -30.79, -5.36313, 26.3279, -158.444, -91.2164, 53.5247
5.60719, 14, -30.7788, -5.38748, 26.3488, -158.432, -91.2027, 53.5103
5.61646, 14, -30.7452, -5.46107, 26.4115, -158.395, -91.1616, 53.4677
5.6231, 14, -30.7341, -5.48576, 26.4326, -158.383, -91.148, 53.4534
5.63352, 14, -30.7011, -5.56042, 26.4959, -158.344, -91.1067, 53.4097
5.63911, 14, -30.69, -5.58548, 26.5171, -158.332, -91.0926, 53.3947
5.64858, 14, -30.6572, -5.66102, 26.5812, -158.294, -91.0492, 53.3487
5.65749, 14, -30.6354, -5.71187, 26.6242, -158.268, -91.0204, 53.3181
5.66314, 14, -30.6246, -5.73739, 26.6458, -158.256, -91.006, 53.3028
5.67272, 14, -30.592, -5.81442, 26.7106, -158.216, -90.9625, 53.2568
5.68164, 14, -30.5706, -5.86611, 26.7542, -158.19, -90.9325, 53.2256
5.68738, 15, -30.5599, -5.89206, 26.7762, -158.176, -90.9173, 53.2098
5.69669, 15, -30.5387, -5.94418, 26.82, -158.15, -90.887, 53.1775
5.7041, 15, -30.5175, -5.99643, 26.8641, -158.124, -90.8569, 53.145
5.71114, 15, -30.4964, -6.04901, 26.9085, -158.097, -90.8268, 53.1128
5.72028, 15, -30.4755, -6.10185, 26.953, -158.07, -90.796, 53.0803
5.73086, 15, -30.4441, -6.18153, 27.0202, -158.028, -90.7488, 53.0307
5.73613, 15, -30.4337, -6.20825, 27.0427, -158.015, -90.7332, 53.0137
5.74413, 15, -30.413, -6.26196, 27.0878, -157.987, -90.7018, 52.9795
5.75413, 15, -30.3823, -6.34313, 27.1559, -157.945, -90.654, 52.9282
5.75917, 15, -30.3721, -6.37036, 27.1786, -157.931, -90.6376, 52.9111
5.76711, 15, -30.3518, -6.42519, 27.2243, -157.902, -90.6046, 52.8767
5.77514, 15, -30.3316, -6.48033, 27.2703, -157.874, -90.5721, 52.8415
5.7832, 16, -30.3116, -6.53581, 27.3165, -157.846, -90.5395, 52.8057
5.7911, 16, -30.2914, -6.59155, 27.3627, -157.818, -90.5063, 52.77
5.79911, 16, -30.2713, -6.64761, 27.4094, -157.788, -90.4722, 52.7345
5.80717, 16, -30.2515, -6.70394, 27.4562, -157.759, -90.4384, 52.6986
5.81511, 16, -30.2318, -6.76039, 27.5032, -157.73, -90.4048, 52.6624
5.82326, 16, -30.212, -6.81719, 27.5504, -157.701, -90.3705, 52.6254
5.83115, 16, -30.1925, -6.87413, 27.5979, -157.671, -90.3353, 52.5882
5.83913, 16, -30.1731, -6.93136, 27.6457, -157.641, -90.3001, 52.5513
5.84711, 16, -30.1538, -6.98883, 27.6935, -157.611, -90.2652, 52.5142
5.8551, 16, -30.1345, -7.04668, 27.7416, -157.581, -90.2299, 52.4765
5.86409, 16, -30.1153, -7.10483, 27.7899, -157.551, -90.1937, 52.4382
5.87208, 17, -30.0962, -7.16335, 27.8382, -157.52, -90.1576, 52.3998
5.87915, 17, -30.0773, -7.22229, 27.8869, -157.489, -90.1216, 52.3619
5.88741, 17, -30.0584, -7.28154, 27.9357, -157.458, -90.0853, 52.3237
5.89539, 17, -30.0396, -7.34117, 27.9848, -157.427, -90.048, 52.2848
5.90411, 17, -30.021, -7.40108, 28.034, -157.396, -90.0107, 52.2451
5.91149, 17, -30.0026, -7.46126, 28.0835, -157.365, -89.9738, 52.2055
5.91963, 17, -29.9841, -7.52161, 28.1332, -157.332, -89.9365, 52.1661
5.92816, 17, -29.9657, -7.58219, 28.183, -157.301, -89.8981, 52.1263
5.93522, 17, -29.9475, -7.64296, 28.2332, -157.269, -89.8601, 52.0858
5.94406, 17, -29.9293, -7.70397, 28.2836, -157.237, -89.8221, 52.0449
5.95215, 17, -29.9113, -7.76526, 28.3342, -157.204, -89.7835, 52.0043
5.95914, 17, -29.8933, -7.82678, 28.385, -157.172, -89.744, 51.9633
5.96804, 18, -29.8755, -7.88865, 28.4359, -157.139, -89.705, 51.9219
5.97615, 18, -29.8579, -7.95086, 28.487, -157.107, -89.6663, 51.8795
5.9835, 18, -29.8403, -8.01348, 28.5382, -157.073, -89.6265, 51.8375
5.99236, 18, -29.8226, -8.0764, 28.5898, -157.039, -89.5864, 51.7955
6.00105, 18, -29.8051, -8.13975, 28.6416, -157.006, -89.5467, 51.7532
6.0076, 18, -29.7878, -8.20333, 28.6935, -156.973, -89.5066, 51.7099
6.01801, 18, -29.7705, -8.26723, 28.7457, -156.939, -89.4654, 51.6665
6.0245, 18, -29.7533, -8.33131, 28.7981, -156.904, -89.4242, 51.6236
6.03182, 18, -29.7361, -8.39559, 28.8507, -156.87, -89.3837, 51.5804
6.04023, 18, -29.7192, -8.46006, 28.9035, -156.836, -89.3423, 51.5364
6.0486, 18, -29.7022, -8.52478, 28.9566, -156.802, -89.3002, 51.4921
6.05567, 19, -29.6938, -8.55725, 29.0099, -156.766, -89.2586, 51.4481
6.0642, 19, -29.6686, -8.65503, 29.0633, -156.732, -89.2168, 51.4041
6.07263, 19, -29.6518, -8.7206, 29.1169, -156.697, -89.1739, 51.3596
6.0791, 19, -29.6435, -8.75352, 29.1437, -156.68, -89.1525, 51.337
6.08714, 19, -29.6269, -8.81964, 29.1975, -156.644, -89.11, 51.2921
6.09786, 19, -29.6023, -8.91945, 29.2787, -156.591, -89.0457, 51.2251
6.10425, 19, -29.586, -8.98634, 29.3331, -156.555, -89.0023, 51.1797
6.11118, 19, -29.5779, -9.01992, 29.3603, -156.537, -88.9808, 51.1566
6.1204, 19, -29.5539, -9.12107, 29.4425, -156.483, -88.9158, 51.0872
6.12715, 19, -29.546, -9.15487, 29.47, -156.464, -88.8936, 51.0642
6.13738, 19, -29.5222, -9.25665, 29.5527, -156.41, -88.8275, 50.9943
6.14314, 19, -29.5143, -9.29068, 29.5805, -156.392, -88.8057, 50.9706
6.15267, 20, -29.4905, -9.39321, 29.6639, -156.336, -88.7388, 50.8997
6.16145, 20, -29.4749, -9.46191, 29.7198, -156.299, -88.694, 50.8525
6.16731, 20, -29.4671, -9.49633, 29.7478, -156.281, -88.6718, 50.8287
6.17509, 20, -29.4517, -9.56537, 29.8038, -156.244, -88.6269, 50.7804
6.18551, 20, -29.4364, -9.63481, 29.8882, -156.187, -88.5583, 50.7081
6.19116, 20, -29.4211, -9.70452, 29.9165, -156.168, -88.5357, 50.6841
6.20008, 20, -29.406, -9.77461, 29.9732, -156.13, -88.4904, 50.6357
6.20808, 20, -29.3911, -9.84489, 30.0301, -156.092, -88.4441, 50.5865
6.21616, 20, -29.3762, -9.91551, 30.0872, -156.054, -88.3979, 50.5377
6.22412, 20, -29.3612, -9.98637, 30.1445, -156.015, -88.3518, 50.489
6.23114, 20, -29.3463, -10.0574, 30.202, -155.977, -88.3047, 50.4398
6.23907, 21, -29.3315, -10.1288, 30.2597, -155.938, -88.2576, 50.39
6.24817, 21, -29.3168, -10.2004, 30.3177, -155.899, -88.211, 50.3404
6.25609, 21, -29.3022, -10.2722, 30.3757, -155.86, -88.1635, 50.2908
6.26424, 21, -29.2877, -10.3443, 30.434, -155.821, -88.1159, 50.2406
6.27191, 21, -29.2732, -10.4166, 30.4923, -155.781, -88.0687, 50.1902
6.28009, 21, -29.2589, -10.4891, 30.5509, -155.742, -88.0205, 50.1403
6.28813, 21, -29.2447, -10.562, 30.6096, -155.702, -87.9721, 50.0901
6.29609, 21, -29.2306, -10.6351, 30.6686, -155.663, -87.9243, 50.039
6.30409, 21, -29.2166, -10.7085, 30.7278, -155.622, -87.8755, 49.988
6.31219, 21, -29.2025, -10.782, 30.7873, -155.582, -87.8265, 49.9374
6.32009, 21, -29.1884, -10.8559, 30.8468, -155.542, -87.7781, 49.8861
6.32804, 22, -29.1744, -10.9301, 30.9066, -155.501, -87.7286, 49.8342
6.33615, 22, -29.1606, -11.0044, 30.9666, -155.459, -87.6789, 49.7829
6.34311, 22, -29.1468, -11.079, 31.0267, -155.419, -87.6299, 49.7314
6.35113, 22, -29.1331, -11.1539, 31.0869, -155.377, -87.5798, 49.6791
6.3601, 22, -29.1195, -11.229, 31.1473, -155.335, -87.5296, 49.6266
6.36883, 22, -29.1061, -11.3043, 31.2078, -155.294, -87.4797, 49.5746
6.37612, 22, -29.0929, -11.3798, 31.2686, -155.253, -87.4289, 49.5222
6.38505, 22, -29.0797, -11.4556, 31.3296, -155.21, -87.3783, 49.4689
6.39116, 22, -29.0665, -11.5317, 31.3908, -155.168, -87.3281, 49.4163
6.39921, 22, -29.0535, -11.6081, 31.4522, -155.126, -87.2768, 49.3636
6.40717, 22, -29.0404, -11.6847, 31.5138, -155.084, -87.2259, 49.3103
6.41607, 22, -29.0274, -11.7616, 31.5755, -155.04, -87.1749, 49.2567
6.42414, 23, -29.0145, -11.8387, 31.6374, -154.998, -87.1228, 49.2038
6.43119, 23, -29.0017, -11.916, 31.6993, -154.955, -87.0715, 49.1504
6.44011, 23, -28.989, -11.9935, 31.7615, -154.912, -87.02, 49.0964
6.44724, 23, -28.9763, -12.0713, 31.8237, -154.868, -86.9675, 49.043
6.45514, 23, -28.9636, -12.1492, 31.8862, -154.825, -86.9158, 48.9896
6.46347, 23, -28.951, -12.2275, 31.9489, -154.782, -86.8633, 48.9354
6.47211, 23, -28.9387, -12.3059, 32.0119, -154.737, -86.8102, 48.8811
6.48319, 23, -28.9202, -12.424, 32.1066, -154.672, -86.7314, 48.8002
6.48729, 23, -28.9141, -12.4635, 32.1383, -154.65, -86.7045, 48.7729
6.49539, 23, -28.9019, -12.5426, 32.2017, -154.605, -86.6511, 48.7181
6.5043, 23, -28.8897, -12.6219, 32.2654, -154.561, -86.5981, 48.6638
6.51188, 24, -28.8775, -12.7015, 32.3292, -154.516, -86.544, 48.6093
6.52011, 24, -28.8655, -12.7813, 32.3931, -154.471, -86.4907, 48.554
6.52827, 24, -28.8536, -12.8612, 32.4571, -154.426, -86.437, 48.499
6.5359, 24, -28.8417, -12.9414, 32.5212, -154.381, -86.3826, 48.4442
6.54366, 24, -28.8299, -13.0218, 32.5856, -154.335, -86.3288, 48.3887
6.5526, 24, -28.8182, -13.1025, 32.6502, -154.289, -86.2742, 48.3331
6.55983, 24, -28.8064, -13.1834, 32.715, -154.244, -86.2196, 48.2778
6.56869, 24, -28.7947, -13.2645, 32.78, -154.198, -86.1655, 48.2223
6.57608, 24, -28.7832, -13.3458, 32.8451, -154.152, -86.1102, 48.1662
6.58312, 24, -28.7775, -13.3866, 32.8777, -154.129, -86.0828, 48.1384
6.59299, 24, -28.7602, -13.509, 32.9757, -154.06, -86.0006, 48.0553
6.60015, 24, -28.7487, -13.5909, 33.0412, -154.013, -85.9448, 47.9992
6.60713, 25, -28.743, -13.6319, 33.074, -153.99, -85.9174, 47.9712
6.61707, 25, -28.7258, -13.7552, 33.1726, -153.92, -85.8343, 47.8885
6.62437, 25, -28.7145, -13.8377, 33.2385, -153.872, -85.7786, 47.8326
6.6312, 25, -28.7089, -13.879, 33.2716, -153.849, -85.751, 47.8046
6.63906, 25, -28.6978, -13.9618, 33.3377, -153.802, -85.6949, 47.749
6.64712, 25, -28.6867, -14.0447, 33.404, -153.754, -85.6388, 47.6936
6.65661, 25, -28.6703, -14.1694, 33.5039, -153.684, -85.555, 47.6094
6.66466, 25, -28.6594, -14.2529, 33.5706, -153.636, -85.4986, 47.554
6.67264, 25, -28.6485, -14.3365, 33.6374, -153.587, -85.4427, 47.4984
6.68067, 25, -28.6376, -14.4202, 33.7044, -153.539, -85.3857, 47.442
6.68872, 25, -28.6269, -14.5042, 33.7714, -153.491, -85.3294, 47.386
6.69659, 26, -28.6216, -14.5463, 33.8049, -153.467, -85.3014, 47.3304
6.70408, 26, -28.6109, -14.6305, 33.872, -153.418, -85.2443, 47.3024
6.7121, 26, -28.6003, -14.7148, 33.9394, -153.37, -85.1876, 47.2459
6.72011, 26, -28.5898, -14.7995, 34.0069, -153.32, -85.1307, 47.1901
6.72824, 26, -28.5791, -14.8841, 34.0746, -153.272, -85.0731, 47.1344
6.73596, 26, -28.5684, -14.9688, 34.1424, -153.224, -85.0163, 47.0782
6.74409, 26, -28.5579, -15.0538, 34.2104, -153.174, -84.9586, 47.0222
6.75208, 26, -28.5474, -15.1389, 34.2785, -153.125, -84.9012, 46.967
6.75908, 26, -28.5369, -15.2241, 34.3466, -153.075, -84.8437, 46.9112
6.76707, 26, -28.5265, -15.3095, 34.4148, -153.025, -84.7856, 46.8554
6.77608, 26, -28.5163, -15.3951, 34.4831, -152.976, -84.7283, 46.8004
6.78311, 26, -28.506, -15.4808, 34.5515, -152.926, -84.6703, 46.7451
6.7911, 27, -28.4957, -15.5668, 34.6201, -152.875, -84.6124, 46.6891
6.80007, 27, -28.4854, -15.653, 34.6887, -152.826, -84.5546, 46.6337
6.80709, 27, -28.4752, -15.7393, 34.7575, -152.775, -84.4959, 46.5785
6.81507, 27, -28.4651, -15.8257, 34.8263, -152.724, -84.4382, 46.5225
6.8242, 27, -28.4549, -15.9123, 34.8954, -152.674, -84.3796, 46.467
6.83298, 27, -28.4449, -15.999, 34.9646, -152.623, -84.3212, 46.4119
6.84007, 27, -28.4349, -16.0859, 35.0338, -152.572, -84.2629, 46.3562
6.85018, 27, -28.4199, -16.2164, 35.1376, -152.496, -84.1747, 46.273
6.8551, 27, -28.4148, -16.26, 35.1722, -152.47, -84.1456, 46.2457
6.86307, 27, -28.4048, -16.3471, 35.2416, -152.418, -84.0867, 46.1906
6.87206, 27, -28.3949, -16.4344, 35.3112, -152.367, -84.0278, 46.1352
6.87908, 28, -28.3849, -16.5219, 35.3808, -152.315, -83.9692, 46.0807
6.88708, 28, -28.3749, -16.6095, 35.4507, -152.264, -83.9097, 46.0264
6.89517, 28, -28.3649, -16.6972, 35.5206, -152.213, -83.8512, 45.9715
6.90332, 28, -28.355, -16.785, 35.5906, -152.16, -83.792, 45.9168
6.91538, 28, -28.3401, -16.917, 35.6956, -152.082, -83.7037, 45.8359
6.91924, 28, -28.3351, -16.961, 35.7306, -152.056, -83.6741, 45.8088
6.92717, 28, -28.3251, -17.0491, 35.8007, -152.003, -83.6144, 45.7544
6.93563, 28, -28.3154, -17.1373, 35.8709, -151.951, -83.5557, 45.701
6.94313, 28, -28.3056, -17.2256, 35.9412, -151.898, -83.496, 45.6477
6.95124, 28, -28.2958, -17.3139, 36.0116, -151.845, -83.4368, 45.5939
6.95994, 28, -28.286, -17.4024, 36.082, -151.792, -83.3775, 45.5408
6.96809, 29, -28.2763, -17.491, 36.1526, -151.739, -83.3176, 45.4881
6.97606, 29, -28.2665, -17.5797, 36.2233, -151.686, -83.2584, 45.4352
6.98396, 29, -28.2567, -17.6685, 36.294, -151.633, -83.1982, 45.3823
6.99214, 29, -28.2469, -17.7574, 36.3647, -151.579, -83.1387, 45.3303
6.99988, 29, -28.2372, -17.8463, 36.4355, -151.526, -83.0787, 45.2784
7.00847, 29, -28.2275, -17.9353, 36.5061, -151.472, -83.0188, 45.2261
7.01609, 29, -28.2176, -18.0245, 36.5769, -151.418, -82.9594, 45.1743
7.02359, 29, -28.2078, -18.1136, 36.6479, -151.365, -82.899, 45.1232
7.03215, 29, -28.1981, -18.2029, 36.7189, -151.31, -82.8395, 45.072
7.03957, 29, -28.1883, -18.2923, 36.7901, -151.256, -82.7792, 45.0206
7.04817, 29, -28.1785, -18.3817, 36.8613, -151.203, -82.7193, 44.9702
7.05569, 29, -28.1688, -18.4712, 36.9326, -151.147, -82.6597, 44.9201
7.06427, 30, -28.1592, -18.5606, 37.0038, -151.093, -82.5993, 44.8699
7.07172, 30, -28.1544, -18.6054, 37.0393, -151.039, -82.5398, 44.8197
7.08007, 30, -28.1399, -18.7398, 37.1461, -150.984, -82.4792, 44.7705
7.08706, 30, -28.1351, -18.7846, 37.1817, -150.957, -82.4491, 44.746
7.09656, 30, -28.1206, -18.9192, 37.2887, -150.874, -82.3592, 44.6724
7.10463, 30, -28.1109, -19.0091, 37.3601, -150.819, -82.2988, 44.6236
7.11105, 30, -28.106, -19.0541, 37.3958, -150.792, -82.2689, 44.5996
7.12034, 30, -28.0912, -19.1891, 37.503, -150.708, -82.1781, 44.5281
7.12709, 30, -28.0863, -19.2341, 37.5388, -150.681, -82.148, 44.5041
7.13641, 30, -28.0717, -19.369, 37.6461, -150.598, -82.058, 44.4327
7.14461, 30, -28.0618, -19.459, 37.7175, -150.543, -81.9977, 44.3862
7.15252, 31, -28.0519, -19.5489, 37.789, -150.488, -81.9379, 44.3396
7.16055, 31, -28.042, -19.6389, 37.8604, -150.431, -81.8773, 44.293
7.16906, 31, -28.0321, -19.7288, 37.932, -150.376, -81.8176, 44.2471
7.17582, 31, -28.0271, -19.7738, 37.9678, -150.348, -81.7876, 44.2246
7.18313, 31, -28.0171, -19.8639, 38.0394, -150.292, -81.727, 44.1795
7.19394, 31, -28.0023, -19.999, 38.147, -150.208, -81.6371, 44.1117
7.20056, 31, -27.9974, -20.044, 38.1828, -150.18, -81.6067, 44.0892
7.20809, 31, -27.9875, -20.1341, 38.2545, -150.123, -81.5466, 44.0451
7.21505, 31, -27.9775, -20.2242, 38.3262, -150.067, -81.4865, 44.0015
7.2241, 31, -27.9675, -20.3143, 38.3976, -150.01, -81.4261, 43.9578
7.23213, 31, -27.9575, -20.4045, 38.4691, -149.954, -81.3662, 43.9142
7.24005, 31, -27.9473, -20.4947, 38.5407, -149.898, -81.3056, 43.8716
7.2481, 32, -27.937, -20.585, 38.6123, -149.841, -81.2458, 43.8296
7.25613, 32, -27.9268, -20.6752, 38.6838, -149.785, -81.1857, 43.788
7.26305, 32, -27.9166, -20.7654, 38.7554, -149.728, -81.1256, 43.7464
7.2712, 32, -27.9062, -20.8555, 38.8269, -149.671, -81.0659, 43.7052
7.28004, 32, -27.8958, -20.9456, 38.8985, -149.614, -81.0054, 43.6651
7.28708, 32, -27.8854, -21.0357, 38.9701, -149.557, -80.9459, 43.6256
7.29508, 32, -27.8749, -21.1258, 39.0416, -149.5, -80.8858, 43.5863
7.30406, 32, -27.8643, -21.2158, 39.113, -149.443, -80.8259, 43.5472
7.31211, 32, -27.8538, -21.3058, 39.1843, -149.386, -80.7662, 43.5088
7.32003, 32, -27.8433, -21.3958, 39.2557, -149.329, -80.7058, 43.4716
7.32966, 32, -27.8328, -21.4858, 39.3271, -149.271, -80.6465, 43.4165
7.33611, 33, -27.8221, -21.5757, 39.3985, -149.214, -80.5865, 43.3981
7.34407, 33, -27.8114, -21.6657, 39.4699, -149.156, -80.5269, 43.3617
7.35204, 33, -27.8006, -21.7555, 39.5412, -149.099, -80.4673, 43.3261
7.3601, 33, -27.7896, -21.8453, 39.6125, -149.042, -80.4073, 43.2916
7.36817, 33, -27.7785, -21.9352, 39.6836, -148.983, -80.3483, 43.2577
7.37604, 33, -27.7675, -22.025, 39.7547, -148.926, -80.2884, 43.224
7.38411, 33, -27.7565, -22.1147, 39.8257, -148.868, -80.2292, 43.1905
7.39127, 33, -27.7453, -22.2045, 39.8967, -148.811, -80.1698, 43.1575
7.39909, 33, -27.7341, -22.2941, 39.9677, -148.753, -80.1101, 43.1256
7.40715, 33, -27.723, -22.3836, 40.0386, -148.695, -80.0515, 43.0945
7.41551, 33, -27.7116, -22.4732, 40.1096, -148.638, -79.9918, 43.064
7.42336, 34, -27.7003, -22.5626, 40.1804, -148.579, -79.933, 43.034
7.43116, 34, -27.689, -22.652, 40.2513, -148.521, -79.8736, 43.004
7.43963, 34, -27.6777, -22.7413, 40.322, -148.463, -79.8141, 42.9745
7.44811, 34, -27.6661, -22.8306, 40.3926, -148.405, -79.7554, 42.9459
7.45508, 34, -27.6546, -22.9198, 40.463, -148.347, -79.6956, 42.9185
7.46407, 34, -27.643, -23.0088, 40.5333, -148.289, -79.6368, 42.8918
7.47152, 34, -27.6311, -23.0979, 40.6036, -148.23, -79.5773, 42.8658
7.47912, 34, -27.6192, -23.1868, 40.674, -148.172, -79.5181, 42.8403
7.48722, 34, -27.6073, -23.2756, 40.7442, -148.114, -79.4595, 42.8151
7.49529, 34, -27.5952, -23.3645, 40.8145, -148.056, -79.4, 42.7905
7.50332, 34, -27.583, -23.4532, 40.8847, -147.997, -79.3415, 42.7669
7.51147, 34, -27.5708, -23.542, 40.9547, -147.939, -79.2821, 42.7446
7.51945, 35, -27.5586, -23.6306, 41.0245, -147.881, -79.2232, 42.7231
7.52751, 35, -27.5462, -23.7189, 41.0943, -147.822, -79.1648, 42.7025
7.53594, 35, -27.5339, -23.8072, 41.1639, -147.764, -79.1056, 42.6827
7.54452, 35, -27.5215, -23.8954, 41.2335, -147.705, -79.0475, 42.6635
7.55159, 35, -27.509, -23.9833, 41.303, -147.647, -78.9884, 42.6448
7.56065, 35, -27.4963, -24.0712, 41.3724, -147.588, -78.9299, 42.6265
7.56817, 35, -27.4835, -24.1589, 41.4417, -147.529, -78.8716, 42.6091
7.57647, 35, -27.477, -24.2028, 41.511, -147.472, -78.8127, 42.5926
7.58304, 35, -27.4639, -24.2904, 41.5456, -147.442, -78.7837, 42.5848
7.59104, 35, -27.4508, -24.3779, 41.6147, -147.383, -78.7255, 42.5697
7.60092, 35, -27.4308, -24.5089, 41.718, -147.296, -78.6378, 42.5491
7.60701, 36, -27.424, -24.5525, 41.7524, -147.266, -78.609, 42.5427
7.61509, 36, -27.4105, -24.6397, 41.8209, -147.208, -78.5507, 42.5305
7.62508, 36, -27.3898, -24.7702, 41.9235, -147.12, -78.4641, 42.5142
7.63338, 36, -27.376, -24.8572, 41.9917, -147.062, -78.406, 42.5042
7.64139, 36, -27.3622, -24.944, 42.06, -147.003, -78.3484, 42.4951
7.64704, 36, -27.3552, -24.9874, 42.0941, -146.973, -78.3198, 42.4908
7.65508, 36, -27.3412, -25.0739, 42.1621, -146.916, -78.262, 42.4829
7.66605, 36, -27.3199, -25.2034, 42.264, -146.827, -78.176, 42.4725
7.67259, 36, -27.3054, -25.2895, 42.3316, -146.769, -78.1183, 42.4667
7.68064, 36, -27.2909, -25.3754, 42.399, -146.71, -78.0609, 42.4618
7.68956, 36, -27.2762, -25.4612, 42.4663, -146.652, -78.004, 42.4577
7.69508, 36, -27.2687, -25.504, 42.4998, -146.623, -77.9751, 42.456
7.70504, 37, -27.2463, -25.6322, 42.6004, -146.535, -77.8896, 42.4526
7.71205, 37, -27.2387, -25.6749, 42.6339, -146.506, -77.8612, 42.4518
7.71908, 37, -27.2236, -25.7602, 42.7006, -146.448, -77.8037, 42.451
7.72811, 37, -27.2085, -25.8453, 42.7673, -146.389, -77.7472, 42.4505
7.73816, 37, -27.1855, -25.9726, 42.867, -146.302, -77.6618, 42.4504
7.74403, 37, -27.1778, -26.0149, 42.9002, -146.273, -77.6336, 42.4505
7.75209, 37, -27.1621, -26.0995, 42.9664, -146.215, -77.5773, 42.4508
7.76209, 37, -27.1382, -26.2258, 43.0653, -146.127, -77.492, 42.4528
7.76803, 37, -27.1302, -26.2678, 43.0981, -146.098, -77.464, 42.4545
7.77608, 37, -27.114, -26.3517, 43.1636, -146.041, -77.4078, 42.4594
7.78403, 37, -27.0978, -26.4355, 43.229, -145.982, -77.3511, 42.4655
7.79201, 38, -27.0813, -26.5191, 43.2943, -145.924, -77.2954, 42.4732
7.80013, 38, -27.0648, -26.6025, 43.3594, -145.867, -77.2388, 42.4821
7.80804, 38, -27.0482, -26.6857, 43.4243, -145.808, -77.1828, 42.4923
7.81603, 38, -27.0314, -26.7687, 43.489, -145.751, -77.1271, 42.5038
7.82409, 38, -27.0144, -26.8515, 43.5535, -145.693, -77.0706, 42.5163
7.83395, 38, -26.9883, -26.9753, 43.6499, -145.607, -76.9873, 42.5376
7.83999, 38, -26.9796, -27.0164, 43.6818, -145.578, -76.9591, 42.5452
7.84812, 38, -26.962, -27.0984, 43.7457, -145.52, -76.9032, 42.5614
7.85505, 38, -26.9443, -27.1803, 43.8094, -145.464, -76.8483, 42.5792
7.86307, 38, -26.9264, -27.262, 43.8728, -145.406, -76.7923, 42.5981
7.87203, 38, -26.9083, -27.3433, 43.936, -145.349, -76.7372, 42.6186
7.87903, 38, -26.8902, -27.4245, 43.999, -145.292, -76.682, 42.6405
7.8871, 39, -26.8718, -27.5055, 44.0618, -145.235, -76.6263, 42.6636
7.89612, 39, -26.8531, -27.5863, 44.1244, -145.179, -76.5718, 42.6876
7.90329, 39, -26.8341, -27.6668, 44.1867, -145.121, -76.5164, 42.7126
7.912, 39, -26.8149, -27.7471, 44.2489, -145.065, -76.4612, 42.7387
7.9201, 39, -26.7957, -27.8272, 44.3109, -145.008, -76.4068, 42.7662
7.92803, 39, -26.7764, -27.907, 44.3724, -144.951, -76.3512, 42.7954
7.9361, 39, -26.7566, -27.9866, 44.4338, -144.896, -76.2966, 42.8259
7.94403, 39, -26.7369, -28.0658, 44.4949, -144.839, -76.2418, 42.8573
7.95203, 39, -26.7171, -28.145, 44.5557, -144.783, -76.1864, 42.8895
7.9601, 39, -26.6969, -28.2238, 44.6164, -144.728, -76.1322, 42.9232
7.96806, 39, -26.6763, -28.3022, 44.6767, -144.671, -76.0771, 42.9583
7.97595, 40, -26.6556, -28.3805, 44.7369, -144.616, -76.0227, 42.9952
7.9841, 40, -26.6348, -28.4584, 44.7968, -144.561, -75.9685, 43.033
7.99202, 40, -26.6137, -28.536, 44.8565, -144.505, -75.9137, 43.0717
8.00034, 40, -26.5923, -28.6132, 44.9159, -144.451, -75.8597, 43.1116
8.00888, 40, -26.5709, -28.6902, 44.975, -144.395, -75.8054, 43.1532
8.01605, 40, -26.5493, -28.767, 45.0338, -144.341, -75.7508, 43.1963
8.02596, 40, -26.5272, -28.8433, 45.0923, -144.286, -75.6974, 43.2403
8.03236, 40, -26.5048, -28.9194, 45.1504, -144.231, -75.6431, 43.2854
8.03957, 40, -26.4825, -28.9952, 45.2083, -144.177, -75.5892, 43.3322
8.04812, 40, -26.4598, -29.0708, 45.2658, -144.122, -75.5358, 43.3808
8.05657, 40, -26.4368, -29.1459, 45.3231, -144.068, -75.4814, 43.4301
8.0642, 41, -26.4135, -29.2208, 45.3801, -144.015, -75.4279, 43.4806
8.07166, 41, -26.4019, -29.2954, 45.4369, -143.961, -75.3746, 43.5329
8.08061, 41, -26.3663, -29.3697, 45.4933, -143.908, -75.3208, 43.5866
8.08702, 41, -26.3543, -29.4067, 45.5214, -143.882, -75.2943, 43.6137
8.09605, 41, -26.3181, -29.5172, 45.6053, -143.802, -75.2143, 43.6971
8.10492, 41, -26.3059, -29.554, 45.6607, -143.75, -75.161, 43.7551
8.11237, 41, -26.2689, -29.6635, 45.7158, -143.697, -75.1085, 43.8138
8.11918, 41, -26.2564, -29.6999, 45.7433, -143.671, -75.082, 43.8437
8.12837, 41, -26.2186, -29.8084, 45.825, -143.593, -75.0025, 43.9362
8.13502, 41, -26.2058, -29.8444, 45.8521, -143.567, -74.9764, 43.9677
8.14438, 41, -26.1671, -29.9518, 45.9329, -143.49, -74.8968, 44.064
8.15102, 41, -26.1542, -29.9875, 45.9596, -143.465, -74.8705, 44.0973
8.16067, 42, -26.1148, -30.0937, 46.0394, -143.388, -74.7923, 44.1983
8.16853, 42, -26.0882, -30.1642, 46.0922, -143.338, -74.7394, 44.2676
8.17662, 42, -26.0612, -30.2342, 46.1445, -143.287, -74.6875, 44.3386
8.18464, 42, -26.0338, -30.3039, 46.1966, -143.237, -74.635, 44.4103
8.19261, 42, -26.0201, -30.3732, 46.2482, -143.188, -74.5824, 44.4848
8.20381, 42, -25.9785, -30.4421, 46.2995, -143.138, -74.5306, 44.5597
8.20696, 42, -25.9644, -30.4764, 46.325, -143.113, -74.5045, 44.5977
8.21601, 42, -25.936, -30.5447, 46.3756, -143.064, -74.4519, 44.6759
8.22708, 42, -25.8928, -30.6462, 46.4509, -142.992, -74.3745, 44.7946
8.23205, 42, -25.8782, -30.6799, 46.4757, -142.967, -74.3484, 44.8355
8.24001, 42, -25.8488, -30.7469, 46.5251, -142.92, -74.2961, 44.9178
8.24797, 43, -25.8192, -30.8134, 46.5742, -142.873, -74.2449, 45.0016
8.25611, 43, -25.7893, -30.8796, 46.6229, -142.826, -74.1931, 45.0875
8.26303, 43, -25.7591, -30.9454, 46.6711, -142.779, -74.1415, 45.1744
8.27216, 43, -25.7284, -31.0107, 46.7189, -142.733, -74.0905, 45.2636
8.27984, 43, -25.6976, -31.0757, 46.7663, -142.687, -74.0387, 45.3536
8.28702, 43, -25.6664, -31.1403, 46.8131, -142.641, -73.9874, 45.4457
8.29605, 43, -25.6347, -31.2042, 46.8596, -142.597, -73.9368, 45.5387
8.3041, 43, -25.6027, -31.2678, 46.9058, -142.552, -73.8852, 45.6338
8.31201, 43, -25.5702, -31.3308, 46.9515, -142.507, -73.8343, 45.7299
8.32004, 43, -25.5375, -31.3933, 46.9967, -142.464, -73.7838, 45.828
8.33051, 43, -25.5046, -31.4553, 47.0414, -142.42, -73.7323, 45.9777
8.33622, 44, -25.4713, -31.5168, 47.0857, -142.377, -73.6818, 46.0283
8.34404, 44, -25.4374, -31.5777, 47.1294, -142.335, -73.6315, 46.1309
8.35207, 44, -25.4031, -31.6383, 47.1725, -142.293, -73.5805, 46.2354
8.36001, 44, -25.3684, -31.6984, 47.2154, -142.251, -73.5304, 46.3417
8.36816, 44, -25.3335, -31.7581, 47.2577, -142.21, -73.4801, 46.4491
8.37581, 44, -25.2981, -31.8172, 47.2996, -142.17, -73.4294, 46.5585
8.38402, 44, -25.2623, -31.8759, 47.3408, -142.13, -73.3797, 46.6695
8.39292, 44, -25.226, -31.934, 47.3816, -142.09, -73.3299, 46.782
8.40005, 44, -25.1896, -31.9914, 47.4219, -142.051, -73.2798, 46.896
8.40807, 44, -25.1527, -32.0483, 47.4616, -142.014, -73.2305, 47.0118
8.41512, 44, -25.1153, -32.1045, 47.5009, -141.976, -73.1809, 47.1296
8.42402, 44, -25.0775, -32.1601, 47.5396, -141.938, -73.131, 47.2492
8.43207, 45, -25.0394, -32.2151, 47.5778, -141.902, -73.0821, 47.3705
8.44081, 45, -25.0008, -32.2695, 47.6153, -141.866, -73.0329, 47.4935
8.44807, 45, -24.9616, -32.3233, 47.6524, -141.831, -72.9836, 47.6182
8.45607, 45, -24.922, -32.3767, 47.6886, -141.796, -72.9353, 47.7446
8.46503, 45, -24.882, -32.4295, 47.7244, -141.762, -72.8864, 47.8728
8.4722, 45, -24.8417, -32.4817, 47.7597, -141.729, -72.8374, 48.0021
8.481, 45, -24.8008, -32.5333, 47.7942, -141.696, -72.7895, 48.1333
8.49109, 45, -24.7388, -32.6096, 47.8449, -141.647, -72.7167, 48.3335
8.49519, 45, -24.7179, -32.6346, 47.8616, -141.631, -72.6926, 48.4012
8.50337, 45, -24.6758, -32.6841, 47.8944, -141.601, -72.6451, 48.5379
8.51219, 45, -24.633, -32.7328, 47.9266, -141.571, -72.597, 48.6761
8.51936, 45, -24.5899, -32.7809, 47.9582, -141.541, -72.5489, 48.816
8.52754, 46, -24.5462, -32.8281, 47.9892, -141.512, -72.5019, 48.9577
8.53629, 46, -24.5021, -32.8746, 48.0193, -141.484, -72.4546, 49.1008
8.54394, 46, -24.4575, -32.9204, 48.0489, -141.457, -72.4069, 49.2456
8.5516, 46, -24.4126, -32.9656, 48.0779, -141.431, -72.3603, 49.3926
8.5605, 46, -24.3671, -33.0101, 48.1062, -141.405, -72.3134, 49.5412
8.56772, 46, -24.321, -33.0538, 48.1337, -141.38, -72.2663, 49.6917
8.57618, 46, -24.2746, -33.097, 48.1605, -141.356, -72.2201, 49.8439
8.58371, 46, -24.2512, -33.1183, 48.1867, -141.332, -72.1741, 49.9977
8.59203, 46, -24.1802, -33.181, 48.2121, -141.31, -72.1274, 50.153
8.59901, 46, -24.1562, -33.2014, 48.2246, -141.299, -72.1045, 50.2312
8.60809, 46, -24.0837, -33.2617, 48.2608, -141.268, -72.0366, 50.4684
8.61505, 47, -24.0593, -33.2813, 48.2726, -141.257, -72.0135, 50.5485
8.62424, 47, -23.9851, -33.3389, 48.3068, -141.228, -71.9455, 50.7911
8.63104, 47, -23.9601, -33.3577, 48.3178, -141.218, -71.9233, 50.8727
8.64077, 47, -23.8844, -33.4128, 48.3494, -141.192, -71.856, 51.1205
8.64839, 47, -23.8332, -33.4483, 48.3696, -141.176, -71.8114, 51.2872
8.655, 47, -23.8074, -33.4658, 48.3794, -141.169, -71.7895, 51.3714
8.66454, 47, -23.7294, -33.5171, 48.4079, -141.147, -71.7236, 51.6268
8.67332, 47, -23.6766, -33.5502, 48.426, -141.134, -71.6796, 51.7992
8.67901, 47, -23.6501, -33.5664, 48.4346, -141.127, -71.6579, 51.886
8.6888, 47, -23.5696, -33.6137, 48.4594, -141.109, -71.5938, 52.149
8.69746, 47, -23.5425, -33.6291, 48.4749, -141.098, -71.5507, 52.3264
8.70306, 48, -23.4879, -33.659, 48.4823, -141.093, -71.5294, 52.4156
8.712, 48, -23.4327, -33.6879, 48.4964, -141.083, -71.4876, 52.5953
8.71999, 48, -23.3769, -33.7159, 48.5096, -141.075, -71.446, 52.7767
8.72699, 48, -23.3206, -33.7429, 48.5221, -141.067, -71.4039, 52.9601
8.73691, 48, -23.2638, -33.7688, 48.5338, -141.061, -71.3628, 53.1451
8.74392, 48, -23.2064, -33.7938, 48.5446, -141.056, -71.3226, 53.3316
8.75108, 48, -23.1485, -33.8177, 48.5544, -141.052, -71.282, 53.5198
8.75993, 48, -23.0901, -33.8405, 48.5635, -141.049, -71.2416, 53.7094
8.767, 48, -23.0309, -33.8626, 48.5717, -141.047, -71.2022, 53.9012
8.77599, 48, -22.9713, -33.8835, 48.5789, -141.046, -71.1631, 54.0948
8.78402, 48, -22.9111, -33.9032, 48.5852, -141.045, -71.1237, 54.2898
8.79099, 48, -22.8502, -33.9221, 48.5906, -141.045, -71.0849, 54.4863
8.8, 49, -22.7889, -33.9397, 48.5951, -141.046, -71.0472, 54.6843
8.80804, 49, -22.727, -33.956, 48.5985, -141.049, -71.0098, 54.8836
8.81501, 49, -22.6645, -33.9714, 48.6009, -141.053, -70.9721, 55.0849
8.82401, 49, -22.6014, -33.9857, 48.6024, -141.058, -70.9353, 55.2875
8.83213, 49, -22.5378, -33.9989, 48.6031, -141.064, -70.8993, 55.4918
8.84085, 49, -22.4736, -34.0105, 48.6032, -141.072, -70.8637, 55.6974
8.84799, 49, -22.4087, -34.021, 48.6027, -141.081, -70.8278, 55.9047
8.85812, 49, -22.3105, -34.0348, 48.6, -141.098, -70.7759, 56.2191
8.8631, 49, -22.2775, -34.0389, 48.5986, -141.104, -70.7591, 56.3246
8.87103, 49, -22.2109, -34.0462, 48.5951, -141.117, -70.7258, 56.5364
8.87999, 49, -22.1438, -34.0522, 48.5905, -141.132, -70.6925, 56.7501
8.88699, 50, -22.0761, -34.0569, 48.5847, -141.147, -70.6598, 56.965
8.89599, 50, -22.008, -34.0603, 48.5779, -141.164, -70.6281, 57.1816
8.90409, 50, -21.9393, -34.0623, 48.5699, -141.181, -70.5971, 57.3998
8.91458, 50, -21.8351, -34.0634, 48.5558, -141.21, -70.5512, 57.7298
8.92005, 50, -21.8001, -34.0634, 48.5505, -141.221, -70.536, 57.8406
8.92746, 50, -21.7294, -34.0624, 48.5394, -141.242, -70.5063, 58.0629
8.93511, 50, -21.658, -34.0601, 48.527, -141.266, -70.4779, 58.2871
8.944, 50, -21.5862, -34.0566, 48.5134, -141.29, -70.4502, 58.5128
8.95205, 50, -21.5138, -34.0516, 48.4987, -141.315, -70.423, 58.7399
8.959, 50, -21.441, -34.0452, 48.4829, -141.342, -70.396, 58.9681
8.96801, 50, -21.3677, -34.0372, 48.4659, -141.37, -70.3698, 59.1976
8.9761, 50, -21.2939, -34.0278, 48.4476, -141.399, -70.3446, 59.4284
8.98336, 51, -21.2195, -34.0169, 48.4283, -141.43, -70.3205, 59.6607
8.99185, 51, -21.1444, -34.0046, 48.4078, -141.462, -70.2971, 59.8944
9.00008, 51, -21.0687, -33.9909, 48.386, -141.495, -70.2742, 60.1293
9.00814, 51, -20.9925, -33.9753, 48.3632, -141.529, -70.2517, 60.3656
9.01615, 51, -20.9155, -33.958, 48.3392, -141.565, -70.2299, 60.6036
9.02342, 51, -20.8381, -33.9394, 48.3141, -141.602, -70.2093, 60.8427
9.03181, 51, -20.7603, -33.9192, 48.2876, -141.64, -70.1898, 61.0831
9.04007, 51, -20.6818, -33.8974, 48.26, -141.68, -70.1713, 61.3244
9.04814, 51, -20.6029, -33.8742, 48.2313, -141.721, -70.154, 61.5671
9.05558, 51, -20.5236, -33.8492, 48.2015, -141.763, -70.1373, 61.8113
9.0641, 51, -20.4438, -33.8228, 48.1702, -141.806, -70.1214, 62.0566
9.07219, 52, -20.3633, -33.7948, 48.1378, -141.851, -70.1062, 62.303
9.07975, 52, -20.3228, -33.7801, 48.1211, -141.873, -70.0988, 62.5505
9.08799, 52, -20.2006, -33.7339, 48.0692, -141.944, -70.0784, 62.7997
9.09609, 52, -20.1185, -33.7009, 48.0331, -141.992, -70.0663, 63.05
9.10384, 52, -20.0773, -33.6838, 48.0146, -142.017, -70.0606, 63.3012
9.1125, 52, -19.9945, -33.6297, 47.9573, -142.092, -70.0454, 63.5533
9.11897, 52, -19.9112, -33.6109, 47.9376, -142.119, -70.0409, 63.6798
9.12924, 52, -19.7853, -33.5516, 47.8765, -142.198, -70.0292, 64.0609
9.13506, 52, -19.7431, -33.5311, 47.8555, -142.225, -70.0258, 64.1884
9.14439, 52, -19.6161, -33.4669, 47.7905, -142.308, -70.0174, 64.5726
9.151, 52, -19.5735, -33.4447, 47.7684, -142.337, -70.0152, 64.7011
9.15905, 52, -19.488, -33.3989, 47.7229, -142.394, -70.0116, 64.9591
9.16854, 53, -19.3588, -33.327, 47.6523, -142.483, -70.0082, 65.348
9.17745, 53, -19.272, -33.2769, 47.6037, -142.544, -70.0073, 65.6084
9.1831, 53, -19.2285, -33.2513, 47.5789, -142.575, -70.0071, 65.7388
9.1926, 53, -19.0972, -33.1714, 47.5026, -142.669, -70.0077, 66.1316
9.20163, 53, -19.0092, -33.1161, 47.4501, -142.734, -70.0094, 66.3947
9.20937, 53, -18.9651, -33.0589, 47.3964, -142.799, -70.0124, 66.6587
9.21497, 53, -18.8765, -33.0295, 47.369, -142.832, -70.0144, 66.791
9.22537, 53, -18.7429, -32.9389, 47.285, -142.933, -70.0224, 67.1895
9.23105, 53, -18.6981, -32.9078, 47.2563, -142.968, -70.0258, 67.3228
9.24004, 53, -18.6082, -32.8441, 47.198, -143.037, -70.0337, 67.5899
9.24707, 53, -18.518, -32.7786, 47.1384, -143.108, -70.0432, 67.8575
9.2561, 54, -18.4273, -32.7113, 47.0774, -143.179, -70.0541, 68.1257
9.26397, 54, -18.3362, -32.6421, 47.0152, -143.252, -70.0666, 68.3949
9.27098, 54, -18.2449, -32.5711, 46.9518, -143.326, -70.0809, 68.6647
9.28048, 54, -18.1533, -32.4983, 46.8871, -143.401, -70.0969, 68.9351
9.28793, 54, -18.0613, -32.4237, 46.8209, -143.476, -70.1147, 69.2062
9.29497, 54, -17.969, -32.3471, 46.7536, -143.554, -70.1338, 69.4782
9.30399, 54, -17.8762, -32.2687, 46.6849, -143.631, -70.1541, 69.7508
9.31201, 54, -17.7832, -32.1884, 46.6149, -143.71, -70.1756, 70.0238
9.32003, 54, -17.6899, -32.1061, 46.5435, -143.79, -70.1986, 70.2973
9.32798, 54, -17.5965, -32.0219, 46.4708, -143.871, -70.2235, 70.5716
9.33597, 54, -17.5026, -31.9356, 46.397, -143.953, -70.2504, 70.8465
9.34403, 55, -17.4086, -31.8476, 46.3219, -144.035, -70.2788, 71.1216
9.35303, 55, -17.3143, -31.7576, 46.2456, -144.119, -70.3084, 71.3971
9.36, 55, -17.2198, -31.6657, 46.1681, -144.203, -70.3394, 71.6737
9.36804, 55, -17.1251, -31.5719, 46.0892, -144.289, -70.3723, 71.9506
9.37614, 55, -17.03, -31.4761, 46.0089, -144.375, -70.4073, 72.2276
9.38396, 55, -16.9346, -31.3784, 45.9274, -144.462, -70.4434, 72.5047
9.39203, 55, -16.839, -31.2788, 45.8443, -144.55, -70.4807, 72.7825
9.39997, 55, -16.7434, -31.1774, 45.7601, -144.638, -70.52, 73.0605
9.408, 55, -16.6476, -31.0741, 45.6747, -144.727, -70.5617, 73.3389
9.41599, 55, -16.5517, -30.969, 45.5882, -144.817, -70.6043, 73.6172
9.42404, 55, -16.4557, -30.8619, 45.5004, -144.908, -70.6484, 73.8961
9.43199, 55, -16.3596, -30.7527, 45.4114, -144.999, -70.695, 74.1752
9.43914, 56, -16.2633, -30.6416, 45.321, -145.091, -70.7427, 74.4544
9.44708, 56, -16.1667, -30.5283, 45.2292, -145.184, -70.7917, 74.7335
9.45507, 56, -16.07, -30.4132, 45.1363, -145.277, -70.8436, 75.013
9.46397, 56, -15.9732, -30.2963, 45.0422, -145.371, -70.8965, 75.2925
9.47222, 56, -15.8764, -30.1776, 44.9471, -145.465, -70.9512, 75.5722
9.47948, 56, -15.7797, -30.0569, 44.8508, -145.56, -71.0084, 75.8518
9.48709, 56, -15.683, -29.9342, 44.7533, -145.655, -71.0662, 76.1318
9.49524, 56, -15.5861, -29.8096, 44.6544, -145.751, -71.127, 76.4119
9.50322, 56, -15.489, -29.6831, 44.5542, -145.847, -71.1889, 76.6916
9.51122, 56, -15.3918, -29.5549, 44.4528, -145.944, -71.2527, 76.971
9.52019, 56, -15.2946, -29.4249, 44.3504, -146.041, -71.3184, 77.2506
9.52737, 57, -15.1973, -29.2929, 44.247, -146.138, -71.3855, 77.53
9.53548, 57, -15.1001, -29.1589, 44.1426, -146.236, -71.4552, 77.809
9.54504, 57, -15.0031, -29.0229, 44.0369, -146.333, -71.5259, 78.0879
9.55305, 57, -14.906, -28.8853, 43.9299, -146.432, -71.5989, 78.367
9.56007, 57, -14.809, -28.7458, 43.8217, -146.53, -71.6731, 78.6456
9.56999, 57, -14.7121, -28.6045, 43.7125, -146.628, -71.7498, 78.924
9.57613, 57, -14.6151, -28.4611, 43.6025, -146.727, -71.8281, 79.2019
9.58447, 57, -14.5667, -28.3888, 43.5471, -146.826, -71.9084, 79.4797
9.59099, 57, -14.4699, -28.2427, 43.4356, -146.876, -71.949, 79.6187
9.6, 57, -14.3248, -28.0208, 43.266, -147.025, -72.0744, 80.0346
9.60695, 57, -14.2765, -27.946, 43.2088, -147.074, -72.117, 80.1729
9.61496, 57, -14.1799, -27.7948, 43.0937, -147.174, -72.2034, 80.4496
9.62415, 58, -14.0354, -27.5647, 42.9194, -147.322, -72.3366, 80.8641
9.63097, 58, -13.9873, -27.4873, 42.8609, -147.372, -72.3819, 81.0018
9.63899, 58, -13.8913, -27.3313, 42.7433, -147.471, -72.4737, 81.2768
9.64925, 58, -13.7475, -27.0941, 42.5648, -147.62, -72.615, 81.6884
9.65495, 58, -13.6997, -27.0139, 42.5048, -147.669, -72.6631, 81.8254
9.66308, 58, -13.6043, -26.8523, 42.384, -147.768, -72.7605, 82.0989
9.67397, 58, -13.4617, -26.607, 42.2013, -147.916, -72.9101, 82.5077
9.68055, 58, -13.3667, -26.4418, 42.0785, -148.015, -73.0122, 82.7796
9.68851, 58, -13.2719, -26.2745, 41.955, -148.113, -73.1158, 83.0508
9.69658, 58, -13.1772, -26.1054, 41.8303, -148.212, -73.2214, 83.3213
9.70459, 58, -13.13, -26.0204, 41.7676, -148.309, -73.3283, 83.5907
9.71249, 59, -13.0358, -25.8496, 41.6418, -148.358, -73.3824, 83.7252
9.72001, 59, -12.9419, -25.6777, 41.5151, -148.455, -73.4921, 83.9937
9.72796, 59, -12.8483, -25.5039, 41.3878, -148.552, -73.6036, 84.2614
9.73599, 59, -12.755, -25.3284, 41.2598, -148.649, -73.7166, 84.5281
9.75002, 59, -12.6157, -24.9742, 41.0014, -148.841, -73.9478, 85.0594
9.75222, 59, -12.5693, -24.9742, 41.0014, -148.841, -73.9478, 85.0594
9.75997, 59, -12.4768, -24.7949, 40.8711, -148.937, -74.0661, 85.324
9.76797, 59, -12.3844, -24.6136, 40.7401, -149.032, -74.186, 85.5872
9.77597, 59, -12.2925, -24.431, 40.6084, -149.126, -74.3075, 85.8493
9.78399, 59, -12.2008, -24.2479, 40.4761, -149.22, -74.4307, 86.1106
9.79197, 59, -12.1096, -24.0634, 40.3433, -149.313, -74.5552, 86.3707
9.79994, 60, -12.0188, -23.8769, 40.2099, -149.406, -74.6816, 86.6298
9.80812, 60, -11.9285, -23.6889, 40.076, -149.498, -74.8092, 86.8874
9.816, 60, -11.8385, -23.5004, 39.9415, -149.59, -74.9386, 87.1441
9.82398, 60, -11.7487, -23.3107, 39.8065, -149.681, -75.0693, 87.3999
9.83201, 60, -11.6593, -23.1193, 39.6711, -149.771, -75.2014, 87.6541
9.84185, 60, -11.5702, -22.8305, 39.4671, -149.905, -75.4025, 88.0332
9.84794, 60, -11.4814, -22.734, 39.3988, -149.949, -75.4702, 88.159
9.856, 60, -11.3931, -22.5403, 39.2618, -150.037, -75.6071, 88.4098
9.86505, 60, -11.3054, -22.3452, 39.1244, -150.124, -75.7449, 88.6594
9.87198, 60, -11.2182, -22.1489, 38.9867, -150.211, -75.8842, 88.9076
9.87995, 60, -11.1314, -21.9519, 38.8488, -150.297, -76.0246, 89.1541
9.88797, 60, -11.0451, -21.7535, 38.7106, -150.382, -76.1665, 89.3997
9.89596, 61, -10.9592, -21.5534, 38.5719, -150.466, -76.3096, 89.6439
9.90406, 61, -10.8737, -21.3527, 38.433, -150.549, -76.454, 89.8865
9.9121, 61, -10.7885, -21.1516, 38.2942, -150.632, -76.5996, 90.1274
9.92, 61, -10.7037, -20.9492, 38.155, -150.713, -76.7465, 90.3668
9.92797, 61, -10.6196, -20.7456, 38.0156, -150.794, -76.8946, 90.6051
9.93693, 61, -10.536, -20.5418, 37.8759, -150.873, -77.044, 90.8416
9.94312, 61, -10.4529, -20.3372, 37.7361, -150.952, -77.1945, 91.0767
9.95113, 61, -10.37, -20.1313, 37.5962, -151.03, -77.3462, 91.3098
9.95895, 61, -10.2879, -19.9248, 37.4561, -151.107, -77.4989, 91.5415
9.96796, 61, -10.2062, -19.7183, 37.3159, -151.183, -77.6526, 91.7718
9.976, 61, -10.125, -19.511, 37.1756, -151.258, -77.8073, 92.0001
9.98477, 62, -10.0444, -19.3026, 37.0355, -151.332, -77.9628, 92.2267
9.99195, 62, -9.96423, -19.094, 36.8956, -151.405, -78.1193, 92.4512
9.99996, 62, -9.88456, -18.885, 36.7555, -151.477, -78.2765, 92.6741
10.0089, 62, -9.8056, -18.6749, 36.6154, -151.547, -78.4348, 92.8952
10.0168, 62, -9.72715, -18.4646, 36.4754, -151.617, -78.5935, 93.1148
10.024, 62, -9.64918, -18.2547, 36.3355, -151.686, -78.7532, 93.3324
10.0339, 62, -9.57148, -18.0444, 36.1957, -151.754, -78.9136, 93.5479
10.0403, 62, -9.49422, -17.8333, 36.056, -151.82, -79.075, 93.7618
10.0478, 62, -9.41747, -17.6223, 35.9164, -151.886, -79.237, 93.974
10.0561, 62, -9.34127, -17.411, 35.777, -151.95, -79.3997, 94.1841
10.0645, 62, -9.26566, -17.1988, 35.638, -152.014, -79.5629, 94.392
10.0715, 62, -9.19073, -16.9862, 35.4994, -152.076, -79.727, 94.5977
10.0801, 63, -9.11635, -16.7739, 35.3608, -152.137, -79.8917, 94.8013
10.0886, 63, -9.04255, -16.5612, 35.2225, -152.197, -80.0571, 95.003
10.096, 63, -8.9692, -16.3481, 35.0846, -152.256, -80.2231, 95.2025
10.1036, 63, -8.93272, -16.2416, 35.0158, -152.285, -80.3062, 95.3015
10.114, 63, -8.82417, -15.9228, 34.8098, -152.37, -80.5564, 95.5951
10.1201, 63, -8.75245, -15.7097, 34.6729, -152.425, -80.7238, 95.7879
10.127, 63, -8.71685, -15.6031, 34.6046, -152.453, -80.8077, 95.8836
10.1362, 63, -8.61078, -15.2847, 34.4002, -152.533, -81.0598, 96.1675
10.143, 63, -8.57568, -15.1787, 34.3324, -152.559, -81.144, 96.261
10.1523, 63, -8.47107, -14.8598, 34.1296, -152.636, -81.3969, 96.538
10.1589, 63, -8.43653, -14.7536, 34.0622, -152.661, -81.4814, 96.6291
10.1685, 64, -8.33363, -14.4353, 33.8607, -152.734, -81.7351, 96.8986
10.1764, 64, -8.26565, -14.2226, 33.7271, -152.781, -81.9045, 97.075
10.1846, 64, -8.19827, -14.01, 33.594, -152.827, -82.0739, 97.2495
10.1928, 64, -8.13147, -13.7985, 33.4615, -152.872, -82.2435, 97.4215
10.2005, 64, -8.06526, -13.5874, 33.3295, -152.916, -82.4133, 97.5911
10.2088, 64, -7.99957, -13.3764, 33.1981, -152.959, -82.5834, 97.7581
10.2159, 64, -7.96696, -13.2712, 33.1326, -152.979, -82.6685, 97.8408
10.2239, 64, -7.90217, -13.0614, 33.002, -153.02, -82.8387, 98.004
10.235, 64, -7.80587, -12.7466, 32.8075, -153.079, -83.094, 98.2441
10.2399, 64, -7.77404, -12.6416, 32.7429, -153.099, -83.1792, 98.323
10.248, 64, -7.71081, -12.4325, 32.6143, -153.136, -83.3496, 98.4786
10.2559, 65, -7.64814, -12.2241, 32.4863, -153.172, -83.52, 98.6315
10.2639, 65, -7.58589, -12.0156, 32.3592, -153.207, -83.6904, 98.7816
10.2719, 65, -7.52421, -11.8073, 32.2328, -153.241, -83.8606, 98.929
10.2801, 65, -7.4632, -11.6001, 32.1071, -153.273, -84.0308, 99.0734
10.2869, 65, -7.40264, -11.3932, 31.9821, -153.304, -84.2009, 99.2151
10.2959, 65, -7.34254, -11.1863, 31.8578, -153.335, -84.3708, 99.354
10.3042, 65, -7.28304, -10.9803, 31.7342, -153.364, -84.5407, 99.4903
10.312, 65, -7.22404, -10.7756, 31.6115, -153.392, -84.7103, 99.6237
10.319, 65, -7.16568, -10.5712, 31.4896, -153.419, -84.8798, 99.7542
10.3287, 65, -7.10782, -10.3671, 31.3685, -153.445, -85.0491, 99.8818
10.3349, 65, -7.05047, -10.1641, 31.2482, -153.47, -85.2182, 100.006
10.344, 65, -6.99361, -9.96182, 31.1285, -153.493, -85.387, 100.128
10.3527, 66, -6.93719, -9.75955, 31.0097, -153.516, -85.5553, 100.246
10.3589, 66, -6.88119, -9.55814, 30.8917, -153.537, -85.7235, 100.361
10.368, 66, -6.82578, -9.35833, 30.7747, -153.557, -85.8916, 100.474
10.3769, 66, -6.77085, -9.15929, 30.6586, -153.575, -86.0593, 100.583
10.3847, 66, -6.71641, -8.96057, 30.5432, -153.593, -86.2265, 100.689
10.391, 66, -6.66252, -8.763, 30.4285, -153.61, -86.3935, 100.792
10.4024, 66, -6.58243, -8.46854, 30.2583, -153.634, -86.6432, 100.94
10.408, 66, -6.55601, -8.37054, 30.202, -153.641, -86.7262, 100.988
10.4159, 66, -6.50359, -8.17472, 30.0902, -153.655, -86.8923, 101.081
10.4239, 66, -6.45156, -7.98021, 29.9793, -153.668, -87.0578, 101.171
10.432, 66, -6.39996, -7.78701, 29.8691, -153.679, -87.2231, 101.257
10.4399, 67, -6.34894, -7.59417, 29.7596, -153.689, -87.3878, 101.34
10.4479, 67, -6.29835, -7.40194, 29.6512, -153.698, -87.5523, 101.419
10.456, 67, -6.24822, -7.21117, 29.5437, -153.706, -87.7166, 101.495
10.4639, 67, -6.19869, -7.0215, 29.4374, -153.713, -87.8802, 101.568
10.4719, 67, -6.14946, -6.83224, 29.3319, -153.719, -88.0436, 101.637
10.4817, 67, -6.10065, -6.64378, 29.227, -153.724, -88.2062, 101.703
10.488, 67, -6.05228, -6.45693, 29.123, -153.728, -88.3686, 101.765
10.4959, 67, -6.00431, -6.27115, 29.0198, -153.731, -88.5304, 101.824
10.5039, 67, -5.95681, -6.08579, 28.9178, -153.733, -88.6919, 101.88
10.512, 67, -5.90985, -5.90117, 28.817, -153.734, -88.8527, 101.931
10.5199, 67, -5.86337, -5.71802, 28.7171, -153.734, -89.0131, 101.979
10.528, 67, -5.81719, -5.53558, 28.6179, -153.735, -89.1727, 102.023
10.5353, 68, -5.77146, -5.35338, 28.5193, -153.734, -89.3319, 102.064
10.5435, 68, -5.7261, -5.1722, 28.4216, -153.732, -89.4905, 102.101
10.5522, 68, -5.68105, -4.99287, 28.3252, -153.73, -89.6487, 102.133
10.5605, 68, -5.63629, -4.81473, 28.2298, -153.726, -89.8064, 102.162
10.5675, 68, -5.59212, -4.63713, 28.1353, -153.721, -89.9637, 102.187
10.576, 68, -5.54842, -4.46062, 28.0417, -153.715, -90.1207, 102.208
10.5836, 68, -5.52665, -4.28586, 27.9487, -153.708, -90.2771, 102.226
10.5921, 68, -5.4619, -4.11206, 27.8564, -153.7, -90.4331, 102.24
10.599, 68, -5.44061, -4.02535, 27.8107, -153.696, -90.5109, 102.246
10.608, 68, -5.37717, -3.76619, 27.6752, -153.681, -90.7438, 102.256
10.6161, 68, -5.33521, -3.59521, 27.5863, -153.671, -90.8984, 102.259
10.6229, 69, -5.31436, -3.51026, 27.5422, -153.665, -90.9756, 102.26
10.6321, 69, -5.25241, -3.25632, 27.411, -153.646, -91.2065, 102.257
10.6389, 69, -5.23193, -3.17193, 27.3676, -153.639, -91.2832, 102.254
10.6487, 69, -5.17104, -2.92087, 27.2387, -153.617, -91.5125, 102.236
10.6564, 69, -5.13092, -2.75537, 27.154, -153.601, -91.6647, 102.219
10.6629, 69, -5.11098, -2.6729, 27.1119, -153.593, -91.7405, 102.209
10.6725, 69, -5.05152, -2.42666, 26.9874, -153.567, -91.9673, 102.172
10.6813, 69, -5.01218, -2.26397, 26.9055, -153.549, -92.118, 102.142
10.687, 69, -4.99267, -2.18322, 26.8648, -153.54, -92.1931, 102.125
10.6965, 69, -4.93459, -1.94285, 26.7441, -153.512, -92.4175, 102.068
10.7055, 69, -4.89614, -1.78348, 26.6646, -153.492, -92.5662, 102.024
10.7112, 70, -4.877, -1.70415, 26.6253, -153.481, -92.6404, 102
10.7205, 70, -4.83899, -1.54645, 26.5472, -153.46, -92.7888, 101.924
10.7279, 70, -4.80131, -1.39013, 26.47, -153.438, -92.9364, 101.895
10.735, 70, -4.76382, -1.23491, 26.3936, -153.415, -93.0838, 101.836
10.7448, 70, -4.72653, -1.08043, 26.3182, -153.393, -93.2305, 101.739
10.7573, 70, -4.67116, -0.850764, 26.2067, -153.357, -93.4498, 101.631
10.7589, 70, -4.65289, -0.774882, 26.1699, -153.344, -93.5226, 101.631
10.7695, 70, -4.59851, -0.54933, 26.0609, -153.306, -93.7405, 101.514
10.7759, 70, -4.58045, -0.474759, 26.025, -153.293, -93.8129, 101.472
10.784, 70, -4.5444, -0.326201, 25.9536, -153.267, -93.9575, 101.387
10.7919, 70, -4.50867, -0.178742, 25.8829, -153.241, -94.1014, 101.297
10.7989, 70, -4.47305, -0.0326037, 25.8132, -153.214, -94.2451, 101.203
10.8079, 71, -4.43753, 0.112176, 25.7443, -153.186, -94.3882, 101.104
10.816, 71, -4.40211, 0.255804, 25.6764, -153.157, -94.5309, 101.001
10.8256, 71, -4.34943, 0.469526, 25.5761, -153.114, -94.7439, 100.839
10.8319, 71, -4.33198, 0.540246, 25.543, -153.1, -94.8146, 100.782
10.84, 71, -4.29714, 0.680826, 25.4774, -153.07, -94.9557, 100.666
10.8504, 71, -4.26226, 0.820049, 25.3806, -153.024, -95.1664, 100.484
10.855, 71, -4.22757, 0.957973, 25.3488, -153.009, -95.2363, 100.42
10.8641, 71, -4.19304, 1.09481, 25.2856, -152.978, -95.376, 100.291
10.8749, 71, -4.14165, 1.29795, 25.1922, -152.932, -95.5843, 100.09
10.88, 71, -4.12453, 1.36501, 25.1615, -152.916, -95.6536, 100.021
10.8879, 71, -4.09028, 1.4981, 25.1007, -152.883, -95.7913, 99.8786
10.896, 72, -4.05621, 1.6297, 25.0406, -152.851, -95.9288, 99.7326
10.904, 72, -4.02222, 1.76012, 24.9814, -152.819, -96.0654, 99.582
10.9119, 72, -3.98833, 1.88946, 24.923, -152.787, -96.2016, 99.4271
10.9201, 72, -3.95442, 2.01754, 24.8653, -152.754, -96.3373, 99.2679
10.9279, 72, -3.92047, 2.14439, 24.8083, -152.72, -96.4722, 99.1046
10.9359, 72, -3.88663, 2.26982, 24.7521, -152.687, -96.6068, 98.937
10.944, 72, -3.85268, 2.39386, 24.6966, -152.655, -96.7404, 98.7653
10.9519, 72, -3.81876, 2.51663, 24.6419, -152.621, -96.8735, 98.5893
10.9599, 72, -3.7848, 2.63822, 24.588, -152.587, -97.0058, 98.4091
10.968, 72, -3.75085, 2.75853, 24.5348, -152.554, -97.1376, 98.2249
10.9759, 72, -3.71705, 2.87739, 24.4823, -152.521, -97.2686, 98.0368
10.984, 72, -3.68323, 2.9948, 24.4307, -152.487, -97.3992, 97.8448
10.991, 73, -3.64935, 3.11064, 24.3797, -152.453, -97.5288, 97.6487
10.999, 73, -3.61535, 3.22509, 24.3296, -152.42, -97.6578, 97.4488
11.0072, 73, -3.58141, 3.33817, 24.2803, -152.387, -97.786, 97.2447
11.0157, 73, -3.5475, 3.44977, 24.2317, -152.354, -97.9133, 97.0368
11.024, 73, -3.51351, 3.55987, 24.1837, -152.321, -98.0399, 96.8253
11.0319, 73, -3.4792, 3.66845, 24.1366, -152.288, -98.1657, 96.6096
11.04, 73, -3.44477, 3.77532, 24.0902, -152.255, -98.2906, 96.3904
11.048, 73, -3.41024, 3.88058, 24.0445, -152.223, -98.4146, 96.1671
11.0562, 73, -3.37556, 3.98428, 23.9996, -152.191, -98.5378, 95.9405
11.0638, 73, -3.34068, 4.0864, 23.9555, -152.158, -98.6597, 95.7107
11.072, 73, -3.30561, 4.18696, 23.9121, -152.127, -98.7806, 95.4774
11.0801, 74, -3.27059, 4.28582, 23.8694, -152.096, -98.9005, 95.241
11.088, 74, -3.23541, 4.38302, 23.8274, -152.065, -99.0191, 95.0012
11.0956, 74, -3.21782, 4.43099, 23.8068, -152.05, -99.0782, 94.7585
11.1042, 74, -3.16465, 4.57211, 23.7461, -152.004, -99.2531, 94.5129
11.1118, 74, -3.14683, 4.61823, 23.7262, -151.989, -99.3108, 94.3889
11.1206, 74, -3.11123, 4.70918, 23.6679, -151.945, -99.4825, 94.0124
11.1281, 74, -3.05747, 4.84223, 23.63, -151.917, -99.5949, 93.7574
11.1378, 74, -3.02136, 4.92854, 23.5929, -151.888, -99.7063, 93.4999
11.1442, 74, -2.98491, 5.01293, 23.5566, -151.86, -99.8162, 93.2394
11.1509, 74, -2.96666, 5.0544, 23.5387, -151.846, -99.8704, 93.1083
11.1621, 74, -2.91175, 5.17591, 23.4862, -151.806, -100.032, 92.711
11.1684, 74, -2.87483, 5.25439, 23.4523, -151.781, -100.137, 92.4436
11.1764, 75, -2.83752, 5.33081, 23.4192, -151.755, -100.241, 92.174
11.1852, 75, -2.80009, 5.40511, 23.3868, -151.73, -100.343, 91.9022
11.1911, 75, -2.78137, 5.44144, 23.371, -151.718, -100.394, 91.7654
11.1989, 75, -2.74375, 5.51253, 23.34, -151.694, -100.493, 91.4906
11.207, 75, -2.70587, 5.58143, 23.3098, -151.671, -100.592, 91.2138
11.215, 75, -2.66764, 5.64816, 23.2804, -151.649, -100.688, 90.9349
11.2257, 75, -2.61006, 5.74402, 23.2382, -151.617, -100.829, 90.5127
11.232, 75, -2.59078, 5.77484, 23.2246, -151.606, -100.875, 90.3713
11.2399, 75, -2.55195, 5.83477, 23.1979, -151.585, -100.966, 90.0873
11.2479, 75, -2.51292, 5.89241, 23.1721, -151.566, -101.055, 89.802
11.2549, 75, -2.47368, 5.94768, 23.1473, -151.547, -101.141, 89.5154
11.2639, 76, -2.43431, 6.00053, 23.1234, -151.53, -101.226, 89.2279
11.2719, 76, -2.39466, 6.0509, 23.1005, -151.513, -101.308, 88.9396
11.2789, 76, -2.35478, 6.0988, 23.0784, -151.497, -101.389, 88.6502
11.288, 76, -2.31479, 6.14406, 23.0573, -151.482, -101.467, 88.3598
11.295, 76, -2.27462, 6.18672, 23.0372, -151.467, -101.543, 88.0687
11.304, 76, -2.23409, 6.22684, 23.018, -151.453, -101.616, 87.7768
11.3119, 76, -2.19331, 6.26428, 23.0001, -151.439, -101.687, 87.4842
11.32, 76, -2.15244, 6.29894, 22.9831, -151.427, -101.756, 87.1907
11.3279, 76, -2.11146, 6.33109, 22.967, -151.416, -101.821, 86.897
11.3359, 76, -2.07013, 6.36049, 22.9521, -151.405, -101.885, 86.603
11.344, 76, -2.0286, 6.38726, 22.9382, -151.395, -101.945, 86.3086
11.3519, 77, -1.98695, 6.411, 22.9252, -151.386, -102.004, 86.0145
11.3609, 77, -1.94513, 6.4321, 22.9133, -151.379, -102.059, 85.7208
11.368, 77, -1.90303, 6.45064, 22.9026, -151.372, -102.112, 85.4276
11.3759, 77, -1.86085, 6.46598, 22.8931, -151.365, -102.162, 85.1345
11.384, 77, -1.81858, 6.47806, 22.8848, -151.36, -102.208, 84.8415
11.392, 77, -1.77612, 6.48743, 22.8775, -151.355, -102.252, 84.5492
11.3999, 77, -1.73344, 6.49404, 22.8715, -151.351, -102.293, 84.2572
11.4079, 77, -1.69071, 6.49764, 22.8666, -151.348, -102.33, 83.9656
11.4159, 77, -1.648, 6.4984, 22.8628, -151.345, -102.365, 83.6746
11.4239, 77, -1.60499, 6.49633, 22.8602, -151.344, -102.396, 83.3846
11.432, 77, -1.5619, 6.49104, 22.8587, -151.343, -102.425, 83.0953
11.4399, 77, -1.51877, 6.48247, 22.8582, -151.342, -102.451, 82.8068
11.4479, 78, -1.47552, 6.47098, 22.8587, -151.342, -102.473, 82.5194
11.4561, 78, -1.43207, 6.45657, 22.8605, -151.342, -102.492, 82.2333
11.4648, 78, -1.38852, 6.43879, 22.8636, -151.342, -102.507, 81.9482
11.4719, 78, -1.34502, 6.41757, 22.8681, -151.344, -102.519, 81.6644
11.48, 78, -1.30145, 6.39335, 22.8739, -151.346, -102.528, 81.382
11.4879, 78, -1.25766, 6.36587, 22.8811, -151.349, -102.533, 81.1011
11.4959, 78, -1.21385, 6.33494, 22.8898, -151.353, -102.536, 80.8215
11.5076, 78, -1.14811, 6.28208, 22.9053, -151.361, -102.533, 80.4044
11.5119, 78, -1.1261, 6.26283, 22.9112, -151.363, -102.531, 80.2663
11.5199, 78, -1.08208, 6.22178, 22.9241, -151.37, -102.524, 79.9912
11.528, 78, -1.03817, 6.17717, 22.9385, -151.376, -102.513, 79.7175
11.5361, 79, -0.994128, 6.12914, 22.9542, -151.384, -102.498, 79.4454
11.5433, 79, -0.949897, 6.07773, 22.9715, -151.392, -102.48, 79.175
11.5521, 79, -0.905808, 6.02278, 22.9904, -151.4, -102.458, 78.9067
11.5595, 79, -0.861799, 5.96443, 23.0106, -151.409, -102.431, 78.6399
11.568, 79, -0.817669, 5.90276, 23.0324, -151.419, -102.401, 78.3747
11.576, 79, -0.773496, 5.83779, 23.0559, -151.429, -102.367, 78.1117
11.584, 79, -0.729463, 5.76939, 23.0811, -151.44, -102.33, 77.8504
11.5923, 79, -0.707484, 5.73392, 23.1079, -151.452, -102.288, 77.5909
11.5989, 79, -0.663485, 5.66043, 23.1219, -151.458, -102.266, 77.4619
