rpiRobotics/ARM-21-02-F-19-Robot-Motion-Program/data_performance_abb/curve_1/baseline/100L/realrobot/bisect/run_4realrobot_curve_exe_v75.0_z10.csv
timestamp, cmd_num, J1, J2, J3, J4, J5, J6
0.000359, -1, 11.378, 13.6139, 17.3392, -145.519, -97.9229, 142.516
0.002968, -1, 11.378, 13.6139, 17.3392, -145.519, -97.9229, 142.516
0.007197, -1, 11.378, 13.614, 17.3392, -145.519, -97.9229, 142.516
0.028498, -1, 11.378, 13.6139, 17.3392, -145.519, -97.9229, 142.516
0.031151, -1, 11.378, 13.6139, 17.3392, -145.519, -97.9229, 142.516
0.032413, -1, 11.378, 13.6139, 17.3392, -145.519, -97.9229, 142.516
0.039155, -1, 11.378, 13.6139, 17.3392, -145.519, -97.9229, 142.516
0.047449, -1, 11.378, 13.6139, 17.3392, -145.519, -97.9229, 142.516
0.055177, -1, 11.3773, 13.6139, 17.3392, -145.519, -97.9229, 142.516
0.063177, -1, 11.3747, 13.6136, 17.3391, -145.519, -97.923, 142.516
0.071257, -1, 11.3684, 13.6127, 17.3389, -145.519, -97.9229, 142.516
0.07907, -1, 11.3573, 13.6107, 17.3384, -145.52, -97.9229, 142.514
0.087096, -1, 11.34, 13.607, 17.3377, -145.521, -97.9228, 142.506
0.095194, -1, 11.3133, 13.6007, 17.3369, -145.525, -97.9221, 142.484
0.104023, -1, 11.2751, 13.5913, 17.3363, -145.532, -97.9202, 142.444
0.112091, -1, 11.2251, 13.5787, 17.3365, -145.543, -97.9168, 142.379
0.11937, -1, 11.1636, 13.5631, 17.3381, -145.561, -97.9113, 142.283
0.128152, -1, 11.0906, 13.5437, 17.3421, -145.584, -97.9035, 142.153
0.135457, -1, 11.0056, 13.5205, 17.3484, -145.613, -97.8934, 141.988
0.143448, -1, 10.9089, 13.494, 17.3569, -145.647, -97.8812, 141.79
0.152312, -1, 10.8015, 13.4641, 17.3674, -145.685, -97.8676, 141.565
0.159661, -1, 10.6832, 13.4312, 17.3786, -145.728, -97.8529, 141.318
0.168217, -1, 10.5542, 13.3955, 17.3897, -145.772, -97.8375, 141.058
0.176529, -1, 10.4162, 13.3576, 17.4004, -145.818, -97.8217, 140.788
0.184168, -1, 10.2713, 13.318, 17.4107, -145.866, -97.8055, 140.514
0.191667, -1, 10.1971, 13.2979, 17.4207, -145.913, -97.7889, 140.237
0.200715, -1, 9.96953, 13.2366, 17.4308, -145.96, -97.772, 139.959
0.208086, -1, 9.81491, 13.1953, 17.4408, -146.009, -97.7547, 139.68
0.215063, -1, 9.73718, 13.1746, 17.4458, -146.033, -97.7462, 139.54
0.225134, -1, 9.50428, 13.1127, 17.4607, -146.104, -97.7205, 139.121
0.231105, -1, 9.42689, 13.0921, 17.4656, -146.128, -97.7122, 138.981
0.240317, -1, 9.19519, 13.0305, 17.4805, -146.2, -97.6871, 138.562
0.247073, -1, 9.11825, 13.0099, 17.4855, -146.224, -97.6788, 138.422
0.255114, -1, 8.96461, 12.9689, 17.4955, -146.273, -97.6621, 138.142
0.264474, -1, 8.73439, 12.9074, 17.5107, -146.344, -97.6364, 137.723
0.271433, -1, 8.65787, 12.8869, 17.5157, -146.368, -97.6277, 137.582
0.28063, -1, 8.42868, 12.8252, 17.5309, -146.441, -97.6014, 137.162
0.288646, -1, 8.27571, 12.7839, 17.5411, -146.488, -97.5842, 136.882
0.297318, -1, 8.12215, 12.7424, 17.5512, -146.536, -97.5671, 136.602
0.303062, -1, 8.04529, 12.7217, 17.5563, -146.56, -97.5587, 136.462
0.312626, -1, 7.89104, 12.6801, 17.5714, -146.632, -97.5337, 136.042
0.321458, -1, 7.73624, 12.6386, 17.5765, -146.656, -97.5254, 135.761
0.327088, -1, 7.58124, 12.597, 17.5867, -146.704, -97.5086, 135.621
0.336049, -1, 7.42606, 12.5556, 17.5968, -146.752, -97.4917, 135.341
0.345055, -1, 7.19332, 12.4934, 17.6121, -146.824, -97.4657, 134.921
0.351119, -1, 7.11574, 12.4727, 17.6173, -146.848, -97.457, 134.781
0.359142, -1, 6.9605, 12.4314, 17.6275, -146.896, -97.4398, 134.501
0.369585, -1, 6.72796, 12.3697, 17.6431, -146.968, -97.4144, 134.08
0.375125, -1, 6.65063, 12.349, 17.6483, -146.992, -97.406, 133.94
0.38306, -1, 6.49611, 12.3078, 17.6586, -147.041, -97.3893, 133.659
0.391108, -1, 6.34179, 12.2666, 17.6689, -147.089, -97.3725, 133.379
0.400101, -1, 6.18763, 12.2252, 17.6792, -147.137, -97.3555, 133.099
0.408062, -1, 6.03331, 12.1838, 17.6894, -147.185, -97.3382, 132.818
0.416046, -1, 5.87867, 12.1424, 17.6997, -147.233, -97.3206, 132.537
0.425672, -1, 5.64655, 12.08, 17.715, -147.305, -97.2945, 132.116
0.432049, -1, 5.56904, 12.0592, 17.7201, -147.329, -97.2859, 131.976
0.440103, -1, 5.41384, 12.0176, 17.7304, -147.377, -97.2689, 131.695
0.448054, -1, 5.2584, 11.976, 17.7406, -147.425, -97.252, 131.414
0.456111, -1, 5.10266, 11.9344, 17.751, -147.474, -97.2353, 131.133
0.465044, -1, 4.9467, 11.8928, 17.7614, -147.521, -97.2185, 130.852
0.473108, -1, 4.79082, 11.8513, 17.7718, -147.57, -97.2013, 130.571
0.480029, -1, 4.63502, 11.8098, 17.7822, -147.618, -97.184, 130.29
0.488319, -1, 4.47926, 11.7685, 17.7925, -147.666, -97.1665, 130.009
0.496042, -1, 4.32369, 11.727, 17.8028, -147.715, -97.1492, 129.728
0.503163, -1, 4.16842, 11.6857, 17.8132, -147.763, -97.1323, 129.447
0.511051, -1, 4.01353, 11.6443, 17.8235, -147.811, -97.1153, 129.166
0.519142, -1, 3.85901, 11.603, 17.8338, -147.859, -97.0985, 128.885
0.52732, -1, 3.70463, 11.5615, 17.8442, -147.908, -97.0817, 128.604
0.535142, -1, 3.55012, 11.5199, 17.8544, -147.956, -97.0647, 128.322
0.543157, -1, 3.39548, 11.4783, 17.8648, -148.005, -97.0473, 128.041
0.551527, -1, 3.2406, 11.4367, 17.8752, -148.053, -97.0297, 127.76
0.559156, -1, 3.08542, 11.395, 17.8856, -148.101, -97.0122, 127.478
0.567152, -1, 2.93009, 11.3533, 17.896, -148.149, -96.995, 127.197
0.575705, -1, 2.7744, 11.3116, 17.9063, -148.198, -96.9781, 126.915
0.584105, -1, 2.61844, 11.27, 17.9166, -148.245, -96.9614, 126.633
0.592043, -1, 2.4622, 11.2283, 17.9271, -148.294, -96.9446, 126.352
0.599704, -1, 2.30567, 11.1867, 17.9374, -148.342, -96.9278, 126.07
0.608129, -1, 2.14895, 11.145, 17.9479, -148.39, -96.9106, 125.788
0.61528, -1, 1.99212, 11.1033, 17.9583, -148.439, -96.8933, 125.506
0.752247, -1, -0.657818, 10.3942, 18.1348, -149.262, -96.6025, 120.706
0.753604, -1, -0.657818, 10.3942, 18.1348, -149.262, -96.6025, 120.706
0.754959, -1, -0.657818, 10.3942, 18.1348, -149.262, -96.6025, 120.706
0.758403, -1, -0.736485, 10.3733, 18.14, -149.287, -96.5937, 120.564
0.760327, -1, -0.736485, 10.3524, 18.1452, -149.311, -96.585, 120.423
0.761693, -1, -0.815203, 10.3524, 18.1452, -149.311, -96.585, 120.423
0.76301, -1, -0.815203, 10.3524, 18.1452, -149.311, -96.585, 120.423
0.766165, -1, -0.893957, 10.3315, 18.1504, -149.336, -96.5763, 120.281
0.905748, -1, -3.63232, 9.59934, 18.3322, -150.187, -96.2757, 115.32
0.90704, -1, -3.63232, 9.59934, 18.3322, -150.187, -96.2757, 115.32
0.908294, -1, -3.63232, 9.59934, 18.3322, -150.187, -96.2757, 115.32
0.910253, -1, -3.71123, 9.57843, 18.3374, -150.211, -96.267, 115.178
0.911555, -1, -3.71123, 9.57843, 18.3374, -150.211, -96.267, 115.178
0.913353, -1, -3.71123, 9.57843, 18.3374, -150.235, -96.2585, 115.036
0.91486, -1, -3.79018, 9.55751, 18.3425, -150.235, -96.2585, 115.036
0.918309, -1, -3.86918, 9.53654, 18.3477, -150.259, -96.2499, 114.894
0.919557, -1, -3.86918, 9.53654, 18.3477, -150.259, -96.2499, 114.894
0.921416, -1, -3.86918, 9.53654, 18.3477, -150.259, -96.2415, 114.752
0.922886, -1, -3.9482, 9.51553, 18.3528, -150.284, -96.2415, 114.752
0.924078, -1, -3.9482, 9.51553, 18.3528, -150.284, -96.2415, 114.752
0.927494, -1, -4.0272, 9.49458, 18.358, -150.308, -96.233, 114.61
0.928707, -1, -4.0272, 9.49458, 18.358, -150.308, -96.233, 114.61
0.93096, -1, -4.10612, 9.47365, 18.3632, -150.333, -96.2246, 114.468
0.934749, -1, -4.18499, 9.45271, 18.3684, -150.357, -96.2161, 114.326
0.936016, -1, -4.18499, 9.45271, 18.3684, -150.357, -96.2161, 114.326
0.937865, -1, -4.26386, 9.43177, 18.3735, -150.381, -96.2076, 114.184
0.939367, -1, -4.26386, 9.43177, 18.3735, -150.381, -96.2076, 114.184
0.940555, -1, -4.26386, 9.43177, 18.3735, -150.381, -96.2076, 114.184
0.942606, -1, -4.34272, 9.4108, 18.3786, -150.406, -96.1991, 114.041
0.943812, -1, -4.34272, 9.4108, 18.3786, -150.406, -96.1991, 114.041
0.947043, -1, -4.42146, 9.3898, 18.3838, -150.43, -96.1904, 113.899
0.948362, -1, -4.42146, 9.3898, 18.3838, -150.43, -96.1904, 113.899
0.951842, -1, -4.50003, 9.36883, 18.389, -150.455, -96.1817, 113.757
0.953831, -1, -4.50003, 9.36883, 18.389, -150.455, -96.173, 113.614
0.955193, -1, -4.57853, 9.34786, 18.3941, -150.479, -96.173, 113.614
0.956376, -1, -4.57853, 9.34786, 18.3941, -150.479, -96.173, 113.614
0.958419, -1, -4.65694, 9.32686, 18.3993, -150.504, -96.1641, 113.472
0.959626, -1, -4.65694, 9.32686, 18.3993, -150.504, -96.1641, 113.472
0.962951, -1, -4.73526, 9.30587, 18.4045, -150.528, -96.1552, 113.33
0.964151, -1, -4.73526, 9.30587, 18.4045, -150.528, -96.1552, 113.33
0.96604, -1, -4.81347, 9.28487, 18.4096, -150.552, -96.1464, 113.187
0.967419, -1, -4.81347, 9.28487, 18.4096, -150.552, -96.1464, 113.187
0.968627, -1, -4.81347, 9.28487, 18.4096, -150.552, -96.1464, 113.187
0.970647, -1, -4.89159, 9.26385, 18.4149, -150.577, -96.1377, 113.045
0.975106, -1, -4.96969, 9.24282, 18.4201, -150.601, -96.129, 112.903
0.984087, -1, -5.12573, 9.20079, 18.4306, -150.65, -96.1119, 112.618
0.992043, -1, -5.28159, 9.15874, 18.4411, -150.699, -96.0949, 112.333
0.999294, -1, -5.43768, 9.11657, 18.4516, -150.748, -96.0781, 112.049
1.00704, -1, -5.59395, 9.0745, 18.4619, -150.797, -96.0612, 111.764
1.01603, -1, -5.75046, 9.03246, 18.4723, -150.845, -96.0441, 111.479
1.02431, -1, -5.90738, 8.99029, 18.4827, -150.895, -96.0267, 111.194
1.03112, -1, -6.06484, 8.94819, 18.493, -150.943, -96.0091, 110.909
1.03936, -1, -6.2229, 8.90613, 18.5033, -150.992, -95.9916, 110.624
1.04719, -1, -6.38122, 8.86405, 18.5136, -151.041, -95.9744, 110.339
1.05604, -1, -6.53968, 8.82206, 18.5239, -151.09, -95.9574, 110.054
1.06359, -1, -6.69826, 8.77998, 18.5345, -151.139, -95.9404, 109.768
1.07114, -1, -6.857, 8.73789, 18.5449, -151.188, -95.9234, 109.483
1.08002, -1, -7.01554, 8.69585, 18.5554, -151.237, -95.9062, 109.197
1.0878, -1, -7.17395, 8.65378, 18.5659, -151.286, -95.8888, 108.912
1.09682, -1, -7.33224, 8.61164, 18.5762, -151.335, -95.8711, 108.626
1.10402, -1, -7.49011, 8.56941, 18.5866, -151.384, -95.8533, 108.34
1.11205, -1, -7.64777, 8.52714, 18.5971, -151.433, -95.8358, 108.055
1.12082, -1, -7.80502, 8.48493, 18.6075, -151.482, -95.8186, 107.769
1.12808, -1, -7.96188, 8.44269, 18.6179, -151.531, -95.8017, 107.484
1.13619, -1, -8.11853, 8.40034, 18.6283, -151.58, -95.7847, 107.198
1.14365, -1, -8.27508, 8.35806, 18.6387, -151.629, -95.7677, 106.912
1.15151, -1, -8.43178, 8.31573, 18.6493, -151.678, -95.7505, 106.626
1.16032, -1, -8.58884, 8.27338, 18.6597, -151.727, -95.733, 106.34
1.16756, -1, -8.74623, 8.23117, 18.6702, -151.777, -95.7153, 106.053
1.17619, -1, -8.90398, 8.18891, 18.6805, -151.825, -95.6978, 105.767
1.18442, -1, -9.06212, 8.14662, 18.6909, -151.874, -95.6804, 105.481
1.19166, -1, -9.22074, 8.10444, 18.7014, -151.924, -95.6632, 105.194
1.20014, -1, -9.37961, 8.06225, 18.7117, -151.973, -95.6462, 104.908
1.20702, -1, -9.45915, 8.0411, 18.7169, -151.997, -95.6376, 104.764
1.21502, -1, -9.61834, 7.9989, 18.7274, -152.047, -95.6204, 104.478
1.22501, -1, -9.85721, 7.93572, 18.743, -152.12, -95.5942, 104.048
1.23298, -1, -10.0166, 7.89342, 18.7536, -152.17, -95.5763, 103.761
1.24015, -1, -10.1758, 7.85107, 18.7642, -152.219, -95.5585, 103.474
1.24709, -1, -10.2553, 7.82987, 18.7694, -152.244, -95.5497, 103.331
1.25714, -1, -10.4935, 7.76618, 18.7852, -152.318, -95.5237, 102.9
1.26307, -1, -10.5728, 7.74494, 18.7904, -152.343, -95.5151, 102.757
1.27248, -1, -10.8101, 7.68135, 18.806, -152.416, -95.4897, 102.327
1.27901, -1, -10.889, 7.66009, 18.8113, -152.441, -95.4811, 102.183
1.2871, -1, -11.0466, 7.61757, 18.8216, -152.49, -95.4639, 101.896
1.29665, -1, -11.2828, 7.55394, 18.8373, -152.564, -95.4375, 101.464
1.30545, -1, -11.4403, 7.51152, 18.8477, -152.614, -95.4197, 101.177
1.31109, -1, -11.5191, 7.49028, 18.8529, -152.638, -95.4109, 101.034
1.32064, -1, -11.7559, 7.42668, 18.8688, -152.712, -95.3847, 100.602
1.32955, -1, -11.8351, 7.40552, 18.874, -152.737, -95.3761, 100.458
1.33508, -1, -11.9937, 7.36317, 18.8846, -152.786, -95.359, 100.171
1.34504, -1, -12.2323, 7.29965, 18.9004, -152.86, -95.3331, 99.7391
1.35101, -1, -12.3121, 7.27846, 18.9056, -152.885, -95.3245, 99.5952
1.36001, -1, -12.4718, 7.23608, 18.9161, -152.935, -95.3069, 99.3072
1.36807, -1, -12.6318, 7.19371, 18.9267, -152.984, -95.289, 99.0194
1.37601, -1, -12.7918, 7.15129, 18.9372, -153.033, -95.271, 98.7316
1.38401, -1, -12.9519, 7.10882, 18.9477, -153.083, -95.2534, 98.4436
1.39102, -1, -13.1118, 7.06627, 18.9582, -153.132, -95.236, 98.1555
1.39901, -1, -13.2716, 7.0237, 18.9687, -153.182, -95.2188, 97.8676
1.408, -1, -13.431, 6.98109, 18.9793, -153.231, -95.2018, 97.5795
1.41501, -1, -13.5903, 6.93835, 18.9899, -153.28, -95.1847, 97.2908
1.424, -1, -13.7495, 6.89566, 19.0004, -153.33, -95.1673, 97.0023
1.43207, -1, -13.9082, 6.853, 19.0108, -153.379, -95.1497, 96.7139
1.439, -1, -14.0665, 6.81027, 19.0213, -153.429, -95.1318, 96.4253
1.448, -1, -14.2247, 6.76766, 19.0318, -153.478, -95.1141, 96.1364
1.45607, -1, -14.383, 6.72501, 19.0423, -153.528, -95.0967, 95.8473
1.46301, -1, -14.5413, 6.68233, 19.0527, -153.577, -95.0796, 95.5584
1.47204, -1, -14.7, 6.63977, 19.0633, -153.627, -95.0624, 95.2693
1.48007, -1, -14.8591, 6.59726, 19.0737, -153.676, -95.0452, 94.98
1.48801, -1, -15.0184, 6.55465, 19.0844, -153.726, -95.0278, 94.691
1.496, -1, -15.1782, 6.51206, 19.0951, -153.776, -95.0101, 94.4019
1.50407, -1, -15.3384, 6.46951, 19.1057, -153.825, -94.9922, 94.1127
1.51202, -1, -15.4989, 6.42689, 19.1163, -153.875, -94.9742, 93.8234
1.52001, -1, -15.6596, 6.38422, 19.1268, -153.925, -94.9566, 93.5342
1.52813, -1, -15.8204, 6.34148, 19.1373, -153.974, -94.9392, 93.245
1.5351, -1, -15.9811, 6.29868, 19.148, -154.024, -94.922, 92.9554
1.54401, -1, -16.1418, 6.25584, 19.1585, -154.074, -94.9049, 92.6656
1.55209, -1, -16.3025, 6.21298, 19.1689, -154.123, -94.8876, 92.3762
1.56002, -1, -16.463, 6.17003, 19.1794, -154.173, -94.8701, 92.0866
1.56807, -1, -16.6231, 6.12706, 19.1899, -154.223, -94.8523, 91.7966
1.576, -1, -16.7829, 6.08418, 19.2005, -154.272, -94.8344, 91.5064
1.58318, -1, -16.9423, 6.04123, 19.2111, -154.322, -94.8167, 91.2164
1.59109, -1, -17.1015, 5.9983, 19.2217, -154.372, -94.7992, 90.9263
1.59904, -1, -17.2606, 5.95543, 19.2323, -154.421, -94.7817, 90.6361
1.60747, -1, -17.4198, 5.91265, 19.2428, -154.471, -94.7645, 90.3459
1.61514, -1, -17.5792, 5.86988, 19.2535, -154.521, -94.7471, 90.0558
1.6232, -1, -17.7387, 5.82715, 19.2641, -154.571, -94.7295, 89.7655
1.63143, -1, -17.8982, 5.78441, 19.2748, -154.621, -94.7116, 89.4751
1.63929, -1, -18.0583, 5.74168, 19.2854, -154.671, -94.6934, 89.1847
1.64737, -1, -18.2189, 5.69894, 19.296, -154.72, -94.6755, 88.8943
1.65583, -1, -18.3798, 5.65619, 19.3066, -154.77, -94.6579, 88.6037
1.66415, -1, -18.5412, 5.61328, 19.3173, -154.82, -94.6406, 88.3127
1.67155, -1, -18.7028, 5.57035, 19.328, -154.87, -94.6233, 88.0219
1.68017, -1, -18.8644, 5.52743, 19.3386, -154.92, -94.6061, 87.731
1.68757, -1, -19.026, 5.48443, 19.3491, -154.97, -94.5886, 87.4398
1.69616, -1, -19.1875, 5.4413, 19.3597, -155.02, -94.5708, 87.1485
1.7039, -1, -19.2681, 5.41976, 19.365, -155.07, -94.5527, 86.8573
1.71202, -1, -19.5099, 5.35511, 19.3808, -155.12, -94.5347, 86.5658
1.71905, -1, -19.5904, 5.3335, 19.3861, -155.144, -94.5258, 86.4201
1.72812, -1, -19.8314, 5.26883, 19.402, -155.22, -94.4995, 85.9827
1.73504, -1, -19.9116, 5.24729, 19.4072, -155.245, -94.4908, 85.8369
1.7442, -1, -20.1518, 5.18264, 19.4233, -155.32, -94.4647, 85.3998
1.75099, -1, -20.2317, 5.16118, 19.4287, -155.345, -94.456, 85.254
1.76026, -1, -20.4716, 5.09681, 19.4448, -155.42, -94.4294, 84.8165
1.76699, -1, -20.5517, 5.07529, 19.4502, -155.445, -94.4203, 84.6707
1.77733, -1, -20.792, 5.01093, 19.4662, -155.52, -94.3933, 84.2331
1.78306, -1, -20.8724, 4.98951, 19.4715, -155.545, -94.3844, 84.0871
1.79259, -1, -21.114, 4.92502, 19.4875, -155.62, -94.3581, 83.6489
1.80163, -1, -21.2756, 4.882, 19.4981, -155.671, -94.3409, 83.357
1.80858, -1, -21.4375, 4.83891, 19.5086, -155.721, -94.3237, 83.0648
1.81661, -1, -21.5996, 4.79567, 19.5192, -155.771, -94.3063, 82.7722
1.82545, -1, -21.6807, 4.77411, 19.5246, -155.821, -94.2888, 82.4797
1.83105, -1, -21.843, 4.73094, 19.5354, -155.846, -94.2799, 82.3335
1.84103, -1, -22.0866, 4.66591, 19.5515, -155.922, -94.2529, 81.8946
1.847, -1, -22.1678, 4.64427, 19.5569, -155.947, -94.244, 81.7482
1.856, -1, -22.3302, 4.60097, 19.5675, -155.997, -94.2263, 81.4555
1.86413, -1, -22.4923, 4.55762, 19.5781, -156.047, -94.2089, 81.163
1.87199, -1, -22.654, 4.51426, 19.5889, -156.098, -94.1914, 80.8702
1.879, -1, -22.8156, 4.47091, 19.5995, -156.147, -94.174, 80.5774
1.88799, -1, -22.9767, 4.42761, 19.6102, -156.198, -94.1563, 80.2844
1.89601, -1, -23.1378, 4.38439, 19.6209, -156.249, -94.1384, 79.9914
1.90405, -1, -23.2988, 4.34114, 19.6315, -156.299, -94.1202, 79.6981
1.91199, -1, -23.4596, 4.29794, 19.6424, -156.349, -94.1019, 79.4048
1.91999, -1, -23.6206, 4.2547, 19.6532, -156.4, -94.084, 79.1116
1.92805, -1, -23.7818, 4.21148, 19.6639, -156.45, -94.0664, 78.8182
1.93598, -1, -23.9431, 4.16828, 19.6747, -156.5, -94.049, 78.5246
1.94401, -1, -24.1049, 4.12497, 19.6853, -156.551, -94.0316, 78.2308
1.951, -1, -24.2672, 4.0816, 19.6961, -156.601, -94.0141, 77.937
1.95999, -1, -24.4299, 4.03823, 19.7067, -156.652, -93.9963, 77.643
1.96907, -1, -24.5928, 3.99477, 19.7173, -156.702, -93.9782, 77.3489
1.97498, -1, -24.7559, 3.95122, 19.7279, -156.752, -93.9601, 77.0548
1.98401, -1, -24.9193, 3.90769, 19.7386, -156.803, -93.9422, 76.7608
1.99199, -1, -25.0827, 3.86414, 19.7493, -156.853, -93.9245, 76.4668
2.00006, -1, -25.2458, 3.82057, 19.7602, -156.903, -93.9069, 76.1725
2.00705, -1, -25.4087, 3.777, 19.771, -156.954, -93.8894, 75.8782
2.01606, -1, -25.5715, 3.73337, 19.7818, -157.004, -93.8717, 75.5841
2.02398, -1, -25.7341, 3.68976, 19.7924, -157.054, -93.8538, 75.2897
2.03205, -1, -25.8964, 3.64629, 19.8031, -157.105, -93.8355, 74.9949
2.04008, -1, -26.0586, 3.60279, 19.8139, -157.155, -93.8171, 74.7004
2.048, -1, -26.2204, 3.55931, 19.8246, -157.206, -93.799, 74.4058
2.05598, -1, -26.382, 3.51596, 19.8353, -157.257, -93.7811, 74.1111
2.06408, -1, -26.5438, 3.47255, 19.8461, -157.307, -93.7635, 73.8159
2.07199, -1, -26.7057, 3.4291, 19.8568, -157.358, -93.7459, 73.5209
2.08, -1, -26.8679, 3.38563, 19.8676, -157.409, -93.7282, 73.2258
2.09002, -1, -27.0306, 3.34207, 19.8784, -157.459, -93.7103, 72.9305
2.09603, -1, -27.1935, 3.29847, 19.8893, -157.51, -93.6921, 72.6351
2.10401, -1, -27.3568, 3.2549, 19.9, -157.561, -93.6738, 72.34
2.11198, -1, -27.5205, 3.21115, 19.9107, -157.611, -93.6558, 72.0448
2.12004, -1, -27.6844, 3.16742, 19.9215, -157.662, -93.6379, 71.7493
2.12801, -1, -27.8484, 3.12377, 19.9322, -157.712, -93.6201, 71.4537
2.13598, -1, -28.0125, 3.08007, 19.943, -157.763, -93.6025, 71.1583
2.14336, -1, -28.1766, 3.03634, 19.9538, -157.814, -93.5848, 70.8625
2.15136, -1, -28.3408, 2.99263, 19.9645, -157.865, -93.5668, 70.5665
2.15949, -1, -28.5048, 2.94892, 19.9754, -157.915, -93.5486, 70.2705
2.16822, -1, -28.6683, 2.90529, 19.9863, -157.966, -93.5302, 69.9747
2.17557, -1, -28.8318, 2.8616, 19.9971, -158.017, -93.5119, 69.6785
2.18409, -1, -28.9949, 2.81792, 20.0079, -158.068, -93.494, 69.382
2.19161, -1, -29.1575, 2.77431, 20.0186, -158.119, -93.4763, 69.0858
2.20022, -1, -29.3201, 2.73066, 20.0293, -158.169, -93.4587, 68.7893
2.20763, -1, -29.4015, 2.70884, 20.0348, -158.221, -93.4411, 68.4925
2.21605, -1, -29.6458, 2.64333, 20.0509, -158.272, -93.4232, 68.1957
2.22298, -1, -29.7273, 2.62146, 20.0562, -158.297, -93.4141, 68.0474
2.23207, -1, -29.972, 2.55585, 20.0725, -158.374, -93.3866, 67.6024
2.23898, -1, -30.0537, 2.53396, 20.0779, -158.399, -93.3775, 67.454
2.24812, -1, -30.2993, 2.46806, 20.0943, -158.475, -93.3504, 67.0084
2.25504, -1, -30.3814, 2.4461, 20.0997, -158.501, -93.3415, 66.8601
2.26437, -1, -30.6283, 2.3802, 20.116, -158.577, -93.315, 66.4145
2.27099, -1, -30.7108, 2.3582, 20.1214, -158.602, -93.3062, 66.2659
2.28038, -1, -30.9583, 2.29231, 20.1376, -158.679, -93.2793, 65.8198
2.28856, -1, -31.1233, 2.24834, 20.1484, -158.73, -93.261, 65.5227
2.29656, -1, -31.2882, 2.20439, 20.1592, -158.781, -93.2425, 65.2253
2.30455, -1, -31.453, 2.16058, 20.17, -158.832, -93.2241, 64.9275
2.31263, -1, -31.6176, 2.11663, 20.1807, -158.883, -93.206, 64.6299
2.32055, -1, -31.6999, 2.07269, 20.1916, -158.935, -93.1883, 64.3321
2.32857, -1, -31.8641, 2.05075, 20.1971, -158.96, -93.1707, 64.0342
2.33671, -1, -32.0281, 2.00687, 20.208, -159.011, -93.153, 63.7362
2.34397, -1, -32.1918, 1.9629, 20.219, -159.062, -93.1441, 63.5874
2.35207, -1, -32.3554, 1.919, 20.2299, -159.114, -93.1261, 63.2895
2.36003, -1, -32.5191, 1.87497, 20.2407, -159.165, -93.1078, 62.9915
2.36803, -1, -32.6829, 1.8309, 20.2517, -159.216, -93.0894, 62.6931
2.37598, -1, -32.8469, 1.78693, 20.2626, -159.268, -93.0712, 62.3951
2.38402, -1, -33.011, 1.74282, 20.2735, -159.318, -93.0532, 62.0968
2.39197, -1, -33.1756, 1.69864, 20.2844, -159.37, -93.0354, 61.7982
2.4, -1, -33.3405, 1.65451, 20.2952, -159.421, -93.0176, 61.4995
2.40802, -1, -33.5059, 1.61032, 20.3061, -159.472, -92.9996, 61.2011
2.41598, -1, -33.6716, 1.56616, 20.3171, -159.524, -92.9814, 60.9024
2.42397, -1, -33.8372, 1.52199, 20.3281, -159.575, -92.9628, 60.6034
2.43205, -1, -34.0031, 1.47781, 20.3389, -159.626, -92.944, 60.3043
2.43997, -1, -34.1689, 1.43368, 20.3498, -159.677, -92.9257, 60.0055
2.44797, -1, -34.3347, 1.38957, 20.3607, -159.729, -92.9075, 59.7061
2.45758, -1, -34.5006, 1.34541, 20.3716, -159.78, -92.8897, 59.2568
2.46397, -1, -34.6663, 1.30129, 20.3825, -159.832, -92.872, 59.1072
2.47303, -1, -34.8315, 1.25714, 20.3934, -159.883, -92.8541, 58.8079
2.48003, -1, -34.9964, 1.21297, 20.4042, -159.934, -92.836, 58.5085
2.48806, -1, -35.1611, 1.16879, 20.4152, -159.986, -92.8175, 58.2087
2.49502, -1, -35.3257, 1.12454, 20.4262, -160.037, -92.799, 57.9091
2.50401, -1, -35.4898, 1.08043, 20.4373, -160.089, -92.7807, 57.6094
2.511, -1, -35.6524, 1.03666, 20.4486, -160.14, -92.7626, 57.3097
2.51999, -1, -35.8123, 0.993402, 20.46, -160.191, -92.7447, 57.011
2.52801, -1, -35.9684, 0.951197, 20.4717, -160.242, -92.727, 56.7154
2.53603, -1, -36.1195, 0.910587, 20.4837, -160.291, -92.7096, 56.4254
2.54399, -1, -36.2633, 0.872117, 20.4956, -160.339, -92.6925, 56.1451
2.55202, -1, -36.3976, 0.836464, 20.5072, -160.384, -92.676, 55.8805
2.55997, -1, -36.5208, 0.803926, 20.5178, -160.425, -92.6607, 55.6382
2.56801, -1, -36.6312, 0.774694, 20.5271, -160.461, -92.6473, 55.4234
2.57602, -1, -36.7273, 0.749308, 20.5347, -160.492, -92.6359, 55.2412
2.58397, -1, -36.8087, 0.727665, 20.54, -160.517, -92.627, 55.0942
2.592, -1, -36.8763, 0.709722, 20.5431, -160.537, -92.6203, 54.982
2.60001, -1, -36.9309, 0.695387, 20.5445, -160.551, -92.6157, 54.9019
2.60797, -1, -36.9728, 0.684389, 20.5449, -160.56, -92.6127, 54.8477
2.61608, -1, -37.0035, 0.676284, 20.5446, -160.566, -92.6108, 54.8143
2.62402, -1, -37.0247, 0.670705, 20.5441, -160.569, -92.6099, 54.7951
2.63198, -1, -37.0381, 0.667357, 20.5437, -160.571, -92.6094, 54.7854
2.63996, 2, -37.0456, 0.665613, 20.5435, -160.572, -92.6091, 54.7808
2.64804, 2, -37.0485, 0.664798, 20.5434, -160.572, -92.6089, 54.7787
2.656, 2, -37.0486, 0.664438, 20.5433, -160.573, -92.6089, 54.7777
2.66406, 2, -37.0481, 0.664266, 20.5433, -160.573, -92.6089, 54.7773
2.67211, 2, -37.048, 0.664199, 20.5433, -160.573, -92.6089, 54.7772
2.67959, 2, -37.0483, 0.664157, 20.5432, -160.573, -92.6089, 54.7772
2.68809, 2, -37.0492, 0.66413, 20.5432, -160.573, -92.6089, 54.7772
2.69612, 2, -37.0502, 0.664016, 20.543, -160.573, -92.609, 54.7773
2.70356, 2, -37.0509, 0.663911, 20.5428, -160.573, -92.6091, 54.7775
2.71207, 2, -37.0529, 0.663513, 20.5426, -160.573, -92.6091, 54.7777
2.72021, 2, -37.0541, 0.663309, 20.5425, -160.573, -92.6091, 54.7779
2.72782, 2, -37.055, 0.6631, 20.5423, -160.573, -92.6091, 54.7781
2.73605, 2, -37.0555, 0.662984, 20.5421, -160.573, -92.6092, 54.7783
2.74296, 2, -37.0555, 0.662956, 20.542, -160.573, -92.6092, 54.7784
2.75238, 2, -37.0549, 0.662955, 20.5418, -160.573, -92.6093, 54.7788
2.75899, 2, -37.0544, 0.66298, 20.5418, -160.573, -92.6093, 54.7789
2.76857, 2, -37.0529, 0.663093, 20.5417, -160.573, -92.6094, 54.7792
2.77671, 2, -37.0513, 0.66319, 20.5417, -160.573, -92.6094, 54.7794
2.7844, 2, -37.0499, 0.663326, 20.5416, -160.573, -92.6094, 54.7796
2.79096, 2, -37.0493, 0.66337, 20.5416, -160.573, -92.6094, 54.7797
2.80089, 2, -37.048, 0.663435, 20.5415, -160.573, -92.6095, 54.7799
2.80701, 2, -37.0478, 0.663426, 20.5415, -160.573, -92.6095, 54.7799
2.8168, 2, -37.0477, 0.663363, 20.5415, -160.573, -92.6094, 54.78
2.82479, 2, -37.0479, 0.663289, 20.5414, -160.573, -92.6094, 54.78
2.83256, 2, -37.048, 0.663251, 20.5414, -160.573, -92.6094, 54.78
2.84057, 2, -37.0484, 0.6632, 20.5414, -160.573, -92.6095, 54.78
2.84883, 2, -37.0495, 0.663163, 20.5414, -160.573, -92.6095, 54.7801
2.85598, 2, -37.0499, 0.663158, 20.5414, -160.573, -92.6095, 54.7801
2.864, 2, -37.0508, 0.66314, 20.5414, -160.573, -92.6095, 54.7801
2.87203, 2, -37.0514, 0.663151, 20.5414, -160.573, -92.6095, 54.7801
2.87997, 2, -37.0518, 0.663172, 20.5413, -160.573, -92.6095, 54.7802
2.88798, 2, -37.0519, 0.663208, 20.5413, -160.573, -92.6095, 54.7803
2.89596, 2, -37.0519, 0.663224, 20.5413, -160.573, -92.6095, 54.7804
2.90399, 2, -37.0517, 0.663231, 20.5413, -160.573, -92.6095, 54.7804
2.912, 2, -37.0512, 0.663247, 20.5413, -160.573, -92.6096, 54.7804
2.91995, 2, -37.0508, 0.663231, 20.5413, -160.573, -92.6095, 54.7804
2.92799, 2, -37.0506, 0.663216, 20.5413, -160.573, -92.6096, 54.7805
2.93599, 2, -37.0504, 0.663184, 20.5413, -160.573, -92.6096, 54.7805
2.94395, 2, -37.0503, 0.663164, 20.5413, -160.573, -92.6096, 54.7806
2.95198, 2, -37.0501, 0.663143, 20.5413, -160.573, -92.6096, 54.7807
2.96, 2, -37.0502, 0.66314, 20.5413, -160.573, -92.6096, 54.7807
2.96982, 2, -37.0503, 0.663148, 20.5413, -160.573, -92.6096, 54.7808
2.97597, 2, -37.0503, 0.663155, 20.5412, -160.573, -92.6096, 54.7808
2.98499, 2, -37.0504, 0.663163, 20.5412, -160.573, -92.6096, 54.7808
2.99196, 2, -37.0506, 0.663178, 20.5412, -160.572, -92.6096, 54.7809
2.99997, 2, -37.0508, 0.663181, 20.5412, -160.572, -92.6096, 54.7809
3.00799, 2, -37.0509, 0.663204, 20.5412, -160.573, -92.6097, 54.781
3.01595, 2, -37.051, 0.663222, 20.5412, -160.572, -92.6097, 54.781
3.02397, 2, -37.051, 0.66322, 20.5412, -160.572, -92.6097, 54.7811
3.032, 2, -37.0509, 0.663211, 20.5412, -160.572, -92.6097, 54.7811
3.04001, 2, -37.0509, 0.663189, 20.5412, -160.572, -92.6097, 54.7812
3.04798, 2, -37.0508, 0.663166, 20.5412, -160.572, -92.6097, 54.7813
3.056, 2, -37.0507, 0.663161, 20.5412, -160.572, -92.6097, 54.7813
3.06396, 2, -37.0507, 0.663141, 20.5411, -160.572, -92.6097, 54.7813
3.072, 2, -37.0507, 0.663152, 20.5411, -160.572, -92.6098, 54.7813
3.07999, 2, -37.0507, 0.66316, 20.5411, -160.572, -92.6098, 54.7814
3.08795, 2, -37.0507, 0.663173, 20.5411, -160.572, -92.6098, 54.7814
3.09597, 2, -37.0506, 0.6632, 20.5411, -160.572, -92.6098, 54.7814
3.104, 2, -37.0506, 0.663221, 20.5411, -160.572, -92.6097, 54.7815
3.11196, 2, -37.0506, 0.663242, 20.5411, -160.572, -92.6098, 54.7816
3.11997, 2, -37.0506, 0.66324, 20.5411, -160.572, -92.6099, 54.7817
3.128, 2, -37.0506, 0.663239, 20.5411, -160.572, -92.6098, 54.7817
3.13595, 2, -37.0506, 0.663238, 20.5411, -160.572, -92.6098, 54.7817
3.14397, 2, -37.0506, 0.663227, 20.5411, -160.572, -92.6098, 54.7817
3.15202, 2, -37.0506, 0.663225, 20.5411, -160.572, -92.6098, 54.7817
3.15998, 2, -37.0506, 0.663195, 20.5411, -160.572, -92.6098, 54.7818
3.16805, 2, -37.0506, 0.663177, 20.5411, -160.572, -92.6099, 54.7818
3.17609, 2, -37.0506, 0.663173, 20.5411, -160.572, -92.6098, 54.7818
3.18353, 2, -37.0506, 0.663182, 20.541, -160.572, -92.6098, 54.7819
3.19209, 2, -37.0505, 0.663212, 20.541, -160.572, -92.6098, 54.7819
3.2001, 2, -37.0505, 0.663215, 20.541, -160.572, -92.6098, 54.7819
3.20754, 2, -37.0505, 0.663211, 20.541, -160.572, -92.6098, 54.782
3.21598, 2, -37.0505, 0.663249, 20.541, -160.572, -92.6098, 54.782
3.22294, 2, -37.0505, 0.663253, 20.541, -160.572, -92.6098, 54.782
3.23199, 2, -37.0505, 0.663242, 20.541, -160.572, -92.6098, 54.7819
3.23899, 2, -37.0505, 0.663241, 20.541, -160.572, -92.6099, 54.782
3.2481, 2, -37.0505, 0.663239, 20.541, -160.572, -92.6099, 54.7821
3.25497, 2, -37.0505, 0.663238, 20.541, -160.572, -92.6099, 54.7821
3.26429, 2, -37.0505, 0.663235, 20.541, -160.572, -92.6099, 54.7821
3.27101, 2, -37.0505, 0.663225, 20.541, -160.572, -92.6099, 54.7821
3.28029, 2, -37.0505, 0.663203, 20.541, -160.572, -92.6099, 54.7822
3.28699, 2, -37.0505, 0.663214, 20.541, -160.572, -92.6099, 54.7822
3.29649, 2, -37.0504, 0.663238, 20.541, -160.572, -92.6099, 54.7822
3.30449, 2, -37.0504, 0.663224, 20.5409, -160.572, -92.6099, 54.7822
3.31258, 2, -37.0504, 0.663231, 20.5409, -160.572, -92.6099, 54.7823
3.32056, 2, -37.0504, 0.663247, 20.5409, -160.572, -92.6099, 54.7823
3.32852, 2, -37.0504, 0.663244, 20.5409, -160.572, -92.6099, 54.7824
3.33657, 2, -37.0504, 0.663248, 20.5409, -160.572, -92.6099, 54.7823
3.34397, 2, -37.0504, 0.66326, 20.5409, -160.572, -92.6099, 54.7823
3.35195, 2, -37.0504, 0.663267, 20.5409, -160.572, -92.61, 54.7823
3.35996, 2, -37.0503, 0.663256, 20.5409, -160.572, -92.6099, 54.7823
3.36798, 2, -37.0503, 0.663258, 20.5409, -160.572, -92.6099, 54.7824
3.376, 2, -37.0503, 0.663247, 20.5409, -160.572, -92.6099, 54.7824
3.38396, 2, -37.0503, 0.663242, 20.5409, -160.572, -92.61, 54.7824
3.39198, 2, -37.0503, 0.66324, 20.5409, -160.572, -92.6099, 54.7825
3.39994, 2, -37.0503, 0.663251, 20.5409, -160.572, -92.6099, 54.7825
3.40797, 2, -37.0502, 0.663244, 20.5408, -160.572, -92.6099, 54.7825
3.41597, 2, -37.0503, 0.66324, 20.5408, -160.572, -92.6099, 54.7825
3.42393, 2, -37.0502, 0.663246, 20.5408, -160.572, -92.61, 54.7825
3.43197, 2, -37.0502, 0.663259, 20.5408, -160.572, -92.61, 54.7825
3.43997, 2, -37.0502, 0.663247, 20.5408, -160.572, -92.61, 54.7826
3.44793, 2, -37.0502, 0.663249, 20.5408, -160.572, -92.61, 54.7826
3.45596, 2, -37.0501, 0.663267, 20.5408, -160.572, -92.61, 54.7826
3.4655, 2, -37.0501, 0.663269, 20.5408, -160.572, -92.61, 54.7826
3.47194, 2, -37.0501, 0.663271, 20.5408, -160.572, -92.61, 54.7826
3.47995, 2, -37.0501, 0.66327, 20.5408, -160.572, -92.61, 54.7826
3.48895, 2, -37.0501, 0.663272, 20.5408, -160.572, -92.61, 54.7826
3.49594, 2, -37.0501, 0.663258, 20.5408, -160.572, -92.61, 54.7826
3.50396, 2, -37.0501, 0.663247, 20.5408, -160.572, -92.61, 54.7826
3.51198, 2, -37.0501, 0.663242, 20.5408, -160.572, -92.61, 54.7826
3.51993, 2, -37.05, 0.663252, 20.5408, -160.572, -92.61, 54.7826
3.52796, 2, -37.05, 0.663264, 20.5407, -160.572, -92.61, 54.7827
3.53597, 2, -37.05, 0.663274, 20.5407, -160.572, -92.61, 54.7827
3.544, 2, -37.05, 0.663279, 20.5407, -160.572, -92.61, 54.7827
3.55199, 2, -37.05, 0.663269, 20.5407, -160.572, -92.61, 54.7827
3.55998, 2, -37.05, 0.663276, 20.5407, -160.572, -92.61, 54.7827
3.56793, 2, -37.05, 0.66328, 20.5407, -160.572, -92.61, 54.7827
3.57597, 2, -37.0499, 0.663282, 20.5407, -160.572, -92.6101, 54.7827
3.58398, 2, -37.0499, 0.663263, 20.5407, -160.572, -92.6101, 54.7828
3.59194, 2, -37.0499, 0.663269, 20.5407, -160.572, -92.6101, 54.7828
3.59995, 2, -37.0499, 0.663269, 20.5407, -160.572, -92.61, 54.7828
3.60797, 2, -37.0499, 0.663272, 20.5407, -160.572, -92.6101, 54.7828
3.61599, 2, -37.0499, 0.663278, 20.5407, -160.572, -92.6101, 54.7828
3.62396, 2, -37.0499, 0.663281, 20.5407, -160.572, -92.6101, 54.7828
3.63198, 2, -37.0499, 0.66327, 20.5407, -160.572, -92.6101, 54.7828
3.6401, 2, -37.0499, 0.66327, 20.5407, -160.572, -92.6101, 54.7828
3.64819, 2, -37.0498, 0.663272, 20.5407, -160.572, -92.6101, 54.7829
3.65538, 2, -37.0498, 0.663278, 20.5407, -160.572, -92.6101, 54.7829
3.66348, 2, -37.0498, 0.663281, 20.5407, -160.572, -92.6101, 54.7829
3.67208, 2, -37.0497, 0.663282, 20.5406, -160.572, -92.6101, 54.7829
3.67987, 2, -37.0497, 0.663282, 20.5406, -160.572, -92.6101, 54.7829
3.68772, 2, -37.0497, 0.663283, 20.5406, -160.572, -92.6101, 54.7829
3.6961, 2, -37.0497, 0.663283, 20.5406, -160.572, -92.6101, 54.7829
3.70399, 4, -37.0497, 0.663283, 20.5406, -160.572, -92.6101, 54.7829
3.7121, 4, -37.0497, 0.663283, 20.5406, -160.572, -92.6101, 54.7829
3.72005, 4, -37.0497, 0.663283, 20.5406, -160.572, -92.6101, 54.7829
3.72797, 4, -37.0497, 0.663283, 20.5406, -160.571, -92.6102, 54.7829
3.73499, 4, -37.0496, 0.663283, 20.5406, -160.571, -92.6102, 54.7829
3.74409, 4, -37.0496, 0.663283, 20.5406, -160.571, -92.6101, 54.7829
3.75092, 4, -37.0496, 0.663283, 20.5406, -160.571, -92.6101, 54.7829
3.76014, 4, -37.0495, 0.663283, 20.5406, -160.571, -92.6101, 54.7829
3.76692, 4, -37.0495, 0.663283, 20.5406, -160.571, -92.6101, 54.783
3.77623, 4, -37.0495, 0.663283, 20.5406, -160.571, -92.6101, 54.7829
3.78298, 4, -37.0495, 0.663283, 20.5406, -160.571, -92.6102, 54.7829
3.79276, 4, -37.0494, 0.663283, 20.5406, -160.571, -92.6102, 54.783
3.80044, 4, -37.0494, 0.663301, 20.5405, -160.571, -92.6102, 54.7829
3.82644, 4, -37.0493, 0.663285, 20.5405, -160.571, -92.6102, 54.7829
3.83102, 4, -37.0493, 0.663284, 20.5405, -160.571, -92.6102, 54.7829
3.83328, 4, -37.0493, 0.663284, 20.5405, -160.571, -92.6102, 54.783
3.8345, 4, -37.0493, 0.663284, 20.5405, -160.571, -92.6102, 54.783
3.83892, 4, -37.0493, 0.663283, 20.5405, -160.571, -92.6102, 54.783
3.84793, 4, -37.0492, 0.663302, 20.5405, -160.571, -92.6102, 54.783
3.85598, 4, -37.0492, 0.663291, 20.5405, -160.571, -92.6102, 54.783
3.86392, 4, -37.0492, 0.663305, 20.5405, -160.571, -92.6101, 54.783
3.87192, 4, -37.0485, 0.66317, 20.5405, -160.571, -92.6101, 54.783
3.88003, 4, -37.046, 0.662405, 20.5406, -160.571, -92.6102, 54.7829
3.88793, 4, -37.0413, 0.660409, 20.5413, -160.571, -92.6102, 54.7829
3.89593, 4, -37.0348, 0.657069, 20.5429, -160.571, -92.6102, 54.7829
3.90398, 4, -37.0275, 0.652672, 20.546, -160.571, -92.6102, 54.7829
3.91195, 4, -37.019, 0.646944, 20.5511, -160.57, -92.6102, 54.7829
3.91992, 5, -37.0087, 0.63941, 20.5587, -160.568, -92.6102, 54.7829
3.92973, 5, -36.9915, 0.625473, 20.5743, -160.565, -92.61, 54.7828
3.93591, 5, -36.9855, 0.620149, 20.5805, -160.564, -92.6099, 54.7828
3.94393, 5, -36.9727, 0.608507, 20.5944, -160.561, -92.6098, 54.7828
3.95198, 5, -36.9576, 0.595443, 20.6094, -160.558, -92.6097, 54.7827
3.95991, 5, -36.9403, 0.581089, 20.6251, -160.554, -92.6096, 54.7826
3.96793, 5, -36.9216, 0.565816, 20.6414, -160.551, -92.6094, 54.7825
3.97692, 5, -36.902, 0.549926, 20.6582, -160.547, -92.6093, 54.7824
3.98393, 5, -36.8816, 0.533932, 20.6747, -160.544, -92.6091, 54.7823
3.99291, 5, -36.8611, 0.517967, 20.6912, -160.54, -92.6089, 54.7822
3.99895, 5, -36.8404, 0.501716, 20.7079, -160.537, -92.6087, 54.7821
4.00791, 5, -36.8199, 0.485228, 20.7245, -160.533, -92.6083, 54.782
4.01593, 5, -36.7993, 0.469035, 20.7412, -160.529, -92.608, 54.7819
4.02392, 5, -36.7791, 0.453019, 20.7581, -160.525, -92.6076, 54.7818
4.03192, 5, -36.7587, 0.436855, 20.7752, -160.522, -92.6071, 54.7817
4.03999, 5, -36.7383, 0.420615, 20.7921, -160.518, -92.6067, 54.7815
4.04799, 5, -36.7176, 0.40468, 20.809, -160.514, -92.6062, 54.7813
4.05592, 5, -36.697, 0.38876, 20.8259, -160.51, -92.6057, 54.781
4.064, 5, -36.6766, 0.372621, 20.8426, -160.506, -92.6053, 54.7808
4.07191, 5, -36.6565, 0.356422, 20.8593, -160.502, -92.6047, 54.7807
4.08, 5, -36.6364, 0.340408, 20.8765, -160.499, -92.6042, 54.7807
4.08792, 5, -36.6162, 0.324317, 20.8934, -160.495, -92.6037, 54.7806
4.09591, 5, -36.5959, 0.307964, 20.9102, -160.491, -92.6031, 54.7806
4.10399, 5, -36.5754, 0.291694, 20.9271, -160.488, -92.6026, 54.7805
4.11193, 5, -36.5545, 0.275572, 20.944, -160.484, -92.6021, 54.7804
4.11992, 5, -36.5337, 0.259311, 20.9607, -160.48, -92.6016, 54.7803
4.12798, 5, -36.513, 0.242861, 20.9777, -160.477, -92.601, 54.7802
4.13593, 5, -36.4924, 0.226589, 20.9948, -160.473, -92.6004, 54.7801
4.14392, 5, -36.4718, 0.210513, 21.0116, -160.47, -92.6, 54.7799
4.15198, 5, -36.4512, 0.194401, 21.0283, -160.466, -92.5994, 54.7798
4.16006, 5, -36.4307, 0.178171, 21.0451, -160.463, -92.5989, 54.7796
4.16744, 5, -36.41, 0.162207, 21.0618, -160.46, -92.5983, 54.7794
4.17607, 5, -36.3893, 0.14629, 21.0785, -160.456, -92.5977, 54.7793
4.18421, 5, -36.3687, 0.130191, 21.0955, -160.453, -92.5972, 54.779
4.19156, 5, -36.3483, 0.113958, 21.1125, -160.45, -92.5967, 54.7787
4.20009, 5, -36.3277, 0.0979529, 21.1292, -160.446, -92.5962, 54.7784
4.20839, 5, -36.3073, 0.0819758, 21.1461, -160.443, -92.5957, 54.778
4.21567, 5, -36.297, 0.073931, 21.1628, -160.44, -92.5952, 54.7777
4.22399, 5, -36.2661, 0.0495227, 21.1793, -160.436, -92.5946, 54.7773
4.23278, 5, -36.2453, 0.0334974, 21.196, -160.433, -92.5941, 54.7768
4.23998, 5, -36.2244, 0.0174609, 21.2129, -160.429, -92.5936, 54.7763
4.24807, 5, -36.2036, 0.00120471, 21.2296, -160.426, -92.5932, 54.776
4.25492, 5, -36.1932, -0.00693705, 21.2379, -160.424, -92.5929, 54.7757
4.26291, 5, -36.1724, -0.0230052, 21.2546, -160.421, -92.5924, 54.7752
4.27219, 5, -36.1412, -0.0469018, 21.2798, -160.415, -92.5917, 54.7745
4.27902, 5, -36.1309, -0.054921, 21.2881, -160.414, -92.5914, 54.7742
4.2869, 5, -36.1102, -0.0710257, 21.3047, -160.41, -92.5909, 54.7738
4.29637, 5, -36.0789, -0.0947637, 21.33, -160.404, -92.5902, 54.7731
4.30518, 5, -36.0582, -0.110688, 21.3465, -160.401, -92.5897, 54.7727
4.31094, 5, -36.0478, -0.118746, 21.3547, -160.399, -92.5895, 54.7725
4.32046, 5, -36.0168, -0.142817, 21.3797, -160.393, -92.5887, 54.7719
4.32926, 5, -35.9961, -0.158668, 21.3961, -160.389, -92.5883, 54.7715
4.3349, 5, -35.9857, -0.166611, 21.4043, -160.387, -92.588, 54.7714
4.34442, 5, -35.9652, -0.182641, 21.4209, -160.383, -92.5875, 54.771
4.3519, 5, -35.9444, -0.198724, 21.4377, -160.379, -92.587, 54.7707
4.35891, 5, -35.9234, -0.214579, 21.4543, -160.375, -92.5866, 54.7704
4.36901, 5, -35.8921, -0.23846, 21.4791, -160.37, -92.5858, 54.7699
4.37493, 5, -35.8817, -0.246521, 21.4875, -160.368, -92.5856, 54.7698
4.38397, 5, -35.8608, -0.262537, 21.5039, -160.363, -92.5851, 54.7695
4.39189, 5, -35.8398, -0.278287, 21.5201, -160.36, -92.5847, 54.7692
4.39994, 5, -35.8189, -0.29403, 21.5366, -160.356, -92.5842, 54.769
4.40692, 5, -35.7981, -0.310005, 21.5532, -160.352, -92.5837, 54.7688
4.41593, 5, -35.7771, -0.325891, 21.5696, -160.348, -92.5833, 54.7687
4.42411, 5, -35.7561, -0.341595, 21.5861, -160.344, -92.5828, 54.7685
4.43191, 5, -35.7352, -0.357408, 21.6027, -160.34, -92.5824, 54.7683
4.4399, 5, -35.7144, -0.373404, 21.619, -160.337, -92.5819, 54.7682
4.44697, 5, -35.6935, -0.389279, 21.6352, -160.333, -92.5814, 54.768
4.45591, 5, -35.6727, -0.404991, 21.6517, -160.329, -92.5809, 54.7679
4.4639, 5, -35.6519, -0.420792, 21.6682, -160.326, -92.5804, 54.7678
4.47197, 5, -35.631, -0.436779, 21.6845, -160.322, -92.58, 54.7677
4.48095, 5, -35.6099, -0.452579, 21.7008, -160.319, -92.5796, 54.7677
4.48791, 5, -35.5888, -0.46826, 21.7171, -160.315, -92.5791, 54.7676
4.49599, 5, -35.5679, -0.484107, 21.7332, -160.312, -92.5787, 54.7676
4.50391, 5, -35.5469, -0.500044, 21.7494, -160.308, -92.5782, 54.7676
4.51197, 5, -35.5259, -0.515762, 21.7658, -160.305, -92.5777, 54.7674
4.5199, 5, -35.505, -0.531396, 21.7821, -160.301, -92.5773, 54.7674
4.52792, 5, -35.4841, -0.547069, 21.7982, -160.297, -92.5768, 54.7673
4.53596, 5, -35.463, -0.562873, 21.8146, -160.294, -92.5763, 54.7674
4.5439, 5, -35.4418, -0.578481, 21.8308, -160.29, -92.5758, 54.7674
4.55197, 5, -35.4208, -0.594015, 21.8468, -160.287, -92.5754, 54.7674
4.55996, 5, -35.3997, -0.609742, 21.8628, -160.283, -92.575, 54.7674
4.5679, 5, -35.3786, -0.625599, 21.8791, -160.279, -92.5745, 54.7673
4.57591, 5, -35.3576, -0.641214, 21.8953, -160.276, -92.574, 54.7673
4.58398, 5, -35.3365, -0.656735, 21.9113, -160.272, -92.5736, 54.7673
4.59189, 5, -35.3155, -0.672453, 21.9276, -160.268, -92.5732, 54.7673
4.60006, 5, -35.2942, -0.688311, 21.9438, -160.264, -92.5726, 54.7673
4.60798, 5, -35.273, -0.703905, 21.9597, -160.261, -92.5722, 54.7673
4.6159, 5, -35.2519, -0.719406, 21.9759, -160.257, -92.5717, 54.7674
4.62395, 5, -35.2307, -0.735099, 21.9922, -160.253, -92.5713, 54.7673
4.63192, 5, -35.2095, -0.750895, 22.0083, -160.249, -92.5708, 54.7674
4.6399, 5, -35.1884, -0.766358, 22.0241, -160.245, -92.5703, 54.7673
4.6481, 5, -35.1673, -0.78173, 22.0401, -160.241, -92.5699, 54.7674
4.65547, 5, -35.1461, -0.797278, 22.0561, -160.237, -92.5694, 54.7674
4.66398, 5, -35.1249, -0.812946, 22.0718, -160.233, -92.5689, 54.7674
4.67271, 5, -35.1038, -0.828283, 22.0878, -160.228, -92.5685, 54.7674
4.67999, 5, -35.0826, -0.843647, 22.104, -160.224, -92.5681, 54.7674
4.688, 5, -35.0615, -0.859258, 22.1201, -160.22, -92.5675, 54.7674
4.6961, 5, -35.0404, -0.874996, 22.1359, -160.216, -92.5671, 54.7675
4.70406, 5, -35.0195, -0.890477, 22.1518, -160.212, -92.5666, 54.7676
4.71152, 5, -34.9983, -0.905867, 22.1677, -160.208, -92.5661, 54.7676
4.72162, 5, -34.9771, -0.92141, 22.1832, -160.204, -92.5656, 54.7676
4.72793, 5, -34.9559, -0.937078, 22.1991, -160.2, -92.5652, 54.7676
4.736, 5, -34.9347, -0.952444, 22.2152, -160.196, -92.5647, 54.7676
4.74402, 5, -34.9134, -0.967767, 22.231, -160.192, -92.5642, 54.7676
4.75223, 5, -34.8921, -0.983289, 22.2467, -160.189, -92.5637, 54.7677
4.7589, 5, -34.8814, -0.991105, 22.2547, -160.187, -92.5635, 54.7677
4.76815, 5, -34.8496, -1.01417, 22.2785, -160.181, -92.5628, 54.7678
4.77495, 5, -34.8389, -1.02176, 22.2863, -160.179, -92.5626, 54.7678
4.78433, 5, -34.8069, -1.04469, 22.3099, -160.174, -92.5619, 54.7679
4.79091, 5, -34.7963, -1.05244, 22.3179, -160.172, -92.5617, 54.768
4.80055, 5, -34.7644, -1.07546, 22.3418, -160.167, -92.5609, 54.768
4.80845, 5, -34.743, -1.09069, 22.3573, -160.163, -92.5604, 54.7681
4.8165, 5, -34.7216, -1.10608, 22.373, -160.16, -92.5599, 54.7682
4.82295, 5, -34.711, -1.11387, 22.3809, -160.158, -92.5597, 54.7683
4.8325, 5, -34.6789, -1.13701, 22.4041, -160.152, -92.559, 54.7686
4.84052, 5, -34.6682, -1.14463, 22.412, -160.149, -92.5585, 54.7687
4.84788, 5, -34.6468, -1.15994, 22.4278, -160.147, -92.5582, 54.7688
4.85588, 5, -34.6255, -1.17543, 22.4436, -160.143, -92.5578, 54.7689
4.864, 5, -34.6042, -1.19084, 22.4592, -160.14, -92.5573, 54.7691
4.87188, 5, -34.5828, -1.20605, 22.4748, -160.136, -92.5568, 54.7695
4.87989, 5, -34.5615, -1.22136, 22.4904, -160.132, -92.5563, 54.7698
4.88798, 5, -34.5402, -1.23681, 22.5058, -160.128, -92.5558, 54.7702
4.89607, 5, -34.5187, -1.25213, 22.5212, -160.124, -92.5553, 54.7707
4.90291, 5, -34.4973, -1.2672, 22.5369, -160.12, -92.5548, 54.7712
4.91189, 5, -34.4758, -1.28235, 22.5526, -160.116, -92.5543, 54.7718
4.91991, 5, -34.4544, -1.29766, 22.5681, -160.112, -92.5539, 54.7724
4.92793, 5, -34.4329, -1.31288, 22.5836, -160.108, -92.5534, 54.773
4.93588, 5, -34.4114, -1.32793, 22.5993, -160.104, -92.5529, 54.7738
4.94392, 5, -34.39, -1.3431, 22.6148, -160.1, -92.5524, 54.7746
4.95195, 5, -34.3684, -1.35845, 22.6301, -160.096, -92.552, 54.7755
4.9599, 5, -34.3468, -1.3738, 22.6457, -160.092, -92.5514, 54.7764
4.96788, 5, -34.3254, -1.38889, 22.6615, -160.087, -92.5509, 54.7773
4.97687, 5, -34.3039, -1.40402, 22.6769, -160.083, -92.5504, 54.7783
4.98405, 5, -34.2824, -1.41932, 22.6922, -160.079, -92.55, 54.7792
4.99188, 5, -34.2609, -1.43462, 22.7077, -160.074, -92.5494, 54.7802
5.0009, 5, -34.2395, -1.44964, 22.7231, -160.07, -92.5489, 54.7812
5.00795, 5, -34.2179, -1.46467, 22.7382, -160.066, -92.5484, 54.7822
5.01603, 5, -34.1962, -1.47989, 22.7537, -160.062, -92.5479, 54.7833
5.02398, 5, -34.1747, -1.49513, 22.7694, -160.057, -92.5474, 54.7842
5.03188, 5, -34.1533, -1.51014, 22.7849, -160.053, -92.5469, 54.7852
5.03996, 5, -34.1317, -1.52507, 22.8002, -160.049, -92.5464, 54.7862
5.04788, 5, -34.1101, -1.54016, 22.8156, -160.045, -92.5459, 54.7872
5.05596, 5, -34.0886, -1.55536, 22.831, -160.041, -92.5454, 54.7883
5.06402, 5, -34.0671, -1.57028, 22.846, -160.037, -92.5449, 54.7893
5.07188, 5, -34.0454, -1.58523, 22.8612, -160.034, -92.5445, 54.7903
5.07988, 5, -34.0237, -1.60038, 22.8767, -160.03, -92.5439, 54.7914
5.08816, 5, -34.0022, -1.61564, 22.8922, -160.026, -92.5434, 54.7924
5.09494, 5, -33.9806, -1.63066, 22.9073, -160.022, -92.5429, 54.7934
5.10392, 5, -33.959, -1.64553, 22.9227, -160.018, -92.5424, 54.7944
5.11375, 5, -33.9374, -1.66054, 22.9381, -160.014, -92.5418, 54.7955
5.11987, 5, -33.9157, -1.67567, 22.9532, -160.011, -92.5413, 54.7965
5.12794, 5, -33.8939, -1.69058, 22.9684, -160.007, -92.5408, 54.7975
5.1359, 5, -33.872, -1.7054, 22.9838, -160.003, -92.5403, 54.7985
5.14392, 5, -33.8503, -1.72035, 22.9991, -159.999, -92.5398, 54.7994
5.15194, 5, -33.8287, -1.7355, 23.0142, -159.995, -92.5393, 54.8005
5.16, 5, -33.8071, -1.75046, 23.0293, -159.991, -92.5387, 54.8015
5.16779, 5, -33.7854, -1.76524, 23.0445, -159.987, -92.5382, 54.8025
5.17601, 5, -33.7637, -1.78014, 23.0595, -159.983, -92.5377, 54.8035
5.18405, 5, -33.742, -1.79523, 23.0744, -159.979, -92.5372, 54.8046
5.19197, 5, -33.7201, -1.81019, 23.0896, -159.975, -92.5367, 54.8056
5.20004, 5, -33.6983, -1.82499, 23.1051, -159.971, -92.5361, 54.8065
5.20835, 5, -33.6766, -1.8399, 23.1201, -159.967, -92.5356, 54.8076
5.21634, 5, -33.6658, -1.85495, 23.1351, -159.963, -92.5351, 54.8086
5.22338, 5, -33.6441, -1.86249, 23.1426, -159.96, -92.5348, 54.8092
5.23193, 5, -33.6116, -1.88471, 23.1652, -159.954, -92.534, 54.8107
5.24071, 5, -33.5899, -1.8995, 23.1799, -159.95, -92.5335, 54.8117
5.24797, 5, -33.5679, -1.91447, 23.1949, -159.945, -92.5329, 54.8128
5.25493, 5, -33.557, -1.92197, 23.2025, -159.943, -92.5327, 54.8133
5.26428, 5, -33.5242, -1.94406, 23.2252, -159.936, -92.5319, 54.8149
5.27087, 5, -33.5133, -1.95143, 23.2327, -159.934, -92.5316, 54.8154
5.2802, 5, -33.4804, -1.97381, 23.2551, -159.928, -92.5309, 54.8171
5.28693, 5, -33.4695, -1.98134, 23.2627, -159.925, -92.5306, 54.8176
5.29634, 5, -33.4368, -2.00358, 23.285, -159.919, -92.5298, 54.8192
5.30439, 5, -33.4149, -2.01841, 23.2998, -159.915, -92.5292, 54.8202
5.31277, 5, -33.393, -2.03339, 23.315, -159.91, -92.5286, 54.8212
5.31886, 5, -33.3821, -2.04096, 23.3227, -159.908, -92.5283, 54.8217
5.32843, 5, -33.3494, -2.06346, 23.3452, -159.902, -92.5273, 54.823
5.33651, 5, -33.3276, -2.07845, 23.3602, -159.898, -92.5264, 54.8237
5.34453, 5, -33.3168, -2.08607, 23.3754, -159.893, -92.5255, 54.8243
5.35187, 5, -33.2952, -2.10152, 23.383, -159.891, -92.5249, 54.8245
5.35987, 5, -33.2735, -2.11695, 23.3981, -159.887, -92.5238, 54.825
5.36786, 6, -33.2518, -2.13221, 23.4135, -159.883, -92.5226, 54.8253
5.37589, 6, -33.2303, -2.1477, 23.4293, -159.878, -92.5212, 54.8255
5.38286, 6, -33.2089, -2.16352, 23.445, -159.874, -92.5197, 54.8257
5.39192, 6, -33.1874, -2.17941, 23.4606, -159.869, -92.5182, 54.8258
5.39988, 6, -33.166, -2.19519, 23.4763, -159.864, -92.5164, 54.8258
5.40787, 6, -33.1448, -2.21122, 23.4922, -159.86, -92.5145, 54.8258
5.4159, 6, -33.1236, -2.22759, 23.5079, -159.855, -92.5125, 54.8257
5.42398, 6, -33.1023, -2.24395, 23.5238, -159.849, -92.5104, 54.8256
5.43102, 6, -33.081, -2.2602, 23.5401, -159.844, -92.5082, 54.8255
5.43984, 6, -33.06, -2.27668, 23.5564, -159.839, -92.5058, 54.8254
5.44792, 6, -33.0388, -2.2935, 23.5726, -159.833, -92.5034, 54.8251
5.45494, 6, -33.0178, -2.31015, 23.589, -159.828, -92.5008, 54.8246
5.4639, 6, -32.9969, -2.32692, 23.6057, -159.822, -92.4981, 54.8241
5.47194, 6, -32.976, -2.34403, 23.6221, -159.816, -92.4953, 54.8234
5.48151, 6, -32.955, -2.36135, 23.6388, -159.81, -92.4924, 54.8226
5.48786, 6, -32.934, -2.3785, 23.6557, -159.803, -92.4894, 54.8217
5.49593, 6, -32.9132, -2.39573, 23.6726, -159.797, -92.4862, 54.8209
5.50491, 7, -32.8925, -2.41335, 23.6894, -159.79, -92.483, 54.8201
5.5119, 7, -32.8718, -2.43096, 23.7063, -159.783, -92.4797, 54.8189
5.5199, 7, -32.8511, -2.44846, 23.7233, -159.776, -92.4763, 54.8173
5.52832, 7, -32.8306, -2.46635, 23.7404, -159.77, -92.4728, 54.8151
5.53594, 7, -32.8101, -2.48451, 23.7579, -159.763, -92.4692, 54.8125
5.54391, 7, -32.7895, -2.50253, 23.7755, -159.756, -92.4654, 54.8096
5.55267, 7, -32.769, -2.52062, 23.7929, -159.75, -92.4616, 54.8065
5.55895, 7, -32.7487, -2.53912, 23.8105, -159.743, -92.4577, 54.8029
5.56789, 7, -32.7284, -2.55764, 23.8281, -159.736, -92.4536, 54.7991
5.57687, 7, -32.708, -2.57611, 23.8456, -159.729, -92.4493, 54.7951
5.58471, 7, -32.6879, -2.59489, 23.8635, -159.723, -92.4451, 54.791
5.59287, 7, -32.6679, -2.61388, 23.8815, -159.716, -92.4406, 54.7866
5.60066, 7, -32.6477, -2.63278, 23.8995, -159.709, -92.436, 54.7821
5.60787, 7, -32.6276, -2.65182, 23.9176, -159.702, -92.4313, 54.7775
5.61586, 7, -32.6076, -2.6711, 23.9359, -159.694, -92.4264, 54.7727
5.6247, 7, -32.5876, -2.69035, 23.954, -159.687, -92.4213, 54.7678
5.63186, 7, -32.5676, -2.7098, 23.9725, -159.679, -92.4161, 54.7628
5.63986, 8, -32.5477, -2.72952, 23.9911, -159.671, -92.4107, 54.7576
5.64862, 8, -32.5279, -2.74917, 24.0096, -159.663, -92.4051, 54.7522
5.65586, 8, -32.5082, -2.76896, 24.0282, -159.655, -92.3993, 54.7467
5.66397, 8, -32.4884, -2.78899, 24.0469, -159.647, -92.3933, 54.741
5.6738, 8, -32.4686, -2.80896, 24.0656, -159.638, -92.387, 54.7353
5.67993, 8, -32.449, -2.8291, 24.0845, -159.63, -92.3806, 54.7294
5.68802, 8, -32.4294, -2.84954, 24.1037, -159.621, -92.374, 54.7233
5.69595, 8, -32.4098, -2.8699, 24.1228, -159.613, -92.3673, 54.717
5.704, 8, -32.3903, -2.89036, 24.142, -159.605, -92.3605, 54.7106
5.71203, 8, -32.371, -2.91115, 24.1613, -159.596, -92.3537, 54.7041
5.71992, 8, -32.3518, -2.93191, 24.1804, -159.588, -92.3467, 54.6973
5.7282, 8, -32.3324, -2.95279, 24.1999, -159.58, -92.3399, 54.6904
5.73617, 8, -32.313, -2.97397, 24.2196, -159.571, -92.333, 54.6832
5.74288, 8, -32.3034, -2.98455, 24.2294, -159.567, -92.3295, 54.6796
5.75195, 8, -32.2747, -3.01635, 24.259, -159.554, -92.319, 54.6683
5.76004, 8, -32.2556, -3.03781, 24.2789, -159.545, -92.3119, 54.6607
5.76685, 8, -32.246, -3.0485, 24.2888, -159.54, -92.3084, 54.6568
5.77505, 9, -32.227, -3.07002, 24.3087, -159.531, -92.3012, 54.649
5.78417, 9, -32.1986, -3.10278, 24.3389, -159.517, -92.2903, 54.6372
5.79092, 9, -32.1892, -3.11366, 24.3489, -159.512, -92.2866, 54.6332
5.80039, 9, -32.1608, -3.14661, 24.3793, -159.497, -92.2752, 54.6213
5.80839, 9, -32.1419, -3.16881, 24.3996, -159.487, -92.2674, 54.6133
5.81678, 9, -32.1231, -3.19097, 24.42, -159.477, -92.2594, 54.6053
5.82447, 9, -32.1043, -3.21343, 24.4406, -159.467, -92.251, 54.5972
5.8324, 9, -32.0856, -3.236, 24.4611, -159.458, -92.2424, 54.5891
5.84051, 9, -32.0763, -3.24725, 24.4818, -159.448, -92.2335, 54.5807
5.84867, 9, -32.0485, -3.28143, 24.5025, -159.438, -92.2244, 54.5724
5.85582, 9, -32.0393, -3.29287, 24.5129, -159.433, -92.2198, 54.5682
5.86386, 9, -32.0207, -3.31581, 24.5338, -159.424, -92.2106, 54.5596
5.8719, 9, -32.0022, -3.33901, 24.5548, -159.414, -92.2014, 54.5507
5.87985, 9, -31.9837, -3.36221, 24.5758, -159.403, -92.1922, 54.5418
5.88785, 9, -31.9654, -3.38553, 24.5971, -159.393, -92.1829, 54.5327
5.89591, 9, -31.9471, -3.40911, 24.6184, -159.382, -92.1737, 54.5233
5.90388, 9, -31.9288, -3.43264, 24.6398, -159.372, -92.1644, 54.5137
5.9121, 10, -31.9106, -3.45648, 24.6614, -159.361, -92.155, 54.5038
5.91995, 10, -31.8926, -3.48041, 24.6827, -159.349, -92.1456, 54.4937
5.92787, 10, -31.8745, -3.50432, 24.7043, -159.338, -92.136, 54.4834
5.93589, 10, -31.8564, -3.52852, 24.726, -159.327, -92.1262, 54.4727
5.94387, 10, -31.8383, -3.55271, 24.7479, -159.316, -92.1162, 54.462
5.95191, 10, -31.8203, -3.57711, 24.77, -159.305, -92.1059, 54.4512
5.95985, 10, -31.8025, -3.60167, 24.7919, -159.295, -92.0952, 54.4403
5.96786, 10, -31.7846, -3.6262, 24.814, -159.284, -92.0842, 54.4295
5.97684, 10, -31.7668, -3.651, 24.8361, -159.273, -92.0731, 54.4188
5.98386, 10, -31.7492, -3.67587, 24.8584, -159.262, -92.062, 54.408
5.99366, 10, -31.7316, -3.70092, 24.8809, -159.25, -92.0509, 54.3973
6.00073, 10, -31.714, -3.72609, 24.9034, -159.239, -92.0398, 54.3863
6.00784, 10, -31.6962, -3.75124, 24.9259, -159.227, -92.0289, 54.3753
6.01585, 10, -31.6785, -3.77666, 24.9486, -159.214, -92.0179, 54.3642
6.02392, 10, -31.6609, -3.80207, 24.9714, -159.202, -92.007, 54.3528
6.03184, 10, -31.6434, -3.82777, 24.9944, -159.19, -91.996, 54.3413
6.04045, 10, -31.6259, -3.8536, 25.0172, -159.178, -91.9847, 54.3296
6.04688, 10, -31.6085, -3.87943, 25.0402, -159.166, -91.9733, 54.3176
6.05584, 11, -31.5913, -3.9055, 25.0633, -159.155, -91.9614, 54.3052
6.06647, 11, -31.5655, -3.94469, 25.0983, -159.137, -91.9431, 54.2862
6.07186, 11, -31.5568, -3.95792, 25.11, -159.131, -91.9368, 54.2797
6.07991, 11, -31.5394, -3.98434, 25.1333, -159.118, -91.9242, 54.2668
6.08785, 11, -31.5222, -4.0108, 25.1568, -159.106, -91.9116, 54.2539
6.09586, 11, -31.505, -4.03749, 25.1804, -159.093, -91.899, 54.241
6.10392, 11, -31.4879, -4.06429, 25.2041, -159.08, -91.8864, 54.2282
6.11185, 11, -31.4708, -4.0913, 25.2279, -159.067, -91.8739, 54.2152
6.12366, 11, -31.4455, -4.13191, 25.2638, -159.047, -91.8551, 54.1959
6.12793, 11, -31.4371, -4.14553, 25.2758, -159.04, -91.8487, 54.1894
6.13585, 11, -31.4203, -4.1728, 25.2998, -159.027, -91.8359, 54.1761
6.14386, 11, -31.4035, -4.20034, 25.3241, -159.015, -91.8228, 54.1627
6.15191, 11, -31.3866, -4.22803, 25.3482, -159.002, -91.8093, 54.149
6.16003, 11, -31.3699, -4.25572, 25.3725, -158.989, -91.7954, 54.1351
6.16785, 11, -31.3532, -4.28358, 25.3969, -158.976, -91.7813, 54.1209
6.17608, 11, -31.3367, -4.31158, 25.4215, -158.962, -91.7673, 54.1062
6.18333, 11, -31.3201, -4.33981, 25.4462, -158.949, -91.7533, 54.0913
6.1915, 12, -31.3036, -4.36803, 25.4709, -158.934, -91.7394, 54.0763
6.20031, 12, -31.2872, -4.39649, 25.4956, -158.92, -91.7255, 54.0614
6.21261, 12, -31.2628, -4.43927, 25.533, -158.9, -91.7048, 54.0391
6.21602, 12, -31.2547, -4.45366, 25.5455, -158.893, -91.6979, 54.0316
6.22471, 12, -31.2383, -4.48242, 25.5706, -158.879, -91.6837, 54.0167
6.23188, 12, -31.222, -4.51127, 25.5958, -158.865, -91.6692, 54.0017
6.24016, 12, -31.2058, -4.54025, 25.6211, -158.851, -91.6543, 53.9866
6.24683, 12, -31.1977, -4.55482, 25.6338, -158.844, -91.6468, 53.979
6.25489, 12, -31.1815, -4.58411, 25.6593, -158.83, -91.6315, 53.9635
6.26434, 12, -31.1573, -4.62815, 25.6974, -158.808, -91.6089, 53.9396
6.27277, 12, -31.1413, -4.65768, 25.723, -158.793, -91.5939, 53.9233
6.2801, 12, -31.1254, -4.68735, 25.7487, -158.778, -91.5788, 53.9067
6.28684, 12, -31.1174, -4.70227, 25.7616, -158.771, -91.5713, 53.8984
6.29709, 12, -31.0935, -4.74709, 25.8004, -158.749, -91.5485, 53.8734
6.30426, 12, -31.0775, -4.77725, 25.8263, -158.734, -91.5329, 53.857
6.31083, 12, -31.0695, -4.79235, 25.8393, -158.727, -91.525, 53.8489
6.31888, 12, -31.0536, -4.82269, 25.8654, -158.713, -91.5087, 53.8324
6.32846, 13, -31.0299, -4.86833, 25.9047, -158.691, -91.4839, 53.8074
6.33726, 13, -31.0142, -4.89889, 25.9311, -158.676, -91.4675, 53.7906
6.34291, 13, -31.0063, -4.91423, 25.9443, -158.668, -91.4594, 53.7821
6.35249, 13, -30.9907, -4.9451, 25.9708, -158.645, -91.4352, 53.7561
6.35983, 13, -30.9753, -4.97602, 25.9975, -158.637, -91.4271, 53.7473
6.3669, 13, -30.9599, -5.00706, 26.024, -158.621, -91.4108, 53.7294
6.37686, 13, -30.9368, -5.05387, 26.0641, -158.598, -91.386, 53.7024
6.38383, 13, -30.929, -5.06959, 26.0776, -158.591, -91.3775, 53.6934
6.39091, 13, -30.9136, -5.10094, 26.1046, -158.575, -91.3603, 53.6756
6.39991, 13, -30.8982, -5.13247, 26.1316, -158.56, -91.3428, 53.6578
6.408, 13, -30.8829, -5.16415, 26.1587, -158.544, -91.3254, 53.6399
6.41585, 13, -30.8677, -5.196, 26.1859, -158.528, -91.3081, 53.6219
6.42384, 13, -30.8524, -5.22786, 26.2133, -158.512, -91.2908, 53.6037
6.43183, 13, -30.8373, -5.25983, 26.2406, -158.495, -91.2736, 53.5852
6.43884, 13, -30.8223, -5.29198, 26.2681, -158.479, -91.2561, 53.5664
6.44782, 13, -30.8074, -5.32436, 26.2957, -158.463, -91.2384, 53.5471
6.45487, 13, -30.7924, -5.35668, 26.3235, -158.447, -91.2201, 53.5278
6.46391, 14, -30.7775, -5.3892, 26.3512, -158.431, -91.2016, 53.5087
6.47183, 14, -30.7625, -5.42183, 26.3789, -158.415, -91.1832, 53.4898
6.48144, 14, -30.7476, -5.45471, 26.4069, -158.399, -91.1648, 53.4616
6.48783, 14, -30.7328, -5.4876, 26.435, -158.382, -91.1467, 53.4522
6.49591, 14, -30.718, -5.52069, 26.4631, -158.365, -91.1285, 53.4332
6.50491, 14, -30.7033, -5.55398, 26.4912, -158.348, -91.1103, 53.4139
6.51183, 14, -30.6885, -5.58741, 26.5195, -158.331, -91.0915, 53.3941
6.51989, 14, -30.6739, -5.62086, 26.548, -158.314, -91.0723, 53.3738
6.52798, 14, -30.6594, -5.65444, 26.5764, -158.297, -91.0529, 53.3531
6.53697, 14, -30.645, -5.68826, 26.605, -158.281, -91.0335, 53.3324
6.54384, 14, -30.6305, -5.72219, 26.6337, -158.264, -91.0142, 53.3118
6.55184, 14, -30.6161, -5.7562, 26.6626, -158.246, -90.995, 53.2914
6.55989, 14, -30.6015, -5.79034, 26.6913, -158.229, -90.9758, 53.271
6.56786, 14, -30.5872, -5.82468, 26.7202, -158.211, -90.9562, 53.2506
6.57585, 14, -30.5729, -5.8591, 26.7493, -158.193, -90.9363, 53.23
6.58391, 14, -30.5587, -5.89364, 26.7784, -158.176, -90.9159, 53.209
6.59182, 14, -30.5445, -5.92831, 26.8076, -158.158, -90.8955, 53.1875
6.59983, 15, -30.5303, -5.96308, 26.8368, -158.141, -90.8754, 53.1658
6.60789, 15, -30.5163, -5.99801, 26.8663, -158.123, -90.8553, 53.144
6.61582, 15, -30.5024, -6.03297, 26.8958, -158.106, -90.8354, 53.1225
6.6249, 15, -30.4885, -6.06816, 26.9253, -158.087, -90.8153, 53.101
6.63185, 15, -30.4746, -6.10344, 26.955, -158.069, -90.7947, 53.0793
6.63989, 15, -30.4607, -6.13884, 26.985, -158.05, -90.7737, 53.0575
6.6487, 15, -30.4467, -6.17441, 27.0148, -158.032, -90.7526, 53.0354
6.65586, 15, -30.4328, -6.21013, 27.0447, -158.014, -90.7317, 53.0129
6.66392, 15, -30.419, -6.24599, 27.0747, -157.995, -90.7108, 52.9899
6.67289, 15, -30.4053, -6.28199, 27.1049, -157.977, -90.6899, 52.9669
6.68065, 15, -30.3917, -6.31815, 27.1351, -157.959, -90.6688, 52.944
6.68798, 15, -30.3781, -6.3544, 27.1653, -157.94, -90.6471, 52.9213
6.69672, 15, -30.3645, -6.39085, 27.1958, -157.92, -90.6251, 52.8985
6.70392, 15, -30.3511, -6.42746, 27.2263, -157.901, -90.603, 52.8755
6.71199, 15, -30.3377, -6.46417, 27.2569, -157.882, -90.5811, 52.8522
6.72074, 15, -30.3243, -6.50097, 27.2876, -157.864, -90.5595, 52.8285
6.72783, 15, -30.311, -6.53791, 27.3185, -157.845, -90.5378, 52.8045
6.73613, 16, -30.2975, -6.57499, 27.3494, -157.826, -90.5158, 52.7803
6.74282, 16, -30.2908, -6.59355, 27.3648, -157.816, -90.5046, 52.7684
6.75089, 16, -30.2775, -6.63082, 27.3959, -157.797, -90.4819, 52.7449
6.76, 16, -30.2577, -6.68702, 27.4427, -157.767, -90.4478, 52.7092
6.76999, 16, -30.2445, -6.72451, 27.4739, -157.748, -90.4253, 52.6853
6.77611, 16, -30.2314, -6.76212, 27.5052, -157.729, -90.4028, 52.6611
6.78282, 16, -30.2248, -6.78103, 27.521, -157.719, -90.3916, 52.6488
6.79215, 16, -30.2051, -6.83798, 27.5684, -157.69, -90.3569, 52.6114
6.79889, 16, -30.1986, -6.85698, 27.5842, -157.68, -90.3451, 52.5989
6.80829, 16, -30.1793, -6.91425, 27.6318, -157.65, -90.3096, 52.5621
6.81632, 16, -30.1664, -6.95264, 27.6637, -157.63, -90.2862, 52.5376
6.82677, 16, -30.1535, -6.99112, 27.6955, -157.61, -90.2629, 52.5131
6.8308, 16, -30.147, -7.01042, 27.7114, -157.6, -90.2513, 52.5007
6.84042, 16, -30.1276, -7.06859, 27.7596, -157.57, -90.2159, 52.4631
6.84847, 16, -30.1212, -7.10749, 27.7918, -157.55, -90.1915, 52.4374
6.85637, 16, -30.1084, -7.12697, 27.8078, -157.54, -90.1794, 52.4246
6.86382, 16, -30.0956, -7.16616, 27.84, -157.519, -90.1554, 52.3991
6.87293, 17, -30.0766, -7.22519, 27.8887, -157.488, -90.1194, 52.3613
6.87981, 17, -30.0703, -7.24486, 27.905, -157.478, -90.1074, 52.3488
6.88787, 17, -30.0577, -7.28439, 27.9375, -157.457, -90.0832, 52.3233
6.89588, 17, -30.0453, -7.32407, 27.9702, -157.437, -90.0584, 52.2976
6.90385, 17, -30.033, -7.36389, 28.003, -157.416, -90.0332, 52.2713
6.91183, 17, -30.0206, -7.40379, 28.0357, -157.396, -90.0084, 52.2446
6.91982, 17, -30.0082, -7.44376, 28.0686, -157.375, -89.9838, 52.2178
6.92781, 17, -29.9959, -7.4838, 28.1018, -157.353, -89.9594, 52.1912
6.93583, 17, -29.9834, -7.52398, 28.1349, -157.332, -89.9344, 52.1648
6.94395, 17, -29.9711, -7.56432, 28.168, -157.31, -89.909, 52.1382
6.95171, 17, -29.9589, -7.60478, 28.2014, -157.289, -89.8833, 52.1114
6.95882, 17, -29.9467, -7.64531, 28.2349, -157.268, -89.858, 52.0843
6.96784, 17, -29.9345, -7.68598, 28.2684, -157.247, -89.8328, 52.0567
6.97591, 17, -29.9225, -7.72686, 28.302, -157.226, -89.8075, 52.0294
6.98382, 17, -29.9104, -7.76791, 28.3358, -157.203, -89.7817, 52.0023
6.99282, 17, -29.8983, -7.80907, 28.3695, -157.182, -89.7554, 51.9749
6.9999, 17, -29.8865, -7.85033, 28.4034, -157.16, -89.7291, 51.9476
7.00887, 18, -29.8747, -7.89181, 28.4374, -157.138, -89.7031, 51.92
7.01583, 18, -29.8628, -7.93338, 28.4714, -157.117, -89.6773, 51.8918
7.02388, 18, -29.8511, -7.97505, 28.5055, -157.095, -89.6514, 51.8634
7.0318, 18, -29.8394, -8.0169, 28.5398, -157.072, -89.6247, 51.8352
7.04013, 18, -29.8276, -8.0588, 28.5742, -157.049, -89.5977, 51.8073
7.04715, 18, -29.8158, -8.10082, 28.6086, -157.027, -89.5711, 51.7793
7.05486, 18, -29.8042, -8.143, 28.6433, -157.005, -89.5446, 51.7513
7.06462, 18, -29.7925, -8.18522, 28.6779, -156.983, -89.5181, 51.7226
7.0712, 18, -29.7809, -8.22744, 28.7126, -156.96, -89.4911, 51.6934
7.07892, 18, -29.7694, -8.26992, 28.7476, -156.938, -89.4633, 51.6643
7.08884, 18, -29.7579, -8.31251, 28.7826, -156.915, -89.4357, 51.6356
7.09596, 18, -29.7464, -8.35511, 28.8175, -156.892, -89.4085, 51.6071
7.10484, 18, -29.735, -8.39788, 28.8526, -156.869, -89.3814, 51.5784
7.11289, 18, -29.7238, -8.4408, 28.8879, -156.847, -89.3541, 51.5495
7.12082, 18, -29.7124, -8.48385, 28.9232, -156.824, -89.3261, 51.5202
7.12881, 18, -29.7011, -8.52714, 28.9587, -156.801, -89.298, 51.4905
7.1372, 18, -29.6899, -8.57057, 28.9942, -156.777, -89.2702, 51.4611
7.1438, 18, -29.6787, -8.61404, 29.0297, -156.754, -89.2426, 51.432
7.15189, 19, -29.6674, -8.65777, 29.0653, -156.73, -89.2148, 51.4029
7.15983, 19, -29.6562, -8.70164, 29.1011, -156.707, -89.1862, 51.3734
7.16783, 19, -29.6451, -8.74558, 29.1368, -156.685, -89.1574, 51.3435
7.17584, 19, -29.6341, -8.78966, 29.1726, -156.661, -89.1291, 51.3132
7.18416, 19, -29.6231, -8.83386, 29.2087, -156.637, -89.1009, 51.2833
7.19141, 19, -29.6122, -8.87818, 29.2448, -156.613, -89.0728, 51.2534
7.19996, 19, -29.6013, -8.92254, 29.2809, -156.59, -89.044, 51.2235
7.20818, 19, -29.5904, -8.96697, 29.3173, -156.566, -89.0149, 51.1933
7.21567, 19, -29.5796, -9.01158, 29.3536, -156.542, -88.9862, 51.1627
7.22401, 19, -29.5689, -9.05627, 29.39, -156.518, -88.9575, 51.1315
7.23226, 19, -29.5583, -9.10108, 29.4267, -156.494, -88.9288, 51.1005
7.2394, 19, -29.553, -9.12352, 29.445, -156.482, -88.9143, 51.0851
7.24792, 19, -29.5371, -9.19101, 29.4999, -156.445, -88.8697, 51.0389
7.25672, 19, -29.5266, -9.23631, 29.5368, -156.421, -88.8404, 51.0078
7.26393, 19, -29.516, -9.28171, 29.5738, -156.397, -88.8112, 50.9762
7.27282, 19, -29.5054, -9.32715, 29.6108, -156.373, -88.7821, 50.9443
7.28001, 19, -29.495, -9.37286, 29.6479, -156.348, -88.7523, 50.9128
7.28688, 20, -29.4898, -9.3958, 29.6665, -156.335, -88.7373, 50.8971
7.297, 20, -29.4741, -9.46466, 29.7222, -156.298, -88.6925, 50.85
7.30421, 20, -29.4638, -9.5108, 29.7596, -156.273, -88.6629, 50.8182
7.31085, 20, -29.4587, -9.53389, 29.7783, -156.261, -88.648, 50.8021
7.32117, 20, -29.4433, -9.60329, 29.8344, -156.224, -88.6025, 50.7533
7.32687, 20, -29.4381, -9.62654, 29.8532, -156.211, -88.5871, 50.7371
7.33642, 20, -29.4228, -9.69623, 29.9097, -156.173, -88.5415, 50.6892
7.34517, 20, -29.4177, -9.74277, 29.9474, -156.148, -88.5115, 50.6573
7.35081, 20, -29.4077, -9.76614, 29.9664, -156.135, -88.4965, 50.6412
7.36064, 20, -29.3976, -9.81288, 30.0233, -156.098, -88.4502, 50.592
7.36985, 20, -29.3875, -9.88313, 30.0613, -156.072, -88.4192, 50.5591
7.37584, 20, -29.3777, -9.90666, 30.0805, -156.059, -88.4038, 50.5428
7.3838, 20, -29.3678, -9.95378, 30.1187, -156.033, -88.3731, 50.5105
7.39181, 20, -29.3578, -10.001, 30.1568, -156.008, -88.3423, 50.478
7.39882, 20, -29.3479, -10.0484, 30.1951, -155.982, -88.3107, 50.4453
7.40783, 20, -29.338, -10.0959, 30.2335, -155.957, -88.2791, 50.4122
7.41587, 20, -29.3282, -10.1437, 30.272, -155.931, -88.2479, 50.3786
7.42379, 21, -29.3183, -10.1916, 30.3106, -155.904, -88.2169, 50.3456
7.43181, 21, -29.3085, -10.2395, 30.3492, -155.878, -88.1856, 50.3128
7.4388, 21, -29.2988, -10.2875, 30.3878, -155.852, -88.1536, 50.2798
7.44779, 21, -29.2891, -10.3357, 30.4267, -155.826, -88.1219, 50.2464
7.45587, 21, -29.2794, -10.384, 30.4655, -155.8, -88.0904, 50.2128
7.46386, 21, -29.2697, -10.4322, 30.5044, -155.774, -88.059, 50.1792
7.47181, 21, -29.2601, -10.4806, 30.5435, -155.747, -88.0268, 50.1461
7.4798, 21, -29.2506, -10.5291, 30.5827, -155.721, -87.9942, 50.113
7.48879, 21, -29.2411, -10.5776, 30.6219, -155.695, -87.9621, 50.0796
7.49579, 21, -29.2315, -10.6262, 30.6613, -155.668, -87.9303, 50.0456
7.50494, 21, -29.2223, -10.675, 30.7006, -155.641, -87.8982, 50.0113
7.51267, 21, -29.2129, -10.7239, 30.7402, -155.614, -87.8653, 49.9774
7.5188, 21, -29.2035, -10.773, 30.7798, -155.587, -87.8326, 49.9438
7.5278, 21, -29.1941, -10.8221, 30.8194, -155.56, -87.8002, 49.9099
7.53582, 21, -29.1847, -10.8715, 30.8592, -155.534, -87.7679, 49.8756
7.54379, 21, -29.1754, -10.9211, 30.8991, -155.506, -87.7349, 49.8409
7.55213, 21, -29.1661, -10.9707, 30.939, -155.478, -87.7014, 49.8065
7.55892, 22, -29.1568, -11.0204, 30.979, -155.451, -87.6685, 49.7725
7.56785, 22, -29.1476, -11.0702, 31.0191, -155.424, -87.6359, 49.7384
7.57834, 22, -29.134, -11.1451, 31.0794, -155.383, -87.5861, 49.6864
7.58381, 22, -29.1295, -11.17, 31.0996, -155.369, -87.5691, 49.6687
7.59187, 22, -29.1205, -11.2201, 31.1399, -155.341, -87.5356, 49.6333
7.59979, 22, -29.1115, -11.2702, 31.1803, -155.313, -87.5023, 49.5986
7.60779, 22, -29.1027, -11.3203, 31.2208, -155.285, -87.469, 49.5638
7.61585, 22, -29.0939, -11.3707, 31.2614, -155.258, -87.435, 49.529
7.62379, 22, -29.0851, -11.421, 31.3021, -155.23, -87.4008, 49.4935
7.63294, 22, -29.0764, -11.4716, 31.3429, -155.202, -87.3673, 49.4577
7.63985, 22, -29.0677, -11.5224, 31.3837, -155.173, -87.3339, 49.4222
7.64779, 22, -29.0591, -11.5732, 31.4247, -155.145, -87.3001, 49.3871
7.65579, 22, -29.0504, -11.6243, 31.4657, -155.117, -87.2657, 49.3519
7.66386, 22, -29.0417, -11.6755, 31.5067, -155.089, -87.2319, 49.3162
7.67181, 22, -29.0329, -11.7267, 31.548, -155.061, -87.198, 49.2803
7.67989, 22, -29.0243, -11.7781, 31.5892, -155.032, -87.1639, 49.2445
7.68792, 22, -29.0157, -11.8296, 31.6306, -155.003, -87.129, 49.2093
7.69594, 23, -29.007, -11.8811, 31.672, -154.975, -87.0944, 49.174
7.70393, 23, -28.9983, -11.9327, 31.7133, -154.947, -87.0604, 49.1383
7.71189, 23, -28.9898, -11.9843, 31.7549, -154.918, -87.0262, 49.1021
7.71998, 23, -28.9814, -12.0361, 31.7965, -154.888, -86.9912, 49.0663
7.72795, 23, -28.973, -12.0878, 31.8381, -154.86, -86.9564, 49.0308
7.7358, 23, -28.9645, -12.1396, 31.8799, -154.831, -86.9219, 48.9954
7.74397, 23, -28.9561, -12.1916, 31.9217, -154.802, -86.8873, 48.9598
7.75195, 23, -28.9478, -12.2437, 31.9636, -154.773, -86.8518, 48.9235
7.75891, 23, -28.9437, -12.2698, 31.9846, -154.758, -86.8339, 48.9053
7.76801, 23, -28.9315, -12.3485, 32.0476, -154.714, -86.7812, 48.8514
7.77493, 23, -28.9274, -12.3748, 32.0687, -154.7, -86.7638, 48.8335
7.78407, 23, -28.9152, -12.4538, 32.132, -154.656, -86.7106, 48.7794
7.79079, 23, -28.9112, -12.4803, 32.1531, -154.641, -86.6925, 48.7612
7.80032, 23, -28.8992, -12.5596, 32.2166, -154.596, -86.6394, 48.7063
7.80835, 23, -28.8911, -12.6126, 32.2591, -154.566, -86.604, 48.6702
7.81625, 23, -28.8829, -12.6655, 32.3016, -154.537, -86.568, 48.634
7.82442, 23, -28.8748, -12.7186, 32.3442, -154.507, -86.5318, 48.5976
7.83231, 24, -28.8668, -12.7717, 32.3868, -154.476, -86.4963, 48.5607
7.84038, 24, -28.8588, -12.8248, 32.4295, -154.446, -86.4609, 48.5235
7.84872, 24, -28.8508, -12.878, 32.4723, -154.416, -86.4249, 48.4869
7.85632, 24, -28.8468, -12.9047, 32.4936, -154.401, -86.3885, 48.4503
7.86378, 24, -28.8389, -12.9581, 32.5365, -154.372, -86.3706, 48.432
7.87378, 24, -28.8271, -13.0386, 32.6009, -154.326, -86.3169, 48.3763
7.87978, 24, -28.8232, -13.0655, 32.6224, -154.31, -86.2989, 48.3575
7.88788, 24, -28.8153, -13.1195, 32.6655, -154.28, -86.2621, 48.3204
7.89579, 24, -28.8074, -13.1736, 32.7086, -154.25, -86.2255, 48.2837
7.90377, 24, -28.7996, -13.2278, 32.7519, -154.22, -86.1895, 48.2468
7.91187, 24, -28.7919, -13.282, 32.7951, -154.189, -86.1534, 48.2098
7.91996, 24, -28.7842, -13.3364, 32.8384, -154.158, -86.1165, 48.1722
7.92683, 24, -28.7767, -13.3907, 32.8819, -154.127, -86.0798, 48.1351
7.93584, 24, -28.769, -13.445, 32.9255, -154.097, -86.0435, 48.0984
7.94378, 24, -28.7614, -13.4994, 32.9691, -154.066, -86.0069, 48.0615
7.95178, 24, -28.7539, -13.5538, 33.0127, -154.035, -85.9695, 48.0243
7.95984, 24, -28.7463, -13.6083, 33.0564, -154.004, -85.9325, 47.9868
7.96781, 25, -28.7387, -13.6628, 33.1003, -153.973, -85.896, 47.9497
7.97584, 25, -28.7311, -13.7176, 33.144, -153.942, -85.8594, 47.9131
7.98378, 25, -28.7233, -13.7724, 33.1878, -153.91, -85.8219, 47.8764
7.99356, 25, -28.7158, -13.8274, 33.2318, -153.879, -85.7847, 47.8394
7.99977, 25, -28.7083, -13.8827, 33.2758, -153.847, -85.748, 47.8018
8.00792, 25, -28.7009, -13.938, 33.3198, -153.817, -85.711, 47.7647
8.01687, 25, -28.6934, -13.9935, 33.3639, -153.785, -85.6732, 47.7279
8.02377, 25, -28.686, -14.049, 33.4081, -153.753, -85.6359, 47.6911
8.03186, 25, -28.6787, -14.1046, 33.4524, -153.721, -85.5989, 47.6539
8.03995, 25, -28.6714, -14.1601, 33.4966, -153.69, -85.5617, 47.6164
8.04788, 25, -28.6642, -14.2158, 33.5411, -153.658, -85.5238, 47.5791
8.05578, 25, -28.657, -14.2714, 33.5856, -153.626, -85.4865, 47.5423
8.06383, 25, -28.6496, -14.327, 33.6302, -153.593, -85.4493, 47.5054
8.0718, 25, -28.6424, -14.3826, 33.6748, -153.561, -85.4116, 47.468
8.07981, 25, -28.6352, -14.4384, 33.7194, -153.53, -85.3734, 47.4301
8.0879, 25, -28.6281, -14.4943, 33.7641, -153.498, -85.3358, 47.3925
8.0958, 25, -28.621, -14.5503, 33.8088, -153.465, -85.2985, 47.3555
8.10397, 26, -28.6139, -14.6065, 33.8535, -153.432, -85.2606, 47.3186
8.11183, 26, -28.6069, -14.6628, 33.8984, -153.4, -85.2224, 47.2812
8.1198, 26, -28.5998, -14.7192, 33.9432, -153.368, -85.1847, 47.2435
8.12782, 26, -28.5929, -14.7758, 33.9882, -153.336, -85.1471, 47.2062
8.13685, 26, -28.5859, -14.8324, 34.0331, -153.303, -85.1087, 47.1692
8.14383, 26, -28.5788, -14.889, 34.0782, -153.27, -85.0701, 47.1322
8.15178, 26, -28.5717, -14.9455, 34.1234, -153.238, -85.0322, 47.0948
8.16053, 26, -28.5645, -15.0021, 34.1685, -153.206, -84.9944, 47.057
8.16799, 26, -28.5575, -15.0586, 34.2138, -153.172, -84.9557, 47.0198
8.17579, 26, -28.5505, -15.1151, 34.2592, -153.139, -84.9172, 46.9831
8.18481, 26, -28.5434, -15.1717, 34.3047, -153.107, -84.8792, 46.9462
8.19348, 26, -28.5364, -15.2284, 34.3501, -153.074, -84.8409, 46.9091
8.1993, 26, -28.5294, -15.2853, 34.3955, -153.04, -84.8019, 46.8716
8.20869, 26, -28.5225, -15.3424, 34.4411, -153.007, -84.7633, 46.8345
8.21625, 26, -28.5156, -15.3996, 34.4865, -152.974, -84.7253, 46.7979
8.22337, 26, -28.5088, -15.4569, 34.532, -152.941, -84.6869, 46.7613
8.23368, 26, -28.5019, -15.5144, 34.5776, -152.908, -84.6478, 46.7242
8.24079, 26, -28.495, -15.572, 34.6233, -152.874, -84.6094, 46.6867
8.24795, 27, -28.4882, -15.6294, 34.669, -152.84, -84.5712, 46.6495
8.25847, 27, -28.4814, -15.687, 34.7147, -152.807, -84.5323, 46.6127
8.26274, 27, -28.478, -15.7157, 34.7376, -152.79, -84.5126, 46.5944
8.27188, 27, -28.4681, -15.8019, 34.8065, -152.739, -84.4544, 46.5386
8.28082, 27, -28.4613, -15.8593, 34.8524, -152.706, -84.4159, 46.501
8.28815, 27, -28.4547, -15.9168, 34.8985, -152.672, -84.3768, 46.4638
8.29477, 27, -28.4513, -15.9456, 34.9216, -152.656, -84.357, 46.4454
8.30491, 27, -28.4414, -16.032, 34.9908, -152.604, -84.299, 46.3902
8.31265, 27, -28.4347, -16.0899, 35.0368, -152.57, -84.2601, 46.353
8.32027, 27, -28.428, -16.148, 35.0829, -152.536, -84.2205, 46.3155
8.32898, 27, -28.4212, -16.2062, 35.1291, -152.503, -84.1813, 46.2785
8.33635, 27, -28.4143, -16.2645, 35.1752, -152.468, -84.1426, 46.242
8.34436, 27, -28.4075, -16.3228, 35.2214, -152.433, -84.1036, 46.2055
8.35318, 27, -28.4042, -16.352, 35.2677, -152.4, -84.0639, 46.1686
8.35877, 27, -28.3976, -16.4104, 35.2909, -152.383, -84.0442, 46.1501
8.36956, 27, -28.3876, -16.4978, 35.3605, -152.331, -83.9858, 46.0951
8.37579, 27, -28.3843, -16.527, 35.3837, -152.314, -83.9662, 46.0771
8.3838, 28, -28.3776, -16.5852, 35.4304, -152.279, -83.9264, 46.041
8.39176, 28, -28.3709, -16.6435, 35.4769, -152.245, -83.887, 46.0048
8.39884, 28, -28.3643, -16.7017, 35.5235, -152.211, -83.8482, 45.9681
8.40776, 28, -28.3577, -16.7601, 35.5702, -152.176, -83.8089, 45.9313
8.4158, 28, -28.3511, -16.8186, 35.6169, -152.141, -83.7693, 45.8952
8.42384, 28, -28.3444, -16.8772, 35.6637, -152.106, -83.7301, 45.8595
8.43176, 28, -28.3377, -16.9359, 35.7103, -152.072, -83.6911, 45.8237
8.43975, 28, -28.331, -16.9948, 35.757, -152.036, -83.6513, 45.7875
8.44677, 28, -28.3245, -17.0538, 35.8037, -152.001, -83.6114, 45.7513
8.45593, 28, -28.3179, -17.1127, 35.8504, -151.966, -83.5724, 45.7155
8.46376, 28, -28.3115, -17.1717, 35.8972, -151.931, -83.5332, 45.6802
8.4708, 28, -28.3051, -17.2306, 35.9441, -151.896, -83.4932, 45.645
8.47976, 28, -28.2986, -17.2894, 35.991, -151.86, -83.4536, 45.6093
8.48775, 28, -28.2922, -17.3483, 36.0379, -151.825, -83.4144, 45.5734
8.49676, 28, -28.2858, -17.4071, 36.085, -151.79, -83.3746, 45.538
8.50376, 28, -28.2794, -17.466, 36.1321, -151.755, -83.3343, 45.5031
8.51276, 28, -28.2729, -17.5249, 36.1791, -151.719, -83.2946, 45.4682
8.51982, 29, -28.2663, -17.584, 36.2263, -151.684, -83.2553, 45.4331
8.52775, 29, -28.2596, -17.6431, 36.2734, -151.649, -83.2152, 45.3977
8.5358, 29, -28.253, -17.7024, 36.3205, -151.613, -83.175, 45.3627
8.54386, 29, -28.2464, -17.7618, 36.3676, -151.577, -83.1355, 45.3282
8.55175, 29, -28.2399, -17.8212, 36.4147, -151.541, -83.0957, 45.2938
8.55976, 29, -28.2333, -17.8806, 36.4618, -151.506, -83.0551, 45.2593
8.56776, 29, -28.2268, -17.94, 36.5089, -151.47, -83.0151, 45.2244
8.57583, 29, -28.2202, -17.9994, 36.5561, -151.434, -82.9757, 45.1893
8.58379, 29, -28.2137, -18.0588, 36.6035, -151.398, -82.9358, 45.155
8.59177, 29, -28.2072, -18.1181, 36.6508, -151.363, -82.8955, 45.121
8.6, 29, -28.2008, -18.1775, 36.6982, -151.327, -82.8558, 45.0871
8.60707, 29, -28.1944, -18.2369, 36.7457, -151.29, -82.8163, 45.0528
8.61575, 29, -28.1879, -18.2964, 36.7932, -151.255, -82.7759, 45.0183
8.62382, 29, -28.1813, -18.3559, 36.8405, -151.219, -82.7357, 44.9844
8.63175, 29, -28.1748, -18.4156, 36.888, -151.183, -82.6963, 44.9511
8.63976, 29, -28.1683, -18.4753, 36.9355, -151.146, -82.6566, 44.9177
8.64782, 29, -28.1619, -18.5351, 36.983, -151.109, -82.6161, 44.8843
8.65576, 30, -28.1555, -18.5949, 37.0303, -151.073, -82.5762, 44.8506
8.66375, 30, -28.1492, -18.6548, 37.0778, -151.037, -82.5367, 44.8169
8.67176, 30, -28.1428, -18.7146, 37.1253, -151, -82.4964, 44.784
8.67986, 30, -28.1364, -18.7744, 37.1727, -150.964, -82.4557, 44.7513
8.68778, 30, -28.13, -18.8341, 37.2203, -150.927, -82.4159, 44.7188
8.69621, 30, -28.1236, -18.8939, 37.2679, -150.89, -82.3763, 44.6862
8.70327, 30, -28.1171, -18.9537, 37.3155, -150.853, -82.3357, 44.6533
8.71189, 30, -28.1106, -19.0135, 37.3631, -150.817, -82.2953, 44.6208
8.72088, 30, -28.1041, -19.0735, 37.4107, -150.781, -82.2556, 44.589
8.72885, 30, -28.0974, -19.1335, 37.4585, -150.743, -82.2154, 44.5574
8.73582, 30, -28.0908, -19.1936, 37.506, -150.706, -82.1747, 44.5258
8.74465, 30, -28.0843, -19.2537, 37.5537, -150.67, -82.1346, 44.494
8.75181, 30, -28.0778, -19.3138, 37.6014, -150.633, -82.0949, 44.462
8.75981, 30, -28.0712, -19.3739, 37.6492, -150.596, -82.0547, 44.4305
8.76906, 30, -28.0645, -19.4339, 37.6968, -150.559, -82.0144, 44.3996
8.77588, 30, -28.0579, -19.4939, 37.7445, -150.522, -81.9746, 44.3687
8.78403, 30, -28.0513, -19.5538, 37.7922, -150.485, -81.9348, 44.3379
8.79072, 31, -28.0481, -19.5837, 37.8161, -150.467, -81.9145, 44.3223
8.80011, 31, -28.0383, -19.6736, 37.8877, -150.41, -81.8539, 44.2756
8.80676, 31, -28.035, -19.7035, 37.9116, -150.392, -81.834, 44.2602
8.81634, 31, -28.025, -19.7936, 37.9833, -150.337, -81.7743, 44.215
8.82431, 31, -28.0183, -19.8537, 38.031, -150.299, -81.7338, 44.1851
8.8323, 31, -28.0117, -19.9138, 38.0788, -150.262, -81.694, 44.1552
8.84034, 31, -28.0052, -19.974, 38.1266, -150.225, -81.6542, 44.1251
8.84837, 31, -27.9986, -20.0342, 38.1742, -150.187, -81.6136, 44.0947
8.85636, 31, -27.9953, -20.0643, 38.222, -150.149, -81.5731, 44.0648
8.86456, 31, -27.9887, -20.1244, 38.2459, -150.13, -81.5531, 44.05
8.87256, 31, -27.9821, -20.1845, 38.3176, -150.075, -81.4934, 44.0062
8.88085, 31, -27.9722, -20.2745, 38.3653, -150.037, -81.4528, 43.9772
8.88774, 31, -27.9689, -20.3045, 38.3892, -150.018, -81.4326, 43.9627
8.89579, 31, -27.9623, -20.3645, 38.437, -149.98, -81.3928, 43.9335
8.90374, 31, -27.9555, -20.4245, 38.4846, -149.943, -81.3529, 43.9042
8.91175, 31, -27.9487, -20.4845, 38.5323, -149.905, -81.3123, 43.8756
8.91981, 31, -27.9418, -20.5447, 38.58, -149.867, -81.2721, 43.8476
8.92772, 32, -27.935, -20.6048, 38.6278, -149.829, -81.2324, 43.8198
8.93579, 32, -27.9282, -20.6651, 38.6754, -149.792, -81.1926, 43.7922
8.94374, 32, -27.9214, -20.7254, 38.723, -149.754, -81.1523, 43.7646
8.95173, 32, -27.9145, -20.7856, 38.7707, -149.716, -81.1125, 43.7367
8.95981, 32, -27.9076, -20.8458, 38.8183, -149.678, -81.0729, 43.7091
8.96774, 32, -27.9007, -20.9059, 38.866, -149.641, -81.0326, 43.6821
8.97576, 32, -27.8938, -20.966, 38.9137, -149.603, -80.9921, 43.6557
8.98279, 32, -27.8869, -21.026, 38.9615, -149.564, -80.9526, 43.6295
8.99174, 32, -27.88, -21.0859, 39.0092, -149.527, -80.913, 43.6034
9.00073, 32, -27.873, -21.1458, 39.0568, -149.489, -80.8726, 43.5773
9.00778, 32, -27.866, -21.2056, 39.1044, -149.45, -80.8325, 43.551
9.01753, 32, -27.8589, -21.2656, 39.152, -149.412, -80.793, 43.525
9.02372, 32, -27.8519, -21.3256, 39.1996, -149.374, -80.753, 43.4996
9.03178, 32, -27.8449, -21.3857, 39.2472, -149.336, -80.7127, 43.4748
9.03974, 32, -27.838, -21.4458, 39.2948, -149.298, -80.6728, 43.4504
9.04783, 32, -27.831, -21.506, 39.3423, -149.259, -80.6335, 43.4261
9.05576, 32, -27.8239, -21.566, 39.3899, -149.221, -80.5934, 43.4018
9.06376, 33, -27.8169, -21.6261, 39.4375, -149.183, -80.5533, 43.3774
9.0718, 33, -27.8098, -21.6861, 39.4851, -149.144, -80.5139, 43.3531
9.07974, 33, -27.8026, -21.7458, 39.5327, -149.106, -80.4743, 43.3292
9.08784, 33, -27.7953, -21.8056, 39.5803, -149.068, -80.4339, 43.306
9.09577, 33, -27.7879, -21.8653, 39.6279, -149.03, -80.3941, 43.2832
9.10373, 33, -27.7805, -21.925, 39.6753, -148.991, -80.3549, 43.2607
9.1118, 33, -27.7731, -21.9848, 39.7228, -148.953, -80.3153, 43.2384
9.11974, 33, -27.7658, -22.0446, 39.7703, -148.915, -80.2753, 43.216
9.12774, 33, -27.7584, -22.1045, 39.8176, -148.876, -80.2359, 43.1936
9.13597, 33, -27.751, -22.1644, 39.8649, -148.837, -80.1966, 43.1713
9.14371, 33, -27.7436, -22.2244, 39.9123, -148.799, -80.1567, 43.1493
9.15174, 33, -27.7362, -22.2844, 39.9596, -148.761, -80.1168, 43.1278
9.1598, 33, -27.7288, -22.3442, 40.0069, -148.722, -80.0776, 43.1069
9.16774, 33, -27.7214, -22.404, 40.0542, -148.683, -80.0385, 43.0865
9.17594, 33, -27.7139, -22.4637, 40.1015, -148.645, -79.9985, 43.0663
9.18377, 33, -27.7063, -22.5232, 40.1488, -148.607, -79.9591, 43.0464
9.19201, 33, -27.6988, -22.5827, 40.1961, -148.567, -79.92, 43.0265
9.20004, 34, -27.6913, -22.6421, 40.2434, -148.529, -79.8804, 43.0065
9.20737, 34, -27.6838, -22.7015, 40.2906, -148.49, -79.8403, 42.9866
9.2162, 34, -27.6762, -22.761, 40.3378, -148.451, -79.8009, 42.967
9.22331, 34, -27.6687, -22.8205, 40.3848, -148.412, -79.7618, 42.9481
9.23186, 34, -27.6611, -22.88, 40.4319, -148.374, -79.722, 42.9296
9.24046, 34, -27.6535, -22.9396, 40.4788, -148.335, -79.6822, 42.9116
9.24774, 34, -27.6457, -22.9993, 40.5257, -148.296, -79.643, 42.894
9.2558, 34, -27.6379, -23.0588, 40.5726, -148.257, -79.6037, 42.8768
9.2646, 34, -27.6299, -23.1183, 40.6195, -148.219, -79.5637, 42.8598
9.27184, 34, -27.6219, -23.1776, 40.6664, -148.18, -79.524, 42.8429
9.2802, 34, -27.6139, -23.2369, 40.7132, -148.14, -79.4852, 42.826
9.28889, 34, -27.606, -23.296, 40.7601, -148.102, -79.4458, 42.8092
9.29604, 34, -27.5979, -23.3551, 40.8069, -148.063, -79.4059, 42.793
9.30281, 34, -27.5938, -23.3846, 40.8302, -148.044, -79.3863, 42.7849
9.31297, 34, -27.5817, -23.4731, 40.9004, -147.985, -79.328, 42.7616
9.32019, 34, -27.5736, -23.5323, 40.9471, -147.947, -79.2883, 42.7467
9.32915, 34, -27.5655, -23.5913, 40.9937, -147.908, -79.2486, 42.7325
9.33479, 34, -27.5614, -23.6209, 41.0169, -147.889, -79.2291, 42.7254
9.34431, 35, -27.549, -23.7095, 41.0866, -147.83, -79.171, 42.7049
9.35317, 35, -27.5407, -23.7686, 41.133, -147.791, -79.1314, 42.6917
9.3588, 35, -27.5366, -23.7981, 41.1561, -147.772, -79.1117, 42.6851
9.36832, 35, -27.5284, -23.857, 41.2025, -147.733, -79.0534, 42.6658
9.37574, 35, -27.52, -23.9157, 41.2488, -147.693, -79.034, 42.6595
9.3828, 35, -27.5117, -23.9743, 41.2951, -147.654, -78.9946, 42.6471
9.39285, 35, -27.4991, -24.0622, 41.3645, -147.596, -78.9357, 42.6288
9.39973, 35, -27.4949, -24.0914, 41.3876, -147.576, -78.9165, 42.6228
9.40673, 35, -27.4863, -24.1497, 41.4339, -147.537, -78.8778, 42.611
9.41572, 35, -27.4776, -24.2082, 41.48, -147.498, -78.8384, 42.5997
9.42392, 35, -27.4688, -24.2666, 41.5261, -147.459, -78.7993, 42.5888
9.43315, 35, -27.46, -24.3251, 41.5952, -147.4, -78.7415, 42.5734
9.43874, 35, -27.4512, -24.3836, 41.6181, -147.381, -78.722, 42.5685
9.44773, 35, -27.4423, -24.442, 41.664, -147.342, -78.6826, 42.5591
9.45474, 35, -27.4333, -24.5004, 41.7097, -147.303, -78.6438, 42.55
9.46372, 35, -27.4243, -24.5586, 41.7555, -147.264, -78.6055, 42.5414
9.47221, 35, -27.4153, -24.6169, 41.8011, -147.225, -78.5668, 42.5332
9.47873, 36, -27.4063, -24.6748, 41.8467, -147.186, -78.5278, 42.5254
9.48772, 36, -27.3971, -24.7327, 41.8923, -147.147, -78.4895, 42.5181
9.49825, 36, -27.3833, -24.8194, 41.9607, -147.088, -78.432, 42.5077
9.50273, 36, -27.3787, -24.8482, 41.9834, -147.069, -78.4125, 42.5044
9.51172, 36, -27.3695, -24.9059, 42.0288, -147.03, -78.3736, 42.4981
9.51975, 36, -27.3601, -24.9637, 42.0743, -146.991, -78.3356, 42.4922
9.52779, 36, -27.3508, -25.0214, 42.1197, -146.952, -78.2976, 42.4866
9.53572, 36, -27.3415, -25.0791, 42.1649, -146.913, -78.2588, 42.4813
9.54371, 36, -27.3321, -25.1368, 42.2102, -146.874, -78.2203, 42.4763
9.5519, 36, -27.3226, -25.1945, 42.2553, -146.835, -78.1824, 42.4717
9.55973, 36, -27.3129, -25.2521, 42.3005, -146.796, -78.1443, 42.4675
9.56772, 36, -27.3032, -25.3095, 42.3455, -146.757, -78.1055, 42.4637
9.57572, 36, -27.2935, -25.3668, 42.3904, -146.718, -78.0672, 42.4602
9.58378, 36, -27.2836, -25.424, 42.4354, -146.678, -78.0295, 42.4571
9.59175, 36, -27.2736, -25.481, 42.4802, -146.64, -77.9915, 42.4546
9.59975, 36, -27.2637, -25.5379, 42.525, -146.601, -77.9529, 42.4525
9.60779, 36, -27.2537, -25.5948, 42.5698, -146.562, -77.915, 42.4506
9.61571, 37, -27.2437, -25.6516, 42.6145, -146.523, -77.8773, 42.4493
9.62372, 37, -27.2336, -25.7085, 42.6591, -146.484, -77.8392, 42.4484
9.63178, 37, -27.2236, -25.7654, 42.7036, -146.445, -77.8008, 42.448
9.63973, 37, -27.2135, -25.8223, 42.7481, -146.406, -77.763, 42.4476
9.64772, 37, -27.2034, -25.879, 42.7924, -146.367, -77.7256, 42.4475
9.65579, 37, -27.1931, -25.9357, 42.8366, -146.329, -77.6876, 42.4475
9.66372, 37, -27.1828, -25.9923, 42.8809, -146.29, -77.6495, 42.4475
9.67171, 37, -27.1724, -26.0487, 42.925, -146.251, -77.612, 42.4476
9.67982, 37, -27.1618, -26.105, 42.9692, -146.212, -77.5746, 42.4478
9.68777, 37, -27.1512, -26.1611, 43.0132, -146.174, -77.5366, 42.4481
9.69596, 37, -27.1406, -26.2171, 43.0571, -146.135, -77.4985, 42.4487
9.70387, 37, -27.1299, -26.2729, 43.101, -146.096, -77.4612, 42.4499
9.71181, 37, -27.1191, -26.3288, 43.1448, -146.058, -77.424, 42.4524
9.71985, 37, -27.1082, -26.3846, 43.1884, -146.019, -77.3861, 42.4559
9.72789, 37, -27.0973, -26.4404, 43.232, -145.98, -77.3483, 42.4602
9.73583, 37, -27.0864, -26.4963, 43.2756, -145.941, -77.3112, 42.4654
9.74388, 37, -27.0753, -26.552, 43.319, -145.903, -77.274, 42.4713
9.75172, 38, -27.0643, -26.6078, 43.3623, -145.864, -77.236, 42.4778
9.75978, 38, -27.0534, -26.6634, 43.4056, -145.825, -77.1984, 42.485
9.76781, 38, -27.0423, -26.7189, 43.4488, -145.787, -77.1614, 42.4926
9.77583, 38, -27.0311, -26.7741, 43.4919, -145.749, -77.1243, 42.5009
9.78423, 38, -27.0198, -26.8292, 43.535, -145.71, -77.0865, 42.5096
9.79076, 38, -27.0141, -26.8567, 43.5565, -145.691, -77.0676, 42.5142
9.79998, 38, -26.9968, -26.9389, 43.6209, -145.634, -77.0122, 42.5288
9.80815, 38, -26.9853, -26.9936, 43.6637, -145.596, -76.975, 42.5391
9.81485, 38, -26.9795, -27.021, 43.685, -145.576, -76.9562, 42.5444
9.8242, 38, -26.9619, -27.1029, 43.7491, -145.518, -76.9001, 42.5613
9.83257, 38, -26.9501, -27.1575, 43.7915, -145.48, -76.8636, 42.5734
9.84028, 38, -26.9382, -27.2121, 43.8338, -145.442, -76.8268, 42.5859
9.84828, 38, -26.9262, -27.2666, 43.8761, -145.404, -76.7895, 42.5991
9.85642, 38, -26.9142, -27.3212, 43.9182, -145.366, -76.7527, 42.6129
9.86432, 38, -26.9082, -27.3484, 43.9392, -145.347, -76.7162, 42.6275
9.8717, 38, -26.8963, -27.4027, 43.9813, -145.31, -76.6978, 42.6351
9.88061, 38, -26.8841, -27.4569, 44.0232, -145.271, -76.6606, 42.6584
9.8877, 39, -26.8719, -27.5108, 44.065, -145.233, -76.6234, 42.6665
9.89571, 39, -26.8595, -27.5647, 44.1068, -145.195, -76.5869, 42.6826
9.90381, 39, -26.8469, -27.6182, 44.1484, -145.158, -76.5506, 42.6991
9.91172, 39, -26.8341, -27.6717, 44.19, -145.119, -76.5135, 42.7161
9.91975, 39, -26.8213, -27.725, 44.2315, -145.081, -76.4765, 42.7335
9.92774, 39, -26.8084, -27.7783, 44.2729, -145.044, -76.4402, 42.7512
9.93575, 39, -26.7954, -27.8316, 44.3141, -145.006, -76.4038, 42.7698
9.94375, 39, -26.7825, -27.8848, 44.3552, -144.968, -76.3666, 42.7891
9.9517, 39, -26.7694, -27.9381, 44.3962, -144.93, -76.3297, 42.8093
9.95987, 39, -26.7563, -27.9913, 44.4371, -144.893, -76.2934, 42.83
9.9709, 39, -26.7366, -28.0709, 44.498, -144.837, -76.2386, 42.8616
9.97566, 39, -26.7299, -28.0974, 44.5183, -144.818, -76.22, 42.8722
9.98371, 39, -26.7166, -28.1502, 44.5588, -144.781, -76.1831, 42.8938
9.99177, 39, -26.7031, -28.2029, 44.5992, -144.744, -76.1469, 42.916
9.9997, 39, -26.6894, -28.2552, 44.6396, -144.706, -76.1105, 42.9387
10.0087, 39, -26.6757, -28.3074, 44.6798, -144.669, -76.0736, 42.9622
10.0158, 39, -26.662, -28.3594, 44.7199, -144.632, -76.0369, 42.9867
10.0237, 40, -26.6481, -28.4113, 44.76, -144.596, -76.001, 43.0117
10.0328, 40, -26.6341, -28.463, 44.7998, -144.558, -75.9651, 43.0372
10.0398, 40, -26.6199, -28.5146, 44.8396, -144.521, -75.9284, 43.0629
10.0477, 40, -26.6057, -28.5663, 44.8793, -144.485, -75.8921, 43.0891
10.0566, 40, -26.5915, -28.6177, 44.9188, -144.448, -75.8563, 43.1156
10.0637, 40, -26.5773, -28.6693, 44.9582, -144.411, -75.8204, 43.1429
10.0718, 40, -26.563, -28.7207, 44.9974, -144.374, -75.7839, 43.1711
10.0806, 40, -26.5485, -28.772, 45.0364, -144.338, -75.7475, 43.2001
10.0872, 40, -26.5338, -28.8232, 45.0755, -144.302, -75.7118, 43.2293
10.0948, 40, -26.519, -28.8741, 45.1143, -144.265, -75.6763, 43.2589
10.1048, 40, -26.5041, -28.9249, 45.1529, -144.229, -75.6399, 43.289
10.1119, 40, -26.4891, -28.9754, 45.1916, -144.193, -75.6038, 43.3198
10.1207, 40, -26.474, -29.0258, 45.2302, -144.157, -75.5682, 43.3516
10.1288, 40, -26.4587, -29.076, 45.2685, -144.12, -75.5327, 43.3841
10.1357, 40, -26.4434, -29.126, 45.3069, -144.084, -75.4964, 43.417
10.1438, 40, -26.4281, -29.1759, 45.3449, -144.048, -75.4602, 43.45
10.1531, 40, -26.4126, -29.2257, 45.3828, -144.013, -75.4247, 43.4836
10.1607, 41, -26.3971, -29.2755, 45.4208, -143.977, -75.3895, 43.518
10.1678, 41, -26.3813, -29.3252, 45.4585, -143.941, -75.3536, 43.5534
10.1758, 41, -26.3653, -29.3747, 45.4959, -143.906, -75.3176, 43.5893
10.1837, 41, -26.3493, -29.4242, 45.5334, -143.871, -75.2824, 43.6252
10.1917, 41, -26.3331, -29.4736, 45.5707, -143.835, -75.2472, 43.6617
10.2001, 41, -26.3169, -29.5227, 45.6078, -143.799, -75.2115, 43.6991
10.2072, 41, -26.3006, -29.5718, 45.6448, -143.765, -75.1756, 43.7376
10.2158, 41, -26.2841, -29.6206, 45.6817, -143.73, -75.1405, 43.7765
10.2242, 41, -26.2677, -29.6692, 45.7183, -143.695, -75.1057, 43.8155
10.2315, 41, -26.2511, -29.7176, 45.755, -143.66, -75.0704, 43.8552
10.2398, 41, -26.2345, -29.7657, 45.7914, -143.625, -75.0348, 43.8959
10.2482, 41, -26.2175, -29.8138, 45.8276, -143.591, -74.9998, 43.9376
10.2557, 41, -26.2004, -29.8616, 45.8638, -143.556, -74.965, 43.9795
10.2638, 41, -26.1833, -29.9093, 45.8998, -143.521, -74.9299, 44.0218
10.2727, 41, -26.166, -29.9569, 45.9357, -143.488, -74.8941, 44.0652
10.2799, 41, -26.1486, -30.0045, 45.9714, -143.454, -74.8591, 44.1099
10.2868, 41, -26.1398, -30.0282, 45.9892, -143.437, -74.8417, 44.1324
10.2947, 41, -26.1222, -30.0755, 46.0245, -143.403, -74.8072, 44.1772
10.304, 42, -26.0957, -30.1461, 46.0775, -143.352, -74.7543, 44.2456
10.3108, 42, -26.0869, -30.1697, 46.095, -143.335, -74.7368, 44.2689
10.3187, 42, -26.0689, -30.2165, 46.1299, -143.302, -74.7021, 44.3164
10.3281, 42, -26.0416, -30.2864, 46.182, -143.251, -74.6501, 44.3878
10.3371, 42, -26.0233, -30.3328, 46.2166, -143.218, -74.6146, 44.4368
10.3427, 42, -26.0141, -30.3559, 46.2338, -143.201, -74.5969, 44.4617
10.3523, 42, -25.9863, -30.4249, 46.2852, -143.152, -74.5449, 44.5367
10.3611, 42, -25.9769, -30.4706, 46.3193, -143.119, -74.5105, 44.5871
10.3667, 42, -25.9581, -30.4934, 46.3362, -143.103, -74.493, 44.6128
10.3765, 42, -25.9392, -30.539, 46.3699, -143.054, -74.4404, 44.6912
10.3836, 42, -25.9202, -30.5843, 46.4036, -143.038, -74.4231, 44.7174
10.3918, 42, -25.9008, -30.6294, 46.4371, -143.006, -74.3888, 44.7701
10.3997, 42, -25.8813, -30.6743, 46.4702, -142.973, -74.3543, 44.8242
10.4077, 42, -25.8619, -30.7191, 46.5032, -142.941, -74.3192, 44.8791
10.4147, 42, -25.8424, -30.7638, 46.5362, -142.91, -74.2846, 44.9341
10.4237, 42, -25.8226, -30.8082, 46.5689, -142.879, -74.2505, 44.9899
10.4307, 42, -25.8028, -30.8524, 46.6014, -142.847, -74.2164, 45.0471
10.4397, 43, -25.7829, -30.8966, 46.6338, -142.816, -74.1817, 45.1044
10.4477, 43, -25.7629, -30.9405, 46.6659, -142.784, -74.1472, 45.1623
10.4548, 43, -25.7425, -30.9842, 46.6978, -142.754, -74.1133, 45.2216
10.4637, 43, -25.722, -31.0277, 46.7296, -142.723, -74.0793, 45.2811
10.4717, 43, -25.7014, -31.071, 46.7613, -142.692, -74.0449, 45.3409
10.4787, 43, -25.6806, -31.114, 46.7926, -142.661, -74.0102, 45.4021
10.4877, 43, -25.6596, -31.1569, 46.8238, -142.631, -73.9763, 45.4635
10.4957, 43, -25.6386, -31.1994, 46.8549, -142.602, -73.9426, 45.5254
10.5047, 43, -25.6175, -31.2418, 46.8857, -142.572, -73.9085, 45.5889
10.5117, 43, -25.5962, -31.2839, 46.9164, -142.542, -73.874, 45.6523
10.5198, 43, -25.5746, -31.3258, 46.9469, -142.512, -73.84, 45.7162
10.5285, 43, -25.5529, -31.3676, 46.9772, -142.483, -73.8064, 45.7814
10.5357, 43, -25.5311, -31.4091, 47.0072, -142.454, -73.7725, 45.8465
10.5437, 43, -25.509, -31.4504, 47.0369, -142.425, -73.738, 45.9125
10.5517, 43, -25.4868, -31.4915, 47.0665, -142.396, -73.704, 45.9799
10.5597, 43, -25.4643, -31.5325, 47.0959, -142.367, -73.6705, 46.0471
10.5677, 43, -25.4418, -31.5731, 47.125, -142.339, -73.6372, 46.1155
10.5757, 44, -25.4189, -31.6136, 47.1538, -142.312, -73.6032, 46.1851
10.5837, 44, -25.3959, -31.654, 47.1826, -142.284, -73.5692, 46.2545
10.5917, 44, -25.3729, -31.694, 47.2111, -142.256, -73.5359, 46.3255
10.5998, 44, -25.3498, -31.7338, 47.2394, -142.228, -73.5027, 46.3968
10.6077, 44, -25.3264, -31.7734, 47.2674, -142.201, -73.469, 46.4685
10.6157, 44, -25.3028, -31.8127, 47.2953, -142.175, -73.435, 46.5419
10.6237, 44, -25.279, -31.8518, 47.3229, -142.148, -73.4016, 46.6151
10.6317, 44, -25.2549, -31.8907, 47.3502, -142.121, -73.3687, 46.69
10.6399, 44, -25.2307, -31.9293, 47.3774, -142.094, -73.3357, 46.765
10.6477, 44, -25.2065, -31.9675, 47.4044, -142.068, -73.3021, 46.8403
10.6558, 44, -25.1821, -32.0056, 47.4311, -142.043, -73.2689, 46.9174
10.6638, 44, -25.1576, -32.0435, 47.4575, -142.018, -73.2361, 46.9939
10.6717, 44, -25.1329, -32.0811, 47.4837, -141.993, -73.2034, 47.0725
10.6797, 44, -25.1078, -32.1184, 47.5097, -141.967, -73.17, 47.1511
10.6886, 44, -25.0826, -32.1555, 47.5356, -141.942, -73.1367, 47.2309
10.6957, 44, -25.0573, -32.1924, 47.5609, -141.918, -73.1039, 47.3118
10.7038, 44, -25.0316, -32.229, 47.5862, -141.894, -73.0715, 47.3927
10.7126, 45, -25.0059, -32.2654, 47.6112, -141.87, -73.0389, 47.4755
10.7198, 45, -24.98, -32.3015, 47.636, -141.847, -73.0058, 47.5578
10.7278, 45, -24.9537, -32.3373, 47.6604, -141.823, -72.9731, 47.642
10.7377, 45, -24.9273, -32.3728, 47.6846, -141.799, -72.9409, 47.726
10.7437, 45, -24.9009, -32.4081, 47.7085, -141.776, -72.9086, 47.8115
10.7519, 45, -24.8742, -32.4431, 47.7322, -141.754, -72.8757, 47.8973
10.7597, 45, -24.8474, -32.4778, 47.7557, -141.732, -72.8429, 47.9839
10.7677, 45, -24.8203, -32.5123, 47.7789, -141.71, -72.8108, 48.0712
10.7759, 45, -24.7928, -32.5465, 47.8018, -141.688, -72.7789, 48.1592
10.7838, 45, -24.7653, -32.5805, 47.8244, -141.666, -72.7468, 48.2482
10.7945, 45, -24.7377, -32.6141, 47.8468, -141.645, -72.7142, 48.3377
10.8003, 45, -24.7098, -32.6474, 47.8689, -141.624, -72.6821, 48.4285
10.808, 45, -24.6819, -32.6804, 47.8907, -141.604, -72.6503, 48.5194
10.816, 45, -24.6536, -32.713, 47.9124, -141.584, -72.6186, 48.6116
10.8227, 45, -24.6394, -32.7292, 47.9231, -141.574, -72.6026, 48.6576
10.8322, 45, -24.5964, -32.7774, 47.9548, -141.544, -72.5541, 48.7976
10.8387, 45, -24.582, -32.7933, 47.9653, -141.534, -72.5383, 48.8444
10.8486, 46, -24.5383, -32.8406, 47.9959, -141.505, -72.4913, 48.9864
10.8562, 46, -24.509, -32.8716, 48.016, -141.486, -72.4599, 49.0818
10.8627, 46, -24.4942, -32.8871, 48.0259, -141.477, -72.4439, 49.13
10.8723, 46, -24.4644, -32.9177, 48.0455, -141.459, -72.4121, 49.2752
10.8797, 46, -24.4346, -32.9481, 48.065, -141.442, -72.3809, 49.3241
10.8877, 46, -24.4046, -32.978, 48.0843, -141.425, -72.3499, 49.4221
10.8957, 46, -24.3744, -33.0078, 48.103, -141.408, -72.3188, 49.5216
10.9037, 46, -24.3438, -33.0371, 48.1215, -141.391, -72.2871, 49.6213
10.9117, 46, -24.3131, -33.0661, 48.1399, -141.374, -72.2557, 49.7225
10.9197, 46, -24.2822, -33.0947, 48.1576, -141.357, -72.225, 49.8236
10.9277, 46, -24.2511, -33.1232, 48.1751, -141.342, -72.1945, 49.9259
10.938, 46, -24.204, -33.165, 48.2011, -141.319, -72.1481, 50.0806
10.9437, 46, -24.1881, -33.1788, 48.2095, -141.312, -72.1325, 50.1324
10.9517, 46, -24.1561, -33.2061, 48.2261, -141.297, -72.1019, 50.2367
10.9597, 46, -24.1241, -33.2331, 48.2426, -141.283, -72.0716, 50.3415
10.9677, 46, -24.0917, -33.2597, 48.2587, -141.269, -72.0415, 50.4473
10.9757, 46, -24.0592, -33.2858, 48.2742, -141.255, -72.0109, 50.5535
10.9853, 47, -24.0096, -33.3245, 48.2972, -141.235, -71.9651, 50.7148
10.9917, 47, -23.9929, -33.3371, 48.3047, -141.229, -71.9501, 50.7692
11.0013, 47, -23.9596, -33.3623, 48.3194, -141.216, -71.9205, 50.9327
11.0099, 47, -23.9092, -33.3992, 48.3406, -141.199, -71.8761, 51.0428
11.0157, 47, -23.8923, -33.4113, 48.3475, -141.193, -71.861, 51.0981
11.0237, 47, -23.8582, -33.4353, 48.3612, -141.182, -71.8309, 51.2092
11.0327, 47, -23.8239, -33.4588, 48.3743, -141.172, -71.8015, 51.3209
11.0397, 47, -23.7894, -33.482, 48.3871, -141.162, -71.7723, 51.4336
11.0477, 47, -23.7548, -33.505, 48.3997, -141.152, -71.7433, 51.5471
11.0559, 47, -23.72, -33.5273, 48.4122, -141.143, -71.7136, 51.6612
11.0637, 47, -23.6846, -33.5494, 48.4242, -141.134, -71.6841, 51.7763
11.0717, 47, -23.6493, -33.5711, 48.4357, -141.126, -71.6553, 51.892
11.0797, 47, -23.6137, -33.5921, 48.4468, -141.117, -71.6268, 52.0083
11.0877, 47, -23.5778, -33.6131, 48.4576, -141.109, -71.5985, 52.1255
11.0957, 47, -23.5416, -33.6336, 48.468, -141.101, -71.5698, 52.2435
11.1038, 47, -23.5051, -33.6534, 48.4781, -141.094, -71.5411, 52.3619
11.1117, 47, -23.4685, -33.6731, 48.4877, -141.087, -71.5131, 52.4812
11.1196, 48, -23.4317, -33.6922, 48.497, -141.081, -71.4852, 52.6011
11.1277, 48, -23.3944, -33.7108, 48.5059, -141.075, -71.4576, 52.7218
11.1357, 48, -23.3569, -33.7292, 48.5145, -141.07, -71.4296, 52.8435
11.1437, 48, -23.3193, -33.7472, 48.5228, -141.065, -71.4014, 52.966
11.1517, 48, -23.2815, -33.7646, 48.5306, -141.061, -71.374, 53.0892
11.1597, 48, -23.2434, -33.7815, 48.5382, -141.057, -71.3469, 53.2131
11.1677, 48, -23.205, -33.7982, 48.5453, -141.054, -71.3202, 53.3377
11.1757, 48, -23.1664, -33.8143, 48.5518, -141.051, -71.2932, 53.4629
11.1838, 48, -23.1276, -33.8298, 48.558, -141.049, -71.266, 53.5889
11.1917, 48, -23.0885, -33.8449, 48.5639, -141.047, -71.2391, 53.7157
11.1999, 48, -23.0492, -33.8598, 48.5695, -141.046, -71.2128, 53.8432
11.2081, 48, -23.0096, -33.8743, 48.5746, -141.045, -71.1868, 53.9718
11.2153, 48, -22.9698, -33.888, 48.5794, -141.044, -71.1607, 54.1011
11.2238, 48, -22.9296, -33.9011, 48.5837, -141.044, -71.1345, 54.231
11.2322, 48, -22.8893, -33.914, 48.5876, -141.044, -71.1081, 54.3616
11.2393, 48, -22.8488, -33.9266, 48.591, -141.044, -71.0823, 54.4929
11.2483, 48, -22.808, -33.9385, 48.594, -141.044, -71.0571, 54.6247
11.2557, 49, -22.767, -33.9496, 48.5966, -141.045, -71.0323, 54.7571
11.2637, 49, -22.7256, -33.9603, 48.5987, -141.047, -71.0074, 54.8902
11.2725, 49, -22.6841, -33.9707, 48.6005, -141.049, -70.9822, 55.0242
11.2798, 49, -22.6422, -33.9807, 48.6017, -141.052, -70.9571, 55.159
11.2878, 49, -22.6, -33.9902, 48.6025, -141.056, -70.9327, 55.2943
11.2968, 49, -22.5576, -33.999, 48.6029, -141.06, -70.9086, 55.4305
11.304, 49, -22.515, -34.0072, 48.6031, -141.065, -70.8849, 55.5675
11.3107, 49, -22.4936, -34.0111, 48.6032, -141.067, -70.8731, 55.636
11.3208, 49, -22.4289, -34.022, 48.6031, -141.076, -70.8373, 55.8426
11.3282, 49, -22.3854, -34.0287, 48.6028, -141.083, -70.8135, 55.9816
11.3362, 49, -22.3418, -34.035, 48.6021, -141.09, -70.7903, 56.1211
11.3451, 49, -22.2979, -34.0407, 48.6011, -141.098, -70.7676, 56.2617
11.3531, 49, -22.2538, -34.0461, 48.5997, -141.107, -70.7454, 56.4026
11.3587, 49, -22.2316, -34.0486, 48.5987, -141.112, -70.7344, 56.4733
11.3691, 49, -22.1871, -34.0531, 48.5952, -141.126, -70.7012, 56.6867
11.3747, 49, -22.1422, -34.0569, 48.5937, -141.131, -70.6901, 56.7579
11.3854, 49, -22.0744, -34.0614, 48.5884, -141.147, -70.6572, 56.9727
11.3917, 49, -22.0517, -34.0627, 48.5863, -141.153, -70.6466, 57.0448
11.3998, 50, -22.0062, -34.0648, 48.5819, -141.164, -70.6257, 57.1893
11.4076, 50, -21.9602, -34.0662, 48.5769, -141.176, -70.6051, 57.3346
11.4172, 50, -21.891, -34.0673, 48.5683, -141.194, -70.5746, 57.5538
11.4227, 50, -21.8679, -34.0675, 48.5652, -141.201, -70.5644, 57.6271
11.4317, 50, -21.8212, -34.0676, 48.5584, -141.214, -70.544, 57.7745
11.4387, 50, -21.7743, -34.0675, 48.5513, -141.228, -70.5238, 57.9223
11.4477, 50, -21.7271, -34.0668, 48.5437, -141.243, -70.504, 58.0707
11.4556, 50, -21.6797, -34.0656, 48.5358, -141.259, -70.4848, 58.22
11.4637, 50, -21.632, -34.0638, 48.5272, -141.275, -70.4661, 58.37
11.4747, 50, -21.5601, -34.0604, 48.5133, -141.3, -70.4389, 58.5963
11.4819, 50, -21.5119, -34.0573, 48.5031, -141.317, -70.4209, 58.7479
11.4877, 50, -21.4876, -34.0555, 48.4978, -141.325, -70.4119, 58.8239
11.4957, 50, -21.439, -34.0514, 48.4869, -141.343, -70.3939, 58.9763
11.5037, 50, -21.3902, -34.0466, 48.4756, -141.361, -70.3761, 59.1291
11.5127, 50, -21.341, -34.041, 48.4637, -141.38, -70.3588, 59.2824
11.5187, 50, -21.2916, -34.0345, 48.4512, -141.4, -70.3422, 59.4365
11.5276, 50, -21.242, -34.0274, 48.4384, -141.421, -70.326, 59.5914
11.5357, 51, -21.1921, -34.0195, 48.4251, -141.442, -70.3102, 59.7467
11.5437, 51, -21.1419, -34.0108, 48.4112, -141.463, -70.2947, 59.9029
11.5517, 51, -21.0915, -34.0016, 48.3966, -141.485, -70.2795, 60.0595
11.5597, 51, -21.0409, -33.9919, 48.3815, -141.507, -70.2644, 60.2164
11.5677, 51, -20.9899, -33.9812, 48.3661, -141.53, -70.2494, 60.3742
11.5756, 51, -20.9387, -33.9696, 48.35, -141.554, -70.2345, 60.5325
11.5837, 51, -20.8874, -33.9576, 48.3333, -141.579, -70.2203, 60.6916
11.5917, 51, -20.8358, -33.945, 48.3163, -141.603, -70.2066, 60.8513
11.5997, 51, -20.7839, -33.932, 48.2987, -141.628, -70.1935, 61.0114
11.6077, 51, -20.7317, -33.9181, 48.2804, -141.654, -70.181, 61.1723
