rpiRobotics/ARM-21-02-F-19-Robot-Motion-Program/data_performance_abb/curve_1/baseline/100L/realrobot/bisect/run_1realrobot_curve_exe_v112.5_z10.csv
timestamp, cmd_num, J1, J2, J3, J4, J5, J6
0.00036, -1, 11.3779, 13.6139, 17.3393, -145.519, -97.923, 142.516
0.003567, -1, 11.3779, 13.6139, 17.3393, -145.519, -97.923, 142.516
0.027589, -1, 11.3779, 13.6139, 17.3393, -145.519, -97.923, 142.516
0.028845, -1, 11.3779, 13.6139, 17.3393, -145.519, -97.923, 142.516
0.03177, -1, 11.3779, 13.6139, 17.3393, -145.519, -97.923, 142.516
0.033007, -1, 11.3779, 13.6139, 17.3393, -145.519, -97.923, 142.516
0.039803, -1, 11.3779, 13.6139, 17.3393, -145.519, -97.923, 142.516
0.047766, -1, 11.3776, 13.6139, 17.3392, -145.519, -97.9229, 142.516
0.055896, -1, 11.3761, 13.6138, 17.3392, -145.519, -97.9229, 142.516
0.063868, -1, 11.3719, 13.6133, 17.3391, -145.519, -97.9229, 142.516
0.071852, -1, 11.3632, 13.612, 17.3388, -145.519, -97.923, 142.515
0.079937, -1, 11.3492, 13.6094, 17.3381, -145.52, -97.9229, 142.511
0.088198, -1, 11.3276, 13.6047, 17.3372, -145.523, -97.9226, 142.496
0.095431, -1, 11.2954, 13.597, 17.3364, -145.528, -97.9214, 142.466
0.103728, -1, 11.2512, 13.5861, 17.3361, -145.537, -97.9188, 142.414
0.111757, -1, 11.1955, 13.5722, 17.3369, -145.551, -97.9144, 142.334
0.119837, -1, 11.1283, 13.555, 17.3397, -145.572, -97.9078, 142.22
0.127859, -1, 11.0494, 13.5338, 17.3449, -145.598, -97.8987, 142.073
0.13586, -1, 10.9584, 13.509, 17.3524, -145.629, -97.8876, 141.891
0.14399, -1, 10.8565, 13.481, 17.362, -145.665, -97.8746, 141.678
0.15205, -1, 10.7436, 13.4496, 17.373, -145.706, -97.8605, 141.442
0.158767, -1, 10.683, 13.4329, 17.3786, -145.728, -97.853, 141.316
0.168199, -1, 10.4859, 13.3785, 17.3952, -145.795, -97.8298, 140.922
0.174792, -1, 10.4158, 13.3593, 17.4005, -145.818, -97.8218, 140.786
0.184274, -1, 10.1967, 13.2997, 17.4157, -145.889, -97.7974, 140.374
0.192335, -1, 10.0456, 13.259, 17.4258, -145.937, -97.7806, 140.096
0.200338, -1, 9.89191, 13.2178, 17.4357, -145.985, -97.7635, 139.817
0.208312, -1, 9.73661, 13.1764, 17.4458, -146.033, -97.7463, 139.538
0.216341, -1, 9.58109, 13.1352, 17.4558, -146.08, -97.7291, 139.259
0.224551, -1, 9.50357, 13.1146, 17.4607, -146.104, -97.7206, 138.98
0.231712, -1, 9.3489, 13.0734, 17.4706, -146.153, -97.7039, 138.84
0.239782, -1, 9.19457, 13.0323, 17.4806, -146.201, -97.6872, 138.56
0.247759, -1, 9.04079, 12.9913, 17.4905, -146.248, -97.6705, 138.28
0.255779, -1, 8.8872, 12.9503, 17.5006, -146.297, -97.6537, 138.001
0.26371, -1, 8.73381, 12.9094, 17.5107, -146.344, -97.6365, 137.721
0.271721, -1, 8.58093, 12.8683, 17.5208, -146.392, -97.6191, 137.441
0.279762, -1, 8.42822, 12.8271, 17.531, -146.441, -97.6016, 137.161
0.287732, -1, 8.27523, 12.7858, 17.5412, -146.488, -97.5844, 136.881
0.295729, -1, 8.12174, 12.7443, 17.5513, -146.536, -97.5674, 136.601
0.303766, -1, 7.96779, 12.7028, 17.5615, -146.584, -97.5506, 136.321
0.31171, -1, 7.81321, 12.6612, 17.5716, -146.632, -97.534, 136.041
0.319748, -1, 7.65823, 12.6195, 17.5817, -146.68, -97.5173, 135.761
0.32778, -1, 7.50319, 12.578, 17.5919, -146.728, -97.5005, 135.481
0.334827, -1, 7.34794, 12.5365, 17.602, -146.776, -97.4834, 135.201
0.343725, -1, 7.19277, 12.4951, 17.6122, -146.824, -97.466, 134.92
0.354106, -1, 7.03764, 12.4537, 17.6225, -146.872, -97.4486, 134.5
0.35871, -1, 6.88238, 12.4124, 17.6328, -146.92, -97.4316, 134.36
0.367729, -1, 6.72745, 12.3712, 17.6432, -146.968, -97.4147, 134.08
0.375786, -1, 6.57287, 12.33, 17.6535, -147.017, -97.3979, 133.799
0.383711, -1, 6.41843, 12.2888, 17.6639, -147.065, -97.3812, 133.519
0.39272, -1, 6.26422, 12.2475, 17.6742, -147.113, -97.3643, 133.238
0.399775, -1, 6.11, 12.206, 17.6844, -147.161, -97.3471, 132.958
0.407738, -1, 5.95554, 12.1647, 17.6946, -147.209, -97.3296, 132.677
0.416272, -1, 5.80091, 12.1231, 17.7049, -147.257, -97.312, 132.396
0.423705, -1, 5.6461, 12.0814, 17.7151, -147.305, -97.2946, 132.116
0.431719, -1, 5.49102, 12.0398, 17.7253, -147.353, -97.2775, 131.835
0.440503, -1, 5.33578, 11.9982, 17.7355, -147.401, -97.2606, 131.554
0.447711, -1, 5.18027, 11.9566, 17.7458, -147.45, -97.2438, 131.273
0.455709, -1, 5.02439, 11.915, 17.7563, -147.498, -97.2271, 130.992
0.464509, -1, 4.8685, 11.8734, 17.7666, -147.545, -97.21, 130.711
0.471713, -1, 4.7127, 11.8319, 17.777, -147.594, -97.1927, 130.43
0.479707, -1, 4.55698, 11.7905, 17.7874, -147.642, -97.1753, 130.149
0.488517, -1, 4.40127, 11.7491, 17.7977, -147.69, -97.1579, 129.869
0.495706, -1, 4.24581, 11.7077, 17.8081, -147.739, -97.1408, 129.588
0.62893, -1, 1.67891, 11.021, 17.979, -148.536, -96.8589, 124.942
0.63013, -1, 1.67891, 11.021, 17.979, -148.536, -96.8589, 124.942
0.634594, -1, 1.60077, 11.0001, 17.9842, -148.56, -96.8504, 124.801
0.636686, -1, 1.52274, 10.9793, 17.9894, -148.584, -96.8419, 124.661
0.638163, -1, 1.52274, 10.9793, 17.9894, -148.584, -96.8419, 124.661
0.640345, -1, 1.44473, 10.9585, 17.9946, -148.609, -96.8335, 124.52
0.641638, -1, 1.44473, 10.9585, 17.9946, -148.609, -96.8335, 124.52
0.645876, -1, 1.36674, 10.9377, 17.9998, -148.633, -96.825, 124.379
0.782966, -1, -1.28706, 10.2275, 18.1761, -149.457, -96.5336, 119.574
0.784989, -1, -1.28706, 10.2275, 18.1761, -149.457, -96.5336, 119.432
0.786404, -1, -1.3655, 10.2066, 18.1812, -149.482, -96.5252, 119.432
0.787678, -1, -1.3655, 10.2066, 18.1812, -149.482, -96.5252, 119.432
0.789669, -1, -1.44385, 10.1857, 18.1864, -149.506, -96.5168, 119.29
0.79095, -1, -1.44385, 10.1857, 18.1864, -149.506, -96.5168, 119.29
0.792139, -1, -1.44385, 10.1857, 18.1864, -149.506, -96.5168, 119.29
0.795769, -1, -1.52214, 10.1648, 18.1916, -149.53, -96.5084, 119.149
0.797849, -1, -1.60037, 10.1439, 18.1969, -149.554, -96.4999, 119.007
0.799044, -1, -1.60037, 10.1439, 18.1969, -149.554, -96.4999, 119.007
0.801641, -1, -1.60037, 10.1439, 18.1969, -149.554, -96.4914, 118.866
0.803801, -1, -1.67849, 10.123, 18.2022, -149.579, -96.4914, 118.866
0.805884, -1, -1.75649, 10.1021, 18.2073, -149.603, -96.4828, 118.724
0.807126, -1, -1.75649, 10.1021, 18.2073, -149.603, -96.4828, 118.724
0.808321, -1, -1.75649, 10.1021, 18.2073, -149.603, -96.4828, 118.724
0.810517, -1, -1.83439, 10.0812, 18.2125, -149.628, -96.4742, 118.583
0.811775, -1, -1.83439, 10.0812, 18.2125, -149.628, -96.4742, 118.583
0.813779, -1, -1.91215, 10.0603, 18.2177, -149.652, -96.4655, 118.441
0.815197, -1, -1.91215, 10.0603, 18.2177, -149.652, -96.4655, 118.441
0.816892, -1, -1.91215, 10.0603, 18.2177, -149.652, -96.4655, 118.441
0.818436, -1, -1.9898, 10.0394, 18.223, -149.676, -96.4566, 118.299
0.819618, -1, -1.9898, 10.0394, 18.223, -149.676, -96.4566, 118.299
0.822663, -1, -2.0674, 10.0185, 18.2282, -149.7, -96.4478, 118.157
0.824001, -1, -2.0674, 10.0185, 18.2282, -149.7, -96.4478, 118.157
0.827507, -1, -2.14495, 9.99753, 18.2334, -149.725, -96.439, 118.015
0.829496, -1, -2.2225, 9.97663, 18.2385, -149.749, -96.4303, 117.874
0.830833, -1, -2.2225, 9.97663, 18.2385, -149.749, -96.4303, 117.874
0.832022, -1, -2.2225, 9.97663, 18.2385, -149.749, -96.4303, 117.874
0.834224, -1, -2.30011, 9.95575, 18.2437, -149.773, -96.4216, 117.732
0.835659, -1, -2.30011, 9.95575, 18.2437, -149.773, -96.4216, 117.732
0.838174, -1, -2.37782, 9.93483, 18.249, -149.797, -96.413, 117.59
0.839588, -1, -2.37782, 9.93483, 18.249, -149.797, -96.413, 117.59
0.841465, -1, -2.45563, 9.91386, 18.2542, -149.821, -96.4044, 117.448
0.842837, -1, -2.45563, 9.91386, 18.2542, -149.821, -96.4044, 117.448
0.84403, -1, -2.45563, 9.91386, 18.2542, -149.821, -96.4044, 117.448
0.847844, -1, -2.53349, 9.89288, 18.2594, -149.846, -96.3959, 117.307
0.854747, -1, -2.68937, 9.85098, 18.2698, -149.895, -96.3791, 117.023
0.863693, -1, -2.84553, 9.8091, 18.2801, -149.943, -96.3624, 116.739
0.871757, -1, -3.00219, 9.76718, 18.2905, -149.992, -96.3454, 116.456
0.879692, -1, -3.15924, 9.7253, 18.3009, -150.041, -96.3283, 116.172
0.887718, -1, -3.31668, 9.68338, 18.3113, -150.089, -96.3108, 115.888
0.895758, -1, -3.47459, 9.6414, 18.3218, -150.138, -96.2932, 115.604
0.903692, -1, -3.6325, 9.59949, 18.3322, -150.187, -96.2759, 115.32
0.911711, -1, -3.79035, 9.55768, 18.3426, -150.235, -96.2587, 115.036
0.919783, -1, -3.94833, 9.51569, 18.3529, -150.284, -96.2417, 114.752
0.927702, -1, -4.10622, 9.47377, 18.3633, -150.333, -96.2248, 114.468
0.935694, -1, -4.26399, 9.43189, 18.3736, -150.381, -96.2079, 114.183
0.943754, -1, -4.42161, 9.38991, 18.3838, -150.43, -96.1907, 113.899
0.951689, -1, -4.57876, 9.34796, 18.3942, -150.479, -96.1732, 113.614
0.959754, -1, -4.73549, 9.30595, 18.4045, -150.528, -96.1555, 113.33
0.967698, -1, -4.89191, 9.26394, 18.4149, -150.577, -96.1379, 113.045
0.975713, -1, -5.04801, 9.2219, 18.4254, -150.626, -96.1207, 112.76
0.983757, -1, -5.20389, 9.17992, 18.4359, -150.674, -96.1036, 112.476
0.991686, -1, -5.35985, 9.13784, 18.4464, -150.723, -96.0868, 112.191
0.999688, -1, -5.51598, 9.09573, 18.4568, -150.772, -96.07, 111.906
1.00777, -1, -5.67234, 9.05372, 18.4671, -150.821, -96.053, 111.621
1.01568, -1, -5.8291, 9.0116, 18.4776, -150.87, -96.0357, 111.337
1.02373, -1, -5.98628, 8.96946, 18.4879, -150.919, -96.0181, 111.052
1.03175, -1, -6.14397, 8.92739, 18.4982, -150.967, -96.0006, 110.767
1.0397, -1, -6.30215, 8.8853, 18.5085, -151.016, -95.9832, 110.481
1.04789, -1, -6.46055, 8.84325, 18.5188, -151.066, -95.9661, 110.196
1.05579, -1, -6.61904, 8.80123, 18.5292, -151.114, -95.9491, 109.911
1.06378, -1, -6.7777, 8.75912, 18.5397, -151.163, -95.9321, 109.626
1.07186, -1, -6.93635, 8.71704, 18.5502, -151.213, -95.9151, 109.34
1.07981, -1, -7.09485, 8.675, 18.5607, -151.261, -95.8978, 109.055
1.08783, -1, -7.25326, 8.6329, 18.571, -151.31, -95.8802, 108.769
1.09592, -1, -7.4113, 8.59071, 18.5814, -151.36, -95.8623, 108.484
1.10375, -1, -7.56912, 8.54845, 18.5919, -151.408, -95.8447, 108.198
1.1117, -1, -7.72655, 8.50621, 18.6023, -151.458, -95.8274, 107.912
1.11981, -1, -7.88357, 8.46402, 18.6127, -151.507, -95.8102, 107.627
1.12773, -1, -8.04034, 8.42175, 18.6231, -151.555, -95.7933, 107.341
1.13587, -1, -8.19691, 8.37945, 18.6335, -151.605, -95.7764, 107.055
1.14394, -1, -8.35358, 8.33714, 18.644, -151.654, -95.7592, 106.769
1.15194, -1, -8.51041, 8.29478, 18.6545, -151.703, -95.7419, 106.483
1.15868, -1, -8.58894, 8.27363, 18.6598, -151.727, -95.7331, 106.34
1.16807, -1, -8.82507, 8.21028, 18.6755, -151.801, -95.7066, 105.91
1.17609, -1, -8.98303, 8.16799, 18.6858, -151.85, -95.6891, 105.624
1.18272, -1, -9.06221, 8.14684, 18.691, -151.875, -95.6804, 105.481
1.1923, -1, -9.30028, 8.08355, 18.7066, -151.948, -95.6548, 105.051
1.20022, -1, -9.45927, 8.04123, 18.717, -151.997, -95.6377, 104.764
1.20833, -1, -9.61841, 7.99901, 18.7274, -152.047, -95.6205, 104.478
1.21627, -1, -9.77765, 7.95687, 18.7378, -152.096, -95.6031, 104.191
1.22426, -1, -9.85731, 7.9358, 18.743, -152.121, -95.5853, 103.904
1.2324, -1, -10.0167, 7.89348, 18.7537, -152.17, -95.5674, 103.617
1.23969, -1, -10.1759, 7.85113, 18.7642, -152.219, -95.5585, 103.474
1.2477, -1, -10.3349, 7.8087, 18.7748, -152.268, -95.5409, 103.187
1.25576, -1, -10.4936, 7.76622, 18.7853, -152.318, -95.5237, 102.9
1.26368, -1, -10.652, 7.72379, 18.7956, -152.367, -95.5066, 102.613
1.27168, -1, -10.8102, 7.68136, 18.8061, -152.416, -95.4896, 102.327
1.27966, -1, -10.968, 7.63881, 18.8165, -152.466, -95.4725, 102.039
1.28771, -1, -11.1255, 7.59634, 18.8269, -152.515, -95.4552, 101.752
1.29572, -1, -11.2829, 7.55392, 18.8373, -152.564, -95.4375, 101.465
1.30368, -1, -11.4404, 7.51149, 18.8477, -152.614, -95.4197, 101.177
1.31168, -1, -11.598, 7.469, 18.8582, -152.663, -95.4021, 100.89
1.31974, -1, -11.756, 7.42663, 18.8688, -152.712, -95.3847, 100.602
1.32769, -1, -11.9144, 7.38424, 18.8794, -152.761, -95.3675, 100.314
1.33568, -1, -12.0732, 7.34188, 18.8899, -152.811, -95.3503, 100.027
1.34269, -1, -12.2324, 7.2995, 18.9004, -152.86, -95.3331, 99.7391
1.35168, -1, -12.392, 7.25709, 18.9109, -152.91, -95.3157, 99.4511
1.35972, -1, -12.5518, 7.21471, 18.9214, -152.959, -95.298, 99.1633
1.36867, -1, -12.7117, 7.17231, 18.9319, -153.008, -95.2801, 98.8756
1.37567, -1, -12.8718, 7.12987, 18.9424, -153.058, -95.2622, 98.5876
1.38368, -1, -13.0319, 7.08733, 18.953, -153.108, -95.2447, 98.2996
1.39175, -1, -13.1918, 7.04475, 18.9635, -153.157, -95.2274, 98.0115
1.39967, -1, -13.3515, 7.0022, 18.974, -153.207, -95.2103, 97.7234
1.4077, -1, -13.5108, 6.95953, 18.9846, -153.256, -95.1933, 97.4351
1.41575, -1, -13.67, 6.91679, 18.9952, -153.305, -95.176, 97.1464
1.42369, -1, -13.829, 6.87414, 19.0057, -153.355, -95.1586, 96.8581
1.43169, -1, -13.9876, 6.83145, 19.0161, -153.404, -95.1409, 96.5695
1.43974, -1, -14.1458, 6.78879, 19.0266, -153.453, -95.1232, 96.2807
1.44768, -1, -14.304, 6.7462, 19.0372, -153.503, -95.1056, 95.9916
1.45583, -1, -14.4623, 6.70352, 19.0476, -153.552, -95.0883, 95.7027
1.46367, -1, -14.6207, 6.66092, 19.0581, -153.602, -95.0711, 95.4137
1.47168, -1, -14.7795, 6.61841, 19.0686, -153.652, -95.054, 95.1244
1.48047, -1, -14.9387, 6.57586, 19.0791, -153.701, -95.0367, 94.8352
1.48769, -1, -15.0983, 6.53323, 19.0898, -153.751, -95.0192, 94.5462
1.49567, -1, -15.2583, 6.49067, 19.1005, -153.8, -95.0013, 94.2573
1.50445, -1, -15.4186, 6.44814, 19.1111, -153.85, -94.9834, 93.9681
1.51168, -1, -15.5792, 6.40547, 19.1217, -153.9, -94.9655, 93.6787
1.51967, -1, -15.7401, 6.36279, 19.1321, -153.949, -94.948, 93.3895
1.52853, -1, -15.9008, 6.32004, 19.1427, -153.999, -94.9308, 93.1001
1.53567, -1, -16.0615, 6.27719, 19.1533, -154.049, -94.9136, 92.8105
1.54367, -1, -16.2223, 6.23441, 19.1638, -154.098, -94.8964, 92.5209
1.55264, -1, -16.3829, 6.19149, 19.1743, -154.147, -94.8791, 92.2314
1.55973, -1, -16.5432, 6.14852, 19.1847, -154.197, -94.8614, 91.9416
1.56776, -1, -16.7033, 6.10561, 19.1952, -154.247, -94.8435, 91.6515
1.57679, -1, -16.8628, 6.06266, 19.2059, -154.297, -94.8257, 91.3614
1.58379, -1, -17.0221, 6.01975, 19.2165, -154.347, -94.808, 91.0714
1.59187, -1, -17.1812, 5.97684, 19.2271, -154.396, -94.7906, 90.7811
1.60018, -1, -17.3402, 5.93399, 19.2376, -154.446, -94.7732, 90.4909
1.60789, -1, -17.4995, 5.89121, 19.2482, -154.496, -94.7559, 90.2007
1.61574, -1, -17.6589, 5.84848, 19.2589, -154.546, -94.7384, 89.9106
1.62521, -1, -17.8184, 5.80571, 19.2695, -154.596, -94.7206, 89.6203
1.63071, -1, -17.8983, 5.78433, 19.2749, -154.621, -94.7116, 89.475
1.63982, -1, -18.1386, 5.72024, 19.2908, -154.695, -94.6844, 89.0394
1.64944, -1, -18.2994, 5.67746, 19.3014, -154.745, -94.6667, 88.7488
1.65621, -1, -18.4605, 5.63467, 19.3121, -154.795, -94.6492, 88.4581
1.66266, -1, -18.5412, 5.6132, 19.3174, -154.82, -94.6405, 88.3126
1.67367, -1, -18.7837, 5.54874, 19.3334, -154.895, -94.6146, 87.8764
1.68023, -1, -18.9452, 5.50581, 19.344, -154.945, -94.5973, 87.5854
1.68819, -1, -19.1068, 5.46274, 19.3545, -154.995, -94.5795, 87.2941
1.6979, -1, -19.2683, 5.41961, 19.3651, -155.045, -94.5616, 87.0029
1.70443, -1, -19.4295, 5.37654, 19.3756, -155.095, -94.5435, 86.7115
1.71222, -1, -19.5905, 5.33336, 19.3861, -155.145, -94.5257, 86.4201
1.721, -1, -19.6708, 5.2902, 19.3967, -155.195, -94.5081, 86.1283
1.72827, -1, -19.8315, 5.26867, 19.402, -155.22, -94.4907, 85.8369
1.73566, -1, -19.9919, 5.22557, 19.4126, -155.27, -94.482, 85.6912
1.74372, -1, -20.1519, 5.18245, 19.4234, -155.32, -94.4646, 85.3997
1.75168, -1, -20.3118, 5.13953, 19.4341, -155.37, -94.4472, 85.108
1.75967, -1, -20.4718, 5.0966, 19.4449, -155.42, -94.4295, 84.8162
1.7677, -1, -20.6318, 5.05358, 19.4556, -155.47, -94.4114, 84.5246
1.77566, -1, -20.7921, 5.0107, 19.4662, -155.52, -94.3934, 84.2327
1.78366, -1, -20.9529, 4.96784, 19.4769, -155.57, -94.3757, 83.9406
1.79173, -1, -21.1141, 4.92481, 19.4875, -155.62, -94.3583, 83.6485
1.79966, -1, -21.2756, 4.88179, 19.4981, -155.671, -94.3411, 83.3566
1.80766, -1, -21.4376, 4.83871, 19.5087, -155.721, -94.3239, 83.0644
1.8157, -1, -21.5997, 4.79545, 19.5193, -155.771, -94.3066, 82.772
1.82371, -1, -21.762, 4.75228, 19.53, -155.822, -94.289, 82.4795
1.83165, -1, -21.9243, 4.70899, 19.5407, -155.871, -94.2712, 82.1871
1.83867, -1, -22.0866, 4.66562, 19.5515, -155.922, -94.2533, 81.8945
1.84766, -1, -22.2491, 4.62231, 19.5622, -155.972, -94.2354, 81.6017
1.85565, -1, -22.4115, 4.57894, 19.5728, -156.022, -94.2179, 81.3091
1.86378, -1, -22.5733, 4.53558, 19.5835, -156.073, -94.2004, 81.0165
1.87271, -1, -22.735, 4.4922, 19.5942, -156.123, -94.183, 80.7238
1.87965, -1, -22.8963, 4.44883, 19.6048, -156.173, -94.1655, 80.4307
1.88772, -1, -23.0574, 4.40557, 19.6156, -156.223, -94.1477, 80.1379
1.89566, -1, -23.2184, 4.36235, 19.6262, -156.274, -94.1296, 79.845
1.90366, -1, -23.3793, 4.31913, 19.637, -156.324, -94.1114, 79.5515
1.91172, -1, -23.5401, 4.27596, 19.6479, -156.375, -94.0933, 79.2581
1.91968, -1, -23.7013, 4.23275, 19.6586, -156.425, -94.0755, 78.9648
1.92773, -1, -23.8626, 4.18956, 19.6694, -156.475, -94.058, 78.6713
1.93565, -1, -24.024, 4.14631, 19.6801, -156.526, -94.0406, 78.3776
1.94367, -1, -24.1861, 4.10297, 19.6907, -156.576, -94.0231, 78.0837
1.95172, -1, -24.3486, 4.05963, 19.7015, -156.626, -94.0054, 77.7898
1.95967, -1, -24.5114, 4.01624, 19.7121, -156.677, -93.9874, 77.4958
1.96766, -1, -24.6744, 3.97273, 19.7227, -156.727, -93.9692, 77.2016
1.97572, -1, -24.8377, 3.92919, 19.7333, -156.777, -93.9511, 76.9077
1.98366, -1, -25.0011, 3.8857, 19.744, -156.828, -93.9333, 76.6137
1.99168, -1, -25.1644, 3.84217, 19.7549, -156.878, -93.9157, 76.3196
1.99971, -1, -25.3275, 3.79863, 19.7657, -156.929, -93.8982, 76.025
2.00765, -1, -25.4903, 3.75506, 19.7765, -156.979, -93.8806, 75.7309
2.01566, -1, -25.653, 3.71144, 19.7872, -157.029, -93.8628, 75.4366
2.02372, -1, -25.8154, 3.66796, 19.7978, -157.08, -93.8447, 75.142
2.03169, -1, -25.9777, 3.62457, 19.8085, -157.13, -93.8263, 74.8473
2.03989, -1, -26.1396, 3.58104, 19.8193, -157.181, -93.808, 74.5528
2.04766, -1, -26.3013, 3.53768, 19.83, -157.232, -93.7899, 74.2582
2.05568, -1, -26.463, 3.49436, 19.8407, -157.282, -93.7722, 73.9633
2.06398, -1, -26.6248, 3.45095, 19.8514, -157.332, -93.7546, 73.6681
2.07173, -1, -26.7869, 3.40755, 19.8622, -157.383, -93.737, 73.3731
2.07981, -1, -26.9493, 3.36407, 19.873, -157.434, -93.7192, 73.0779
2.08813, -1, -27.1121, 3.32052, 19.8839, -157.485, -93.7012, 72.7826
2.09526, -1, -27.2752, 3.27699, 19.8947, -157.535, -93.6829, 72.4875
2.10375, -1, -27.4388, 3.23334, 19.9054, -157.586, -93.6647, 72.1922
2.11229, -1, -27.6026, 3.1896, 19.9161, -157.636, -93.6468, 71.8969
2.11991, -1, -27.7665, 3.14594, 19.9269, -157.687, -93.629, 71.6012
2.1277, -1, -27.9306, 3.10225, 19.9376, -157.738, -93.6113, 71.3057
2.13652, -1, -28.0947, 3.05856, 19.9485, -157.789, -93.5936, 71.0101
2.1438, -1, -28.2588, 3.01487, 19.9592, -157.839, -93.5758, 70.7143
2.15181, -1, -28.4229, 2.97113, 19.97, -157.89, -93.5577, 70.4183
2.16078, -1, -28.5866, 2.92748, 19.9809, -157.941, -93.5393, 70.1226
2.168, -1, -28.7502, 2.88384, 19.9917, -157.992, -93.5209, 69.8267
2.17603, -1, -28.9134, 2.84017, 20.0026, -158.042, -93.5028, 69.5304
2.1827, -1, -28.9949, 2.81837, 20.0079, -158.068, -93.4939, 69.3822
2.19222, -1, -29.2389, 2.75297, 20.024, -158.144, -93.4674, 68.9376
2.2002, -1, -29.4017, 2.70934, 20.0348, -158.195, -93.4499, 68.6409
2.20896, -1, -29.5645, 2.66571, 20.0456, -158.246, -93.4321, 68.344
2.21626, -1, -29.7274, 2.62197, 20.0564, -158.297, -93.414, 68.0474
2.22424, -1, -29.8089, 2.57822, 20.0672, -158.348, -93.3957, 67.7507
2.23306, -1, -29.9721, 2.55637, 20.0725, -158.399, -93.3774, 67.454
2.23872, -1, -30.1355, 2.51258, 20.0834, -158.424, -93.3683, 67.3054
2.24764, -1, -30.2994, 2.46864, 20.0944, -158.475, -93.3504, 67.0083
2.25567, -1, -30.4637, 2.42473, 20.1053, -158.526, -93.3327, 66.7115
2.26267, -1, -30.6285, 2.38078, 20.1161, -158.577, -93.3149, 66.4143
2.27164, -1, -30.7934, 2.3368, 20.1268, -158.628, -93.2972, 66.1169
2.27964, -1, -30.9584, 2.29287, 20.1377, -158.679, -93.2793, 65.8196
2.28666, -1, -31.1234, 2.24886, 20.1485, -158.73, -93.261, 65.5225
2.29567, -1, -31.2883, 2.20487, 20.1593, -158.781, -93.2424, 65.2252
2.30364, -1, -31.4531, 2.16104, 20.1701, -158.832, -93.2241, 64.9274
2.31064, -1, -31.6177, 2.11708, 20.1808, -158.883, -93.206, 64.6298
2.31963, -1, -31.7822, 2.07311, 20.1917, -158.935, -93.1882, 64.332
2.32764, -1, -31.9462, 2.02927, 20.2026, -158.986, -93.1706, 64.0341
2.33571, -1, -32.1101, 1.9853, 20.2136, -159.037, -93.153, 63.7361
2.34363, -1, -32.2738, 1.94137, 20.2246, -159.088, -93.1352, 63.4383
2.35165, -1, -32.4373, 1.89741, 20.2354, -159.139, -93.117, 63.1404
2.36123, -1, -32.6011, 1.8533, 20.2463, -159.19, -93.0985, 62.6931
2.36767, -1, -32.765, 1.80927, 20.2572, -159.242, -93.0803, 62.544
2.37665, -1, -32.929, 1.7652, 20.2681, -159.293, -93.0622, 62.2458
2.3837, -1, -33.0933, 1.721, 20.279, -159.344, -93.0443, 61.9473
2.39166, -1, -33.2581, 1.6768, 20.2899, -159.395, -93.0265, 61.6487
2.39963, -1, -33.4232, 1.63264, 20.3007, -159.446, -93.0086, 61.3501
2.4077, -1, -33.5888, 1.58841, 20.3117, -159.498, -92.9905, 61.0517
2.41564, -1, -33.7545, 1.54422, 20.3227, -159.549, -92.9721, 60.7529
2.42365, -1, -33.9201, 1.50004, 20.3336, -159.6, -92.9534, 60.4537
2.43173, -1, -34.086, 1.45587, 20.3444, -159.652, -92.9349, 60.1548
2.43963, -1, -34.2519, 1.41179, 20.3553, -159.703, -92.9167, 59.8557
2.44763, -1, -34.4178, 1.36764, 20.3662, -159.754, -92.8987, 59.5562
2.45577, -1, -34.5836, 1.3235, 20.3771, -159.806, -92.8809, 59.2567
2.46365, -1, -34.749, 1.27939, 20.388, -159.857, -92.8632, 58.9575
2.47169, -1, -34.914, 1.23523, 20.3989, -159.908, -92.8452, 58.6581
2.4797, -1, -35.0789, 1.19111, 20.4097, -159.96, -92.8269, 58.3584
2.48765, -1, -35.2435, 1.14686, 20.4208, -160.011, -92.8083, 58.0587
2.49564, -1, -35.4079, 1.10263, 20.4318, -160.063, -92.7899, 57.7591
2.5037, -1, -35.5715, 1.05866, 20.443, -160.114, -92.7717, 57.4592
2.51165, -1, -35.7329, 1.01508, 20.4543, -160.165, -92.7537, 57.1597
2.51963, -1, -35.891, 0.972236, 20.4658, -160.216, -92.7359, 56.8624
2.5277, -1, -36.0447, 0.930759, 20.4777, -160.267, -92.7184, 56.5693
2.53568, -1, -36.1925, 0.891123, 20.4896, -160.315, -92.7011, 56.2834
2.54363, -1, -36.3318, 0.853964, 20.5015, -160.362, -92.6842, 56.0101
2.55171, -1, -36.4607, 0.819865, 20.5127, -160.405, -92.6682, 55.756
2.5597, -1, -36.5777, 0.788915, 20.5226, -160.444, -92.6537, 55.5267
2.5677, -1, -36.6812, 0.761552, 20.5311, -160.477, -92.6414, 55.3279
2.5758, -1, -36.7699, 0.738059, 20.5376, -160.505, -92.6313, 55.1631
2.58373, -1, -36.8442, 0.718273, 20.5418, -160.528, -92.6235, 55.0335
2.59186, -1, -36.9053, 0.702178, 20.544, -160.544, -92.6178, 54.9385
2.59982, -1, -36.9533, 0.689535, 20.5448, -160.556, -92.614, 54.8718
2.6077, -1, -36.9894, 0.680034, 20.5448, -160.563, -92.6116, 54.8288
2.61564, -1, -37.0152, 0.67323, 20.5443, -160.568, -92.6103, 54.8034
2.62392, -1, -37.0322, 0.66883, 20.5438, -160.57, -92.6095, 54.7895
2.63201, -1, -37.0424, 0.666344, 20.5435, -160.572, -92.6092, 54.7827
2.63971, 2, -37.0474, 0.665148, 20.5433, -160.572, -92.609, 54.7795
2.64783, 2, -37.0486, 0.664615, 20.5432, -160.573, -92.6089, 54.7781
2.65626, 2, -37.0483, 0.664396, 20.5432, -160.573, -92.6089, 54.7775
2.66391, 2, -37.0479, 0.664285, 20.5432, -160.573, -92.6089, 54.7772
2.67223, 2, -37.048, 0.664239, 20.5432, -160.573, -92.6089, 54.7771
2.6804, 2, -37.0487, 0.664205, 20.5431, -160.573, -92.609, 54.7771
2.68806, 2, -37.0497, 0.664123, 20.543, -160.573, -92.609, 54.7772
2.69465, 2, -37.0502, 0.664067, 20.543, -160.573, -92.609, 54.7773
2.70463, 2, -37.0522, 0.663731, 20.5427, -160.573, -92.609, 54.7776
2.71217, 2, -37.0535, 0.663482, 20.5425, -160.573, -92.6091, 54.7777
2.72044, 2, -37.0545, 0.663246, 20.5423, -160.573, -92.6092, 54.7779
2.72852, 2, -37.0553, 0.663082, 20.5421, -160.573, -92.6092, 54.7781
2.73617, 2, -37.0554, 0.663038, 20.542, -160.573, -92.6092, 54.7783
2.74424, 2, -37.0554, 0.662998, 20.5419, -160.573, -92.6092, 54.7784
2.75162, 2, -37.0549, 0.663012, 20.5418, -160.573, -92.6092, 54.7787
2.75965, 2, -37.054, 0.663073, 20.5417, -160.573, -92.6093, 54.7789
2.76769, 2, -37.053, 0.663144, 20.5417, -160.573, -92.6093, 54.7791
2.77564, 2, -37.0513, 0.663237, 20.5416, -160.573, -92.6093, 54.7794
2.78362, 2, -37.0499, 0.663352, 20.5415, -160.573, -92.6093, 54.7796
2.79167, 2, -37.0487, 0.663394, 20.5415, -160.573, -92.6094, 54.7797
2.79965, 2, -37.048, 0.663421, 20.5415, -160.573, -92.6094, 54.7798
2.80762, 2, -37.0477, 0.6634, 20.5415, -160.573, -92.6094, 54.7798
2.81568, 2, -37.0477, 0.663363, 20.5414, -160.573, -92.6094, 54.7799
2.82365, 2, -37.0479, 0.663289, 20.5414, -160.573, -92.6094, 54.7799
2.83162, 2, -37.0481, 0.663224, 20.5414, -160.573, -92.6095, 54.78
2.83969, 2, -37.0486, 0.663188, 20.5413, -160.573, -92.6094, 54.78
2.84762, 2, -37.0494, 0.663153, 20.5413, -160.573, -92.6095, 54.7801
2.85562, 2, -37.0503, 0.663138, 20.5413, -160.573, -92.6095, 54.7801
2.86368, 2, -37.051, 0.663138, 20.5413, -160.573, -92.6095, 54.7801
2.87327, 2, -37.0516, 0.663174, 20.5413, -160.573, -92.6095, 54.7803
2.87963, 2, -37.0518, 0.66322, 20.5413, -160.573, -92.6095, 54.7803
2.88769, 2, -37.0518, 0.663254, 20.5413, -160.573, -92.6095, 54.7803
2.89575, 2, -37.0518, 0.66327, 20.5413, -160.573, -92.6095, 54.7804
2.90465, 2, -37.0514, 0.663277, 20.5413, -160.573, -92.6095, 54.7804
2.91168, 2, -37.051, 0.66328, 20.5413, -160.573, -92.6095, 54.7804
2.91963, 2, -37.0507, 0.663269, 20.5413, -160.573, -92.6096, 54.7805
2.92763, 2, -37.0504, 0.663246, 20.5413, -160.573, -92.6096, 54.7806
2.9357, 2, -37.0502, 0.663205, 20.5413, -160.573, -92.6096, 54.7806
2.94362, 2, -37.0501, 0.663166, 20.5413, -160.573, -92.6096, 54.7806
2.95162, 2, -37.0501, 0.663144, 20.5412, -160.573, -92.6096, 54.7807
2.9597, 2, -37.0501, 0.663153, 20.5412, -160.573, -92.6096, 54.7807
2.96764, 2, -37.0501, 0.663173, 20.5412, -160.573, -92.6096, 54.7808
2.97562, 2, -37.0502, 0.66319, 20.5412, -160.572, -92.6096, 54.7808
2.98368, 2, -37.0504, 0.663205, 20.5412, -160.573, -92.6096, 54.7809
2.99162, 2, -37.0507, 0.663215, 20.5412, -160.573, -92.6097, 54.7809
2.99962, 2, -37.0508, 0.66324, 20.5412, -160.572, -92.6097, 54.781
3.00768, 2, -37.0509, 0.663251, 20.5412, -160.572, -92.6097, 54.7811
3.01562, 2, -37.0509, 0.663263, 20.5412, -160.572, -92.6096, 54.7811
3.02362, 2, -37.0509, 0.663254, 20.5412, -160.572, -92.6097, 54.7811
3.03168, 2, -37.0508, 0.663258, 20.5412, -160.572, -92.6098, 54.7813
3.03967, 2, -37.0508, 0.663247, 20.5411, -160.572, -92.6098, 54.7813
3.04762, 2, -37.0507, 0.663213, 20.5411, -160.572, -92.6097, 54.7813
3.05568, 2, -37.0507, 0.663219, 20.5411, -160.572, -92.6098, 54.7813
3.06367, 2, -37.0507, 0.663218, 20.5411, -160.572, -92.6098, 54.7813
3.0717, 2, -37.0506, 0.663221, 20.5411, -160.572, -92.6098, 54.7814
3.07979, 2, -37.0506, 0.663212, 20.5411, -160.572, -92.6098, 54.7815
3.08772, 2, -37.0506, 0.663226, 20.5411, -160.572, -92.6098, 54.7815
3.09574, 2, -37.0506, 0.663244, 20.5411, -160.572, -92.6098, 54.7815
3.10381, 2, -37.0506, 0.663253, 20.5411, -160.572, -92.6098, 54.7815
3.11168, 2, -37.0506, 0.663264, 20.5411, -160.572, -92.6098, 54.7815
3.11963, 2, -37.0506, 0.663267, 20.5411, -160.572, -92.6098, 54.7816
3.1277, 2, -37.0506, 0.663258, 20.5411, -160.572, -92.6098, 54.7816
3.13568, 2, -37.0506, 0.663252, 20.5411, -160.572, -92.6098, 54.7816
3.1437, 2, -37.0506, 0.663257, 20.5411, -160.572, -92.6098, 54.7817
3.15181, 2, -37.0506, 0.663235, 20.541, -160.572, -92.6098, 54.7817
3.16015, 2, -37.0506, 0.663218, 20.541, -160.572, -92.6098, 54.7817
3.16791, 2, -37.0506, 0.663221, 20.541, -160.572, -92.6098, 54.7818
3.176, 2, -37.0505, 0.66323, 20.541, -160.572, -92.6098, 54.7818
3.18426, 2, -37.0505, 0.663242, 20.541, -160.572, -92.6098, 54.7819
3.19208, 2, -37.0505, 0.663244, 20.541, -160.572, -92.6098, 54.7819
3.19862, 2, -37.0506, 0.663242, 20.541, -160.572, -92.6099, 54.7819
3.20861, 2, -37.0506, 0.663259, 20.541, -160.572, -92.6099, 54.782
3.21616, 2, -37.0505, 0.663272, 20.541, -160.572, -92.6099, 54.782
3.22423, 2, -37.0505, 0.663278, 20.541, -160.572, -92.6098, 54.7821
3.23247, 2, -37.0505, 0.663281, 20.541, -160.572, -92.6098, 54.7821
3.24014, 2, -37.0505, 0.663281, 20.541, -160.572, -92.6098, 54.7821
3.24765, 2, -37.0505, 0.663263, 20.541, -160.572, -92.6099, 54.7821
3.25648, 2, -37.0504, 0.663249, 20.541, -160.572, -92.6098, 54.7821
3.26368, 2, -37.0505, 0.663243, 20.541, -160.572, -92.6098, 54.7821
3.27169, 2, -37.0504, 0.663229, 20.5409, -160.572, -92.6099, 54.7821
3.27961, 2, -37.0504, 0.663215, 20.5409, -160.572, -92.6099, 54.7822
3.28761, 2, -37.0504, 0.66322, 20.5409, -160.572, -92.6099, 54.7822
3.29566, 2, -37.0504, 0.66323, 20.5409, -160.572, -92.6099, 54.7822
3.30362, 2, -37.0504, 0.663241, 20.5409, -160.572, -92.6099, 54.7823
3.3116, 2, -37.0504, 0.663264, 20.5409, -160.572, -92.6099, 54.7823
3.31966, 2, -37.0504, 0.663274, 20.5409, -160.572, -92.6099, 54.7824
3.32759, 2, -37.0504, 0.663272, 20.5409, -160.572, -92.6099, 54.7823
3.33561, 2, -37.0504, 0.663273, 20.5409, -160.572, -92.6099, 54.7824
3.34367, 2, -37.0504, 0.663278, 20.5409, -160.572, -92.6099, 54.7824
3.3516, 2, -37.0504, 0.663281, 20.5409, -160.572, -92.6099, 54.7823
3.35961, 2, -37.0504, 0.663262, 20.5409, -160.572, -92.6099, 54.7823
3.36766, 2, -37.0503, 0.663249, 20.5409, -160.572, -92.6099, 54.7824
3.37748, 2, -37.0503, 0.663248, 20.5408, -160.572, -92.6099, 54.7824
3.3836, 2, -37.0503, 0.663252, 20.5408, -160.572, -92.6099, 54.7825
3.39166, 2, -37.0503, 0.663264, 20.5408, -160.572, -92.61, 54.7825
3.39967, 2, -37.0503, 0.663255, 20.5408, -160.572, -92.61, 54.7825
3.4076, 2, -37.0503, 0.663245, 20.5408, -160.572, -92.61, 54.7825
3.41567, 2, -37.0503, 0.663261, 20.5408, -160.572, -92.61, 54.7825
3.4236, 2, -37.0503, 0.663253, 20.5408, -160.572, -92.61, 54.7825
3.43162, 2, -37.0503, 0.663264, 20.5408, -160.572, -92.61, 54.7825
3.43969, 2, -37.0502, 0.663274, 20.5408, -160.572, -92.6099, 54.7825
3.4476, 2, -37.0502, 0.663279, 20.5408, -160.572, -92.61, 54.7825
3.4556, 2, -37.0502, 0.663281, 20.5408, -160.572, -92.61, 54.7825
3.46376, 2, -37.0502, 0.663282, 20.5408, -160.572, -92.61, 54.7825
3.47162, 2, -37.0502, 0.663275, 20.5408, -160.572, -92.61, 54.7826
3.47961, 2, -37.0502, 0.663267, 20.5408, -160.572, -92.61, 54.7826
3.48766, 2, -37.0501, 0.663251, 20.5407, -160.572, -92.61, 54.7826
3.4956, 2, -37.0501, 0.663251, 20.5407, -160.572, -92.6101, 54.7826
3.5036, 2, -37.0501, 0.663261, 20.5407, -160.572, -92.6101, 54.7826
3.51166, 2, -37.0501, 0.663261, 20.5407, -160.572, -92.6101, 54.7826
3.5196, 2, -37.0501, 0.66326, 20.5407, -160.572, -92.6101, 54.7826
3.5276, 2, -37.0501, 0.663268, 20.5407, -160.572, -92.6101, 54.7827
3.53567, 2, -37.0501, 0.663264, 20.5407, -160.572, -92.6101, 54.7827
3.54363, 2, -37.05, 0.663274, 20.5407, -160.572, -92.6101, 54.7827
3.5516, 2, -37.05, 0.663279, 20.5407, -160.572, -92.6101, 54.7827
3.5597, 2, -37.05, 0.663281, 20.5407, -160.572, -92.6101, 54.7827
3.56765, 2, -37.05, 0.6633, 20.5407, -160.572, -92.6101, 54.7828
3.57569, 2, -37.05, 0.663291, 20.5407, -160.572, -92.6101, 54.7828
3.58375, 2, -37.05, 0.663287, 20.5407, -160.572, -92.6101, 54.7828
3.5917, 2, -37.0499, 0.663277, 20.5407, -160.572, -92.6101, 54.7828
3.59972, 2, -37.0499, 0.663275, 20.5407, -160.572, -92.6101, 54.7828
3.60779, 2, -37.0499, 0.663272, 20.5407, -160.572, -92.6101, 54.7828
3.61561, 2, -37.0499, 0.663266, 20.5406, -160.572, -92.6101, 54.7828
3.6236, 2, -37.0499, 0.66327, 20.5406, -160.572, -92.6101, 54.7828
3.63169, 2, -37.0499, 0.663295, 20.5406, -160.572, -92.6101, 54.7828
3.64014, 2, -37.0499, 0.663289, 20.5406, -160.572, -92.6101, 54.7828
3.6477, 2, -37.0498, 0.663286, 20.5406, -160.572, -92.6101, 54.7828
3.65581, 2, -37.0498, 0.663313, 20.5406, -160.572, -92.6101, 54.7828
3.66387, 2, -37.0498, 0.663304, 20.5406, -160.572, -92.6101, 54.7828
3.67224, 2, -37.0498, 0.663311, 20.5406, -160.572, -92.6101, 54.7829
3.68002, 2, -37.0498, 0.663314, 20.5406, -160.572, -92.6101, 54.7828
3.68815, 2, -37.0497, 0.663297, 20.5406, -160.572, -92.6101, 54.7829
3.69608, 2, -37.0498, 0.663308, 20.5406, -160.572, -92.6101, 54.7829
3.70417, 4, -37.0497, 0.663294, 20.5406, -160.572, -92.6101, 54.7829
3.71222, 4, -37.0497, 0.663299, 20.5406, -160.572, -92.6101, 54.7829
3.72038, 4, -37.0497, 0.663316, 20.5405, -160.571, -92.6101, 54.7829
3.7282, 4, -37.0497, 0.663317, 20.5406, -160.571, -92.6101, 54.7829
3.73644, 4, -37.0496, 0.663317, 20.5405, -160.571, -92.6101, 54.7829
3.74448, 4, -37.0496, 0.66334, 20.5405, -160.571, -92.6101, 54.7829
3.75163, 4, -37.0496, 0.663351, 20.5405, -160.571, -92.6101, 54.7829
3.75959, 4, -37.0496, 0.663356, 20.5405, -160.571, -92.6101, 54.7829
3.7676, 4, -37.0496, 0.663335, 20.5405, -160.571, -92.6101, 54.7829
3.77565, 4, -37.0495, 0.663343, 20.5405, -160.571, -92.6101, 54.7829
3.78358, 4, -37.0495, 0.663336, 20.5405, -160.571, -92.6101, 54.7829
3.79159, 4, -37.0495, 0.663337, 20.5405, -160.571, -92.6101, 54.7829
3.79984, 4, -37.0494, 0.663333, 20.5405, -160.571, -92.6102, 54.7829
3.82625, 4, -37.0494, 0.663334, 20.5404, -160.571, -92.6101, 54.783
3.82753, 4, -37.0494, 0.663334, 20.5404, -160.571, -92.6101, 54.783
3.82975, 4, -37.0493, 0.66334, 20.5404, -160.571, -92.6101, 54.783
3.83165, 4, -37.0493, 0.66334, 20.5404, -160.571, -92.6101, 54.783
3.83959, 4, -37.0493, 0.663335, 20.5404, -160.571, -92.6102, 54.7829
3.84758, 4, -37.0493, 0.663336, 20.5404, -160.571, -92.6101, 54.7829
3.85559, 4, -37.049, 0.663307, 20.5404, -160.571, -92.6102, 54.7829
3.8636, 4, -37.0475, 0.662925, 20.5405, -160.571, -92.6102, 54.7829
3.8726, 4, -37.0434, 0.661272, 20.541, -160.571, -92.6102, 54.7829
3.87962, 4, -37.0363, 0.657652, 20.5424, -160.571, -92.6102, 54.7829
3.88858, 4, -37.027, 0.652139, 20.5455, -160.571, -92.6102, 54.7829
3.89565, 4, -37.0161, 0.644832, 20.5512, -160.57, -92.6102, 54.7829
3.90359, 4, -37.0028, 0.635264, 20.56, -160.568, -92.6102, 54.7829
3.9126, 5, -36.987, 0.623174, 20.5722, -160.566, -92.6101, 54.7828
3.91958, 5, -36.9696, 0.608993, 20.5881, -160.562, -92.61, 54.7827
3.92758, 5, -36.9511, 0.593294, 20.607, -160.558, -92.6098, 54.7827
3.93566, 5, -36.9307, 0.57559, 20.6281, -160.554, -92.6096, 54.7826
3.9436, 5, -36.9074, 0.555276, 20.6511, -160.549, -92.6093, 54.7825
3.9516, 5, -36.8808, 0.533172, 20.6752, -160.544, -92.609, 54.7824
3.95965, 5, -36.852, 0.51008, 20.6998, -160.539, -92.6086, 54.7821
3.9676, 5, -36.8222, 0.486191, 20.7247, -160.533, -92.6082, 54.782
3.97561, 5, -36.7916, 0.462123, 20.7497, -160.528, -92.6077, 54.7818
3.98364, 5, -36.7608, 0.437933, 20.7749, -160.522, -92.6073, 54.7817
3.99158, 5, -36.7298, 0.413576, 20.7999, -160.516, -92.6067, 54.7815
3.99958, 5, -36.6988, 0.38924, 20.8249, -160.511, -92.6061, 54.7812
4.00766, 5, -36.6681, 0.364849, 20.85, -160.505, -92.6055, 54.781
4.01559, 5, -36.6376, 0.340666, 20.8754, -160.499, -92.6048, 54.7807
4.02358, 5, -36.607, 0.316546, 20.9005, -160.494, -92.6041, 54.7805
4.03167, 5, -36.5762, 0.292504, 20.9257, -160.488, -92.6034, 54.7803
4.03958, 5, -36.5453, 0.268563, 20.9509, -160.483, -92.6027, 54.7802
4.04766, 5, -36.5145, 0.244458, 20.9761, -160.477, -92.6019, 54.7801
4.05562, 5, -36.484, 0.220493, 21.0013, -160.472, -92.6013, 54.78
4.06361, 5, -36.4537, 0.196505, 21.0264, -160.467, -92.6004, 54.7799
4.07176, 5, -36.4234, 0.172358, 21.0515, -160.462, -92.5996, 54.7799
4.07967, 5, -36.3928, 0.148312, 21.0766, -160.456, -92.5989, 54.7797
4.08768, 5, -36.362, 0.124065, 21.1018, -160.451, -92.5981, 54.7796
4.09576, 5, -36.331, 0.0998401, 21.1267, -160.446, -92.5974, 54.7794
4.10373, 5, -36.2997, 0.0757341, 21.1517, -160.441, -92.5966, 54.7792
4.1117, 5, -36.2685, 0.0514877, 21.1766, -160.436, -92.5959, 54.779
4.11976, 5, -36.2371, 0.0273637, 21.2017, -160.431, -92.5951, 54.7787
4.12759, 5, -36.2059, 0.00324048, 21.2267, -160.426, -92.5943, 54.7783
4.13562, 5, -36.1748, -0.0208529, 21.2516, -160.42, -92.5936, 54.778
4.14374, 5, -36.1436, -0.0447385, 21.2766, -160.415, -92.5927, 54.7776
4.15171, 5, -36.1125, -0.0686633, 21.3015, -160.41, -92.592, 54.7772
4.15978, 5, -36.0811, -0.0924558, 21.3266, -160.404, -92.5913, 54.7768
4.16821, 5, -36.0499, -0.116297, 21.3514, -160.399, -92.5906, 54.7764
4.17592, 5, -36.019, -0.140211, 21.3762, -160.393, -92.5898, 54.7759
4.18404, 5, -35.988, -0.163987, 21.401, -160.388, -92.5891, 54.7754
4.19058, 5, -35.9726, -0.175938, 21.4135, -160.385, -92.5887, 54.7752
4.20009, 5, -35.926, -0.211769, 21.4508, -160.376, -92.5876, 54.7746
4.2082, 5, -35.8948, -0.2356, 21.4755, -160.37, -92.5869, 54.7742
4.2162, 5, -35.8636, -0.259573, 21.5002, -160.364, -92.5862, 54.7738
4.22415, 5, -35.8322, -0.283377, 21.5249, -160.358, -92.5854, 54.7734
4.23296, 5, -35.8007, -0.307218, 21.5497, -160.352, -92.5847, 54.7729
4.24017, 5, -35.785, -0.319174, 21.562, -160.35, -92.584, 54.7726
4.24757, 5, -35.7533, -0.342957, 21.5866, -160.344, -92.5836, 54.7725
4.25562, 5, -35.7219, -0.366729, 21.6113, -160.338, -92.5828, 54.7722
4.26357, 5, -35.6906, -0.390516, 21.6359, -160.333, -92.5822, 54.7719
4.27158, 5, -35.6592, -0.414116, 21.6606, -160.327, -92.5814, 54.7716
4.2797, 5, -35.6277, -0.437792, 21.685, -160.322, -92.5807, 54.7714
4.28658, 5, -35.5961, -0.46138, 21.7094, -160.316, -92.58, 54.7712
4.29557, 5, -35.5647, -0.485097, 21.7339, -160.311, -92.5793, 54.771
4.30362, 5, -35.5335, -0.508787, 21.7584, -160.305, -92.5786, 54.7709
4.31158, 5, -35.5022, -0.532351, 21.7828, -160.3, -92.5779, 54.7708
4.31956, 5, -35.4708, -0.556011, 21.8071, -160.295, -92.5772, 54.7707
4.32762, 5, -35.4393, -0.579553, 21.8314, -160.289, -92.5764, 54.7706
4.33558, 5, -35.4078, -0.603112, 21.8557, -160.284, -92.5757, 54.7705
4.34358, 5, -35.3762, -0.626792, 21.88, -160.278, -92.575, 54.7705
4.35163, 5, -35.3445, -0.650282, 21.9042, -160.273, -92.5743, 54.7705
4.35969, 5, -35.3127, -0.673816, 21.9284, -160.267, -92.5736, 54.7704
4.36758, 5, -35.2809, -0.697367, 21.9526, -160.262, -92.5729, 54.7704
4.37558, 5, -35.2492, -0.720798, 21.9769, -160.256, -92.5722, 54.7704
4.38541, 5, -35.2174, -0.744302, 22.0011, -160.25, -92.5711, 54.7705
4.39238, 5, -35.1856, -0.767607, 22.025, -160.244, -92.5708, 54.7705
4.39956, 5, -35.1538, -0.790843, 22.0491, -160.238, -92.57, 54.7705
4.40836, 5, -35.122, -0.814149, 22.0731, -160.232, -92.5693, 54.7705
4.41558, 5, -35.0903, -0.837336, 22.0972, -160.226, -92.5686, 54.7705
4.42363, 5, -35.0587, -0.860705, 22.1212, -160.22, -92.5678, 54.7706
4.43258, 5, -35.027, -0.884072, 22.145, -160.214, -92.5671, 54.7706
4.4403, 5, -34.9953, -0.907262, 22.1689, -160.208, -92.5665, 54.7705
4.44768, 5, -34.9634, -0.930597, 22.1927, -160.202, -92.5658, 54.7706
4.45804, 5, -34.9158, -0.96542, 22.2285, -160.193, -92.5647, 54.7706
4.4636, 5, -34.8999, -0.977066, 22.2404, -160.19, -92.5643, 54.7706
4.47164, 5, -34.8681, -1.00039, 22.2641, -160.184, -92.5636, 54.7706
4.47959, 5, -34.8361, -1.02349, 22.2879, -160.179, -92.563, 54.7706
4.48756, 5, -34.804, -1.04656, 22.3116, -160.173, -92.5622, 54.7707
4.49563, 5, -34.772, -1.0697, 22.3354, -160.168, -92.5614, 54.7708
4.50356, 5, -34.74, -1.09271, 22.3589, -160.162, -92.5607, 54.7708
4.51157, 5, -34.708, -1.11584, 22.3825, -160.157, -92.56, 54.7709
4.51963, 5, -34.6759, -1.13888, 22.4061, -160.151, -92.5593, 54.771
4.52764, 5, -34.6438, -1.16185, 22.4297, -160.146, -92.5585, 54.771
4.53901, 5, -34.6118, -1.18491, 22.4532, -160.14, -92.5575, 54.7711
4.54363, 5, -34.5797, -1.20784, 22.4766, -160.135, -92.5571, 54.7712
4.55159, 5, -34.5477, -1.23089, 22.5, -160.129, -92.5564, 54.7715
4.55956, 5, -34.5155, -1.25393, 22.5234, -160.123, -92.5556, 54.7717
4.56762, 5, -34.4834, -1.2768, 22.5469, -160.117, -92.5549, 54.7719
4.57571, 5, -34.4513, -1.29975, 22.5701, -160.111, -92.5541, 54.7722
4.58365, 5, -34.4191, -1.3226, 22.5935, -160.105, -92.5534, 54.7727
4.59172, 5, -34.3869, -1.34539, 22.6168, -160.099, -92.5526, 54.7731
4.59967, 5, -34.3545, -1.36833, 22.6401, -160.093, -92.5519, 54.7737
4.60797, 5, -34.3222, -1.39107, 22.6635, -160.087, -92.5511, 54.7744
4.61644, 5, -34.2899, -1.41382, 22.6866, -160.08, -92.5503, 54.7752
4.62357, 5, -34.2576, -1.43662, 22.7098, -160.074, -92.5496, 54.7762
4.63164, 5, -34.2253, -1.45927, 22.7329, -160.068, -92.5489, 54.7772
4.63959, 5, -34.1928, -1.48203, 22.7561, -160.061, -92.5481, 54.7784
4.64769, 5, -34.1604, -1.50475, 22.7793, -160.055, -92.5473, 54.7797
4.65668, 5, -34.1281, -1.52733, 22.8023, -160.049, -92.5465, 54.781
4.66377, 5, -34.0957, -1.54999, 22.8254, -160.043, -92.5458, 54.7824
4.67188, 5, -34.0634, -1.57255, 22.8483, -160.037, -92.545, 54.7838
4.68076, 5, -34.0309, -1.59516, 22.8714, -160.031, -92.5442, 54.7854
4.68797, 5, -33.9985, -1.61786, 22.8944, -160.025, -92.5434, 54.7868
4.69603, 5, -33.9661, -1.64035, 22.9172, -160.02, -92.5427, 54.7883
4.70259, 5, -33.9499, -1.65158, 22.9287, -160.017, -92.5423, 54.7891
4.71206, 5, -33.9011, -1.68542, 22.9631, -160.008, -92.5412, 54.7916
4.72016, 5, -33.8684, -1.70777, 22.986, -160.002, -92.5404, 54.7932
4.72926, 5, -33.836, -1.7303, 23.0088, -159.996, -92.5395, 54.7948
4.73698, 5, -33.8035, -1.75276, 23.0314, -159.99, -92.5388, 54.7964
4.74418, 5, -33.7872, -1.76389, 23.0428, -159.984, -92.5379, 54.798
4.7529, 5, -33.7383, -1.79755, 23.0768, -159.978, -92.5371, 54.7998
4.75955, 5, -33.7218, -1.80875, 23.0882, -159.975, -92.5367, 54.8006
4.76762, 5, -33.6891, -1.83107, 23.1109, -159.969, -92.5359, 54.8024
4.77557, 5, -33.6566, -1.85351, 23.1334, -159.963, -92.5351, 54.804
4.78365, 5, -33.624, -1.87589, 23.156, -159.956, -92.5343, 54.8058
4.79155, 5, -33.5912, -1.89815, 23.1785, -159.95, -92.5335, 54.8075
4.79955, 5, -33.5585, -1.92051, 23.201, -159.944, -92.5328, 54.8092
4.80962, 5, -33.5094, -1.95391, 23.2347, -159.934, -92.5315, 54.8116
4.81557, 5, -33.4931, -1.96513, 23.2459, -159.93, -92.5311, 54.8126
4.82358, 5, -33.4605, -1.98762, 23.2684, -159.924, -92.5302, 54.8143
4.8339, 5, -33.4113, -2.02125, 23.3022, -159.914, -92.5289, 54.8167
4.83961, 5, -33.395, -2.03257, 23.3135, -159.911, -92.5284, 54.8175
4.84757, 5, -33.3624, -2.05525, 23.3361, -159.904, -92.5273, 54.819
4.85555, 5, -33.3299, -2.07794, 23.3587, -159.898, -92.526, 54.8201
4.86363, 5, -33.2975, -2.101, 23.3816, -159.891, -92.5246, 54.8211
4.87157, 6, -33.2649, -2.12414, 23.4046, -159.885, -92.5229, 54.8218
4.88056, 6, -33.2325, -2.14735, 23.4279, -159.878, -92.5208, 54.8222
4.88763, 6, -33.2003, -2.17101, 23.4514, -159.871, -92.5185, 54.8225
4.89659, 6, -33.1682, -2.19477, 23.4749, -159.864, -92.5159, 54.8225
4.90372, 6, -33.1362, -2.2189, 23.4987, -159.857, -92.5131, 54.8226
4.91357, 6, -33.1042, -2.24337, 23.5227, -159.845, -92.5083, 54.8224
4.91954, 6, -33.0724, -2.26795, 23.547, -159.841, -92.5065, 54.8223
4.92757, 6, -33.0408, -2.29293, 23.5713, -159.833, -92.5029, 54.8219
4.93561, 6, -33.0093, -2.31802, 23.5959, -159.824, -92.499, 54.8213
4.94357, 6, -32.9779, -2.34354, 23.6208, -159.816, -92.4949, 54.8204
4.9516, 6, -32.9465, -2.36935, 23.6459, -159.806, -92.4905, 54.8193
4.95961, 7, -32.9152, -2.39526, 23.6712, -159.797, -92.4858, 54.8181
4.96757, 7, -32.8842, -2.42156, 23.6965, -159.787, -92.481, 54.8167
4.97555, 7, -32.8533, -2.44803, 23.7221, -159.777, -92.4759, 54.8147
4.98364, 7, -32.8224, -2.47492, 23.7479, -159.767, -92.4705, 54.8118
4.99154, 7, -32.7916, -2.502, 23.7741, -159.757, -92.4649, 54.8081
4.9997, 7, -32.7608, -2.5293, 23.8002, -159.747, -92.4591, 54.8038
5.00761, 7, -32.7304, -2.557, 23.8266, -159.737, -92.453, 54.799
5.01555, 7, -32.7, -2.58492, 23.8533, -159.726, -92.4466, 54.7937
5.02356, 7, -32.6698, -2.6132, 23.8802, -159.716, -92.44, 54.7879
5.0316, 7, -32.6395, -2.64166, 23.9072, -159.705, -92.4331, 54.7818
5.03964, 7, -32.6094, -2.67037, 23.9344, -159.694, -92.4258, 54.7752
5.04777, 8, -32.5795, -2.69942, 23.9619, -159.683, -92.4183, 54.7682
5.05561, 8, -32.5496, -2.72887, 23.9897, -159.671, -92.4103, 54.7608
5.06361, 8, -32.52, -2.75849, 24.0175, -159.659, -92.4019, 54.7531
5.07203, 8, -32.4903, -2.78839, 24.0455, -159.647, -92.393, 54.7449
5.08049, 8, -32.4608, -2.81849, 24.0737, -159.634, -92.3838, 54.7365
5.08794, 8, -32.4314, -2.849, 24.1023, -159.622, -92.3741, 54.7276
5.0975, 8, -32.4021, -2.87965, 24.131, -159.609, -92.3642, 54.7184
5.10365, 8, -32.3729, -2.91063, 24.1598, -159.597, -92.3541, 54.7087
5.11173, 8, -32.3439, -2.94187, 24.1889, -159.584, -92.3438, 54.6987
5.11971, 8, -32.3148, -2.97344, 24.2183, -159.571, -92.3335, 54.6881
5.12756, 8, -32.286, -3.0052, 24.2477, -159.558, -92.3229, 54.6772
5.13564, 8, -32.2574, -3.0372, 24.2774, -159.545, -92.3123, 54.6659
5.14358, 9, -32.2288, -3.06949, 24.3074, -159.531, -92.3015, 54.6542
5.15161, 9, -32.2003, -3.10211, 24.3376, -159.517, -92.2905, 54.6423
5.15979, 9, -32.1718, -3.13494, 24.3678, -159.502, -92.2792, 54.6302
5.16773, 9, -32.1434, -3.16812, 24.3982, -159.487, -92.2674, 54.6179
5.17676, 9, -32.1154, -3.20157, 24.429, -159.473, -92.2552, 54.6057
5.184, 9, -32.0874, -3.23533, 24.4598, -159.458, -92.2424, 54.5931
5.19198, 9, -32.0595, -3.26938, 24.4908, -159.443, -92.2292, 54.5805
5.20081, 9, -32.0317, -3.30375, 24.5221, -159.429, -92.2156, 54.5675
5.2081, 9, -32.0038, -3.3384, 24.5536, -159.414, -92.202, 54.5541
5.21628, 9, -31.9761, -3.37327, 24.5853, -159.398, -92.1882, 54.5405
5.22507, 9, -31.9487, -3.40838, 24.6172, -159.383, -92.1744, 54.5264
5.23209, 10, -31.935, -3.4439, 24.6494, -159.366, -92.1604, 54.5118
5.24015, 10, -31.8941, -3.47971, 24.6816, -159.35, -92.1461, 54.4967
5.24884, 10, -31.8806, -3.49768, 24.6978, -159.341, -92.1389, 54.4811
5.25554, 10, -31.8535, -3.53383, 24.7304, -159.325, -92.1241, 54.4731
5.26358, 10, -31.8264, -3.57032, 24.7634, -159.309, -92.1088, 54.457
5.27419, 10, -31.7862, -3.6255, 24.8129, -159.284, -92.0847, 54.4325
5.27963, 10, -31.7729, -3.64404, 24.8295, -159.276, -92.0765, 54.4243
5.28765, 10, -31.7463, -3.68137, 24.863, -159.259, -92.06, 54.408
5.2955, 10, -31.7198, -3.71904, 24.8967, -159.242, -92.0435, 54.3914
5.30358, 10, -31.6934, -3.75683, 24.9305, -159.224, -92.0269, 54.3746
5.31151, 10, -31.6671, -3.79489, 24.9646, -159.206, -92.0103, 54.3575
5.3196, 10, -31.641, -3.83338, 24.999, -159.188, -91.9935, 54.3399
5.32755, 11, -31.6149, -3.87205, 25.0333, -159.17, -91.9763, 54.3219
5.33555, 11, -31.5888, -3.91096, 25.068, -159.152, -91.9585, 54.3034
5.34373, 11, -31.5628, -3.95025, 25.103, -159.134, -91.9401, 54.2841
5.35151, 11, -31.5368, -3.98987, 25.138, -159.116, -91.9214, 54.2647
5.35953, 11, -31.511, -4.02976, 25.1731, -159.097, -91.9027, 54.2452
5.36755, 11, -31.4855, -4.06996, 25.2087, -159.077, -91.884, 54.2256
5.37556, 11, -31.46, -4.11054, 25.2444, -159.057, -91.8651, 54.206
5.38516, 11, -31.4347, -4.15131, 25.2802, -159.038, -91.846, 54.1862
5.39153, 11, -31.4094, -4.19246, 25.3164, -159.019, -91.8263, 54.166
5.40054, 11, -31.384, -4.23394, 25.3527, -158.999, -91.8061, 54.1454
5.40761, 11, -31.3588, -4.27562, 25.3891, -158.98, -91.7853, 54.1242
5.41555, 12, -31.3339, -4.3176, 25.4259, -158.959, -91.7645, 54.1022
5.42359, 12, -31.3091, -4.35989, 25.4628, -158.939, -91.7437, 54.08
5.43153, 12, -31.2845, -4.40245, 25.4999, -158.918, -91.7229, 54.0578
5.43972, 12, -31.2602, -4.44531, 25.5372, -158.897, -91.7019, 54.0356
5.44875, 12, -31.2357, -4.48841, 25.5749, -158.876, -91.6805, 54.013
5.45559, 12, -31.2112, -4.53174, 25.6126, -158.855, -91.6584, 53.9904
5.46453, 12, -31.187, -4.57539, 25.6506, -158.834, -91.6359, 53.9674
5.47153, 12, -31.1629, -4.61933, 25.6887, -158.813, -91.6133, 53.9437
5.47954, 12, -31.1388, -4.66352, 25.7271, -158.79, -91.5909, 53.9195
5.48837, 12, -31.1148, -4.70801, 25.7657, -158.768, -91.5681, 53.8949
5.49553, 12, -31.091, -4.75283, 25.8045, -158.746, -91.5451, 53.8703
5.50376, 13, -31.0672, -4.798, 25.8433, -158.724, -91.5214, 53.8457
5.51233, 13, -31.0434, -4.84351, 25.8825, -158.703, -91.497, 53.821
5.51953, 13, -31.0198, -4.88926, 25.9219, -158.68, -91.4726, 53.796
5.52757, 13, -30.9963, -4.93544, 25.9615, -158.657, -91.4483, 53.7704
5.53653, 13, -30.9729, -4.9819, 26.0014, -158.634, -91.4239, 53.7442
5.54535, 13, -30.9496, -5.02865, 26.0413, -158.611, -91.3992, 53.7175
5.55154, 13, -30.9265, -5.07568, 26.0816, -158.588, -91.3739, 53.6909
5.56155, 13, -30.9034, -5.12295, 26.1221, -158.564, -91.348, 53.6642
5.56755, 13, -30.8805, -5.17053, 26.1627, -158.541, -91.3221, 53.6373
5.57565, 13, -30.8578, -5.21835, 26.2036, -158.517, -91.2962, 53.6098
5.58372, 13, -30.8351, -5.26633, 26.2447, -158.492, -91.2702, 53.582
5.59162, 13, -30.8125, -5.3147, 26.286, -158.468, -91.2437, 53.5535
5.59969, 14, -30.79, -5.36328, 26.3276, -158.444, -91.2164, 53.5247
5.60765, 14, -30.7676, -5.41208, 26.3692, -158.42, -91.1889, 53.4961
5.61566, 14, -30.7452, -5.46125, 26.4111, -158.395, -91.1615, 53.4676
5.62375, 14, -30.7231, -5.51077, 26.4533, -158.37, -91.1342, 53.4388
5.63153, 14, -30.701, -5.56064, 26.4955, -158.344, -91.1066, 53.4095
5.63983, 14, -30.679, -5.61079, 26.538, -158.319, -91.0782, 53.3794
5.64854, 14, -30.6571, -5.66126, 26.5808, -158.294, -91.0492, 53.3487
5.65954, 14, -30.6245, -5.73768, 26.6453, -158.256, -91.006, 53.3027
5.66368, 14, -30.6137, -5.76327, 26.6669, -158.243, -90.9915, 53.2874
5.67196, 14, -30.592, -5.81474, 26.7101, -158.216, -90.9624, 53.2566
5.68071, 14, -30.5705, -5.86647, 26.7537, -158.19, -90.9324, 53.2254
5.6883, 15, -30.5493, -5.91845, 26.7975, -158.163, -90.902, 53.1935
5.696, 15, -30.528, -5.97066, 26.8414, -158.137, -90.872, 53.161
5.70477, 15, -30.5069, -6.02305, 26.8857, -158.111, -90.842, 53.1286
5.71239, 15, -30.486, -6.07579, 26.9302, -158.083, -90.8116, 53.0963
5.72044, 15, -30.4651, -6.12875, 26.9748, -158.056, -90.7804, 53.0636
5.72899, 15, -30.4441, -6.18193, 27.0197, -158.028, -90.7489, 53.0303
5.73616, 15, -30.4233, -6.23545, 27.0646, -158.001, -90.7177, 52.9963
5.74414, 15, -30.413, -6.26236, 27.0872, -157.974, -90.6862, 52.9621
5.75206, 15, -30.3926, -6.3164, 27.1326, -157.96, -90.6703, 52.9451
5.75957, 15, -30.3721, -6.37077, 27.178, -157.931, -90.6377, 52.9109
5.76753, 15, -30.3517, -6.42557, 27.2237, -157.903, -90.6048, 52.8765
5.77549, 15, -30.3316, -6.48071, 27.2697, -157.874, -90.5722, 52.8415
5.78358, 16, -30.3115, -6.53618, 27.3159, -157.846, -90.5396, 52.8058
5.79156, 16, -30.2914, -6.59191, 27.3621, -157.818, -90.5064, 52.77
5.79952, 16, -30.2713, -6.648, 27.4088, -157.788, -90.4724, 52.7345
5.80769, 16, -30.2516, -6.70432, 27.4556, -157.759, -90.4385, 52.6988
5.81551, 16, -30.2319, -6.76078, 27.5026, -157.73, -90.4048, 52.6625
5.82356, 16, -30.2122, -6.81758, 27.5499, -157.701, -90.3705, 52.6256
5.83154, 16, -30.1926, -6.87448, 27.5974, -157.671, -90.3353, 52.5883
5.83951, 16, -30.1731, -6.93169, 27.6451, -157.641, -90.3, 52.5515
5.84753, 16, -30.1539, -6.98916, 27.693, -157.611, -90.2651, 52.5144
5.85559, 16, -30.1346, -7.04697, 27.7411, -157.581, -90.2299, 52.4768
5.86351, 16, -30.1153, -7.10509, 27.7894, -157.551, -90.1937, 52.4385
5.87149, 17, -30.0962, -7.16365, 27.8377, -157.52, -90.1575, 52.4002
5.87961, 17, -30.0773, -7.22258, 27.8864, -157.489, -90.1216, 52.3622
5.88859, 17, -30.0584, -7.28183, 27.9353, -157.458, -90.0852, 52.3241
5.89551, 17, -30.0397, -7.34144, 27.9844, -157.427, -90.0479, 52.2851
5.9037, 17, -30.021, -7.40136, 28.0336, -157.396, -90.0106, 52.2454
5.91234, 17, -30.0026, -7.46154, 28.083, -157.365, -89.9738, 52.2056
5.91951, 17, -29.9842, -7.52189, 28.1327, -157.332, -89.9365, 52.1662
5.92845, 17, -29.9658, -7.58248, 28.1826, -157.301, -89.8982, 52.1263
5.93551, 17, -29.9475, -7.64326, 28.2328, -157.269, -89.8601, 52.0858
5.94351, 17, -29.9294, -7.70426, 28.2832, -157.237, -89.8221, 52.0449
5.95234, 17, -29.9114, -7.76552, 28.3338, -157.204, -89.7835, 52.0043
5.95956, 17, -29.8934, -7.82704, 28.3845, -157.172, -89.744, 51.9634
5.96756, 18, -29.8755, -7.88891, 28.4355, -157.139, -89.705, 51.9219
5.97631, 18, -29.8578, -7.95113, 28.4865, -157.107, -89.6662, 51.8796
5.98465, 18, -29.8403, -8.01374, 28.5378, -157.073, -89.6264, 51.8375
5.99159, 18, -29.8226, -8.07667, 28.5893, -157.039, -89.5862, 51.7956
6.0005, 18, -29.8051, -8.13998, 28.6411, -157.006, -89.5466, 51.7532
6.0077, 18, -29.7877, -8.20355, 28.693, -156.973, -89.5065, 51.71
6.01552, 18, -29.7704, -8.26744, 28.7453, -156.939, -89.4653, 51.6665
6.02656, 18, -29.7446, -8.36356, 28.8239, -156.887, -89.4039, 51.602
6.03157, 18, -29.736, -8.39572, 28.8502, -156.87, -89.3836, 51.5803
6.03951, 18, -29.7191, -8.46018, 28.903, -156.836, -89.3422, 51.5364
6.04764, 18, -29.7022, -8.52491, 28.9561, -156.802, -89.3001, 51.4921
6.0555, 19, -29.6854, -8.58985, 29.0094, -156.766, -89.2585, 51.4481
6.06351, 19, -29.6686, -8.65515, 29.0628, -156.732, -89.2167, 51.4041
6.07161, 19, -29.6518, -8.7207, 29.1164, -156.697, -89.1739, 51.3596
6.07971, 19, -29.6352, -8.78663, 29.1701, -156.662, -89.1312, 51.3145
6.09265, 19, -29.6105, -8.88622, 29.2511, -156.608, -89.0675, 51.2476
6.09591, 19, -29.6023, -8.91956, 29.2783, -156.591, -89.0458, 51.2252
6.10361, 19, -29.586, -8.98643, 29.3327, -156.555, -89.0024, 51.1798
6.11205, 19, -29.5699, -9.05365, 29.3872, -156.519, -88.9593, 51.1336
6.11964, 19, -29.5539, -9.12112, 29.4421, -156.483, -88.9158, 51.0875
6.12769, 19, -29.538, -9.1888, 29.4971, -156.446, -88.8715, 51.0414
6.13632, 19, -29.5222, -9.25672, 29.5524, -156.41, -88.8275, 50.9946
6.14355, 20, -29.5063, -9.32481, 29.6079, -156.374, -88.7837, 50.9473
6.15158, 20, -29.4905, -9.39323, 29.6636, -156.336, -88.7389, 50.9002
6.1604, 20, -29.4749, -9.46189, 29.7195, -156.299, -88.6941, 50.8531
6.16765, 20, -29.4594, -9.53078, 29.7755, -156.262, -88.6496, 50.8051
6.17614, 20, -29.444, -9.60004, 29.8316, -156.225, -88.6041, 50.7566
6.18465, 20, -29.4287, -9.66961, 29.8879, -156.187, -88.5584, 50.7086
6.1919, 20, -29.4136, -9.73949, 29.9445, -156.149, -88.5133, 50.6605
6.19998, 20, -29.3986, -9.80966, 30.0014, -156.112, -88.4674, 50.6115
6.20808, 20, -29.3837, -9.88014, 30.0584, -156.073, -88.421, 50.5623
6.21604, 20, -29.3687, -9.9509, 30.1157, -156.034, -88.3749, 50.5135
6.22406, 20, -29.3537, -10.0218, 30.173, -155.996, -88.3283, 50.4645
6.23216, 20, -29.3389, -10.093, 30.2306, -155.958, -88.281, 50.4148
6.24012, 21, -29.3241, -10.1646, 30.2885, -155.919, -88.2342, 50.365
6.24814, 21, -29.3168, -10.2004, 30.3464, -155.879, -88.1873, 50.3155
6.25617, 21, -29.3021, -10.2721, 30.3755, -155.86, -88.1395, 50.2656
6.26354, 21, -29.2877, -10.3442, 30.4337, -155.821, -88.1159, 50.2404
6.27227, 21, -29.2732, -10.4165, 30.4921, -155.782, -88.0687, 50.1899
6.281, 21, -29.2589, -10.5253, 30.58, -155.722, -87.9962, 50.1149
6.28754, 21, -29.2448, -10.5617, 30.6094, -155.702, -87.9721, 50.0897
6.29669, 21, -29.2236, -10.6714, 30.6979, -155.642, -87.9001, 50.0131
6.3035, 21, -29.2166, -10.708, 30.7275, -155.622, -87.8756, 49.9877
6.31149, 21, -29.2025, -10.7816, 30.787, -155.582, -87.8266, 49.937
6.32091, 21, -29.1813, -10.8925, 30.8764, -155.521, -87.7536, 49.8597
6.32751, 22, -29.1744, -10.9296, 30.9063, -155.501, -87.7286, 49.8338
6.33554, 22, -29.1606, -11.0039, 30.9663, -155.459, -87.6789, 49.7825
6.34518, 22, -29.1399, -11.1159, 31.0564, -155.398, -87.605, 49.7051
6.35351, 22, -29.1331, -11.1533, 31.0866, -155.377, -87.5545, 49.6525
6.35957, 22, -29.1195, -11.2285, 31.147, -155.335, -87.5295, 49.6264
6.37013, 22, -29.0994, -11.3415, 31.2379, -155.273, -87.4544, 49.5485
6.37556, 22, -29.0928, -11.3793, 31.2684, -155.253, -87.4288, 49.5222
6.38586, 22, -29.0796, -11.4551, 31.3294, -155.21, -87.3782, 49.4689
6.39155, 22, -29.0665, -11.5312, 31.3906, -155.168, -87.3281, 49.4163
6.40157, 22, -29.0469, -11.6459, 31.4829, -155.105, -87.2512, 49.337
6.40751, 22, -29.0404, -11.6842, 31.5137, -155.084, -87.2259, 49.3103
6.41549, 22, -29.0274, -11.7611, 31.5755, -155.04, -87.175, 49.2567
6.42349, 23, -29.0145, -11.8382, 31.6374, -154.998, -87.1229, 49.2037
6.43149, 23, -29.0017, -11.9155, 31.6994, -154.955, -87.0716, 49.1503
6.4395, 23, -28.9889, -11.9931, 31.7616, -154.912, -87.0201, 49.0963
6.44766, 23, -28.9762, -12.071, 31.8239, -154.868, -86.9676, 49.0429
6.45649, 23, -28.9635, -12.149, 31.8865, -154.825, -86.9159, 48.9895
6.46355, 23, -28.9509, -12.2273, 31.9493, -154.781, -86.8633, 48.9352
6.47153, 23, -28.9385, -12.3057, 32.0122, -154.737, -86.8102, 48.8809
6.47954, 23, -28.9262, -12.3844, 32.0753, -154.694, -86.758, 48.8272
6.4875, 23, -28.9139, -12.4634, 32.1386, -154.65, -86.7045, 48.7728
6.49554, 23, -28.9018, -12.5425, 32.2022, -154.605, -86.6512, 48.718
6.50354, 23, -28.8896, -12.6219, 32.2659, -154.561, -86.5981, 48.6638
6.51149, 24, -28.8774, -12.7015, 32.3297, -154.516, -86.544, 48.6092
6.51952, 24, -28.8654, -12.7812, 32.3936, -154.471, -86.4907, 48.554
6.52755, 24, -28.8535, -12.8612, 32.4576, -154.426, -86.4371, 48.499
6.53549, 24, -28.8416, -12.9414, 32.5217, -154.381, -86.3827, 48.4442
6.5437, 24, -28.8298, -13.0219, 32.5861, -154.335, -86.329, 48.3886
6.55172, 24, -28.8181, -13.1026, 32.6507, -154.289, -86.2742, 48.3331
6.5595, 24, -28.8064, -13.1835, 32.7155, -154.244, -86.2196, 48.2779
6.56769, 24, -28.7947, -13.2646, 32.7805, -154.198, -86.1655, 48.2224
6.57551, 24, -28.7832, -13.346, 32.8456, -154.152, -86.1102, 48.1663
6.58356, 24, -28.7717, -13.4274, 32.9108, -154.106, -86.0555, 48.1109
6.5921, 24, -28.7601, -13.5091, 32.9762, -154.06, -86.0005, 48.0555
6.60077, 25, -28.7487, -13.591, 33.0416, -154.013, -85.9448, 47.9993
6.6076, 25, -28.7372, -13.673, 33.1073, -153.967, -85.89, 47.9438
6.61604, 25, -28.7257, -13.7552, 33.173, -153.92, -85.8343, 47.8886
6.62362, 25, -28.7144, -13.8377, 33.2389, -153.872, -85.7787, 47.8327
6.63164, 25, -28.7033, -13.9204, 33.305, -153.826, -85.7233, 47.7767
6.64062, 25, -28.6922, -14.0032, 33.3712, -153.779, -85.6668, 47.7213
6.64931, 25, -28.6811, -14.0863, 33.4376, -153.731, -85.6112, 47.6655
6.65554, 25, -28.6702, -14.1695, 33.5042, -153.684, -85.5551, 47.6094
6.66368, 25, -28.6593, -14.253, 33.5709, -153.636, -85.4987, 47.5539
6.67171, 25, -28.6484, -14.3366, 33.6377, -153.587, -85.4428, 47.4983
6.67971, 25, -28.6375, -14.4203, 33.7046, -153.539, -85.3858, 47.4419
6.6882, 25, -28.6268, -14.5043, 33.7716, -153.491, -85.3295, 47.386
6.69586, 26, -28.6161, -14.5885, 33.8386, -153.442, -85.273, 47.3303
6.70395, 26, -28.6055, -14.6728, 33.9058, -153.394, -85.2158, 47.2741
6.71241, 26, -28.5949, -14.7573, 33.9733, -153.345, -85.1593, 47.2179
6.721, 26, -28.5843, -14.842, 34.0408, -153.296, -85.1019, 47.1622
6.72803, 26, -28.5737, -14.9266, 34.1086, -153.248, -85.0447, 47.1063
6.73732, 26, -28.563, -15.0115, 34.1764, -153.199, -84.9877, 47.05
6.74405, 26, -28.5578, -15.0966, 34.2444, -153.149, -84.9298, 46.9945
6.75285, 26, -28.5473, -15.1392, 34.3125, -153.1, -84.8726, 46.939
6.75949, 26, -28.5368, -15.2243, 34.3466, -153.075, -84.8437, 46.911
6.76748, 26, -28.5264, -15.3098, 34.4147, -153.025, -84.7855, 46.8553
6.7755, 26, -28.5161, -15.3955, 34.4831, -152.976, -84.7283, 46.8003
6.78368, 27, -28.5058, -15.4812, 34.5515, -152.926, -84.6702, 46.7451
6.79154, 27, -28.4955, -15.5671, 34.62, -152.875, -84.6124, 46.6892
6.7996, 27, -28.4852, -15.6532, 34.6886, -152.825, -84.5545, 46.634
6.80748, 27, -28.4751, -15.7396, 34.7574, -152.775, -84.4959, 46.5788
6.81769, 27, -28.4599, -15.8692, 34.8608, -152.699, -84.4091, 46.4949
6.82349, 27, -28.4549, -15.9126, 34.8953, -152.674, -84.3796, 46.4673
6.83155, 27, -28.4448, -15.9992, 34.9645, -152.623, -84.3212, 46.4123
6.83948, 27, -28.4348, -16.0862, 35.0336, -152.572, -84.2629, 46.3567
6.84753, 27, -28.4248, -16.1731, 35.1029, -152.521, -84.2037, 46.3009
6.85547, 27, -28.4148, -16.2602, 35.1721, -152.47, -84.1456, 46.2461
6.86347, 27, -28.4048, -16.3473, 35.2415, -152.418, -84.0866, 46.1909
6.87155, 27, -28.3948, -16.4346, 35.311, -152.367, -84.0277, 46.1354
6.88133, 28, -28.3848, -16.522, 35.3806, -152.289, -83.9393, 46.0537
6.8876, 28, -28.3748, -16.6096, 35.4504, -152.264, -83.9096, 46.0264
6.89554, 28, -28.3648, -16.6973, 35.5204, -152.213, -83.8512, 45.9715
6.90457, 28, -28.3549, -16.7852, 35.5903, -152.16, -83.792, 45.9169
6.91162, 28, -28.3449, -16.8732, 35.6603, -152.108, -83.733, 45.8631
6.91954, 28, -28.335, -16.9612, 35.7303, -152.056, -83.6741, 45.8089
6.92747, 28, -28.3251, -17.0493, 35.8004, -152.003, -83.6144, 45.7545
6.93548, 28, -28.3153, -17.1375, 35.8705, -151.951, -83.5558, 45.701
6.94354, 28, -28.3056, -17.2257, 35.9408, -151.898, -83.4962, 45.6477
6.95157, 28, -28.2957, -17.3141, 36.0111, -151.845, -83.437, 45.594
6.9595, 28, -28.286, -17.4026, 36.0816, -151.793, -83.3776, 45.5408
6.96756, 29, -28.2764, -17.4912, 36.1521, -151.739, -83.3176, 45.4882
6.97547, 29, -28.2666, -17.58, 36.2228, -151.686, -83.2584, 45.4352
6.98348, 29, -28.2568, -17.6688, 36.2935, -151.633, -83.1982, 45.3824
6.99155, 29, -28.247, -17.7577, 36.3642, -151.579, -83.1386, 45.3305
6.9995, 29, -28.2373, -17.8466, 36.4349, -151.526, -83.0787, 45.2787
7.0082, 29, -28.2275, -17.9355, 36.5055, -151.472, -83.0187, 45.2264
7.01586, 29, -28.2177, -18.0246, 36.5763, -151.418, -82.9593, 45.1745
7.02347, 29, -28.2079, -18.1138, 36.6472, -151.365, -82.8989, 45.1234
7.03149, 29, -28.1982, -18.203, 36.7183, -151.31, -82.8395, 45.0722
7.03949, 29, -28.1884, -18.2924, 36.7894, -151.256, -82.7792, 45.0208
7.04752, 29, -28.1786, -18.3818, 36.8606, -151.203, -82.7193, 44.9705
7.05549, 29, -28.1689, -18.4713, 36.9319, -151.147, -82.6597, 44.9205
7.06354, 30, -28.1594, -18.5607, 37.003, -151.093, -82.5993, 44.8701
7.07149, 30, -28.1498, -18.6503, 37.0742, -151.039, -82.5398, 44.8199
7.07973, 30, -28.1401, -18.7399, 37.1453, -150.984, -82.4792, 44.7706
7.08927, 30, -28.1305, -18.8295, 37.2166, -150.929, -82.4192, 44.7216
7.09556, 30, -28.1209, -18.9193, 37.288, -150.874, -82.3593, 44.6723
7.10422, 30, -28.1111, -19.0092, 37.3593, -150.819, -82.2988, 44.6235
7.11158, 30, -28.1013, -19.0991, 37.4308, -150.764, -82.2389, 44.5756
7.11958, 30, -28.0915, -19.1891, 37.5023, -150.709, -82.1781, 44.5279
7.1284, 30, -28.0817, -19.2791, 37.5739, -150.654, -82.1183, 44.4799
7.13558, 30, -28.0719, -19.369, 37.6454, -150.598, -82.0581, 44.4325
7.14353, 30, -28.062, -19.459, 37.7169, -150.543, -81.9978, 44.386
7.15239, 31, -28.0521, -19.5489, 37.7884, -150.488, -81.938, 44.3395
7.15953, 31, -28.0423, -19.6388, 37.8599, -150.431, -81.8773, 44.2929
7.16765, 31, -28.0323, -19.7288, 37.9315, -150.376, -81.8176, 44.2471
7.17673, 31, -28.0223, -19.8188, 38.0031, -150.32, -81.7573, 44.202
7.18533, 31, -28.0123, -19.9089, 38.0748, -150.264, -81.6971, 44.1569
7.19193, 31, -28.0025, -19.999, 38.1465, -150.208, -81.6372, 44.1118
7.2019, 31, -27.9926, -20.089, 38.2182, -150.151, -81.5765, 44.0669
7.20875, 31, -27.9826, -20.1792, 38.2899, -150.095, -81.5168, 44.0232
7.21598, 31, -27.9726, -20.2693, 38.3615, -150.039, -81.4562, 43.9797
7.22457, 31, -27.9626, -20.3595, 38.4331, -149.982, -81.3963, 43.9361
7.23296, 31, -27.9525, -20.4497, 38.5046, -149.926, -81.336, 43.8928
7.24008, 31, -27.9422, -20.54, 38.5762, -149.869, -81.2756, 43.8507
7.24808, 32, -27.9319, -20.6302, 38.6478, -149.813, -81.216, 43.8089
7.25682, 32, -27.9268, -20.6753, 38.6836, -149.785, -81.1857, 43.7674
7.26347, 32, -27.9166, -20.7655, 38.7552, -149.728, -81.1256, 43.7465
7.27155, 32, -27.9062, -20.8556, 38.8268, -149.671, -81.0659, 43.7054
7.28224, 32, -27.8906, -20.9908, 38.9343, -149.585, -80.9756, 43.6455
7.28746, 32, -27.8854, -21.0358, 38.9701, -149.557, -80.9459, 43.6258
7.29552, 32, -27.8749, -21.1259, 39.0416, -149.501, -80.8857, 43.5865
7.30352, 32, -27.8643, -21.2159, 39.1131, -149.443, -80.8258, 43.5474
7.31147, 32, -27.8537, -21.306, 39.1845, -149.386, -80.7662, 43.509
7.31951, 32, -27.8433, -21.396, 39.2559, -149.329, -80.7058, 43.4718
7.32745, 32, -27.8328, -21.486, 39.3273, -149.271, -80.6465, 43.4349
7.33548, 33, -27.8221, -21.5759, 39.3988, -149.214, -80.5865, 43.3984
7.34497, 33, -27.8061, -21.7109, 39.5058, -149.127, -80.4972, 43.3439
7.35147, 33, -27.8006, -21.7558, 39.5415, -149.099, -80.4672, 43.3263
7.35946, 33, -27.7896, -21.8457, 39.6128, -149.042, -80.4072, 43.2917
7.36904, 33, -27.773, -21.9805, 39.7195, -148.955, -80.3185, 43.2408
7.37735, 33, -27.762, -22.0702, 39.7906, -148.898, -80.2587, 43.2073
7.38498, 33, -27.7565, -22.1151, 39.8261, -148.868, -80.2292, 43.1905
7.39156, 33, -27.7454, -22.2049, 39.8971, -148.811, -80.1699, 43.1574
7.40047, 33, -27.7343, -22.2944, 39.9681, -148.753, -80.1102, 43.1254
7.40745, 33, -27.723, -22.384, 40.039, -148.695, -80.0516, 43.0943
7.41647, 33, -27.7117, -22.4736, 40.1099, -148.638, -79.9919, 43.0639
7.42342, 34, -27.7004, -22.5631, 40.1807, -148.579, -79.9331, 43.0338
7.43147, 34, -27.6891, -22.6524, 40.2516, -148.521, -79.8737, 43.0038
7.43953, 34, -27.6777, -22.7418, 40.3223, -148.463, -79.8142, 42.9742
7.44762, 34, -27.6663, -22.831, 40.3929, -148.404, -79.7555, 42.9458
7.45645, 34, -27.6547, -22.9202, 40.4634, -148.347, -79.6957, 42.9183
7.46446, 34, -27.6431, -23.0092, 40.5337, -148.289, -79.6368, 42.8917
7.47252, 34, -27.6312, -23.0982, 40.604, -148.23, -79.5774, 42.8658
7.47945, 34, -27.6192, -23.1871, 40.6743, -148.172, -79.5182, 42.8403
7.48754, 34, -27.6072, -23.276, 40.7446, -148.114, -79.4595, 42.8151
7.49629, 34, -27.5951, -23.3648, 40.8148, -148.056, -79.4, 42.7905
7.50347, 34, -27.5829, -23.4535, 40.885, -147.997, -79.3415, 42.7669
7.51153, 34, -27.5707, -23.5423, 40.955, -147.939, -79.2821, 42.7445
7.52026, 35, -27.5584, -23.6308, 41.0248, -147.881, -79.2232, 42.723
7.52746, 35, -27.546, -23.7191, 41.0946, -147.822, -79.1648, 42.7024
7.53552, 35, -27.5337, -23.8074, 41.1642, -147.764, -79.1056, 42.6827
7.54445, 35, -27.5213, -23.8955, 41.2337, -147.705, -79.0475, 42.6634
7.55328, 35, -27.5087, -23.9834, 41.3032, -147.647, -78.9883, 42.6447
7.55955, 35, -27.4961, -24.0713, 41.3726, -147.588, -78.9299, 42.6265
7.56941, 35, -27.4833, -24.159, 41.4419, -147.529, -78.8717, 42.6091
7.5765, 35, -27.4703, -24.2467, 41.5112, -147.472, -78.8128, 42.5926
7.58349, 35, -27.4572, -24.3342, 41.5804, -147.412, -78.7548, 42.5772
7.59154, 35, -27.4441, -24.4217, 41.6494, -147.354, -78.696, 42.5626
7.59988, 35, -27.4307, -24.5089, 41.7182, -147.296, -78.6378, 42.5491
7.60762, 36, -27.4172, -24.5961, 41.7868, -147.237, -78.58, 42.5364
7.61557, 36, -27.4036, -24.6832, 41.8552, -147.179, -78.5217, 42.5248
7.62386, 36, -27.3898, -24.7701, 41.9236, -147.12, -78.4642, 42.5141
7.63159, 36, -27.376, -24.8571, 41.992, -147.062, -78.406, 42.5041
7.6397, 36, -27.3622, -24.9439, 42.0602, -147.003, -78.3483, 42.4951
7.65121, 36, -27.3483, -25.0305, 42.1284, -146.944, -78.2909, 42.483
7.65564, 36, -27.3342, -25.117, 42.1963, -146.886, -78.2331, 42.4794
7.66742, 36, -27.3199, -25.2033, 42.298, -146.798, -78.1472, 42.4696
7.67161, 36, -27.3054, -25.2893, 42.3318, -146.769, -78.1183, 42.4668
7.67965, 36, -27.2909, -25.3753, 42.3992, -146.71, -78.0609, 42.4618
7.68864, 36, -27.2762, -25.461, 42.4665, -146.652, -78.0039, 42.4577
7.69575, 36, -27.2614, -25.5466, 42.5336, -146.594, -77.9464, 42.4546
7.70421, 37, -27.2464, -25.6321, 42.6007, -146.535, -77.8897, 42.4525
7.71266, 37, -27.2313, -25.7174, 42.6675, -146.477, -77.8324, 42.4512
7.72029, 37, -27.2162, -25.8027, 42.7342, -146.418, -77.7754, 42.4507
7.72819, 37, -27.2009, -25.8877, 42.8008, -146.36, -77.719, 42.4504
7.73683, 37, -27.1856, -25.9725, 42.8673, -146.302, -77.6618, 42.4503
7.74409, 37, -27.17, -26.0571, 42.9335, -146.243, -77.6055, 42.4504
7.75228, 37, -27.1621, -26.0994, 42.9996, -146.186, -77.5487, 42.4511
7.76001, 37, -27.1462, -26.1836, 43.0326, -146.157, -77.5202, 42.4529
7.76803, 37, -27.1302, -26.2677, 43.0983, -146.098, -77.4639, 42.4546
7.77544, 37, -27.1141, -26.3516, 43.1638, -146.041, -77.4077, 42.4594
7.78346, 37, -27.0978, -26.4353, 43.2291, -145.982, -77.351, 42.4655
7.79147, 38, -27.0814, -26.5189, 43.2944, -145.924, -77.2953, 42.4733
7.79946, 38, -27.0648, -26.6024, 43.3595, -145.867, -77.2387, 42.4822
7.8075, 38, -27.0482, -26.6856, 43.4244, -145.808, -77.1827, 42.4924
7.8156, 38, -27.0314, -26.7686, 43.4891, -145.751, -77.127, 42.5038
7.82346, 38, -27.0144, -26.8514, 43.5536, -145.693, -77.0705, 42.5164
7.83145, 38, -26.997, -26.9339, 43.6179, -145.636, -77.015, 42.5303
7.8395, 38, -26.9795, -27.0162, 43.6819, -145.578, -76.959, 42.5453
7.84752, 38, -26.962, -27.0983, 43.7457, -145.52, -76.9032, 42.5616
7.85545, 38, -26.9442, -27.1802, 43.8094, -145.464, -76.8482, 42.5793
7.86346, 38, -26.9263, -27.2618, 43.8727, -145.406, -76.7924, 42.5983
7.87392, 38, -26.9082, -27.3838, 43.9675, -145.321, -76.7099, 42.6297
7.87942, 39, -26.89, -27.4243, 43.9989, -145.292, -76.6821, 42.6407
7.88895, 39, -26.8716, -27.5053, 44.0616, -145.235, -76.6263, 42.6639
7.89553, 39, -26.853, -27.5861, 44.1242, -145.179, -76.5718, 42.6877
7.90518, 39, -26.834, -27.6666, 44.1865, -145.121, -76.5164, 42.7127
7.9116, 39, -26.8149, -27.7468, 44.2487, -145.065, -76.4612, 42.7388
7.92026, 39, -26.7957, -27.8269, 44.3106, -145.009, -76.4068, 42.7663
7.92744, 39, -26.7762, -27.9067, 44.3722, -144.952, -76.3512, 42.7954
7.93633, 39, -26.7566, -27.9863, 44.4335, -144.896, -76.2965, 42.826
7.94344, 39, -26.7368, -28.0656, 44.4946, -144.839, -76.2417, 42.8574
7.95144, 39, -26.717, -28.1447, 44.5554, -144.783, -76.1864, 42.8897
7.96028, 39, -26.6968, -28.2235, 44.6161, -144.728, -76.1321, 42.9232
7.96747, 39, -26.6762, -28.3019, 44.6764, -144.671, -76.077, 42.9583
7.97549, 40, -26.6555, -28.3802, 44.7367, -144.616, -76.0225, 42.9952
7.98426, 40, -26.6348, -28.4581, 44.7966, -144.561, -75.9685, 43.033
7.99251, 40, -26.6137, -28.5357, 44.8563, -144.505, -75.9136, 43.0718
7.99945, 40, -26.5923, -28.6129, 44.9157, -144.451, -75.8597, 43.1117
8.00844, 40, -26.5708, -28.6899, 44.9749, -144.395, -75.8054, 43.1532
8.0156, 40, -26.5492, -28.7666, 45.0336, -144.341, -75.7509, 43.1963
8.02344, 40, -26.5271, -28.8429, 45.0922, -144.286, -75.6974, 43.2403
8.03451, 40, -26.4936, -28.957, 45.1794, -144.204, -75.6159, 43.3086
8.03949, 40, -26.4824, -28.9949, 45.2083, -144.177, -75.5891, 43.3322
8.04744, 40, -26.4597, -29.0705, 45.2659, -144.122, -75.5358, 43.3808
8.05644, 40, -26.4367, -29.1456, 45.3233, -144.068, -75.4814, 43.4301
8.06364, 41, -26.4135, -29.2205, 45.3803, -144.015, -75.4279, 43.4806
8.07145, 41, -26.3901, -29.2952, 45.4371, -143.961, -75.3746, 43.533
8.07954, 41, -26.3663, -29.3694, 45.4936, -143.908, -75.3207, 43.5867
8.08765, 41, -26.3422, -29.4433, 45.5497, -143.855, -75.2678, 43.6411
8.09641, 41, -26.318, -29.5169, 45.6056, -143.802, -75.2143, 43.6972
8.10376, 41, -26.2936, -29.5903, 45.661, -143.75, -75.1609, 43.7551
8.11161, 41, -26.2689, -29.6632, 45.7161, -143.697, -75.1085, 43.8137
8.11956, 41, -26.2439, -29.7358, 45.7709, -143.645, -75.0553, 43.8739
8.12757, 41, -26.2186, -29.8081, 45.8253, -143.593, -75.0025, 43.9363
8.13564, 41, -26.193, -29.88, 45.8793, -143.541, -74.9501, 43.9994
8.14363, 41, -26.1672, -29.9516, 45.9331, -143.49, -74.8968, 44.0643
8.15148, 41, -26.1412, -30.0227, 45.9866, -143.439, -74.8445, 44.1312
8.15956, 42, -26.1149, -30.0935, 46.0397, -143.388, -74.7923, 44.1985
8.16753, 42, -26.0882, -30.164, 46.0926, -143.338, -74.7394, 44.2678
8.17563, 42, -26.0612, -30.2341, 46.1449, -143.287, -74.6875, 44.3387
8.18409, 42, -26.0338, -30.3037, 46.1969, -143.237, -74.635, 44.4105
8.19186, 42, -26.0063, -30.3731, 46.2485, -143.188, -74.5823, 44.4848
8.20043, 42, -25.9785, -30.442, 46.2998, -143.138, -74.5306, 44.5597
8.20785, 42, -25.9503, -30.5106, 46.3506, -143.089, -74.4782, 44.6365
8.21653, 42, -25.9218, -30.5787, 46.4011, -143.04, -74.426, 44.715
8.22403, 42, -25.8928, -30.6464, 46.4511, -142.992, -74.3745, 44.7945
8.232, 42, -25.8636, -30.7137, 46.5006, -142.943, -74.3221, 44.8766
8.24007, 42, -25.8341, -30.7805, 46.5499, -142.896, -74.2704, 44.9592
8.248, 43, -25.8192, -30.8468, 46.5987, -142.849, -74.2192, 45.0445
8.25603, 43, -25.7893, -30.8799, 46.623, -142.802, -74.1671, 45.1306
8.26416, 43, -25.7591, -30.9785, 46.6951, -142.756, -74.116, 45.2189
8.27143, 43, -25.7285, -31.0112, 46.719, -142.733, -74.0905, 45.2635
8.28032, 43, -25.6976, -31.0762, 46.7664, -142.687, -74.0387, 45.3994
8.29031, 43, -25.6506, -31.1728, 46.8365, -142.619, -73.9621, 45.4919
8.29545, 43, -25.6347, -31.2046, 46.8597, -142.597, -73.9368, 45.5386
8.30353, 43, -25.6027, -31.2682, 46.9059, -142.552, -73.8852, 45.6337
8.31152, 43, -25.5702, -31.3312, 46.9516, -142.507, -73.8343, 45.7297
8.31944, 43, -25.5375, -31.3937, 46.9968, -142.464, -73.7838, 45.8278
8.32746, 43, -25.5046, -31.4557, 47.0415, -142.42, -73.7323, 45.9269
8.33687, 44, -25.4544, -31.5477, 47.1077, -142.355, -73.6568, 46.0789
8.34351, 44, -25.4374, -31.5781, 47.1295, -142.334, -73.6315, 46.1306
8.35146, 44, -25.403, -31.6387, 47.1726, -142.293, -73.5805, 46.2351
8.35948, 44, -25.3684, -31.6988, 47.2154, -142.251, -73.5303, 46.3414
8.36743, 44, -25.3334, -31.7584, 47.2577, -142.21, -73.4801, 46.4489
8.37803, 44, -25.2802, -31.8469, 47.3202, -142.15, -73.4044, 46.6135
8.38433, 44, -25.2623, -31.8762, 47.3407, -142.13, -73.3797, 46.6693
8.39295, 44, -25.226, -31.9342, 47.3814, -142.09, -73.33, 46.7818
8.40175, 44, -25.1712, -32.0201, 47.4417, -142.032, -73.2551, 46.9536
8.40757, 44, -25.1527, -32.0484, 47.4614, -142.014, -73.2306, 47.0117
8.41653, 44, -25.1153, -32.1045, 47.5006, -141.976, -73.181, 47.1296
8.42348, 44, -25.0775, -32.1601, 47.5393, -141.938, -73.131, 47.2491
8.43143, 45, -25.0394, -32.215, 47.5774, -141.902, -73.0823, 47.3704
8.43943, 45, -25.0007, -32.2695, 47.6149, -141.866, -73.0332, 47.4934
8.4475, 45, -24.9616, -32.3233, 47.6519, -141.831, -72.9838, 47.6181
8.45558, 45, -24.922, -32.3766, 47.6882, -141.796, -72.9354, 47.7445
8.4635, 45, -24.882, -32.4294, 47.7239, -141.762, -72.8865, 47.8726
8.47152, 45, -24.8417, -32.4817, 47.7592, -141.729, -72.8375, 48.002
8.47947, 45, -24.8008, -32.5333, 47.7937, -141.696, -72.7895, 48.1334
8.4875, 45, -24.7595, -32.5843, 47.8275, -141.663, -72.7411, 48.2663
8.49543, 45, -24.7179, -32.6346, 47.861, -141.631, -72.6925, 48.4012
8.50347, 45, -24.6758, -32.684, 47.8938, -141.601, -72.645, 48.5379
8.51151, 45, -24.633, -32.7327, 47.9259, -141.571, -72.597, 48.6759
8.51939, 46, -24.5898, -32.7808, 47.9575, -141.541, -72.5488, 48.8158
8.52743, 46, -24.5462, -32.828, 47.9885, -141.512, -72.5018, 48.9575
8.5355, 46, -24.5022, -32.8745, 48.0186, -141.484, -72.4545, 49.1006
8.54347, 46, -24.4576, -32.9202, 48.0481, -141.457, -72.4069, 49.2456
8.55191, 46, -24.4126, -32.9654, 48.0772, -141.431, -72.3603, 49.3925
8.55989, 46, -24.3671, -33.01, 48.1054, -141.405, -72.3134, 49.5413
8.56743, 46, -24.321, -33.0538, 48.1329, -141.38, -72.2662, 49.6918
8.57551, 46, -24.2746, -33.0969, 48.1598, -141.356, -72.2201, 49.8439
8.5835, 46, -24.2277, -33.1394, 48.186, -141.332, -72.174, 49.9977
8.59153, 46, -24.1802, -33.181, 48.2114, -141.31, -72.1273, 50.153
8.59952, 46, -24.1322, -33.2217, 48.2361, -141.289, -72.0817, 50.3099
8.60752, 46, -24.0838, -33.2617, 48.2602, -141.268, -72.0365, 50.4684
8.61559, 47, -24.0348, -33.3008, 48.2835, -141.247, -71.9904, 50.6288
8.62357, 47, -23.9852, -33.339, 48.3061, -141.228, -71.9454, 50.7911
8.63155, 47, -23.935, -33.3764, 48.3279, -141.21, -71.901, 50.9548
8.63962, 47, -23.8844, -33.4129, 48.3488, -141.193, -71.856, 51.1204
8.64776, 47, -23.8332, -33.4485, 48.369, -141.176, -71.8114, 51.2873
8.65722, 47, -23.7815, -33.4833, 48.3885, -141.161, -71.7677, 51.4562
8.66356, 47, -23.7294, -33.5173, 48.4074, -141.147, -71.7236, 51.6268
8.67256, 47, -23.6767, -33.5504, 48.4254, -141.134, -71.6796, 51.7992
8.67959, 47, -23.6235, -33.5825, 48.4426, -141.121, -71.6366, 51.9733
8.68768, 47, -23.5697, -33.6139, 48.4589, -141.109, -71.5939, 52.1491
8.69667, 47, -23.5153, -33.6444, 48.4745, -141.098, -71.5507, 52.3264
8.70412, 48, -23.4604, -33.6738, 48.4891, -141.088, -71.5085, 52.5053
8.71245, 48, -23.4049, -33.7023, 48.5027, -141.079, -71.4669, 52.6859
8.72077, 48, -23.3488, -33.7298, 48.5157, -141.071, -71.4249, 52.8683
8.72797, 48, -23.2923, -33.7564, 48.5278, -141.064, -71.3831, 53.0525
8.73654, 48, -23.2353, -33.7818, 48.5391, -141.058, -71.3426, 53.2381
8.74515, 48, -23.1777, -33.8063, 48.5494, -141.054, -71.3023, 53.4255
8.75292, 48, -23.1195, -33.8296, 48.5588, -141.05, -71.2616, 53.6144
8.76094, 48, -23.0607, -33.8521, 48.5675, -141.048, -71.2218, 53.8054
8.76883, 48, -23.0012, -33.8737, 48.5752, -141.046, -71.1827, 53.9978
8.77541, 48, -22.9713, -33.8839, 48.5787, -141.046, -71.1631, 54.0947
8.78498, 48, -22.9111, -33.9036, 48.585, -141.045, -71.1236, 54.2898
8.79361, 49, -22.8196, -33.9316, 48.5928, -141.046, -71.066, 54.585
8.79943, 49, -22.7889, -33.9402, 48.595, -141.046, -71.0472, 54.6841
8.80747, 49, -22.727, -33.9565, 48.5984, -141.049, -71.0098, 54.8835
8.81546, 49, -22.6645, -33.9718, 48.6008, -141.053, -70.9721, 55.0848
8.82627, 49, -22.5697, -33.9929, 48.6027, -141.061, -70.9173, 55.3894
8.83142, 49, -22.5378, -33.9993, 48.603, -141.064, -70.8994, 55.4918
8.83946, 49, -22.4736, -34.011, 48.6032, -141.072, -70.8637, 55.6974
8.84952, 49, -22.3761, -34.0263, 48.6021, -141.086, -70.8102, 56.009
8.85542, 49, -22.3434, -34.0309, 48.6013, -141.092, -70.7929, 56.1138
8.86513, 49, -22.2443, -34.0431, 48.5973, -141.11, -70.7424, 56.4302
8.87302, 49, -22.1775, -34.0498, 48.5933, -141.124, -70.7092, 56.6431
8.87941, 49, -22.1438, -34.0527, 48.5909, -141.132, -70.6925, 56.7501
8.88748, 50, -22.0762, -34.0574, 48.5852, -141.147, -70.6597, 56.965
8.89699, 50, -22.008, -34.0607, 48.5784, -141.164, -70.6281, 57.2905
8.90346, 50, -21.9393, -34.0627, 48.5705, -141.181, -70.5971, 57.3999
8.91242, 50, -21.87, -34.0636, 48.5614, -141.2, -70.5665, 57.6195
8.91955, 50, -21.8, -34.0637, 48.5512, -141.22, -70.536, 57.8406
8.9274, 50, -21.7293, -34.0627, 48.5401, -141.243, -70.5063, 58.0629
8.93547, 50, -21.658, -34.0604, 48.5278, -141.266, -70.4778, 58.2871
8.94346, 50, -21.5862, -34.0568, 48.5142, -141.29, -70.4502, 58.5128
8.95147, 50, -21.5138, -34.0517, 48.4995, -141.315, -70.423, 58.7398
8.95941, 50, -21.441, -34.0452, 48.4837, -141.342, -70.396, 58.9681
8.96748, 50, -21.3678, -34.0372, 48.4667, -141.37, -70.3698, 59.1975
8.97569, 51, -21.294, -34.0277, 48.4485, -141.399, -70.3446, 59.4285
8.98345, 51, -21.2195, -34.0167, 48.4292, -141.43, -70.3204, 59.6608
8.99142, 51, -21.1444, -34.0044, 48.4087, -141.462, -70.297, 59.8945
8.99948, 51, -21.0688, -33.9906, 48.387, -141.495, -70.2741, 60.1293
9.00741, 51, -20.9925, -33.975, 48.3642, -141.529, -70.2516, 60.3657
9.0156, 51, -20.9156, -33.9577, 48.3402, -141.565, -70.2298, 60.6035
9.02355, 51, -20.8382, -33.9391, 48.3151, -141.602, -70.2092, 60.8428
9.03258, 51, -20.7603, -33.9189, 48.2887, -141.64, -70.1897, 61.0831
9.04149, 51, -20.6819, -33.8971, 48.2612, -141.68, -70.1713, 61.3244
9.04753, 51, -20.603, -33.8739, 48.2325, -141.721, -70.1539, 61.5671
9.05541, 51, -20.5237, -33.8489, 48.2027, -141.762, -70.1373, 61.8113
9.06357, 51, -20.4438, -33.8224, 48.1715, -141.806, -70.1214, 62.0566
9.07141, 52, -20.3633, -33.7945, 48.1391, -141.851, -70.1061, 62.3031
9.07942, 52, -20.2822, -33.7647, 48.1055, -141.896, -70.0917, 62.5506
9.08844, 52, -20.2006, -33.7335, 48.0706, -141.943, -70.0784, 62.7997
9.09981, 52, -20.0774, -33.6833, 48.016, -142.017, -70.0606, 63.1755
9.10355, 52, -20.0361, -33.6657, 47.9973, -142.042, -70.0553, 63.3012
9.11339, 52, -19.953, -33.6293, 47.9588, -142.092, -70.0455, 63.5533
9.12041, 52, -19.8694, -33.5911, 47.919, -142.145, -70.0368, 63.8064
9.12794, 52, -19.7854, -33.5512, 47.878, -142.198, -70.0292, 64.0609
9.13553, 52, -19.7009, -33.5097, 47.8357, -142.253, -70.0228, 64.3163
9.14358, 52, -19.6161, -33.4665, 47.7921, -142.308, -70.0175, 64.5725
9.1523, 52, -19.5308, -33.4216, 47.7474, -142.365, -70.0133, 64.8299
9.15975, 53, -19.4451, -33.375, 47.7012, -142.424, -70.0102, 65.0885
9.16744, 53, -19.3589, -33.3267, 47.6539, -142.483, -70.0083, 65.3481
9.17627, 53, -19.2721, -33.2766, 47.6053, -142.544, -70.0074, 65.6083
9.18362, 53, -19.185, -33.2248, 47.5553, -142.606, -70.0071, 65.8693
9.19252, 53, -19.0973, -33.1711, 47.5041, -142.669, -70.0077, 66.1315
9.20053, 53, -19.0093, -33.1158, 47.4516, -142.734, -70.0094, 66.3948
9.20775, 53, -18.9209, -33.0585, 47.3979, -142.799, -70.0125, 66.6588
9.21681, 53, -18.8321, -32.9995, 47.3427, -142.866, -70.0168, 66.9235
9.22402, 53, -18.7429, -32.9387, 47.2863, -142.933, -70.0225, 67.1896
9.23199, 53, -18.6533, -32.8759, 47.2286, -143.002, -70.0297, 67.4563
9.24092, 53, -18.5631, -32.8113, 47.1695, -143.072, -70.0384, 67.7236
9.24798, 53, -18.4727, -32.7449, 47.1092, -143.143, -70.0485, 67.9915
9.2565, 54, -18.3818, -32.6767, 47.0476, -143.215, -70.0603, 68.2601
9.26477, 54, -18.3362, -32.6066, 46.9847, -143.289, -70.0737, 68.5296
9.2714, 54, -18.2449, -32.5708, 46.9528, -143.326, -70.081, 68.6646
9.28043, 54, -18.1074, -32.461, 46.8551, -143.439, -70.1057, 69.0704
9.28928, 54, -18.0613, -32.4235, 46.8219, -143.515, -70.1242, 69.342
9.29538, 54, -17.969, -32.3469, 46.7545, -143.553, -70.1339, 69.4781
9.30353, 54, -17.8763, -32.2685, 46.6858, -143.631, -70.1542, 69.7507
9.31141, 54, -17.7833, -32.1881, 46.6157, -143.71, -70.1757, 70.0238
9.31939, 54, -17.69, -32.1058, 46.5443, -143.79, -70.1987, 70.2972
9.32745, 54, -17.5965, -32.0215, 46.4716, -143.871, -70.2235, 70.5714
9.33539, 54, -17.5027, -31.9353, 46.3977, -143.953, -70.2505, 70.8462
9.34344, 55, -17.4086, -31.8471, 46.3226, -144.035, -70.2789, 71.1215
9.35289, 55, -17.2672, -31.7114, 46.2077, -144.161, -70.3237, 71.5352
9.36101, 55, -17.1726, -31.6185, 46.1294, -144.246, -70.3555, 71.812
9.36739, 55, -17.1252, -31.5713, 46.0898, -144.289, -70.3722, 71.9505
9.37696, 55, -16.9823, -31.427, 45.9688, -144.418, -70.4252, 72.3661
9.38522, 55, -16.8868, -31.3283, 45.8865, -144.506, -70.4618, 72.6435
9.3929, 55, -16.839, -31.2783, 45.8448, -144.55, -70.4806, 72.7826
9.39946, 55, -16.7434, -31.1768, 45.7604, -144.638, -70.52, 73.0606
9.40849, 55, -16.6476, -31.0736, 45.675, -144.727, -70.5617, 73.339
9.41539, 55, -16.5517, -30.9684, 45.5885, -144.817, -70.6043, 73.6173
9.42351, 55, -16.4557, -30.8613, 45.5007, -144.908, -70.6484, 73.8962
9.43141, 55, -16.3596, -30.7521, 45.4117, -144.999, -70.695, 74.1752
9.43945, 56, -16.2633, -30.641, 45.3212, -145.091, -70.7426, 74.4544
9.44739, 56, -16.1667, -30.5278, 45.2294, -145.184, -70.7917, 74.7335
9.45555, 56, -16.0701, -30.4127, 45.1364, -145.277, -70.8436, 75.0129
9.46436, 56, -15.9732, -30.2958, 45.0423, -145.371, -70.8965, 75.2926
9.47248, 56, -15.8764, -30.177, 44.9471, -145.465, -70.9512, 75.5722
9.4804, 56, -15.7797, -30.0564, 44.8509, -145.56, -71.0083, 75.8518
9.48847, 56, -15.683, -29.9336, 44.7533, -145.655, -71.0662, 76.1319
9.49541, 56, -15.586, -29.809, 44.6545, -145.751, -71.1269, 76.4119
9.50425, 56, -15.489, -29.6825, 44.5543, -145.847, -71.1888, 76.6916
9.51139, 56, -15.3918, -29.5543, 44.4528, -145.944, -71.2527, 76.971
9.51944, 56, -15.2946, -29.4243, 44.3503, -146.041, -71.3184, 77.2505
9.52825, 57, -15.1973, -29.2923, 44.247, -146.138, -71.3855, 77.5299
9.5354, 57, -15.1001, -29.1583, 44.1425, -146.236, -71.4551, 77.809
9.54346, 57, -15.003, -29.0224, 44.0369, -146.334, -71.5258, 78.088
9.55246, 57, -14.906, -28.8848, 43.9298, -146.432, -71.5988, 78.3669
9.56123, 57, -14.8091, -28.7454, 43.8216, -146.53, -71.673, 78.6456
9.56741, 57, -14.7122, -28.6041, 43.7124, -146.628, -71.7498, 78.9239
9.5773, 57, -14.6152, -28.4608, 43.6023, -146.727, -71.8281, 79.2018
9.58441, 57, -14.5184, -28.3156, 43.4913, -146.826, -71.9084, 79.4797
9.59142, 57, -14.4215, -28.1688, 43.3792, -146.925, -71.9904, 79.7574
9.59949, 57, -14.3248, -28.0206, 43.2658, -147.025, -72.0743, 80.0344
9.60779, 57, -14.2282, -27.8704, 43.1511, -147.124, -72.1601, 80.3111
9.61545, 58, -14.1317, -27.7184, 43.0355, -147.223, -72.2472, 80.5878
9.62353, 58, -14.0354, -27.5647, 42.9192, -147.322, -72.3366, 80.8641
9.63186, 58, -13.9393, -27.4094, 42.802, -147.421, -72.4276, 81.1394
9.63953, 58, -13.8433, -27.2527, 42.6838, -147.521, -72.5203, 81.4141
9.64742, 58, -13.7475, -27.0942, 42.5645, -147.62, -72.615, 81.6884
9.65991, 58, -13.6519, -26.9334, 42.3837, -147.768, -72.7605, 82.0989
9.66346, 58, -13.5567, -26.771, 42.3229, -147.818, -72.8098, 82.2355
9.67143, 58, -13.4616, -26.6071, 42.201, -147.916, -72.9101, 82.5078
9.67961, 58, -13.3667, -26.442, 42.0782, -148.015, -73.0122, 82.7797
9.68781, 58, -13.2719, -26.2748, 41.9546, -148.114, -73.1158, 83.0511
9.69561, 58, -13.1772, -26.1057, 41.8299, -148.212, -73.2214, 83.3214
9.70382, 58, -13.0829, -25.9353, 41.7044, -148.309, -73.3283, 83.5909
9.71177, 59, -12.9887, -25.7641, 41.5781, -148.407, -73.437, 83.8597
9.71988, 59, -12.8949, -25.5913, 41.4511, -148.504, -73.5476, 84.1279
9.72846, 59, -12.8016, -25.4166, 41.3235, -148.601, -73.6598, 84.395
9.73627, 59, -12.7084, -25.2404, 41.1951, -148.697, -73.7739, 84.6612
9.74395, 59, -12.6156, -25.0634, 41.0659, -148.793, -73.8895, 84.9269
9.75439, 59, -12.523, -24.8851, 40.9359, -148.889, -74.0068, 85.1919
9.75998, 59, -12.4767, -24.7952, 40.8707, -148.937, -74.1259, 85.4558
9.76797, 59, -12.3844, -24.614, 40.7397, -149.032, -74.2465, 85.7185
9.77938, 59, -12.2465, -24.3399, 40.5419, -149.173, -74.3689, 85.9799
9.78341, 59, -12.2007, -24.2483, 40.4757, -149.22, -74.4307, 86.1105
9.79138, 59, -12.1095, -24.0638, 40.3429, -149.313, -74.5552, 86.3706
9.79939, 60, -12.0188, -23.8772, 40.2095, -149.406, -74.6816, 86.6298
9.80741, 60, -11.9285, -23.6892, 40.0756, -149.498, -74.8092, 86.8873
9.8154, 60, -11.8384, -23.5007, 39.9412, -149.59, -74.9386, 87.1441
9.82355, 60, -11.7487, -23.311, 39.8062, -149.681, -75.0693, 87.3998
9.83136, 60, -11.6592, -23.1196, 39.6708, -149.771, -75.2014, 87.6542
9.83938, 60, -11.5701, -22.9271, 39.5349, -149.86, -75.3353, 87.9072
9.8475, 60, -11.4814, -22.7343, 39.3985, -149.949, -75.4703, 88.1592
9.85775, 60, -11.3492, -22.4432, 39.1929, -150.081, -75.6758, 88.535
9.86342, 60, -11.3053, -22.3454, 39.1241, -150.124, -75.7449, 88.6596
9.87299, 60, -11.1748, -22.0508, 38.9176, -150.254, -75.9542, 89.0311
9.88208, 60, -11.0882, -21.8533, 38.7795, -150.339, -76.0953, 89.2772
9.88896, 60, -11.0451, -21.7538, 38.641, -150.424, -76.2379, 89.5223
9.8962, 61, -10.9592, -21.5537, 38.5717, -150.466, -76.3095, 89.6442
9.90338, 61, -10.8736, -21.353, 38.4328, -150.549, -76.4539, 89.8868
9.91239, 61, -10.7884, -21.1518, 38.2939, -150.632, -76.5993, 90.1277
9.92039, 61, -10.7037, -20.9493, 38.1548, -150.713, -76.7463, 90.367
9.9281, 61, -10.6195, -20.7457, 38.0154, -150.794, -76.8945, 90.6051
9.93539, 61, -10.5359, -20.542, 37.8757, -150.873, -77.0439, 90.8416
9.94731, 61, -10.4113, -20.2346, 37.6659, -150.991, -77.2701, 91.1933
9.95143, 61, -10.37, -20.1315, 37.596, -151.03, -77.3461, 91.3096
9.95937, 61, -10.2878, -19.9249, 37.4558, -151.107, -77.4988, 91.5414
9.96744, 61, -10.2062, -19.7185, 37.3156, -151.183, -77.6526, 91.7715
9.9754, 61, -10.125, -19.5112, 37.1753, -151.258, -77.8073, 91.9998
9.98345, 62, -10.0443, -19.3028, 37.0352, -151.332, -77.9628, 92.2264
9.99138, 62, -9.96414, -19.0942, 36.8953, -151.405, -78.1192, 92.4509
9.99953, 62, -9.88448, -18.8852, 36.7553, -151.477, -78.2765, 92.6736
10.0074, 62, -9.8055, -18.6751, 36.6151, -151.547, -78.4347, 92.8949
10.0154, 62, -9.72706, -18.4648, 36.4751, -151.617, -78.5934, 93.1143
10.0235, 62, -9.6491, -18.255, 36.3352, -151.686, -78.7531, 93.3318
10.0314, 62, -9.57149, -18.0446, 36.1954, -151.754, -78.9136, 93.5473
10.0394, 62, -9.49423, -17.8335, 36.0557, -151.82, -79.075, 93.7612
10.0474, 62, -9.41744, -17.6225, 35.9161, -151.886, -79.237, 93.9735
10.0554, 62, -9.34129, -17.4113, 35.7767, -151.95, -79.3997, 94.1836
10.0634, 62, -9.26564, -17.1991, 35.6378, -152.014, -79.563, 94.3916
10.0716, 63, -9.19069, -16.9864, 35.4991, -152.076, -79.7271, 94.5974
10.0794, 63, -9.11633, -16.774, 35.3605, -152.137, -79.8917, 94.801
10.0875, 63, -9.04251, -16.5613, 35.2223, -152.197, -80.057, 95.0027
10.0957, 63, -8.96917, -16.3481, 35.0843, -152.256, -80.2231, 95.2024
10.107, 63, -8.86019, -16.029, 34.8782, -152.342, -80.4728, 95.4977
10.1124, 63, -8.82414, -15.9227, 34.8097, -152.37, -80.5564, 95.5951
10.1195, 63, -8.75243, -15.7097, 34.6728, -152.425, -80.7239, 95.7879
10.1275, 63, -8.6813, -15.4968, 34.5362, -152.48, -80.8916, 95.9787
10.1355, 63, -8.61075, -15.2847, 34.4001, -152.533, -81.0598, 96.1675
10.1435, 63, -8.54069, -15.0725, 34.2645, -152.585, -81.2281, 96.354
10.1514, 63, -8.4711, -14.8599, 34.1294, -152.636, -81.3968, 96.538
10.1595, 63, -8.40222, -14.6476, 33.9948, -152.685, -81.5658, 96.7197
10.1674, 64, -8.33372, -14.4355, 33.8606, -152.734, -81.7351, 96.8987
10.1754, 64, -8.26575, -14.2227, 33.7269, -152.781, -81.9044, 97.0753
10.1836, 64, -8.19842, -14.0101, 33.594, -152.827, -82.0739, 97.2497
10.1919, 64, -8.13151, -13.7986, 33.4614, -152.872, -82.2435, 97.4219
10.1998, 64, -8.06527, -13.5875, 33.3294, -152.916, -82.4133, 97.5914
10.2078, 64, -7.99954, -13.3764, 33.1979, -152.959, -82.5835, 97.7584
10.2158, 64, -7.93447, -13.1662, 33.0671, -153, -82.7536, 97.923
10.2239, 64, -7.86994, -12.9566, 32.9369, -153.04, -82.9238, 98.0848
10.2319, 64, -7.80584, -12.7467, 32.8074, -153.079, -83.094, 98.2443
10.2405, 64, -7.74234, -12.537, 32.6784, -153.117, -83.2644, 98.4014
10.248, 64, -7.67943, -12.3284, 32.5502, -153.154, -83.4347, 98.5558
10.2565, 65, -7.61693, -12.12, 32.4225, -153.19, -83.605, 98.7073
10.264, 65, -7.55499, -11.9115, 32.2958, -153.224, -83.7755, 98.8559
10.272, 65, -7.52425, -11.8076, 32.2327, -153.257, -83.9457, 99.0018
10.2794, 65, -7.46323, -11.6004, 32.107, -153.273, -84.0308, 99.0737
10.2887, 65, -7.37263, -11.29, 31.9198, -153.32, -84.2858, 99.2851
10.2974, 65, -7.31287, -11.0835, 31.7958, -153.35, -84.4557, 99.4225
10.3034, 65, -7.28317, -10.9807, 31.7341, -153.365, -84.5407, 99.4903
10.3143, 65, -7.19486, -10.6738, 31.5504, -153.406, -84.7951, 99.6894
10.3194, 65, -7.16575, -10.5716, 31.4895, -153.419, -84.8799, 99.7542
10.3274, 65, -7.10788, -10.3674, 31.3684, -153.445, -85.0492, 99.8819
10.3354, 65, -7.05048, -10.1645, 31.2481, -153.47, -85.2183, 100.007
10.3435, 65, -6.99366, -9.96221, 31.1284, -153.493, -85.387, 100.128
10.3514, 66, -6.93722, -9.75994, 31.0096, -153.516, -85.5554, 100.246
10.3626, 66, -6.85346, -9.45843, 30.833, -153.547, -85.8077, 100.418
10.3691, 66, -6.79839, -9.25908, 30.7165, -153.566, -85.9755, 100.528
10.3769, 66, -6.74373, -9.06018, 30.6007, -153.584, -86.1431, 100.636
10.3876, 66, -6.68959, -8.86198, 30.4857, -153.602, -86.3101, 100.74
10.3913, 66, -6.66271, -8.76341, 30.4284, -153.61, -86.3935, 100.792
10.3994, 66, -6.60921, -8.56694, 30.3147, -153.626, -86.5601, 100.891
10.4089, 66, -6.55621, -8.37081, 30.2019, -153.641, -86.7263, 100.988
10.4154, 66, -6.50382, -8.17501, 30.0901, -153.655, -86.8923, 101.081
10.4234, 66, -6.45175, -7.98056, 29.9792, -153.667, -87.0579, 101.171
10.4324, 66, -6.40012, -7.78738, 29.869, -153.679, -87.2231, 101.257
10.4393, 67, -6.3491, -7.59446, 29.7595, -153.689, -87.3879, 101.34
10.4474, 67, -6.29847, -7.40215, 29.6511, -153.698, -87.5524, 101.419
10.4554, 67, -6.24837, -7.21143, 29.5437, -153.706, -87.7166, 101.495
10.4636, 67, -6.1988, -7.02177, 29.4373, -153.713, -87.8803, 101.568
10.4724, 67, -6.14952, -6.83245, 29.3318, -153.719, -88.0436, 101.637
10.4803, 67, -6.1007, -6.64396, 29.227, -153.724, -88.2063, 101.703
10.4884, 67, -6.0523, -6.45706, 29.1229, -153.728, -88.3686, 101.765
10.4964, 67, -6.00439, -6.27124, 29.0198, -153.73, -88.5305, 101.824
10.5034, 67, -5.95689, -6.08586, 28.9178, -153.733, -88.6918, 101.88
10.5114, 67, -5.90994, -5.90123, 28.817, -153.734, -88.8527, 101.931
10.5193, 67, -5.86347, -5.71809, 28.7171, -153.734, -89.013, 101.979
10.5276, 68, -5.81731, -5.53571, 28.6179, -153.735, -89.1727, 102.023
10.5354, 68, -5.77158, -5.35357, 28.5194, -153.734, -89.3319, 102.064
10.5434, 68, -5.72619, -5.17241, 28.4216, -153.733, -89.4906, 102.101
10.5514, 68, -5.68109, -4.99303, 28.3252, -153.73, -89.6488, 102.133
10.5596, 68, -5.63635, -4.81496, 28.2298, -153.726, -89.8064, 102.162
10.5684, 68, -5.59216, -4.63735, 28.1353, -153.721, -89.9637, 102.187
10.5754, 68, -5.5484, -4.46074, 28.0417, -153.715, -90.1207, 102.208
10.5834, 68, -5.50496, -4.28593, 27.9488, -153.708, -90.2771, 102.226
10.5914, 68, -5.46195, -4.11217, 27.8565, -153.7, -90.4331, 102.24
10.5994, 68, -5.4194, -3.9388, 27.7653, -153.691, -90.5886, 102.25
10.6079, 68, -5.37717, -3.76619, 27.6753, -153.681, -90.7438, 102.256
10.6155, 68, -5.33517, -3.59521, 27.5864, -153.671, -90.8984, 102.259
10.6236, 69, -5.29358, -3.42554, 27.4984, -153.659, -91.0527, 102.26
10.6323, 69, -5.2524, -3.25636, 27.4111, -153.646, -91.2066, 102.257
10.6395, 69, -5.2115, -3.08789, 27.3245, -153.632, -91.3598, 102.249
10.6475, 69, -5.17104, -2.92087, 27.2388, -153.617, -91.5126, 102.236
10.6565, 69, -5.13091, -2.75538, 27.154, -153.601, -91.6647, 102.219
10.6636, 69, -5.09115, -2.59064, 27.0702, -153.584, -91.8163, 102.197
10.6733, 69, -5.05152, -2.42666, 26.9874, -153.567, -91.9674, 102.172
10.6833, 69, -5.0122, -2.26395, 26.9055, -153.54, -92.1931, 102.125
10.6875, 69, -4.9732, -2.10283, 26.8244, -153.531, -92.2679, 102.107
10.6956, 69, -4.93449, -1.94281, 26.7441, -153.512, -92.4175, 102.068
10.7047, 69, -4.89602, -1.78351, 26.6647, -153.492, -92.5663, 102.024
10.712, 70, -4.8578, -1.62513, 26.5861, -153.471, -92.7148, 101.976
10.7204, 70, -4.81997, -1.46808, 26.5084, -153.449, -92.8627, 101.923
10.7287, 70, -4.7824, -1.31243, 26.4317, -153.427, -93.0102, 101.866
10.7362, 70, -4.74508, -1.15759, 26.3558, -153.404, -93.1572, 101.805
10.744, 70, -4.70789, -1.00359, 26.2807, -153.381, -93.3038, 101.739
10.7529, 70, -4.6711, -0.850735, 26.2066, -153.357, -93.4498, 101.668
10.7624, 70, -4.63462, -0.699344, 26.1333, -153.332, -93.5954, 101.594
10.7685, 70, -4.59841, -0.549306, 26.0608, -153.306, -93.7406, 101.514
10.7759, 70, -4.58036, -0.474728, 26.0249, -153.293, -93.8129, 101.473
10.7844, 70, -4.52643, -0.25232, 25.9181, -153.254, -94.0295, 101.343
10.7914, 70, -4.50859, -0.178747, 25.8828, -153.241, -94.1014, 101.298
10.7993, 70, -4.47299, -0.0326099, 25.8131, -153.214, -94.2451, 101.204
10.8074, 71, -4.43743, 0.112165, 25.7442, -153.186, -94.3883, 101.105
10.8154, 71, -4.40198, 0.255778, 25.6763, -153.157, -94.5309, 101.002
10.8234, 71, -4.36675, 0.398575, 25.6093, -153.129, -94.673, 100.894
10.8315, 71, -4.33178, 0.540245, 25.5429, -153.1, -94.8146, 100.783
10.8393, 71, -4.2969, 0.680814, 25.4774, -153.07, -94.9557, 100.666
10.8492, 71, -4.24462, 0.889165, 25.3805, -153.024, -95.1664, 100.484
10.8554, 71, -4.22733, 0.95796, 25.3487, -153.009, -95.2363, 100.421
10.8649, 71, -4.17572, 1.16278, 25.2542, -152.963, -95.4456, 100.225
10.8714, 71, -4.15859, 1.23053, 25.2231, -152.947, -95.515, 100.158
10.8794, 71, -4.1244, 1.36498, 25.1614, -152.916, -95.6537, 100.021
10.889, 71, -4.07313, 1.56406, 25.0705, -152.867, -95.8601, 99.8064
10.8953, 72, -4.05613, 1.62969, 25.0406, -152.851, -95.9288, 99.7328
10.9049, 72, -4.02211, 1.7601, 24.9814, -152.819, -96.0654, 99.5822
10.9114, 72, -3.98824, 1.88943, 24.923, -152.787, -96.2015, 99.427
10.9203, 72, -3.95435, 2.01752, 24.8653, -152.754, -96.3372, 99.2679
10.9281, 72, -3.92044, 2.14431, 24.8084, -152.72, -96.4722, 99.1045
10.9383, 72, -3.88659, 2.33195, 24.7243, -152.671, -96.6736, 98.8517
10.9443, 72, -3.85267, 2.39381, 24.6967, -152.655, -96.7403, 98.7653
10.9522, 72, -3.81873, 2.51654, 24.642, -152.621, -96.8735, 98.5894
10.9594, 72, -3.78477, 2.63812, 24.5881, -152.587, -97.0058, 98.4093
10.9673, 72, -3.7508, 2.75844, 24.5348, -152.554, -97.1376, 98.2249
10.9761, 72, -3.71701, 2.87729, 24.4824, -152.521, -97.2686, 98.0367
10.9834, 72, -3.68321, 2.99472, 24.4307, -152.487, -97.3992, 97.8447
10.9914, 73, -3.64933, 3.11063, 24.3798, -152.453, -97.5288, 97.6487
11.0001, 73, -3.61536, 3.22507, 24.3297, -152.42, -97.6579, 97.4488
11.0084, 73, -3.5814, 3.33816, 24.2803, -152.387, -97.786, 97.2447
11.0163, 73, -3.54748, 3.44979, 24.2317, -152.354, -97.9133, 97.0369
11.0245, 73, -3.51343, 3.55987, 24.1838, -152.321, -98.04, 96.8255
11.0315, 73, -3.47919, 3.66841, 24.1367, -152.288, -98.1656, 96.6099
11.0393, 73, -3.44479, 3.77532, 24.0903, -152.256, -98.2907, 96.3906
11.0504, 73, -3.393, 3.93256, 24.022, -152.207, -98.4762, 96.0545
11.0554, 73, -3.37566, 3.9842, 23.9997, -152.191, -98.5377, 95.9407
11.0634, 73, -3.3408, 4.08633, 23.9555, -152.158, -98.6597, 95.7108
11.0714, 73, -3.30573, 4.18691, 23.9121, -152.127, -98.7806, 95.4776
11.0794, 74, -3.27064, 4.28578, 23.8695, -152.096, -98.9005, 95.241
11.0873, 74, -3.2355, 4.38299, 23.8275, -152.065, -99.0192, 95.0012
11.0954, 74, -3.20027, 4.47847, 23.7865, -152.034, -99.1369, 94.7585
11.1036, 74, -3.16472, 4.57211, 23.7462, -152.004, -99.2532, 94.5128
11.1123, 74, -3.12907, 4.66397, 23.7067, -151.974, -99.3683, 94.2642
11.1194, 74, -3.0934, 4.75403, 23.6681, -151.946, -99.4824, 94.0122
11.1275, 74, -3.05748, 4.84227, 23.6302, -151.917, -99.5948, 93.7572
11.1358, 74, -3.0213, 4.92859, 23.593, -151.888, -99.7063, 93.4997
11.1436, 74, -2.98486, 5.01297, 23.5567, -151.86, -99.8161, 93.2393
11.1515, 74, -2.94839, 5.09544, 23.5211, -151.833, -99.9244, 92.9762
11.1601, 74, -2.91176, 5.17593, 23.4863, -151.806, -100.032, 92.7108
11.1683, 75, -2.87489, 5.25438, 23.4525, -151.781, -100.137, 92.4433
11.1754, 75, -2.83759, 5.33078, 23.4194, -151.755, -100.241, 92.1738
11.1841, 75, -2.80018, 5.40505, 23.387, -151.73, -100.343, 91.9021
11.1923, 75, -2.76271, 5.47721, 23.3555, -151.706, -100.444, 91.6282
11.1999, 75, -2.72496, 5.54722, 23.325, -151.683, -100.543, 91.3522
11.2085, 75, -2.68686, 5.61505, 23.2952, -151.66, -100.64, 91.0744
11.2157, 75, -2.64851, 5.68069, 23.2663, -151.638, -100.735, 90.7944
11.2246, 75, -2.61012, 5.74406, 23.2384, -151.617, -100.829, 90.5126
11.2319, 75, -2.57147, 5.80515, 23.2113, -151.596, -100.921, 90.2294
11.2405, 75, -2.53246, 5.86397, 23.185, -151.576, -101.01, 89.9447
11.2488, 75, -2.49326, 5.92045, 23.1597, -151.557, -101.098, 89.6587
11.256, 75, -2.45396, 5.9745, 23.1354, -151.539, -101.184, 89.3714
11.2639, 76, -2.41443, 6.02611, 23.112, -151.521, -101.268, 89.0836
11.2727, 76, -2.3946, 6.05098, 23.0895, -151.505, -101.349, 88.7949
11.2799, 76, -2.35475, 6.09882, 23.0786, -151.497, -101.389, 88.505
11.2884, 76, -2.29464, 6.16571, 23.0472, -151.474, -101.505, 88.2141
11.2969, 76, -2.27453, 6.18674, 23.0373, -151.467, -101.58, 87.9228
11.3048, 76, -2.23404, 6.22684, 23.009, -151.446, -101.651, 87.6306
11.3114, 76, -2.1933, 6.26429, 23.0001, -151.439, -101.687, 87.4842
11.3216, 76, -2.13197, 6.31534, 22.975, -151.421, -101.789, 87.0439
11.3274, 76, -2.11144, 6.33108, 22.9671, -151.415, -101.821, 86.897
11.3367, 76, -2.04938, 6.37424, 22.9451, -151.4, -101.915, 86.4558
11.3433, 76, -2.02859, 6.38728, 22.9383, -151.395, -101.945, 86.3087
11.3534, 77, -1.96599, 6.42192, 22.9193, -151.382, -102.032, 85.8676
11.3593, 77, -1.94506, 6.43217, 22.9135, -151.379, -102.059, 85.7208
11.3689, 77, -1.8819, 6.45882, 22.8979, -151.368, -102.137, 85.2809
11.3755, 77, -1.86082, 6.46608, 22.8933, -151.365, -102.162, 85.1344
11.3838, 77, -1.81856, 6.47815, 22.885, -151.36, -102.208, 84.8416
11.3914, 77, -1.77609, 6.48749, 22.8777, -151.355, -102.251, 84.5493
11.4033, 77, -1.71204, 6.49624, 22.8691, -151.349, -102.312, 84.1115
11.4083, 77, -1.69069, 6.49765, 22.8668, -151.348, -102.33, 83.9656
11.4153, 77, -1.64797, 6.49845, 22.863, -151.345, -102.365, 83.6747
11.4233, 77, -1.60502, 6.49637, 22.8604, -151.344, -102.396, 83.3848
11.4323, 77, -1.56195, 6.49105, 22.8589, -151.343, -102.425, 83.0955
11.4394, 77, -1.51889, 6.48243, 22.8584, -151.342, -102.451, 82.807
11.4475, 78, -1.47562, 6.47092, 22.8588, -151.342, -102.473, 82.5196
11.4563, 78, -1.43213, 6.45652, 22.8606, -151.342, -102.492, 82.2335
11.4634, 78, -1.38859, 6.43875, 22.8637, -151.342, -102.507, 81.9483
11.4714, 78, -1.34509, 6.41754, 22.8681, -151.344, -102.519, 81.6645
11.4794, 78, -1.3015, 6.39334, 22.8739, -151.346, -102.528, 81.3821
11.4874, 78, -1.25772, 6.36587, 22.881, -151.349, -102.533, 81.1012
11.4995, 78, -1.19197, 6.31818, 22.8945, -151.356, -102.536, 80.6822
11.5034, 78, -1.17003, 6.30056, 22.8996, -151.358, -102.535, 80.5432
11.5114, 78, -1.12605, 6.26288, 22.9109, -151.363, -102.531, 80.2664
11.5193, 78, -1.08208, 6.22181, 22.9239, -151.37, -102.524, 79.9911
11.5275, 78, -1.03815, 6.17721, 22.9382, -151.376, -102.513, 79.7175
11.5354, 79, -0.994143, 6.12918, 22.9538, -151.384, -102.498, 79.4453
11.5433, 79, -0.949947, 6.07778, 22.9711, -151.392, -102.48, 79.1749
11.5514, 79, -0.905879, 6.02286, 22.9901, -151.4, -102.458, 78.9065
11.5593, 79, -0.861854, 5.96453, 23.0103, -151.409, -102.431, 78.6397
11.5673, 79, -0.817747, 5.9029, 23.0321, -151.419, -102.401, 78.3746
11.5753, 79, -0.773547, 5.83795, 23.0556, -151.429, -102.367, 78.1114
11.5833, 79, -0.729532, 5.76955, 23.0808, -151.44, -102.33, 77.8501
11.5915, 79, -0.685574, 5.69777, 23.1076, -151.452, -102.288, 77.5907
11.5994, 79, -0.641552, 5.62255, 23.1359, -151.464, -102.243, 77.3332
