rpiRobotics/ARM-21-02-F-19-Robot-Motion-Program/data_performance_abb/curve_1/baseline/100L/realrobot/bisect/run_2realrobot_curve_exe_v112.5_z10.csv
timestamp, cmd_num, J1, J2, J3, J4, J5, J6
0.000372, -1, 11.3779, 13.6138, 17.3392, -145.519, -97.923, 142.516
0.00566, -1, 11.3778, 13.6138, 17.3393, -145.519, -97.9229, 142.516
0.008421, -1, 11.3778, 13.6138, 17.3393, -145.519, -97.9229, 142.516
0.029785, -1, 11.3779, 13.6138, 17.3393, -145.519, -97.923, 142.516
0.033153, -1, 11.3779, 13.6138, 17.3393, -145.519, -97.923, 142.516
0.034405, -1, 11.3779, 13.6138, 17.3393, -145.519, -97.923, 142.516
0.03948, -1, 11.3779, 13.6138, 17.3393, -145.519, -97.923, 142.516
0.048346, -1, 11.3778, 13.6138, 17.3393, -145.519, -97.923, 142.516
0.055634, -1, 11.3771, 13.6138, 17.3392, -145.519, -97.923, 142.516
0.064211, -1, 11.3744, 13.6135, 17.3392, -145.519, -97.9229, 142.516
0.07171, -1, 11.3681, 13.6127, 17.339, -145.519, -97.9229, 142.516
0.080278, -1, 11.3569, 13.6108, 17.3385, -145.52, -97.9229, 142.514
0.087772, -1, 11.3395, 13.6072, 17.3377, -145.522, -97.9227, 142.505
0.096379, -1, 11.3129, 13.6011, 17.3368, -145.525, -97.922, 142.483
0.104547, -1, 11.2748, 13.5918, 17.3362, -145.532, -97.9203, 142.443
0.111926, -1, 11.2248, 13.5794, 17.3364, -145.544, -97.9168, 142.377
0.120305, -1, 11.1634, 13.5639, 17.338, -145.561, -97.9113, 142.281
0.128972, -1, 11.0903, 13.5447, 17.342, -145.584, -97.9035, 142.15
0.136241, -1, 11.0054, 13.5216, 17.3484, -145.613, -97.8934, 141.985
0.143214, -1, 10.9585, 13.5089, 17.3524, -145.629, -97.8876, 141.89
0.154027, -1, 10.8017, 13.4656, 17.3675, -145.686, -97.8677, 141.562
0.16039, -1, 10.6833, 13.4328, 17.3787, -145.728, -97.853, 141.316
0.167174, -1, 10.62, 13.4153, 17.3844, -145.75, -97.8453, 141.187
0.178024, -1, 10.4161, 13.3592, 17.4006, -145.819, -97.8217, 140.786
0.184569, -1, 10.2712, 13.3197, 17.4108, -145.866, -97.8055, 140.511
0.191174, -1, 10.197, 13.2996, 17.4159, -145.89, -97.7973, 140.373
0.199178, -1, 10.0459, 13.2589, 17.4259, -145.937, -97.7805, 140.096
0.207183, -1, 9.89219, 13.2177, 17.4359, -145.985, -97.7634, 139.817
0.216731, -1, 9.65907, 13.1557, 17.451, -146.057, -97.7376, 139.398
0.226244, -1, 9.50389, 13.1145, 17.4609, -146.105, -97.7206, 139.119
0.23127, -1, 9.42648, 13.0939, 17.4658, -146.129, -97.7122, 138.979
0.240125, -1, 9.27192, 13.0528, 17.4757, -146.177, -97.6955, 138.7
0.24816, -1, 9.11784, 13.0118, 17.4857, -146.225, -97.6788, 138.42
0.256195, -1, 8.96419, 12.9707, 17.4957, -146.273, -97.662, 138.14
0.264164, -1, 8.81061, 12.9298, 17.5059, -146.321, -97.645, 137.861
0.272224, -1, 8.65749, 12.8888, 17.5159, -146.369, -97.6276, 137.581
0.279182, -1, 8.50474, 12.8476, 17.526, -146.417, -97.6101, 137.301
0.287265, -1, 8.35195, 12.8064, 17.5362, -146.465, -97.5927, 137.021
0.295273, -1, 8.19878, 12.7651, 17.5463, -146.512, -97.5756, 136.741
0.303175, -1, 8.045, 12.7235, 17.5565, -146.561, -97.5587, 136.461
0.311243, -1, 7.89075, 12.6819, 17.5667, -146.609, -97.5421, 136.181
0.319206, -1, 7.73594, 12.6403, 17.5767, -146.656, -97.5254, 135.9
0.327186, -1, 7.58091, 12.5987, 17.5869, -146.704, -97.5087, 135.621
0.335304, -1, 7.42576, 12.5572, 17.5971, -146.753, -97.4916, 135.34
0.343192, -1, 7.27052, 12.5158, 17.6072, -146.8, -97.4743, 135.06
0.351173, -1, 7.1154, 12.4743, 17.6175, -146.848, -97.457, 134.78
0.359258, -1, 6.96013, 12.433, 17.6278, -146.897, -97.4398, 134.5
0.367183, -1, 6.80502, 12.3918, 17.6381, -146.944, -97.4229, 134.22
0.375229, -1, 6.65031, 12.3506, 17.6485, -146.993, -97.406, 133.939
0.383256, -1, 6.49577, 12.3094, 17.6589, -147.041, -97.3893, 133.659
0.391187, -1, 6.34147, 12.2681, 17.6692, -147.089, -97.3724, 133.379
0.399181, -1, 6.18728, 12.2267, 17.6794, -147.137, -97.3554, 133.098
0.407261, -1, 6.03294, 12.1853, 17.6897, -147.185, -97.3381, 132.817
0.415231, -1, 5.87838, 12.1439, 17.6999, -147.233, -97.3205, 132.537
0.423265, -1, 5.72368, 12.1023, 17.7101, -147.281, -97.303, 132.256
0.431441, -1, 5.56873, 12.0606, 17.7203, -147.329, -97.2858, 131.975
0.439205, -1, 5.41355, 12.019, 17.7306, -147.377, -97.2688, 131.694
0.447332, -1, 5.25817, 11.9774, 17.7408, -147.426, -97.252, 131.413
0.455615, -1, 5.10239, 11.9357, 17.7512, -147.474, -97.2353, 131.133
0.463262, -1, 4.94641, 11.8941, 17.7616, -147.522, -97.2184, 130.852
0.471346, -1, 4.79064, 11.8526, 17.772, -147.57, -97.2013, 130.571
0.480043, -1, 4.63483, 11.8111, 17.7823, -147.618, -97.1839, 130.29
0.488163, -1, 4.47911, 11.7697, 17.7927, -147.666, -97.1664, 130.009
0.625359, -1, 1.83534, 11.0626, 17.9686, -148.488, -96.8758, 125.224
0.62655, -1, 1.83534, 11.0626, 17.9686, -148.488, -96.8758, 125.224
0.62862, -1, 1.75708, 11.0418, 17.9738, -148.512, -96.8671, 125.083
0.62991, -1, 1.75708, 11.0418, 17.9738, -148.512, -96.8671, 125.083
0.631115, -1, 1.75708, 11.0418, 17.9738, -148.512, -96.8671, 125.083
0.633311, -1, 1.67886, 11.0209, 17.9791, -148.536, -96.8586, 124.942
0.634552, -1, 1.67886, 11.0209, 17.9791, -148.536, -96.8586, 124.942
0.640289, -1, 1.52269, 10.9792, 17.9895, -148.584, -96.8416, 124.66
0.778442, -1, -1.13001, 10.2693, 18.1658, -149.408, -96.5506, 119.857
0.779721, -1, -1.13001, 10.2693, 18.1658, -149.408, -96.5506, 119.857
0.783874, -1, -1.20855, 10.2484, 18.171, -149.433, -96.5421, 119.716
0.78607, -1, -1.28707, 10.2275, 18.1761, -149.457, -96.5337, 119.574
0.787296, -1, -1.28707, 10.2275, 18.1761, -149.457, -96.5337, 119.574
0.788494, -1, -1.28707, 10.2275, 18.1761, -149.457, -96.5337, 119.574
0.790547, -1, -1.36549, 10.2066, 18.1813, -149.482, -96.5253, 119.432
0.796199, -1, -1.44383, 10.1857, 18.1865, -149.506, -96.5169, 119.291
0.798318, -1, -1.52214, 10.1649, 18.1917, -149.53, -96.5085, 119.149
0.799518, -1, -1.52214, 10.1649, 18.1917, -149.53, -96.5085, 119.149
0.801384, -1, -1.52214, 10.144, 18.197, -149.554, -96.5, 119.008
0.802789, -1, -1.60038, 10.144, 18.197, -149.554, -96.5, 119.008
0.80408, -1, -1.60038, 10.144, 18.197, -149.554, -96.5, 119.008
0.806689, -1, -1.6785, 10.123, 18.2022, -149.579, -96.4915, 118.866
0.809404, -1, -1.75648, 10.1021, 18.2074, -149.603, -96.483, 118.724
0.810901, -1, -1.75648, 10.1021, 18.2074, -149.603, -96.483, 118.724
0.812117, -1, -1.75648, 10.1021, 18.2074, -149.603, -96.483, 118.724
0.814161, -1, -1.83435, 10.0812, 18.2126, -149.628, -96.4743, 118.583
0.815368, -1, -1.83435, 10.0812, 18.2126, -149.628, -96.4743, 118.583
0.816712, -1, -1.83435, 10.0812, 18.2126, -149.628, -96.4743, 118.583
0.818946, -1, -1.91211, 10.0603, 18.2178, -149.652, -96.4656, 118.441
0.820141, -1, -1.91211, 10.0603, 18.2178, -149.652, -96.4656, 118.441
0.823148, -1, -1.9898, 10.0394, 18.223, -149.676, -96.4568, 118.299
0.824374, -1, -1.9898, 10.0394, 18.223, -149.676, -96.4568, 118.299
0.826406, -1, -2.06741, 10.0185, 18.2283, -149.7, -96.4479, 118.157
0.827608, -1, -2.06741, 10.0185, 18.2283, -149.7, -96.4479, 118.157
0.830251, -1, -2.06741, 10.0185, 18.2283, -149.725, -96.4391, 118.016
0.83241, -1, -2.14498, 9.99753, 18.2334, -149.725, -96.4391, 118.016
0.834472, -1, -2.22256, 9.97664, 18.2386, -149.749, -96.4303, 117.874
0.835667, -1, -2.22256, 9.97664, 18.2386, -149.749, -96.4303, 117.874
0.8385, -1, -2.30017, 9.95576, 18.2438, -149.773, -96.4217, 117.732
0.839688, -1, -2.30017, 9.95576, 18.2438, -149.773, -96.4217, 117.732
0.841582, -1, -2.30017, 9.95576, 18.2438, -149.773, -96.4131, 117.59
0.843117, -1, -2.37783, 9.93483, 18.249, -149.798, -96.4131, 117.59
0.844445, -1, -2.37783, 9.93483, 18.249, -149.798, -96.4131, 117.59
0.846594, -1, -2.45558, 9.91387, 18.2542, -149.822, -96.4046, 117.449
0.847991, -1, -2.45558, 9.91387, 18.2542, -149.822, -96.4046, 117.449
0.857762, -1, -2.61127, 9.85096, 18.2698, -149.895, -96.3792, 117.023
0.864225, -1, -2.7674, 9.83, 18.275, -149.919, -96.3708, 116.881
0.872148, -1, -2.92377, 9.7881, 18.2854, -149.967, -96.354, 116.598
0.880156, -1, -3.08064, 9.7462, 18.2957, -150.016, -96.337, 116.314
0.887151, -1, -3.23798, 9.70429, 18.3061, -150.065, -96.3197, 116.03
0.895172, -1, -3.39568, 9.66233, 18.3166, -150.113, -96.3021, 115.746
0.903944, -1, -3.5536, 9.62037, 18.3271, -150.162, -96.2845, 115.462
0.912208, -1, -3.71142, 9.57853, 18.3375, -150.211, -96.2672, 115.178
0.919151, -1, -3.86933, 9.53661, 18.3478, -150.259, -96.2502, 114.894
0.928035, -1, -4.02729, 9.49463, 18.3581, -150.308, -96.2332, 114.61
0.93626, -1, -4.18507, 9.45277, 18.3685, -150.357, -96.2162, 114.326
0.943204, -1, -4.3428, 9.41085, 18.3788, -150.406, -96.1992, 114.041
0.952132, -1, -4.50013, 9.36886, 18.3891, -150.455, -96.1819, 113.756
0.959262, -1, -4.65713, 9.32686, 18.3994, -150.504, -96.1642, 113.472
0.967358, -1, -4.81371, 9.28487, 18.4097, -150.552, -96.1465, 113.187
0.975563, -1, -4.96992, 9.24282, 18.4202, -150.602, -96.129, 112.903
0.983279, -1, -5.1259, 9.2008, 18.4307, -150.65, -96.1118, 112.618
0.991282, -1, -5.28183, 9.15875, 18.4412, -150.699, -96.0948, 112.333
0.99995, -1, -5.43787, 9.11663, 18.4517, -150.748, -96.0781, 112.049
1.00821, -1, -5.59411, 9.07456, 18.462, -150.797, -96.0612, 111.764
1.01599, -1, -5.75064, 9.03252, 18.4724, -150.845, -96.0441, 111.479
1.02453, -1, -5.90761, 8.99036, 18.4828, -150.895, -96.0266, 111.194
1.03127, -1, -6.06499, 8.94825, 18.493, -150.943, -96.009, 110.909
1.04019, -1, -6.223, 8.90617, 18.5033, -150.992, -95.9915, 110.624
1.04739, -1, -6.38136, 8.86406, 18.5136, -151.041, -95.9743, 110.339
1.05553, -1, -6.53979, 8.82205, 18.524, -151.09, -95.9573, 110.054
1.06441, -1, -6.69836, 8.77997, 18.5345, -151.139, -95.9403, 109.768
1.07158, -1, -6.85709, 8.73788, 18.545, -151.188, -95.9234, 109.483
1.07975, -1, -7.01562, 8.69584, 18.5555, -151.237, -95.9062, 109.197
1.08853, -1, -7.1741, 8.65376, 18.5659, -151.286, -95.8888, 108.912
1.09579, -1, -7.33235, 8.61162, 18.5762, -151.335, -95.871, 108.626
1.10426, -1, -7.4902, 8.56939, 18.5867, -151.384, -95.8532, 108.34
1.11256, -1, -7.56908, 8.54827, 18.5971, -151.433, -95.8358, 108.055
1.1197, -1, -7.7266, 8.506, 18.6023, -151.458, -95.8272, 107.769
1.12775, -1, -7.88362, 8.46382, 18.6127, -151.507, -95.8101, 107.627
1.13701, -1, -8.1186, 8.40038, 18.6283, -151.58, -95.7847, 107.198
1.14314, -1, -8.19691, 8.37924, 18.6335, -151.605, -95.7763, 107.055
1.15119, -1, -8.35357, 8.33695, 18.644, -151.654, -95.7592, 106.769
1.16117, -1, -8.58897, 8.27348, 18.6598, -151.727, -95.733, 106.34
1.16718, -1, -8.66761, 8.25236, 18.6651, -151.752, -95.7242, 106.197
1.17516, -1, -8.82519, 8.21011, 18.6755, -151.801, -95.7065, 105.91
1.18532, -1, -9.06221, 8.14668, 18.691, -151.875, -95.6804, 105.481
1.19118, -1, -9.14146, 8.12557, 18.6962, -151.899, -95.6718, 105.338
1.20072, -1, -9.37972, 8.06228, 18.7118, -151.973, -95.6461, 104.908
1.20948, -1, -9.53883, 8.01995, 18.7223, -152.022, -95.629, 104.621
1.2152, -1, -9.61842, 7.99884, 18.7275, -152.047, -95.6204, 104.478
1.22474, -1, -9.85724, 7.93561, 18.7431, -152.121, -95.5941, 104.048
1.23353, -1, -10.0166, 7.8933, 18.7537, -152.17, -95.5763, 103.761
1.2392, -1, -10.0963, 7.87213, 18.759, -152.195, -95.5673, 103.617
1.24915, -1, -10.3349, 7.80851, 18.7748, -152.268, -95.5408, 103.187
1.25514, -1, -10.4142, 7.78727, 18.7801, -152.293, -95.5322, 103.044
1.26416, -1, -10.5728, 7.7448, 18.7905, -152.343, -95.5151, 102.757
1.27113, -1, -10.7313, 7.70239, 18.8009, -152.392, -95.4981, 102.47
1.27914, -1, -10.8891, 7.65988, 18.8113, -152.441, -95.4811, 102.183
1.28721, -1, -11.0467, 7.61738, 18.8217, -152.49, -95.4638, 101.896
1.29517, -1, -11.2043, 7.57492, 18.8321, -152.539, -95.4464, 101.608
1.30314, -1, -11.3617, 7.53249, 18.8425, -152.589, -95.4285, 101.321
1.31115, -1, -11.5192, 7.49004, 18.8529, -152.638, -95.4108, 101.033
1.31913, -1, -11.6769, 7.44764, 18.8635, -152.687, -95.3933, 100.746
1.32723, -1, -11.8351, 7.40525, 18.8741, -152.737, -95.376, 100.458
1.33514, -1, -11.9937, 7.36288, 18.8846, -152.786, -95.3589, 100.17
1.34314, -1, -12.1527, 7.32055, 18.8952, -152.836, -95.3417, 99.8827
1.35123, -1, -12.3121, 7.27819, 18.9056, -152.885, -95.3244, 99.5949
1.35914, -1, -12.4718, 7.23579, 18.9161, -152.935, -95.3069, 99.3069
1.36714, -1, -12.6318, 7.19343, 18.9266, -152.984, -95.289, 99.0191
1.3752, -1, -12.7918, 7.15102, 18.9371, -153.033, -95.2711, 98.7314
1.38313, -1, -12.9519, 7.10853, 18.9477, -153.083, -95.2534, 98.4433
1.39114, -1, -13.1119, 7.06598, 18.9582, -153.132, -95.236, 98.1551
1.39922, -1, -13.2718, 7.02342, 18.9687, -153.182, -95.2188, 97.8671
1.40714, -1, -13.4311, 6.98082, 18.9793, -153.231, -95.2017, 97.5789
1.41514, -1, -13.5904, 6.93811, 18.9898, -153.28, -95.1846, 97.2904
1.42324, -1, -13.7496, 6.8954, 19.0004, -153.33, -95.1673, 97.0019
1.43117, -1, -13.9084, 6.85277, 19.0108, -153.38, -95.1497, 96.7135
1.43915, -1, -14.0667, 6.81008, 19.0213, -153.429, -95.1318, 96.4249
1.44724, -1, -14.2248, 6.76751, 19.0318, -153.478, -95.1142, 96.136
1.45521, -1, -14.3831, 6.72487, 19.0423, -153.528, -95.0967, 95.847
1.4633, -1, -14.5415, 6.68222, 19.0527, -153.577, -95.0795, 95.5582
1.47127, -1, -14.7001, 6.63969, 19.0633, -153.627, -95.0624, 95.2691
1.47924, -1, -14.8592, 6.5972, 19.0737, -153.676, -95.0452, 94.9797
1.48731, -1, -15.0185, 6.55458, 19.0844, -153.726, -95.0279, 94.6907
1.49528, -1, -15.1783, 6.51201, 19.095, -153.776, -95.0102, 94.4017
1.50314, -1, -15.3385, 6.4695, 19.1057, -153.825, -94.9922, 94.1127
1.51125, -1, -15.4989, 6.42687, 19.1163, -153.875, -94.9742, 93.8232
1.51918, -1, -15.6597, 6.38421, 19.1268, -153.925, -94.9566, 93.5341
1.5272, -1, -15.8204, 6.34151, 19.1373, -153.974, -94.9392, 93.2449
1.53538, -1, -15.9811, 6.29873, 19.148, -154.024, -94.9221, 92.9555
1.54352, -1, -16.1418, 6.2559, 19.1585, -154.074, -94.9049, 92.6657
1.55145, -1, -16.3026, 6.21308, 19.169, -154.123, -94.8876, 92.3762
1.55956, -1, -16.4631, 6.17016, 19.1794, -154.173, -94.8702, 92.0866
1.56756, -1, -16.6232, 6.12721, 19.1899, -154.223, -94.8524, 91.7966
1.57624, -1, -16.7831, 6.08432, 19.2005, -154.272, -94.8344, 91.5065
1.5837, -1, -16.9424, 6.04138, 19.2111, -154.322, -94.8167, 91.2165
1.59223, -1, -17.1017, 5.99846, 19.2217, -154.372, -94.7993, 90.9263
1.59972, -1, -17.2607, 5.95561, 19.2323, -154.421, -94.7818, 90.6361
1.6083, -1, -17.4199, 5.91282, 19.2428, -154.471, -94.7645, 90.3458
1.61573, -1, -17.4995, 5.89142, 19.2482, -154.521, -94.7471, 90.0558
1.62414, -1, -17.7387, 5.8273, 19.2641, -154.57, -94.7296, 89.7656
1.63116, -1, -17.8184, 5.8059, 19.2695, -154.595, -94.7206, 89.6204
1.64025, -1, -18.0583, 5.74184, 19.2854, -154.671, -94.6935, 89.1846
1.64717, -1, -18.1386, 5.72049, 19.2907, -154.695, -94.6845, 89.0394
1.65648, -1, -18.3799, 5.65636, 19.3066, -154.77, -94.6579, 88.6035
1.66438, -1, -18.5413, 5.61347, 19.3174, -154.82, -94.6406, 88.3126
1.67118, -1, -18.6221, 5.59199, 19.3227, -154.845, -94.6319, 88.1672
1.68053, -1, -18.8644, 5.52758, 19.3386, -154.92, -94.606, 87.7311
1.68716, -1, -18.9452, 5.5061, 19.3439, -154.945, -94.5973, 87.5856
1.69517, -1, -19.1068, 5.46304, 19.3544, -154.995, -94.5797, 87.2943
1.70473, -1, -19.3489, 5.39839, 19.3703, -155.07, -94.5526, 86.8574
1.71268, -1, -19.51, 5.35528, 19.3808, -155.12, -94.5346, 86.5659
1.72067, -1, -19.6708, 5.31208, 19.3914, -155.17, -94.5168, 86.2743
1.72873, -1, -19.8314, 5.269, 19.402, -155.22, -94.4993, 85.9827
1.73697, -1, -19.9117, 5.22588, 19.4125, -155.27, -94.482, 85.6913
1.74312, -1, -20.0719, 5.20431, 19.4179, -155.295, -94.4733, 85.5455
1.75213, -1, -20.2318, 5.16131, 19.4287, -155.345, -94.4559, 85.254
1.75918, -1, -20.3917, 5.11842, 19.4395, -155.395, -94.4383, 84.9621
1.76819, -1, -20.5518, 5.07542, 19.4503, -155.445, -94.4203, 84.6705
1.77611, -1, -20.712, 5.03243, 19.4609, -155.495, -94.4022, 84.3786
1.78317, -1, -20.8725, 4.98956, 19.4715, -155.545, -94.3843, 84.0866
1.79112, -1, -21.0335, 4.9466, 19.4822, -155.595, -94.3668, 83.7944
1.79916, -1, -21.1948, 4.90358, 19.4928, -155.646, -94.3495, 83.5024
1.80714, -1, -21.3566, 4.86052, 19.5034, -155.696, -94.3323, 83.2105
1.81512, -1, -21.5187, 4.81735, 19.514, -155.746, -94.315, 82.9181
1.82412, -1, -21.6808, 4.77415, 19.5247, -155.797, -94.2975, 82.6257
1.83115, -1, -21.8431, 4.73096, 19.5354, -155.847, -94.2798, 82.3332
1.83913, -1, -22.0054, 4.68762, 19.5462, -155.897, -94.2619, 82.0406
1.8472, -1, -22.1679, 4.64425, 19.5569, -155.947, -94.244, 81.7479
1.8552, -1, -22.3303, 4.60094, 19.5676, -155.997, -94.2264, 81.4554
1.86312, -1, -22.4924, 4.55759, 19.5782, -156.047, -94.2089, 81.1627
1.87214, -1, -22.6541, 4.51421, 19.5889, -156.098, -94.1914, 80.8699
1.88017, -1, -22.8157, 4.47084, 19.5995, -156.148, -94.174, 80.577
1.8881, -1, -22.9768, 4.42755, 19.6102, -156.198, -94.1564, 80.2841
1.8952, -1, -23.1379, 4.3843, 19.6209, -156.248, -94.1384, 79.9913
1.90314, -1, -23.2989, 4.34107, 19.6316, -156.299, -94.1203, 79.698
1.91112, -1, -23.4598, 4.29788, 19.6425, -156.349, -94.102, 79.4046
1.91919, -1, -23.6207, 4.25467, 19.6533, -156.4, -94.084, 79.1113
1.92714, -1, -23.7819, 4.21149, 19.664, -156.45, -94.0664, 78.818
1.93521, -1, -23.9432, 4.1683, 19.6748, -156.5, -94.0489, 78.5243
1.94331, -1, -24.105, 4.12497, 19.6854, -156.551, -94.0316, 78.2305
1.95116, -1, -24.2672, 4.08164, 19.6961, -156.601, -94.0141, 77.9368
1.95927, -1, -24.4299, 4.03826, 19.7068, -156.652, -93.9962, 77.6428
1.96803, -1, -24.5929, 3.99478, 19.7174, -156.702, -93.9781, 77.3487
1.9761, -1, -24.7561, 3.95124, 19.728, -156.752, -93.96, 77.0547
1.98328, -1, -24.9193, 3.90772, 19.7386, -156.803, -93.9421, 76.7607
1.99199, -1, -25.0827, 3.8642, 19.7494, -156.853, -93.9245, 76.4667
2.0001, -1, -25.246, 3.82062, 19.7603, -156.903, -93.907, 76.1723
2.00726, -1, -25.4088, 3.77708, 19.7711, -156.954, -93.8895, 75.878
2.01656, -1, -25.5716, 3.73346, 19.7818, -157.004, -93.8718, 75.5838
2.0241, -1, -25.7342, 3.68986, 19.7925, -157.055, -93.8539, 75.2893
2.03127, -1, -25.8966, 3.64644, 19.8032, -157.105, -93.8356, 74.9945
2.03927, -1, -26.0587, 3.603, 19.8139, -157.155, -93.8173, 74.7
2.04741, -1, -26.2204, 3.55952, 19.8247, -157.206, -93.7991, 74.4055
2.05543, -1, -26.382, 3.51621, 19.8354, -157.257, -93.7812, 74.1107
2.06345, -1, -26.5438, 3.47279, 19.8461, -157.307, -93.7636, 73.8155
2.07167, -1, -26.7057, 3.42934, 19.8568, -157.358, -93.746, 73.5206
2.08025, -1, -26.868, 3.3859, 19.8677, -157.409, -93.7283, 73.2255
2.08767, -1, -27.0307, 3.34234, 19.8785, -157.459, -93.7104, 72.9303
2.09566, -1, -27.1936, 3.29875, 19.8893, -157.51, -93.6922, 72.635
2.10423, -1, -27.3569, 3.2552, 19.9, -157.561, -93.6738, 72.3398
2.11173, -1, -27.5206, 3.21146, 19.9107, -157.611, -93.6558, 72.0446
2.12029, -1, -27.6845, 3.16773, 19.9215, -157.662, -93.6379, 71.7491
2.12711, -1, -27.7665, 3.14589, 19.9269, -157.687, -93.6291, 71.6012
2.13614, -1, -28.0127, 3.08034, 19.943, -157.763, -93.6025, 71.1582
2.14311, -1, -28.0947, 3.0585, 19.9484, -157.789, -93.5936, 71.0103
2.15215, -1, -28.3409, 2.99291, 19.9645, -157.865, -93.5667, 70.5664
2.15916, -1, -28.423, 2.97104, 19.9699, -157.89, -93.5577, 70.4183
2.16843, -1, -28.6685, 2.90555, 19.9863, -157.966, -93.53, 69.9747
2.1751, -1, -28.7502, 2.88373, 19.9917, -157.992, -93.5209, 69.8267
2.18441, -1, -28.9949, 2.81822, 20.0079, -158.068, -93.4939, 69.3821
2.19114, -1, -29.0763, 2.79639, 20.0132, -158.094, -93.485, 69.2339
2.20054, -1, -29.3203, 2.73094, 20.0294, -158.169, -93.4586, 68.7891
2.20868, -1, -29.4831, 2.68732, 20.0402, -158.221, -93.441, 68.4924
2.21675, -1, -29.646, 2.64359, 20.0509, -158.272, -93.4231, 68.1956
2.22465, -1, -29.809, 2.59983, 20.0617, -158.322, -93.4049, 67.8989
2.23266, -1, -29.9722, 2.55609, 20.0725, -158.374, -93.3865, 67.6022
2.24082, -1, -30.1356, 2.51228, 20.0834, -158.424, -93.3682, 67.3053
2.24865, -1, -30.2174, 2.49031, 20.0888, -158.45, -93.3592, 67.1567
2.25611, -1, -30.3815, 2.44636, 20.0997, -158.501, -93.3414, 66.8599
2.26415, -1, -30.5461, 2.40243, 20.1106, -158.552, -93.3236, 66.5629
2.27212, -1, -30.711, 2.35843, 20.1214, -158.602, -93.306, 66.2656
2.2801, -1, -30.876, 2.3145, 20.1321, -158.654, -93.2882, 65.9682
2.28815, -1, -31.0409, 2.27054, 20.143, -158.705, -93.27, 65.6711
2.29612, -1, -31.2059, 2.22651, 20.1538, -158.755, -93.2516, 65.3739
2.30409, -1, -31.3708, 2.18265, 20.1646, -158.807, -93.2332, 65.0762
2.3121, -1, -31.5354, 2.13878, 20.1754, -158.858, -93.2149, 64.7785
2.3201, -1, -31.7, 2.09477, 20.1861, -158.909, -93.1971, 64.4808
2.32817, -1, -31.8642, 2.05087, 20.197, -158.96, -93.1794, 64.183
2.3361, -1, -32.0282, 2.00699, 20.208, -159.011, -93.1618, 63.8849
2.34411, -1, -32.192, 1.96298, 20.219, -159.062, -93.1441, 63.5871
2.35215, -1, -32.3556, 1.91907, 20.2299, -159.114, -93.1261, 63.2893
2.36015, -1, -32.5192, 1.87508, 20.2407, -159.165, -93.1078, 62.9913
2.36809, -1, -32.683, 1.83101, 20.2517, -159.216, -93.0894, 62.6931
2.37619, -1, -32.8469, 1.787, 20.2626, -159.268, -93.0713, 62.3948
2.38409, -1, -33.011, 1.74287, 20.2735, -159.318, -93.0533, 62.0965
2.3921, -1, -33.1756, 1.69872, 20.2844, -159.37, -93.0355, 61.7979
2.40017, -1, -33.3406, 1.65454, 20.2952, -159.421, -93.0177, 61.4992
2.40712, -1, -33.506, 1.61037, 20.3061, -159.472, -92.9997, 61.2008
2.41517, -1, -33.6717, 1.56619, 20.3171, -159.524, -92.9815, 60.9022
2.42313, -1, -33.8373, 1.52201, 20.328, -159.575, -92.9629, 60.6032
2.43111, -1, -34.0031, 1.47785, 20.3389, -159.626, -92.9442, 60.3042
2.44012, -1, -34.169, 1.43371, 20.3498, -159.677, -92.9258, 60.0052
2.44713, -1, -34.3349, 1.38961, 20.3607, -159.729, -92.9077, 59.7059
2.45517, -1, -34.5009, 1.34545, 20.3716, -159.78, -92.8898, 59.4063
2.46326, -1, -34.6665, 1.3013, 20.3824, -159.832, -92.872, 59.107
2.47123, -1, -34.8317, 1.25717, 20.3933, -159.883, -92.8542, 58.8078
2.4792, -1, -34.9966, 1.21301, 20.4042, -159.934, -92.836, 58.5084
2.48727, -1, -35.1613, 1.16884, 20.4152, -159.986, -92.8176, 58.2085
2.4952, -1, -35.3258, 1.12458, 20.4262, -160.037, -92.799, 57.9089
2.50319, -1, -35.4899, 1.08046, 20.4373, -160.089, -92.7807, 57.6093
2.51148, -1, -35.6525, 1.0367, 20.4486, -160.14, -92.7626, 57.3095
2.51915, -1, -35.8124, 0.99346, 20.46, -160.191, -92.7448, 57.0109
2.52717, -1, -35.9685, 0.95125, 20.4717, -160.242, -92.7271, 56.7152
2.53531, -1, -36.1196, 0.910632, 20.4836, -160.291, -92.7096, 56.4251
2.54332, -1, -36.2634, 0.872158, 20.4955, -160.339, -92.6925, 56.1449
2.55136, -1, -36.3977, 0.836484, 20.5071, -160.384, -92.6759, 55.8804
2.55974, -1, -36.5208, 0.803933, 20.5177, -160.425, -92.6605, 55.638
2.56816, -1, -36.6313, 0.774685, 20.527, -160.461, -92.6471, 55.4231
2.57558, -1, -36.7275, 0.749299, 20.5346, -160.492, -92.6359, 55.241
2.58417, -1, -36.8089, 0.727661, 20.54, -160.517, -92.627, 55.094
2.59172, -1, -36.8765, 0.709701, 20.543, -160.537, -92.6203, 54.9818
2.60019, -1, -36.931, 0.695347, 20.5444, -160.551, -92.6157, 54.9019
2.60793, -1, -36.9728, 0.684359, 20.5448, -160.56, -92.6126, 54.8475
2.61644, -1, -37.0035, 0.676244, 20.5446, -160.566, -92.6108, 54.8142
2.62414, -1, -37.0247, 0.670651, 20.544, -160.569, -92.6099, 54.7952
2.63181, -1, -37.0323, 0.668727, 20.5438, -160.57, -92.6096, 54.7854
2.6404, 2, -37.0456, 0.665546, 20.5434, -160.572, -92.6091, 54.7808
2.64709, 2, -37.0475, 0.665068, 20.5434, -160.572, -92.609, 54.7795
2.65633, 2, -37.0486, 0.664401, 20.5433, -160.573, -92.609, 54.7778
2.66315, 2, -37.0484, 0.664318, 20.5433, -160.573, -92.609, 54.7775
2.6723, 2, -37.048, 0.664197, 20.5432, -160.573, -92.6089, 54.7771
2.67914, 2, -37.0481, 0.66418, 20.5432, -160.573, -92.6089, 54.7771
2.68709, 2, -37.0487, 0.664129, 20.5432, -160.573, -92.609, 54.7772
2.69658, 2, -37.0503, 0.664012, 20.543, -160.573, -92.609, 54.7774
2.70503, 2, -37.0516, 0.663801, 20.5428, -160.573, -92.6091, 54.7774
2.7111, 2, -37.0523, 0.663674, 20.5427, -160.573, -92.6091, 54.7775
2.72061, 2, -37.054, 0.663315, 20.5425, -160.573, -92.6092, 54.7778
2.7289, 2, -37.055, 0.663114, 20.5423, -160.573, -92.6092, 54.778
2.7367, 2, -37.0554, 0.662986, 20.5421, -160.573, -92.6092, 54.7781
2.74467, 2, -37.0554, 0.662972, 20.542, -160.573, -92.6093, 54.7784
2.75309, 2, -37.0548, 0.662971, 20.5418, -160.573, -92.6092, 54.7787
2.75915, 2, -37.0544, 0.663009, 20.5418, -160.573, -92.6092, 54.7788
2.76807, 2, -37.0535, 0.663091, 20.5417, -160.573, -92.6093, 54.7791
2.77703, 2, -37.0521, 0.663163, 20.5417, -160.573, -92.6094, 54.7794
2.78308, 2, -37.0505, 0.663295, 20.5416, -160.573, -92.6094, 54.7795
2.79109, 2, -37.0492, 0.663417, 20.5416, -160.573, -92.6094, 54.7797
2.80008, 2, -37.0483, 0.663424, 20.5415, -160.573, -92.6094, 54.7798
2.8071, 2, -37.0478, 0.663427, 20.5415, -160.573, -92.6094, 54.7798
2.81508, 2, -37.0477, 0.663411, 20.5415, -160.573, -92.6095, 54.7799
2.82408, 2, -37.0478, 0.663342, 20.5415, -160.573, -92.6095, 54.78
2.83109, 2, -37.048, 0.663267, 20.5415, -160.573, -92.6095, 54.78
2.83911, 2, -37.0484, 0.663222, 20.5414, -160.573, -92.6095, 54.7801
2.84715, 2, -37.0491, 0.663181, 20.5414, -160.573, -92.6095, 54.7801
2.85508, 2, -37.0499, 0.663168, 20.5414, -160.573, -92.6095, 54.7802
2.86308, 2, -37.0507, 0.663164, 20.5414, -160.573, -92.6095, 54.7803
2.87208, 2, -37.0513, 0.663167, 20.5414, -160.573, -92.6095, 54.7803
2.88016, 2, -37.0517, 0.663198, 20.5414, -160.573, -92.6095, 54.7803
2.88807, 2, -37.0518, 0.663219, 20.5414, -160.573, -92.6095, 54.7804
2.89515, 2, -37.0518, 0.663249, 20.5414, -160.573, -92.6096, 54.7804
2.90308, 2, -37.0517, 0.66326, 20.5413, -160.573, -92.6096, 54.7804
2.91111, 2, -37.0512, 0.663267, 20.5414, -160.573, -92.6096, 54.7805
2.91915, 2, -37.0508, 0.663256, 20.5413, -160.573, -92.6096, 54.7805
2.9271, 2, -37.0505, 0.663235, 20.5413, -160.573, -92.6096, 54.7805
2.93508, 2, -37.0503, 0.663218, 20.5413, -160.573, -92.6096, 54.7806
2.9441, 2, -37.0502, 0.663192, 20.5413, -160.573, -92.6096, 54.7807
2.95214, 2, -37.05, 0.66316, 20.5413, -160.573, -92.6096, 54.7807
2.95915, 2, -37.0501, 0.663148, 20.5413, -160.573, -92.6097, 54.7807
2.96726, 2, -37.0501, 0.66316, 20.5413, -160.573, -92.6097, 54.7807
2.97519, 2, -37.0502, 0.663165, 20.5412, -160.573, -92.6097, 54.7808
2.98318, 2, -37.0503, 0.663186, 20.5412, -160.573, -92.6097, 54.7809
2.99128, 2, -37.0505, 0.663207, 20.5412, -160.573, -92.6096, 54.7809
2.99918, 2, -37.0507, 0.663236, 20.5412, -160.572, -92.6097, 54.781
3.00726, 2, -37.0508, 0.663256, 20.5412, -160.573, -92.6097, 54.781
3.01514, 2, -37.0509, 0.663251, 20.5412, -160.573, -92.6097, 54.7811
3.02312, 2, -37.0509, 0.663244, 20.5412, -160.572, -92.6097, 54.7811
3.03116, 2, -37.0509, 0.663242, 20.5412, -160.572, -92.6097, 54.7812
3.03922, 2, -37.0508, 0.663221, 20.5412, -160.572, -92.6097, 54.7812
3.0473, 2, -37.0507, 0.663212, 20.5412, -160.572, -92.6097, 54.7812
3.05536, 2, -37.0507, 0.663189, 20.5412, -160.572, -92.6097, 54.7812
3.06341, 2, -37.0506, 0.663208, 20.5412, -160.572, -92.6097, 54.7813
3.07152, 2, -37.0506, 0.663195, 20.5412, -160.572, -92.6098, 54.7813
3.07956, 2, -37.0506, 0.6632, 20.5411, -160.572, -92.6098, 54.7814
3.08817, 2, -37.0506, 0.663213, 20.5411, -160.572, -92.6098, 54.7814
3.09569, 2, -37.0506, 0.663234, 20.5411, -160.572, -92.6098, 54.7815
3.10417, 2, -37.0506, 0.66323, 20.5411, -160.572, -92.6098, 54.7815
3.11167, 2, -37.0506, 0.663246, 20.5411, -160.572, -92.6098, 54.7816
3.12021, 2, -37.0507, 0.663266, 20.5411, -160.572, -92.6098, 54.7817
3.1277, 2, -37.0507, 0.663271, 20.5411, -160.572, -92.6098, 54.7817
3.13612, 2, -37.0506, 0.663264, 20.5411, -160.572, -92.6099, 54.7817
3.14309, 2, -37.0506, 0.663255, 20.5411, -160.572, -92.6099, 54.7817
3.1521, 2, -37.0506, 0.663225, 20.5411, -160.572, -92.6099, 54.7817
3.15909, 2, -37.0506, 0.663229, 20.5411, -160.572, -92.6098, 54.7817
3.16835, 2, -37.0506, 0.663235, 20.5411, -160.572, -92.6098, 54.7818
3.17513, 2, -37.0506, 0.663236, 20.5411, -160.572, -92.6099, 54.7818
3.1844, 2, -37.0506, 0.663237, 20.5411, -160.572, -92.6099, 54.7819
3.19109, 2, -37.0506, 0.663237, 20.5411, -160.572, -92.6099, 54.7819
3.20047, 2, -37.0505, 0.663238, 20.541, -160.572, -92.6099, 54.7819
3.20709, 2, -37.0505, 0.663238, 20.541, -160.572, -92.6099, 54.7819
3.21671, 2, -37.0505, 0.663266, 20.541, -160.572, -92.6099, 54.782
3.22459, 2, -37.0505, 0.663275, 20.541, -160.572, -92.6099, 54.782
3.23264, 2, -37.0505, 0.663279, 20.541, -160.572, -92.6099, 54.782
3.24071, 2, -37.0504, 0.663281, 20.541, -160.572, -92.6099, 54.7821
3.24865, 2, -37.0505, 0.663275, 20.541, -160.572, -92.6099, 54.782
3.25671, 2, -37.0505, 0.663267, 20.541, -160.572, -92.6099, 54.7821
3.26408, 2, -37.0505, 0.663251, 20.541, -160.572, -92.6099, 54.7821
3.27206, 2, -37.0505, 0.663244, 20.541, -160.572, -92.6099, 54.7822
3.28012, 2, -37.0504, 0.66324, 20.541, -160.572, -92.6099, 54.7822
3.28807, 2, -37.0504, 0.663239, 20.541, -160.572, -92.6099, 54.7822
3.29607, 2, -37.0504, 0.663251, 20.541, -160.572, -92.6099, 54.7823
3.30408, 2, -37.0504, 0.663244, 20.541, -160.572, -92.6099, 54.7823
3.31211, 2, -37.0503, 0.66326, 20.541, -160.572, -92.6099, 54.7823
3.32006, 2, -37.0503, 0.663272, 20.541, -160.572, -92.6099, 54.7824
3.32808, 2, -37.0504, 0.663271, 20.541, -160.572, -92.6099, 54.7824
3.33609, 2, -37.0504, 0.663272, 20.541, -160.572, -92.6099, 54.7824
3.34405, 2, -37.0503, 0.663278, 20.541, -160.572, -92.6099, 54.7824
3.35211, 2, -37.0503, 0.663281, 20.5409, -160.572, -92.6099, 54.7824
3.36008, 2, -37.0503, 0.663282, 20.5409, -160.572, -92.6099, 54.7824
3.36807, 2, -37.0503, 0.66327, 20.5409, -160.572, -92.6099, 54.7824
3.3761, 2, -37.0503, 0.663277, 20.5409, -160.572, -92.6099, 54.7824
3.3841, 2, -37.0503, 0.66328, 20.5409, -160.572, -92.6099, 54.7824
3.39205, 2, -37.0503, 0.663269, 20.5409, -160.572, -92.6099, 54.7825
3.40009, 2, -37.0502, 0.663277, 20.5409, -160.572, -92.6099, 54.7825
3.40808, 2, -37.0503, 0.66328, 20.5409, -160.572, -92.6099, 54.7825
3.41512, 2, -37.0503, 0.663282, 20.5408, -160.572, -92.6099, 54.7825
3.4231, 2, -37.0502, 0.663282, 20.5408, -160.572, -92.6099, 54.7825
3.43109, 2, -37.0502, 0.663283, 20.5408, -160.572, -92.61, 54.7825
3.4391, 2, -37.0502, 0.663283, 20.5408, -160.572, -92.6099, 54.7825
3.44811, 2, -37.0502, 0.663283, 20.5408, -160.572, -92.61, 54.7825
3.45609, 2, -37.0502, 0.663283, 20.5408, -160.572, -92.61, 54.7825
3.46318, 2, -37.0502, 0.663283, 20.5408, -160.572, -92.6101, 54.7825
3.47126, 2, -37.0502, 0.663283, 20.5408, -160.572, -92.61, 54.7825
3.47921, 2, -37.0501, 0.663283, 20.5408, -160.572, -92.61, 54.7826
3.48716, 2, -37.0501, 0.663283, 20.5408, -160.572, -92.61, 54.7826
3.4952, 2, -37.0501, 0.663283, 20.5408, -160.572, -92.61, 54.7826
3.50321, 2, -37.0501, 0.663283, 20.5408, -160.572, -92.61, 54.7826
3.51117, 2, -37.0501, 0.663283, 20.5408, -160.572, -92.61, 54.7826
3.51913, 2, -37.0501, 0.663283, 20.5408, -160.572, -92.61, 54.7826
3.52739, 2, -37.0501, 0.663283, 20.5408, -160.572, -92.61, 54.7827
3.53512, 2, -37.0501, 0.663283, 20.5408, -160.572, -92.61, 54.7828
3.5432, 2, -37.05, 0.663283, 20.5408, -160.572, -92.61, 54.7827
3.55164, 2, -37.05, 0.663283, 20.5408, -160.572, -92.61, 54.7827
3.5601, 2, -37.05, 0.663283, 20.5407, -160.572, -92.61, 54.7827
3.56739, 2, -37.05, 0.663283, 20.5407, -160.572, -92.61, 54.7827
3.57602, 2, -37.05, 0.663283, 20.5407, -160.572, -92.61, 54.7828
3.58416, 2, -37.05, 0.663283, 20.5407, -160.572, -92.6101, 54.7827
3.59159, 2, -37.05, 0.663283, 20.5407, -160.572, -92.6101, 54.7827
3.60018, 2, -37.0499, 0.663283, 20.5407, -160.572, -92.6101, 54.7827
3.60759, 2, -37.0499, 0.663283, 20.5407, -160.572, -92.6101, 54.7828
3.61619, 2, -37.0499, 0.663283, 20.5407, -160.572, -92.6101, 54.7828
3.62417, 2, -37.0499, 0.663283, 20.5407, -160.572, -92.61, 54.7828
3.63157, 2, -37.0499, 0.663294, 20.5407, -160.572, -92.61, 54.7828
3.64037, 2, -37.0499, 0.663291, 20.5407, -160.572, -92.6101, 54.7828
3.6482, 2, -37.0498, 0.663298, 20.5407, -160.572, -92.6101, 54.7828
3.65612, 2, -37.0498, 0.663315, 20.5407, -160.572, -92.6101, 54.7828
3.6631, 2, -37.0498, 0.663323, 20.5407, -160.572, -92.6101, 54.7828
3.6726, 2, -37.0498, 0.663319, 20.5407, -160.572, -92.6101, 54.7829
3.68037, 2, -37.0498, 0.663307, 20.5407, -160.572, -92.6101, 54.7829
3.68835, 2, -37.0498, 0.663305, 20.5407, -160.572, -92.6101, 54.7829
3.69504, 2, -37.0498, 0.663309, 20.5407, -160.572, -92.6101, 54.7829
3.70497, 2, -37.0497, 0.663333, 20.5406, -160.572, -92.6101, 54.7829
3.71111, 2, -37.0497, 0.663328, 20.5406, -160.572, -92.6101, 54.7829
3.72101, 2, -37.0497, 0.663308, 20.5406, -160.572, -92.6101, 54.7829
3.72898, 4, -37.0497, 0.663313, 20.5406, -160.572, -92.6101, 54.7829
3.73662, 4, -37.0497, 0.663315, 20.5406, -160.572, -92.6101, 54.7828
3.74479, 4, -37.0496, 0.663334, 20.5406, -160.572, -92.6101, 54.7828
3.75264, 4, -37.0496, 0.663329, 20.5406, -160.572, -92.6101, 54.7829
3.76061, 4, -37.0496, 0.663333, 20.5406, -160.572, -92.6102, 54.7829
3.76908, 4, -37.0496, 0.663354, 20.5406, -160.571, -92.6101, 54.7829
3.77504, 4, -37.0496, 0.663353, 20.5406, -160.572, -92.6101, 54.7829
3.78407, 4, -37.0495, 0.663359, 20.5406, -160.571, -92.6101, 54.7829
3.79303, 4, -37.0495, 0.663372, 20.5406, -160.571, -92.6101, 54.7829
3.79904, 4, -37.0495, 0.663368, 20.5405, -160.571, -92.6101, 54.7829
3.80804, 4, -37.0495, 0.663376, 20.5405, -160.571, -92.6101, 54.7829
3.81609, 4, -37.0495, 0.663382, 20.5405, -160.571, -92.6101, 54.783
3.82304, 4, -37.0494, 0.66337, 20.5405, -160.571, -92.6101, 54.7829
3.83221, 4, -37.0494, 0.663372, 20.5405, -160.571, -92.6101, 54.783
3.85551, 4, -37.0493, 0.663365, 20.5405, -160.571, -92.6101, 54.7829
3.85749, 4, -37.0493, 0.663365, 20.5405, -160.571, -92.6101, 54.783
3.85893, 4, -37.0493, 0.663368, 20.5405, -160.571, -92.6101, 54.783
3.8641, 4, -37.0493, 0.663377, 20.5405, -160.571, -92.6101, 54.783
3.87106, 4, -37.0492, 0.66338, 20.5405, -160.571, -92.6101, 54.7829
3.88022, 4, -37.0492, 0.663364, 20.5405, -160.571, -92.6101, 54.7829
3.88805, 4, -37.0484, 0.663224, 20.5405, -160.571, -92.6102, 54.7829
3.89605, 4, -37.0458, 0.662313, 20.5407, -160.571, -92.6102, 54.7829
3.90483, 4, -37.0402, 0.659638, 20.5415, -160.571, -92.6102, 54.783
3.91105, 4, -37.0319, 0.654931, 20.5437, -160.571, -92.6101, 54.783
3.92005, 4, -37.0219, 0.648469, 20.5479, -160.571, -92.6101, 54.7829
3.92883, 4, -37.01, 0.640063, 20.555, -160.569, -92.6102, 54.7829
3.93508, 5, -36.9954, 0.629217, 20.5654, -160.567, -92.6101, 54.7828
3.94404, 5, -36.9788, 0.616004, 20.5795, -160.564, -92.6101, 54.7828
3.95285, 5, -36.9608, 0.6011, 20.597, -160.561, -92.6099, 54.7827
3.95908, 5, -36.9415, 0.584554, 20.6171, -160.556, -92.6096, 54.7826
3.96803, 5, -36.9197, 0.565612, 20.6392, -160.552, -92.6094, 54.7825
3.97699, 5, -36.8946, 0.544264, 20.6629, -160.547, -92.6092, 54.7825
3.98316, 5, -36.8667, 0.521672, 20.6873, -160.541, -92.6089, 54.7823
3.99158, 5, -36.8372, 0.498155, 20.712, -160.536, -92.6086, 54.7821
3.99915, 5, -36.8069, 0.474102, 20.737, -160.531, -92.6081, 54.7819
4.00803, 5, -36.7762, 0.449961, 20.7621, -160.525, -92.6076, 54.7817
4.01603, 5, -36.7452, 0.425623, 20.7872, -160.519, -92.6071, 54.7814
4.02308, 5, -36.7142, 0.401259, 20.8122, -160.513, -92.6065, 54.7812
4.03204, 5, -36.6834, 0.376863, 20.8373, -160.508, -92.6058, 54.781
4.03996, 5, -36.6529, 0.352519, 20.8625, -160.502, -92.6052, 54.7808
4.04882, 5, -36.6224, 0.328388, 20.8878, -160.496, -92.6045, 54.7806
4.05606, 5, -36.5917, 0.30429, 20.9129, -160.491, -92.6038, 54.7804
4.06415, 5, -36.5609, 0.280394, 20.9381, -160.485, -92.603, 54.7804
4.07143, 5, -36.53, 0.256408, 20.9633, -160.48, -92.6023, 54.7803
4.0795, 5, -36.4993, 0.232344, 20.9886, -160.475, -92.6015, 54.7802
4.08833, 5, -36.4689, 0.208439, 21.0138, -160.469, -92.6008, 54.78
4.09555, 5, -36.4385, 0.184376, 21.0388, -160.464, -92.6, 54.7799
4.10367, 5, -36.408, 0.160307, 21.064, -160.459, -92.5993, 54.7798
4.11259, 5, -36.3773, 0.136206, 21.0891, -160.454, -92.5985, 54.7797
4.12096, 5, -36.3464, 0.111922, 21.1142, -160.449, -92.5978, 54.7795
4.12815, 5, -36.3152, 0.0877752, 21.1392, -160.444, -92.597, 54.7794
4.13641, 5, -36.2996, 0.0756913, 21.1516, -160.441, -92.5967, 54.7792
4.14303, 5, -36.2684, 0.0514166, 21.1766, -160.436, -92.5959, 54.7789
4.15109, 5, -36.237, 0.0272589, 21.2017, -160.431, -92.5951, 54.7786
4.16092, 5, -36.1903, -0.00897374, 21.2391, -160.423, -92.5939, 54.7781
4.16901, 5, -36.1592, -0.0329186, 21.2641, -160.418, -92.5931, 54.7777
4.17632, 5, -36.1281, -0.0568323, 21.289, -160.413, -92.5923, 54.7773
4.18306, 5, -36.1125, -0.0687841, 21.3015, -160.41, -92.592, 54.777
4.19108, 5, -36.0812, -0.0925541, 21.3266, -160.404, -92.5913, 54.7765
4.20134, 5, -36.0345, -0.128378, 21.3638, -160.396, -92.5901, 54.7758
4.20702, 5, -36.019, -0.140318, 21.3762, -160.393, -92.5898, 54.7756
4.21509, 5, -35.988, -0.164079, 21.401, -160.388, -92.5891, 54.7752
4.22465, 5, -35.9416, -0.199947, 21.4383, -160.379, -92.5879, 54.7745
4.23342, 5, -35.9104, -0.223766, 21.463, -160.373, -92.5872, 54.774
4.23912, 5, -35.8948, -0.235738, 21.4754, -160.37, -92.5868, 54.7738
4.24865, 5, -35.8478, -0.271672, 21.5124, -160.361, -92.5858, 54.7732
4.25662, 5, -35.832, -0.283554, 21.5247, -160.358, -92.585, 54.7729
4.26404, 5, -35.8006, -0.307419, 21.5494, -160.352, -92.5846, 54.7727
4.27207, 5, -35.769, -0.331309, 21.574, -160.347, -92.5839, 54.7724
4.28002, 5, -35.7375, -0.355064, 21.5987, -160.341, -92.5832, 54.772
4.28805, 5, -35.7062, -0.37886, 21.6233, -160.335, -92.5825, 54.7717
4.29502, 5, -35.6748, -0.402524, 21.648, -160.33, -92.5818, 54.7715
4.30403, 5, -35.6434, -0.426144, 21.6725, -160.324, -92.581, 54.7712
4.31203, 5, -35.6119, -0.449748, 21.6969, -160.319, -92.5803, 54.771
4.31903, 5, -35.5804, -0.473339, 21.7214, -160.314, -92.5796, 54.7708
4.32702, 5, -35.5491, -0.497055, 21.7458, -160.308, -92.579, 54.7707
4.33603, 5, -35.5178, -0.520603, 21.7703, -160.303, -92.5783, 54.7706
4.34558, 5, -35.4707, -0.555993, 21.8068, -160.295, -92.5772, 54.7704
4.35205, 5, -35.455, -0.567777, 21.819, -160.292, -92.5768, 54.7704
4.3601, 5, -35.4235, -0.591255, 21.8433, -160.287, -92.5761, 54.7703
4.36967, 5, -35.3761, -0.626753, 21.8797, -160.278, -92.575, 54.7703
4.37603, 5, -35.3603, -0.638516, 21.8918, -160.276, -92.5747, 54.7703
4.38402, 5, -35.3286, -0.661962, 21.916, -160.27, -92.574, 54.7702
4.39503, 5, -35.2809, -0.697281, 21.9524, -160.262, -92.5729, 54.7702
4.40009, 5, -35.265, -0.708988, 21.9645, -160.259, -92.5726, 54.7701
4.40802, 5, -35.2333, -0.732412, 21.9887, -160.253, -92.5718, 54.7702
4.41618, 5, -35.2016, -0.755866, 22.0128, -160.247, -92.5711, 54.7702
4.42304, 5, -35.1698, -0.779064, 22.0368, -160.241, -92.5704, 54.7702
4.43106, 5, -35.1379, -0.802341, 22.0608, -160.235, -92.5697, 54.7702
4.44007, 5, -35.1062, -0.825557, 22.0849, -160.229, -92.569, 54.7702
4.44803, 5, -35.0746, -0.848763, 22.109, -160.223, -92.5683, 54.7703
4.45602, 5, -35.0429, -0.872179, 22.1329, -160.217, -92.5676, 54.7704
4.46323, 5, -35.0112, -0.895407, 22.1569, -160.211, -92.5669, 54.7704
4.47202, 5, -34.9792, -0.918651, 22.1807, -160.205, -92.5661, 54.7704
4.48003, 5, -34.9474, -0.942005, 22.2046, -160.199, -92.5654, 54.7704
4.48714, 5, -34.9157, -0.965196, 22.2284, -160.193, -92.5647, 54.7704
4.49515, 5, -34.8839, -0.988478, 22.2521, -160.187, -92.564, 54.7705
4.5036, 5, -34.8521, -1.01169, 22.2759, -160.182, -92.5632, 54.7705
4.51102, 5, -34.8199, -1.0347, 22.2997, -160.176, -92.5625, 54.7705
4.51902, 5, -34.7879, -1.05785, 22.3234, -160.17, -92.5618, 54.7705
4.52786, 5, -34.7559, -1.08088, 22.347, -160.165, -92.5611, 54.7706
4.53608, 5, -34.7239, -1.10393, 22.3705, -160.16, -92.5604, 54.7706
4.54347, 5, -34.6918, -1.12708, 22.3941, -160.154, -92.5597, 54.7707
4.55201, 5, -34.6597, -1.15006, 22.4178, -160.149, -92.559, 54.7708
4.56028, 5, -34.6277, -1.1731, 22.4414, -160.143, -92.5582, 54.7709
4.56802, 5, -34.5957, -1.19608, 22.4648, -160.138, -92.5574, 54.7711
4.5762, 5, -34.5637, -1.21906, 22.4883, -160.132, -92.5567, 54.7713
4.58348, 5, -34.5316, -1.24216, 22.5116, -160.126, -92.556, 54.7715
4.59187, 5, -34.4994, -1.2651, 22.535, -160.12, -92.5552, 54.7717
4.60037, 5, -34.4672, -1.28801, 22.5584, -160.114, -92.5545, 54.772
4.60762, 5, -34.4352, -1.31098, 22.5817, -160.109, -92.5537, 54.7724
4.61613, 5, -34.403, -1.33378, 22.6051, -160.102, -92.553, 54.7729
4.62443, 5, -34.3708, -1.35668, 22.6283, -160.096, -92.5523, 54.7735
4.63183, 5, -34.3384, -1.37955, 22.6517, -160.09, -92.5515, 54.7742
4.64, 5, -34.3222, -1.40225, 22.6749, -160.084, -92.5508, 54.7749
4.64861, 5, -34.2738, -1.42508, 22.698, -160.077, -92.55, 54.7758
4.65606, 5, -34.2415, -1.4478, 22.7212, -160.071, -92.5492, 54.7768
4.66305, 5, -34.2253, -1.45914, 22.7328, -160.068, -92.5488, 54.7774
4.67294, 5, -34.1766, -1.4933, 22.7676, -160.058, -92.5477, 54.7792
4.68057, 5, -34.1443, -1.5159, 22.7907, -160.052, -92.5469, 54.7805
4.687, 5, -34.1282, -1.52719, 22.8022, -160.049, -92.5465, 54.7811
4.69635, 5, -34.0798, -1.56119, 22.8367, -160.04, -92.5454, 54.7832
4.703, 5, -34.0635, -1.57246, 22.8482, -160.037, -92.545, 54.784
4.71102, 5, -34.031, -1.59506, 22.8712, -160.031, -92.5442, 54.7854
4.7205, 5, -33.9825, -1.62908, 22.9057, -160.022, -92.5431, 54.7878
4.72857, 5, -33.95, -1.65153, 22.9286, -160.017, -92.5423, 54.7893
4.73701, 5, -33.9176, -1.67413, 22.9516, -160.011, -92.5415, 54.7909
4.74456, 5, -33.8849, -1.69658, 22.9745, -160.005, -92.5407, 54.7926
4.75258, 5, -33.8686, -1.70775, 22.9974, -159.999, -92.5399, 54.7942
4.76096, 5, -33.8198, -1.74155, 23.02, -159.993, -92.5391, 54.7958
4.768, 5, -33.8035, -1.75275, 23.0314, -159.99, -92.5387, 54.7966
4.77509, 5, -33.7709, -1.77503, 23.0541, -159.984, -92.5379, 54.7982
4.787, 5, -33.7218, -1.80872, 23.0882, -159.975, -92.5367, 54.8007
4.79209, 5, -33.7054, -1.81987, 23.0996, -159.972, -92.5364, 54.8016
4.80005, 5, -33.6728, -1.84224, 23.1222, -159.966, -92.5355, 54.8033
4.808, 5, -33.6403, -1.86467, 23.1448, -159.96, -92.5347, 54.805
4.81601, 5, -33.6076, -1.88692, 23.1673, -159.953, -92.534, 54.8066
4.82301, 5, -33.5749, -1.90925, 23.1898, -159.947, -92.5332, 54.8083
4.83216, 5, -33.5422, -1.93155, 23.2124, -159.94, -92.5323, 54.81
4.83907, 5, -33.5094, -1.95376, 23.2349, -159.934, -92.5315, 54.8118
4.84805, 5, -33.4768, -1.97622, 23.2573, -159.927, -92.5307, 54.8135
4.85605, 5, -33.4441, -1.99865, 23.2799, -159.921, -92.5299, 54.8152
4.86409, 5, -33.4113, -2.02108, 23.3024, -159.914, -92.5289, 54.8168
4.87201, 5, -33.3787, -2.04374, 23.325, -159.908, -92.5279, 54.8184
4.87999, 5, -33.3461, -2.06639, 23.3475, -159.901, -92.5267, 54.8197
4.889, 5, -33.3136, -2.08922, 23.3702, -159.895, -92.5253, 54.8207
4.89602, 6, -33.2811, -2.11233, 23.3932, -159.888, -92.5237, 54.8215
4.905, 6, -33.2485, -2.13544, 23.4164, -159.881, -92.5218, 54.822
4.91208, 6, -33.2163, -2.15888, 23.4398, -159.875, -92.5196, 54.8224
4.92, 6, -33.1842, -2.18261, 23.4632, -159.868, -92.5173, 54.8226
4.92817, 6, -33.1521, -2.20649, 23.4869, -159.86, -92.5146, 54.8226
4.9352, 6, -33.1202, -2.23085, 23.5107, -159.853, -92.5115, 54.8225
4.943, 6, -33.0882, -2.25529, 23.5348, -159.845, -92.5082, 54.8225
4.95202, 6, -33.0565, -2.28003, 23.5592, -159.837, -92.5047, 54.8222
4.96, 6, -33.025, -2.30506, 23.5836, -159.829, -92.5009, 54.8217
4.96806, 6, -32.9935, -2.33032, 23.6083, -159.82, -92.4969, 54.821
4.97611, 6, -32.9622, -2.35605, 23.6333, -159.811, -92.4926, 54.82
4.9831, 6, -32.9308, -2.38186, 23.6585, -159.802, -92.4881, 54.8188
4.99119, 7, -32.8996, -2.40797, 23.6838, -159.792, -92.4834, 54.8176
4.99995, 7, -32.8687, -2.43433, 23.7092, -159.782, -92.4784, 54.8159
5.008, 7, -32.8378, -2.46097, 23.7348, -159.772, -92.4731, 54.8134
5.016, 7, -32.8069, -2.48803, 23.7609, -159.762, -92.4676, 54.8101
5.02426, 7, -32.7761, -2.51515, 23.787, -159.752, -92.4619, 54.8062
5.03289, 7, -32.7455, -2.54269, 23.8132, -159.742, -92.456, 54.8017
5.03999, 7, -32.7151, -2.57046, 23.8397, -159.731, -92.4499, 54.7965
5.04981, 7, -32.6848, -2.59859, 23.8665, -159.721, -92.4434, 54.791
5.05529, 7, -32.6546, -2.62695, 23.8934, -159.71, -92.4366, 54.7849
5.06322, 7, -32.6244, -2.6555, 23.9205, -159.7, -92.4295, 54.7785
5.07142, 7, -32.5944, -2.68435, 23.9478, -159.689, -92.4222, 54.7717
5.07942, 8, -32.5645, -2.71358, 23.9755, -159.677, -92.4144, 54.7646
5.08804, 8, -32.5348, -2.74311, 24.0033, -159.665, -92.4062, 54.757
5.09561, 8, -32.5051, -2.77288, 24.0312, -159.653, -92.3976, 54.749
5.10494, 8, -32.4755, -2.80286, 24.0592, -159.64, -92.3886, 54.7407
5.11212, 8, -32.446, -2.8332, 24.0877, -159.628, -92.3791, 54.732
5.11971, 8, -32.4167, -2.8638, 24.1164, -159.615, -92.3693, 54.723
5.12818, 8, -32.3874, -2.89462, 24.1451, -159.603, -92.3593, 54.7135
5.13635, 8, -32.3729, -2.91018, 24.1596, -159.597, -92.3542, 54.7037
5.1436, 8, -32.3438, -2.94142, 24.1886, -159.584, -92.344, 54.6934
5.15208, 8, -32.3003, -2.98888, 24.2327, -159.565, -92.3284, 54.6826
5.15906, 8, -32.2859, -3.00478, 24.2475, -159.558, -92.3231, 54.6771
5.16809, 9, -32.243, -3.05292, 24.2921, -159.538, -92.307, 54.66
5.17501, 9, -32.2287, -3.06911, 24.3072, -159.531, -92.3016, 54.6542
5.18496, 9, -32.186, -3.11815, 24.3525, -159.509, -92.285, 54.6363
5.19232, 9, -32.1576, -3.15117, 24.3828, -159.495, -92.2734, 54.6241
5.19919, 9, -32.1434, -3.16778, 24.3981, -159.487, -92.2675, 54.618
5.20697, 9, -32.1153, -3.20122, 24.4288, -159.473, -92.2552, 54.6057
5.21503, 9, -32.0873, -3.23498, 24.4597, -159.458, -92.2425, 54.5932
5.22451, 9, -32.0455, -3.28618, 24.5063, -159.436, -92.2224, 54.574
5.23264, 9, -32.0177, -3.3207, 24.5378, -159.421, -92.2089, 54.5609
5.24075, 9, -31.9899, -3.35551, 24.5693, -159.406, -92.1952, 54.5474
5.24855, 9, -31.9623, -3.39053, 24.6011, -159.39, -92.1813, 54.5336
5.25665, 9, -31.9349, -3.42589, 24.6332, -159.374, -92.1674, 54.5193
5.26456, 10, -31.9213, -3.4437, 24.6493, -159.366, -92.1604, 54.5045
5.27199, 10, -31.8941, -3.47955, 24.6816, -159.35, -92.1461, 54.4969
5.28006, 10, -31.867, -3.51561, 24.714, -159.333, -92.1315, 54.4813
5.28798, 10, -31.8399, -3.55194, 24.7468, -159.317, -92.1165, 54.4653
5.29614, 10, -31.813, -3.58861, 24.7798, -159.301, -92.1009, 54.4491
5.30298, 10, -31.7862, -3.62549, 24.8129, -159.284, -92.0847, 54.4328
5.31198, 10, -31.7595, -3.66268, 24.8461, -159.267, -92.0683, 54.4163
5.31999, 10, -31.733, -3.70021, 24.8798, -159.25, -92.0518, 54.3999
5.32803, 10, -31.7066, -3.73796, 24.9135, -159.233, -92.0353, 54.3833
5.33598, 10, -31.6802, -3.77592, 24.9475, -159.215, -92.0188, 54.3664
5.344, 10, -31.654, -3.81423, 24.9817, -159.197, -92.0021, 54.3491
5.35201, 11, -31.6279, -3.85287, 25.0161, -159.179, -91.9851, 54.3313
5.36001, 11, -31.6018, -3.8917, 25.0505, -159.161, -91.9676, 54.313
5.36814, 11, -31.5758, -3.93081, 25.0854, -159.143, -91.9495, 54.2942
5.3758, 11, -31.5498, -3.9703, 25.1204, -159.125, -91.9309, 54.275
5.38399, 11, -31.5239, -4.01005, 25.1553, -159.106, -91.9122, 54.2556
5.39285, 11, -31.4982, -4.05011, 25.1907, -159.087, -91.8935, 54.2362
5.39999, 11, -31.4728, -4.09052, 25.2264, -159.067, -91.8747, 54.2166
5.40899, 11, -31.4473, -4.1312, 25.2621, -159.048, -91.8557, 54.197
5.41498, 11, -31.4221, -4.17211, 25.2981, -159.028, -91.8362, 54.177
5.424, 11, -31.3968, -4.21344, 25.3344, -159.009, -91.8163, 54.1566
5.432, 11, -31.3715, -4.25507, 25.3707, -158.989, -91.7958, 54.1357
5.44092, 11, -31.3464, -4.29689, 25.4073, -158.97, -91.7749, 54.1141
5.448, 12, -31.3216, -4.33909, 25.4442, -158.949, -91.7541, 54.092
5.45604, 12, -31.2968, -4.38157, 25.4812, -158.928, -91.7332, 54.0697
5.46501, 12, -31.2723, -4.42429, 25.5184, -158.907, -91.7124, 54.0474
5.47212, 12, -31.248, -4.46732, 25.556, -158.887, -91.6912, 54.0252
5.48005, 12, -31.2235, -4.51055, 25.5937, -158.866, -91.6694, 54.0027
5.4905, 12, -31.187, -4.57591, 25.6506, -158.834, -91.6357, 53.9682
5.49597, 12, -31.1749, -4.59785, 25.6697, -158.824, -91.6244, 53.9564
5.50406, 12, -31.1507, -4.64193, 25.7079, -158.802, -91.6021, 53.9325
5.51199, 12, -31.1267, -4.68628, 25.7464, -158.779, -91.5795, 53.908
5.51999, 12, -31.1028, -4.73094, 25.7852, -158.757, -91.5566, 53.8834
5.52808, 12, -31.0791, -4.77598, 25.824, -158.735, -91.5332, 53.8589
5.536, 13, -31.0552, -4.82131, 25.863, -158.713, -91.5092, 53.8342
5.54398, 13, -31.0316, -4.86694, 25.9023, -158.691, -91.4847, 53.8092
5.55206, 13, -31.0081, -4.9129, 25.9418, -158.669, -91.4604, 53.7838
5.55999, 13, -30.9846, -4.95921, 25.9816, -158.645, -91.4361, 53.7579
5.56876, 13, -30.9612, -5.00581, 26.0215, -158.622, -91.4117, 53.7313
5.57615, 13, -30.9381, -5.05271, 26.0616, -158.599, -91.3867, 53.7043
5.58338, 13, -30.915, -5.09987, 26.102, -158.576, -91.3611, 53.6776
5.59234, 13, -30.8919, -5.14729, 26.1425, -158.553, -91.3351, 53.6508
5.59952, 13, -30.8691, -5.19505, 26.1833, -158.529, -91.3092, 53.6235
5.60811, 13, -30.8464, -5.24294, 26.2244, -158.504, -91.2833, 53.5958
5.61651, 13, -30.8237, -5.29109, 26.2656, -158.48, -91.2571, 53.5675
5.62354, 13, -30.8012, -5.33959, 26.3071, -158.456, -91.2302, 53.5387
5.63209, 14, -30.7788, -5.38824, 26.3486, -158.432, -91.2027, 53.51
5.64039, 14, -30.7676, -5.41268, 26.3903, -158.408, -91.1753, 53.4815
5.64698, 14, -30.7452, -5.46183, 26.4114, -158.395, -91.1617, 53.4673
5.65618, 14, -30.712, -5.53622, 26.4747, -158.357, -91.1206, 53.4238
5.66456, 14, -30.701, -5.56123, 26.4958, -158.344, -91.1067, 53.4091
5.67208, 14, -30.668, -5.63652, 26.5597, -158.306, -91.0637, 53.3637
5.67911, 14, -30.6571, -5.6618, 26.5811, -158.294, -91.0492, 53.3483
5.68827, 14, -30.6245, -5.73818, 26.6456, -158.256, -91.0059, 53.3021
5.69497, 14, -30.6136, -5.76377, 26.6672, -158.243, -90.9915, 53.2867
5.70448, 14, -30.5812, -5.84096, 26.7322, -158.203, -90.9475, 53.2405
5.71248, 14, -30.5599, -5.89275, 26.776, -158.176, -90.9172, 53.209
5.72044, 15, -30.5386, -5.94485, 26.8198, -158.15, -90.8869, 53.1767
5.72853, 15, -30.5174, -5.99709, 26.8639, -158.124, -90.8568, 53.1442
5.73699, 15, -30.4963, -6.04959, 26.9083, -158.097, -90.8267, 53.112
5.74374, 15, -30.4858, -6.07595, 26.9306, -158.083, -90.8115, 53.0957
5.751, 15, -30.4649, -6.12888, 26.9752, -158.056, -90.7803, 53.063
5.76066, 15, -30.444, -6.20872, 27.0425, -158.015, -90.7332, 53.013
5.76861, 15, -30.4232, -6.23551, 27.065, -158.001, -90.7018, 52.9788
5.77597, 15, -30.4027, -6.28934, 27.1103, -157.974, -90.686, 52.9618
5.78386, 15, -30.3822, -6.34347, 27.1556, -157.945, -90.654, 52.9277
5.79289, 15, -30.3618, -6.398, 27.2012, -157.917, -90.6047, 52.8763
5.79996, 15, -30.3416, -6.45294, 27.2471, -157.888, -90.5884, 52.8589
5.80802, 16, -30.3215, -6.5082, 27.2932, -157.86, -90.5558, 52.8234
5.81596, 16, -30.3015, -6.56377, 27.3394, -157.832, -90.5231, 52.7877
5.82396, 16, -30.2814, -6.61959, 27.3858, -157.803, -90.4893, 52.7521
5.832, 16, -30.2614, -6.67575, 27.4326, -157.773, -90.4553, 52.7166
5.84136, 16, -30.2318, -6.7603, 27.503, -157.73, -90.4048, 52.6626
5.84706, 16, -30.222, -6.78864, 27.5266, -157.715, -90.3877, 52.6442
5.85748, 16, -30.1926, -6.8739, 27.5977, -157.671, -90.3352, 52.5884
5.86397, 16, -30.1829, -6.90246, 27.6216, -157.656, -90.3175, 52.57
5.871, 16, -30.1635, -6.95975, 27.6694, -157.626, -90.2826, 52.5331
5.88077, 16, -30.1442, -7.01733, 27.7173, -157.596, -90.2476, 52.4959
5.887, 16, -30.1249, -7.0753, 27.7655, -157.566, -90.2119, 52.4579
5.89599, 16, -30.1057, -7.13357, 27.8138, -157.536, -90.1755, 52.4195
5.905, 17, -30.0867, -7.19231, 27.8623, -157.505, -90.1395, 52.3815
5.91198, 17, -30.0679, -7.25136, 27.9111, -157.473, -90.1035, 52.3434
5.91999, 17, -30.0491, -7.3108, 27.96, -157.443, -90.0666, 52.3048
5.92898, 17, -30.0304, -7.37059, 28.0091, -157.412, -90.0292, 52.2653
5.93517, 17, -30.0119, -7.43065, 28.0584, -157.381, -89.9923, 52.2255
5.94299, 17, -29.9934, -7.4909, 28.108, -157.348, -89.9552, 52.1859
5.95442, 17, -29.9658, -7.58171, 28.1827, -157.301, -89.8981, 52.1261
5.95919, 17, -29.9566, -7.61208, 28.2077, -157.285, -89.879, 52.1059
5.96703, 17, -29.9384, -7.67296, 28.258, -157.253, -89.8411, 52.0651
5.97597, 17, -29.9204, -7.73409, 28.3085, -157.221, -89.803, 52.0243
5.98396, 17, -29.9023, -7.79552, 28.3592, -157.188, -89.7638, 51.9836
5.99205, 18, -29.8844, -7.8572, 28.41, -157.155, -89.7245, 51.9424
5.99996, 18, -29.8666, -7.91925, 28.4611, -157.123, -89.6858, 51.9005
6.00797, 18, -29.849, -7.98168, 28.5122, -157.09, -89.6466, 51.8581
6.01602, 18, -29.8314, -8.04452, 28.5636, -157.056, -89.6064, 51.8162
6.02396, 18, -29.8138, -8.10765, 28.6153, -157.022, -89.5665, 51.7741
6.03212, 18, -29.7964, -8.17117, 28.6671, -156.989, -89.5267, 51.7313
6.03906, 18, -29.7791, -8.23491, 28.7192, -156.956, -89.4861, 51.6878
6.04704, 18, -29.7618, -8.29897, 28.7715, -156.921, -89.4447, 51.6447
6.05513, 18, -29.7446, -8.36311, 28.8239, -156.887, -89.404, 51.6016
6.06323, 18, -29.7276, -8.42748, 28.8767, -156.853, -89.3631, 51.5582
6.0712, 18, -29.7106, -8.4921, 28.9297, -156.819, -89.3212, 51.514
6.07946, 18, -29.6938, -8.55696, 28.9829, -156.784, -89.2793, 51.4697
6.08805, 19, -29.677, -8.62203, 29.0362, -156.749, -89.2377, 51.4259
6.09601, 19, -29.6602, -8.68753, 29.0898, -156.714, -89.1953, 51.3817
6.10392, 19, -29.6435, -8.7533, 29.1434, -156.68, -89.1524, 51.3369
6.11641, 19, -29.6187, -8.85267, 29.2243, -156.626, -89.0888, 51.2698
6.11952, 19, -29.6105, -8.88596, 29.2513, -156.608, -89.0675, 51.2475
6.12851, 19, -29.5941, -8.95277, 29.3057, -156.573, -89.0241, 51.2026
6.13557, 19, -29.586, -8.98628, 29.3601, -156.537, -88.9809, 51.1567
6.14396, 19, -29.5619, -9.08726, 29.4148, -156.501, -88.9378, 51.1104
6.15287, 19, -29.546, -9.15482, 29.4697, -156.464, -88.8937, 51.0644
6.16008, 19, -29.5302, -9.22263, 29.5248, -156.428, -88.8495, 51.018
6.16703, 19, -29.5222, -9.25661, 29.5525, -156.41, -88.8276, 50.9946
6.17697, 20, -29.4984, -9.35894, 29.6359, -156.355, -88.7614, 50.9236
6.18414, 20, -29.4827, -9.42753, 29.6917, -156.318, -88.7164, 50.8766
6.19095, 20, -29.4749, -9.46191, 29.7196, -156.299, -88.6941, 50.8529
6.20139, 20, -29.4517, -9.56541, 29.8036, -156.244, -88.627, 50.7807
6.20986, 20, -29.4363, -9.63488, 29.8598, -156.206, -88.5811, 50.7323
6.21493, 20, -29.4287, -9.66969, 29.888, -156.187, -88.5583, 50.7083
6.22443, 20, -29.4061, -9.77469, 29.9731, -156.13, -88.4904, 50.6358
6.23097, 20, -29.3986, -9.80981, 30.0015, -156.111, -88.4673, 50.6112
6.23901, 20, -29.3837, -9.88027, 30.0585, -156.073, -88.4209, 50.562
6.24856, 20, -29.3613, -9.98647, 30.1445, -156.015, -88.3518, 50.4889
6.25745, 20, -29.3538, -10.0575, 30.202, -155.977, -88.3047, 50.4397
6.26324, 21, -29.3389, -10.0931, 30.2308, -155.958, -88.2811, 50.4147
6.27254, 21, -29.3241, -10.1647, 30.2887, -155.919, -88.2343, 50.3401
6.28, 21, -29.3095, -10.2363, 30.3467, -155.879, -88.1874, 50.3154
6.28701, 21, -29.295, -10.3083, 30.4048, -155.841, -88.1396, 50.2655
6.297, 21, -29.2733, -10.4167, 30.4923, -155.782, -88.0687, 50.19
6.30316, 21, -29.2661, -10.4529, 30.5215, -155.762, -88.0448, 50.165
6.31193, 21, -29.2519, -10.5256, 30.5802, -155.722, -87.9962, 50.1151
6.32005, 21, -29.2377, -10.5985, 30.6391, -155.683, -87.9482, 50.0644
6.32795, 21, -29.2236, -10.6717, 30.6982, -155.642, -87.9001, 50.0133
6.33601, 21, -29.2096, -10.7452, 30.7576, -155.602, -87.8509, 49.9626
6.34395, 21, -29.1954, -10.8189, 30.8171, -155.562, -87.8023, 49.9117
6.35096, 21, -29.1813, -10.8929, 30.8767, -155.521, -87.7536, 49.86
6.36, 22, -29.1675, -10.9672, 30.9366, -155.48, -87.7037, 49.8084
6.36796, 22, -29.1536, -11.0417, 30.9967, -155.439, -87.6545, 49.7572
6.37511, 22, -29.1399, -11.1164, 31.0568, -155.398, -87.6051, 49.7053
6.38393, 22, -29.1263, -11.1914, 31.1172, -155.356, -87.5547, 49.6527
6.39195, 22, -29.1128, -11.2666, 31.1776, -155.314, -87.5048, 49.6005
6.40156, 22, -29.0995, -11.342, 31.2383, -155.273, -87.4545, 49.5485
6.40798, 22, -29.0863, -11.4177, 31.2993, -155.232, -87.4035, 49.4956
6.41601, 22, -29.0731, -11.4937, 31.3604, -155.189, -87.3533, 49.4425
6.42405, 22, -29.06, -11.5699, 31.4217, -155.147, -87.3026, 49.3899
6.43195, 22, -29.047, -11.6463, 31.4833, -155.105, -87.2512, 49.337
6.44096, 22, -29.0339, -11.7231, 31.545, -155.062, -87.2005, 49.2833
6.44792, 23, -29.021, -11.8001, 31.6068, -155.019, -87.1489, 49.23
6.45602, 23, -29.0082, -11.8773, 31.6687, -154.977, -87.0971, 49.1769
6.46395, 23, -28.9954, -11.9547, 31.7308, -154.934, -87.046, 49.1231
6.47217, 23, -28.9827, -12.0324, 31.7931, -154.89, -86.9937, 49.0693
6.48088, 23, -28.97, -12.1102, 31.8555, -154.847, -86.9417, 49.016
6.48739, 23, -28.9573, -12.1884, 31.9182, -154.804, -86.8898, 48.9623
6.49697, 23, -28.9449, -12.2667, 31.981, -154.759, -86.8366, 48.9078
6.50396, 23, -28.9325, -12.3452, 32.044, -154.716, -86.7841, 48.8539
6.51199, 23, -28.9202, -12.424, 32.1073, -154.672, -86.7314, 48.7998
6.5208, 23, -28.908, -12.5031, 32.1707, -154.627, -86.6777, 48.7451
6.52796, 23, -28.8959, -12.5823, 32.2343, -154.583, -86.6248, 48.6907
6.53599, 23, -28.8837, -12.6617, 32.298, -154.538, -86.5712, 48.6365
6.54478, 24, -28.8715, -12.7415, 32.3618, -154.493, -86.5173, 48.5815
6.55195, 24, -28.8596, -12.8213, 32.4258, -154.448, -86.4641, 48.5262
6.56004, 24, -28.8477, -12.9014, 32.4898, -154.403, -86.4097, 48.4715
6.56895, 24, -28.8358, -12.9817, 32.5541, -154.358, -86.3557, 48.4164
6.58016, 24, -28.8241, -13.1027, 32.6509, -154.289, -86.2742, 48.3329
6.58336, 24, -28.8123, -13.1432, 32.6832, -154.267, -86.2467, 48.3055
6.59133, 24, -28.8006, -13.2242, 32.7481, -154.221, -86.1926, 48.2503
6.5995, 24, -28.789, -13.3054, 32.8131, -154.175, -86.1379, 48.1944
6.6081, 24, -28.7775, -13.3868, 32.8783, -154.129, -86.0828, 48.1386
6.6155, 24, -28.7659, -13.4684, 32.9436, -154.083, -86.0283, 48.0833
6.62408, 24, -28.7544, -13.5502, 33.009, -154.036, -85.9726, 48.0275
6.63211, 25, -28.7431, -13.6322, 33.0745, -153.99, -85.9175, 47.9714
6.63953, 25, -28.7373, -13.6732, 33.1073, -153.943, -85.8624, 47.9162
6.64796, 25, -28.7201, -13.7967, 33.206, -153.896, -85.8063, 47.8607
6.65602, 25, -28.7089, -13.8793, 33.272, -153.849, -85.7511, 47.8045
6.66294, 25, -28.7034, -13.9206, 33.3051, -153.826, -85.7232, 47.7766
6.67878, 25, -28.6867, -14.045, 33.4376, -153.731, -85.6111, 47.6655
6.68176, 25, -28.6757, -14.1281, 33.4709, -153.707, -85.5832, 47.6374
6.692, 25, -28.6648, -14.2115, 33.5709, -153.636, -85.4985, 47.5539
6.69488, 25, -28.6594, -14.2532, 33.5709, -153.636, -85.4985, 47.5539
6.70425, 25, -28.643, -14.3787, 33.6711, -153.563, -85.4143, 47.4701
6.71093, 25, -28.6376, -14.4206, 33.7045, -153.539, -85.3858, 47.4418
6.71898, 25, -28.6269, -14.5046, 33.7715, -153.491, -85.3294, 47.3858
6.72696, 26, -28.6162, -14.5888, 33.8385, -153.442, -85.2729, 47.3302
6.73727, 26, -28.6002, -14.7153, 33.9394, -153.37, -85.1874, 47.2458
6.74318, 26, -28.5949, -14.7575, 33.9732, -153.345, -85.1593, 47.2178
6.75091, 26, -28.5843, -14.8422, 34.0407, -153.296, -85.1018, 47.1622
6.76143, 26, -28.5683, -14.9693, 34.1424, -153.224, -85.0163, 47.0781
6.76693, 26, -28.563, -15.0118, 34.1763, -153.199, -84.9877, 47.05
6.77593, 26, -28.5525, -15.0968, 34.2442, -153.149, -84.9298, 46.9946
6.78393, 26, -28.5421, -15.1819, 34.3124, -153.1, -84.8726, 46.9391
6.792, 26, -28.5316, -15.2672, 34.3805, -153.05, -84.8146, 46.8831
6.79999, 26, -28.5213, -15.3527, 34.4487, -153, -84.757, 46.8279
6.80794, 26, -28.511, -15.4384, 34.5171, -152.951, -84.6995, 46.773
6.81594, 27, -28.5007, -15.5242, 34.5855, -152.901, -84.6412, 46.7173
6.82393, 27, -28.4905, -15.6101, 34.6541, -152.85, -84.5836, 46.6616
6.832, 27, -28.4802, -15.6964, 34.7227, -152.801, -84.5252, 46.6065
6.84018, 27, -28.4701, -15.7827, 34.7916, -152.75, -84.467, 46.5511
6.84777, 27, -28.46, -15.8692, 34.8605, -152.699, -84.409, 46.4952
6.85496, 27, -28.4499, -15.9558, 34.9297, -152.649, -84.3502, 46.44
6.86396, 27, -28.4398, -16.0426, 34.9988, -152.597, -84.2922, 46.3846
6.87201, 27, -28.4298, -16.1296, 35.068, -152.547, -84.2334, 46.3286
6.88, 27, -28.4199, -16.2165, 35.1373, -152.496, -84.1747, 46.2733
6.88794, 27, -28.4098, -16.3036, 35.2065, -152.444, -84.1164, 46.2184
6.89752, 27, -28.3998, -16.3908, 35.276, -152.393, -84.0571, 46.1352
6.9039, 28, -28.3899, -16.4781, 35.3456, -152.341, -83.9986, 46.1078
6.91292, 28, -28.3799, -16.5656, 35.4154, -152.289, -83.9393, 46.0534
6.92006, 28, -28.3698, -16.6533, 35.4853, -152.238, -83.8804, 45.9988
6.92899, 28, -28.3599, -16.741, 35.5552, -152.186, -83.8218, 45.9438
6.93605, 28, -28.35, -16.829, 35.6253, -152.134, -83.7624, 45.8897
6.94313, 28, -28.34, -16.917, 35.6952, -152.082, -83.7037, 45.8358
6.95093, 28, -28.33, -17.005, 35.7653, -152.029, -83.6442, 45.7814
6.96092, 28, -28.3202, -17.0931, 35.8354, -151.977, -83.585, 45.7275
6.96793, 28, -28.3105, -17.1814, 35.9056, -151.925, -83.526, 45.6744
6.97592, 28, -28.3006, -17.2696, 35.976, -151.871, -83.4662, 45.6209
6.98476, 28, -28.2909, -17.358, 36.0463, -151.819, -83.4074, 45.5673
6.99102, 28, -28.2812, -17.4466, 36.1169, -151.766, -83.3474, 45.5146
7.00001, 29, -28.2715, -17.5353, 36.1875, -151.712, -83.288, 45.462
7.00876, 29, -28.2617, -17.624, 36.2582, -151.66, -83.2284, 45.4091
7.01701, 29, -28.2518, -17.7129, 36.329, -151.606, -83.1684, 45.3567
7.02393, 29, -28.2421, -17.8018, 36.3997, -151.552, -83.1089, 45.3049
7.03292, 29, -28.2323, -17.8907, 36.4704, -151.499, -83.0485, 45.2528
7.04014, 29, -28.2225, -17.9798, 36.5411, -151.445, -82.9892, 45.2006
7.051, 29, -28.2078, -18.1135, 36.6475, -151.365, -82.899, 45.1237
7.05921, 29, -28.198, -18.2028, 36.7185, -151.31, -82.8395, 45.0725
7.06315, 29, -28.1932, -18.2474, 36.7541, -151.283, -82.8095, 45.0468
7.07116, 29, -28.1835, -18.3369, 36.8253, -151.23, -82.7491, 44.9957
7.08021, 29, -28.1736, -18.4263, 36.8966, -151.175, -82.6897, 44.9455
7.08762, 30, -28.164, -18.5158, 36.9678, -151.12, -82.6295, 44.8953
7.09596, 30, -28.1544, -18.6053, 37.039, -151.066, -82.5696, 44.8448
7.1042, 30, -28.1448, -18.6949, 37.1102, -151.011, -82.5097, 44.795
7.11179, 30, -28.1351, -18.7845, 37.1814, -150.957, -82.449, 44.746
7.12008, 30, -28.1255, -18.8743, 37.2527, -150.902, -82.3895, 44.6969
7.12846, 30, -28.1158, -18.9642, 37.324, -150.846, -82.3288, 44.6477
7.13556, 30, -28.106, -19.0541, 37.3954, -150.792, -82.2688, 44.5995
7.14455, 30, -28.0961, -19.1441, 37.4669, -150.736, -82.2085, 44.5518
7.15193, 30, -28.0863, -19.2342, 37.5384, -150.681, -82.1481, 44.5039
7.15897, 30, -28.0815, -19.2791, 37.5742, -150.654, -82.1182, 44.4799
7.16887, 30, -28.0668, -19.414, 37.6815, -150.57, -82.0278, 44.4092
7.17599, 30, -28.0569, -19.504, 37.7529, -150.515, -81.9679, 44.3629
7.18297, 31, -28.0519, -19.5489, 37.7887, -150.487, -81.9379, 44.3396
7.19288, 31, -28.0371, -19.6838, 37.8959, -150.403, -81.8473, 44.27
7.20022, 31, -28.0271, -19.7738, 37.9675, -150.348, -81.7876, 44.2247
7.20708, 31, -28.0221, -19.8188, 38.0033, -150.32, -81.7573, 44.2022
7.21491, 31, -28.0121, -19.9089, 38.075, -150.264, -81.6972, 44.1572
7.22296, 31, -28.0023, -19.999, 38.1467, -150.208, -81.6372, 44.112
7.23245, 31, -27.9874, -20.1341, 38.2543, -150.123, -81.5466, 44.0454
7.24057, 31, -27.9774, -20.2242, 38.3259, -150.067, -81.4865, 44.0018
7.24855, 31, -27.9674, -20.3143, 38.3974, -150.01, -81.426, 43.9581
7.2565, 31, -27.9574, -20.4045, 38.4689, -149.954, -81.3662, 43.9147
7.26457, 31, -27.9472, -20.4947, 38.5405, -149.898, -81.3056, 43.872
7.27247, 32, -27.9421, -20.5398, 38.5763, -149.869, -81.2756, 43.8301
7.28054, 32, -27.9318, -20.6301, 38.6479, -149.813, -81.216, 43.7884
7.28796, 32, -27.9216, -20.7202, 38.7194, -149.756, -81.1555, 43.7676
7.29593, 32, -27.9113, -20.8104, 38.791, -149.699, -81.0959, 43.726
7.30407, 32, -27.9009, -20.9006, 38.8626, -149.643, -81.0356, 43.6853
7.31469, 32, -27.8854, -21.0357, 38.9701, -149.557, -80.9459, 43.6258
7.31997, 32, -27.8801, -21.0808, 39.0058, -149.529, -80.916, 43.6062
7.32798, 32, -27.8696, -21.1708, 39.0773, -149.472, -80.8556, 43.5668
7.33493, 32, -27.859, -21.2609, 39.1487, -149.414, -80.7962, 43.5279
7.34392, 32, -27.8485, -21.351, 39.2201, -149.357, -80.7359, 43.4901
7.35197, 32, -27.838, -21.441, 39.2915, -149.3, -80.6761, 43.4531
7.35894, 32, -27.8274, -21.531, 39.3629, -149.242, -80.6167, 43.4163
7.36705, 33, -27.8167, -21.6209, 39.4343, -149.185, -80.5565, 43.3797
7.37597, 33, -27.806, -21.7109, 39.5057, -149.127, -80.4973, 43.3434
7.38291, 33, -27.7952, -21.8007, 39.577, -149.07, -80.4372, 43.3083
7.39191, 33, -27.7841, -21.8906, 39.6483, -149.012, -80.3778, 43.2741
7.40247, 33, -27.7731, -21.9804, 39.7549, -148.926, -80.2884, 43.2233
7.40872, 33, -27.7621, -22.0702, 39.7904, -148.898, -80.2586, 43.2065
7.41593, 33, -27.751, -22.1599, 39.8614, -148.839, -80.1997, 43.1731
7.426, 33, -27.7343, -22.2943, 39.968, -148.753, -80.1101, 43.1247
7.43195, 33, -27.7287, -22.3391, 40.0034, -148.724, -80.0808, 43.1091
7.44, 33, -27.7174, -22.4287, 40.0744, -148.666, -80.0216, 43.0783
7.44791, 33, -27.7061, -22.5182, 40.1453, -148.609, -79.9622, 43.0481
7.45492, 34, -27.6947, -22.6076, 40.2161, -148.55, -79.9035, 43.0182
7.46392, 34, -27.6834, -22.697, 40.287, -148.493, -79.8436, 42.9885
7.47191, 34, -27.672, -22.7863, 40.3576, -148.434, -79.7848, 42.9594
7.48013, 34, -27.6605, -22.8755, 40.4282, -148.376, -79.7255, 42.9317
7.4879, 34, -27.6489, -22.9646, 40.4986, -148.318, -79.666, 42.9047
7.49591, 34, -27.6372, -23.0536, 40.569, -148.259, -79.6072, 42.8787
7.50401, 34, -27.6253, -23.1426, 40.6393, -148.202, -79.5475, 42.853
7.51194, 34, -27.6133, -23.2315, 40.7096, -148.143, -79.489, 42.8277
7.51998, 34, -27.6013, -23.3203, 40.7799, -148.085, -79.4297, 42.8028
7.52798, 34, -27.5892, -23.4091, 40.8501, -148.027, -79.3707, 42.7787
7.53591, 34, -27.577, -23.4979, 40.9202, -147.968, -79.3119, 42.7557
7.54388, 35, -27.5648, -23.5866, 40.9901, -147.91, -79.2524, 42.7339
7.552, 35, -27.5524, -23.675, 41.0599, -147.851, -79.1942, 42.7129
7.55999, 35, -27.5401, -23.7634, 41.1295, -147.793, -79.1351, 42.6927
7.5679, 35, -27.5277, -23.8516, 41.1991, -147.735, -79.0765, 42.6733
7.57612, 35, -27.5152, -23.9396, 41.2686, -147.676, -79.0181, 42.6543
7.58406, 35, -27.5026, -24.0275, 41.3381, -147.618, -78.959, 42.6358
7.59165, 35, -27.4899, -24.1153, 41.4074, -147.559, -78.9009, 42.6179
7.60001, 35, -27.477, -24.2029, 41.4767, -147.501, -78.8421, 42.601
7.60799, 35, -27.4639, -24.2906, 41.5459, -147.442, -78.7838, 42.5851
7.61606, 35, -27.4508, -24.3781, 41.615, -147.383, -78.7255, 42.5701
7.62401, 35, -27.4375, -24.4655, 41.6839, -147.325, -78.6667, 42.5562
7.63202, 35, -27.4241, -24.5527, 41.7526, -147.266, -78.609, 42.5431
7.64013, 36, -27.4105, -24.6399, 41.8211, -147.208, -78.5507, 42.5308
7.64752, 36, -27.4037, -24.6835, 41.8553, -147.149, -78.4929, 42.5197
7.65591, 36, -27.3829, -24.8139, 41.9578, -147.091, -78.4352, 42.5094
7.66399, 36, -27.3692, -24.9007, 42.026, -147.033, -78.377, 42.4999
7.67103, 36, -27.3622, -24.9442, 42.0601, -147.003, -78.3484, 42.4954
7.68268, 36, -27.3412, -25.074, 42.1623, -146.916, -78.262, 42.4831
7.68686, 36, -27.3342, -25.1172, 42.1963, -146.886, -78.2331, 42.4795
7.69713, 36, -27.3127, -25.2466, 42.2979, -146.798, -78.1472, 42.4698
7.70295, 36, -27.3055, -25.2896, 42.3317, -146.769, -78.1182, 42.4669
7.71236, 36, -27.2836, -25.4184, 42.4327, -146.681, -78.0325, 42.4598
7.72041, 36, -27.2689, -25.504, 42.4999, -146.623, -77.9752, 42.4562
7.72691, 37, -27.2614, -25.5468, 42.5334, -146.594, -77.9464, 42.4548
7.73676, 37, -27.2389, -25.6749, 42.634, -146.506, -77.8612, 42.4519
7.74447, 37, -27.2238, -25.7602, 42.7007, -146.448, -77.8037, 42.4511
7.75403, 37, -27.2086, -25.8453, 42.7673, -146.389, -77.7472, 42.4506
7.76106, 37, -27.1933, -25.9302, 42.8338, -146.331, -77.6904, 42.4505
7.7685, 37, -27.1856, -25.9725, 42.867, -146.273, -77.6336, 42.4505
7.77653, 37, -27.17, -26.0572, 42.9332, -146.215, -77.5773, 42.4509
7.78389, 37, -27.1542, -26.1416, 42.9993, -146.186, -77.5488, 42.4513
7.79189, 37, -27.1383, -26.2258, 43.0651, -146.127, -77.492, 42.453
7.80102, 37, -27.1141, -26.3518, 43.1634, -146.041, -77.4078, 42.4595
7.8069, 37, -27.106, -26.3936, 43.1961, -146.012, -77.3793, 42.4625
7.81598, 37, -27.0897, -26.4773, 43.2614, -145.953, -77.3233, 42.4695
7.82389, 38, -27.0732, -26.5608, 43.3266, -145.896, -77.2672, 42.4778
7.8319, 38, -27.0566, -26.6441, 43.3916, -145.837, -77.2106, 42.4873
7.83889, 38, -27.0399, -26.7272, 43.4564, -145.78, -77.155, 42.4981
7.84845, 38, -27.023, -26.8101, 43.521, -145.722, -77.0988, 42.5102
7.85591, 38, -27.0058, -26.8927, 43.5854, -145.664, -77.0428, 42.5232
7.86291, 38, -26.9884, -26.9751, 43.6496, -145.607, -76.9873, 42.5376
7.87189, 38, -26.9709, -27.0573, 43.7135, -145.549, -76.931, 42.5533
7.87992, 38, -26.9532, -27.1392, 43.7774, -145.492, -76.8758, 42.5703
7.88795, 38, -26.9354, -27.221, 43.8409, -145.435, -76.8204, 42.5886
7.8959, 38, -26.9174, -27.3025, 43.9042, -145.377, -76.7646, 42.6082
7.90548, 38, -26.8993, -27.3839, 43.9673, -145.321, -76.7098, 42.6296
7.91193, 39, -26.881, -27.4649, 44.0302, -145.263, -76.654, 42.652
7.92099, 39, -26.8625, -27.5458, 44.0929, -145.207, -76.5988, 42.6755
7.92793, 39, -26.8436, -27.6264, 44.1553, -145.15, -76.5442, 42.6999
7.93593, 39, -26.8245, -27.7068, 44.2176, -145.093, -76.4885, 42.7256
7.94404, 39, -26.8053, -27.787, 44.2797, -145.037, -76.4341, 42.7523
7.95192, 39, -26.786, -27.8669, 44.3414, -144.98, -76.379, 42.7806
7.95992, 39, -26.7664, -27.9466, 44.4029, -144.924, -76.3237, 42.8105
7.96792, 39, -26.7467, -28.026, 44.4641, -144.868, -76.2694, 42.8415
7.97596, 39, -26.7269, -28.1052, 44.525, -144.811, -76.214, 42.8732
7.98389, 39, -26.7069, -28.1842, 44.5858, -144.756, -76.1594, 42.906
7.99193, 39, -26.6865, -28.2627, 44.6463, -144.699, -76.1047, 42.9404
7.99992, 40, -26.6659, -28.3411, 44.7065, -144.644, -76.0495, 42.9763
8.00793, 40, -26.6451, -28.4192, 44.7666, -144.589, -75.9957, 43.0138
8.01598, 40, -26.6242, -28.4969, 44.8263, -144.533, -75.941, 43.052
8.02396, 40, -26.603, -28.5743, 44.8858, -144.478, -75.8866, 43.0913
8.0319, 40, -26.5816, -28.6514, 44.9451, -144.423, -75.8327, 43.1318
8.04005, 40, -26.56, -28.7283, 45.004, -144.367, -75.778, 43.1743
8.04795, 40, -26.5382, -28.8048, 45.0626, -144.314, -75.7241, 43.2179
8.05591, 40, -26.516, -28.8811, 45.121, -144.258, -75.6704, 43.2624
8.06389, 40, -26.4936, -28.9571, 45.179, -144.204, -75.616, 43.3083
8.07191, 40, -26.4711, -29.0329, 45.2367, -144.15, -75.5626, 43.3562
8.07995, 40, -26.4482, -29.1083, 45.2942, -144.095, -75.5086, 43.4052
8.08792, 40, -26.425, -29.1834, 45.3513, -144.042, -75.4545, 43.455
8.09597, 41, -26.4018, -29.2582, 45.4082, -143.988, -75.4014, 43.5063
8.10392, 41, -26.3782, -29.3327, 45.4649, -143.934, -75.3476, 43.5596
8.11214, 41, -26.3542, -29.4068, 45.5211, -143.882, -75.2942, 43.6135
8.12085, 41, -26.3301, -29.4807, 45.5771, -143.828, -75.2412, 43.6686
8.12801, 41, -26.3058, -29.5542, 45.6328, -143.776, -75.1875, 43.7258
8.13653, 41, -26.2812, -29.6274, 45.688, -143.724, -75.1347, 43.7841
8.14399, 41, -26.2564, -29.7002, 45.743, -143.671, -75.0819, 43.8435
8.15248, 41, -26.2313, -29.7726, 45.7977, -143.619, -75.0286, 43.9049
8.15888, 41, -26.2186, -29.8088, 45.8248, -143.593, -75.0025, 43.9362
8.16792, 41, -26.18, -29.9164, 45.9058, -143.515, -74.9235, 44.0315
8.1768, 41, -26.1542, -29.9878, 45.9595, -143.465, -74.8705, 44.0977
8.18487, 42, -26.128, -30.0588, 46.0128, -143.413, -74.8185, 44.1648
8.19202, 42, -26.1015, -30.1294, 46.0658, -143.362, -74.7657, 44.2329
8.19895, 42, -26.0882, -30.1645, 46.0922, -143.338, -74.7394, 44.2678
8.20688, 42, -26.0612, -30.2346, 46.1446, -143.287, -74.6875, 44.3388
8.21715, 42, -26.02, -30.3389, 46.2225, -143.212, -74.6085, 44.4476
8.22289, 42, -26.0062, -30.3735, 46.2482, -143.188, -74.5823, 44.485
8.23093, 42, -25.9784, -30.4424, 46.2995, -143.138, -74.5306, 44.5599
8.24141, 42, -25.936, -30.545, 46.3756, -143.064, -74.4519, 44.676
8.24695, 42, -25.9217, -30.579, 46.4008, -143.041, -74.426, 44.7152
8.25651, 42, -25.8781, -30.6803, 46.4757, -142.968, -74.3484, 44.8354
8.2654, 42, -25.8488, -30.7472, 46.5252, -142.92, -74.2961, 44.9177
8.27094, 42, -25.834, -30.7806, 46.5498, -142.897, -74.2704, 44.9592
8.28047, 43, -25.8042, -30.8469, 46.5986, -142.849, -74.2193, 45.0875
8.2869, 43, -25.7742, -30.913, 46.6471, -142.802, -74.1672, 45.1306
8.29691, 43, -25.7285, -31.0112, 46.7189, -142.733, -74.0905, 45.2637
8.30289, 43, -25.7131, -31.0437, 46.7427, -142.71, -74.0648, 45.3084
8.31384, 43, -25.6664, -31.1408, 46.8133, -142.641, -73.9875, 45.4457
8.319, 43, -25.6506, -31.1728, 46.8365, -142.619, -73.9622, 45.492
8.32794, 43, -25.6188, -31.2365, 46.8829, -142.574, -73.9111, 45.5862
8.33588, 43, -25.5865, -31.2998, 46.9288, -142.529, -73.8596, 45.6816
8.34392, 43, -25.5539, -31.3625, 46.9743, -142.485, -73.8092, 45.7787
8.35194, 43, -25.5211, -31.4247, 47.0192, -142.442, -73.758, 45.8772
8.35988, 43, -25.488, -31.4864, 47.0637, -142.398, -73.7069, 45.9774
8.36787, 44, -25.4544, -31.5475, 47.1077, -142.355, -73.6568, 46.079
8.37593, 44, -25.4203, -31.6083, 47.1511, -142.314, -73.606, 46.1828
8.38389, 44, -25.3858, -31.6685, 47.1941, -142.272, -73.5554, 46.2878
8.3919, 44, -25.3511, -31.7284, 47.2367, -142.23, -73.5054, 46.3948
8.39994, 44, -25.3159, -31.7878, 47.2787, -142.19, -73.4548, 46.503
8.40801, 44, -25.2803, -31.8467, 47.3202, -142.15, -73.4045, 46.6132
8.41495, 44, -25.2443, -31.9051, 47.3612, -142.11, -73.355, 46.7252
8.42397, 44, -25.2079, -31.9628, 47.4018, -142.07, -73.3047, 46.8382
8.43187, 44, -25.1712, -32.02, 47.4417, -142.032, -73.2552, 46.9533
8.43987, 44, -25.1341, -32.0764, 47.4811, -141.995, -73.2058, 47.0702
8.44793, 44, -25.0965, -32.1323, 47.5201, -141.957, -73.1558, 47.1888
8.45607, 45, -25.0585, -32.1876, 47.5586, -141.92, -73.1065, 47.3092
8.46294, 45, -25.0202, -32.2422, 47.5963, -141.884, -73.0577, 47.4314
8.47196, 45, -24.9813, -32.2964, 47.6337, -141.849, -73.0081, 47.5551
8.48004, 45, -24.9419, -32.3499, 47.6703, -141.813, -72.9594, 47.6807
8.48866, 45, -24.9021, -32.4031, 47.7063, -141.779, -72.911, 47.8082
8.49593, 45, -24.862, -32.4556, 47.7418, -141.745, -72.8618, 47.9369
8.50388, 45, -24.8214, -32.5075, 47.7767, -141.712, -72.8134, 48.0675
8.51197, 45, -24.7802, -32.5588, 47.8108, -141.679, -72.7654, 48.1998
8.51991, 45, -24.7387, -32.6095, 47.8445, -141.647, -72.7167, 48.3337
8.52778, 45, -24.6968, -32.6594, 47.8777, -141.616, -72.6687, 48.4695
8.53593, 45, -24.6545, -32.7085, 47.9101, -141.586, -72.6211, 48.607
8.54387, 45, -24.6115, -32.7568, 47.942, -141.556, -72.5727, 48.7461
8.55188, 46, -24.5682, -32.8045, 47.9733, -141.526, -72.5253, 48.8868
8.55997, 46, -24.5243, -32.8513, 48.0038, -141.498, -72.4784, 49.0292
8.56787, 46, -24.4799, -32.8974, 48.0336, -141.47, -72.4306, 49.1731
8.57617, 46, -24.4351, -32.9429, 48.0629, -141.444, -72.3835, 49.319
8.58401, 46, -24.3899, -32.9878, 48.0916, -141.418, -72.337, 49.4668
8.59189, 46, -24.3442, -33.032, 48.1194, -141.392, -72.2897, 49.6165
8.60191, 46, -24.2979, -33.0754, 48.1466, -141.368, -72.243, 49.7679
8.60833, 46, -24.2513, -33.1183, 48.1731, -141.344, -72.1972, 49.9207
8.6154, 46, -24.2041, -33.1603, 48.1989, -141.321, -72.1506, 50.0754
8.62399, 46, -24.1563, -33.2015, 48.2239, -141.299, -72.1045, 50.2313
8.6325, 46, -24.1081, -33.2419, 48.2483, -141.278, -72.0593, 50.389
8.64, 47, -24.0594, -33.2814, 48.2719, -141.257, -72.0136, 50.5485
8.64751, 47, -24.0101, -33.3201, 48.2949, -141.237, -71.9679, 50.7098
8.65667, 47, -23.9602, -33.3579, 48.3171, -141.218, -71.9233, 50.8727
8.66387, 47, -23.9099, -33.3949, 48.3384, -141.201, -71.8786, 51.0375
8.6719, 47, -23.859, -33.4309, 48.3589, -141.184, -71.8335, 51.2038
8.68176, 47, -23.8075, -33.4661, 48.3788, -141.169, -71.7894, 51.3716
8.68798, 47, -23.7556, -33.5006, 48.3979, -141.154, -71.7457, 51.5414
8.69489, 47, -23.7295, -33.5174, 48.4073, -141.147, -71.7236, 51.6269
8.70587, 47, -23.6502, -33.5667, 48.434, -141.127, -71.6579, 51.8861
8.71215, 47, -23.5967, -33.5985, 48.4507, -141.115, -71.6152, 52.0609
8.71889, 47, -23.5697, -33.6141, 48.4588, -141.109, -71.5938, 52.1491
8.72875, 47, -23.4879, -33.6593, 48.4817, -141.093, -71.5295, 52.4157
8.73637, 48, -23.4327, -33.6883, 48.4958, -141.083, -71.4877, 52.5955
8.7444, 48, -23.377, -33.7162, 48.5091, -141.075, -71.446, 52.7769
8.75274, 48, -23.3207, -33.7432, 48.5216, -141.067, -71.4039, 52.9602
8.76048, 48, -23.2639, -33.7692, 48.5333, -141.061, -71.3629, 53.1452
8.76844, 48, -23.2065, -33.7941, 48.5441, -141.056, -71.3226, 53.3317
8.77676, 48, -23.1486, -33.8181, 48.5539, -141.052, -71.282, 53.5198
8.78384, 48, -23.1194, -33.8296, 48.5585, -141.05, -71.2617, 53.6144
8.79191, 48, -23.0606, -33.8521, 48.5672, -141.048, -71.2218, 53.8052
8.80289, 48, -22.9713, -33.8839, 48.5784, -141.046, -71.1631, 54.0947
8.8079, 48, -22.9412, -33.8939, 48.5816, -141.045, -71.1434, 54.1921
8.81587, 48, -22.8807, -33.9132, 48.5875, -141.045, -71.1041, 54.3877
8.82395, 49, -22.8197, -33.9315, 48.5925, -141.046, -71.066, 54.5849
8.83186, 49, -22.758, -33.9485, 48.5965, -141.048, -71.0285, 54.7835
8.83986, 49, -22.6958, -33.9643, 48.5994, -141.051, -70.9909, 54.9837
8.84804, 49, -22.633, -33.9792, 48.6014, -141.055, -70.9536, 55.1858
8.85726, 49, -22.5378, -33.9993, 48.6027, -141.064, -70.8994, 55.4917
8.86286, 49, -22.5058, -34.0053, 48.6028, -141.068, -70.8816, 55.5945
8.87193, 49, -22.4413, -34.0164, 48.6028, -141.076, -70.8458, 55.8009
8.87988, 49, -22.3761, -34.0263, 48.6018, -141.086, -70.8103, 56.0091
8.8869, 49, -22.3105, -34.0352, 48.5999, -141.098, -70.7759, 56.2191
8.89591, 49, -22.2442, -34.0431, 48.5971, -141.11, -70.7424, 56.4304
8.90388, 49, -22.1774, -34.0497, 48.5932, -141.124, -70.7091, 56.6433
8.9135, 50, -22.11, -34.0551, 48.5881, -141.139, -70.6759, 56.9651
8.9199, 50, -22.0421, -34.0592, 48.5818, -141.155, -70.6438, 57.0731
8.92791, 50, -21.9737, -34.0618, 48.5745, -141.172, -70.6126, 57.2905
8.93586, 50, -21.9047, -34.0632, 48.566, -141.191, -70.5819, 57.5095
8.94402, 50, -21.8351, -34.0637, 48.5563, -141.21, -70.5512, 57.7298
8.95501, 50, -21.7648, -34.0632, 48.5401, -141.243, -70.5064, 58.063
8.95985, 50, -21.6937, -34.0615, 48.5341, -141.254, -70.492, 58.1748
8.96873, 50, -21.6221, -34.0585, 48.5211, -141.278, -70.4639, 58.3997
8.97487, 50, -21.5501, -34.0541, 48.507, -141.303, -70.4366, 58.6261
8.98386, 50, -21.4775, -34.0484, 48.4918, -141.328, -70.4094, 58.8537
8.99266, 50, -21.4044, -34.0411, 48.4754, -141.355, -70.3827, 59.0826
8.99895, 50, -21.3309, -34.0323, 48.4578, -141.384, -70.3571, 59.3127
9.00785, 51, -21.2568, -34.022, 48.439, -141.415, -70.3325, 59.5444
9.0167, 51, -21.182, -34.0103, 48.4191, -141.446, -70.3087, 59.7774
9.02492, 51, -21.1067, -33.9973, 48.398, -141.478, -70.2855, 60.0118
9.03187, 51, -21.0307, -33.9826, 48.3757, -141.512, -70.2628, 60.2474
9.04085, 51, -20.9541, -33.9661, 48.3523, -141.547, -70.2406, 60.4845
9.04799, 51, -20.877, -33.9481, 48.3277, -141.584, -70.2194, 60.7231
9.05496, 51, -20.7993, -33.9288, 48.302, -141.621, -70.1994, 60.9628
9.067, 51, -20.6818, -33.8966, 48.261, -141.68, -70.1713, 61.3246
9.07193, 51, -20.6425, -33.8852, 48.2468, -141.7, -70.1625, 61.4458
9.07993, 51, -20.5634, -33.8611, 48.2175, -141.742, -70.1456, 61.6892
9.08808, 51, -20.4838, -33.8353, 48.187, -141.784, -70.1292, 61.9339
9.09584, 52, -20.4036, -33.8082, 48.1551, -141.828, -70.1137, 62.1799
9.10388, 52, -20.3228, -33.7793, 48.122, -141.873, -70.0988, 62.4268
9.11209, 52, -20.2415, -33.7489, 48.0878, -141.92, -70.085, 62.6751
9.12009, 52, -20.1596, -33.7168, 48.0522, -141.968, -70.0722, 62.9248
9.12796, 52, -20.0773, -33.6829, 48.0155, -142.017, -70.0606, 63.1755
9.13636, 52, -19.9945, -33.6472, 47.9777, -142.067, -70.0502, 63.4271
9.14351, 52, -19.9112, -33.61, 47.9384, -142.119, -70.041, 63.6797
9.15202, 52, -19.8275, -33.5709, 47.8979, -142.171, -70.0329, 63.9336
9.16004, 52, -19.7432, -33.5302, 47.8563, -142.225, -70.0258, 64.1884
9.16689, 52, -19.7009, -33.5093, 47.8349, -142.253, -70.0228, 64.3163
9.17595, 52, -19.5736, -33.4439, 47.7691, -142.337, -70.0152, 64.7011
9.18398, 52, -19.4881, -33.3981, 47.7237, -142.394, -70.0116, 64.959
9.19085, 53, -19.4452, -33.3746, 47.7004, -142.424, -70.0102, 65.0884
9.2, 53, -19.3156, -33.3015, 47.6289, -142.513, -70.0076, 65.478
9.20691, 53, -19.2721, -33.2763, 47.6044, -142.544, -70.0073, 65.6083
9.21657, 53, -19.1412, -33.1979, 47.5291, -142.637, -70.0072, 66.0002
9.22426, 53, -19.0533, -33.1434, 47.4773, -142.702, -70.0084, 66.2629
9.23085, 53, -19.0093, -33.1155, 47.4509, -142.734, -70.0094, 66.3946
9.24036, 53, -18.8765, -33.029, 47.3697, -142.832, -70.0144, 66.7909
9.24858, 53, -18.7876, -32.9691, 47.314, -142.899, -70.0194, 67.0563
9.25643, 53, -18.6982, -32.9074, 47.257, -142.968, -70.0258, 67.3227
9.26447, 53, -18.6083, -32.8437, 47.1986, -143.037, -70.0338, 67.5898
9.2725, 53, -18.518, -32.7782, 47.1389, -143.108, -70.0431, 67.8575
9.28035, 54, -18.4728, -32.7448, 47.1086, -143.143, -70.0484, 67.9915
9.2884, 54, -18.3819, -32.6766, 47.047, -143.215, -70.0601, 68.2602
9.29589, 54, -18.2907, -32.6065, 46.9842, -143.289, -70.0735, 68.5295
9.30384, 54, -18.1992, -32.5346, 46.9201, -143.363, -70.0887, 68.7998
9.31202, 54, -18.1074, -32.461, 46.8546, -143.439, -70.1056, 69.0704
9.32142, 54, -17.9691, -32.3469, 46.754, -143.553, -70.1337, 69.4782
9.32685, 54, -17.9227, -32.3079, 46.7198, -143.592, -70.1438, 69.6145
9.33586, 54, -17.8299, -32.2286, 46.6504, -143.671, -70.1647, 69.8873
9.34284, 54, -17.7367, -32.1473, 46.5797, -143.75, -70.1869, 70.1605
9.35188, 54, -17.6433, -32.064, 46.5076, -143.83, -70.2108, 70.4344
9.35986, 54, -17.5496, -31.9788, 46.4343, -143.912, -70.2367, 70.7089
9.36789, 54, -17.4557, -31.8916, 46.3598, -143.994, -70.2645, 70.9839
9.37584, 55, -17.3615, -31.8025, 46.2841, -144.077, -70.2935, 71.2594
9.38385, 55, -17.2671, -31.7116, 46.2071, -144.161, -70.3237, 71.5353
9.39084, 55, -17.1726, -31.6188, 46.1289, -144.246, -70.3556, 71.812
9.39985, 55, -17.0776, -31.524, 46.0493, -144.332, -70.3896, 72.0891
9.40798, 55, -16.9823, -31.4273, 45.9683, -144.418, -70.4253, 72.3661
9.41832, 55, -16.8868, -31.2786, 45.8443, -144.55, -70.4807, 72.7826
9.42284, 55, -16.7912, -31.2281, 45.8023, -144.594, -70.5, 72.9216
9.43399, 55, -16.6476, -31.0738, 45.6747, -144.727, -70.5617, 73.3388
9.43883, 55, -16.5997, -31.0215, 45.6316, -144.772, -70.5829, 73.4779
9.44783, 55, -16.5038, -30.9154, 45.5444, -144.862, -70.6261, 73.7566
9.45584, 55, -16.4077, -30.8072, 45.456, -144.953, -70.6715, 74.0357
9.46385, 56, -16.3115, -30.697, 45.3663, -145.045, -70.7188, 74.3148
9.47183, 56, -16.215, -30.5848, 45.2753, -145.137, -70.7669, 74.5939
9.47995, 56, -16.1184, -30.4706, 45.1828, -145.23, -70.8174, 74.873
9.48799, 56, -16.0216, -30.3547, 45.0893, -145.324, -70.87, 75.1527
9.49658, 56, -15.9248, -30.2368, 44.9947, -145.418, -70.9235, 75.4324
9.50391, 56, -15.8281, -30.1171, 44.8991, -145.512, -70.9798, 75.7119
9.51186, 56, -15.7314, -29.9954, 44.8022, -145.608, -71.0372, 75.9917
9.51995, 56, -15.6346, -29.8717, 44.7041, -145.703, -71.0963, 76.2718
9.52783, 56, -15.5375, -29.7461, 44.6046, -145.799, -71.1579, 76.5517
9.53585, 56, -15.4403, -29.6187, 44.5038, -145.895, -71.2204, 76.8312
9.54389, 56, -15.3431, -29.4897, 44.4018, -145.992, -71.2855, 77.1108
9.55205, 57, -15.2459, -29.3587, 44.299, -146.089, -71.3515, 77.3902
9.5599, 57, -15.1487, -29.2257, 44.195, -146.187, -71.4201, 77.6694
9.5679, 57, -15.0516, -29.0908, 44.09, -146.285, -71.4902, 77.9484
9.57584, 57, -14.9546, -28.954, 43.9837, -146.383, -71.5622, 78.2274
9.584, 57, -14.8576, -28.8155, 43.8761, -146.481, -71.6356, 78.5064
9.592, 57, -14.7606, -28.6752, 43.7674, -146.579, -71.7113, 78.7849
9.59987, 57, -14.6636, -28.5328, 43.6578, -146.678, -71.7887, 79.0629
9.60793, 57, -14.5667, -28.3885, 43.5473, -146.777, -71.8682, 79.3409
9.61592, 57, -14.4699, -28.2425, 43.4358, -146.876, -71.949, 79.6188
9.62399, 57, -14.3731, -28.0949, 43.3231, -146.975, -72.0323, 79.8961
9.63195, 57, -14.2764, -27.9457, 43.209, -147.074, -72.117, 80.1729
9.63995, 57, -14.1799, -27.7946, 43.0939, -147.173, -72.2034, 80.4495
9.64804, 58, -14.0835, -27.6417, 42.978, -147.273, -72.2917, 80.726
9.65594, 58, -13.9873, -27.4872, 42.8612, -147.372, -72.3819, 81.0017
9.66384, 58, -13.8912, -27.3313, 42.7435, -147.471, -72.4737, 81.2767
9.6721, 58, -13.7953, -27.1738, 42.6249, -147.57, -72.5674, 81.5512
9.68017, 58, -13.6996, -27.0141, 42.5051, -147.669, -72.6631, 81.8254
9.68886, 58, -13.6042, -26.8524, 42.3842, -147.768, -72.7605, 82.0989
9.69602, 58, -13.5091, -26.6893, 42.2626, -147.867, -72.8598, 82.3717
9.70285, 58, -13.4616, -26.6072, 42.2015, -147.916, -72.9101, 82.5078
9.71089, 58, -13.3667, -26.4421, 42.0787, -148.015, -73.0122, 82.7797
9.72048, 58, -13.2244, -26.1905, 41.8929, -148.163, -73.1684, 83.1862
9.72917, 58, -13.1299, -26.0207, 41.7678, -148.26, -73.2748, 83.4561
9.73491, 58, -13.0828, -25.9354, 41.7049, -148.309, -73.3284, 83.5908
9.74459, 59, -12.9417, -25.678, 41.5153, -148.455, -73.4921, 83.9939
9.75307, 59, -12.8482, -25.5043, 41.3879, -148.552, -73.6036, 84.2616
9.76041, 59, -12.7549, -25.3287, 41.2599, -148.649, -73.7166, 84.5283
9.76866, 59, -12.6619, -25.1522, 41.131, -148.745, -73.8315, 84.7941
9.77743, 59, -12.5692, -24.9747, 41.0015, -148.841, -73.9479, 85.0595
9.78525, 59, -12.5229, -24.7954, 40.8711, -148.937, -74.0661, 85.3241
9.79082, 59, -12.4305, -24.7051, 40.8057, -148.984, -74.1259, 85.4558
9.80091, 59, -12.2924, -24.4317, 40.6084, -149.126, -74.3074, 85.8494
9.80783, 59, -12.2465, -24.3402, 40.5423, -149.173, -74.3688, 85.98
9.81589, 59, -12.155, -24.1565, 40.4097, -149.267, -74.4927, 86.2408
9.82523, 59, -12.0187, -23.8775, 40.2099, -149.406, -74.6816, 86.6296
9.83183, 60, -11.9735, -23.7837, 40.143, -149.452, -74.7453, 86.7586
9.83988, 60, -11.8833, -23.5955, 40.0088, -149.544, -74.8737, 87.0159
9.84682, 60, -11.7934, -23.4064, 39.874, -149.635, -75.0039, 87.2721
9.85591, 60, -11.7039, -23.2159, 39.7388, -149.726, -75.1351, 87.5271
9.86382, 60, -11.6146, -23.0238, 39.6032, -149.816, -75.2682, 87.7808
9.87187, 60, -11.5257, -22.8311, 39.467, -149.905, -75.4026, 88.0331
9.88196, 60, -11.3932, -22.541, 39.2618, -150.037, -75.6071, 88.4099
9.88782, 60, -11.3492, -22.4436, 39.1931, -150.081, -75.6759, 88.5349
9.8959, 60, -11.2617, -22.2477, 39.0555, -150.168, -75.8144, 88.7837
9.90382, 60, -11.1748, -22.0511, 38.9178, -150.254, -75.9543, 89.0311
9.91183, 60, -11.0882, -21.8534, 38.7796, -150.339, -76.0954, 89.2772
9.92082, 61, -11.0021, -21.654, 38.6412, -150.424, -76.2379, 89.5222
9.92783, 61, -10.9164, -21.4535, 38.5024, -150.508, -76.3817, 89.7657
9.93682, 61, -10.831, -21.2525, 38.3636, -150.591, -76.5266, 90.0075
9.94388, 61, -10.746, -21.0507, 38.2246, -150.672, -76.6728, 90.2476
9.95198, 61, -10.6616, -20.8475, 38.0853, -150.753, -76.8204, 90.4863
9.95982, 61, -10.5777, -20.6438, 37.9457, -150.833, -76.9691, 90.7236
9.9679, 61, -10.4943, -20.4396, 37.8059, -150.913, -77.1191, 90.9593
9.97584, 61, -10.4113, -20.2343, 37.6661, -150.991, -77.2702, 91.1934
9.9839, 61, -10.3288, -20.0279, 37.526, -151.068, -77.4224, 91.4259
9.99183, 61, -10.2469, -19.8214, 37.3859, -151.145, -77.5757, 91.6569
9.99982, 61, -10.1655, -19.6146, 37.2456, -151.221, -77.7298, 91.8862
10.0079, 61, -10.0846, -19.4067, 37.1054, -151.295, -77.885, 92.1136
10.0159, 62, -10.0042, -19.198, 36.9654, -151.368, -78.0409, 92.3391
10.0239, 62, -9.92426, -18.9893, 36.8255, -151.441, -78.1979, 92.5627
10.0319, 62, -9.84495, -18.7799, 36.6854, -151.512, -78.3555, 92.7847
10.0398, 62, -9.76622, -18.5695, 36.5453, -151.582, -78.5142, 93.0052
10.048, 62, -9.688, -18.3594, 36.4053, -151.652, -78.6732, 93.2236
10.0595, 62, -9.61025, -18.0441, 36.1955, -151.754, -78.9137, 93.5477
10.0638, 62, -9.53277, -17.9387, 36.1257, -151.787, -78.9942, 93.6548
10.0718, 62, -9.45569, -17.7275, 35.9861, -151.853, -79.156, 93.8678
10.0798, 62, -9.37929, -17.5166, 35.8465, -151.918, -79.3183, 94.079
10.0879, 62, -9.30337, -17.305, 35.7074, -151.982, -79.4813, 94.2881
10.0958, 62, -9.22809, -17.0924, 35.5686, -152.045, -79.6449, 94.495
10.1039, 63, -9.15345, -16.8798, 35.43, -152.106, -79.8093, 94.6997
10.1119, 63, -9.07937, -16.6673, 35.2916, -152.167, -79.9744, 94.9023
10.1201, 63, -9.00583, -16.4543, 35.1534, -152.227, -80.14, 95.103
10.1288, 63, -8.93271, -16.2412, 35.0157, -152.285, -80.3061, 95.3014
10.1359, 63, -8.86023, -16.0286, 34.8784, -152.342, -80.4728, 95.4978
10.1444, 63, -8.78825, -15.816, 34.7414, -152.398, -80.64, 95.6917
10.152, 63, -8.71685, -15.6029, 34.6046, -152.453, -80.8077, 95.8835
10.1604, 63, -8.646, -15.3904, 34.4682, -152.507, -80.9757, 96.0732
10.1674, 63, -8.61078, -15.2844, 34.4003, -152.533, -81.0598, 96.1673
10.1748, 63, -8.54072, -15.0722, 34.2647, -152.585, -81.2281, 96.3539
10.1847, 63, -8.43655, -14.7533, 34.0622, -152.661, -81.4814, 96.6291
10.1933, 64, -8.3679, -14.5412, 33.9279, -152.709, -81.6505, 96.8093
10.1989, 64, -8.33369, -14.4351, 33.8608, -152.734, -81.7351, 96.8985
10.2087, 64, -8.23199, -14.1159, 33.6606, -152.804, -81.9892, 97.1625
10.2172, 64, -8.1649, -13.9039, 33.5278, -152.849, -82.1585, 97.3357
10.225, 64, -8.09839, -13.6927, 33.3956, -152.894, -82.3284, 97.5067
10.2331, 64, -8.03239, -13.4816, 33.2639, -152.937, -82.4983, 97.6748
10.239, 64, -7.99963, -13.3762, 33.1982, -152.959, -82.5834, 97.7582
10.2492, 64, -7.90225, -13.0612, 33.0022, -153.02, -82.8387, 98.0037
10.2549, 64, -7.86999, -12.9564, 32.9372, -153.04, -82.9238, 98.0843
10.2644, 64, -7.77404, -12.6416, 32.7431, -153.099, -83.1792, 98.3227
10.2733, 64, -7.71084, -12.4325, 32.6145, -153.136, -83.3496, 98.4784
10.2789, 64, -7.67944, -12.3283, 32.5505, -153.154, -83.4348, 98.5554
10.2884, 65, -7.61693, -12.1199, 32.4228, -153.19, -83.6903, 98.7817
10.2958, 65, -7.55495, -11.9114, 32.296, -153.224, -83.7755, 98.8557
10.3029, 65, -7.49362, -11.7038, 32.1699, -153.257, -83.9457, 99.0016
10.3129, 65, -7.40264, -11.3935, 31.9823, -153.304, -84.2009, 99.2152
10.3217, 65, -7.37251, -11.29, 31.92, -153.335, -84.3708, 99.354
10.3278, 65, -7.31276, -11.0836, 31.796, -153.35, -84.4557, 99.4224
10.3358, 65, -7.25353, -10.8783, 31.6728, -153.379, -84.6256, 99.5574
10.3458, 65, -7.16575, -10.5716, 31.4896, -153.419, -84.8798, 99.7543
10.3518, 65, -7.13676, -10.4694, 31.4289, -153.432, -84.9645, 99.8186
10.3599, 65, -7.07912, -10.2659, 31.3082, -153.457, -85.1338, 99.9446
10.3678, 65, -7.02199, -10.0633, 31.1882, -153.482, -85.3026, 100.068
10.3758, 66, -6.96535, -9.86106, 31.069, -153.505, -85.4713, 100.187
10.3828, 66, -6.90911, -9.65901, 30.9506, -153.527, -85.6395, 100.304
10.3918, 66, -6.85345, -9.45844, 30.8331, -153.547, -85.8077, 100.418
10.3998, 66, -6.79831, -9.25917, 30.7165, -153.566, -85.9755, 100.528
10.4079, 66, -6.74361, -9.06026, 30.6007, -153.584, -86.1431, 100.636
10.416, 66, -6.68944, -8.86204, 30.4857, -153.602, -86.3102, 100.74
10.4238, 66, -6.63575, -8.66519, 30.3715, -153.618, -86.4768, 100.842
10.4319, 66, -6.58247, -8.46902, 30.2582, -153.634, -86.6432, 100.94
10.4399, 66, -6.52978, -8.27297, 30.146, -153.648, -86.8093, 101.035
10.4489, 66, -6.4776, -8.07774, 30.0346, -153.661, -86.9751, 101.126
10.4558, 66, -6.42573, -7.88403, 29.9241, -153.673, -87.1405, 101.214
10.4638, 66, -6.37448, -7.69103, 29.8142, -153.684, -87.3055, 101.299
10.4718, 67, -6.32369, -7.49834, 29.7052, -153.694, -87.4701, 101.38
10.4799, 67, -6.2733, -7.30684, 29.5973, -153.702, -87.6345, 101.457
10.488, 67, -6.22346, -7.11681, 29.4904, -153.709, -87.7984, 101.532
10.4981, 67, -6.17408, -6.92739, 29.3844, -153.719, -88.0436, 101.637
10.503, 67, -6.12509, -6.73835, 29.2793, -153.721, -88.125, 101.67
10.5128, 67, -6.07647, -6.55063, 29.1748, -153.726, -88.2874, 101.735
10.5198, 67, -6.0283, -6.3645, 29.0712, -153.729, -88.4495, 101.795
10.5279, 67, -5.98054, -6.17888, 28.9686, -153.732, -88.6112, 101.852
10.5366, 67, -5.93331, -5.99372, 28.8672, -153.733, -88.7722, 101.906
10.5438, 67, -5.88664, -5.80977, 28.7669, -153.734, -88.933, 101.956
10.5518, 67, -5.84032, -5.62704, 28.6674, -153.735, -89.0928, 102.002
10.5606, 68, -5.79431, -5.44471, 28.5685, -153.735, -89.2524, 102.044
10.5678, 68, -5.74883, -5.26283, 28.4703, -153.734, -89.4112, 102.083
10.5758, 68, -5.70363, -5.08246, 28.3732, -153.731, -89.5697, 102.118
10.5848, 68, -5.65866, -4.9039, 28.2774, -153.728, -89.7275, 102.149
10.5936, 68, -5.61425, -4.72603, 28.1824, -153.723, -89.8851, 102.175
10.6, 68, -5.5703, -4.54881, 28.0884, -153.718, -90.0422, 102.198
10.6097, 68, -5.52673, -4.37308, 27.9951, -153.711, -90.1989, 102.218
10.6161, 68, -5.48344, -4.19897, 27.9024, -153.704, -90.3551, 102.234
10.6233, 68, -5.44067, -4.02543, 27.8106, -153.696, -90.5109, 102.246
10.6319, 68, -5.39832, -3.85235, 27.7201, -153.686, -90.6663, 102.254
10.6405, 68, -5.35617, -3.68052, 27.6306, -153.676, -90.8211, 102.258
10.6479, 68, -5.31438, -3.51033, 27.5421, -153.665, -90.9756, 102.26
10.6559, 69, -5.27298, -3.34095, 27.4544, -153.652, -91.1297, 102.259
10.6644, 69, -5.23196, -3.17198, 27.3675, -153.639, -91.2832, 102.254
10.6718, 69, -5.19124, -3.00415, 27.2813, -153.624, -91.4362, 102.243
10.6798, 69, -5.15093, -2.83798, 27.196, -153.609, -91.5887, 102.228
10.6928, 69, -5.09116, -2.59059, 27.07, -153.584, -91.8163, 102.197
10.696, 69, -5.0713, -2.50848, 27.0285, -153.576, -91.8919, 102.185
10.704, 69, -5.03173, -2.34504, 26.9462, -153.558, -92.0426, 102.157
10.7138, 69, -4.99265, -2.18318, 26.8646, -153.54, -92.1931, 102.125
10.7201, 69, -4.95379, -2.02268, 26.7839, -153.522, -92.3427, 102.087
10.7268, 69, -4.93454, -1.94279, 26.7439, -153.512, -92.4175, 102.067
10.7366, 69, -4.87698, -1.70414, 26.6251, -153.482, -92.6405, 102
10.7443, 70, -4.83897, -1.54638, 26.547, -153.46, -92.7889, 101.95
10.7524, 70, -4.80126, -1.39004, 26.4698, -153.438, -92.9364, 101.895
10.7604, 70, -4.76379, -1.23483, 26.3935, -153.416, -93.0838, 101.835
10.7683, 70, -4.7265, -1.08041, 26.3181, -153.393, -93.2305, 101.772
10.7764, 70, -4.68949, -0.926969, 26.2435, -153.369, -93.3768, 101.703
10.7852, 70, -4.65285, -0.77479, 26.1698, -153.344, -93.5226, 101.631
10.7923, 70, -4.63466, -0.699271, 26.1333, -153.332, -93.5953, 101.593
10.7998, 70, -4.59847, -0.549277, 26.0609, -153.306, -93.7405, 101.514
10.8078, 70, -4.56232, -0.40031, 25.9891, -153.28, -93.8853, 101.43
10.8158, 70, -4.52646, -0.25224, 25.9181, -153.254, -94.0295, 101.343
10.8238, 70, -4.4908, -0.105423, 25.8479, -153.227, -94.1733, 101.251
10.831, 71, -4.45523, 0.0400141, 25.7786, -153.2, -94.3167, 101.154
10.8398, 71, -4.41977, 0.184119, 25.7103, -153.171, -94.4596, 101.054
10.8478, 71, -4.38446, 0.32736, 25.6428, -153.143, -94.602, 100.948
10.8549, 71, -4.34937, 0.469637, 25.5762, -153.114, -94.7439, 100.839
10.8638, 71, -4.31448, 0.6108, 25.5102, -153.085, -94.8852, 100.725
10.8719, 71, -4.27964, 0.750702, 25.4451, -153.055, -95.0261, 100.606
10.8798, 71, -4.24479, 0.889216, 25.3807, -153.024, -95.1664, 100.484
10.8879, 71, -4.21015, 1.02654, 25.3172, -152.993, -95.3062, 100.357
10.8948, 71, -4.17571, 1.16287, 25.2545, -152.963, -95.4455, 100.225
10.9038, 71, -4.14149, 1.29799, 25.1924, -152.932, -95.5843, 100.09
10.9142, 71, -4.10723, 1.43175, 25.1311, -152.9, -95.7914, 99.8789
10.9188, 71, -4.0731, 1.56412, 25.0707, -152.867, -95.8601, 99.8064
10.9278, 72, -4.03911, 1.69508, 25.011, -152.835, -95.9973, 99.6579
10.9359, 72, -4.00515, 1.82493, 24.9522, -152.803, -96.1335, 99.5051
10.9438, 72, -3.97136, 1.95364, 24.8942, -152.77, -96.2696, 99.348
10.9522, 72, -3.93739, 2.0811, 24.8368, -152.737, -96.4048, 99.1867
10.96, 72, -3.90353, 2.20722, 24.7803, -152.704, -96.5396, 99.0213
10.9668, 72, -3.86969, 2.33195, 24.7244, -152.671, -96.6736, 98.8516
10.9767, 72, -3.83579, 2.45535, 24.6692, -152.638, -96.8071, 98.6778
10.9838, 72, -3.80185, 2.57749, 24.615, -152.604, -96.9397, 98.4997
10.9918, 72, -3.7678, 2.69847, 24.5614, -152.57, -97.0718, 98.3175
11.0006, 72, -3.73398, 2.81805, 24.5085, -152.537, -97.2032, 98.1312
11.0073, 72, -3.70018, 2.93622, 24.4564, -152.504, -97.3339, 97.9411
11.0149, 73, -3.66634, 3.05286, 24.4051, -152.47, -97.4642, 97.7471
11.0246, 73, -3.63238, 3.16795, 24.3546, -152.436, -97.5935, 97.5492
11.0318, 73, -3.59841, 3.2817, 24.3049, -152.403, -97.7222, 97.3471
11.0398, 73, -3.56447, 3.39403, 24.2559, -152.371, -97.8497, 97.1411
11.0488, 73, -3.53052, 3.50489, 24.2076, -152.338, -97.9767, 96.9313
11.056, 73, -3.49635, 3.6142, 24.1601, -152.304, -98.1028, 96.7178
11.0638, 73, -3.46193, 3.72191, 24.1134, -152.272, -98.2283, 96.5004
11.075, 73, -3.41017, 3.88041, 24.0445, -152.223, -98.4146, 96.1672
11.0789, 73, -3.39289, 3.93242, 24.022, -152.207, -98.4763, 96.0543
11.0878, 73, -3.35815, 4.03532, 23.9776, -152.175, -98.5989, 95.826
11.096, 73, -3.32321, 4.13668, 23.9338, -152.142, -98.7202, 95.5945
11.1038, 73, -3.28818, 4.23641, 23.8908, -152.111, -98.8407, 95.3595
11.1118, 74, -3.25307, 4.33445, 23.8484, -152.081, -98.96, 95.1215
11.1201, 74, -3.2179, 4.4308, 23.8069, -152.05, -99.0782, 94.8802
11.1276, 74, -3.18253, 4.52533, 23.7663, -152.019, -99.1953, 94.6362
11.1359, 74, -3.14684, 4.61804, 23.7264, -151.989, -99.3108, 94.389
11.1443, 74, -3.11119, 4.709, 23.6873, -151.96, -99.4256, 94.1387
11.1514, 74, -3.07545, 4.79814, 23.6491, -151.931, -99.5387, 93.8852
11.16, 74, -3.03942, 4.88544, 23.6115, -151.902, -99.6507, 93.629
11.1678, 74, -3.00313, 4.97079, 23.5748, -151.873, -99.7614, 93.37
11.1758, 74, -2.96664, 5.05419, 23.5388, -151.846, -99.8704, 93.1085
11.1839, 74, -2.93006, 5.13571, 23.5036, -151.819, -99.9782, 92.8441
11.1919, 74, -2.89329, 5.21514, 23.4692, -151.793, -100.085, 92.5776
11.2, 75, -2.85617, 5.29257, 23.4358, -151.768, -100.189, 92.3091
11.2068, 75, -2.83749, 5.33052, 23.4193, -151.755, -100.241, 92.174
11.216, 75, -2.78136, 5.44113, 23.3711, -151.718, -100.394, 91.7655
11.223, 75, -2.7626, 5.47694, 23.3555, -151.706, -100.444, 91.6283
11.2321, 75, -2.70587, 5.58116, 23.3099, -151.671, -100.592, 91.2138
11.2388, 75, -2.68678, 5.61481, 23.2951, -151.66, -100.64, 91.0746
11.2483, 75, -2.62925, 5.71245, 23.2522, -151.628, -100.782, 90.654
11.2564, 75, -2.59076, 5.77466, 23.2247, -151.606, -100.875, 90.3714
11.2644, 75, -2.55194, 5.83461, 23.198, -151.586, -100.966, 90.0874
11.2724, 75, -2.51284, 5.89224, 23.1722, -151.566, -101.054, 89.8021
11.2805, 75, -2.47359, 5.94753, 23.1474, -151.547, -101.141, 89.5154
11.2883, 76, -2.45392, 5.97425, 23.1353, -151.539, -101.184, 89.2277
11.2958, 76, -2.41445, 6.02585, 23.1119, -151.521, -101.268, 89.0838
11.3038, 76, -2.37468, 6.075, 23.0894, -151.505, -101.349, 88.795
11.3118, 76, -2.33476, 6.12153, 23.0678, -151.49, -101.428, 88.5052
11.32, 76, -2.2947, 6.16548, 23.0472, -151.474, -101.505, 88.2144
11.3306, 76, -2.23406, 6.22666, 23.0181, -151.453, -101.616, 87.7772
11.3358, 76, -2.2137, 6.24573, 23.0089, -151.446, -101.651, 87.6311
11.3438, 76, -2.17292, 6.28177, 22.9915, -151.433, -101.722, 87.338
11.3508, 76, -2.13196, 6.3152, 22.9749, -151.421, -101.789, 87.0444
11.3598, 76, -2.09085, 6.34595, 22.9594, -151.41, -101.854, 86.7504
11.3678, 76, -2.04935, 6.37407, 22.945, -151.4, -101.915, 86.4562
11.3758, 76, -2.00775, 6.39937, 22.9316, -151.391, -101.975, 86.1619
11.3838, 77, -1.96602, 6.42169, 22.9192, -151.382, -102.032, 85.8679
11.3918, 77, -1.92409, 6.44153, 22.9078, -151.375, -102.086, 85.5744
11.3988, 77, -1.88192, 6.45853, 22.8977, -151.368, -102.137, 85.2811
11.4078, 77, -1.83974, 6.4722, 22.8888, -151.362, -102.185, 84.988
11.4159, 77, -1.79739, 6.48286, 22.881, -151.357, -102.23, 84.6954
11.4246, 77, -1.75484, 6.49088, 22.8743, -151.353, -102.273, 84.4033
11.4308, 77, -1.71213, 6.496, 22.8689, -151.349, -102.312, 84.1113
11.4434, 77, -1.64805, 6.49819, 22.8628, -151.345, -102.365, 83.6745
11.4478, 77, -1.62659, 6.49754, 22.8613, -151.344, -102.381, 83.5295
11.4558, 77, -1.58351, 6.49391, 22.8593, -151.343, -102.411, 83.2399
11.4638, 77, -1.54041, 6.487, 22.8583, -151.342, -102.439, 82.9509
11.4719, 78, -1.49727, 6.47697, 22.8582, -151.342, -102.462, 82.6629
11.4798, 78, -1.45387, 6.46411, 22.8593, -151.342, -102.483, 82.3761
11.4879, 78, -1.41031, 6.44811, 22.8618, -151.342, -102.5, 82.0905
11.4958, 78, -1.3668, 6.42863, 22.8656, -151.343, -102.513, 81.8061
11.5039, 78, -1.32332, 6.4059, 22.8707, -151.345, -102.524, 81.5229
11.5119, 78, -1.27959, 6.38018, 22.8771, -151.348, -102.531, 81.2412
11.5198, 78, -1.23577, 6.35095, 22.8851, -151.351, -102.535, 80.9611
11.5278, 78, -1.19196, 6.31834, 22.8944, -151.356, -102.536, 80.682
11.5358, 78, -1.14812, 6.28233, 22.9051, -151.361, -102.533, 80.4044
11.5438, 78, -1.10413, 6.24298, 22.9172, -151.367, -102.528, 80.1285
11.5519, 78, -1.0602, 6.20015, 22.9309, -151.373, -102.519, 79.854
11.5598, 78, -1.01621, 6.1538, 22.9459, -151.38, -102.506, 79.5812
11.568, 79, -0.972063, 6.10413, 22.9623, -151.388, -102.489, 79.3098
11.5793, 79, -0.927905, 6.05098, 22.9901, -151.4, -102.458, 78.9065
11.583, 79, -0.883878, 5.99434, 23, -151.405, -102.445, 78.7729
11.5929, 79, -0.839839, 5.93434, 23.0209, -151.414, -102.417, 78.507
11.5999, 79, -0.795657, 5.87106, 23.0436, -151.424, -102.385, 78.2428
11.6078, 79, -0.751516, 5.80435, 23.0679, -151.435, -102.349, 77.9806
11.6158, 79, -0.70755, 5.73428, 23.0939, -151.446, -102.31, 77.7204
