rpiRobotics/ARM-21-02-F-19-Robot-Motion-Program/data_performance_abb/curve_1/baseline/100L/realrobot/bisect/run_2realrobot_curve_exe_v103.125_z10.csv
timestamp, cmd_num, J1, J2, J3, J4, J5, J6
0.001127, -1, 11.3779, 13.6139, 17.3392, -145.519, -97.923, 142.516
0.005831, -1, 11.3779, 13.6139, 17.3392, -145.519, -97.923, 142.516
0.00912, -1, 11.3779, 13.6139, 17.3392, -145.519, -97.9229, 142.516
0.030959, -1, 11.3779, 13.6138, 17.3391, -145.519, -97.9229, 142.516
0.033621, -1, 11.3779, 13.6138, 17.3391, -145.519, -97.923, 142.516
0.034878, -1, 11.3779, 13.6138, 17.3391, -145.519, -97.923, 142.516
0.039417, -1, 11.3779, 13.6139, 17.3391, -145.519, -97.923, 142.516
0.048451, -1, 11.3779, 13.6139, 17.3391, -145.519, -97.923, 142.516
0.055383, -1, 11.3771, 13.6138, 17.3391, -145.519, -97.923, 142.516
0.063413, -1, 11.3745, 13.6136, 17.3391, -145.519, -97.923, 142.516
0.071334, -1, 11.3682, 13.6128, 17.3389, -145.519, -97.923, 142.516
0.079353, -1, 11.3571, 13.611, 17.3384, -145.52, -97.9229, 142.514
0.087425, -1, 11.3397, 13.6074, 17.3376, -145.521, -97.9227, 142.505
0.095357, -1, 11.313, 13.6014, 17.3368, -145.525, -97.922, 142.483
0.104653, -1, 11.2749, 13.5921, 17.3362, -145.532, -97.9203, 142.442
0.11136, -1, 11.225, 13.5797, 17.3364, -145.544, -97.9168, 142.377
0.119419, -1, 11.1635, 13.5642, 17.3381, -145.561, -97.9113, 142.281
0.127372, -1, 11.0905, 13.5451, 17.342, -145.584, -97.9035, 142.15
0.135346, -1, 11.0057, 13.522, 17.3484, -145.613, -97.8933, 141.985
0.14342, -1, 10.9091, 13.4957, 17.3569, -145.647, -97.8812, 141.787
0.151364, -1, 10.8018, 13.466, 17.3673, -145.686, -97.8676, 141.562
0.15935, -1, 10.6834, 13.4332, 17.3786, -145.728, -97.8529, 141.315
0.167488, -1, 10.5544, 13.3976, 17.3897, -145.773, -97.8375, 141.055
0.175364, -1, 10.4163, 13.3597, 17.4004, -145.818, -97.8217, 140.785
0.183349, -1, 10.2715, 13.3202, 17.4106, -145.866, -97.8055, 140.511
0.191416, -1, 10.122, 13.2798, 17.4206, -145.913, -97.7889, 140.234
0.199361, -1, 9.96956, 13.2388, 17.4306, -145.96, -97.772, 139.956
0.207363, -1, 9.81488, 13.1975, 17.4406, -146.009, -97.7548, 139.677
0.215446, -1, 9.65931, 13.1561, 17.4506, -146.056, -97.7376, 139.397
0.223596, -1, 9.50411, 13.1149, 17.4605, -146.104, -97.7206, 139.118
0.231435, -1, 9.34939, 13.0738, 17.4704, -146.153, -97.7039, 138.839
0.23951, -1, 9.19496, 13.0327, 17.4804, -146.2, -97.6872, 138.559
0.247732, -1, 9.04115, 12.9917, 17.4903, -146.248, -97.6705, 138.28
0.256346, -1, 8.88761, 12.9507, 17.5004, -146.297, -97.6536, 138
0.263462, -1, 8.73421, 12.9098, 17.5105, -146.344, -97.6364, 137.72
0.271934, -1, 8.58129, 12.8687, 17.5206, -146.392, -97.6189, 137.44
0.280364, -1, 8.4286, 12.8276, 17.5308, -146.44, -97.6014, 137.16
0.287384, -1, 8.27555, 12.7863, 17.5409, -146.488, -97.5842, 136.88
0.296047, -1, 8.12204, 12.7448, 17.5511, -146.536, -97.5672, 136.601
0.304349, -1, 7.9681, 12.7033, 17.5613, -146.584, -97.5504, 136.321
0.311512, -1, 7.81347, 12.6617, 17.5714, -146.632, -97.5337, 136.04
0.32034, -1, 7.65848, 12.6201, 17.5815, -146.68, -97.5171, 135.76
0.327696, -1, 7.50342, 12.5785, 17.5918, -146.728, -97.5003, 135.48
0.335762, -1, 7.34817, 12.537, 17.6019, -146.776, -97.4831, 135.2
0.344378, -1, 7.19301, 12.4955, 17.6121, -146.824, -97.4657, 134.92
0.351894, -1, 7.03785, 12.4541, 17.6224, -146.873, -97.4485, 134.64
0.360509, -1, 6.88267, 12.4128, 17.6326, -146.921, -97.4315, 134.359
0.367877, -1, 6.7277, 12.3716, 17.643, -146.969, -97.4146, 134.079
0.376445, -1, 6.57311, 12.3304, 17.6534, -147.017, -97.3978, 133.799
0.383987, -1, 6.41876, 12.2892, 17.6637, -147.065, -97.3811, 133.519
0.391952, -1, 6.34164, 12.2686, 17.6741, -147.113, -97.3642, 133.238
0.40036, -1, 6.11028, 12.2065, 17.6843, -147.161, -97.347, 132.958
0.407342, -1, 6.03308, 12.1858, 17.6894, -147.185, -97.3383, 132.817
0.415337, -1, 5.87849, 12.1444, 17.6997, -147.233, -97.3207, 132.537
0.425362, -1, 5.6463, 12.0819, 17.715, -147.305, -97.2945, 132.116
0.431344, -1, 5.56877, 12.0611, 17.7201, -147.329, -97.2859, 131.975
0.439404, -1, 5.41364, 12.0195, 17.7304, -147.377, -97.2689, 131.694
0.447336, -1, 5.25827, 11.9778, 17.7406, -147.426, -97.2521, 131.413
0.455341, -1, 5.10251, 11.9361, 17.751, -147.474, -97.2354, 131.133
0.464702, -1, 4.86863, 11.8738, 17.7666, -147.546, -97.2099, 130.711
0.471337, -1, 4.79072, 11.853, 17.7718, -147.57, -97.2013, 130.571
0.479353, -1, 4.6349, 11.8114, 17.7822, -147.618, -97.1839, 130.29
0.487395, -1, 4.47917, 11.77, 17.7925, -147.666, -97.1664, 130.009
0.496953, -1, 4.24592, 11.7078, 17.808, -147.739, -97.1407, 129.588
0.50341, -1, 4.16835, 11.6871, 17.8133, -147.763, -97.1322, 129.447
0.640325, -1, 1.52283, 10.9792, 17.9894, -148.584, -96.8417, 124.66
0.642208, -1, 1.44484, 10.9584, 17.9947, -148.609, -96.8332, 124.52
0.643576, -1, 1.44484, 10.9584, 17.9947, -148.609, -96.8332, 124.52
0.644778, -1, 1.44484, 10.9584, 17.9947, -148.609, -96.8332, 124.52
0.646849, -1, 1.36686, 10.9376, 17.9999, -148.633, -96.8248, 124.379
0.64814, -1, 1.36686, 10.9376, 17.9999, -148.633, -96.8248, 124.379
0.649949, -1, 1.36686, 10.9376, 17.9999, -148.633, -96.8248, 124.237
0.653988, -1, 1.28891, 10.9168, 18.0051, -148.657, -96.8164, 124.096
0.792543, -1, -1.44373, 10.1857, 18.1864, -149.506, -96.517, 119.291
0.793824, -1, -1.44373, 10.1857, 18.1864, -149.506, -96.517, 119.291
0.795826, -1, -1.52201, 10.1648, 18.1916, -149.53, -96.5086, 119.149
0.797195, -1, -1.52201, 10.1648, 18.1916, -149.53, -96.5086, 119.149
0.798462, -1, -1.52201, 10.1648, 18.1916, -149.53, -96.5086, 119.149
0.800485, -1, -1.60026, 10.1439, 18.1968, -149.554, -96.5001, 119.007
0.801691, -1, -1.60026, 10.1439, 18.1968, -149.554, -96.5001, 119.007
0.806198, -1, -1.67842, 10.123, 18.2021, -149.579, -96.4916, 118.866
0.8083, -1, -1.75644, 10.1021, 18.2073, -149.603, -96.4831, 118.724
0.809512, -1, -1.75644, 10.1021, 18.2073, -149.603, -96.4831, 118.724
0.811376, -1, -1.75644, 10.1021, 18.2125, -149.627, -96.4744, 118.582
0.812827, -1, -1.83428, 10.0812, 18.2125, -149.627, -96.4744, 118.582
0.814121, -1, -1.83428, 10.0812, 18.2125, -149.627, -96.4744, 118.582
0.816284, -1, -1.91201, 10.0603, 18.2177, -149.652, -96.4657, 118.441
0.817555, -1, -1.91201, 10.0603, 18.2177, -149.652, -96.4657, 118.441
0.820153, -1, -1.9897, 10.0394, 18.2229, -149.676, -96.4568, 118.299
0.821375, -1, -1.9897, 10.0394, 18.2229, -149.676, -96.4568, 118.299
0.822556, -1, -1.9897, 10.0394, 18.2229, -149.676, -96.4568, 118.299
0.824599, -1, -2.06733, 10.0185, 18.2282, -149.7, -96.448, 118.157
0.825795, -1, -2.06733, 10.0185, 18.2282, -149.7, -96.448, 118.157
0.828443, -1, -2.14489, 9.99755, 18.2333, -149.725, -96.4392, 118.016
0.830573, -1, -2.14489, 9.99755, 18.2333, -149.725, -96.4392, 118.016
0.83432, -1, -2.22246, 9.97665, 18.2385, -149.749, -96.4304, 117.874
0.836409, -1, -2.30007, 9.95576, 18.2437, -149.773, -96.4217, 117.732
0.837603, -1, -2.30007, 9.95576, 18.2437, -149.773, -96.4217, 117.732
0.839647, -1, -2.37777, 9.93483, 18.2489, -149.797, -96.4131, 117.59
0.841119, -1, -2.37777, 9.93483, 18.2489, -149.797, -96.4131, 117.59
0.842313, -1, -2.37777, 9.93483, 18.2489, -149.797, -96.4131, 117.59
0.844347, -1, -2.45558, 9.91385, 18.2541, -149.821, -96.4045, 117.448
0.845598, -1, -2.45558, 9.91385, 18.2541, -149.821, -96.4045, 117.448
0.847538, -1, -2.45558, 9.91385, 18.2541, -149.821, -96.4045, 117.448
0.848901, -1, -2.53344, 9.89287, 18.2593, -149.846, -96.396, 117.307
0.850355, -1, -2.53344, 9.89287, 18.2593, -149.846, -96.396, 117.307
0.852992, -1, -2.61133, 9.87193, 18.2645, -149.87, -96.3876, 117.165
0.855763, -1, -2.68928, 9.85099, 18.2697, -149.895, -96.3793, 117.023
0.857202, -1, -2.68928, 9.85099, 18.2697, -149.895, -96.3793, 117.023
0.86412, -1, -2.84544, 9.80908, 18.2801, -149.943, -96.3624, 116.739
0.871885, -1, -3.00213, 9.76716, 18.2904, -149.991, -96.3456, 116.456
0.880494, -1, -3.15918, 9.72528, 18.3008, -150.04, -96.3285, 116.172
0.887951, -1, -3.31664, 9.68335, 18.3112, -150.089, -96.3109, 115.888
0.89645, -1, -3.47451, 9.64134, 18.3217, -150.137, -96.2934, 115.604
0.903879, -1, -3.55345, 9.62039, 18.3269, -150.162, -96.2846, 115.462
0.911316, -1, -3.71125, 9.57858, 18.3373, -150.211, -96.2674, 115.178
0.919374, -1, -3.86921, 9.53667, 18.3476, -150.259, -96.2503, 114.894
0.928546, -1, -4.10613, 9.47374, 18.3632, -150.333, -96.2249, 114.468
0.935314, -1, -4.18502, 9.45279, 18.3683, -150.357, -96.2165, 114.326
0.944558, -1, -4.4215, 9.38987, 18.3838, -150.43, -96.1907, 113.899
0.951345, -1, -4.50011, 9.3689, 18.3889, -150.455, -96.182, 113.756
0.959349, -1, -4.6571, 9.32693, 18.3993, -150.504, -96.1643, 113.472
0.967365, -1, -4.81368, 9.28496, 18.4096, -150.552, -96.1466, 113.187
0.976842, -1, -5.04797, 9.2219, 18.4253, -150.626, -96.1205, 112.76
0.984839, -1, -5.20385, 9.1799, 18.4358, -150.675, -96.1035, 112.476
0.9929, -1, -5.35986, 9.1378, 18.4463, -150.723, -96.0865, 112.191
1.00094, -1, -5.51603, 9.09568, 18.4567, -150.772, -96.0697, 111.906
1.00915, -1, -5.67223, 9.05368, 18.467, -150.821, -96.0527, 111.621
1.01539, -1, -5.7505, 9.03263, 18.4723, -150.845, -96.0441, 111.479
1.02494, -1, -5.90748, 8.99048, 18.4826, -150.895, -96.0179, 111.052
1.03138, -1, -6.06483, 8.94836, 18.4929, -150.943, -96.0091, 110.909
1.04037, -1, -6.2228, 8.90626, 18.5032, -150.992, -95.9916, 110.624
1.04831, -1, -6.38116, 8.86419, 18.5135, -151.041, -95.9744, 110.339
1.0554, -1, -6.53962, 8.82217, 18.5239, -151.09, -95.9573, 110.054
1.06332, -1, -6.69819, 8.78007, 18.5344, -151.139, -95.9403, 109.769
1.07132, -1, -6.85687, 8.73799, 18.5448, -151.188, -95.9234, 109.483
1.07939, -1, -7.01542, 8.69593, 18.5553, -151.237, -95.9063, 109.197
1.08732, -1, -7.17393, 8.65384, 18.5658, -151.286, -95.8888, 108.912
1.09539, -1, -7.33222, 8.6117, 18.5761, -151.335, -95.8712, 108.626
1.10332, -1, -7.49006, 8.56943, 18.5865, -151.384, -95.8534, 108.341
1.11132, -1, -7.64776, 8.52717, 18.597, -151.433, -95.8359, 108.055
1.11939, -1, -7.80506, 8.48496, 18.6075, -151.482, -95.8187, 107.769
1.12733, -1, -7.96195, 8.44273, 18.6179, -151.531, -95.8017, 107.484
1.13533, -1, -8.11861, 8.40042, 18.6282, -151.58, -95.7848, 107.198
1.1438, -1, -8.27518, 8.35816, 18.6387, -151.629, -95.7678, 106.912
1.15131, -1, -8.43189, 8.31579, 18.6492, -151.678, -95.7506, 106.626
1.15932, -1, -8.58889, 8.27345, 18.6597, -151.727, -95.7331, 106.34
1.1681, -1, -8.74625, 8.23122, 18.6702, -151.776, -95.7154, 106.053
1.17638, -1, -8.90399, 8.18891, 18.6805, -151.825, -95.6979, 105.767
1.18333, -1, -9.06212, 8.14663, 18.6909, -151.874, -95.6805, 105.481
1.1921, -1, -9.22072, 8.10445, 18.7013, -151.924, -95.6633, 105.195
1.20039, -1, -9.37955, 8.06222, 18.7117, -151.973, -95.6463, 104.908
1.2074, -1, -9.5387, 8.01994, 18.7221, -152.022, -95.6291, 104.621
1.21619, -1, -9.69791, 7.97777, 18.7325, -152.072, -95.6118, 104.335
1.22336, -1, -9.85717, 7.93561, 18.7429, -152.12, -95.5942, 104.048
1.23157, -1, -10.0165, 7.89331, 18.7535, -152.17, -95.5764, 103.761
1.24021, -1, -10.1758, 7.85095, 18.7641, -152.219, -95.5585, 103.474
1.2474, -1, -10.3348, 7.80851, 18.7746, -152.268, -95.5409, 103.187
1.25577, -1, -10.4935, 7.76602, 18.7851, -152.318, -95.5237, 102.9
1.26421, -1, -10.652, 7.72357, 18.7955, -152.367, -95.5067, 102.613
1.27143, -1, -10.8101, 7.68112, 18.8059, -152.416, -95.4897, 102.327
1.28006, -1, -10.9679, 7.6386, 18.8164, -152.466, -95.4725, 102.04
1.28839, -1, -11.1254, 7.5961, 18.8267, -152.515, -95.4552, 101.752
1.29539, -1, -11.2828, 7.55369, 18.8372, -152.564, -95.4375, 101.465
1.3042, -1, -11.4403, 7.51127, 18.8476, -152.614, -95.4197, 101.177
1.3123, -1, -11.598, 7.4688, 18.8581, -152.663, -95.4021, 100.89
1.31948, -1, -11.7559, 7.42644, 18.8687, -152.712, -95.3847, 100.602
1.32849, -1, -11.9143, 7.38407, 18.8792, -152.762, -95.3675, 100.314
1.33638, -1, -12.0731, 7.34172, 18.8898, -152.811, -95.3504, 100.027
1.3438, -1, -12.2323, 7.29935, 18.9003, -152.86, -95.3331, 99.739
1.35255, -1, -12.3918, 7.25697, 18.9107, -152.91, -95.3157, 99.4511
1.35992, -1, -12.5518, 7.21456, 18.9213, -152.959, -95.298, 99.1632
1.36791, -1, -12.7118, 7.17217, 18.9318, -153.008, -95.28, 98.8755
1.37646, -1, -12.8718, 7.12976, 18.9423, -153.058, -95.2622, 98.5875
1.38463, -1, -13.0319, 7.08722, 18.9529, -153.107, -95.2447, 98.2995
1.39195, -1, -13.1918, 7.04464, 18.9634, -153.157, -95.2274, 98.0114
1.40051, -1, -13.3514, 7.00209, 18.9739, -153.206, -95.2103, 97.7234
1.40731, -1, -13.4311, 6.98078, 18.9792, -153.231, -95.2018, 97.5792
1.41535, -1, -13.5903, 6.93804, 18.9898, -153.28, -95.1847, 97.2906
1.42441, -1, -13.829, 6.87398, 19.0056, -153.355, -95.1585, 96.8578
1.4313, -1, -13.9084, 6.85264, 19.0108, -153.379, -95.1497, 96.7136
1.43935, -1, -14.0666, 6.80995, 19.0212, -153.429, -95.1319, 96.425
1.4473, -1, -14.2248, 6.76737, 19.0318, -153.478, -95.1142, 96.1362
1.45529, -1, -14.383, 6.72473, 19.0423, -153.528, -95.0968, 95.8471
1.46339, -1, -14.5414, 6.68207, 19.0527, -153.577, -95.0796, 95.5583
1.4713, -1, -14.7, 6.63955, 19.0633, -153.627, -95.0625, 95.2692
1.48242, -1, -14.9387, 6.57573, 19.079, -153.701, -95.0366, 94.8354
1.4873, -1, -15.0185, 6.55442, 19.0844, -153.725, -95.0278, 94.6909
1.49683, -1, -15.2583, 6.49056, 19.1004, -153.8, -95.0012, 94.2572
1.5056, -1, -15.4186, 6.44797, 19.111, -153.85, -94.9832, 93.9681
1.51136, -1, -15.4988, 6.42662, 19.1163, -153.875, -94.9742, 93.8234
1.52089, -1, -15.6596, 6.38394, 19.1321, -153.949, -94.9479, 93.3897
1.52964, -1, -15.8204, 6.34123, 19.1374, -153.974, -94.9393, 93.1003
1.5353, -1, -15.9811, 6.29841, 19.148, -154.024, -94.9221, 92.9555
1.54431, -1, -16.1418, 6.25558, 19.1585, -154.074, -94.9049, 92.6657
1.55137, -1, -16.3026, 6.21274, 19.169, -154.123, -94.8877, 92.3763
1.55932, -1, -16.463, 6.1698, 19.1795, -154.173, -94.8702, 92.0866
1.5673, -1, -16.6231, 6.12683, 19.19, -154.223, -94.8524, 91.7966
1.57537, -1, -16.783, 6.08394, 19.2006, -154.272, -94.8344, 91.5066
1.58331, -1, -16.9423, 6.041, 19.2112, -154.322, -94.8168, 91.2166
1.59129, -1, -17.1016, 5.99809, 19.2218, -154.372, -94.7993, 90.9264
1.59936, -1, -17.2606, 5.95525, 19.2324, -154.421, -94.7819, 90.6363
1.6073, -1, -17.4198, 5.91246, 19.2429, -154.471, -94.7646, 90.3461
1.6153, -1, -17.5792, 5.86969, 19.2536, -154.521, -94.7472, 90.056
1.62338, -1, -17.7387, 5.82695, 19.2643, -154.571, -94.7296, 89.7658
1.63132, -1, -17.8982, 5.78422, 19.2749, -154.621, -94.7117, 89.4754
1.63936, -1, -18.0583, 5.7415, 19.2855, -154.671, -94.6935, 89.1848
1.64729, -1, -18.2188, 5.69877, 19.2961, -154.72, -94.6756, 88.8945
1.6553, -1, -18.3798, 5.65602, 19.3068, -154.77, -94.658, 88.6037
1.66337, -1, -18.5412, 5.61314, 19.3175, -154.82, -94.6406, 88.3128
1.67132, -1, -18.7028, 5.5702, 19.3281, -154.87, -94.6233, 88.022
1.67936, -1, -18.8643, 5.52728, 19.3387, -154.92, -94.606, 87.7311
1.68737, -1, -19.0259, 5.48429, 19.3493, -154.97, -94.5885, 87.44
1.69529, -1, -19.1874, 5.44119, 19.3598, -155.02, -94.5708, 87.1487
1.7033, -1, -19.3489, 5.3981, 19.3704, -155.07, -94.5527, 86.8573
1.71136, -1, -19.51, 5.35498, 19.3809, -155.12, -94.5347, 86.5659
1.71936, -1, -19.6708, 5.31176, 19.3915, -155.169, -94.5169, 86.2744
1.72745, -1, -19.8313, 5.26868, 19.4021, -155.22, -94.4994, 85.9826
1.73536, -1, -19.9918, 5.22559, 19.4126, -155.27, -94.4819, 85.6911
1.74338, -1, -20.1519, 5.18248, 19.4234, -155.319, -94.4646, 85.3998
1.75173, -1, -20.3117, 5.13956, 19.4342, -155.37, -94.4471, 85.108
1.75946, -1, -20.4717, 5.09665, 19.445, -155.42, -94.4294, 84.8164
1.7674, -1, -20.6318, 5.05363, 19.4557, -155.47, -94.4113, 84.5246
1.7759, -1, -20.792, 5.01075, 19.4663, -155.521, -94.3932, 84.2328
1.78443, -1, -20.9528, 4.96787, 19.4769, -155.57, -94.3755, 83.9407
1.79133, -1, -21.1139, 4.92484, 19.4876, -155.621, -94.358, 83.6487
1.80023, -1, -21.2754, 4.88184, 19.4982, -155.671, -94.3408, 83.3568
1.80738, -1, -21.4375, 4.8387, 19.5088, -155.721, -94.3237, 83.0646
1.81539, -1, -21.5996, 4.79548, 19.5193, -155.771, -94.3064, 82.7721
1.82436, -1, -21.7618, 4.75233, 19.5301, -155.822, -94.2888, 82.4796
1.8317, -1, -21.9242, 4.70906, 19.5408, -155.871, -94.2709, 82.1871
1.83971, -1, -22.0866, 4.66569, 19.5515, -155.922, -94.2529, 81.8945
1.84864, -1, -22.249, 4.62238, 19.5623, -155.972, -94.2351, 81.6018
1.85578, -1, -22.4114, 4.57902, 19.5729, -156.022, -94.2176, 81.3091
1.86386, -1, -22.5733, 4.53567, 19.5836, -156.073, -94.2001, 81.0166
1.87269, -1, -22.7349, 4.49227, 19.5942, -156.123, -94.1828, 80.7239
1.88008, -1, -22.8962, 4.44894, 19.6049, -156.173, -94.1653, 80.4308
1.88791, -1, -23.0573, 4.4057, 19.6156, -156.223, -94.1475, 80.1379
1.89688, -1, -23.2183, 4.36244, 19.6262, -156.274, -94.1293, 79.8447
1.9039, -1, -23.2988, 4.34082, 19.6316, -156.299, -94.1202, 79.5514
1.91198, -1, -23.4596, 4.29764, 19.6425, -156.349, -94.102, 79.258
1.9211, -1, -23.7012, 4.23281, 19.6586, -156.425, -94.0753, 78.9649
1.92846, -1, -23.8625, 4.18962, 19.6694, -156.475, -94.0577, 78.6714
1.93533, -1, -23.9432, 4.16802, 19.6747, -156.5, -94.049, 78.5246
1.94532, -1, -24.186, 4.10302, 19.6907, -156.576, -94.0228, 78.0838
1.95133, -1, -24.2672, 4.08134, 19.6961, -156.601, -94.0141, 77.937
1.95937, -1, -24.4298, 4.03796, 19.7068, -156.652, -93.9963, 77.643
1.96731, -1, -24.5927, 3.99449, 19.7173, -156.702, -93.9782, 77.3489
1.97536, -1, -24.7559, 3.95095, 19.728, -156.752, -93.96, 77.0548
1.98328, -1, -24.9193, 3.90742, 19.7386, -156.803, -93.9422, 76.7609
1.99365, -1, -25.1643, 3.84212, 19.7548, -156.878, -93.9157, 76.3197
1.9994, -1, -25.2459, 3.82035, 19.7602, -156.903, -93.907, 76.1725
2.00887, -1, -25.4901, 3.75503, 19.7764, -156.979, -93.8807, 75.7311
2.01771, -1, -25.6527, 3.71139, 19.7871, -157.029, -93.8629, 75.4367
2.02334, -1, -25.7339, 3.68961, 19.7924, -157.054, -93.8539, 75.2894
2.03128, -1, -25.8964, 3.64618, 19.8031, -157.105, -93.8356, 74.9948
2.04029, -1, -26.0585, 3.60275, 19.8139, -157.155, -93.8173, 74.7002
2.04734, -1, -26.2203, 3.55929, 19.8246, -157.206, -93.7991, 74.4056
2.05633, -1, -26.3819, 3.51597, 19.8354, -157.257, -93.7812, 74.1109
2.06331, -1, -26.5437, 3.47257, 19.8461, -157.307, -93.7636, 73.8158
2.07135, -1, -26.7056, 3.42913, 19.8568, -157.358, -93.746, 73.5207
2.07935, -1, -26.8679, 3.38567, 19.8676, -157.409, -93.7284, 73.2255
2.09054, -1, -27.1119, 3.32031, 19.8838, -157.485, -93.7013, 72.7827
2.09529, -1, -27.1934, 3.29851, 19.8893, -157.51, -93.6922, 72.6351
2.10327, -1, -27.3568, 3.25492, 19.9, -157.561, -93.6739, 72.3399
2.11134, -1, -27.5206, 3.21116, 19.9107, -157.611, -93.6558, 72.0448
2.11933, -1, -27.6845, 3.16742, 19.9215, -157.662, -93.6379, 71.7491
2.12728, -1, -27.8485, 3.12377, 19.9322, -157.712, -93.6202, 71.4535
2.13538, -1, -28.0126, 3.08007, 19.943, -157.763, -93.6026, 71.158
2.14328, -1, -28.1767, 3.03638, 19.9538, -157.814, -93.5848, 70.8622
2.15127, -1, -28.3408, 2.99266, 19.9645, -157.865, -93.5668, 70.5663
2.15941, -1, -28.5046, 2.94895, 19.9754, -157.915, -93.5486, 70.2704
2.16728, -1, -28.6683, 2.9053, 19.9863, -157.966, -93.5301, 69.9744
2.17529, -1, -28.8318, 2.86161, 19.9971, -158.017, -93.5119, 69.6784
2.1834, -1, -28.9947, 2.81798, 20.0079, -158.068, -93.494, 69.3819
2.19128, -1, -29.1574, 2.77434, 20.0186, -158.119, -93.4763, 69.0855
2.19933, -1, -29.3201, 2.73069, 20.0294, -158.169, -93.4587, 68.789
2.20734, -1, -29.4829, 2.68708, 20.0402, -158.221, -93.4411, 68.4924
2.21529, -1, -29.6458, 2.64338, 20.0509, -158.272, -93.4232, 68.1955
2.22335, -1, -29.8088, 2.5996, 20.0617, -158.322, -93.4049, 67.8991
2.23132, -1, -29.9721, 2.55589, 20.0725, -158.374, -93.3865, 67.6025
2.23941, -1, -30.1355, 2.51207, 20.0834, -158.424, -93.3682, 67.3055
2.24742, -1, -30.2994, 2.4681, 20.0944, -158.475, -93.3503, 67.0084
2.25538, -1, -30.4637, 2.42419, 20.1053, -158.526, -93.3326, 66.7116
2.26338, -1, -30.6284, 2.38024, 20.1161, -158.577, -93.3149, 66.4145
2.27145, -1, -30.7934, 2.33629, 20.1268, -158.628, -93.2972, 66.1172
2.27944, -1, -30.9584, 2.29241, 20.1377, -158.679, -93.2792, 65.8199
2.28728, -1, -31.1234, 2.24839, 20.1485, -158.73, -93.2609, 65.5227
2.29539, -1, -31.2883, 2.20445, 20.1593, -158.781, -93.2424, 65.2254
2.30332, -1, -31.453, 2.16067, 20.1701, -158.832, -93.224, 64.9277
2.3114, -1, -31.6176, 2.11673, 20.1808, -158.883, -93.206, 64.63
2.31951, -1, -31.782, 2.0728, 20.1917, -158.935, -93.1881, 64.3321
2.32753, -1, -31.9461, 2.02896, 20.2026, -158.986, -93.1705, 64.0343
2.33558, -1, -32.1099, 1.98502, 20.2135, -159.037, -93.153, 63.7364
2.34375, -1, -32.2737, 1.94108, 20.2245, -159.088, -93.1351, 63.4385
2.35236, -1, -32.4373, 1.89712, 20.2354, -159.139, -93.117, 63.1407
2.35989, -1, -32.6011, 1.85306, 20.2462, -159.19, -93.0986, 62.8424
2.36842, -1, -32.765, 1.80903, 20.2571, -159.242, -93.0803, 62.5441
2.37586, -1, -32.929, 1.76499, 20.268, -159.293, -93.0623, 62.2459
2.38443, -1, -33.0933, 1.72084, 20.2789, -159.344, -93.0444, 61.9475
2.39184, -1, -33.2581, 1.67666, 20.2897, -159.396, -93.0266, 61.6488
2.4004, -1, -33.4232, 1.6325, 20.3005, -159.447, -93.0087, 61.3504
2.40811, -1, -33.506, 1.58833, 20.3115, -159.498, -92.9907, 61.0518
2.41527, -1, -33.6716, 1.56623, 20.317, -159.524, -92.9815, 60.9024
2.4243, -1, -33.9201, 1.49996, 20.3334, -159.6, -92.9536, 60.4539
2.43126, -1, -34.003, 1.47789, 20.3388, -159.626, -92.9443, 60.3044
2.44036, -1, -34.2518, 1.41177, 20.3551, -159.703, -92.9168, 59.8557
2.44732, -1, -34.3347, 1.38971, 20.3605, -159.729, -92.9078, 59.706
2.45661, -1, -34.5835, 1.32349, 20.3768, -159.806, -92.881, 59.2568
2.46328, -1, -34.6663, 1.30142, 20.3823, -159.832, -92.8722, 59.1072
2.47355, -1, -34.9141, 1.23521, 20.3986, -159.908, -92.8453, 58.6583
2.47932, -1, -34.9965, 1.21314, 20.404, -159.934, -92.8362, 58.5085
2.48726, -1, -35.1612, 1.16897, 20.415, -159.986, -92.8177, 58.2087
2.49681, -1, -35.4079, 1.1026, 20.4316, -160.063, -92.7899, 57.7593
2.50487, -1, -35.5714, 1.05864, 20.4428, -160.114, -92.7717, 57.4595
2.51284, -1, -35.7327, 1.01508, 20.4541, -160.165, -92.7538, 57.1601
2.52089, -1, -35.8909, 0.972216, 20.4656, -160.216, -92.736, 56.8627
2.52912, -1, -36.0447, 0.93073, 20.4775, -160.267, -92.7184, 56.5695
2.53526, -1, -36.1195, 0.910648, 20.4835, -160.291, -92.7097, 56.4254
2.54429, -1, -36.2632, 0.872187, 20.4954, -160.339, -92.6926, 56.1451
2.55234, -1, -36.3976, 0.836562, 20.507, -160.384, -92.676, 55.8805
2.56028, -1, -36.5207, 0.804027, 20.5177, -160.425, -92.6607, 55.6381
2.56733, -1, -36.6311, 0.774808, 20.527, -160.461, -92.6473, 55.4232
2.57526, -1, -36.7273, 0.749425, 20.5346, -160.492, -92.636, 55.2411
2.58327, -1, -36.8088, 0.727793, 20.5399, -160.517, -92.627, 55.0942
2.59136, -1, -36.8764, 0.709866, 20.543, -160.537, -92.6202, 54.9821
2.59931, -1, -36.931, 0.695518, 20.5444, -160.55, -92.6156, 54.9021
2.60726, -1, -36.9729, 0.684506, 20.5448, -160.56, -92.6125, 54.8477
2.61529, -1, -37.0035, 0.676373, 20.5446, -160.566, -92.6107, 54.8145
2.62327, -1, -37.0247, 0.670764, 20.544, -160.569, -92.6098, 54.7953
2.63128, -1, -37.0381, 0.667391, 20.5437, -160.571, -92.6093, 54.7856
2.63937, 2, -37.0455, 0.665621, 20.5435, -160.572, -92.6092, 54.7809
2.64726, 2, -37.0484, 0.664768, 20.5434, -160.572, -92.609, 54.7788
2.65526, 2, -37.0486, 0.664417, 20.5433, -160.573, -92.6089, 54.7779
2.66334, 2, -37.0481, 0.66428, 20.5433, -160.573, -92.6089, 54.7775
2.67128, 2, -37.048, 0.664206, 20.5433, -160.573, -92.6089, 54.7774
2.67932, 2, -37.0483, 0.664147, 20.5433, -160.573, -92.6089, 54.7773
2.68738, 2, -37.0492, 0.664102, 20.5432, -160.573, -92.609, 54.7774
2.69526, 2, -37.0502, 0.664003, 20.5431, -160.573, -92.609, 54.7775
2.70327, 2, -37.0515, 0.663779, 20.5429, -160.573, -92.609, 54.7776
2.71133, 2, -37.0529, 0.663523, 20.5427, -160.573, -92.6091, 54.7778
2.71932, 2, -37.054, 0.663302, 20.5426, -160.573, -92.6091, 54.778
2.72727, 2, -37.055, 0.663096, 20.5424, -160.573, -92.6091, 54.7782
2.73537, 2, -37.0554, 0.662989, 20.5422, -160.573, -92.6092, 54.7784
2.74336, 2, -37.0554, 0.662958, 20.542, -160.573, -92.6092, 54.7785
2.75142, 2, -37.0549, 0.662969, 20.5419, -160.573, -92.6093, 54.7787
2.75941, 2, -37.0539, 0.663041, 20.5418, -160.573, -92.6093, 54.7789
2.76736, 2, -37.053, 0.663135, 20.5418, -160.573, -92.6093, 54.7792
2.77551, 2, -37.0514, 0.663228, 20.5417, -160.573, -92.6094, 54.7794
2.78333, 2, -37.0499, 0.663378, 20.5416, -160.573, -92.6094, 54.7796
2.79126, 2, -37.0488, 0.663461, 20.5416, -160.573, -92.6095, 54.7797
2.79962, 2, -37.048, 0.66347, 20.5415, -160.573, -92.6094, 54.7798
2.80731, 2, -37.0477, 0.663456, 20.5415, -160.573, -92.6095, 54.7798
2.81532, 2, -37.0477, 0.663416, 20.5415, -160.573, -92.6094, 54.7799
2.82353, 2, -37.0479, 0.663344, 20.5415, -160.573, -92.6094, 54.7799
2.83146, 2, -37.0481, 0.663257, 20.5415, -160.573, -92.6095, 54.78
2.83961, 2, -37.0486, 0.663221, 20.5414, -160.573, -92.6095, 54.78
2.84816, 2, -37.0494, 0.663188, 20.5414, -160.573, -92.6095, 54.7801
2.8557, 2, -37.0502, 0.663166, 20.5414, -160.573, -92.6095, 54.7801
2.86432, 2, -37.051, 0.663197, 20.5414, -160.573, -92.6095, 54.7801
2.87222, 2, -37.0515, 0.663226, 20.5414, -160.573, -92.6095, 54.7802
2.87983, 2, -37.0517, 0.663257, 20.5414, -160.573, -92.6096, 54.7802
2.88836, 2, -37.0518, 0.663271, 20.5414, -160.573, -92.6095, 54.7803
2.89638, 2, -37.0517, 0.663277, 20.5414, -160.573, -92.6095, 54.7804
2.90384, 2, -37.0516, 0.663279, 20.5414, -160.573, -92.6095, 54.7804
2.91234, 2, -37.051, 0.663282, 20.5414, -160.573, -92.6095, 54.7805
2.92022, 2, -37.0507, 0.663282, 20.5414, -160.573, -92.6096, 54.7805
2.92725, 2, -37.0505, 0.663275, 20.5414, -160.573, -92.6095, 54.7805
2.93629, 2, -37.0502, 0.663231, 20.5414, -160.573, -92.6096, 54.7806
2.94429, 2, -37.0501, 0.663222, 20.5413, -160.573, -92.6096, 54.7806
2.95127, 2, -37.0501, 0.663212, 20.5413, -160.573, -92.6096, 54.7806
2.9606, 2, -37.0501, 0.663183, 20.5413, -160.573, -92.6096, 54.7807
2.96728, 2, -37.0501, 0.663179, 20.5413, -160.573, -92.6097, 54.7807
2.97526, 2, -37.0502, 0.663185, 20.5413, -160.572, -92.6096, 54.7808
2.98465, 2, -37.0504, 0.663229, 20.5413, -160.573, -92.6097, 54.7808
2.99126, 2, -37.0505, 0.663239, 20.5413, -160.573, -92.6097, 54.7809
2.9993, 2, -37.0507, 0.663245, 20.5413, -160.573, -92.6097, 54.7809
3.00878, 2, -37.0509, 0.663271, 20.5413, -160.572, -92.6097, 54.781
3.01718, 2, -37.0509, 0.663278, 20.5412, -160.572, -92.6097, 54.781
3.02333, 2, -37.0509, 0.663279, 20.5412, -160.572, -92.6097, 54.7811
3.0328, 2, -37.0508, 0.663281, 20.5412, -160.572, -92.6097, 54.7811
3.04124, 2, -37.0508, 0.663263, 20.5412, -160.572, -92.6098, 54.7812
3.04724, 2, -37.0508, 0.663255, 20.5412, -160.572, -92.6098, 54.7812
3.05529, 2, -37.0507, 0.663245, 20.5412, -160.572, -92.6098, 54.7812
3.06328, 2, -37.0507, 0.663241, 20.5412, -160.572, -92.6098, 54.7813
3.07125, 2, -37.0506, 0.663239, 20.5412, -160.572, -92.6098, 54.7813
3.07934, 2, -37.0506, 0.663238, 20.5412, -160.572, -92.6098, 54.7813
3.08727, 2, -37.0506, 0.663245, 20.5412, -160.572, -92.6098, 54.7814
3.09525, 2, -37.0505, 0.663253, 20.5412, -160.572, -92.6098, 54.7814
3.10329, 2, -37.0506, 0.663269, 20.5412, -160.572, -92.6098, 54.7815
3.11127, 2, -37.0506, 0.663277, 20.5412, -160.572, -92.6098, 54.7815
3.1193, 2, -37.0506, 0.66328, 20.5412, -160.572, -92.6098, 54.7815
3.12729, 2, -37.0505, 0.663269, 20.5412, -160.572, -92.6098, 54.7816
3.13536, 2, -37.0505, 0.663277, 20.5412, -160.572, -92.6098, 54.7817
3.14338, 2, -37.0506, 0.66328, 20.5411, -160.572, -92.6098, 54.7816
3.15129, 2, -37.0505, 0.663282, 20.5411, -160.572, -92.6098, 54.7817
3.15933, 2, -37.0505, 0.663275, 20.5411, -160.572, -92.6098, 54.7818
3.16725, 2, -37.0505, 0.663274, 20.5411, -160.572, -92.6098, 54.7818
3.17529, 2, -37.0505, 0.663272, 20.5411, -160.572, -92.6098, 54.7818
3.18329, 2, -37.0504, 0.663266, 20.5411, -160.572, -92.6098, 54.7818
3.19131, 2, -37.0504, 0.66327, 20.5411, -160.572, -92.6098, 54.7818
3.19937, 2, -37.0504, 0.663277, 20.5411, -160.572, -92.6099, 54.7818
3.20729, 2, -37.0504, 0.66328, 20.5411, -160.572, -92.6099, 54.7819
3.21525, 2, -37.0504, 0.663282, 20.5411, -160.572, -92.6098, 54.7819
3.2233, 2, -37.0504, 0.663282, 20.5411, -160.572, -92.6098, 54.7819
3.23128, 2, -37.0504, 0.663283, 20.5411, -160.572, -92.6098, 54.7819
3.23935, 2, -37.0504, 0.663283, 20.5411, -160.572, -92.6098, 54.782
3.24737, 2, -37.0504, 0.663283, 20.541, -160.572, -92.6098, 54.782
3.25536, 2, -37.0504, 0.663283, 20.541, -160.572, -92.6099, 54.782
3.26335, 2, -37.0503, 0.663283, 20.541, -160.572, -92.6098, 54.7821
3.2714, 2, -37.0503, 0.663283, 20.541, -160.572, -92.6098, 54.7821
3.27944, 2, -37.0503, 0.663276, 20.541, -160.572, -92.6099, 54.7822
3.28731, 2, -37.0503, 0.663275, 20.541, -160.572, -92.6099, 54.7822
3.2953, 2, -37.0503, 0.663279, 20.541, -160.572, -92.6099, 54.7821
3.30333, 2, -37.0503, 0.663281, 20.541, -160.572, -92.6099, 54.7822
3.31132, 2, -37.0502, 0.663282, 20.541, -160.572, -92.6099, 54.7823
3.31941, 2, -37.0502, 0.663283, 20.541, -160.572, -92.6099, 54.7823
3.32741, 2, -37.0502, 0.663283, 20.541, -160.572, -92.6099, 54.7824
3.33554, 2, -37.0502, 0.663294, 20.541, -160.572, -92.6099, 54.7824
3.34355, 2, -37.0501, 0.663314, 20.541, -160.572, -92.6099, 54.7824
3.3516, 2, -37.0501, 0.663297, 20.541, -160.572, -92.6099, 54.7824
3.35981, 2, -37.0501, 0.663289, 20.5409, -160.572, -92.6099, 54.7824
3.36831, 2, -37.0501, 0.663286, 20.5409, -160.572, -92.6099, 54.7824
3.3758, 2, -37.0501, 0.663284, 20.5409, -160.572, -92.6099, 54.7824
3.38436, 2, -37.0501, 0.663284, 20.5409, -160.572, -92.6099, 54.7824
3.39186, 2, -37.0501, 0.663283, 20.5409, -160.572, -92.6099, 54.7825
3.40035, 2, -37.0501, 0.663283, 20.5409, -160.572, -92.6099, 54.7824
3.40799, 2, -37.0501, 0.663276, 20.5409, -160.572, -92.6099, 54.7825
3.41636, 2, -37.0501, 0.663288, 20.5409, -160.572, -92.6099, 54.7825
3.42326, 2, -37.0501, 0.663308, 20.5409, -160.572, -92.6099, 54.7825
3.43229, 2, -37.05, 0.663296, 20.5408, -160.572, -92.61, 54.7825
3.43929, 2, -37.05, 0.663303, 20.5408, -160.572, -92.61, 54.7825
3.44835, 2, -37.05, 0.663318, 20.5409, -160.572, -92.61, 54.7825
3.45529, 2, -37.05, 0.663328, 20.5409, -160.572, -92.61, 54.7825
3.46325, 2, -37.05, 0.663311, 20.5409, -160.572, -92.6099, 54.7825
3.47127, 2, -37.05, 0.663296, 20.5408, -160.572, -92.6099, 54.7826
3.48069, 2, -37.0499, 0.663287, 20.5408, -160.572, -92.6099, 54.7826
3.48723, 2, -37.05, 0.663286, 20.5408, -160.572, -92.6099, 54.7826
3.49673, 2, -37.05, 0.663284, 20.5408, -160.572, -92.61, 54.7826
3.50484, 2, -37.0499, 0.663294, 20.5408, -160.572, -92.61, 54.7827
3.51288, 2, -37.0499, 0.663306, 20.5408, -160.572, -92.61, 54.7826
3.52079, 2, -37.0499, 0.663301, 20.5408, -160.572, -92.61, 54.7826
3.52889, 2, -37.0499, 0.663302, 20.5408, -160.572, -92.61, 54.7826
3.53685, 2, -37.0499, 0.663318, 20.5408, -160.572, -92.61, 54.7826
3.54422, 2, -37.0499, 0.663343, 20.5408, -160.572, -92.61, 54.7826
3.55225, 2, -37.0499, 0.663341, 20.5408, -160.572, -92.61, 54.7827
3.56026, 2, -37.0498, 0.663321, 20.5407, -160.572, -92.61, 54.7828
3.56824, 2, -37.0499, 0.663337, 20.5407, -160.572, -92.61, 54.7828
3.57532, 2, -37.0499, 0.663344, 20.5407, -160.572, -92.6101, 54.7828
3.58324, 2, -37.0498, 0.663329, 20.5407, -160.572, -92.61, 54.7828
3.59125, 2, -37.0498, 0.663312, 20.5407, -160.572, -92.6101, 54.7828
3.59934, 2, -37.0499, 0.663314, 20.5407, -160.572, -92.6101, 54.7828
3.60723, 2, -37.0498, 0.663327, 20.5407, -160.572, -92.6101, 54.7828
3.61525, 2, -37.0498, 0.66334, 20.5407, -160.572, -92.6101, 54.7828
3.62329, 2, -37.0498, 0.663335, 20.5407, -160.572, -92.6101, 54.7828
3.63123, 2, -37.0498, 0.663348, 20.5407, -160.572, -92.6101, 54.7829
3.63952, 2, -37.0498, 0.66335, 20.5407, -160.572, -92.6101, 54.7829
3.64833, 2, -37.0498, 0.66335, 20.5407, -160.572, -92.6101, 54.7829
3.65627, 2, -37.0497, 0.663332, 20.5407, -160.572, -92.6101, 54.7829
3.66422, 2, -37.0497, 0.66335, 20.5407, -160.572, -92.6101, 54.7829
3.67224, 2, -37.0497, 0.663363, 20.5407, -160.572, -92.6101, 54.7829
3.67928, 2, -37.0497, 0.663361, 20.5407, -160.572, -92.6101, 54.7829
3.68725, 2, -37.0497, 0.663356, 20.5407, -160.572, -92.6101, 54.7829
3.69534, 2, -37.0497, 0.663353, 20.5407, -160.572, -92.6101, 54.7829
3.70332, 2, -37.0497, 0.663341, 20.5406, -160.572, -92.6101, 54.7829
3.71125, 2, -37.0497, 0.663358, 20.5406, -160.572, -92.6102, 54.7829
3.71934, 2, -37.0497, 0.663359, 20.5406, -160.571, -92.6102, 54.7829
3.7272, 4, -37.0497, 0.663336, 20.5406, -160.571, -92.6101, 54.7829
3.73528, 4, -37.0496, 0.663351, 20.5406, -160.572, -92.6101, 54.7829
3.74334, 4, -37.0496, 0.663356, 20.5406, -160.572, -92.6102, 54.7829
3.75132, 4, -37.0496, 0.663373, 20.5406, -160.572, -92.6102, 54.7829
3.75938, 4, -37.0496, 0.663384, 20.5406, -160.572, -92.6101, 54.7829
3.76738, 4, -37.0496, 0.663398, 20.5406, -160.571, -92.6102, 54.7829
3.77533, 4, -37.0496, 0.663397, 20.5406, -160.571, -92.6101, 54.7829
3.78338, 4, -37.0496, 0.663396, 20.5406, -160.571, -92.6101, 54.7829
3.79138, 4, -37.0495, 0.663389, 20.5406, -160.571, -92.6102, 54.7829
3.79929, 4, -37.0495, 0.663388, 20.5405, -160.571, -92.6102, 54.7829
3.80731, 4, -37.0495, 0.663392, 20.5405, -160.571, -92.6101, 54.7829
3.81562, 4, -37.0494, 0.663394, 20.5405, -160.571, -92.6101, 54.7829
3.82332, 4, -37.0494, 0.663383, 20.5405, -160.571, -92.6102, 54.7829
3.83165, 4, -37.0494, 0.663378, 20.5405, -160.571, -92.6102, 54.7829
3.8564, 4, -37.0493, 0.663382, 20.5405, -160.571, -92.6101, 54.7829
3.85765, 4, -37.0493, 0.663382, 20.5405, -160.571, -92.6101, 54.7829
3.8596, 4, -37.0493, 0.663387, 20.5405, -160.571, -92.6102, 54.783
3.86401, 4, -37.0493, 0.66339, 20.5405, -160.571, -92.6102, 54.7829
3.87229, 4, -37.0493, 0.663393, 20.5405, -160.571, -92.6102, 54.783
3.87981, 4, -37.0493, 0.663387, 20.5405, -160.571, -92.6102, 54.783
3.88832, 4, -37.0485, 0.663235, 20.5405, -160.571, -92.6102, 54.783
3.89586, 4, -37.0459, 0.662317, 20.5406, -160.571, -92.6101, 54.783
3.90439, 4, -37.0404, 0.659743, 20.5414, -160.571, -92.6101, 54.7829
3.91201, 4, -37.0367, 0.657731, 20.5423, -160.571, -92.6102, 54.7829
3.92003, 4, -37.0231, 0.649301, 20.5474, -160.571, -92.6102, 54.7829
3.92722, 4, -37.0178, 0.645686, 20.5504, -160.57, -92.6102, 54.783
3.93625, 5, -36.9984, 0.6315, 20.5638, -160.567, -92.6102, 54.7828
3.94329, 5, -36.9909, 0.625648, 20.5699, -160.566, -92.6101, 54.7828
3.95235, 5, -36.9666, 0.605515, 20.5931, -160.561, -92.6099, 54.7827
3.95926, 5, -36.9579, 0.598081, 20.6021, -160.559, -92.6098, 54.7827
3.96722, 5, -36.9392, 0.581838, 20.6216, -160.555, -92.6096, 54.7826
3.97524, 5, -36.9176, 0.563225, 20.6428, -160.551, -92.6094, 54.7825
3.98325, 5, -36.893, 0.542747, 20.665, -160.546, -92.6091, 54.7823
3.99275, 5, -36.8528, 0.510786, 20.6988, -160.539, -92.6087, 54.7821
4.00074, 5, -36.825, 0.488683, 20.7218, -160.534, -92.6084, 54.782
4.00905, 5, -36.7967, 0.466407, 20.7447, -160.529, -92.608, 54.7819
4.01522, 5, -36.7826, 0.455327, 20.7562, -160.526, -92.6077, 54.7818
4.0248, 5, -36.7402, 0.421784, 20.7907, -160.518, -92.607, 54.7814
4.03283, 5, -36.726, 0.410593, 20.8136, -160.513, -92.6065, 54.7812
4.04095, 5, -36.6978, 0.377207, 20.8367, -160.508, -92.6058, 54.781
4.04821, 5, -36.6698, 0.366048, 20.8482, -160.505, -92.6055, 54.7809
4.0562, 5, -36.6418, 0.343905, 20.8715, -160.5, -92.6049, 54.7807
4.06322, 5, -36.6136, 0.321961, 20.8946, -160.495, -92.6042, 54.7806
4.07122, 5, -36.5854, 0.29997, 20.9177, -160.49, -92.6035, 54.7805
4.07934, 5, -36.5571, 0.27812, 20.9409, -160.484, -92.6029, 54.7803
4.08721, 5, -36.529, 0.256103, 20.964, -160.48, -92.6021, 54.7802
4.09523, 5, -36.5012, 0.233933, 20.9873, -160.475, -92.6015, 54.7802
4.10329, 5, -36.4734, 0.211921, 21.0104, -160.47, -92.6007, 54.7801
4.11122, 5, -36.4456, 0.189746, 21.0333, -160.465, -92.6, 54.7799
4.11949, 5, -36.4174, 0.167543, 21.0563, -160.46, -92.5993, 54.7798
4.12826, 5, -36.3888, 0.145419, 21.0793, -160.456, -92.5986, 54.7797
4.13627, 5, -36.3602, 0.123071, 21.1024, -160.451, -92.5979, 54.7795
4.1442, 5, -36.3316, 0.100845, 21.1254, -160.446, -92.5972, 54.7793
4.15227, 5, -36.3031, 0.0787538, 21.1483, -160.442, -92.5965, 54.7791
4.16023, 5, -36.2746, 0.0565364, 21.1712, -160.437, -92.5957, 54.7788
4.16821, 5, -36.2461, 0.0345005, 21.1941, -160.432, -92.5951, 54.7785
4.17522, 5, -36.2174, 0.0125099, 21.2171, -160.428, -92.5943, 54.7781
4.18323, 5, -36.1889, -0.00957236, 21.24, -160.423, -92.5937, 54.7777
4.19129, 5, -36.1603, -0.031399, 21.263, -160.418, -92.593, 54.7773
4.19932, 5, -36.1319, -0.0532885, 21.2859, -160.413, -92.5923, 54.7768
4.20722, 5, -36.1035, -0.0752219, 21.3088, -160.408, -92.5916, 54.7764
4.21532, 5, -36.075, -0.0970175, 21.3317, -160.403, -92.5909, 54.776
4.22322, 5, -36.0468, -0.119036, 21.3544, -160.398, -92.5902, 54.7755
4.23139, 5, -36.0184, -0.141044, 21.3772, -160.393, -92.5895, 54.775
4.24032, 5, -35.9898, -0.162937, 21.4, -160.388, -92.5889, 54.7745
4.2491, 5, -35.9612, -0.184979, 21.4227, -160.383, -92.5882, 54.774
4.25624, 5, -35.9324, -0.206924, 21.4456, -160.377, -92.5875, 54.7737
4.26332, 5, -35.9035, -0.228812, 21.4682, -160.372, -92.5868, 54.7732
4.27133, 5, -35.8749, -0.250847, 21.4909, -160.366, -92.5861, 54.7728
4.27981, 5, -35.8461, -0.272715, 21.5135, -160.361, -92.5855, 54.7725
4.28828, 5, -35.8174, -0.294453, 21.5362, -160.356, -92.5848, 54.7721
4.29522, 5, -35.7885, -0.316324, 21.5589, -160.35, -92.5842, 54.7718
4.30331, 5, -35.7596, -0.33803, 21.5814, -160.345, -92.5835, 54.7715
4.31216, 5, -35.7308, -0.359755, 21.6041, -160.34, -92.5828, 54.7712
4.31932, 5, -35.7022, -0.381565, 21.6267, -160.335, -92.5822, 54.7709
4.32742, 5, -35.6735, -0.403239, 21.6493, -160.33, -92.5815, 54.7707
4.33626, 5, -35.6449, -0.424964, 21.6718, -160.325, -92.5809, 54.7705
4.34347, 5, -35.6162, -0.446708, 21.6942, -160.32, -92.5803, 54.7703
4.35164, 5, -35.5874, -0.468362, 21.7166, -160.315, -92.5796, 54.7702
4.36045, 5, -35.5587, -0.49018, 21.739, -160.31, -92.5789, 54.7701
4.36769, 5, -35.5299, -0.511953, 21.7616, -160.305, -92.5783, 54.7699
4.37581, 5, -35.5011, -0.533583, 21.7839, -160.3, -92.5776, 54.7698
4.38589, 5, -35.4722, -0.555295, 21.8061, -160.295, -92.577, 54.7698
4.39231, 5, -35.4431, -0.576873, 21.8285, -160.29, -92.5763, 54.7697
4.39985, 5, -35.4141, -0.598414, 21.8507, -160.285, -92.5757, 54.7697
4.40831, 5, -35.3851, -0.620101, 21.873, -160.28, -92.5751, 54.7697
4.41585, 5, -35.3706, -0.6309, 21.8953, -160.275, -92.5744, 54.7696
4.42439, 5, -35.3271, -0.663065, 21.9175, -160.27, -92.5737, 54.7696
4.4312, 5, -35.3126, -0.673856, 21.9286, -160.267, -92.5734, 54.7696
4.44024, 5, -35.2689, -0.706137, 21.9619, -160.26, -92.5725, 54.7696
4.44721, 5, -35.2544, -0.71686, 21.973, -160.257, -92.5722, 54.7696
4.45633, 5, -35.2109, -0.749144, 22.0062, -160.249, -92.5712, 54.7696
4.46325, 5, -35.1964, -0.75986, 22.0172, -160.246, -92.5709, 54.7696
4.47282, 5, -35.1528, -0.791828, 22.0503, -160.238, -92.5699, 54.7696
4.48053, 5, -35.1236, -0.813258, 22.0723, -160.232, -92.5692, 54.7697
4.48722, 5, -35.1091, -0.823907, 22.0833, -160.229, -92.5689, 54.7697
4.49668, 5, -35.0655, -0.855931, 22.1164, -160.221, -92.5679, 54.7697
4.50472, 5, -35.0364, -0.877445, 22.1383, -160.215, -92.5673, 54.7697
4.51277, 5, -35.0072, -0.898713, 22.1602, -160.21, -92.5667, 54.7697
4.52078, 5, -34.978, -0.920038, 22.182, -160.204, -92.566, 54.7697
4.52876, 5, -34.9488, -0.941409, 22.2039, -160.199, -92.5654, 54.7697
4.54251, 5, -34.9197, -0.962612, 22.2366, -160.191, -92.5643, 54.7697
4.54389, 5, -34.9051, -0.973237, 22.2366, -160.191, -92.5643, 54.7697
4.55126, 5, -34.8759, -0.994612, 22.2584, -160.186, -92.5637, 54.7698
4.56154, 5, -34.832, -1.02628, 22.2911, -160.178, -92.5627, 54.7699
4.56821, 5, -34.8172, -1.03684, 22.3019, -160.176, -92.5624, 54.7699
4.57619, 5, -34.7879, -1.05803, 22.3237, -160.171, -92.5617, 54.77
4.58421, 5, -34.7586, -1.07914, 22.3453, -160.166, -92.561, 54.77
4.59221, 5, -34.7294, -1.10026, 22.3669, -160.161, -92.5603, 54.7701
4.60027, 5, -34.7002, -1.12149, 22.3885, -160.156, -92.5597, 54.7701
4.6082, 5, -34.6707, -1.14261, 22.4101, -160.151, -92.559, 54.7702
4.61619, 5, -34.6413, -1.16374, 22.4318, -160.146, -92.5584, 54.7703
4.62425, 5, -34.6119, -1.18487, 22.4533, -160.14, -92.5578, 54.7705
4.63219, 5, -34.5825, -1.20594, 22.4748, -160.135, -92.5571, 54.7706
4.64025, 5, -34.5531, -1.2271, 22.4962, -160.13, -92.5564, 54.7708
4.64825, 5, -34.5235, -1.24823, 22.5176, -160.125, -92.5557, 54.771
4.65633, 5, -34.494, -1.26919, 22.5391, -160.12, -92.555, 54.7713
4.66364, 5, -34.4646, -1.29021, 22.5605, -160.114, -92.5543, 54.7717
4.67122, 5, -34.4352, -1.31118, 22.5818, -160.109, -92.5536, 54.7721
4.67926, 5, -34.4057, -1.33202, 22.6033, -160.103, -92.553, 54.7726
4.6873, 5, -34.3761, -1.35299, 22.6246, -160.097, -92.5523, 54.7732
4.6952, 5, -34.3463, -1.37394, 22.646, -160.092, -92.5516, 54.7739
4.70332, 5, -34.3167, -1.39474, 22.6673, -160.086, -92.5509, 54.7747
4.7112, 5, -34.2872, -1.41563, 22.6884, -160.08, -92.5502, 54.7757
4.71927, 5, -34.2577, -1.43655, 22.7097, -160.074, -92.5495, 54.7767
4.7272, 5, -34.2282, -1.45738, 22.7309, -160.068, -92.5488, 54.7777
4.73554, 5, -34.1984, -1.47827, 22.7521, -160.063, -92.5482, 54.7789
4.74323, 5, -34.1687, -1.49914, 22.7734, -160.057, -92.5474, 54.7801
4.75144, 5, -34.1391, -1.51988, 22.7945, -160.051, -92.5467, 54.7815
4.76078, 5, -34.1094, -1.54066, 22.8156, -160.046, -92.546, 54.7828
4.76729, 5, -34.0797, -1.56144, 22.8367, -160.04, -92.5453, 54.7841
4.77531, 5, -34.05, -1.58214, 22.8577, -160.035, -92.5446, 54.7855
4.78396, 5, -34.0202, -1.60291, 22.8789, -160.029, -92.544, 54.7869
4.79225, 5, -33.9906, -1.62365, 22.8999, -160.024, -92.5433, 54.7884
4.79982, 5, -33.9608, -1.64425, 22.9208, -160.019, -92.5425, 54.7898
4.80829, 5, -33.9311, -1.66487, 22.9419, -160.013, -92.5417, 54.7913
4.81526, 5, -33.9013, -1.68551, 22.9629, -160.008, -92.541, 54.7928
4.82472, 5, -33.8713, -1.70602, 22.9839, -160.003, -92.5403, 54.7942
4.83224, 5, -33.8415, -1.72667, 23.0048, -159.997, -92.5396, 54.7958
4.83948, 5, -33.8116, -1.7473, 23.0255, -159.992, -92.5389, 54.7972
4.84746, 5, -33.7818, -1.7678, 23.0463, -159.987, -92.5382, 54.7988
4.85723, 5, -33.752, -1.78838, 23.0672, -159.981, -92.5374, 54.8003
4.86364, 5, -33.722, -1.80898, 23.0881, -159.975, -92.5367, 54.8018
4.87168, 5, -33.692, -1.82955, 23.1088, -159.97, -92.5359, 54.8033
4.88067, 5, -33.6622, -1.85008, 23.1295, -159.964, -92.5352, 54.8048
4.88778, 5, -33.6323, -1.87061, 23.1502, -159.958, -92.5345, 54.8064
4.89817, 5, -33.6024, -1.89106, 23.1708, -159.952, -92.5338, 54.808
4.90487, 5, -33.5723, -1.91148, 23.1914, -159.946, -92.5331, 54.8095
4.91234, 5, -33.5423, -1.93191, 23.2122, -159.94, -92.5323, 54.8111
4.91974, 5, -33.5274, -1.94211, 23.2225, -159.937, -92.5319, 54.8127
4.92718, 5, -33.4974, -1.96254, 23.243, -159.931, -92.5312, 54.8135
4.93622, 5, -33.4524, -1.9934, 23.274, -159.922, -92.5301, 54.8158
4.94323, 5, -33.4374, -2.00368, 23.2842, -159.919, -92.5297, 54.8166
4.95269, 5, -33.3924, -2.03454, 23.3153, -159.91, -92.5284, 54.8188
4.9604, 5, -33.3624, -2.05535, 23.3361, -159.904, -92.5274, 54.8201
4.96727, 5, -33.3475, -2.06574, 23.3463, -159.902, -92.5269, 54.8206
4.97688, 5, -33.3029, -2.09716, 23.3776, -159.893, -92.525, 54.8221
4.98455, 6, -33.2731, -2.11835, 23.3986, -159.887, -92.5234, 54.8228
4.99126, 6, -33.2582, -2.12893, 23.4092, -159.884, -92.5225, 54.823
5.00067, 6, -33.2137, -2.16108, 23.4414, -159.874, -92.5196, 54.8235
5.00881, 6, -33.1842, -2.18285, 23.4628, -159.868, -92.5174, 54.8236
5.01671, 6, -33.1549, -2.20473, 23.4845, -159.861, -92.5149, 54.8236
5.02496, 6, -33.1256, -2.22702, 23.5064, -159.854, -92.5122, 54.8236
5.0312, 6, -33.1109, -2.23823, 23.5174, -159.851, -92.5108, 54.8236
5.04071, 6, -33.0816, -2.26064, 23.5396, -159.844, -92.5061, 54.8233
5.04908, 6, -33.0383, -2.29489, 23.5731, -159.833, -92.5027, 54.8228
5.05522, 6, -33.0238, -2.30635, 23.5843, -159.829, -92.5009, 54.8225
5.06417, 6, -32.995, -2.32951, 23.607, -159.821, -92.4973, 54.8218
5.07222, 6, -32.9663, -2.35312, 23.6299, -159.813, -92.4934, 54.8209
5.07914, 6, -32.9374, -2.37672, 23.653, -159.804, -92.4893, 54.8199
5.08722, 7, -32.9088, -2.4006, 23.676, -159.795, -92.485, 54.8187
5.09538, 7, -32.8804, -2.42476, 23.6993, -159.786, -92.4806, 54.8174
5.10318, 7, -32.852, -2.449, 23.7228, -159.777, -92.4759, 54.8154
5.11118, 7, -32.8238, -2.4737, 23.7464, -159.768, -92.471, 54.8128
5.12054, 7, -32.7955, -2.49851, 23.7704, -159.758, -92.4659, 54.8094
5.12719, 7, -32.7672, -2.52345, 23.7943, -159.749, -92.4606, 54.8054
5.13518, 7, -32.7393, -2.54881, 23.8184, -159.74, -92.4552, 54.8009
5.14317, 7, -32.7114, -2.57428, 23.8428, -159.73, -92.4494, 54.7961
5.1554, 7, -32.6698, -2.61311, 23.8796, -159.716, -92.4403, 54.788
5.1592, 7, -32.656, -2.62611, 23.8919, -159.711, -92.4372, 54.7852
5.16719, 7, -32.6283, -2.65226, 23.9168, -159.701, -92.4308, 54.7793
5.17525, 7, -32.6008, -2.67865, 23.9419, -159.691, -92.424, 54.7731
5.18337, 8, -32.5734, -2.70538, 23.9671, -159.681, -92.417, 54.7665
5.19118, 8, -32.546, -2.73239, 23.9927, -159.67, -92.4096, 54.7596
5.19918, 8, -32.5188, -2.75951, 24.018, -159.659, -92.4019, 54.7523
5.20724, 8, -32.4916, -2.78693, 24.0437, -159.647, -92.3938, 54.7448
5.21524, 8, -32.4644, -2.81447, 24.0695, -159.636, -92.3853, 54.737
5.22319, 8, -32.4375, -2.84239, 24.0957, -159.624, -92.3765, 54.7289
5.23125, 8, -32.4106, -2.87045, 24.122, -159.613, -92.3674, 54.7205
5.23919, 8, -32.3838, -2.8987, 24.1484, -159.601, -92.3581, 54.7117
5.24739, 8, -32.3572, -2.92727, 24.1749, -159.59, -92.3487, 54.7025
5.2555, 8, -32.3305, -2.956, 24.2017, -159.578, -92.3393, 54.6931
5.26328, 8, -32.3039, -2.98504, 24.2287, -159.566, -92.3297, 54.6833
5.27135, 8, -32.2777, -3.01418, 24.2558, -159.554, -92.32, 54.6731
5.27968, 8, -32.2514, -3.04355, 24.2831, -159.542, -92.3103, 54.6626
5.28729, 9, -32.2252, -3.07318, 24.3106, -159.529, -92.3004, 54.6518
5.29533, 9, -32.1992, -3.10313, 24.3383, -159.516, -92.2902, 54.6409
5.304, 9, -32.1731, -3.1332, 24.3659, -159.503, -92.2798, 54.6298
5.31222, 9, -32.1471, -3.16359, 24.3938, -159.489, -92.2691, 54.6186
5.31923, 9, -32.1213, -3.19413, 24.422, -159.476, -92.258, 54.6073
5.32804, 9, -32.0957, -3.22506, 24.4503, -159.462, -92.2464, 54.596
5.33617, 9, -32.07, -3.25613, 24.4787, -159.449, -92.2344, 54.5845
5.34369, 9, -32.0445, -3.28753, 24.5072, -159.436, -92.222, 54.5727
5.35215, 9, -32.019, -3.31914, 24.5361, -159.422, -92.2096, 54.5608
5.35959, 9, -31.9934, -3.35102, 24.565, -159.408, -92.197, 54.5485
5.36756, 9, -31.9681, -3.38305, 24.5941, -159.394, -92.1844, 54.536
5.37566, 9, -31.9431, -3.41533, 24.6234, -159.379, -92.1716, 54.523
5.38382, 10, -31.918, -3.44792, 24.653, -159.364, -92.1587, 54.5096
5.39226, 10, -31.8931, -3.48073, 24.6826, -159.349, -92.1457, 54.4957
5.39978, 10, -31.8683, -3.51372, 24.7123, -159.334, -92.1323, 54.4814
5.40834, 10, -31.8434, -3.54696, 24.7423, -159.319, -92.1186, 54.4667
5.41608, 10, -31.8187, -3.58048, 24.7726, -159.304, -92.1044, 54.4518
5.42372, 10, -31.8064, -3.59733, 24.7877, -159.297, -92.0971, 54.4368
5.4322, 10, -31.7697, -3.64818, 24.8333, -159.274, -92.0746, 54.422
5.44082, 10, -31.7454, -3.68242, 24.864, -159.258, -92.0595, 54.407
5.4486, 10, -31.7333, -3.71697, 24.8949, -159.243, -92.0443, 54.3919
5.45521, 10, -31.7091, -3.73426, 24.9103, -159.235, -92.0367, 54.3843
5.46318, 10, -31.6849, -3.76902, 24.9414, -159.218, -92.0216, 54.3689
5.47237, 10, -31.6488, -3.82165, 24.9886, -159.193, -91.9988, 54.3452
5.47917, 10, -31.6367, -3.83938, 25.0043, -159.185, -91.991, 54.3371
5.48719, 11, -31.6127, -3.87485, 25.0358, -159.169, -91.9752, 54.3206
5.49663, 11, -31.5769, -3.92845, 25.0836, -159.144, -91.9506, 54.2948
5.50318, 11, -31.565, -3.94651, 25.0997, -159.136, -91.9421, 54.286
5.51268, 11, -31.5293, -4.001, 25.1478, -159.11, -91.9164, 54.2594
5.52133, 11, -31.5058, -4.03759, 25.1801, -159.093, -91.8992, 54.2416
5.52724, 11, -31.4941, -4.05603, 25.1965, -159.084, -91.8906, 54.2327
5.53676, 11, -31.459, -4.11174, 25.2455, -159.057, -91.8647, 54.2057
5.54499, 11, -31.4358, -4.14902, 25.2784, -159.039, -91.8472, 54.1875
5.55121, 11, -31.4242, -4.16782, 25.2949, -159.03, -91.8382, 54.1783
5.56082, 11, -31.4011, -4.20569, 25.3282, -159.012, -91.8201, 54.1501
5.56816, 11, -31.3779, -4.24374, 25.3615, -158.995, -91.8014, 54.1405
5.57615, 11, -31.3549, -4.28195, 25.3949, -158.977, -91.7821, 54.1209
5.58322, 12, -31.3322, -4.32047, 25.4288, -158.958, -91.763, 54.1006
5.59117, 12, -31.3094, -4.35923, 25.4626, -158.939, -91.744, 54.0801
5.59917, 12, -31.2868, -4.39823, 25.4966, -158.92, -91.7249, 54.0596
5.60716, 12, -31.2644, -4.43744, 25.5309, -158.901, -91.7058, 54.0392
5.61517, 12, -31.242, -4.47691, 25.5653, -158.882, -91.6862, 54.0187
5.62323, 12, -31.2195, -4.51655, 25.5999, -158.863, -91.6662, 53.9981
5.63116, 12, -31.1971, -4.55646, 25.6347, -158.843, -91.6456, 53.9771
5.63932, 12, -31.175, -4.59663, 25.6697, -158.824, -91.6249, 53.9557
5.65044, 12, -31.1419, -4.6573, 25.7223, -158.793, -91.5939, 53.9226
5.65519, 12, -31.1309, -4.67765, 25.7399, -158.783, -91.5835, 53.9113
5.66319, 12, -31.109, -4.71853, 25.7755, -158.763, -91.5626, 53.8887
5.67124, 12, -31.0872, -4.75971, 25.811, -158.743, -91.5415, 53.8662
5.67918, 12, -31.0653, -4.80117, 25.8467, -158.723, -91.5196, 53.8437
5.68822, 13, -31.0434, -4.84288, 25.8827, -158.703, -91.4972, 53.8209
5.69615, 13, -31.0219, -4.88479, 25.9188, -158.682, -91.4748, 53.798
5.70342, 13, -31.0003, -4.92704, 25.9551, -158.661, -91.4525, 53.7747
5.71258, 13, -30.9788, -4.96956, 25.9916, -158.64, -91.4302, 53.7509
5.71916, 13, -30.9575, -5.01228, 26.0282, -158.619, -91.4077, 53.7265
5.72728, 13, -30.9363, -5.05527, 26.065, -158.598, -91.3848, 53.702
5.73517, 13, -30.9151, -5.09847, 26.1021, -158.576, -91.3612, 53.6775
5.74399, 13, -30.894, -5.14187, 26.1393, -158.555, -91.3374, 53.6531
5.75215, 13, -30.873, -5.18558, 26.1766, -158.533, -91.3137, 53.6283
5.75925, 13, -30.8522, -5.22941, 26.2142, -158.511, -91.2899, 53.6032
5.76735, 13, -30.8313, -5.27343, 26.2519, -158.488, -91.2661, 53.5774
5.77526, 13, -30.8106, -5.31782, 26.2898, -158.466, -91.2418, 53.5512
5.78332, 14, -30.7901, -5.3624, 26.328, -158.444, -91.2168, 53.5248
5.79214, 14, -30.7697, -5.40709, 26.3661, -158.422, -91.1915, 53.4986
5.79923, 14, -30.7491, -5.45218, 26.4045, -158.4, -91.1665, 53.4726
5.80717, 14, -30.7288, -5.49751, 26.4432, -158.377, -91.1414, 53.4464
5.81519, 14, -30.7085, -5.54309, 26.4818, -158.353, -91.1163, 53.4199
5.82329, 14, -30.6882, -5.58903, 26.5206, -158.33, -91.0906, 53.3926
5.83135, 14, -30.6681, -5.6351, 26.5598, -158.307, -91.0641, 53.3647
5.83957, 14, -30.6481, -5.68149, 26.599, -158.284, -91.0376, 53.3365
5.84816, 14, -30.6282, -5.72818, 26.6385, -158.26, -91.0111, 53.3083
5.85548, 14, -30.6083, -5.77507, 26.6781, -158.236, -90.9847, 53.2802
5.8636, 14, -30.5885, -5.82222, 26.7178, -158.212, -90.9579, 53.252
5.87163, 14, -30.5688, -5.86963, 26.7578, -158.188, -90.9303, 53.2233
5.87974, 14, -30.5494, -5.91724, 26.798, -158.164, -90.9024, 53.1941
5.88769, 15, -30.5299, -5.96502, 26.8382, -158.14, -90.8747, 53.1642
5.89625, 15, -30.5104, -6.01298, 26.8788, -158.116, -90.8472, 53.1346
5.90385, 15, -30.4912, -6.06123, 26.9195, -158.091, -90.8195, 53.105
5.91226, 15, -30.4721, -6.10968, 26.9603, -158.065, -90.7911, 53.0751
5.91984, 15, -30.4625, -6.15835, 27.0014, -158.04, -90.7622, 53.0449
5.92834, 15, -30.4338, -6.20731, 27.0425, -158.015, -90.7335, 53.0141
5.93593, 15, -30.4243, -6.23188, 27.0631, -158.002, -90.7048, 52.9827
5.94488, 15, -30.4055, -6.30606, 27.1254, -157.964, -90.6758, 52.9513
5.9531, 15, -30.3773, -6.35588, 27.167, -157.938, -90.6461, 52.92
5.96029, 15, -30.3586, -6.40602, 27.2089, -157.912, -90.6159, 52.8886
5.9672, 15, -30.3493, -6.43122, 27.2299, -157.899, -90.6008, 52.8728
5.97722, 15, -30.3217, -6.50714, 27.2931, -157.86, -90.556, 52.8242
5.98479, 16, -30.3034, -6.5581, 27.3355, -157.834, -90.526, 52.7913
5.99268, 16, -30.285, -6.60928, 27.378, -157.808, -90.4951, 52.7587
6.00146, 16, -30.2667, -6.66074, 27.4208, -157.781, -90.4639, 52.7261
6.00714, 16, -30.2576, -6.68651, 27.4423, -157.767, -90.4485, 52.7098
6.01522, 16, -30.2395, -6.73814, 27.4852, -157.741, -90.4176, 52.6768
6.02547, 16, -30.2123, -6.81614, 27.5502, -157.701, -90.3707, 52.626
6.03115, 16, -30.2033, -6.8422, 27.5719, -157.688, -90.3546, 52.6089
6.03997, 16, -30.1855, -6.89447, 27.6155, -157.66, -90.3221, 52.575
6.04879, 16, -30.1678, -6.94704, 27.6812, -157.618, -90.274, 52.5243
6.05614, 16, -30.1501, -6.99986, 27.7032, -157.605, -90.2581, 52.5073
6.06413, 16, -30.1323, -7.05303, 27.7472, -157.577, -90.2256, 52.4726
6.07218, 16, -30.1146, -7.1064, 27.7915, -157.55, -90.1924, 52.4374
6.083, 17, -30.0971, -7.16013, 27.8358, -157.522, -90.1593, 52.4022
6.08714, 17, -30.0797, -7.21422, 27.8803, -157.493, -90.1263, 52.3674
6.09521, 17, -30.0624, -7.26854, 27.9251, -157.465, -90.0932, 52.3324
6.10322, 17, -30.0452, -7.32313, 27.97, -157.437, -90.0592, 52.297
6.11121, 17, -30.0282, -7.37799, 28.0151, -157.408, -90.0248, 52.2608
6.11914, 17, -30.0113, -7.43306, 28.0603, -157.38, -89.9909, 52.2242
6.12715, 17, -29.9945, -7.48821, 28.1058, -157.35, -89.957, 52.1879
6.13535, 17, -29.9775, -7.54359, 28.1514, -157.321, -89.9224, 52.1517
6.14545, 17, -29.9607, -7.59917, 28.1972, -157.292, -89.8872, 52.0964
6.15114, 17, -29.944, -7.6549, 28.2433, -157.263, -89.8524, 52.0777
6.15923, 17, -29.9274, -7.71081, 28.2895, -157.234, -89.8176, 52.0402
6.16714, 17, -29.9108, -7.76704, 28.3358, -157.203, -89.7822, 52.0029
6.17514, 17, -29.8943, -7.8235, 28.3823, -157.173, -89.746, 51.9656
6.18328, 18, -29.878, -7.88028, 28.429, -157.144, -89.7102, 51.9277
6.19115, 18, -29.8618, -7.9374, 28.4758, -157.114, -89.6747, 51.889
6.19914, 18, -29.8457, -7.99481, 28.5227, -157.083, -89.6385, 51.8503
6.20715, 18, -29.8295, -8.05249, 28.5698, -157.052, -89.6015, 51.8118
6.21521, 18, -29.8134, -8.11044, 28.6172, -157.022, -89.565, 51.7732
6.22328, 18, -29.7974, -8.16868, 28.6647, -156.991, -89.5286, 51.7341
6.23137, 18, -29.7814, -8.22698, 28.7124, -156.961, -89.4915, 51.6942
6.24, 18, -29.7656, -8.28558, 28.7603, -156.929, -89.4535, 51.6545
6.2482, 18, -29.7498, -8.34427, 28.8084, -156.898, -89.416, 51.6152
6.25521, 18, -29.7342, -8.40311, 28.8566, -156.866, -89.3787, 51.5755
6.2634, 18, -29.7187, -8.46211, 28.9051, -156.835, -89.3408, 51.5352
6.27123, 18, -29.7031, -8.5214, 28.9538, -156.804, -89.3021, 51.4945
6.28009, 19, -29.6878, -8.58089, 29.0026, -156.771, -89.264, 51.4542
6.28821, 19, -29.6723, -8.6407, 29.0515, -156.739, -89.2258, 51.414
6.29526, 19, -29.6568, -8.70085, 29.1006, -156.708, -89.1867, 51.3735
6.30467, 19, -29.6415, -8.76127, 29.1498, -156.676, -89.1474, 51.3322
6.31115, 19, -29.6263, -8.82205, 29.1991, -156.643, -89.1085, 51.2911
6.31924, 19, -29.6113, -8.88307, 29.2487, -156.61, -89.0696, 51.2501
6.32724, 19, -29.5963, -8.94434, 29.2984, -156.578, -89.0298, 51.2089
6.33793, 19, -29.5814, -9.0058, 29.3483, -156.545, -88.9901, 51.1669
6.34343, 19, -29.5667, -9.06745, 29.3983, -156.512, -88.9507, 51.1243
6.35228, 19, -29.5521, -9.12921, 29.4487, -156.478, -88.9107, 51.082
6.35943, 19, -29.5375, -9.19113, 29.4991, -156.445, -88.87, 51.0397
6.36754, 19, -29.523, -9.25329, 29.5498, -156.412, -88.8297, 50.9968
6.37821, 19, -29.5084, -9.31559, 29.6007, -156.379, -88.7897, 50.9532
6.38377, 20, -29.494, -9.37817, 29.6517, -156.344, -88.7487, 50.9099
6.39223, 20, -29.4796, -9.44105, 29.7028, -156.31, -88.7075, 50.8667
6.40063, 20, -29.4653, -9.50421, 29.7541, -156.276, -88.6667, 50.823
6.4083, 20, -29.4512, -9.56761, 29.8055, -156.243, -88.6255, 50.7786
6.4157, 20, -29.4442, -9.63139, 29.857, -156.208, -88.5835, 50.7343
6.4247, 20, -29.4231, -9.69538, 29.9087, -156.173, -88.5418, 50.6903
6.43288, 20, -29.4093, -9.7597, 29.9607, -156.139, -88.5005, 50.646
6.44016, 20, -29.3955, -9.8241, 30.0127, -156.104, -88.4582, 50.6011
6.44719, 20, -29.3887, -9.85639, 30.0388, -156.087, -88.4368, 50.5785
6.45626, 20, -29.3682, -9.95349, 30.1176, -156.033, -88.3735, 50.5114
6.46319, 20, -29.3613, -9.98594, 30.1438, -156.016, -88.3523, 50.4891
6.47232, 20, -29.3408, -10.0836, 30.223, -155.963, -88.2874, 50.4212
6.47909, 21, -29.334, -10.1162, 30.2495, -155.945, -88.2659, 50.3983
6.48851, 21, -29.3138, -10.2146, 30.3292, -155.891, -88.2017, 50.3301
6.49521, 21, -29.3072, -10.2474, 30.3557, -155.873, -88.1799, 50.3074
6.50462, 21, -29.2872, -10.3465, 30.4358, -155.82, -88.1144, 50.2385
6.51265, 21, -29.2739, -10.4129, 30.4892, -155.784, -88.0712, 50.1922
6.52072, 21, -29.2608, -10.4795, 30.5428, -155.747, -88.0271, 50.1465
6.52909, 21, -29.2479, -10.5463, 30.5966, -155.711, -87.9826, 50.1007
6.5365, 21, -29.2414, -10.5798, 30.6236, -155.693, -87.9605, 50.0775
6.54318, 21, -29.2284, -10.6469, 30.6777, -155.657, -87.9168, 50.0306
6.55269, 21, -29.2155, -10.7142, 30.732, -155.619, -87.872, 49.9607
6.56012, 21, -29.2025, -10.7816, 30.7865, -155.582, -87.827, 49.9375
6.56817, 21, -29.1895, -10.8493, 30.841, -155.545, -87.7826, 49.8905
6.57613, 21, -29.1767, -10.9171, 30.8958, -155.508, -87.7374, 49.843
6.58417, 22, -29.1639, -10.9853, 30.9508, -155.47, -87.6917, 49.7959
6.59212, 22, -29.1512, -11.0536, 31.0059, -155.433, -87.6468, 49.7489
6.60113, 22, -29.1387, -11.1221, 31.061, -155.395, -87.6013, 49.7013
6.60712, 22, -29.1262, -11.1908, 31.1163, -155.357, -87.555, 49.653
6.61519, 22, -29.1138, -11.2598, 31.1717, -155.318, -87.5092, 49.6051
6.62321, 22, -29.1016, -11.3289, 31.2273, -155.281, -87.4634, 49.5574
6.63345, 22, -29.0895, -11.3983, 31.311, -155.223, -87.3934, 49.4847
6.63912, 22, -29.0774, -11.4679, 31.339, -155.204, -87.3703, 49.4603
6.64715, 22, -29.0654, -11.5377, 31.3952, -155.165, -87.3243, 49.4121
6.65518, 22, -29.0534, -11.6077, 31.4515, -155.127, -87.2773, 49.3638
6.66325, 22, -29.0413, -11.6779, 31.5079, -155.088, -87.2305, 49.315
6.67122, 22, -29.0294, -11.7483, 31.5645, -155.048, -87.1839, 49.2659
6.67914, 23, -29.0176, -11.819, 31.6212, -155.009, -87.1363, 49.2172
6.68712, 23, -29.0058, -11.8898, 31.6781, -154.97, -87.0889, 49.1684
6.69515, 23, -28.994, -11.9607, 31.7351, -154.931, -87.0421, 49.119
6.70411, 23, -28.9824, -12.0319, 31.7922, -154.89, -86.9941, 49.0696
6.71113, 23, -28.9708, -12.1032, 31.8494, -154.851, -86.9463, 49.0209
6.71919, 23, -28.9591, -12.1748, 31.9068, -154.811, -86.899, 48.9717
6.72735, 23, -28.9477, -12.2465, 31.9644, -154.771, -86.8503, 48.9218
6.73616, 23, -28.9364, -12.3184, 32.0221, -154.73, -86.8018, 48.8721
6.74319, 23, -28.9251, -12.3906, 32.0801, -154.691, -86.7539, 48.8229
6.75137, 23, -28.9139, -12.463, 32.1382, -154.65, -86.7049, 48.773
6.75919, 23, -28.9028, -12.5354, 32.1964, -154.609, -86.6559, 48.7227
6.76722, 23, -28.8917, -12.6082, 32.2548, -154.568, -86.6074, 48.673
6.77555, 23, -28.8806, -12.6811, 32.3133, -154.528, -86.5578, 48.6233
6.78328, 24, -28.8696, -12.7542, 32.3718, -154.486, -86.5086, 48.5728
6.79124, 24, -28.8587, -12.8273, 32.4306, -154.444, -86.4599, 48.522
6.79988, 24, -28.8478, -12.9007, 32.4894, -154.404, -86.41, 48.4718
6.80812, 24, -28.8369, -12.9743, 32.5483, -154.362, -86.3605, 48.4214
6.81535, 24, -28.8262, -13.048, 32.6074, -154.32, -86.3112, 48.3702
6.82405, 24, -28.8155, -13.1221, 32.6666, -154.279, -86.2608, 48.3193
6.83129, 24, -28.8046, -13.1963, 32.7261, -154.237, -86.2109, 48.2689
6.83926, 24, -28.7939, -13.2707, 32.7857, -154.195, -86.1612, 48.218
6.84776, 24, -28.7834, -13.3453, 32.8454, -154.152, -86.1105, 48.1665
6.85694, 24, -28.7728, -13.4199, 32.9051, -154.111, -86.0604, 48.1157
6.86411, 24, -28.7623, -13.4949, 32.9651, -154.068, -86.0102, 48.0649
6.87158, 24, -28.7518, -13.5699, 33.025, -154.025, -85.959, 48.0136
6.87958, 25, -28.7414, -13.645, 33.0852, -153.983, -85.9086, 47.9624
6.88821, 25, -28.7309, -13.7203, 33.1454, -153.94, -85.858, 47.9119
6.89763, 25, -28.7204, -13.7958, 33.2058, -153.897, -85.8066, 47.8612
6.90387, 25, -28.7101, -13.8715, 33.2663, -153.854, -85.756, 47.8098
6.91227, 25, -28.7, -13.9473, 33.3269, -153.811, -85.7048, 47.7587
6.91968, 25, -28.6949, -14.0233, 33.3876, -153.767, -85.6531, 47.708
6.92918, 25, -28.6796, -14.0995, 33.4485, -153.723, -85.6021, 47.6569
6.93511, 25, -28.6746, -14.1376, 33.479, -153.702, -85.5766, 47.6311
6.94414, 25, -28.6595, -14.2524, 33.5707, -153.636, -85.4989, 47.5546
6.95198, 25, -28.6545, -14.2907, 33.6013, -153.614, -85.4733, 47.5292
6.96073, 25, -28.6395, -14.4058, 33.6931, -153.548, -85.3956, 47.4522
6.96824, 25, -28.6296, -14.4827, 33.7545, -153.504, -85.3438, 47.4007
6.97512, 25, -28.6248, -14.5212, 33.7852, -153.481, -85.3181, 47.3752
6.98318, 26, -28.615, -14.5984, 33.8467, -153.437, -85.2662, 47.3243
6.99249, 26, -28.6003, -14.7143, 33.9392, -153.371, -85.1879, 47.2467
6.99913, 26, -28.5955, -14.7531, 33.9701, -153.348, -85.1621, 47.2211
7.00874, 26, -28.581, -14.8694, 34.063, -153.28, -85.083, 47.1447
7.0167, 26, -28.5713, -14.9471, 34.1251, -153.236, -85.0309, 47.0931
7.02508, 26, -28.5615, -15.025, 34.1872, -153.191, -84.9784, 47.0414
7.03254, 26, -28.5567, -15.064, 34.2184, -153.168, -84.9518, 46.9907
7.03911, 26, -28.5471, -15.142, 34.2808, -153.123, -84.8992, 46.9654
7.04956, 26, -28.5375, -15.2201, 34.3432, -153.055, -84.8198, 46.8885
7.05523, 26, -28.5279, -15.2984, 34.4056, -153.032, -84.7931, 46.8629
7.06415, 26, -28.5184, -15.3768, 34.4682, -152.987, -84.7405, 46.8124
7.0721, 26, -28.509, -15.4554, 34.5309, -152.941, -84.6877, 46.762
7.07918, 27, -28.4995, -15.5341, 34.5936, -152.895, -84.6344, 46.7109
7.08708, 27, -28.49, -15.613, 34.6565, -152.849, -84.5816, 46.6597
7.09601, 27, -28.4806, -15.692, 34.7194, -152.803, -84.5281, 46.6092
7.10317, 27, -28.4714, -15.7711, 34.7825, -152.756, -84.4745, 46.5583
7.11111, 27, -28.4622, -15.8504, 34.8457, -152.71, -84.4216, 46.5069
7.12052, 27, -28.4529, -15.9297, 34.909, -152.664, -84.3677, 46.4561
7.12811, 27, -28.4438, -16.0091, 34.9725, -152.617, -84.3143, 46.4056
7.13609, 27, -28.4347, -16.0888, 35.0359, -152.57, -84.261, 46.3544
7.1457, 27, -28.421, -16.2083, 35.1311, -152.501, -84.1799, 46.278
7.15126, 27, -28.4164, -16.2482, 35.1628, -152.477, -84.1533, 46.2529
7.15916, 27, -28.4071, -16.3282, 35.2264, -152.429, -84.0994, 46.2025
7.16713, 27, -28.3979, -16.4082, 35.2901, -152.383, -84.0451, 46.1516
7.17512, 27, -28.3888, -16.4883, 35.3539, -152.335, -83.9916, 46.1012
7.18323, 28, -28.3795, -16.5686, 35.4178, -152.288, -83.9372, 46.0515
7.19111, 28, -28.3703, -16.6489, 35.4818, -152.241, -83.8832, 46.0015
7.2002, 28, -28.3612, -16.7293, 35.5459, -152.193, -83.8296, 45.951
7.20811, 28, -28.3521, -16.8099, 35.6101, -152.145, -83.775, 45.9013
7.21517, 28, -28.343, -16.8905, 35.6743, -152.098, -83.7212, 45.8519
7.22321, 28, -28.3339, -16.9711, 35.7385, -152.05, -83.6671, 45.8022
7.23116, 28, -28.3249, -17.0519, 35.8028, -152.001, -83.6123, 45.7524
7.23913, 28, -28.316, -17.1327, 35.8671, -151.954, -83.5586, 45.7034
7.24754, 28, -28.3072, -17.2136, 35.9315, -151.905, -83.5039, 45.6545
7.25615, 28, -28.2982, -17.2946, 35.996, -151.856, -83.4494, 45.6053
7.26334, 28, -28.2893, -17.3756, 36.0606, -151.809, -83.3954, 45.5562
7.27146, 28, -28.2804, -17.4569, 36.1253, -151.76, -83.3402, 45.508
7.2792, 29, -28.2716, -17.5382, 36.19, -151.711, -83.286, 45.4597
7.28726, 29, -28.2626, -17.6195, 36.2549, -151.662, -83.2313, 45.4111
7.29585, 29, -28.2535, -17.7009, 36.3197, -151.613, -83.1761, 45.3629
7.30416, 29, -28.2445, -17.7825, 36.3845, -151.564, -83.1217, 45.3154
7.31111, 29, -28.2355, -17.864, 36.4493, -151.516, -83.0664, 45.2678
7.31992, 29, -28.2265, -17.9455, 36.5141, -151.466, -83.0116, 45.2199
7.3281, 29, -28.2175, -18.0272, 36.5791, -151.416, -82.9571, 45.1724
7.33522, 29, -28.2085, -18.109, 36.6441, -151.368, -82.9018, 45.1255
7.34363, 29, -28.1996, -18.1908, 36.7092, -151.318, -82.8472, 45.0788
7.35267, 29, -28.1908, -18.2727, 36.7744, -151.268, -82.7922, 45.0316
7.35936, 29, -28.1818, -18.3547, 36.8397, -151.219, -82.7369, 44.9852
7.36744, 29, -28.1729, -18.4366, 36.9049, -151.169, -82.6826, 44.9394
7.37591, 30, -28.1641, -18.5187, 36.9702, -151.119, -82.6273, 44.8936
7.38429, 30, -28.1554, -18.6007, 37.0354, -151.069, -82.5724, 44.8473
7.39165, 30, -28.1465, -18.6829, 37.1007, -151.018, -82.5176, 44.8017
7.4002, 30, -28.1376, -18.7651, 37.1659, -150.968, -82.4619, 44.7567
7.40767, 30, -28.1288, -18.8473, 37.2312, -150.918, -82.4072, 44.7119
7.4162, 30, -28.1199, -18.9297, 37.2966, -150.867, -82.352, 44.6667
7.42386, 30, -28.111, -19.0121, 37.362, -150.817, -82.2966, 44.622
7.4321, 30, -28.102, -19.0945, 37.4275, -150.767, -82.2418, 44.5782
7.44075, 30, -28.0929, -19.177, 37.493, -150.716, -82.186, 44.5345
7.45255, 30, -28.084, -19.3007, 37.5914, -150.641, -82.1036, 44.4686
7.45518, 30, -28.0795, -19.3007, 37.5914, -150.641, -82.1036, 44.4686
7.46429, 30, -28.066, -19.4244, 37.6897, -150.564, -82.0204, 44.4041
7.47109, 30, -28.0615, -19.4656, 37.7224, -150.539, -81.9931, 44.3828
7.4792, 31, -28.0524, -19.548, 37.7879, -150.488, -81.9383, 44.3403
7.49038, 31, -28.0388, -19.6717, 37.8861, -150.411, -81.8551, 44.2762
7.4951, 31, -28.0342, -19.7129, 37.919, -150.386, -81.8279, 44.2552
7.50448, 31, -28.0205, -19.8367, 38.0174, -150.309, -81.745, 44.1933
7.51109, 31, -28.0159, -19.878, 38.0502, -150.283, -81.7175, 44.1726
7.52143, 31, -28.0023, -20.002, 38.1488, -150.207, -81.6351, 44.1105
7.52714, 31, -27.9978, -20.0433, 38.1816, -150.18, -81.6072, 44.0898
7.53668, 31, -27.984, -20.1672, 38.2801, -150.103, -81.5246, 44.0292
7.54494, 31, -27.9748, -20.2498, 38.3457, -150.052, -81.4692, 43.9892
7.55114, 31, -27.9702, -20.2911, 38.3784, -150.025, -81.4414, 43.9692
7.5608, 31, -27.9609, -20.4151, 38.4769, -149.948, -81.359, 43.9091
7.56873, 31, -27.9515, -20.4564, 38.5097, -149.922, -81.3312, 43.8894
7.57691, 32, -27.9421, -20.539, 38.5753, -149.87, -81.2486, 43.8316
7.58315, 32, -27.9326, -20.6217, 38.6409, -149.818, -81.2212, 43.8125
7.59109, 32, -27.9233, -20.7044, 38.7065, -149.767, -81.1659, 43.7745
7.59909, 32, -27.9139, -20.787, 38.7722, -149.714, -81.111, 43.7363
7.60811, 32, -27.9044, -20.8696, 38.8378, -149.662, -81.0563, 43.6987
7.61609, 32, -27.8948, -20.9523, 38.9035, -149.61, -81.0008, 43.6621
7.62408, 32, -27.8853, -21.0349, 38.9692, -149.557, -80.9463, 43.626
7.63216, 32, -27.8756, -21.1175, 39.0348, -149.506, -80.8912, 43.59
7.64024, 32, -27.8659, -21.2001, 39.1003, -149.453, -80.8361, 43.554
7.64793, 32, -27.8562, -21.2827, 39.1657, -149.4, -80.7817, 43.5186
7.65509, 32, -27.8466, -21.3652, 39.2312, -149.348, -80.7263, 43.4841
7.66316, 32, -27.837, -21.4477, 39.2967, -149.295, -80.6716, 43.4504
7.67121, 32, -27.8272, -21.5302, 39.3621, -149.243, -80.6171, 43.4167
7.67909, 33, -27.8175, -21.6127, 39.4277, -149.191, -80.5619, 43.3832
7.68818, 33, -27.8076, -21.6952, 39.4931, -149.137, -80.5075, 43.3498
7.69616, 33, -27.7977, -21.7775, 39.5584, -149.085, -80.4526, 43.3174
7.70408, 33, -27.7876, -21.8599, 39.6238, -149.032, -80.3977, 43.2859
7.71407, 33, -27.7724, -21.9834, 39.7216, -148.953, -80.3163, 43.2394
7.71917, 33, -27.7674, -22.0246, 39.7542, -148.927, -80.2887, 43.224
7.72709, 33, -27.7572, -22.1068, 39.8194, -148.874, -80.2344, 43.1933
7.73509, 33, -27.747, -22.1891, 39.8845, -148.821, -80.1802, 43.1628
7.74433, 33, -27.7367, -22.2713, 39.9496, -148.769, -80.1252, 43.1334
7.75109, 33, -27.7265, -22.3534, 40.0146, -148.715, -80.0714, 43.1047
7.76008, 33, -27.7162, -22.4356, 40.0797, -148.662, -80.017, 43.0766
7.76718, 33, -27.7058, -22.5176, 40.1447, -148.609, -79.9625, 43.049
7.77519, 34, -27.6954, -22.5997, 40.2097, -148.556, -79.9088, 43.0216
7.7833, 34, -27.6851, -22.6816, 40.2747, -148.503, -79.8539, 42.9942
7.79125, 34, -27.6747, -22.7634, 40.3395, -148.449, -79.7998, 42.9674
7.79926, 34, -27.6641, -22.8453, 40.4042, -148.396, -79.7458, 42.9413
7.80715, 34, -27.6536, -22.927, 40.4689, -148.343, -79.691, 42.9162
7.81522, 34, -27.6428, -23.0086, 40.5334, -148.289, -79.6371, 42.8918
7.82319, 34, -27.632, -23.0903, 40.5979, -148.236, -79.5826, 42.8679
7.83127, 34, -27.621, -23.1718, 40.6624, -148.183, -79.5282, 42.8444
7.83954, 34, -27.6101, -23.2533, 40.7268, -148.129, -79.4746, 42.8213
7.84819, 34, -27.599, -23.3348, 40.7912, -148.076, -79.4199, 42.7985
7.85529, 34, -27.5879, -23.4162, 40.8556, -148.022, -79.366, 42.7765
7.86346, 34, -27.5767, -23.4976, 40.9198, -147.968, -79.3122, 42.7555
7.87225, 34, -27.5656, -23.5789, 40.984, -147.916, -79.2576, 42.7355
7.87972, 35, -27.5543, -23.66, 41.048, -147.862, -79.2042, 42.7162
7.88823, 35, -27.543, -23.741, 41.1119, -147.808, -79.1502, 42.6975
7.89652, 35, -27.5317, -23.8219, 41.1756, -147.755, -79.0961, 42.6795
7.90377, 35, -27.5203, -23.9027, 41.2394, -147.701, -79.0428, 42.6619
7.91218, 35, -27.5088, -23.9833, 41.3031, -147.647, -78.9887, 42.6447
7.92046, 35, -27.4971, -24.0639, 41.3666, -147.594, -78.9349, 42.628
7.92793, 35, -27.4913, -24.1041, 41.3984, -147.54, -78.8817, 42.612
7.93635, 35, -27.4736, -24.2246, 41.4937, -147.487, -78.8276, 42.5967
7.94848, 35, -27.4556, -24.3451, 41.5888, -147.405, -78.7477, 42.5753
7.95104, 35, -27.4556, -24.3451, 41.5888, -147.405, -78.7477, 42.5753
7.96012, 35, -27.4374, -24.4653, 41.6836, -147.326, -78.667, 42.5557
7.96712, 35, -27.4313, -24.5053, 41.715, -147.298, -78.6404, 42.5497
7.97504, 36, -27.4189, -24.5853, 41.7779, -147.245, -78.5874, 42.538
7.98474, 36, -27.4001, -24.7051, 41.872, -147.165, -78.5075, 42.5221
7.99336, 36, -27.3875, -24.7848, 41.9347, -147.11, -78.4548, 42.5126
7.99914, 36, -27.3813, -24.8246, 41.966, -147.084, -78.4282, 42.508
8.00997, 36, -27.3624, -24.9439, 42.0598, -147.003, -78.3486, 42.495
8.01733, 36, -27.3496, -25.0233, 42.1222, -146.95, -78.2962, 42.4872
8.02314, 36, -27.3432, -25.063, 42.1534, -146.923, -78.2695, 42.4837
8.03262, 36, -27.3237, -25.1817, 42.2468, -146.842, -78.1905, 42.474
8.04147, 36, -27.3103, -25.2607, 42.3089, -146.789, -78.1379, 42.4684
8.04708, 36, -27.3037, -25.3001, 42.3398, -146.763, -78.1114, 42.4658
8.05661, 36, -27.2904, -25.3789, 42.4016, -146.708, -78.0328, 42.4594
8.06468, 36, -27.2769, -25.4575, 42.4633, -146.655, -77.9803, 42.456
8.07212, 36, -27.2633, -25.536, 42.5249, -146.602, -77.9539, 42.4546
8.0791, 37, -27.2496, -25.6144, 42.5864, -146.547, -77.9018, 42.4525
8.08813, 37, -27.2357, -25.6927, 42.6477, -146.494, -77.8496, 42.4511
8.09607, 37, -27.2219, -25.7708, 42.7088, -146.441, -77.797, 42.4504
8.10408, 37, -27.208, -25.8488, 42.77, -146.387, -77.7452, 42.45
8.1134, 37, -27.187, -25.9655, 42.8614, -146.308, -77.6669, 42.4498
8.11917, 37, -27.1799, -26.0043, 42.8918, -146.281, -77.641, 42.4499
8.12714, 37, -27.1655, -26.0819, 42.9525, -146.227, -77.5895, 42.4501
8.13521, 37, -27.1509, -26.1592, 43.013, -146.174, -77.5373, 42.4507
8.14319, 37, -27.1363, -26.2363, 43.0733, -146.12, -77.4854, 42.4521
8.15107, 37, -27.1215, -26.3133, 43.1334, -146.068, -77.4341, 42.4554
8.15908, 37, -27.1067, -26.3901, 43.1933, -146.015, -77.3821, 42.4603
8.16806, 37, -27.0917, -26.4668, 43.2532, -145.961, -77.3307, 42.4664
8.17613, 38, -27.0766, -26.5434, 43.313, -145.908, -77.2794, 42.4738
8.18418, 38, -27.0614, -26.6199, 43.3725, -145.855, -77.2273, 42.4823
8.19213, 38, -27.0462, -26.6962, 43.432, -145.802, -77.1761, 42.4918
8.20008, 38, -27.0308, -26.7722, 43.4912, -145.75, -77.1251, 42.5026
8.20813, 38, -27.0152, -26.8481, 43.5504, -145.696, -77.0733, 42.5142
8.21507, 38, -26.9993, -26.9238, 43.6094, -145.643, -77.0224, 42.5268
8.22408, 38, -26.9834, -26.9992, 43.6681, -145.591, -76.9712, 42.5405
8.23227, 38, -26.9674, -27.0744, 43.7267, -145.538, -76.9196, 42.5552
8.23934, 38, -26.9512, -27.1495, 43.7851, -145.486, -76.8692, 42.5711
8.24721, 38, -26.9348, -27.2244, 43.8433, -145.433, -76.8184, 42.5881
8.25508, 38, -26.9182, -27.2991, 43.9014, -145.38, -76.7673, 42.6062
8.26407, 38, -26.9017, -27.3737, 43.9592, -145.329, -76.717, 42.6258
8.27234, 39, -26.8849, -27.4481, 44.0169, -145.276, -76.6661, 42.6464
8.28062, 39, -26.868, -27.5223, 44.0744, -145.224, -76.6151, 42.6678
8.28722, 39, -26.8509, -27.5964, 44.1317, -145.172, -76.5653, 42.6901
8.29576, 39, -26.8334, -27.6702, 44.1888, -145.12, -76.5144, 42.7131
8.30557, 39, -26.8159, -27.7437, 44.2458, -145.068, -76.4639, 42.7372
8.31125, 39, -26.7983, -27.8171, 44.3025, -145.016, -76.414, 42.7623
8.31971, 39, -26.7805, -27.8902, 44.359, -144.964, -76.363, 42.7888
8.32806, 39, -26.7626, -27.9632, 44.4154, -144.913, -76.3126, 42.8166
8.33794, 39, -26.7446, -28.0358, 44.4714, -144.861, -76.2628, 42.8453
8.34415, 39, -26.7264, -28.1084, 44.5272, -144.809, -76.2119, 42.8746
8.3512, 39, -26.7081, -28.1808, 44.5829, -144.759, -76.1618, 42.9048
8.35935, 39, -26.6894, -28.2529, 44.6384, -144.707, -76.1119, 42.9361
8.36825, 39, -26.6705, -28.3248, 44.6936, -144.656, -76.0612, 42.9688
8.37544, 40, -26.6515, -28.3965, 44.7487, -144.605, -76.0115, 43.0029
8.38351, 40, -26.6323, -28.4678, 44.8036, -144.554, -75.9619, 43.0379
8.39241, 40, -26.613, -28.5389, 44.8583, -144.503, -75.9116, 43.0735
8.39964, 40, -26.5934, -28.6096, 44.9127, -144.453, -75.8621, 43.1101
8.40816, 40, -26.5738, -28.6802, 44.967, -144.402, -75.8126, 43.148
8.41648, 40, -26.554, -28.7505, 45.0209, -144.352, -75.7623, 43.1874
8.42369, 40, -26.534, -28.8205, 45.0746, -144.303, -75.7133, 43.2276
8.43231, 40, -26.5135, -28.8904, 45.1281, -144.252, -75.664, 43.2684
8.44059, 40, -26.493, -28.96, 45.1812, -144.202, -75.614, 43.3105
8.44707, 40, -26.4828, -28.9948, 45.2077, -144.178, -75.5895, 43.3322
8.4561, 40, -26.4515, -29.0986, 45.2868, -144.102, -75.5157, 43.3992
8.46319, 40, -26.4409, -29.1331, 45.3131, -144.078, -75.4907, 43.4218
8.47251, 41, -26.4089, -29.236, 45.3915, -144.004, -75.4172, 43.4911
8.47908, 41, -26.3982, -29.2702, 45.4175, -143.979, -75.3928, 43.515
8.48829, 41, -26.3656, -29.3723, 45.4951, -143.906, -75.3187, 43.5886
8.49507, 41, -26.3546, -29.4062, 45.5209, -143.882, -75.2944, 43.6133
8.50447, 41, -26.3214, -29.5076, 45.5979, -143.809, -75.2213, 43.6894
8.51107, 41, -26.3103, -29.5412, 45.6234, -143.785, -75.1966, 43.7157
8.52061, 41, -26.2763, -29.6417, 45.6993, -143.713, -75.1241, 43.7958
8.52888, 41, -26.2535, -29.7084, 45.7496, -143.664, -75.0757, 43.8503
8.53643, 41, -26.242, -29.7417, 45.7747, -143.641, -75.0512, 43.9066
8.54312, 41, -26.2188, -29.8079, 45.8244, -143.594, -75.0028, 43.9354
8.55118, 41, -26.1953, -29.8738, 45.874, -143.546, -74.9548, 43.9931
8.56069, 41, -26.1716, -29.9394, 45.948, -143.476, -74.8817, 44.0825
8.56952, 41, -26.1478, -30.0048, 45.9725, -143.452, -74.8577, 44.1441
8.57765, 42, -26.1116, -30.102, 46.0455, -143.382, -74.786, 44.206
8.58319, 42, -26.0993, -30.1343, 46.0697, -143.359, -74.7617, 44.2376
8.5921, 42, -26.0747, -30.1986, 46.1179, -143.313, -74.7137, 44.3024
8.59907, 42, -26.0497, -30.2627, 46.1656, -143.267, -74.6662, 44.3677
8.6081, 42, -26.0246, -30.3264, 46.2132, -143.22, -74.6176, 44.4344
8.61607, 42, -25.9993, -30.3898, 46.2605, -143.176, -74.5696, 44.503
8.62312, 42, -25.9737, -30.4529, 46.3074, -143.13, -74.5223, 44.5718
8.63126, 42, -25.9479, -30.5157, 46.3539, -143.085, -74.4741, 44.6426
8.64005, 42, -25.9219, -30.5781, 46.4002, -143.041, -74.4263, 44.7145
8.64705, 42, -25.8953, -30.6402, 46.4461, -142.996, -74.3791, 44.7872
8.65506, 42, -25.8685, -30.7019, 46.4915, -142.952, -74.3311, 44.8623
8.66406, 42, -25.8416, -30.7631, 46.5368, -142.908, -74.2834, 44.9377
8.67104, 43, -25.8143, -30.8241, 46.5818, -142.866, -74.2366, 45.0152
8.68006, 43, -25.7869, -30.8848, 46.6264, -142.822, -74.1891, 45.0939
8.68807, 43, -25.7593, -30.9452, 46.6706, -142.779, -74.1417, 45.1736
8.69705, 43, -25.7312, -31.0051, 46.7144, -142.737, -74.095, 45.2554
8.70505, 43, -25.7029, -31.0648, 46.7579, -142.695, -74.0477, 45.3375
8.71211, 43, -25.6744, -31.1242, 46.8011, -142.653, -74.0003, 45.4216
8.71906, 43, -25.6455, -31.1831, 46.8438, -142.612, -73.9539, 45.5063
8.7282, 43, -25.6163, -31.2415, 46.8863, -142.571, -73.9071, 45.593
8.73504, 43, -25.5868, -31.2996, 46.9285, -142.529, -73.8599, 45.6803
8.74327, 43, -25.557, -31.3571, 46.9702, -142.489, -73.8136, 45.7693
8.75108, 43, -25.527, -31.4142, 47.0115, -142.449, -73.767, 45.8593
8.75908, 43, -25.4967, -31.4709, 47.0524, -142.409, -73.7199, 45.9509
8.76805, 43, -25.4661, -31.5272, 47.0929, -142.37, -73.6738, 46.0437
8.77612, 44, -25.435, -31.5831, 47.133, -142.331, -73.6276, 46.138
8.7832, 44, -25.4034, -31.6386, 47.1726, -142.293, -73.5807, 46.2337
8.79163, 44, -25.3716, -31.6938, 47.2119, -142.255, -73.5348, 46.3311
8.80007, 44, -25.3396, -31.7487, 47.2507, -142.217, -73.4888, 46.4294
8.80812, 44, -25.3074, -31.803, 47.2892, -142.18, -73.4423, 46.5296
8.81563, 44, -25.2747, -31.857, 47.3272, -142.144, -73.3964, 46.6307
8.82421, 44, -25.2417, -31.9104, 47.3647, -142.107, -73.3511, 46.7336
8.83203, 44, -25.2084, -31.9633, 47.4019, -142.071, -73.305, 46.8373
8.84005, 44, -25.1748, -32.0157, 47.4387, -142.036, -73.2594, 46.9428
8.84756, 44, -25.1408, -32.0675, 47.4749, -142.001, -73.2143, 47.0495
8.85519, 44, -25.1065, -32.1188, 47.5107, -141.966, -73.1686, 47.158
8.86335, 44, -25.0717, -32.1696, 47.5462, -141.932, -73.123, 47.2679
8.87341, 45, -25.0367, -32.2199, 47.5811, -141.899, -73.0783, 47.3792
8.87949, 45, -25.0013, -32.2699, 47.6155, -141.867, -73.0332, 47.4922
8.88746, 45, -24.9654, -32.3192, 47.6495, -141.834, -72.988, 47.6062
8.89591, 45, -24.9291, -32.3683, 47.6828, -141.802, -72.9436, 47.7219
8.90362, 45, -24.8926, -32.4169, 47.7157, -141.77, -72.8991, 47.8391
8.91214, 45, -24.8558, -32.4649, 47.7482, -141.74, -72.8538, 47.9571
8.9198, 45, -24.8186, -32.5125, 47.7801, -141.71, -72.8096, 48.0768
8.92837, 45, -24.7808, -32.5594, 47.8114, -141.679, -72.7657, 48.198
8.93961, 45, -24.7428, -32.6058, 47.8424, -141.65, -72.721, 48.3826
8.94488, 45, -24.7045, -32.6516, 47.8729, -141.621, -72.6769, 48.4449
8.95215, 45, -24.6658, -32.6966, 47.9028, -141.593, -72.6334, 48.5707
8.95905, 45, -24.6462, -32.7188, 47.9175, -141.579, -72.6113, 48.6339
8.96892, 45, -24.5869, -32.785, 47.9611, -141.538, -72.545, 48.826
8.97618, 46, -24.5469, -32.8283, 47.9895, -141.512, -72.5021, 48.9559
8.9831, 46, -24.5268, -32.8497, 48.0034, -141.499, -72.4805, 49.0212
8.99337, 46, -24.4657, -32.9131, 48.0443, -141.461, -72.415, 49.2195
8.99906, 46, -24.4451, -32.934, 48.0577, -141.449, -72.3935, 49.2865
9.0084, 46, -24.383, -32.9958, 48.097, -141.414, -72.3294, 49.4897
9.01729, 46, -24.3411, -33.0363, 48.1225, -141.39, -72.286, 49.627
9.02326, 46, -24.3199, -33.0562, 48.135, -141.379, -72.2644, 49.6962
9.03121, 46, -24.2773, -33.0958, 48.1596, -141.356, -72.2222, 49.8358
9.04153, 46, -24.2127, -33.1539, 48.1956, -141.325, -72.1588, 50.0475
9.04705, 46, -24.1909, -33.1729, 48.2073, -141.315, -72.1373, 50.1188
9.05661, 46, -24.1471, -33.2104, 48.2412, -141.285, -72.0746, 50.3343
9.06542, 46, -24.1028, -33.2472, 48.2523, -141.275, -72.0538, 50.4798
9.07129, 47, -24.0581, -33.2833, 48.274, -141.256, -72.0118, 50.5532
9.08009, 47, -24.0128, -33.3187, 48.2951, -141.238, -71.9698, 50.7011
9.08803, 47, -23.9671, -33.3535, 48.3156, -141.22, -71.9289, 50.8503
9.09607, 47, -23.9211, -33.3876, 48.3352, -141.204, -71.8882, 51.0011
9.10403, 47, -23.8746, -33.4208, 48.3542, -141.189, -71.8468, 51.1534
9.11204, 47, -23.8276, -33.4534, 48.3727, -141.174, -71.806, 51.3066
9.12004, 47, -23.7801, -33.4853, 48.3904, -141.16, -71.766, 51.4616
9.12776, 47, -23.7324, -33.5166, 48.4077, -141.147, -71.7256, 51.6179
9.13603, 47, -23.6841, -33.547, 48.4244, -141.135, -71.6851, 51.7758
9.14405, 47, -23.6354, -33.5766, 48.4402, -141.123, -71.6455, 51.9352
9.15204, 47, -23.5863, -33.6055, 48.4553, -141.112, -71.6064, 52.0957
9.16011, 47, -23.5366, -33.6337, 48.4698, -141.102, -71.567, 52.2579
9.17002, 48, -23.4612, -33.6743, 48.49, -141.087, -71.5086, 52.5032
9.17603, 48, -23.4359, -33.6875, 48.4963, -141.083, -71.4895, 52.5858
9.18412, 48, -23.3848, -33.7131, 48.5085, -141.075, -71.4514, 52.752
9.19399, 48, -23.3074, -33.7503, 48.5257, -141.065, -71.3937, 53.0041
9.1991, 48, -23.2814, -33.7622, 48.531, -141.062, -71.3748, 53.0889
9.20809, 48, -23.229, -33.7854, 48.5413, -141.057, -71.3377, 53.2594
9.21604, 48, -23.1761, -33.8079, 48.5506, -141.053, -71.3008, 53.4313
9.22484, 48, -23.1228, -33.8293, 48.5592, -141.05, -71.2635, 53.6044
9.23104, 48, -23.0689, -33.85, 48.5673, -141.047, -71.2268, 53.7793
9.24011, 48, -23.0146, -33.87, 48.5745, -141.046, -71.1909, 53.9555
9.24706, 48, -22.9598, -33.8888, 48.5809, -141.045, -71.1551, 54.1332
9.25603, 48, -22.9045, -33.9067, 48.5866, -141.045, -71.1188, 54.3122
9.2641, 48, -22.8486, -33.924, 48.5916, -141.045, -71.0834, 54.4925
9.27112, 49, -22.7925, -33.9401, 48.5957, -141.046, -71.0488, 54.6738
9.27913, 49, -22.7357, -33.9551, 48.5988, -141.048, -71.0146, 54.8565
9.28719, 49, -22.6785, -33.9693, 48.6012, -141.051, -70.98, 55.0407
9.29524, 49, -22.6209, -33.9827, 48.6027, -141.056, -70.946, 55.2261
9.30325, 49, -22.5628, -33.9953, 48.6035, -141.061, -70.9128, 55.4129
9.31113, 49, -22.5042, -34.0065, 48.6039, -141.068, -70.8801, 55.601
9.32014, 49, -22.445, -34.0167, 48.6037, -141.075, -70.8473, 55.79
9.32801, 49, -22.3854, -34.026, 48.6028, -141.084, -70.8145, 55.9808
9.33603, 49, -22.3252, -34.0344, 48.6011, -141.094, -70.7829, 56.1728
9.34403, 49, -22.2647, -34.0419, 48.5986, -141.106, -70.7521, 56.3663
9.35113, 49, -22.2037, -34.0484, 48.5953, -141.118, -70.7216, 56.561
9.35923, 49, -22.142, -34.0539, 48.591, -141.132, -70.6911, 56.7568
9.3695, 50, -22.08, -34.0582, 48.5857, -141.146, -70.661, 56.9538
9.37603, 50, -22.0176, -34.0613, 48.5796, -141.161, -70.632, 57.1521
9.38415, 50, -21.9546, -34.0634, 48.5724, -141.177, -70.6035, 57.352
9.39156, 50, -21.8913, -34.0644, 48.5643, -141.194, -70.5755, 57.553
9.40103, 50, -21.8272, -34.0648, 48.5552, -141.212, -70.5473, 57.7553
9.40818, 50, -21.7626, -34.0644, 48.5453, -141.232, -70.5197, 57.9587
9.41574, 50, -21.6976, -34.063, 48.5346, -141.253, -70.493, 58.1632
9.42441, 50, -21.632, -34.0605, 48.5227, -141.275, -70.4672, 58.3694
9.43239, 50, -21.5661, -34.0569, 48.51, -141.297, -70.4422, 58.5767
9.44057, 50, -21.533, -34.0547, 48.5032, -141.32, -70.4173, 58.7851
9.44702, 50, -21.4664, -34.0494, 48.489, -141.332, -70.4049, 58.8897
9.45607, 50, -21.3658, -34.0388, 48.4658, -141.371, -70.3686, 59.205
9.46307, 50, -21.332, -34.0346, 48.4575, -141.384, -70.3569, 59.3106
9.47111, 51, -21.264, -34.0254, 48.4403, -141.412, -70.3343, 59.5229
9.48026, 51, -21.161, -34.0093, 48.4128, -141.455, -70.3017, 59.8435
9.48703, 51, -21.1265, -34.0033, 48.4031, -141.469, -70.2911, 59.951
9.49636, 51, -21.022, -33.9833, 48.3726, -141.516, -70.2599, 60.2748
9.50302, 51, -20.9869, -33.9759, 48.3619, -141.532, -70.2496, 60.3834
9.51324, 51, -20.8811, -33.9515, 48.3284, -141.582, -70.22, 60.711
9.51915, 51, -20.8456, -33.9428, 48.3168, -141.598, -70.2106, 60.8206
9.527, 51, -20.7744, -33.9247, 48.2927, -141.633, -70.1926, 61.0408
9.53654, 51, -20.6665, -33.8947, 48.2548, -141.688, -70.1674, 61.3728
9.54472, 51, -20.5941, -33.8732, 48.2283, -141.725, -70.1516, 61.5955
9.55257, 51, -20.5213, -33.8503, 48.2008, -141.764, -70.1364, 61.8194
9.56059, 51, -20.4847, -33.8383, 48.1721, -141.803, -70.1218, 62.0442
9.56867, 51, -20.4111, -33.8134, 48.1573, -141.824, -70.1077, 62.27
9.57502, 52, -20.3372, -33.7871, 48.1271, -141.865, -70.101, 62.3832
9.58407, 52, -20.2629, -33.7595, 48.096, -141.907, -70.0879, 62.6105
9.59304, 52, -20.1504, -33.7154, 48.0473, -141.973, -70.0703, 62.9537
9.59903, 52, -20.1127, -33.6999, 48.0305, -141.996, -70.0649, 63.0686
9.60709, 52, -20.0371, -33.6679, 47.9963, -142.041, -70.0548, 63.299
9.61766, 52, -19.9227, -33.6174, 47.9429, -142.111, -70.0416, 63.6457
9.62681, 52, -19.8459, -33.5818, 47.906, -142.159, -70.034, 63.8783
9.63206, 52, -19.8074, -33.5635, 47.8872, -142.184, -70.0306, 63.995
9.64003, 52, -19.73, -33.526, 47.8487, -142.233, -70.0244, 64.2288
9.64702, 52, -19.6525, -33.487, 47.8092, -142.284, -70.0191, 64.4635
9.65602, 52, -19.5745, -33.4466, 47.7687, -142.336, -70.0148, 64.6989
9.66415, 52, -19.4962, -33.4048, 47.727, -142.389, -70.0114, 64.9354
9.67207, 53, -19.4175, -33.3615, 47.6842, -142.443, -70.009, 65.1728
9.68001, 53, -19.3382, -33.3167, 47.6405, -142.497, -70.0075, 65.4108
9.69255, 53, -19.2186, -33.2467, 47.5728, -142.582, -70.0066, 65.7692
9.69504, 53, -19.1786, -33.2226, 47.5497, -142.61, -70.0066, 65.8891
9.70413, 53, -19.0982, -33.1733, 47.5028, -142.668, -70.0072, 66.1294
9.71201, 53, -19.0175, -33.1226, 47.4547, -142.727, -70.0086, 66.3706
9.72019, 53, -18.9365, -33.0703, 47.4056, -142.787, -70.0111, 66.6126
9.72795, 53, -18.8552, -33.0165, 47.3553, -142.848, -70.0148, 66.8551
9.73601, 53, -18.7736, -32.9613, 47.304, -142.909, -70.0195, 67.0986
9.74413, 53, -18.6916, -32.9044, 47.2516, -142.972, -70.0256, 67.3429
9.75104, 53, -18.6092, -32.846, 47.198, -143.036, -70.0329, 67.5877
9.75904, 53, -18.5264, -32.7861, 47.1434, -143.1, -70.0414, 67.8331
9.76799, 54, -18.4433, -32.7246, 47.0877, -143.166, -70.0513, 68.0787
9.776, 54, -18.3599, -32.6616, 47.0309, -143.232, -70.0625, 68.3253
9.78423, 54, -18.2763, -32.5969, 46.9731, -143.3, -70.075, 68.5723
9.79212, 54, -18.1924, -32.5308, 46.9142, -143.368, -70.0891, 68.8201
9.79912, 54, -18.1083, -32.4632, 46.8542, -143.437, -70.1048, 69.0683
9.80725, 54, -18.0238, -32.394, 46.7931, -143.507, -70.1218, 69.317
9.81509, 54, -17.939, -32.3231, 46.7309, -143.578, -70.1398, 69.5666
9.82406, 54, -17.8539, -32.2507, 46.6675, -143.65, -70.1587, 69.8167
9.83111, 54, -17.7686, -32.1767, 46.6031, -143.722, -70.1787, 70.0671
9.83995, 54, -17.683, -32.101, 46.5376, -143.795, -70.2, 70.3179
9.84803, 54, -17.5973, -32.0238, 46.4709, -143.87, -70.2228, 70.5692
9.85518, 54, -17.5113, -31.9449, 46.4034, -143.945, -70.2475, 70.8211
9.86629, 54, -17.4252, -31.8643, 46.3347, -144.02, -70.2734, 71.0733
9.87157, 55, -17.3389, -31.7822, 46.265, -144.097, -70.3003, 71.3258
9.88002, 55, -17.2523, -31.6985, 46.1942, -144.174, -70.3283, 71.5791
9.88842, 55, -17.1654, -31.6131, 46.1224, -144.252, -70.3577, 71.8328
9.89606, 55, -17.0784, -31.5262, 46.0494, -144.33, -70.3891, 72.0868
9.90363, 55, -16.991, -31.4377, 45.9753, -144.41, -70.4217, 72.3409
9.91266, 55, -16.9035, -31.3476, 45.9, -144.49, -70.4552, 72.5951
9.92011, 55, -16.8159, -31.2558, 45.8236, -144.571, -70.4898, 72.8499
9.92764, 55, -16.7283, -31.1624, 45.7463, -144.652, -70.5264, 73.1049
9.93618, 55, -16.6406, -31.0675, 45.6679, -144.734, -70.5647, 73.36
9.94354, 55, -16.5967, -31.0195, 45.6284, -144.775, -70.5842, 73.4876
9.95202, 55, -16.4647, -30.8728, 45.5082, -144.899, -70.6441, 73.8707
9.96029, 55, -16.3765, -30.7729, 45.4268, -144.983, -70.6865, 74.1266
9.96696, 56, -16.3324, -30.7224, 45.3856, -145.025, -70.7083, 74.2545
9.97608, 56, -16.1996, -30.5681, 45.2604, -145.152, -70.7744, 74.6383
9.983, 56, -16.1553, -30.5159, 45.2181, -145.194, -70.7973, 74.7663
9.99255, 56, -16.0223, -30.3569, 45.0899, -145.323, -70.8693, 75.1507
10.0004, 56, -15.9336, -30.2489, 45.0032, -145.409, -70.9182, 75.407
10.007, 56, -15.8893, -30.1944, 44.9595, -145.452, -70.9435, 75.5352
10.0164, 56, -15.7564, -30.0283, 44.827, -145.583, -71.0221, 75.9198
10.0245, 56, -15.6677, -29.9154, 44.7374, -145.67, -71.0754, 76.1766
10.0327, 56, -15.5787, -29.801, 44.6466, -145.758, -71.1314, 76.4333
10.0406, 56, -15.4896, -29.6849, 44.5547, -145.846, -71.1881, 76.6897
10.0486, 56, -15.4005, -29.5674, 44.4618, -145.935, -71.2465, 76.9459
10.0568, 56, -15.3113, -29.4485, 44.3681, -146.024, -71.3066, 77.202
10.0649, 56, -15.2223, -29.3278, 44.2736, -146.113, -71.3675, 77.4581
10.0732, 57, -15.1332, -29.2054, 44.1781, -146.202, -71.431, 77.7142
10.079, 57, -15.0887, -29.1437, 44.13, -146.247, -71.4629, 77.8421
10.0891, 57, -14.9554, -28.956, 43.9842, -146.382, -71.5614, 78.2256
10.095, 57, -14.9109, -28.8927, 43.935, -146.427, -71.595, 78.3535
10.1041, 57, -14.8219, -28.765, 43.8359, -146.517, -71.6626, 78.609
10.1133, 57, -14.6885, -28.5706, 43.6858, -146.652, -71.7682, 78.9918
10.1191, 57, -14.644, -28.5049, 43.6354, -146.697, -71.8039, 79.1191
10.128, 57, -14.5551, -28.3724, 43.5339, -146.788, -71.8773, 79.3738
10.136, 57, -14.4664, -28.2385, 43.4316, -146.879, -71.9512, 79.6285
10.1431, 57, -14.3778, -28.1032, 43.3281, -146.97, -72.0278, 79.8827
10.151, 57, -14.2893, -27.9666, 43.2237, -147.061, -72.105, 80.1365
10.16, 57, -14.2009, -27.8284, 43.1183, -147.152, -72.1844, 80.3901
10.1682, 58, -14.1124, -27.6887, 43.0122, -147.243, -72.2646, 80.6435
10.1754, 58, -14.0241, -27.5475, 42.9055, -147.334, -72.3469, 80.8966
10.183, 58, -13.9359, -27.405, 42.798, -147.425, -72.4304, 81.149
10.1921, 58, -13.8479, -27.2612, 42.6897, -147.516, -72.5153, 81.4009
10.2018, 58, -13.7601, -27.1158, 42.5804, -147.606, -72.602, 81.7781
10.208, 58, -13.6725, -26.9687, 42.4701, -147.697, -72.6901, 81.9036
10.216, 58, -13.5852, -26.8201, 42.3593, -147.788, -72.7798, 82.1541
10.2241, 58, -13.498, -26.6702, 42.2478, -147.879, -72.8711, 82.404
10.2321, 58, -13.4108, -26.5192, 42.1357, -147.969, -72.9641, 82.6535
10.24, 58, -13.3239, -26.3667, 42.0229, -148.059, -73.0583, 82.9025
10.2481, 58, -13.237, -26.2127, 41.9091, -148.15, -73.1541, 83.1508
10.256, 58, -13.1502, -26.0573, 41.7944, -148.239, -73.2513, 83.3984
10.2654, 59, -13.0638, -25.901, 41.6791, -148.329, -73.3497, 83.6452
10.2713, 59, -12.9776, -25.7438, 41.5633, -148.418, -73.4496, 83.8915
10.281, 59, -12.8917, -25.5851, 41.447, -148.507, -73.5511, 84.1374
10.288, 59, -12.8061, -25.4248, 41.3301, -148.596, -73.6539, 84.3824
10.2951, 59, -12.7207, -25.2633, 41.2124, -148.684, -73.7582, 84.6265
10.3041, 59, -12.6356, -25.101, 41.0939, -148.773, -73.8639, 84.8702
10.3121, 59, -12.5505, -24.9375, 40.9749, -148.86, -73.9709, 85.1133
10.32, 59, -12.4658, -24.7724, 40.8555, -148.948, -74.0797, 85.3555
10.328, 59, -12.3812, -24.6058, 40.7355, -149.035, -74.1897, 85.5968
10.3361, 59, -12.297, -24.4384, 40.615, -149.122, -74.301, 85.8371
10.3441, 59, -12.2129, -24.2703, 40.4937, -149.208, -74.4138, 86.0766
10.3511, 59, -12.1292, -24.1009, 40.3718, -149.293, -74.5277, 86.3154
10.36, 59, -12.0459, -23.9298, 40.2496, -149.378, -74.6432, 86.5529
10.3682, 60, -11.963, -23.7577, 40.127, -149.463, -74.76, 86.7895
10.376, 60, -11.8802, -23.5851, 40.0041, -149.547, -74.8778, 87.0253
10.3844, 60, -11.7977, -23.4115, 39.8807, -149.631, -74.9971, 87.2601
10.3914, 60, -11.7156, -23.2365, 39.7567, -149.714, -75.1173, 87.494
10.3996, 60, -11.6338, -23.0603, 39.6323, -149.796, -75.2389, 87.7269
10.4084, 60, -11.5523, -22.8837, 39.5075, -149.878, -75.3619, 87.9587
10.4155, 60, -11.4711, -22.7068, 39.3823, -149.959, -75.4859, 88.1893
10.4241, 60, -11.3903, -22.5287, 39.2569, -150.04, -75.6115, 88.4191
10.4316, 60, -11.3099, -22.3492, 39.1309, -150.12, -75.7378, 88.6479
10.4401, 60, -11.2299, -22.169, 39.0047, -150.2, -75.8654, 88.8756
10.4476, 60, -11.19, -22.0788, 38.9415, -150.239, -75.9939, 89.1019
10.4561, 60, -11.0708, -21.8066, 38.7514, -150.357, -76.1236, 89.3273
10.465, 60, -10.9918, -21.6234, 38.6245, -150.434, -76.2544, 89.5516
10.4761, 61, -10.874, -21.3476, 38.4337, -150.549, -76.4527, 89.8857
10.4801, 61, -10.8348, -21.2556, 38.3701, -150.587, -76.5192, 89.9963
10.487, 61, -10.7958, -21.1635, 38.3064, -150.624, -76.5859, 90.1066
10.4951, 61, -10.7181, -20.9781, 38.1788, -150.699, -76.7204, 90.326
10.5043, 61, -10.6026, -20.6983, 37.9871, -150.81, -76.9241, 90.6535
10.511, 61, -10.5643, -20.6051, 37.9231, -150.846, -76.9926, 90.7619
10.5204, 61, -10.45, -20.3245, 37.7307, -150.955, -77.1994, 91.0853
10.5285, 61, -10.374, -20.1359, 37.6024, -151.026, -77.3385, 91.2991
10.5375, 61, -10.2986, -19.9468, 37.4739, -151.097, -77.4785, 91.5115
10.5431, 61, -10.2611, -19.8523, 37.4096, -151.132, -77.5488, 91.6173
10.5526, 61, -10.149, -19.5683, 37.2168, -151.236, -77.7607, 91.9325
10.5634, 61, -10.1119, -19.3777, 37.0883, -151.304, -77.9032, 92.1408
10.5688, 62, -10.0382, -19.1865, 36.96, -151.371, -78.0462, 92.3475
10.5751, 62, -9.96466, -19.091, 36.8958, -151.404, -78.118, 92.4501
10.5859, 62, -9.85528, -18.8035, 36.7033, -151.503, -78.3345, 92.7559
10.592, 62, -9.81912, -18.7073, 36.6391, -151.535, -78.4071, 92.8573
10.6001, 62, -9.74705, -18.5146, 36.5107, -151.6, -78.5526, 93.0588
10.608, 62, -9.6754, -18.3222, 36.3823, -151.663, -78.6986, 93.2587
10.6151, 62, -9.60404, -18.1299, 36.2541, -151.725, -78.8455, 93.457
10.624, 62, -9.53306, -17.9367, 36.126, -151.787, -78.9929, 93.6537
10.632, 62, -9.46246, -17.7432, 35.998, -151.847, -79.1412, 93.8491
10.639, 62, -9.39237, -17.55, 35.8701, -151.907, -79.2899, 94.0429
10.648, 62, -9.32277, -17.3562, 35.7424, -151.966, -79.4393, 94.2351
10.656, 62, -9.25364, -17.1615, 35.6151, -152.024, -79.589, 94.4254
10.6639, 63, -9.18506, -16.9664, 35.4879, -152.081, -79.7395, 94.6138
10.671, 63, -9.1169, -16.7718, 35.361, -152.137, -79.8905, 94.8004
10.68, 63, -9.04916, -16.5771, 35.2343, -152.192, -80.0421, 94.9853
10.6883, 63, -8.98177, -16.3817, 35.1077, -152.246, -80.1942, 95.1688
10.695, 63, -8.91486, -16.1866, 34.9816, -152.299, -80.3466, 95.3501
10.704, 63, -8.84854, -15.992, 34.8557, -152.352, -80.4995, 95.5297
10.7138, 63, -8.78267, -15.797, 34.7301, -152.402, -80.6529, 95.7953
10.7191, 63, -8.71731, -15.6017, 34.6048, -152.453, -80.8065, 95.883
10.7271, 63, -8.65234, -15.407, 34.4798, -152.502, -80.9606, 96.0571
10.7361, 63, -8.5878, -15.2127, 34.3552, -152.55, -81.1149, 96.2293
10.744, 63, -8.52367, -15.0179, 34.231, -152.598, -81.2692, 96.3997
10.751, 63, -8.4599, -14.8228, 34.1073, -152.644, -81.4239, 96.568
10.7591, 63, -8.39674, -14.6281, 33.984, -152.689, -81.5789, 96.7344
10.768, 64, -8.33393, -14.4336, 33.8611, -152.734, -81.7341, 96.8984
10.776, 64, -8.27169, -14.2385, 33.7385, -152.777, -81.8893, 97.0603
10.784, 64, -8.20998, -14.0434, 33.6165, -152.819, -82.0446, 97.2204
10.7911, 64, -8.14866, -13.8495, 33.4948, -152.861, -82.2, 97.3787
10.8, 64, -8.08788, -13.6561, 33.3738, -152.902, -82.3558, 97.5348
10.808, 64, -8.02748, -13.4626, 33.2532, -152.941, -82.5114, 97.6888
10.8161, 64, -7.96756, -13.2696, 33.1329, -152.979, -82.6674, 97.8407
10.8231, 64, -7.90805, -13.0773, 33.0132, -153.017, -82.8235, 97.9904
10.831, 64, -7.84896, -12.885, 32.894, -153.054, -82.9795, 98.138
10.839, 64, -7.79038, -12.6925, 32.7754, -153.089, -83.1356, 98.2836
10.8471, 64, -7.73225, -12.5004, 32.6574, -153.124, -83.2918, 98.4271
10.8551, 64, -7.67453, -12.3092, 32.5399, -153.157, -83.448, 98.5683
10.8635, 65, -7.61732, -12.118, 32.4229, -153.19, -83.6041, 98.707
10.8712, 65, -7.56047, -11.9266, 32.3066, -153.222, -83.7604, 98.8435
10.8796, 65, -7.5042, -11.736, 32.1909, -153.252, -83.9163, 98.9776
10.888, 65, -7.44843, -11.5462, 32.076, -153.281, -84.0724, 99.1093
10.896, 65, -7.393, -11.3565, 31.9617, -153.31, -84.2283, 99.2386
10.9041, 65, -7.33804, -11.1668, 31.8478, -153.338, -84.384, 99.3656
10.9119, 65, -7.28356, -10.9781, 31.7345, -153.365, -84.5398, 99.4905
10.9205, 65, -7.22951, -10.7905, 31.6218, -153.39, -84.6953, 99.6129
10.9281, 65, -7.17591, -10.603, 31.5099, -153.415, -84.8507, 99.733
10.9364, 65, -7.12275, -10.4155, 31.3989, -153.438, -85.0059, 99.8506
10.9435, 65, -7.0963, -10.3222, 31.3436, -153.45, -85.161, 99.9655
10.952, 65, -7.01758, -10.0434, 31.1784, -153.484, -85.3158, 100.078
10.959, 65, -6.99158, -9.9506, 31.1236, -153.495, -85.3932, 100.133
10.967, 66, -6.93975, -9.76501, 31.0146, -153.515, -85.5476, 100.242
10.9763, 66, -6.86284, -9.48845, 30.8526, -153.544, -85.7789, 100.399
10.9867, 66, -6.81229, -9.30556, 30.7458, -153.562, -85.9326, 100.501
10.9909, 66, -6.78712, -9.21422, 30.6926, -153.57, -86.0095, 100.551
11.0003, 66, -6.71229, -8.94049, 30.5337, -153.595, -86.2396, 100.698
11.007, 66, -6.68758, -8.84972, 30.481, -153.602, -86.3162, 100.745
11.0151, 66, -6.63841, -8.66916, 30.3762, -153.618, -86.469, 100.838
11.023, 66, -6.58948, -8.48898, 30.2723, -153.632, -86.6216, 100.928
11.0325, 66, -6.5171, -8.21904, 30.1182, -153.652, -86.8499, 101.058
11.0406, 66, -6.46931, -8.04033, 30.0163, -153.664, -87.0019, 101.142
11.0486, 66, -6.42181, -7.86279, 29.915, -153.675, -87.1534, 101.222
11.0565, 66, -6.37483, -7.68549, 29.8141, -153.684, -87.3046, 101.299
11.0646, 67, -6.35154, -7.50856, 29.7141, -153.693, -87.4555, 101.374
11.0728, 67, -6.30515, -7.42052, 29.6646, -153.697, -87.531, 101.445
11.08, 67, -6.25908, -7.24562, 29.5661, -153.705, -87.6815, 101.48
11.09, 67, -6.19074, -6.98464, 29.42, -153.714, -87.9066, 101.58
11.096, 67, -6.16811, -6.89777, 29.3715, -153.717, -87.9815, 101.611
11.104, 67, -6.12316, -6.72457, 29.275, -153.722, -88.1309, 101.673
11.112, 67, -6.0786, -6.55275, 29.179, -153.726, -88.2798, 101.732
11.12, 67, -6.0345, -6.382, 29.084, -153.729, -88.4285, 101.788
11.128, 67, -5.9907, -6.2115, 28.99, -153.732, -88.5768, 101.841
11.1361, 67, -5.94741, -6.04149, 28.897, -153.733, -88.7247, 101.891
11.1429, 67, -5.90447, -5.87258, 28.8047, -153.734, -88.872, 101.938
11.152, 67, -5.86185, -5.70481, 28.713, -153.735, -89.019, 101.981
11.16, 67, -5.81942, -5.53738, 28.6219, -153.735, -89.1652, 102.022
11.168, 68, -5.77746, -5.3703, 28.5315, -153.735, -89.3112, 102.06
11.176, 68, -5.73579, -5.2043, 28.4419, -153.734, -89.4566, 102.094
11.1845, 68, -5.69442, -5.03981, 28.3534, -153.731, -89.6019, 102.125
11.191, 68, -5.65328, -4.87628, 28.2658, -153.728, -89.7465, 102.153
11.2, 68, -5.61261, -4.71315, 28.1787, -153.724, -89.891, 102.177
11.209, 68, -5.57243, -4.55099, 28.0924, -153.719, -90.0348, 102.198
11.2161, 68, -5.53244, -4.39007, 28.0067, -153.713, -90.1786, 102.217
11.224, 68, -5.49269, -4.23026, 27.9217, -153.706, -90.3218, 102.232
11.232, 68, -5.45337, -4.07095, 27.8376, -153.699, -90.4648, 102.244
11.24, 68, -5.41445, -3.91221, 27.7543, -153.691, -90.6073, 102.252
11.248, 68, -5.37573, -3.75432, 27.6718, -153.682, -90.7495, 102.258
11.2561, 68, -5.33729, -3.59769, 27.5902, -153.672, -90.8912, 102.26
11.263, 69, -5.2992, -3.44196, 27.5094, -153.661, -91.0327, 102.261
11.272, 69, -5.26148, -3.2867, 27.4292, -153.649, -91.1737, 102.26
11.2836, 69, -5.20533, -3.05545, 27.3104, -153.63, -91.3846, 102.25
11.2881, 69, -5.18672, -2.97892, 27.2711, -153.623, -91.4546, 102.244
11.2951, 69, -5.14969, -2.82676, 27.1931, -153.609, -91.5944, 102.23
11.3031, 69, -5.11301, -2.67545, 27.1158, -153.594, -91.7334, 102.212
11.3111, 69, -5.07663, -2.52489, 27.0393, -153.578, -91.8723, 102.191
11.3191, 69, -5.04033, -2.37527, 26.9636, -153.562, -92.0106, 102.166
11.327, 69, -5.00446, -2.22671, 26.8887, -153.546, -92.1486, 102.138
11.336, 69, -4.96884, -2.07929, 26.8145, -153.529, -92.2859, 102.105
11.344, 69, -4.93345, -1.93275, 26.741, -153.512, -92.423, 102.068
11.352, 69, -4.89818, -1.78679, 26.6682, -153.493, -92.5594, 102.028
11.3602, 69, -4.86307, -1.64173, 26.5961, -153.474, -92.6953, 101.984
11.3683, 70, -4.82834, -1.49765, 26.5248, -153.454, -92.8312, 101.937
11.3752, 70, -4.79387, -1.35463, 26.4542, -153.433, -92.9664, 101.885
11.3842, 70, -4.75966, -1.21253, 26.3845, -153.413, -93.1014, 101.83
11.3913, 70, -4.72553, -1.0711, 26.3154, -153.392, -93.2359, 101.771
11.3994, 70, -4.69168, -0.930638, 26.247, -153.37, -93.37, 101.708
11.4083, 70, -4.65815, -0.79124, 26.1794, -153.348, -93.5035, 101.642
11.4155, 70, -4.62477, -0.652998, 26.1124, -153.324, -93.6371, 101.573
11.4241, 70, -4.59157, -0.515877, 26.0461, -153.3, -93.77, 101.498
11.4324, 70, -4.5584, -0.379666, 25.9804, -153.277, -93.9027, 101.421
11.4396, 70, -4.52547, -0.244216, 25.9154, -153.253, -94.0348, 101.341
11.4481, 70, -4.49275, -0.109794, 25.851, -153.229, -94.1666, 101.256
11.4569, 70, -4.46017, 0.0236118, 25.7875, -153.203, -94.2981, 101.168
11.4676, 71, -4.42767, 0.155909, 25.7246, -153.177, -94.4292, 101.076
11.4721, 71, -4.39524, 0.287396, 25.6626, -153.151, -94.5599, 100.981
11.479, 71, -4.37912, 0.352875, 25.6318, -153.138, -94.625, 100.932
11.4881, 71, -4.33097, 0.547824, 25.5405, -153.098, -94.8198, 100.779
11.495, 71, -4.31498, 0.612379, 25.5103, -153.085, -94.8844, 100.726
11.5051, 71, -4.26713, 0.804385, 25.421, -153.043, -95.0781, 100.562
11.511, 71, -4.25122, 0.867799, 25.3916, -153.029, -95.1424, 100.506
11.5204, 71, -4.20375, 1.05655, 25.3042, -152.987, -95.3346, 100.331
11.527, 71, -4.18801, 1.119, 25.2754, -152.973, -95.3986, 100.271
11.5365, 71, -4.14101, 1.30485, 25.1898, -152.93, -95.5895, 100.086
11.5445, 71, -4.10963, 1.4274, 25.1337, -152.901, -95.7162, 99.9582
11.5525, 71, -4.07823, 1.54879, 25.0782, -152.871, -95.8423, 99.8266
11.5607, 71, -4.04702, 1.66899, 25.0234, -152.842, -95.9683, 99.6913
11.5685, 72, -4.03139, 1.72877, 24.9693, -152.812, -96.0932, 99.5524
11.5767, 72, -4.00025, 1.90666, 24.9159, -152.783, -96.2179, 99.4097
11.5831, 72, -3.96926, 1.96545, 24.8894, -152.768, -96.2802, 99.337
11.5909, 72, -3.9381, 2.0823, 24.8369, -152.737, -96.404, 99.1891
11.601, 72, -3.89149, 2.25551, 24.7594, -152.692, -96.5894, 98.9606
11.6079, 72, -3.87597, 2.31265, 24.7338, -152.677, -96.6506, 98.8826
