rpiRobotics/ARM-21-02-F-19-Robot-Motion-Program/data_performance_abb/curve_1/baseline/100L/realrobot/bisect/run_1realrobot_curve_exe_v150_z10.csv
timestamp, cmd_num, J1, J2, J3, J4, J5, J6
0.001014, -1, 11.3779, 13.614, 17.3393, -145.519, -97.923, 142.516
0.004942, -1, 11.3779, 13.614, 17.3393, -145.519, -97.923, 142.516
0.007876, -1, 11.3779, 13.614, 17.3393, -145.519, -97.923, 142.516
0.029727, -1, 11.3779, 13.614, 17.3393, -145.519, -97.9229, 142.516
0.033298, -1, 11.3779, 13.614, 17.3393, -145.519, -97.9229, 142.516
0.034751, -1, 11.3779, 13.614, 17.3393, -145.519, -97.9229, 142.516
0.039817, -1, 11.3779, 13.614, 17.3393, -145.519, -97.9229, 142.516
0.047685, -1, 11.3779, 13.614, 17.3393, -145.519, -97.923, 142.516
0.055665, -1, 11.3773, 13.614, 17.3393, -145.519, -97.923, 142.516
0.063662, -1, 11.3746, 13.6137, 17.3393, -145.519, -97.9229, 142.516
0.072658, -1, 11.3682, 13.6128, 17.339, -145.519, -97.9229, 142.516
0.079662, -1, 11.357, 13.6109, 17.3385, -145.52, -97.9228, 142.514
0.088656, -1, 11.3396, 13.6072, 17.3377, -145.521, -97.9226, 142.504
0.094676, -1, 11.3128, 13.601, 17.3368, -145.525, -97.9219, 142.482
0.104229, -1, 11.2745, 13.5916, 17.3362, -145.532, -97.9201, 142.441
0.111664, -1, 11.2244, 13.5791, 17.3363, -145.544, -97.9165, 142.375
0.119707, -1, 11.1628, 13.5634, 17.338, -145.561, -97.911, 142.279
0.128461, -1, 11.0896, 13.5441, 17.342, -145.584, -97.9032, 142.148
0.135658, -1, 11.0046, 13.521, 17.3484, -145.613, -97.893, 141.983
0.143674, -1, 10.9079, 13.4945, 17.357, -145.647, -97.8809, 141.785
0.152462, -1, 10.8004, 13.4647, 17.3675, -145.685, -97.8673, 141.56
0.159659, -1, 10.6819, 13.4319, 17.3787, -145.728, -97.8526, 141.313
0.167677, -1, 10.553, 13.3962, 17.3899, -145.772, -97.8372, 141.053
0.176514, -1, 10.4149, 13.3583, 17.4006, -145.818, -97.8214, 140.784
0.183656, -1, 10.2702, 13.3188, 17.4109, -145.866, -97.8052, 140.509
0.191657, -1, 10.1208, 13.2784, 17.421, -145.913, -97.7886, 140.233
0.200457, -1, 9.96839, 13.2374, 17.431, -145.96, -97.7717, 139.955
0.207675, -1, 9.81386, 13.1962, 17.441, -146.009, -97.7544, 139.676
0.215659, -1, 9.65837, 13.1548, 17.4511, -146.057, -97.7373, 139.396
0.224495, -1, 9.50324, 13.1136, 17.461, -146.104, -97.7203, 139.117
0.231658, -1, 9.34852, 13.0725, 17.4709, -146.153, -97.7036, 138.838
0.239764, -1, 9.19415, 13.0314, 17.4808, -146.201, -97.6869, 138.559
0.248974, -1, 9.04035, 12.9903, 17.4908, -146.248, -97.6702, 138.279
0.255717, -1, 8.88671, 12.9493, 17.5009, -146.297, -97.6533, 137.999
0.263791, -1, 8.73322, 12.9084, 17.5109, -146.345, -97.6361, 137.72
0.271916, -1, 8.58022, 12.8673, 17.521, -146.392, -97.6186, 137.44
0.279754, -1, 8.42745, 12.8261, 17.5312, -146.441, -97.6012, 137.16
0.287866, -1, 8.27444, 12.7849, 17.5413, -146.488, -97.5839, 136.88
0.295933, -1, 8.12093, 12.7434, 17.5515, -146.536, -97.5669, 136.6
0.303782, -1, 7.96703, 12.7019, 17.5617, -146.584, -97.5501, 136.32
0.31186, -1, 7.8125, 12.6603, 17.5717, -146.632, -97.5336, 136.04
0.320298, -1, 7.65759, 12.6187, 17.5819, -146.68, -97.5169, 135.76
0.326692, -1, 7.58007, 12.5979, 17.587, -146.704, -97.5085, 135.62
0.335814, -1, 7.34734, 12.5358, 17.6022, -146.776, -97.4829, 135.2
0.343788, -1, 7.19228, 12.4943, 17.6124, -146.824, -97.4655, 134.92
0.351792, -1, 7.03723, 12.453, 17.6227, -146.873, -97.4482, 134.64
0.360254, -1, 6.88202, 12.4118, 17.6329, -146.92, -97.4312, 134.36
0.367937, -1, 6.72714, 12.3706, 17.6433, -146.968, -97.4143, 134.079
0.37602, -1, 6.57258, 12.3294, 17.6537, -147.017, -97.3976, 133.799
0.38265, -1, 6.49534, 12.3088, 17.6588, -147.041, -97.3893, 133.659
0.392127, -1, 6.26391, 12.2469, 17.6743, -147.113, -97.3639, 133.238
0.398706, -1, 6.1868, 12.2262, 17.6794, -147.137, -97.3554, 133.098
0.408624, -1, 5.95518, 12.1641, 17.6947, -147.209, -97.3293, 132.677
0.416243, -1, 5.80056, 12.1226, 17.705, -147.257, -97.3116, 132.396
0.424292, -1, 5.64576, 12.081, 17.7152, -147.305, -97.2943, 132.116
0.432304, -1, 5.56825, 12.0602, 17.7203, -147.353, -97.2772, 131.835
0.440171, -1, 5.41304, 12.0186, 17.7305, -147.377, -97.2687, 131.694
0.447697, -1, 5.25765, 11.977, 17.7408, -147.426, -97.2518, 131.413
0.455708, -1, 5.10195, 11.9354, 17.7511, -147.474, -97.2351, 131.133
0.46366, -1, 4.94602, 11.8938, 17.7616, -147.521, -97.2183, 130.852
0.472805, -1, 4.71229, 11.8315, 17.7771, -147.594, -97.1925, 130.43
0.479664, -1, 4.63441, 11.8108, 17.7823, -147.618, -97.1838, 130.29
0.487647, -1, 4.47869, 11.7694, 17.7926, -147.666, -97.1663, 130.009
0.495732, -1, 4.32312, 11.7279, 17.8029, -147.715, -97.149, 129.728
0.50367, -1, 4.16787, 11.6866, 17.8134, -147.763, -97.132, 129.447
0.511649, -1, 4.013, 11.6452, 17.8236, -147.811, -97.1151, 129.166
0.519717, -1, 3.85857, 11.6038, 17.8339, -147.859, -97.0983, 128.885
0.527759, -1, 3.7042, 11.5623, 17.8442, -147.908, -97.0815, 128.604
0.535667, -1, 3.54974, 11.5207, 17.8544, -147.956, -97.0644, 128.322
0.545214, -1, 3.31771, 11.4583, 17.8701, -148.029, -97.0383, 127.9
0.551645, -1, 3.24021, 11.4375, 17.8753, -148.053, -97.0295, 127.76
0.559646, -1, 3.08501, 11.3958, 17.8857, -148.101, -97.0121, 127.478
0.568657, -1, 2.92967, 11.354, 17.8961, -148.149, -96.9949, 127.197
0.575705, -1, 2.77404, 11.3124, 17.9063, -148.198, -96.9781, 126.915
0.584649, -1, 2.61806, 11.2707, 17.9166, -148.245, -96.9613, 126.633
0.590637, -1, 2.46179, 11.2289, 17.9271, -148.294, -96.9446, 126.352
0.59964, -1, 2.30525, 11.1873, 17.9374, -148.342, -96.9277, 126.07
0.607643, -1, 2.14853, 11.1456, 17.9478, -148.39, -96.9106, 125.788
0.615706, -1, 1.99174, 11.1039, 17.9582, -148.439, -96.8933, 125.506
0.623698, -1, 1.83515, 11.0623, 17.9686, -148.488, -96.8758, 125.225
0.631711, -1, 1.67871, 11.0206, 17.979, -148.536, -96.8586, 124.943
0.639684, -1, 1.52256, 10.9789, 17.9895, -148.584, -96.8415, 124.661
0.776404, -1, -1.13008, 10.2691, 18.1658, -149.408, -96.5505, 119.857
0.777808, -1, -1.13008, 10.2691, 18.1658, -149.408, -96.5505, 119.857
0.782038, -1, -1.20863, 10.2482, 18.1709, -149.433, -96.5421, 119.716
0.784098, -1, -1.28711, 10.2273, 18.1761, -149.457, -96.5336, 119.574
0.785326, -1, -1.28711, 10.2273, 18.1761, -149.457, -96.5336, 119.574
0.787168, -1, -1.36553, 10.2064, 18.1812, -149.482, -96.5252, 119.432
0.788578, -1, -1.36553, 10.2064, 18.1812, -149.482, -96.5252, 119.432
0.795824, -1, -1.52212, 10.1646, 18.1916, -149.53, -96.5085, 119.149
0.935487, -1, -4.18509, 9.4526, 18.3684, -150.357, -96.2161, 114.326
0.937614, -1, -4.26396, 9.43166, 18.3735, -150.382, -96.2076, 114.184
0.938871, -1, -4.26396, 9.43166, 18.3735, -150.382, -96.2076, 114.184
0.941095, -1, -4.3428, 9.4107, 18.3787, -150.406, -96.1991, 114.041
0.942365, -1, -4.3428, 9.4107, 18.3787, -150.406, -96.1991, 114.041
0.943614, -1, -4.3428, 9.4107, 18.3787, -150.406, -96.1991, 114.041
0.945582, -1, -4.42151, 9.38971, 18.3838, -150.43, -96.1905, 113.899
0.950239, -1, -4.50012, 9.36876, 18.389, -150.455, -96.1818, 113.757
0.951523, -1, -4.50012, 9.36876, 18.389, -150.455, -96.1818, 113.757
0.953578, -1, -4.57863, 9.3478, 18.3942, -150.479, -96.173, 113.614
0.954763, -1, -4.57863, 9.3478, 18.3942, -150.479, -96.173, 113.614
0.956675, -1, -4.65704, 9.3268, 18.3994, -150.504, -96.1642, 113.472
0.958075, -1, -4.65704, 9.3268, 18.3994, -150.504, -96.1642, 113.472
0.959423, -1, -4.65704, 9.3268, 18.3994, -150.504, -96.1642, 113.472
0.961648, -1, -4.73533, 9.30581, 18.4045, -150.528, -96.1553, 113.33
0.965595, -1, -4.81352, 9.28482, 18.4097, -150.552, -96.1464, 113.188
0.966801, -1, -4.81352, 9.28482, 18.4097, -150.552, -96.1464, 113.188
0.968675, -1, -4.89168, 9.26381, 18.4149, -150.577, -96.1377, 113.045
0.970042, -1, -4.89168, 9.26381, 18.4149, -150.577, -96.1377, 113.045
0.971326, -1, -4.89168, 9.26381, 18.4149, -150.577, -96.1377, 113.045
0.973909, -1, -4.96977, 9.24278, 18.4202, -150.601, -96.129, 112.903
0.975096, -1, -4.96977, 9.24278, 18.4202, -150.601, -96.129, 112.903
0.978583, -1, -5.04779, 9.22178, 18.4255, -150.626, -96.1204, 112.76
0.980622, -1, -5.04779, 9.22178, 18.4255, -150.626, -96.1204, 112.618
0.982005, -1, -5.12574, 9.20079, 18.4307, -150.65, -96.1119, 112.618
0.983268, -1, -5.12574, 9.20079, 18.4307, -150.65, -96.1119, 112.618
0.985243, -1, -5.20366, 9.17978, 18.4359, -150.674, -96.1034, 112.476
0.986567, -1, -5.20366, 9.17978, 18.4359, -150.674, -96.1034, 112.476
0.987743, -1, -5.20366, 9.17978, 18.4359, -150.674, -96.1034, 112.476
0.989945, -1, -5.28165, 9.15874, 18.4412, -150.698, -96.0949, 112.334
0.992825, -1, -5.35969, 9.13768, 18.4464, -150.723, -96.0864, 112.191
0.994183, -1, -5.35969, 9.13768, 18.4464, -150.723, -96.0864, 112.191
0.995457, -1, -5.35969, 9.13768, 18.4464, -150.723, -96.0864, 112.191
0.998275, -1, -5.43774, 9.11659, 18.4517, -150.748, -96.078, 112.049
0.999489, -1, -5.43774, 9.11659, 18.4517, -150.748, -96.078, 112.049
1.00159, -1, -5.51584, 9.09553, 18.4568, -150.772, -96.0696, 111.907
1.00283, -1, -5.51584, 9.09553, 18.4568, -150.772, -96.0696, 111.907
1.00971, -1, -5.67217, 9.05349, 18.4672, -150.821, -96.0526, 111.622
1.01563, -1, -5.75052, 9.03243, 18.4724, -150.845, -96.044, 111.479
1.02366, -1, -5.90744, 8.99026, 18.4828, -150.894, -96.0266, 111.195
1.03167, -1, -6.06492, 8.94812, 18.493, -150.943, -96.009, 110.91
1.03965, -1, -6.22298, 8.90602, 18.5033, -150.992, -95.9915, 110.624
1.04764, -1, -6.38129, 8.86392, 18.5136, -151.041, -95.9743, 110.339
1.0558, -1, -6.53975, 8.82193, 18.5239, -151.09, -95.9573, 110.054
1.06365, -1, -6.69829, 8.77983, 18.5345, -151.139, -95.9402, 109.769
1.07164, -1, -6.85701, 8.73774, 18.545, -151.188, -95.9234, 109.483
1.07969, -1, -7.01548, 8.69573, 18.5555, -151.237, -95.9062, 109.198
1.08868, -1, -7.17398, 8.65365, 18.5659, -151.286, -95.8887, 108.912
1.0957, -1, -7.33229, 8.61155, 18.5762, -151.335, -95.871, 108.627
1.10366, -1, -7.49019, 8.56934, 18.5867, -151.384, -95.8533, 108.341
1.11163, -1, -7.64776, 8.52709, 18.5971, -151.433, -95.8358, 108.055
1.11971, -1, -7.805, 8.48489, 18.6076, -151.482, -95.8186, 107.77
1.12765, -1, -7.96185, 8.44265, 18.6179, -151.531, -95.8016, 107.484
1.13564, -1, -8.11853, 8.40032, 18.6283, -151.58, -95.7847, 107.198
1.14406, -1, -8.27516, 8.35803, 18.6388, -151.629, -95.7677, 106.912
1.15164, -1, -8.43189, 8.31569, 18.6493, -151.678, -95.7505, 106.626
1.15964, -1, -8.58886, 8.27335, 18.6598, -151.727, -95.733, 106.34
1.16842, -1, -8.74623, 8.2311, 18.6702, -151.777, -95.7153, 106.054
1.17562, -1, -8.90393, 8.18883, 18.6806, -151.825, -95.6977, 105.767
1.18363, -1, -9.06207, 8.14654, 18.691, -151.874, -95.6804, 105.481
1.19243, -1, -9.2207, 8.10434, 18.7014, -151.924, -95.6632, 105.195
1.19963, -1, -9.37961, 8.06211, 18.7118, -151.973, -95.6461, 104.908
1.20766, -1, -9.53872, 8.01984, 18.7222, -152.022, -95.629, 104.622
1.21642, -1, -9.69795, 7.9777, 18.7326, -152.072, -95.6117, 104.335
1.22362, -1, -9.85718, 7.93555, 18.7431, -152.12, -95.5941, 104.048
1.23175, -1, -10.0165, 7.89327, 18.7537, -152.17, -95.5762, 103.761
1.24043, -1, -10.1758, 7.85093, 18.7642, -152.219, -95.5583, 103.474
1.24762, -1, -10.3348, 7.80851, 18.7747, -152.268, -95.5408, 103.188
1.25584, -1, -10.4935, 7.76605, 18.7852, -152.318, -95.5236, 102.9
1.26449, -1, -10.652, 7.72366, 18.7956, -152.367, -95.5065, 102.614
1.27169, -1, -10.8101, 7.6812, 18.806, -152.416, -95.4896, 102.327
1.28021, -1, -10.9679, 7.63868, 18.8165, -152.465, -95.4725, 102.04
1.28851, -1, -11.1254, 7.59621, 18.8268, -152.515, -95.4551, 101.752
1.29576, -1, -11.2827, 7.55379, 18.8373, -152.564, -95.4374, 101.465
1.30421, -1, -11.4402, 7.51134, 18.8477, -152.614, -95.4196, 101.178
1.31119, -1, -11.5191, 7.49009, 18.8529, -152.663, -95.402, 100.89
1.3192, -1, -11.6768, 7.44769, 18.8635, -152.687, -95.3847, 100.602
1.32871, -1, -11.9143, 7.38414, 18.8793, -152.761, -95.3675, 100.315
1.33651, -1, -12.073, 7.3418, 18.8899, -152.811, -95.3503, 100.027
1.34368, -1, -12.2323, 7.29942, 18.9004, -152.86, -95.3331, 99.7393
1.35257, -1, -12.3918, 7.25705, 18.9108, -152.91, -95.3157, 99.4514
1.36116, -1, -12.5517, 7.21466, 18.9214, -152.959, -95.2979, 99.1635
1.36786, -1, -12.7117, 7.17228, 18.9319, -153.008, -95.2799, 98.8757
1.37627, -1, -12.8718, 7.12989, 18.9424, -153.058, -95.2621, 98.5878
1.38559, -1, -13.0318, 7.08736, 18.953, -153.108, -95.2445, 98.2997
1.39217, -1, -13.1917, 7.04478, 18.9635, -153.157, -95.2272, 98.0117
1.40022, -1, -13.3513, 7.00222, 18.974, -153.207, -95.2101, 97.7236
1.40965, -1, -13.5107, 6.95956, 18.9846, -153.256, -95.1931, 97.4352
1.4162, -1, -13.6699, 6.91683, 18.9951, -153.305, -95.1759, 97.1466
1.42455, -1, -13.8289, 6.87417, 19.0057, -153.355, -95.1584, 96.8582
1.43373, -1, -13.9874, 6.8315, 19.0161, -153.404, -95.1407, 96.5697
1.44033, -1, -14.1456, 6.78882, 19.0266, -153.453, -95.1229, 96.2809
1.44761, -1, -14.2247, 6.76753, 19.0318, -153.478, -95.114, 96.1364
1.45563, -1, -14.383, 6.72487, 19.0423, -153.528, -95.0967, 95.8474
1.46369, -1, -14.5413, 6.68221, 19.0527, -153.577, -95.0795, 95.5586
1.47161, -1, -14.6999, 6.63965, 19.0633, -153.627, -95.0623, 95.2694
1.47966, -1, -14.859, 6.59713, 19.0737, -153.676, -95.0452, 94.98
1.48767, -1, -15.0184, 6.55449, 19.0844, -153.726, -95.0278, 94.691
1.49562, -1, -15.1782, 6.5119, 19.0951, -153.776, -95.0101, 94.4019
1.50362, -1, -15.3383, 6.46935, 19.1057, -153.825, -94.9921, 94.1129
1.51165, -1, -15.4987, 6.42673, 19.1163, -153.875, -94.9742, 93.8235
1.51967, -1, -15.6595, 6.38405, 19.1268, -153.925, -94.9565, 93.5343
1.52762, -1, -15.8203, 6.34137, 19.1373, -153.974, -94.9392, 93.2451
1.53562, -1, -15.981, 6.29855, 19.148, -154.024, -94.922, 92.9556
1.54363, -1, -16.1417, 6.25572, 19.1585, -154.074, -94.9049, 92.6658
1.55167, -1, -16.3024, 6.2129, 19.169, -154.123, -94.8876, 92.3764
1.55966, -1, -16.4629, 6.16994, 19.1794, -154.173, -94.8701, 92.0868
1.56761, -1, -16.623, 6.12697, 19.1899, -154.222, -94.8524, 91.7968
1.5766, -1, -16.7828, 6.08409, 19.2005, -154.272, -94.8344, 91.5067
1.58361, -1, -16.9423, 6.04114, 19.2111, -154.322, -94.8168, 91.2167
1.59261, -1, -17.1015, 5.9982, 19.2217, -154.372, -94.7992, 90.9266
1.59974, -1, -17.2606, 5.95532, 19.2323, -154.421, -94.7818, 90.6364
1.60761, -1, -17.4197, 5.91251, 19.2429, -154.471, -94.7645, 90.3462
1.61558, -1, -17.5791, 5.86975, 19.2535, -154.521, -94.7471, 90.0559
1.62367, -1, -17.7385, 5.82703, 19.2642, -154.57, -94.7295, 89.7657
1.63165, -1, -17.8981, 5.78429, 19.2748, -154.621, -94.7117, 89.4753
1.63966, -1, -18.0582, 5.74153, 19.2855, -154.67, -94.6935, 89.1849
1.64767, -1, -18.2188, 5.6988, 19.296, -154.72, -94.6756, 88.8945
1.65562, -1, -18.3797, 5.65605, 19.3067, -154.77, -94.6579, 88.6039
1.66363, -1, -18.5411, 5.61314, 19.3174, -154.82, -94.6405, 88.3129
1.67166, -1, -18.7026, 5.57017, 19.328, -154.87, -94.6232, 88.0222
1.67966, -1, -18.8642, 5.52722, 19.3387, -154.92, -94.606, 87.7312
1.68773, -1, -19.0258, 5.48423, 19.3492, -154.97, -94.5885, 87.4401
1.69562, -1, -19.1873, 5.44108, 19.3597, -155.02, -94.5706, 87.1487
1.70361, -1, -19.3487, 5.398, 19.3703, -155.07, -94.5525, 86.8575
1.7117, -1, -19.5099, 5.35489, 19.3809, -155.12, -94.5346, 86.5661
1.71966, -1, -19.6707, 5.31166, 19.3914, -155.169, -94.5169, 86.2745
1.72767, -1, -19.8313, 5.26862, 19.402, -155.22, -94.4993, 85.9829
1.73561, -1, -19.9917, 5.22552, 19.4126, -155.27, -94.4819, 85.6914
1.7436, -1, -20.1517, 5.18242, 19.4234, -155.32, -94.4646, 85.4001
1.75174, -1, -20.3115, 5.13951, 19.4342, -155.37, -94.4471, 85.1084
1.75966, -1, -20.4716, 5.09659, 19.445, -155.42, -94.4293, 84.8166
1.76776, -1, -20.6317, 5.05359, 19.4557, -155.47, -94.4113, 84.525
1.77593, -1, -20.792, 5.01067, 19.4663, -155.52, -94.3933, 84.2331
1.78368, -1, -20.9528, 4.96781, 19.4769, -155.57, -94.3755, 83.9411
1.79172, -1, -21.1139, 4.92477, 19.4876, -155.62, -94.3581, 83.6489
1.80019, -1, -21.2754, 4.88176, 19.4981, -155.671, -94.3409, 83.3571
1.80771, -1, -21.4374, 4.83865, 19.5087, -155.721, -94.3237, 83.0648
1.81571, -1, -21.5995, 4.79542, 19.5194, -155.771, -94.3063, 82.7724
1.82435, -1, -21.7618, 4.75227, 19.5301, -155.822, -94.2887, 82.4798
1.83165, -1, -21.9242, 4.70899, 19.5408, -155.871, -94.2708, 82.1873
1.83969, -1, -22.0866, 4.66565, 19.5516, -155.922, -94.2529, 81.8947
1.84851, -1, -22.249, 4.62235, 19.5623, -155.972, -94.2351, 81.6019
1.85571, -1, -22.4114, 4.57901, 19.5729, -156.022, -94.2175, 81.3093
1.86381, -1, -22.5732, 4.53567, 19.5836, -156.073, -94.2002, 81.0167
1.87274, -1, -22.7348, 4.49232, 19.5942, -156.123, -94.1827, 80.7239
1.87998, -1, -22.8961, 4.449, 19.6049, -156.173, -94.1652, 80.4308
1.88806, -1, -23.0572, 4.40578, 19.6156, -156.223, -94.1474, 80.138
1.89459, -1, -23.1377, 4.38418, 19.6209, -156.248, -94.1384, 79.9915
1.90268, -1, -23.2986, 4.34093, 19.6316, -156.299, -94.1202, 79.6983
1.91219, -1, -23.54, 4.27613, 19.6479, -156.374, -94.093, 79.2582
1.92102, -1, -23.7011, 4.23293, 19.6586, -156.425, -94.0752, 78.965
1.9282, -1, -23.8624, 4.18975, 19.6694, -156.475, -94.0576, 78.6716
1.93623, -1, -24.0239, 4.14647, 19.68, -156.526, -94.0403, 78.3779
1.94501, -1, -24.1048, 4.12481, 19.6853, -156.551, -94.0316, 78.084
1.9516, -1, -24.2671, 4.08148, 19.6961, -156.601, -94.0141, 77.9371
1.96033, -1, -24.4298, 4.03811, 19.7068, -156.652, -93.9963, 77.4962
1.96764, -1, -24.5927, 3.99466, 19.7173, -156.702, -93.9782, 77.349
1.97465, -1, -24.756, 3.95112, 19.728, -156.752, -93.96, 77.0549
1.98364, -1, -24.9193, 3.90762, 19.7386, -156.803, -93.9421, 76.761
1.99161, -1, -25.0826, 3.86409, 19.7494, -156.853, -93.9244, 76.467
1.9997, -1, -25.2458, 3.8205, 19.7602, -156.903, -93.907, 76.1727
2.00759, -1, -25.4087, 3.77695, 19.771, -156.954, -93.8895, 75.8784
2.0156, -1, -25.5714, 3.73333, 19.7818, -157.004, -93.8718, 75.5842
2.02365, -1, -25.734, 3.68974, 19.7924, -157.055, -93.8539, 75.2896
2.03161, -1, -25.8964, 3.64632, 19.8031, -157.105, -93.8356, 74.995
2.03966, -1, -26.0585, 3.60286, 19.8139, -157.155, -93.8172, 74.7005
2.04768, -1, -26.2203, 3.55942, 19.8246, -157.206, -93.799, 74.4059
2.05559, -1, -26.3819, 3.5161, 19.8353, -157.257, -93.7811, 74.1111
2.06362, -1, -26.5436, 3.4727, 19.846, -157.307, -93.7635, 73.8159
2.07165, -1, -26.7055, 3.42928, 19.8567, -157.358, -93.7459, 73.521
2.08065, -1, -26.8678, 3.38586, 19.8676, -157.409, -93.7282, 73.226
2.09094, -1, -27.112, 3.32055, 19.8838, -157.485, -93.7012, 72.783
2.09559, -1, -27.1935, 3.29878, 19.8892, -157.51, -93.6921, 72.6354
2.10363, -1, -27.3567, 3.25521, 19.8999, -157.561, -93.6738, 72.3403
2.11165, -1, -27.5205, 3.21149, 19.9106, -157.611, -93.6557, 72.045
2.11964, -1, -27.6844, 3.16778, 19.9214, -157.662, -93.6379, 71.7495
2.12759, -1, -27.8485, 3.12413, 19.9322, -157.712, -93.6202, 71.4537
2.13568, -1, -28.0126, 3.08042, 19.943, -157.763, -93.6026, 71.1583
2.1436, -1, -28.1766, 3.03671, 19.9538, -157.814, -93.5848, 70.8625
2.1516, -1, -28.3408, 2.99295, 19.9645, -157.865, -93.5668, 70.5666
2.15972, -1, -28.5047, 2.94924, 19.9753, -157.915, -93.5486, 70.2707
2.16759, -1, -28.6683, 2.90559, 19.9862, -157.966, -93.5301, 69.975
2.17559, -1, -28.8316, 2.86193, 19.997, -158.017, -93.5119, 69.6788
2.18366, -1, -28.9946, 2.81828, 20.0078, -158.068, -93.494, 69.3823
2.19159, -1, -29.1572, 2.77467, 20.0185, -158.119, -93.4763, 69.0859
2.19966, -1, -29.32, 2.73104, 20.0293, -158.169, -93.4586, 68.7893
2.20765, -1, -29.4828, 2.68744, 20.0401, -158.221, -93.441, 68.4927
2.21561, -1, -29.6457, 2.64373, 20.0508, -158.272, -93.4231, 68.1958
2.2236, -1, -29.8088, 2.59997, 20.0616, -158.322, -93.4049, 67.8993
2.23165, -1, -29.972, 2.55623, 20.0724, -158.373, -93.3865, 67.6027
2.23964, -1, -30.1354, 2.51241, 20.0832, -158.424, -93.3683, 67.3056
2.24763, -1, -30.2992, 2.46844, 20.0942, -158.475, -93.3503, 67.0086
2.25562, -1, -30.4636, 2.42452, 20.1051, -158.526, -93.3326, 66.7117
2.26359, -1, -30.6283, 2.38058, 20.1159, -158.577, -93.3149, 66.4146
2.27171, -1, -30.7934, 2.33661, 20.1267, -158.628, -93.2972, 66.1172
2.27973, -1, -30.9584, 2.29272, 20.1375, -158.679, -93.2792, 65.82
2.28768, -1, -31.1234, 2.24869, 20.1484, -158.73, -93.2609, 65.5228
2.29575, -1, -31.2882, 2.20473, 20.1592, -158.781, -93.2424, 65.2255
2.30373, -1, -31.4529, 2.16092, 20.1699, -158.832, -93.224, 64.9278
2.31169, -1, -31.6175, 2.11695, 20.1806, -158.883, -93.206, 64.6302
2.31982, -1, -31.7819, 2.07298, 20.1915, -158.935, -93.1883, 64.3324
2.32761, -1, -31.946, 2.02914, 20.2024, -158.986, -93.1706, 64.0344
2.33562, -1, -32.1099, 1.9852, 20.2134, -159.037, -93.1529, 63.7365
2.34392, -1, -32.2736, 1.94129, 20.2244, -159.088, -93.1351, 63.4387
2.35167, -1, -32.4372, 1.89736, 20.2353, -159.139, -93.117, 63.1408
2.35982, -1, -32.6009, 1.85328, 20.2462, -159.19, -93.0985, 62.8425
2.36789, -1, -32.7648, 1.80924, 20.2571, -159.242, -93.0803, 62.5442
2.37587, -1, -32.9288, 1.76517, 20.268, -159.293, -93.0622, 62.246
2.38391, -1, -33.0931, 1.721, 20.2789, -159.344, -93.0444, 61.9476
2.39237, -1, -33.258, 1.67677, 20.2898, -159.395, -93.0266, 61.6489
2.40013, -1, -33.4232, 1.6326, 20.3006, -159.446, -93.0087, 61.3503
2.40808, -1, -33.5887, 1.5884, 20.3116, -159.498, -92.9907, 61.0518
2.41619, -1, -33.7544, 1.54421, 20.3225, -159.549, -92.9723, 60.7531
2.42418, -1, -33.9201, 1.50006, 20.3334, -159.6, -92.9535, 60.454
2.43217, -1, -34.0859, 1.45591, 20.3443, -159.652, -92.935, 60.1551
2.44044, -1, -34.2518, 1.41184, 20.3552, -159.703, -92.9167, 59.8559
2.44812, -1, -34.3347, 1.38978, 20.3606, -159.729, -92.9077, 59.7062
2.45559, -1, -34.5005, 1.3456, 20.3716, -159.78, -92.8899, 59.4066
2.46362, -1, -34.6662, 1.30148, 20.3825, -159.832, -92.8721, 59.1074
2.47161, -1, -34.8313, 1.25737, 20.3934, -159.883, -92.8543, 58.8081
2.47969, -1, -34.9962, 1.21323, 20.4042, -159.934, -92.8362, 58.5086
2.48756, -1, -35.1609, 1.16906, 20.4152, -159.986, -92.8177, 58.2088
2.49565, -1, -35.3255, 1.12481, 20.4263, -160.037, -92.7991, 57.9092
2.50363, -1, -35.4896, 1.08068, 20.4374, -160.089, -92.7808, 57.6095
2.51157, -1, -35.6522, 1.0369, 20.4486, -160.14, -92.7627, 57.3097
2.51964, -1, -35.8122, 0.993642, 20.46, -160.191, -92.7449, 57.011
2.52763, -1, -35.9683, 0.951452, 20.4717, -160.242, -92.7271, 56.7154
2.53559, -1, -36.1195, 0.910819, 20.4836, -160.291, -92.7097, 56.4254
2.54358, -1, -36.2633, 0.872357, 20.4956, -160.339, -92.6925, 56.1452
2.55166, -1, -36.3975, 0.836691, 20.5072, -160.384, -92.676, 55.8805
2.55964, -1, -36.5206, 0.804169, 20.5178, -160.425, -92.6606, 55.6383
2.56757, -1, -36.6311, 0.774912, 20.5271, -160.461, -92.6472, 55.4234
2.57564, -1, -36.7272, 0.749518, 20.5347, -160.492, -92.6359, 55.2413
2.58357, -1, -36.8086, 0.727863, 20.54, -160.517, -92.627, 55.0943
2.59256, -1, -36.8763, 0.709924, 20.5431, -160.537, -92.6203, 54.9821
2.59969, -1, -36.9308, 0.695558, 20.5445, -160.551, -92.6156, 54.9021
2.60861, -1, -36.9727, 0.684524, 20.5449, -160.56, -92.6126, 54.8477
2.6156, -1, -37.0034, 0.676423, 20.5446, -160.566, -92.6108, 54.8144
2.62364, -1, -37.0247, 0.670836, 20.5441, -160.569, -92.6098, 54.7952
2.63157, -1, -37.0381, 0.667486, 20.5436, -160.571, -92.6094, 54.7855
2.63965, 2, -37.0455, 0.665697, 20.5434, -160.572, -92.6091, 54.7807
2.64763, 2, -37.0485, 0.664856, 20.5433, -160.572, -92.609, 54.7786
2.65557, 2, -37.0487, 0.664507, 20.5433, -160.573, -92.6089, 54.7776
2.66359, 2, -37.0482, 0.664359, 20.5433, -160.573, -92.6089, 54.7772
2.67163, 2, -37.048, 0.664303, 20.5433, -160.573, -92.6089, 54.777
2.67964, 2, -37.0483, 0.664247, 20.5433, -160.573, -92.609, 54.777
2.68757, 2, -37.0493, 0.664191, 20.5432, -160.573, -92.609, 54.777
2.69564, 2, -37.0503, 0.66409, 20.543, -160.573, -92.609, 54.7772
2.70359, 2, -37.0516, 0.663868, 20.5428, -160.573, -92.6091, 54.7774
2.71157, 2, -37.0529, 0.663602, 20.5427, -160.573, -92.6091, 54.7776
2.71972, 2, -37.0541, 0.663356, 20.5425, -160.573, -92.6092, 54.7778
2.72757, 2, -37.0551, 0.663153, 20.5423, -160.573, -92.6092, 54.778
2.73557, 2, -37.0555, 0.663039, 20.5421, -160.573, -92.6092, 54.7783
2.74364, 2, -37.0555, 0.663017, 20.542, -160.573, -92.6092, 54.7785
2.75159, 2, -37.0549, 0.663033, 20.5418, -160.573, -92.6093, 54.7787
2.75964, 2, -37.054, 0.663083, 20.5417, -160.573, -92.6094, 54.7789
2.76768, 2, -37.0529, 0.663128, 20.5417, -160.573, -92.6094, 54.7792
2.77564, 2, -37.0513, 0.663244, 20.5416, -160.573, -92.6094, 54.7795
2.78365, 2, -37.0499, 0.663355, 20.5416, -160.573, -92.6094, 54.7797
2.79173, 2, -37.0488, 0.663414, 20.5415, -160.573, -92.6095, 54.7799
2.79973, 2, -37.048, 0.66343, 20.5415, -160.573, -92.6095, 54.78
2.8077, 2, -37.0477, 0.663412, 20.5415, -160.573, -92.6095, 54.7801
2.81574, 2, -37.0478, 0.663365, 20.5415, -160.573, -92.6095, 54.78
2.82364, 2, -37.048, 0.663296, 20.5414, -160.573, -92.6095, 54.7801
2.8316, 2, -37.0482, 0.663254, 20.5414, -160.573, -92.6094, 54.7801
2.83978, 2, -37.0487, 0.663208, 20.5414, -160.573, -92.6095, 54.7802
2.84792, 2, -37.0495, 0.663168, 20.5414, -160.573, -92.6095, 54.7803
2.85565, 2, -37.0504, 0.663157, 20.5413, -160.573, -92.6095, 54.7802
2.86376, 2, -37.0511, 0.66317, 20.5413, -160.573, -92.6095, 54.7802
2.8721, 2, -37.0516, 0.663206, 20.5413, -160.573, -92.6095, 54.7803
2.87989, 2, -37.0518, 0.663223, 20.5413, -160.573, -92.6095, 54.7804
2.88802, 2, -37.0519, 0.663251, 20.5413, -160.573, -92.6096, 54.7804
2.89459, 2, -37.0519, 0.663261, 20.5413, -160.573, -92.6096, 54.7804
2.90403, 2, -37.0515, 0.663264, 20.5413, -160.573, -92.6096, 54.7804
2.91055, 2, -37.0512, 0.663263, 20.5413, -160.573, -92.6096, 54.7804
2.92057, 2, -37.0507, 0.663245, 20.5413, -160.573, -92.6096, 54.7806
2.92811, 2, -37.0504, 0.663241, 20.5413, -160.573, -92.6096, 54.7806
2.93619, 2, -37.0503, 0.663221, 20.5413, -160.572, -92.6096, 54.7806
2.94446, 2, -37.0502, 0.663212, 20.5413, -160.572, -92.6096, 54.7807
2.95214, 2, -37.0501, 0.663209, 20.5413, -160.572, -92.6096, 54.7808
2.96027, 2, -37.0501, 0.663186, 20.5413, -160.572, -92.6096, 54.7808
2.96845, 2, -37.0502, 0.663185, 20.5412, -160.572, -92.6096, 54.7809
2.97559, 2, -37.0503, 0.663188, 20.5412, -160.572, -92.6096, 54.7809
2.9836, 2, -37.0504, 0.663215, 20.5412, -160.572, -92.6096, 54.781
2.99155, 2, -37.0506, 0.663227, 20.5412, -160.572, -92.6096, 54.781
2.99964, 2, -37.0508, 0.66324, 20.5412, -160.572, -92.6097, 54.781
3.0076, 2, -37.0509, 0.663244, 20.5412, -160.572, -92.6096, 54.7811
3.01557, 2, -37.051, 0.663248, 20.5412, -160.572, -92.6097, 54.7811
3.02356, 2, -37.0509, 0.663247, 20.5412, -160.572, -92.6097, 54.7812
3.03161, 2, -37.0509, 0.663242, 20.5412, -160.572, -92.6097, 54.7812
3.03963, 2, -37.0509, 0.66324, 20.5412, -160.572, -92.6097, 54.7812
3.04755, 2, -37.0508, 0.663228, 20.5412, -160.572, -92.6097, 54.7813
3.05564, 2, -37.0508, 0.663226, 20.5411, -160.572, -92.6097, 54.7813
3.06355, 2, -37.0508, 0.663203, 20.5411, -160.572, -92.6097, 54.7813
3.07155, 2, -37.0507, 0.663196, 20.5411, -160.572, -92.6097, 54.7814
3.0797, 2, -37.0507, 0.6632, 20.5411, -160.572, -92.6097, 54.7814
3.08755, 2, -37.0507, 0.66322, 20.5411, -160.572, -92.6097, 54.7815
3.09556, 2, -37.0507, 0.66323, 20.5411, -160.572, -92.6097, 54.7815
3.10362, 2, -37.0507, 0.663234, 20.5411, -160.572, -92.6097, 54.7816
3.11157, 2, -37.0507, 0.663248, 20.5411, -160.572, -92.6098, 54.7816
3.11962, 2, -37.0507, 0.66325, 20.5411, -160.572, -92.6098, 54.7816
3.12762, 2, -37.0506, 0.66326, 20.5411, -160.572, -92.6098, 54.7816
3.13555, 2, -37.0507, 0.663248, 20.5411, -160.572, -92.6098, 54.7817
3.14359, 2, -37.0507, 0.663242, 20.5411, -160.572, -92.6098, 54.7817
3.15163, 2, -37.0506, 0.66324, 20.5411, -160.572, -92.6098, 54.7817
3.15962, 2, -37.0506, 0.663239, 20.5411, -160.572, -92.6098, 54.7817
3.16757, 2, -37.0506, 0.663238, 20.5411, -160.572, -92.6098, 54.7818
3.17562, 2, -37.0506, 0.663238, 20.541, -160.572, -92.6098, 54.7819
3.18355, 2, -37.0506, 0.663238, 20.541, -160.572, -92.6098, 54.7819
3.19155, 2, -37.0506, 0.663238, 20.541, -160.572, -92.6098, 54.7819
3.19968, 2, -37.0506, 0.663238, 20.541, -160.572, -92.6098, 54.7819
3.20756, 2, -37.0506, 0.663238, 20.541, -160.572, -92.6098, 54.7819
3.21556, 2, -37.0506, 0.663238, 20.541, -160.572, -92.6098, 54.782
3.22364, 2, -37.0506, 0.663257, 20.541, -160.572, -92.6098, 54.782
3.23155, 2, -37.0505, 0.663264, 20.541, -160.572, -92.6098, 54.7821
3.23961, 2, -37.0505, 0.663269, 20.541, -160.572, -92.6098, 54.782
3.24762, 2, -37.0505, 0.663264, 20.541, -160.572, -92.6098, 54.782
3.25555, 2, -37.0505, 0.663255, 20.541, -160.572, -92.6099, 54.7821
3.26356, 2, -37.0505, 0.663246, 20.541, -160.572, -92.6099, 54.7821
3.27165, 2, -37.0505, 0.663241, 20.541, -160.572, -92.6099, 54.7822
3.27968, 2, -37.0505, 0.663239, 20.5409, -160.572, -92.6099, 54.7822
3.28764, 2, -37.0504, 0.663238, 20.5409, -160.572, -92.6099, 54.7822
3.2957, 2, -37.0504, 0.663238, 20.5409, -160.572, -92.6099, 54.7823
3.30371, 2, -37.0504, 0.663238, 20.5409, -160.572, -92.6099, 54.7823
3.31168, 2, -37.0504, 0.663257, 20.5409, -160.572, -92.61, 54.7823
3.31981, 2, -37.0504, 0.663271, 20.5409, -160.572, -92.61, 54.7823
3.32756, 2, -37.0504, 0.663278, 20.5409, -160.572, -92.61, 54.7823
3.33558, 2, -37.0503, 0.663273, 20.5409, -160.572, -92.6099, 54.7823
3.34365, 2, -37.0503, 0.663266, 20.5409, -160.572, -92.61, 54.7824
3.35159, 2, -37.0503, 0.663281, 20.5409, -160.572, -92.6099, 54.7824
3.36003, 2, -37.0503, 0.66327, 20.5409, -160.572, -92.6099, 54.7824
3.36775, 2, -37.0503, 0.663272, 20.5409, -160.572, -92.6099, 54.7825
3.37577, 2, -37.0503, 0.663271, 20.5409, -160.572, -92.61, 54.7825
3.38394, 2, -37.0503, 0.663265, 20.5409, -160.572, -92.61, 54.7825
3.39196, 2, -37.0503, 0.66325, 20.5408, -160.572, -92.61, 54.7825
3.40002, 2, -37.0503, 0.663243, 20.5408, -160.572, -92.61, 54.7825
3.40838, 2, -37.0502, 0.66326, 20.5408, -160.572, -92.61, 54.7825
3.4161, 2, -37.0502, 0.66326, 20.5408, -160.572, -92.61, 54.7825
3.42407, 2, -37.0502, 0.663272, 20.5408, -160.572, -92.61, 54.7825
3.4322, 2, -37.0502, 0.663297, 20.5408, -160.572, -92.61, 54.7825
3.44025, 2, -37.0502, 0.6633, 20.5408, -160.572, -92.61, 54.7826
3.44812, 2, -37.0501, 0.663305, 20.5408, -160.572, -92.61, 54.7826
3.45555, 2, -37.0501, 0.663312, 20.5408, -160.572, -92.61, 54.7826
3.46359, 2, -37.0501, 0.663296, 20.5408, -160.572, -92.61, 54.7826
3.47154, 2, -37.0501, 0.663289, 20.5408, -160.572, -92.61, 54.7826
3.47965, 2, -37.0501, 0.663278, 20.5408, -160.572, -92.61, 54.7826
3.48759, 2, -37.0501, 0.663269, 20.5408, -160.572, -92.61, 54.7826
3.49554, 2, -37.0501, 0.663264, 20.5408, -160.572, -92.61, 54.7826
3.50365, 2, -37.0501, 0.663269, 20.5408, -160.572, -92.61, 54.7826
3.51158, 2, -37.0501, 0.663269, 20.5408, -160.572, -92.61, 54.7826
3.5196, 2, -37.05, 0.663272, 20.5408, -160.572, -92.61, 54.7826
3.52755, 2, -37.05, 0.663289, 20.5408, -160.572, -92.61, 54.7826
3.53558, 2, -37.05, 0.663304, 20.5408, -160.572, -92.61, 54.7826
3.54355, 2, -37.0499, 0.663311, 20.5408, -160.572, -92.6101, 54.7827
3.55151, 2, -37.0499, 0.663303, 20.5408, -160.572, -92.61, 54.7827
3.55968, 2, -37.0499, 0.663292, 20.5407, -160.572, -92.61, 54.7827
3.56753, 2, -37.0499, 0.663287, 20.5407, -160.572, -92.61, 54.7827
3.57554, 2, -37.0499, 0.663296, 20.5407, -160.572, -92.6101, 54.7827
3.58509, 2, -37.0499, 0.663307, 20.5407, -160.572, -92.61, 54.7828
3.59153, 2, -37.0499, 0.66332, 20.5407, -160.572, -92.61, 54.7828
3.59961, 2, -37.0499, 0.663318, 20.5407, -160.572, -92.61, 54.7828
3.6076, 2, -37.0498, 0.663318, 20.5407, -160.572, -92.6101, 54.7828
3.61562, 2, -37.0499, 0.663299, 20.5407, -160.572, -92.6101, 54.7828
3.62354, 2, -37.0499, 0.66329, 20.5407, -160.572, -92.61, 54.7828
3.6316, 2, -37.0498, 0.663297, 20.5407, -160.572, -92.61, 54.7828
3.63976, 2, -37.0498, 0.663314, 20.5407, -160.572, -92.6101, 54.7828
3.64852, 2, -37.0498, 0.663323, 20.5407, -160.572, -92.6101, 54.7829
3.65555, 2, -37.0498, 0.663331, 20.5407, -160.572, -92.6101, 54.7829
3.66354, 2, -37.0498, 0.663342, 20.5407, -160.572, -92.6101, 54.7829
3.6716, 2, -37.0498, 0.663336, 20.5407, -160.572, -92.6101, 54.7828
3.67962, 2, -37.0497, 0.663336, 20.5407, -160.572, -92.6101, 54.7828
3.68753, 2, -37.0497, 0.663344, 20.5406, -160.572, -92.61, 54.7828
3.69558, 2, -37.0497, 0.663348, 20.5406, -160.572, -92.6101, 54.7828
3.70357, 2, -37.0497, 0.663338, 20.5406, -160.572, -92.6101, 54.7828
3.71154, 4, -37.0496, 0.663327, 20.5406, -160.572, -92.61, 54.7828
3.71965, 4, -37.0497, 0.663332, 20.5406, -160.572, -92.6101, 54.7828
3.72758, 4, -37.0496, 0.663342, 20.5406, -160.572, -92.6101, 54.7828
3.73553, 4, -37.0496, 0.663329, 20.5406, -160.572, -92.6101, 54.7829
3.74358, 4, -37.0496, 0.663341, 20.5405, -160.572, -92.6101, 54.7829
3.7516, 4, -37.0496, 0.663346, 20.5405, -160.572, -92.6102, 54.7829
3.75961, 4, -37.0496, 0.663349, 20.5405, -160.571, -92.6102, 54.7829
3.76758, 4, -37.0496, 0.66335, 20.5405, -160.571, -92.6101, 54.7829
3.77559, 4, -37.0495, 0.66335, 20.5405, -160.572, -92.6101, 54.7829
3.78363, 4, -37.0495, 0.663351, 20.5405, -160.572, -92.6101, 54.7829
3.79166, 4, -37.0495, 0.66337, 20.5405, -160.571, -92.6101, 54.7829
3.7997, 4, -37.0494, 0.663365, 20.5405, -160.571, -92.6101, 54.7829
3.80786, 4, -37.0494, 0.663369, 20.5405, -160.571, -92.6102, 54.7829
3.83656, 4, -37.0494, 0.663366, 20.5405, -160.571, -92.6102, 54.7829
3.83784, 4, -37.0493, 0.663366, 20.5405, -160.571, -92.6102, 54.7829
3.83993, 4, -37.0493, 0.663361, 20.5405, -160.571, -92.6102, 54.7829
3.84117, 4, -37.0493, 0.663361, 20.5405, -160.571, -92.6102, 54.7829
3.84654, 4, -37.0493, 0.663358, 20.5405, -160.571, -92.6101, 54.7829
3.85558, 4, -37.0491, 0.663325, 20.5405, -160.571, -92.6101, 54.7829
3.86375, 4, -37.0476, 0.662945, 20.5406, -160.571, -92.6101, 54.7829
3.87253, 4, -37.0434, 0.661223, 20.541, -160.571, -92.6101, 54.7829
3.87985, 4, -37.0355, 0.657111, 20.5426, -160.571, -92.6102, 54.7829
3.88791, 4, -37.0246, 0.650378, 20.5462, -160.571, -92.6102, 54.7829
3.89671, 4, -37.0111, 0.641074, 20.5529, -160.57, -92.6102, 54.7829
3.90399, 5, -36.9946, 0.628982, 20.5634, -160.568, -92.6102, 54.7829
3.91208, 5, -36.9748, 0.613727, 20.5785, -160.565, -92.6101, 54.7828
3.92088, 5, -36.9521, 0.595832, 20.5984, -160.56, -92.61, 54.7827
3.9281, 5, -36.9277, 0.57558, 20.6223, -160.555, -92.6098, 54.7826
3.93664, 5, -36.901, 0.552465, 20.6496, -160.55, -92.6094, 54.7825
3.94636, 5, -36.8707, 0.526499, 20.6795, -160.543, -92.6089, 54.7823
3.95218, 5, -36.8364, 0.497837, 20.711, -160.536, -92.6084, 54.7821
3.95953, 5, -36.818, 0.482736, 20.7273, -160.533, -92.6081, 54.7819
3.96752, 5, -36.7794, 0.451727, 20.7604, -160.526, -92.6074, 54.7817
3.97557, 5, -36.7392, 0.419915, 20.7936, -160.518, -92.6068, 54.7814
3.98357, 5, -36.6983, 0.387801, 20.8269, -160.51, -92.6061, 54.7811
3.99153, 5, -36.657, 0.355404, 20.8603, -160.503, -92.6054, 54.7809
3.9996, 5, -36.6157, 0.323036, 20.8937, -160.495, -92.6045, 54.7807
4.00754, 5, -36.5745, 0.290778, 20.9271, -160.488, -92.6037, 54.7805
4.01552, 5, -36.5333, 0.25845, 20.9605, -160.481, -92.6027, 54.7803
4.02357, 5, -36.4925, 0.226213, 20.9941, -160.474, -92.6018, 54.7802
4.03153, 5, -36.4516, 0.194174, 21.0276, -160.467, -92.6008, 54.7801
4.03952, 5, -36.4105, 0.1623, 21.0609, -160.46, -92.5999, 54.7799
4.0476, 5, -36.3694, 0.130397, 21.0944, -160.453, -92.5989, 54.7798
4.05554, 5, -36.3284, 0.0985132, 21.1277, -160.446, -92.598, 54.7797
4.06361, 5, -36.2877, 0.0666556, 21.1609, -160.439, -92.597, 54.7795
4.07152, 5, -36.2469, 0.0347606, 21.1942, -160.432, -92.5961, 54.7793
4.07954, 5, -36.2059, 0.00280865, 21.2275, -160.425, -92.5951, 54.7791
4.0876, 5, -36.1648, -0.0291641, 21.2607, -160.418, -92.5941, 54.7788
4.09656, 5, -36.1235, -0.061125, 21.2938, -160.411, -92.5931, 54.7785
4.10352, 5, -36.0817, -0.0930708, 21.3269, -160.404, -92.5921, 54.7781
4.11164, 5, -36.0398, -0.125073, 21.3599, -160.396, -92.5911, 54.7777
4.11954, 5, -35.9979, -0.157017, 21.3929, -160.389, -92.5901, 54.7774
4.12755, 5, -35.9561, -0.188918, 21.426, -160.381, -92.5891, 54.777
4.13552, 5, -35.9141, -0.220684, 21.459, -160.374, -92.5882, 54.7766
4.14352, 5, -35.8723, -0.252447, 21.4918, -160.366, -92.5872, 54.7762
4.15202, 5, -35.8304, -0.284058, 21.5247, -160.358, -92.5862, 54.7758
4.16207, 5, -35.7676, -0.331446, 21.5741, -160.347, -92.5848, 54.7752
4.16753, 5, -35.7466, -0.347212, 21.5905, -160.343, -92.5843, 54.775
4.17656, 5, -35.7051, -0.378797, 21.6233, -160.335, -92.5833, 54.7747
4.18378, 5, -35.6636, -0.410317, 21.6561, -160.328, -92.5823, 54.7744
4.19181, 5, -35.6219, -0.441838, 21.6887, -160.321, -92.5814, 54.7741
4.2005, 5, -35.5802, -0.473407, 21.7212, -160.313, -92.5804, 54.7739
4.20767, 5, -35.5386, -0.505012, 21.7538, -160.306, -92.5794, 54.7737
4.21553, 5, -35.4968, -0.536477, 21.7863, -160.299, -92.5784, 54.7736
4.22537, 5, -35.4547, -0.567978, 21.8187, -160.291, -92.5775, 54.7735
4.23154, 5, -35.4125, -0.599432, 21.851, -160.284, -92.5766, 54.7734
4.23957, 5, -35.3703, -0.63092, 21.8833, -160.277, -92.5756, 54.7733
4.24753, 5, -35.328, -0.662233, 21.9156, -160.269, -92.5746, 54.7732
4.25566, 5, -35.2855, -0.693586, 21.9478, -160.262, -92.5737, 54.7731
4.26373, 5, -35.2431, -0.724884, 21.9801, -160.254, -92.5727, 54.7731
4.27152, 5, -35.2007, -0.756113, 22.0122, -160.247, -92.5718, 54.7731
4.27955, 5, -35.1583, -0.787103, 22.0442, -160.239, -92.5708, 54.7731
4.28769, 5, -35.1159, -0.818085, 22.0763, -160.231, -92.5698, 54.7731
4.2956, 5, -35.0736, -0.849125, 22.1084, -160.222, -92.5689, 54.7731
4.30384, 5, -35.0315, -0.880201, 22.1402, -160.214, -92.5679, 54.7731
4.31161, 5, -34.9892, -0.91114, 22.172, -160.206, -92.567, 54.7732
4.31965, 5, -34.9468, -0.942115, 22.2039, -160.199, -92.566, 54.7732
4.32766, 5, -34.9044, -0.973068, 22.2357, -160.191, -92.565, 54.7732
4.33552, 5, -34.862, -1.00405, 22.2674, -160.183, -92.564, 54.7733
4.34369, 5, -34.8194, -1.03486, 22.2991, -160.176, -92.563, 54.7733
4.35188, 5, -34.7768, -1.06573, 22.3307, -160.168, -92.5621, 54.7733
4.36001, 5, -34.7341, -1.09658, 22.3621, -160.161, -92.5611, 54.7734
4.36769, 5, -34.6913, -1.12747, 22.3935, -160.153, -92.56, 54.7735
4.37601, 5, -34.6485, -1.15822, 22.4251, -160.146, -92.5591, 54.7735
4.38377, 5, -34.6057, -1.18885, 22.4564, -160.139, -92.5581, 54.7736
4.39186, 5, -34.5629, -1.21954, 22.4876, -160.131, -92.5571, 54.7737
4.4, 5, -34.5201, -1.25019, 22.5188, -160.123, -92.5561, 54.7739
4.40802, 5, -34.4771, -1.28073, 22.5501, -160.116, -92.5551, 54.7741
4.41601, 5, -34.4342, -1.31125, 22.5812, -160.108, -92.5541, 54.7743
4.42464, 5, -34.3912, -1.34172, 22.6123, -160.1, -92.5531, 54.7746
4.43302, 5, -34.3482, -1.37227, 22.6434, -160.092, -92.5521, 54.7752
4.44008, 5, -34.3052, -1.40267, 22.6744, -160.083, -92.5511, 54.7758
4.44898, 5, -34.2622, -1.43308, 22.7052, -160.075, -92.5501, 54.7765
4.45607, 5, -34.2407, -1.44826, 22.7206, -160.071, -92.5491, 54.7773
4.46351, 5, -34.1976, -1.47862, 22.7516, -160.062, -92.5486, 54.7778
4.47158, 5, -34.1545, -1.50891, 22.7824, -160.054, -92.5475, 54.7789
4.4795, 5, -34.1113, -1.53912, 22.8131, -160.046, -92.5465, 54.7801
4.48755, 5, -34.0681, -1.56926, 22.8438, -160.038, -92.5454, 54.7816
4.49879, 5, -34.0031, -1.61451, 22.8899, -160.026, -92.5438, 54.7842
4.50364, 5, -33.9814, -1.62955, 22.9052, -160.022, -92.5433, 54.7851
4.51336, 5, -33.938, -1.65958, 22.9357, -160.015, -92.5422, 54.7869
4.51956, 5, -33.8946, -1.68953, 22.9662, -160.007, -92.5412, 54.7888
4.52751, 5, -33.8511, -1.71947, 22.9968, -159.999, -92.5401, 54.7908
4.5355, 5, -33.8077, -1.74945, 23.0271, -159.991, -92.539, 54.7928
4.54356, 5, -33.7642, -1.77931, 23.0574, -159.983, -92.5379, 54.795
4.55153, 5, -33.7206, -1.80922, 23.0877, -159.975, -92.5369, 54.7971
4.56189, 5, -33.6553, -1.85402, 23.1329, -159.962, -92.5352, 54.8005
4.56752, 5, -33.6336, -1.86896, 23.148, -159.958, -92.5347, 54.8015
4.5757, 5, -33.5901, -1.89874, 23.178, -159.95, -92.5336, 54.8038
4.58434, 5, -33.5464, -1.92853, 23.2081, -159.941, -92.5326, 54.8062
4.5915, 5, -33.5028, -1.95842, 23.2381, -159.932, -92.5314, 54.8085
4.6005, 5, -33.4593, -1.98846, 23.2681, -159.924, -92.5302, 54.8108
4.60757, 5, -33.4156, -2.0186, 23.2982, -159.915, -92.5289, 54.813
4.6155, 5, -33.3722, -2.04893, 23.3285, -159.906, -92.5273, 54.8149
4.62353, 5, -33.329, -2.07945, 23.3588, -159.897, -92.5256, 54.8164
4.63253, 6, -33.2858, -2.11032, 23.3894, -159.889, -92.5234, 54.8175
4.63965, 6, -33.2427, -2.1414, 23.4204, -159.88, -92.5208, 54.8183
4.64766, 6, -33.1998, -2.17287, 23.4516, -159.87, -92.5178, 54.8187
4.65796, 6, -33.1357, -2.22095, 23.4989, -159.856, -92.5122, 54.8188
4.66449, 6, -33.1143, -2.2372, 23.5149, -159.85, -92.5102, 54.8188
4.67159, 6, -33.0718, -2.26995, 23.5473, -159.84, -92.5057, 54.8185
4.67952, 6, -33.0296, -2.30318, 23.5799, -159.829, -92.5007, 54.8178
4.6875, 6, -32.9877, -2.33699, 23.6129, -159.817, -92.4953, 54.8168
4.69647, 7, -32.9458, -2.3713, 23.6464, -159.805, -92.4895, 54.8154
4.70457, 7, -32.9041, -2.40599, 23.68, -159.792, -92.4833, 54.8139
4.71249, 7, -32.8628, -2.44116, 23.7139, -159.779, -92.4766, 54.8115
4.7211, 7, -32.8216, -2.47694, 23.7484, -159.766, -92.4695, 54.8079
4.72766, 7, -32.7805, -2.51317, 23.7833, -159.753, -92.4619, 54.8031
4.73558, 7, -32.7397, -2.54987, 23.8183, -159.739, -92.4539, 54.7975
4.74351, 7, -32.6993, -2.5871, 23.8537, -159.725, -92.4454, 54.791
4.75151, 7, -32.659, -2.62488, 23.8897, -159.711, -92.4364, 54.7837
4.7595, 7, -32.6188, -2.66298, 23.9258, -159.697, -92.427, 54.7757
4.7676, 8, -32.5789, -2.70165, 23.9624, -159.682, -92.4169, 54.7669
4.77566, 8, -32.5391, -2.74093, 23.9995, -159.666, -92.4062, 54.7573
4.78361, 8, -32.4995, -2.78063, 24.0367, -159.65, -92.3947, 54.7471
4.79161, 8, -32.4601, -2.82076, 24.0744, -159.633, -92.3825, 54.7363
4.79965, 8, -32.4209, -2.86145, 24.1126, -159.617, -92.3697, 54.7248
4.8076, 8, -32.3819, -2.90264, 24.1509, -159.6, -92.3564, 54.7124
4.8156, 8, -32.3432, -2.94429, 24.1896, -159.583, -92.3429, 54.6994
4.8237, 8, -32.3046, -2.98642, 24.2288, -159.566, -92.3291, 54.6855
4.83156, 9, -32.2662, -3.02901, 24.2684, -159.548, -92.315, 54.6711
4.8395, 9, -32.2281, -3.07204, 24.3083, -159.529, -92.3005, 54.6558
4.84797, 9, -32.1902, -3.11558, 24.3485, -159.51, -92.2855, 54.64
4.85714, 9, -32.1522, -3.15958, 24.389, -159.491, -92.2699, 54.6238
4.86358, 9, -32.1146, -3.20406, 24.43, -159.472, -92.2537, 54.6074
4.87173, 9, -32.0773, -3.24908, 24.4712, -159.452, -92.2366, 54.5906
4.88053, 9, -32.0402, -3.29468, 24.5128, -159.432, -92.2188, 54.5733
4.88776, 9, -32.0031, -3.34078, 24.5548, -159.412, -92.2008, 54.5555
4.89582, 9, -31.9663, -3.38736, 24.5971, -159.391, -92.1826, 54.5371
4.90467, 10, -31.9297, -3.43455, 24.6399, -159.37, -92.1639, 54.5179
4.91209, 10, -31.8934, -3.48225, 24.6829, -159.348, -92.1448, 54.4979
4.92047, 10, -31.8571, -3.53046, 24.7263, -159.326, -92.1251, 54.477
4.92846, 10, -31.8211, -3.5792, 24.7702, -159.305, -92.1046, 54.4556
4.93604, 10, -31.7854, -3.62837, 24.8143, -159.283, -92.0832, 54.4339
4.94407, 10, -31.7499, -3.67809, 24.8588, -159.26, -92.0615, 54.412
4.95214, 10, -31.7323, -3.72831, 24.9038, -159.237, -92.0396, 54.3898
4.96006, 10, -31.6969, -3.75354, 24.9263, -159.225, -92.0175, 54.367
4.96833, 11, -31.6444, -3.83005, 24.9947, -159.189, -91.995, 54.3435
4.97556, 11, -31.627, -3.85581, 25.0176, -159.177, -91.9836, 54.3315
4.98349, 11, -31.5924, -3.90762, 25.0637, -159.154, -91.9599, 54.3069
4.99167, 11, -31.5578, -3.95998, 25.1103, -159.129, -91.9354, 54.2814
5.00102, 11, -31.5233, -4.01281, 25.1806, -159.092, -91.8982, 54.2427
5.00748, 11, -31.4892, -4.06627, 25.2043, -159.079, -91.8857, 54.2296
5.01552, 11, -31.4552, -4.12026, 25.252, -159.053, -91.8605, 54.2033
5.02353, 11, -31.4215, -4.17479, 25.2999, -159.027, -91.8347, 54.1765
5.03149, 11, -31.3878, -4.23, 25.3483, -159.001, -91.8078, 54.1488
5.04177, 12, -31.3376, -4.31362, 25.4215, -158.961, -91.7664, 54.1058
5.04748, 12, -31.3211, -4.3418, 25.4462, -158.947, -91.7526, 54.091
5.0555, 12, -31.288, -4.39857, 25.4956, -158.919, -91.7248, 54.0612
5.06582, 12, -31.2389, -4.48456, 25.5705, -158.878, -91.6823, 54.0163
5.07396, 12, -31.2063, -4.54246, 25.6209, -158.85, -91.6528, 53.9858
5.07951, 12, -31.1901, -4.57161, 25.6463, -158.836, -91.6378, 53.9702
5.09106, 12, -31.142, -4.65973, 25.7228, -158.792, -91.5928, 53.9222
5.09548, 12, -31.126, -4.68931, 25.7485, -158.778, -91.5777, 53.9058
5.10538, 13, -31.0942, -4.7489, 25.8001, -158.734, -91.5313, 53.8566
5.11156, 13, -31.0624, -4.80905, 25.8521, -158.719, -91.5152, 53.8401
5.11965, 13, -31.0309, -4.86968, 25.9045, -158.69, -91.4828, 53.8066
5.12749, 13, -30.9997, -4.93097, 25.9573, -158.659, -91.4504, 53.7726
5.13548, 13, -30.9687, -4.99283, 26.0104, -158.628, -91.4178, 53.7374
5.14349, 13, -30.9377, -5.05527, 26.0639, -158.597, -91.3846, 53.7019
5.15155, 13, -30.9069, -5.11824, 26.1178, -158.567, -91.3502, 53.6663
5.15953, 13, -30.8762, -5.1818, 26.172, -158.535, -91.3158, 53.6303
5.16749, 13, -30.8458, -5.24578, 26.2266, -158.502, -91.2812, 53.5935
5.17555, 14, -30.8156, -5.31037, 26.2816, -158.47, -91.2461, 53.5556
5.18351, 14, -30.7856, -5.37532, 26.3369, -158.438, -91.2098, 53.5174
5.19164, 14, -30.7557, -5.44071, 26.3926, -158.406, -91.1734, 53.4795
5.19957, 14, -30.726, -5.5066, 26.4488, -158.372, -91.137, 53.441
5.20748, 14, -30.6966, -5.57305, 26.5051, -158.338, -91.0999, 53.4017
5.21548, 14, -30.6674, -5.63986, 26.5619, -158.304, -91.0616, 53.3613
5.22357, 14, -30.6384, -5.70735, 26.6191, -158.271, -91.0232, 53.3207
5.23149, 14, -30.6095, -5.77542, 26.6767, -158.236, -90.9847, 53.2799
5.23957, 14, -30.5807, -5.844, 26.7347, -158.201, -90.9454, 53.2386
5.24754, 15, -30.5523, -5.91315, 26.7931, -158.166, -90.9051, 53.1964
5.25548, 15, -30.524, -5.98283, 26.8517, -158.131, -90.865, 53.1534
5.26371, 15, -30.4958, -6.05304, 26.9108, -158.095, -90.8248, 53.1104
5.27246, 15, -30.4679, -6.12376, 26.9703, -158.058, -90.7835, 53.0669
5.27958, 15, -30.4399, -6.19492, 27.03, -158.022, -90.7416, 53.0224
5.28754, 15, -30.4123, -6.26656, 27.0902, -157.985, -90.6999, 52.9771
5.29559, 15, -30.3848, -6.33868, 27.1507, -157.948, -90.6572, 52.9318
5.30364, 15, -30.3576, -6.41139, 27.2115, -157.91, -90.6135, 52.8863
5.31163, 16, -30.3306, -6.48462, 27.2727, -157.872, -90.5701, 52.8395
5.3196, 16, -30.3038, -6.55833, 27.3344, -157.835, -90.5265, 52.7919
5.32768, 16, -30.2771, -6.63266, 27.3964, -157.796, -90.4813, 52.7447
5.33642, 16, -30.2506, -6.70757, 27.4589, -157.757, -90.4364, 52.697
5.3446, 16, -30.2243, -6.78303, 27.5216, -157.718, -90.3914, 52.6483
5.35159, 16, -30.1982, -6.85901, 27.5847, -157.679, -90.3449, 52.5989
5.36038, 16, -30.1723, -6.93544, 27.6483, -157.639, -90.2981, 52.5496
5.36758, 16, -30.1466, -7.01239, 27.7121, -157.598, -90.2516, 52.4998
5.37569, 16, -30.1209, -7.08987, 27.7763, -157.559, -90.2038, 52.449
5.38563, 17, -30.0954, -7.16792, 27.8408, -157.518, -90.1556, 52.3981
5.39444, 17, -30.0702, -7.24642, 27.9058, -157.476, -90.1077, 52.3472
5.39989, 17, -30.0451, -7.32549, 27.9711, -157.435, -90.0583, 52.2955
5.40793, 17, -30.0202, -7.40507, 28.0367, -157.394, -90.0088, 52.2426
5.41601, 17, -29.9955, -7.48511, 28.1028, -157.351, -89.9596, 52.1899
5.42403, 17, -29.9708, -7.56574, 28.1693, -157.309, -89.9089, 52.1369
5.43205, 17, -29.9464, -7.64684, 28.2362, -157.267, -89.8581, 52.0829
5.44029, 17, -29.9223, -7.72847, 28.3034, -157.224, -89.8074, 52.0286
5.44829, 18, -29.8984, -7.81062, 28.3709, -157.18, -89.7551, 51.9743
5.45616, 18, -29.8865, -7.89322, 28.4387, -157.137, -89.7031, 51.9191
5.46626, 18, -29.8511, -7.97639, 28.5069, -157.093, -89.651, 51.8629
5.47329, 18, -29.8276, -8.06, 28.5754, -157.048, -89.5975, 51.8071
5.47952, 18, -29.8159, -8.10199, 28.6099, -157.026, -89.5709, 51.779
5.48748, 18, -29.7926, -8.18637, 28.679, -156.982, -89.5178, 51.7217
5.4955, 18, -29.7696, -8.27129, 28.7486, -156.936, -89.4631, 51.6641
5.50351, 18, -29.7467, -8.35668, 28.8185, -156.89, -89.4086, 51.6067
5.51147, 18, -29.724, -8.44257, 28.8889, -156.845, -89.3539, 51.5485
5.51948, 19, -29.7014, -8.52899, 28.9596, -156.799, -89.2979, 51.4895
5.52752, 19, -29.679, -8.61594, 29.0305, -156.752, -89.2425, 51.4309
5.53562, 19, -29.6566, -8.70338, 29.1018, -156.706, -89.1858, 51.3717
5.54484, 19, -29.6344, -8.79134, 29.2094, -156.635, -89.1006, 51.2818
5.55152, 19, -29.6126, -8.87981, 29.2454, -156.611, -89.0722, 51.252
5.55949, 19, -29.5908, -8.96867, 29.3178, -156.564, -89.0144, 51.1917
5.56747, 19, -29.5691, -9.05807, 29.3905, -156.516, -88.9568, 51.1303
5.57705, 19, -29.5478, -9.14799, 29.5004, -156.443, -88.8688, 51.0383
5.58565, 20, -29.5161, -9.28373, 29.5741, -156.395, -88.8103, 50.9757
5.59154, 20, -29.5055, -9.32922, 29.6111, -156.371, -88.7809, 50.9442
5.60109, 20, -29.4846, -9.42065, 29.6854, -156.321, -88.721, 50.8815
5.60761, 20, -29.4639, -9.51255, 29.7599, -156.272, -88.6616, 50.8181
5.61551, 20, -29.4434, -9.60484, 29.8347, -156.222, -88.6011, 50.7537
5.62346, 20, -29.423, -9.69764, 29.9098, -156.171, -88.5404, 50.6899
5.63149, 20, -29.4028, -9.79095, 29.9854, -156.121, -88.4796, 50.6251
5.63948, 20, -29.3828, -9.88475, 30.0614, -156.07, -88.4178, 50.5597
5.64746, 20, -29.363, -9.97908, 30.1378, -156.019, -88.3564, 50.4948
5.65543, 21, -29.3431, -10.0738, 30.2145, -155.968, -88.2936, 50.429
5.6635, 21, -29.3234, -10.1692, 30.2917, -155.916, -88.2314, 50.3626
5.67154, 21, -29.304, -10.265, 30.3689, -155.864, -88.1683, 50.2966
5.68044, 21, -29.2848, -10.3611, 30.4465, -155.812, -88.105, 50.2294
5.69008, 21, -29.256, -10.506, 30.5635, -155.732, -88.0091, 50.1291
5.69546, 21, -29.2465, -10.5546, 30.6027, -155.706, -87.977, 50.0955
5.70538, 21, -29.2276, -10.652, 30.6814, -155.653, -87.913, 50.0273
5.71146, 21, -29.209, -10.7499, 30.7604, -155.599, -87.8477, 49.9596
5.71958, 21, -29.1903, -10.8482, 30.84, -155.545, -87.7831, 49.8913
5.72755, 22, -29.1717, -10.9471, 30.9198, -155.491, -87.7171, 49.8223
5.73728, 22, -29.1534, -11.0464, 30.9999, -155.436, -87.6515, 49.7538
5.74355, 22, -29.1352, -11.146, 31.0802, -155.381, -87.585, 49.6842
5.75148, 22, -29.1171, -11.2461, 31.1608, -155.325, -87.5183, 49.6143
5.75948, 22, -29.0992, -11.3467, 31.2417, -155.27, -87.4513, 49.5449
5.76753, 22, -29.0814, -11.4477, 31.323, -155.214, -87.3837, 49.4742
5.77547, 22, -29.0638, -11.5493, 31.4046, -155.158, -87.3165, 49.4039
5.78357, 22, -29.0464, -11.6514, 31.4867, -155.102, -87.2482, 49.3335
5.79152, 23, -29.029, -11.7538, 31.5692, -155.044, -87.1803, 49.262
5.79961, 23, -29.0118, -11.8566, 31.6518, -154.988, -87.1112, 49.1914
5.80774, 23, -28.9948, -11.9597, 31.7346, -154.931, -87.0428, 49.1198
5.81906, 23, -28.9695, -12.1152, 31.8592, -154.844, -86.9386, 49.0127
5.8236, 23, -28.9611, -12.1672, 31.9009, -154.815, -86.904, 48.9769
5.83163, 23, -28.9445, -12.2716, 31.9847, -154.756, -86.8337, 48.9044
5.84009, 23, -28.928, -12.3765, 32.0688, -154.698, -86.7636, 48.8325
5.84752, 23, -28.9117, -12.4817, 32.1533, -154.639, -86.6926, 48.7601
5.85552, 23, -28.8955, -12.5873, 32.2382, -154.579, -86.6218, 48.6873
5.86431, 24, -28.8792, -12.6932, 32.3232, -154.52, -86.5502, 48.615
5.87156, 24, -28.8631, -12.7994, 32.4084, -154.46, -86.479, 48.5413
5.87998, 24, -28.8471, -12.9061, 32.4937, -154.4, -86.407, 48.4684
5.88784, 24, -28.8312, -13.0132, 32.5795, -154.34, -86.335, 48.3948
5.89577, 24, -28.8154, -13.1209, 32.6655, -154.279, -86.2623, 48.3208
5.90388, 24, -28.7997, -13.2289, 32.752, -154.218, -86.19, 48.2473
5.91195, 24, -28.7844, -13.3372, 32.8387, -154.156, -86.1168, 48.1727
5.91997, 24, -28.7692, -13.4458, 32.9258, -154.095, -86.0437, 48.0988
5.92854, 25, -28.7541, -13.5548, 33.013, -154.033, -85.9698, 48.0245
5.93607, 25, -28.7389, -13.6641, 33.1003, -153.971, -85.8965, 47.95
5.94402, 25, -28.7237, -13.7739, 33.1878, -153.909, -85.8223, 47.8763
5.95295, 25, -28.7086, -13.884, 33.2757, -153.846, -85.7483, 47.8015
5.96097, 25, -28.6937, -13.9944, 33.3639, -153.783, -85.6733, 47.7273
5.96863, 25, -28.6788, -14.105, 33.4525, -153.719, -85.599, 47.653
5.97547, 25, -28.6714, -14.1605, 33.4968, -153.688, -85.5617, 47.6155
5.9835, 25, -28.6567, -14.2716, 33.5858, -153.624, -85.4865, 47.5415
5.99146, 25, -28.6422, -14.3831, 33.6749, -153.56, -85.4113, 47.4669
6.00271, 26, -28.6208, -14.5511, 33.8087, -153.463, -85.2983, 47.3551
6.00757, 26, -28.6137, -14.6073, 33.8534, -153.431, -85.2604, 47.3179
6.01544, 26, -28.5995, -14.7199, 33.9431, -153.366, -85.1846, 47.2427
6.02345, 26, -28.5854, -14.8326, 34.0331, -153.301, -85.1085, 47.1684
6.03146, 26, -28.5713, -14.9456, 34.1234, -153.236, -85.0321, 47.0938
6.0409, 26, -28.5503, -15.1156, 34.2594, -153.137, -84.9173, 46.9822
6.04744, 26, -28.5433, -15.1724, 34.3048, -153.105, -84.879, 46.9452
6.05761, 26, -28.5225, -15.3433, 34.4411, -153.005, -84.7635, 46.8335
6.06373, 27, -28.5156, -15.4004, 34.4866, -152.972, -84.7252, 46.797
6.07147, 27, -28.5019, -15.5147, 34.5777, -152.906, -84.648, 46.7229
6.07961, 27, -28.4881, -15.6293, 34.6692, -152.838, -84.5708, 46.6487
6.08751, 27, -28.4745, -15.7441, 34.7609, -152.771, -84.493, 46.5753
6.09706, 27, -28.461, -15.8594, 34.8529, -152.704, -84.4157, 46.464
6.10345, 27, -28.4475, -15.975, 34.9451, -152.637, -84.3376, 46.4275
6.11153, 27, -28.4341, -16.0909, 35.0373, -152.568, -84.2599, 46.3536
6.1205, 27, -28.4208, -16.2071, 35.1295, -152.5, -84.1815, 46.2797
6.12745, 27, -28.4074, -16.3234, 35.2218, -152.432, -84.1035, 46.2067
6.13553, 28, -28.3941, -16.4397, 35.3145, -152.364, -84.0248, 46.133
6.14345, 28, -28.3809, -16.5564, 35.4074, -152.294, -83.9463, 46.0603
6.1516, 28, -28.3676, -16.6732, 35.5006, -152.226, -83.8678, 45.9875
6.16043, 28, -28.3544, -16.7904, 35.5941, -152.156, -83.7891, 45.9148
6.16748, 28, -28.3412, -16.9077, 35.6875, -152.087, -83.7103, 45.843
6.17545, 28, -28.328, -17.0249, 35.7808, -152.017, -83.6312, 45.7706
6.18352, 28, -28.3149, -17.1423, 35.8743, -151.947, -83.5524, 45.6991
6.19144, 28, -28.3018, -17.2599, 35.968, -151.876, -83.4732, 45.6278
6.19953, 28, -28.2887, -17.3777, 36.0619, -151.806, -83.3941, 45.5564
6.20746, 29, -28.2756, -17.4959, 36.1561, -151.735, -83.3146, 45.4862
6.21544, 29, -28.2625, -17.6143, 36.2505, -151.665, -83.2352, 45.4156
6.22367, 29, -28.2493, -17.7328, 36.3448, -151.593, -83.1555, 45.3457
6.23255, 29, -28.2363, -17.8513, 36.4391, -151.522, -83.0756, 45.2765
6.24046, 29, -28.2234, -17.97, 36.5333, -151.45, -82.9961, 45.2066
6.24754, 29, -28.2104, -18.0889, 36.6277, -151.379, -82.9162, 45.1382
6.25547, 29, -28.1975, -18.2079, 36.7225, -151.307, -82.8365, 45.0698
6.26345, 29, -28.1846, -18.3272, 36.8174, -151.235, -82.7562, 45.0016
6.2714, 30, -28.1717, -18.4464, 36.9125, -151.162, -82.6768, 44.9346
6.27951, 30, -28.1588, -18.5657, 37.0076, -151.09, -82.5965, 44.8675
6.28749, 30, -28.146, -18.685, 37.1025, -151.017, -82.5167, 44.8009
6.29746, 30, -28.133, -18.8043, 37.1973, -150.944, -82.4363, 44.7356
6.30371, 30, -28.12, -18.924, 37.2923, -150.87, -82.3564, 44.6699
6.31176, 30, -28.1069, -19.0439, 37.3875, -150.797, -82.2759, 44.6053
6.31987, 30, -28.0937, -19.1639, 37.4829, -150.724, -82.1956, 44.5416
6.32761, 30, -28.0806, -19.2838, 37.5784, -150.65, -82.1154, 44.4777
6.33558, 30, -28.0675, -19.4037, 37.6738, -150.576, -82.0353, 44.4149
6.34405, 31, -28.0544, -19.5236, 37.7689, -150.502, -81.955, 44.3529
6.35322, 31, -28.0413, -19.6436, 37.8641, -150.428, -81.8745, 44.2908
6.35958, 31, -28.0281, -19.7637, 37.9595, -150.354, -81.7946, 44.2301
6.36752, 31, -28.0149, -19.8838, 38.0551, -150.279, -81.7143, 44.1699
6.37564, 31, -28.0018, -20.0038, 38.1507, -150.204, -81.6341, 44.1097
6.38366, 31, -27.9886, -20.1238, 38.2465, -150.129, -81.5537, 44.0507
6.39177, 31, -27.9752, -20.2437, 38.342, -150.054, -81.4735, 43.9926
6.39976, 31, -27.9617, -20.3639, 38.4373, -149.979, -81.3932, 43.9343
6.40807, 32, -27.9481, -20.4842, 38.5326, -149.903, -81.3128, 43.8774
6.41592, 32, -27.9344, -20.6046, 38.6279, -149.828, -81.2329, 43.8215
6.42467, 32, -27.9207, -20.725, 38.7234, -149.753, -81.1528, 43.766
6.43285, 32, -27.9069, -20.8452, 38.819, -149.677, -81.073, 43.7109
6.44, 32, -27.8932, -20.9654, 38.9145, -149.601, -80.9927, 43.6575
6.44807, 32, -27.8793, -21.0856, 39.0099, -149.525, -80.913, 43.6048
6.45705, 32, -27.8723, -21.1457, 39.105, -149.449, -80.8329, 43.5525
6.4645, 32, -27.8512, -21.3259, 39.2001, -149.372, -80.7531, 43.5017
6.47198, 32, -27.8443, -21.3859, 39.2477, -149.334, -80.713, 43.4768
6.47942, 33, -27.8302, -21.5058, 39.3429, -149.258, -80.6337, 43.4276
6.48748, 33, -27.816, -21.6255, 39.4381, -149.181, -80.5537, 43.3787
6.49559, 33, -27.8016, -21.7452, 39.5333, -149.105, -80.4743, 43.3309
6.50525, 33, -27.787, -21.9248, 39.676, -148.989, -80.3551, 43.2621
6.51148, 33, -27.7721, -21.9848, 39.7234, -148.951, -80.3155, 43.2396
6.51941, 33, -27.7573, -22.1045, 39.818, -148.874, -80.2361, 43.1948
6.52742, 33, -27.7425, -22.2242, 39.9125, -148.797, -80.1568, 43.151
6.53554, 33, -27.7276, -22.3435, 40.0071, -148.72, -80.0778, 43.1091
6.54372, 34, -27.7125, -22.4629, 40.1016, -148.643, -79.9988, 43.0682
6.55142, 34, -27.6974, -22.5823, 40.1962, -148.566, -79.92, 43.0281
6.55944, 34, -27.6822, -22.7015, 40.2907, -148.488, -79.8408, 42.9884
6.57002, 34, -27.6593, -22.8801, 40.4318, -148.372, -79.7225, 42.9321
6.57557, 34, -27.6516, -22.9395, 40.4787, -148.334, -79.683, 42.9141
6.58342, 34, -27.6359, -23.0581, 40.5724, -148.256, -79.6042, 42.8789
6.59378, 34, -27.62, -23.1764, 40.6662, -148.178, -79.5252, 42.8279
6.59944, 34, -27.604, -23.2947, 40.7598, -148.1, -79.4468, 42.8113
6.60846, 34, -27.5878, -23.413, 40.8535, -148.023, -79.3681, 42.7791
6.61954, 35, -27.5634, -23.5905, 40.9938, -147.906, -79.25, 42.7345
6.62357, 35, -27.5551, -23.6495, 41.0403, -147.867, -79.211, 42.7203
6.63171, 35, -27.5386, -23.7672, 41.133, -147.789, -79.1327, 42.693
6.64043, 35, -27.522, -23.8848, 41.2256, -147.711, -79.0546, 42.667
6.64742, 35, -27.5053, -24.0021, 41.3181, -147.633, -78.9762, 42.6419
6.65542, 35, -27.4883, -24.1192, 41.4106, -147.555, -78.8985, 42.6179
6.6635, 35, -27.4711, -24.2362, 41.5031, -147.477, -78.8202, 42.5956
6.67147, 35, -27.4536, -24.353, 41.5954, -147.399, -78.7425, 42.575
6.67972, 36, -27.436, -24.4693, 41.6873, -147.321, -78.6644, 42.5561
6.68742, 36, -27.4181, -24.5853, 41.7787, -147.243, -78.5872, 42.539
6.69559, 36, -27.4, -24.7011, 41.8699, -147.165, -78.5097, 42.5234
6.70349, 36, -27.3816, -24.8169, 41.961, -147.087, -78.4325, 42.5094
6.71142, 36, -27.3631, -24.9327, 42.052, -147.009, -78.3554, 42.4969
6.71943, 36, -27.3444, -25.0483, 42.1427, -146.931, -78.2788, 42.4858
6.72749, 36, -27.3255, -25.1637, 42.2334, -146.853, -78.202, 42.4762
6.73542, 36, -27.3063, -25.2786, 42.3236, -146.775, -78.1253, 42.4683
6.7435, 36, -27.2868, -25.3932, 42.4134, -146.697, -78.0488, 42.4618
6.75144, 37, -27.2672, -25.5076, 42.5029, -146.619, -77.9725, 42.457
6.75946, 37, -27.2475, -25.6216, 42.5922, -146.541, -77.8964, 42.4539
6.76763, 37, -27.2274, -25.7354, 42.6813, -146.463, -77.8201, 42.4523
6.77563, 37, -27.2071, -25.8488, 42.7704, -146.385, -77.7445, 42.4516
6.78342, 37, -27.1866, -25.9617, 42.8591, -146.308, -77.6686, 42.4515
6.79153, 37, -27.1658, -26.0742, 42.9476, -146.23, -77.5932, 42.4522
6.7997, 37, -27.1446, -26.1863, 43.0355, -146.153, -77.5175, 42.4549
6.80753, 37, -27.1232, -26.2984, 43.123, -146.075, -77.4425, 42.4606
6.81553, 37, -27.1016, -26.4102, 43.2102, -145.998, -77.3671, 42.4685
6.82392, 38, -27.0797, -26.5217, 43.2972, -145.921, -77.2924, 42.4786
6.83159, 38, -27.0575, -26.633, 43.384, -145.844, -77.2172, 42.4909
6.83981, 38, -27.0351, -26.7437, 43.4704, -145.767, -77.1428, 42.5052
6.84834, 38, -27.0124, -26.8541, 43.5565, -145.69, -77.0678, 42.5216
6.85551, 38, -26.9894, -26.9641, 43.6422, -145.613, -76.9937, 42.54
6.86346, 38, -26.9661, -27.0737, 43.7274, -145.536, -76.919, 42.5607
6.87155, 38, -26.9425, -27.1829, 43.8122, -145.46, -76.8454, 42.5837
6.87967, 38, -26.9186, -27.2917, 43.8967, -145.384, -76.7711, 42.6092
6.88832, 39, -26.8944, -27.3999, 43.9809, -145.308, -76.6975, 42.6371
6.89571, 39, -26.8698, -27.5076, 44.0647, -145.232, -76.6235, 42.6671
6.90377, 39, -26.8447, -27.615, 44.1482, -145.156, -76.5504, 42.6988
6.91425, 39, -26.8193, -27.7221, 44.2313, -145.08, -76.4768, 42.7327
6.92029, 39, -26.7937, -27.8289, 44.3139, -145.005, -76.4037, 42.769
6.928, 39, -26.7678, -27.9354, 44.396, -144.929, -76.3301, 42.808
6.93673, 39, -26.7415, -28.0414, 44.4775, -144.855, -76.2572, 42.8491
6.94406, 39, -26.715, -28.1469, 44.5587, -144.78, -76.1839, 42.8919
6.95197, 39, -26.6881, -28.2518, 44.6394, -144.705, -76.1111, 42.9371
6.96093, 40, -26.6605, -28.3563, 44.7198, -144.631, -76.0381, 42.9852
6.96829, 40, -26.6467, -28.4603, 44.7997, -144.557, -75.966, 43.0355
6.97538, 40, -26.6188, -28.5121, 44.8396, -144.52, -75.9295, 43.0612
6.98347, 40, -26.5904, -28.6153, 44.9189, -144.447, -75.8572, 43.1142
6.99141, 40, -26.5617, -28.7179, 44.9976, -144.373, -75.7847, 43.1702
6.99951, 40, -26.5325, -28.8199, 45.0758, -144.301, -75.7128, 43.2284
7.00752, 40, -26.5028, -28.9212, 45.1534, -144.228, -75.6407, 43.2883
7.01547, 40, -26.4728, -29.0221, 45.2304, -144.155, -75.569, 43.3514
7.02337, 41, -26.4424, -29.1225, 45.307, -144.083, -75.497, 43.4168
7.03141, 41, -26.4114, -29.2225, 45.3831, -144.012, -75.4256, 43.4839
7.0396, 41, -26.38, -29.3219, 45.4587, -143.94, -75.3542, 43.5543
7.04739, 41, -26.348, -29.421, 45.5338, -143.87, -75.283, 43.6264
7.05546, 41, -26.3158, -29.5195, 45.6082, -143.799, -75.2118, 43.701
7.06502, 41, -26.2667, -29.6659, 45.7186, -143.694, -75.1059, 43.8181
7.07141, 41, -26.2501, -29.7143, 45.7551, -143.659, -75.0706, 43.8581
7.07948, 41, -26.2165, -29.8108, 45.8276, -143.59, -74.9999, 43.9411
7.08902, 41, -26.1822, -29.9065, 45.8996, -143.487, -74.8942, 44.0693
7.0955, 42, -26.1476, -30.0016, 45.971, -143.453, -74.8592, 44.114
7.105, 42, -26.1125, -30.096, 46.0419, -143.385, -74.7895, 44.2039
7.11156, 42, -26.0768, -30.1898, 46.1122, -143.318, -74.7193, 44.297
7.12022, 42, -26.0405, -30.2829, 46.1819, -143.251, -74.6498, 44.3924
7.12749, 42, -26.0037, -30.3753, 46.2509, -143.185, -74.5796, 44.491
7.13541, 42, -25.9665, -30.467, 46.3191, -143.119, -74.5105, 44.5917
7.14348, 42, -25.9288, -30.558, 46.3865, -143.054, -74.4408, 44.6955
7.1514, 42, -25.8903, -30.6482, 46.4532, -142.99, -74.3718, 44.8016
7.16057, 43, -25.8513, -30.7378, 46.5192, -142.925, -74.3023, 44.911
7.16742, 43, -25.8118, -30.8267, 46.5846, -142.863, -74.2338, 45.0231
7.17551, 43, -25.7717, -30.9148, 46.6493, -142.8, -74.1646, 45.1379
7.18446, 43, -25.7308, -31.0022, 46.7132, -142.738, -74.0963, 45.2558
7.19156, 43, -25.6896, -31.0887, 46.7765, -142.677, -74.0274, 45.3762
7.19946, 43, -25.6478, -31.1744, 46.8388, -142.616, -73.9595, 45.4994
7.20822, 43, -25.6053, -31.2592, 46.9005, -142.557, -73.8912, 45.6255
7.2154, 43, -25.562, -31.3431, 46.9614, -142.497, -73.8234, 45.7541
7.22348, 43, -25.5182, -31.4263, 47.0214, -142.44, -73.7554, 45.8854
7.23329, 44, -25.4737, -31.5084, 47.0805, -142.382, -73.6877, 46.0196
7.23942, 44, -25.4284, -31.5897, 47.1388, -142.326, -73.6204, 46.1568
7.24749, 44, -25.3825, -31.6701, 47.1962, -142.27, -73.5529, 46.2969
7.25544, 44, -25.3361, -31.7497, 47.2527, -142.215, -73.486, 46.4396
7.26363, 44, -25.2889, -31.8284, 47.3084, -142.162, -73.4186, 46.5857
7.2734, 44, -25.241, -31.906, 47.3632, -142.108, -73.3525, 46.7347
7.27974, 44, -25.1924, -31.9827, 47.4171, -142.056, -73.2857, 46.8862
7.28742, 44, -25.1431, -32.0585, 47.4699, -142.006, -73.2198, 47.0411
7.29553, 44, -25.093, -32.1331, 47.5219, -141.955, -73.1532, 47.1991
7.30377, 45, -25.0422, -32.2066, 47.5729, -141.907, -73.0877, 47.3603
7.3117, 45, -24.9907, -32.2792, 47.6229, -141.859, -73.0221, 47.5243
7.3204, 45, -24.9383, -32.3507, 47.6718, -141.812, -72.9569, 47.6914
7.32752, 45, -24.8851, -32.4211, 47.7198, -141.766, -72.892, 47.8617
7.33551, 45, -24.8313, -32.4903, 47.7667, -141.722, -72.827, 48.0346
7.34367, 45, -24.7765, -32.5585, 47.8123, -141.678, -72.7628, 48.2108
7.3514, 45, -24.7211, -32.6256, 47.857, -141.636, -72.6981, 48.39
7.35952, 45, -24.6648, -32.6915, 47.9007, -141.595, -72.6345, 48.5724
7.36743, 46, -24.6077, -32.7562, 47.9431, -141.555, -72.5703, 48.7576
7.37582, 46, -24.5496, -32.8196, 47.9846, -141.516, -72.5073, 48.9458
7.38399, 46, -24.4906, -32.8817, 48.0248, -141.479, -72.444, 49.1368
7.39246, 46, -24.4309, -32.9424, 48.0639, -141.444, -72.3812, 49.3311
7.39972, 46, -24.3704, -33.0019, 48.1019, -141.409, -72.3188, 49.5287
7.40782, 46, -24.309, -33.0599, 48.1385, -141.376, -72.2562, 49.7293
7.41662, 46, -24.2469, -33.1168, 48.1739, -141.344, -72.1949, 49.933
7.42424, 46, -24.1837, -33.1722, 48.2083, -141.314, -72.133, 50.1394
7.43197, 46, -24.1196, -33.2264, 48.2412, -141.285, -72.0722, 50.3487
7.44071, 47, -24.0546, -33.2791, 48.2728, -141.258, -72.0113, 50.5611
7.44802, 47, -23.9887, -33.3305, 48.3032, -141.232, -71.9509, 50.7766
7.45623, 47, -23.9219, -33.3805, 48.3321, -141.207, -71.8915, 50.9951
7.46489, 47, -23.8541, -33.4288, 48.3596, -141.185, -71.8316, 51.2166
7.4725, 47, -23.7853, -33.4756, 48.3857, -141.165, -71.773, 51.4409
7.4794, 47, -23.7506, -33.4985, 48.3983, -141.155, -71.7437, 51.5544
7.48738, 47, -23.6805, -33.5428, 48.4226, -141.137, -71.6849, 51.7838
7.49545, 47, -23.6094, -33.5854, 48.4453, -141.12, -71.6276, 52.016
7.5042, 48, -23.5373, -33.6265, 48.4666, -141.105, -71.5704, 52.2512
7.51149, 48, -23.4643, -33.6658, 48.4864, -141.091, -71.5138, 52.4892
7.51939, 48, -23.3903, -33.7035, 48.5046, -141.079, -71.4581, 52.7302
7.52755, 48, -23.3154, -33.7396, 48.5216, -141.069, -71.4022, 52.9744
7.53682, 48, -23.2395, -33.7739, 48.5439, -141.058, -71.3208, 53.3461
7.54347, 48, -23.1625, -33.8065, 48.5505, -141.055, -71.2937, 53.4714
7.55151, 48, -23.0846, -33.8372, 48.5626, -141.051, -71.2399, 53.7244
7.56094, 48, -22.9658, -33.8801, 48.5779, -141.048, -71.1615, 54.1098
7.56926, 48, -22.8853, -33.9061, 48.5861, -141.047, -71.1092, 54.3702
7.57767, 49, -22.8447, -33.9303, 48.5926, -141.048, -71.0584, 54.633
7.58345, 49, -22.7626, -33.9415, 48.5952, -141.05, -71.0335, 54.7655
7.5914, 49, -22.6796, -33.9625, 48.5991, -141.055, -70.9833, 55.0327
7.6017, 49, -22.5531, -33.9905, 48.6018, -141.065, -70.9102, 55.4388
7.60988, 49, -22.5105, -34.0062, 48.6021, -141.076, -70.8626, 55.7129
7.61547, 49, -22.4246, -34.0133, 48.6016, -141.082, -70.8387, 55.8511
7.62699, 49, -22.2935, -34.0315, 48.5975, -141.103, -70.7695, 56.2701
7.63245, 49, -22.2494, -34.0365, 48.5953, -141.112, -70.7472, 56.4111
7.6396, 50, -22.1603, -34.0451, 48.5895, -141.13, -70.7028, 56.6949
7.64753, 50, -22.07, -34.0517, 48.5818, -141.151, -70.6591, 56.9814
7.65555, 50, -21.979, -34.0557, 48.5722, -141.173, -70.6171, 57.2707
7.66441, 50, -21.887, -34.0577, 48.5604, -141.197, -70.5761, 57.5626
7.67244, 50, -21.7939, -34.0578, 48.5469, -141.224, -70.5354, 57.8572
7.68043, 50, -21.6996, -34.0556, 48.5316, -141.254, -70.4963, 58.1543
7.68746, 50, -21.6041, -34.051, 48.5141, -141.285, -70.459, 58.4543
7.69538, 50, -21.5077, -34.0439, 48.4947, -141.319, -70.4226, 58.7566
7.70344, 50, -21.4104, -34.0342, 48.4733, -141.354, -70.3869, 59.061
7.71147, 51, -21.3122, -34.0219, 48.4497, -141.393, -70.3529, 59.3682
7.7194, 51, -21.213, -34.0073, 48.4241, -141.434, -70.3206, 59.6776
7.72753, 51, -21.1129, -33.9904, 48.3964, -141.476, -70.2895, 59.9894
7.73549, 51, -21.0118, -33.9705, 48.3666, -141.521, -70.2593, 60.3038
7.74346, 51, -20.9095, -33.9479, 48.3349, -141.569, -70.2304, 60.6207
7.75138, 51, -20.8061, -33.9226, 48.3012, -141.618, -70.2035, 60.9398
7.75949, 51, -20.7017, -33.8944, 48.2651, -141.67, -70.1783, 61.261
7.7674, 51, -20.5964, -33.8636, 48.227, -141.725, -70.1548, 61.5845
7.77548, 51, -20.4903, -33.8297, 48.1868, -141.781, -70.1328, 61.9103
7.78353, 52, -20.3835, -33.793, 48.1444, -141.84, -70.1122, 62.2382
7.79141, 52, -20.2757, -33.7537, 48.0999, -141.901, -70.093, 62.5682
7.79969, 52, -20.1669, -33.7114, 48.0531, -141.964, -70.0758, 62.9008
7.80917, 52, -20.0571, -33.666, 48.0042, -142.03, -70.0604, 63.2349
7.81555, 52, -19.9464, -33.6178, 47.953, -142.097, -70.0472, 63.5708
7.82354, 52, -19.8348, -33.5665, 47.8996, -142.168, -70.036, 63.9087
7.8315, 52, -19.7222, -33.5123, 47.8439, -142.24, -70.0267, 64.2485
7.83957, 52, -19.6091, -33.455, 47.7861, -142.314, -70.0194, 64.5901
7.84752, 53, -19.4954, -33.3946, 47.726, -142.39, -70.0141, 64.9337
7.85539, 53, -19.3808, -33.3312, 47.6637, -142.469, -70.0108, 65.2791
7.86359, 53, -19.2654, -33.2646, 47.5992, -142.55, -70.0094, 65.6261
7.87252, 53, -19.1491, -33.195, 47.5324, -142.633, -70.0094, 65.9745
7.8822, 53, -19.0321, -33.1223, 47.4632, -142.718, -70.0114, 66.3248
7.88838, 53, -18.9143, -33.0464, 47.3918, -142.806, -70.0156, 66.6767
7.89648, 53, -18.7956, -32.9672, 47.318, -142.895, -70.0221, 67.0301
7.90371, 53, -18.6765, -32.8848, 47.242, -142.986, -70.031, 67.3853
7.91182, 53, -18.5565, -32.799, 47.1635, -143.079, -70.0425, 67.7415
7.92057, 54, -18.4359, -32.71, 47.0827, -143.174, -70.0567, 68.0988
7.92793, 54, -18.3145, -32.6177, 46.9998, -143.271, -70.0736, 68.4576
7.93653, 54, -18.1926, -32.5221, 46.9147, -143.37, -70.0935, 68.8176
7.94478, 54, -18.07, -32.4234, 46.8272, -143.471, -70.1163, 69.1787
7.9534, 54, -17.9468, -32.3212, 46.7374, -143.574, -70.1415, 69.5414
7.95999, 54, -17.8232, -32.2155, 46.6453, -143.678, -70.169, 69.9049
7.96798, 54, -17.7611, -32.1614, 46.5983, -143.731, -70.199, 70.2693
7.97651, 54, -17.5744, -31.9941, 46.4536, -143.892, -70.2323, 70.6349
7.98426, 55, -17.4492, -31.8784, 46.3545, -144.001, -70.2689, 71.0014
7.99142, 55, -17.3864, -31.8193, 46.3042, -144.057, -70.288, 71.185
8.00514, 55, -17.1975, -31.6369, 46.0973, -144.282, -70.371, 71.9221
8.00732, 55, -17.1344, -31.5744, 46.0973, -144.282, -70.371, 71.9221
8.01547, 55, -17.0076, -31.4465, 45.9902, -144.397, -70.4176, 72.2912
8.02342, 55, -16.8805, -31.3151, 45.8808, -144.513, -70.466, 72.661
8.03137, 55, -16.753, -31.1803, 45.7689, -144.631, -70.5179, 73.0316
8.03942, 55, -16.6253, -31.0424, 45.655, -144.75, -70.5732, 73.4026
8.04942, 55, -16.4332, -30.8292, 45.4802, -144.931, -70.6608, 73.96
8.05538, 56, -16.3691, -30.7564, 45.4209, -144.992, -70.692, 74.146
8.06348, 56, -16.2407, -30.6081, 45.3005, -145.114, -70.7556, 74.518
8.07369, 56, -16.0477, -30.3794, 45.1153, -145.3, -70.8576, 75.0766
8.07958, 56, -15.9833, -30.3016, 45.0524, -145.363, -70.893, 75.263
8.08743, 56, -15.8545, -30.1436, 44.9253, -145.488, -70.9662, 75.6358
8.09704, 56, -15.7255, -29.9818, 44.731, -145.679, -71.0822, 76.1958
8.10346, 56, -15.5963, -29.8164, 44.6652, -145.743, -71.1226, 76.3824
8.11237, 56, -15.4669, -29.6478, 44.5318, -145.871, -71.2055, 76.755
8.12237, 57, -15.2726, -29.3895, 44.3277, -146.064, -71.3356, 77.314
8.12744, 57, -15.2078, -29.3016, 44.2586, -146.129, -71.3805, 77.5002
8.13538, 57, -15.0782, -29.1229, 44.119, -146.259, -71.4731, 77.8724
8.14359, 57, -14.9488, -28.941, 43.9775, -146.39, -71.5688, 78.2443
8.1561, 57, -14.7549, -28.6637, 43.7616, -146.587, -71.7183, 78.8016
8.15932, 57, -14.6902, -28.5698, 43.6887, -146.652, -71.7699, 78.9869
8.16746, 57, -14.561, -28.3789, 43.5416, -146.784, -71.8753, 79.3574
8.17537, 57, -14.4319, -28.1844, 43.3924, -146.916, -71.984, 79.7275
8.18346, 57, -14.3031, -27.9873, 43.2411, -147.048, -72.0962, 80.097
8.19144, 58, -14.1745, -27.7874, 43.0881, -147.18, -72.211, 80.466
8.19936, 58, -14.046, -27.5838, 42.9337, -147.313, -72.3295, 80.8343
8.20736, 58, -13.9178, -27.3772, 42.7776, -147.445, -72.451, 81.201
8.21564, 58, -13.79, -27.1683, 42.6194, -147.577, -72.5757, 81.567
8.22525, 58, -13.6624, -26.9563, 42.4593, -147.709, -72.7039, 81.9324
8.23237, 58, -13.5353, -26.7407, 42.2981, -147.841, -72.8351, 82.2963
8.23943, 58, -13.4087, -26.5224, 42.1356, -147.972, -72.9698, 82.6592
8.24738, 58, -13.2823, -26.3012, 41.971, -148.103, -73.1073, 83.0211
8.2556, 59, -13.1563, -26.0763, 41.8047, -148.234, -73.248, 83.3812
8.26454, 59, -13.0307, -25.8486, 41.6376, -148.364, -73.3915, 83.7402
8.27464, 59, -12.9055, -25.6186, 41.4693, -148.494, -73.5384, 84.2763
8.27963, 59, -12.781, -25.3855, 41.2992, -148.623, -73.6882, 84.4542
8.28817, 59, -12.657, -25.15, 41.1273, -148.751, -73.841, 84.8088
8.2954, 59, -12.5335, -24.9125, 40.9547, -148.879, -73.9967, 85.1624
8.30373, 59, -12.4105, -24.6721, 40.7812, -149.006, -74.1556, 85.5138
8.31335, 59, -12.2879, -24.4292, 40.6059, -149.132, -74.3172, 85.8633
8.32036, 59, -12.1657, -24.1845, 40.4291, -149.257, -74.4819, 86.2113
8.32786, 60, -12.0443, -23.9372, 40.2519, -149.381, -74.6492, 86.5572
8.3355, 60, -11.9236, -23.6875, 40.0739, -149.503, -74.8193, 86.9009
8.34546, 60, -11.8035, -23.4355, 39.8943, -149.625, -74.9921, 87.243
8.3516, 60, -11.6841, -23.1806, 39.7138, -149.746, -75.1673, 87.5828
8.35937, 60, -11.5656, -22.9236, 39.5333, -149.865, -75.3455, 87.9202
8.3674, 60, -11.4477, -22.6654, 39.3519, -149.983, -75.526, 88.2556
8.37551, 60, -11.3304, -22.4053, 39.1688, -150.1, -75.7091, 88.5891
8.38351, 60, -11.2139, -22.1438, 38.9852, -150.216, -75.8945, 88.9202
8.39259, 61, -11.0981, -21.8805, 38.8016, -150.33, -76.0823, 89.2488
8.39965, 61, -10.9832, -21.6147, 38.617, -150.442, -76.2722, 89.5753
8.40765, 61, -10.8691, -21.3476, 38.4313, -150.553, -76.4646, 89.8988
8.41681, 61, -10.7558, -21.0791, 38.2461, -150.663, -76.659, 90.2194
8.42441, 61, -10.6433, -20.8087, 38.0608, -150.771, -76.8558, 90.5376
8.43191, 61, -10.5318, -20.5372, 37.8745, -150.877, -77.0547, 90.8532
8.44095, 61, -10.4209, -20.2639, 37.6879, -150.982, -77.2557, 91.1658
8.44846, 61, -10.3109, -19.9888, 37.5016, -151.085, -77.4585, 91.4755
8.45601, 61, -10.2019, -19.7133, 37.3149, -151.186, -77.6631, 91.7825
8.46498, 62, -10.0939, -19.4361, 37.1274, -151.286, -77.8695, 92.0863
8.47243, 62, -9.98677, -19.1582, 36.9408, -151.384, -78.0775, 92.3867
8.48005, 62, -9.93353, -19.0189, 36.8477, -151.432, -78.287, 92.6841
8.48836, 62, -9.8278, -18.7392, 36.6614, -151.527, -78.3924, 92.9786
8.49533, 62, -9.72317, -18.4588, 36.4744, -151.62, -78.604, 93.1246
8.50442, 62, -9.56779, -18.0382, 36.1948, -151.756, -78.9243, 93.5573
8.51136, 62, -9.51633, -17.8977, 36.1018, -151.8, -79.0318, 93.7
8.51938, 62, -9.41405, -17.6168, 35.9155, -151.888, -79.2476, 93.9831
8.5274, 62, -9.31269, -17.3351, 35.7294, -151.974, -79.4647, 94.2626
8.53731, 63, -9.1625, -16.9111, 35.4525, -152.098, -79.7924, 94.6743
8.54383, 63, -9.11291, -16.7698, 35.3603, -152.139, -79.9023, 94.8098
8.55141, 63, -9.01442, -16.4863, 35.1755, -152.219, -80.1228, 95.0781
8.55935, 63, -8.91691, -16.2029, 34.9915, -152.296, -80.3443, 95.3425
8.56735, 63, -8.82037, -15.9195, 34.8088, -152.372, -80.5668, 95.603
8.57768, 63, -8.67743, -15.4935, 34.5353, -152.481, -80.9018, 95.9863
8.58351, 63, -8.6303, -15.3519, 34.4444, -152.517, -81.0139, 96.1123
8.59137, 63, -8.53679, -15.0687, 34.2639, -152.586, -81.2383, 96.3611
8.60184, 64, -8.44423, -14.7855, 34.0843, -152.654, -81.4632, 96.6057
8.60754, 64, -8.35288, -14.5029, 33.9047, -152.718, -81.6886, 96.8458
8.6162, 64, -8.26255, -14.2195, 33.726, -152.782, -81.9143, 97.0817
8.62342, 64, -8.1732, -13.9367, 33.549, -152.843, -82.1402, 97.3135
8.63239, 64, -8.08468, -13.6548, 33.373, -152.902, -82.3666, 97.5411
8.63936, 64, -7.99687, -13.3736, 33.1973, -152.959, -82.5933, 97.7641
8.64734, 64, -7.90991, -13.0937, 33.0226, -153.014, -82.8201, 97.9825
8.65626, 64, -7.82398, -12.814, 32.8498, -153.067, -83.047, 98.1964
8.66444, 64, -7.73894, -12.5347, 32.6779, -153.118, -83.2741, 98.406
8.67138, 65, -7.65497, -12.2568, 32.5065, -153.166, -83.5012, 98.6108
8.68038, 65, -7.57195, -11.9794, 32.3369, -153.213, -83.7284, 98.8107
8.69071, 65, -7.44947, -11.5654, 32.0854, -153.278, -84.0686, 99.101
8.69534, 65, -7.40917, -11.4275, 32.0019, -153.299, -84.1821, 99.1953
8.70422, 65, -7.32931, -11.152, 31.8356, -153.34, -84.4085, 99.3802
8.71136, 65, -7.25044, -10.8782, 31.6712, -153.378, -84.6349, 99.5603
8.71934, 65, -7.17249, -10.6053, 31.5086, -153.414, -84.8609, 99.7352
8.72927, 65, -7.09531, -10.3336, 31.347, -153.449, -85.0866, 99.9049
8.73531, 66, -7.01919, -10.0634, 31.1865, -153.481, -85.3117, 100.069
8.74348, 66, -6.94389, -9.79361, 31.0279, -153.512, -85.5363, 100.228
8.75137, 66, -6.86942, -9.5253, 30.871, -153.539, -85.7607, 100.382
8.76117, 66, -6.79584, -9.259, 30.7151, -153.565, -85.9844, 100.529
8.76743, 66, -6.72299, -8.99382, 30.5605, -153.589, -86.2077, 100.672
8.77535, 66, -6.651, -8.73068, 30.4077, -153.612, -86.4302, 100.809
8.78343, 66, -6.57976, -8.46899, 30.2567, -153.633, -86.6521, 100.94
8.79141, 66, -6.50939, -8.20805, 30.1071, -153.651, -86.8736, 101.065
8.79938, 66, -6.43999, -7.94912, 29.9589, -153.668, -87.0942, 101.185
8.80835, 67, -6.37151, -7.69181, 29.8122, -153.683, -87.3143, 101.298
8.81544, 67, -6.30384, -7.43572, 29.6673, -153.695, -87.5338, 101.405
8.82357, 67, -6.23702, -7.1816, 29.524, -153.706, -87.7525, 101.506
8.83197, 67, -6.17107, -6.92875, 29.3824, -153.714, -87.9705, 101.601
8.83992, 67, -6.10597, -6.67712, 29.2421, -153.722, -88.1877, 101.69
8.84753, 67, -6.04166, -6.42787, 29.1036, -153.727, -88.404, 101.773
8.85598, 67, -5.97806, -6.18033, 28.967, -153.73, -88.6195, 101.849
8.86436, 67, -5.91522, -5.93434, 28.8318, -153.732, -88.8342, 101.92
8.87144, 67, -5.85311, -5.69049, 28.6982, -153.733, -89.0479, 101.983
8.88017, 68, -5.7918, -5.44775, 28.5663, -153.733, -89.2607, 102.04
8.88752, 68, -5.73117, -5.20606, 28.4359, -153.731, -89.4725, 102.091
8.89559, 68, -5.67107, -4.96682, 28.3073, -153.726, -89.6834, 102.134
8.90399, 68, -5.61171, -4.7297, 28.1802, -153.72, -89.8936, 102.171
8.91177, 68, -5.55308, -4.49418, 28.0548, -153.713, -90.103, 102.2
8.91977, 68, -5.49501, -4.26112, 27.931, -153.704, -90.3116, 102.224
8.92783, 68, -5.43773, -4.03, 27.8088, -153.693, -90.5194, 102.24
8.9359, 68, -5.38115, -3.80017, 27.6882, -153.68, -90.7265, 102.25
8.94458, 69, -5.3252, -3.57238, 27.5693, -153.665, -90.9326, 102.254
8.95222, 69, -5.27001, -3.34696, 27.4521, -153.649, -91.1381, 102.252
8.96314, 69, -5.21536, -3.12292, 27.3364, -153.631, -91.3426, 102.241
8.96789, 69, -5.18823, -3.01145, 27.2792, -153.622, -91.5462, 102.223
8.97641, 69, -5.10788, -2.68061, 27.1096, -153.59, -91.7487, 102.197
8.98389, 69, -5.08136, -2.57122, 27.0539, -153.579, -91.8497, 102.182
8.99133, 69, -5.02861, -2.35325, 26.9437, -153.556, -92.0509, 102.145
9.00091, 69, -4.95081, -2.03029, 26.7816, -153.52, -92.351, 102.075
9.00736, 69, -4.92518, -1.92392, 26.7283, -153.507, -92.4506, 102.047
9.01738, 70, -4.84869, -1.60699, 26.5708, -153.465, -92.7478, 101.954
9.02337, 70, -4.82345, -1.50219, 26.5189, -153.451, -92.8464, 101.919
9.03156, 70, -4.77328, -1.29448, 26.4164, -153.421, -93.0432, 101.843
9.03932, 70, -4.72332, -1.08869, 26.3156, -153.391, -93.239, 101.759
9.04733, 70, -4.67387, -0.884292, 26.2164, -153.359, -93.4339, 101.667
9.05758, 70, -4.60069, -0.581939, 26.0705, -153.308, -93.725, 101.515
9.06334, 70, -4.57644, -0.482521, 26.0225, -153.291, -93.8215, 101.46
9.07133, 70, -4.52822, -0.285043, 25.9276, -153.257, -94.0139, 101.345
9.08237, 71, -4.45692, 0.00801324, 25.7876, -153.203, -94.3013, 101.158
9.08735, 71, -4.43333, 0.104437, 25.7417, -153.184, -94.3967, 101.092
9.0969, 71, -4.38628, 0.295425, 25.6513, -153.127, -94.6814, 100.881
9.10731, 71, -4.31627, 0.578946, 25.5186, -153.088, -94.87, 100.73
9.11128, 71, -4.29302, 0.672686, 25.4751, -153.068, -94.964, 100.652
9.11941, 71, -4.2466, 0.858292, 25.389, -153.027, -95.1513, 100.49
9.12733, 71, -4.20046, 1.04121, 25.3041, -152.987, -95.3377, 100.321
9.13634, 71, -4.15462, 1.22245, 25.2205, -152.946, -95.5232, 100.143
9.14341, 71, -4.10886, 1.40192, 25.1384, -152.903, -95.7077, 99.9583
9.15133, 72, -4.06325, 1.57875, 25.0579, -152.86, -95.8911, 99.7657
9.15939, 72, -4.01777, 1.75303, 24.9789, -152.817, -96.0734, 99.5653
9.16733, 72, -3.97244, 1.92551, 24.9012, -152.774, -96.2549, 99.3571
9.17559, 72, -3.92706, 2.09603, 24.8248, -152.729, -96.4352, 99.1417
9.18445, 72, -3.88179, 2.26389, 24.7496, -152.686, -96.6145, 98.9187
9.19236, 72, -3.83641, 2.42897, 24.6758, -152.642, -96.7926, 98.6883
9.19934, 72, -3.79103, 2.59187, 24.6034, -152.596, -96.9695, 98.4505
9.2074, 72, -3.74575, 2.75274, 24.5322, -152.552, -97.1453, 98.2054
9.21529, 73, -3.70063, 2.91098, 24.4625, -152.508, -97.3198, 97.9533
9.22352, 73, -3.65543, 3.06635, 24.3941, -152.463, -97.4932, 97.6942
9.23231, 73, -3.61005, 3.21931, 24.3271, -152.418, -97.6652, 97.4278
9.23934, 73, -3.5647, 3.37001, 24.2615, -152.374, -97.8357, 97.1544
9.24733, 73, -3.51927, 3.51808, 24.1972, -152.33, -98.005, 96.8744
9.25542, 73, -3.47351, 3.66335, 24.1344, -152.286, -98.1727, 96.5877
9.26348, 73, -3.42756, 3.80554, 24.0728, -152.243, -98.3389, 96.2944
9.27251, 73, -3.38147, 3.94479, 24.0124, -152.2, -98.5034, 95.9945
9.27933, 73, -3.33495, 4.08129, 23.9534, -152.157, -98.6661, 95.6886
9.28753, 74, -3.28823, 4.21488, 23.8957, -152.115, -98.8269, 95.3767
9.29533, 74, -3.24136, 4.34533, 23.8393, -152.074, -98.9858, 95.0589
9.3042, 74, -3.19417, 4.47264, 23.7844, -152.033, -99.1427, 94.7357
9.31149, 74, -3.14662, 4.59665, 23.7309, -151.993, -99.2973, 94.4071
9.31942, 74, -3.09892, 4.71751, 23.6788, -151.954, -99.4501, 94.0734
9.32743, 74, -3.05093, 4.83527, 23.6281, -151.916, -99.6001, 93.7342
9.3355, 74, -3.00248, 4.94967, 23.5788, -151.877, -99.7481, 93.3902
9.34347, 74, -2.95377, 5.06076, 23.531, -151.841, -99.8932, 93.0413
9.35153, 74, -2.90478, 5.16836, 23.4846, -151.806, -100.036, 92.6879
9.35952, 75, -2.85538, 5.27228, 23.4397, -151.772, -100.176, 92.3309
9.36736, 75, -2.80562, 5.37251, 23.3962, -151.738, -100.313, 91.97
9.37637, 75, -2.75575, 5.46895, 23.3541, -151.706, -100.447, 91.6048
9.38345, 75, -2.70544, 5.56155, 23.3137, -151.675, -100.579, 91.2363
9.39144, 75, -2.65457, 5.65023, 23.2747, -151.646, -100.707, 90.8645
9.40035, 75, -2.60338, 5.73484, 23.2373, -151.617, -100.832, 90.4893
9.40776, 75, -2.55179, 5.81534, 23.2014, -151.589, -100.953, 90.1117
9.41567, 75, -2.49972, 5.89162, 23.1671, -151.563, -101.071, 89.7317
9.42459, 76, -2.44729, 5.96369, 23.1345, -151.539, -101.186, 89.3494
9.43186, 76, -2.39448, 6.03137, 23.1036, -151.516, -101.296, 88.9653
9.4405, 76, -2.34134, 6.09466, 23.0742, -151.495, -101.403, 88.5792
9.44828, 76, -2.28789, 6.15349, 23.0467, -151.475, -101.506, 88.1916
9.45704, 76, -2.23404, 6.20782, 23.021, -151.456, -101.604, 87.803
9.46451, 76, -2.17979, 6.25749, 22.9971, -151.438, -101.698, 87.413
9.47198, 76, -2.12526, 6.30232, 22.9749, -151.422, -101.788, 87.0219
9.48051, 76, -2.07034, 6.34241, 22.9545, -151.408, -101.874, 86.6302
9.48731, 76, -2.04274, 6.36066, 22.9451, -151.401, -101.914, 86.4342
9.4962, 77, -1.98736, 6.39334, 22.9276, -151.384, -102.03, 85.8465
9.50503, 77, -1.93167, 6.43269, 22.9048, -151.374, -102.101, 85.4555
9.51327, 77, -1.84756, 6.45279, 22.8923, -151.366, -102.167, 85.0649
9.51937, 77, -1.81941, 6.4608, 22.8868, -151.362, -102.198, 84.8697
9.52736, 77, -1.76286, 6.47266, 22.8772, -151.356, -102.255, 84.48
9.53531, 77, -1.706, 6.47928, 22.8698, -151.351, -102.308, 84.0909
9.54612, 77, -1.62039, 6.4799, 22.8625, -151.346, -102.377, 83.5097
9.55136, 77, -1.5917, 6.47748, 22.8611, -151.345, -102.397, 83.3167
9.5593, 78, -1.53425, 6.46856, 22.8597, -151.344, -102.434, 82.9316
9.56737, 78, -1.4766, 6.45418, 22.8603, -151.343, -102.465, 82.548
9.57954, 78, -1.38982, 6.42162, 22.8654, -151.344, -102.499, 81.9766
9.58326, 78, -1.36092, 6.4079, 22.8682, -151.345, -102.508, 81.7872
9.5914, 78, -1.30294, 6.37636, 22.8756, -151.348, -102.521, 81.4102
9.60112, 78, -1.24482, 6.31815, 22.8915, -151.355, -102.529, 80.8496
9.60733, 78, -1.18665, 6.29579, 22.898, -151.358, -102.529, 80.6637
9.61634, 78, -1.12827, 6.24673, 22.9127, -151.365, -102.525, 80.2942
9.62335, 78, -1.06984, 6.19174, 22.9302, -151.373, -102.514, 79.9276
9.63242, 79, -1.01133, 6.13059, 22.9503, -151.382, -102.497, 79.5634
9.63932, 79, -0.952643, 6.06338, 22.9729, -151.393, -102.474, 79.2023
9.64745, 79, -0.893936, 5.98992, 22.9984, -151.404, -102.443, 78.8446
9.6561, 79, -0.83524, 5.91043, 23.0264, -151.416, -102.406, 78.4898
9.66337, 79, -0.77644, 5.82498, 23.0572, -151.429, -102.362, 78.1383
9.67161, 79, -0.71777, 5.7334, 23.0909, -151.444, -102.312, 77.7902
9.67933, 79, -0.659047, 5.63573, 23.1273, -151.46, -102.254, 77.4451
9.68731, 79, -0.600394, 5.53196, 23.1666, -151.476, -102.191, 77.1036
9.69683, 80, -0.541796, 5.42185, 23.2088, -151.493, -102.12, 76.7661
9.70331, 80, -0.483212, 5.30548, 23.2541, -151.511, -102.043, 76.4318
9.71138, 80, -0.424676, 5.18301, 23.3023, -151.529, -101.958, 76.1012
9.71932, 80, -0.366231, 5.05428, 23.3534, -151.547, -101.867, 75.7742
9.72754, 80, -0.307791, 4.91938, 23.4076, -151.566, -101.769, 75.451
9.73636, 80, -0.249486, 4.77811, 23.4651, -151.586, -101.664, 75.1312
9.74439, 80, -0.1911, 4.63047, 23.5256, -151.607, -101.553, 74.8152
9.75232, 80, -0.1329, 4.47684, 23.5894, -151.628, -101.434, 74.5033
9.75934, 80, -0.0747217, 4.31742, 23.6564, -151.649, -101.308, 74.1949
9.76732, 81, -0.0164477, 4.15172, 23.7264, -151.67, -101.176, 73.8898
9.77556, 81, 0.0416857, 3.97947, 23.7997, -151.691, -101.037, 73.5885
9.78446, 81, 0.0998007, 3.80093, 23.8762, -151.713, -100.891, 73.2909
9.79133, 81, 0.157854, 3.61716, 23.9562, -151.735, -100.737, 72.9968
9.80075, 81, 0.215606, 3.42799, 24.0396, -151.758, -100.577, 72.7064
9.80832, 81, 0.273276, 3.23222, 24.1266, -151.781, -100.41, 72.4201
9.81547, 81, 0.330834, 3.02979, 24.2172, -151.803, -100.236, 72.1374
9.8234, 81, 0.388256, 2.82214, 24.3112, -151.826, -100.056, 71.8582
9.83138, 82, 0.445746, 2.60904, 24.4085, -151.848, -99.868, 71.5823
9.83951, 82, 0.503136, 2.38932, 24.5091, -151.87, -99.6737, 71.3101
9.84743, 82, 0.560511, 2.16337, 24.6133, -151.893, -99.4731, 71.0411
9.85537, 82, 0.617932, 1.93187, 24.7213, -151.916, -99.2659, 70.7756
9.86351, 82, 0.675146, 1.69368, 24.8329, -151.938, -99.0518, 70.5134
9.87135, 82, 0.732217, 1.44924, 24.9485, -151.96, -98.8312, 70.2548
9.87966, 82, 0.789333, 1.19928, 25.0674, -151.982, -98.6041, 70
9.88831, 82, 0.846432, 0.943016, 25.1897, -152.003, -98.3706, 69.7483
9.89548, 82, 0.903599, 0.681218, 25.3156, -152.025, -98.1309, 69.4995
9.9035, 83, 0.960926, 0.414091, 25.4453, -152.047, -97.8852, 69.254
9.91173, 83, 1.01821, 0.140545, 25.579, -152.068, -97.6334, 69.0117
9.92047, 83, 1.07557, -0.138057, 25.7162, -152.088, -97.3755, 68.7723
9.92813, 83, 1.13291, -0.421654, 25.8567, -152.108, -97.1114, 68.5361
9.93582, 83, 1.19015, -0.710524, 26.0009, -152.127, -96.841, 68.3028
9.94447, 83, 1.24744, -1.00393, 26.1489, -152.146, -96.5647, 68.073
9.95189, 83, 1.30482, -1.30314, 26.3004, -152.164, -96.2828, 67.8464
9.96043, 83, 1.36225, -1.60718, 26.4552, -152.183, -95.9951, 67.6229
9.9679, 83, 1.41977, -1.91649, 26.6139, -152.2, -95.702, 67.4023
9.97588, 84, 1.44856, -2.07321, 26.6946, -152.217, -95.4035, 67.1847
9.98448, 84, 1.53526, -2.54981, 26.9426, -152.234, -95.0993, 66.9702
9.9913, 84, 1.56425, -2.71119, 27.0267, -152.241, -94.9452, 66.8644
10.0009, 84, 1.62228, -3.03712, 27.197, -152.257, -94.6328, 66.5515
10.0088, 84, 1.68041, -3.36765, 27.4607, -152.278, -94.1545, 66.3466
10.0153, 84, 1.73871, -3.7028, 27.5507, -152.285, -93.9925, 66.2452
10.0233, 84, 1.79715, -4.04186, 27.7329, -152.298, -93.665, 66.0447
10.0314, 84, 1.85581, -4.38548, 27.9173, -152.311, -93.333, 65.8472
10.0393, 85, 1.91467, -4.73333, 28.1056, -152.323, -92.9961, 65.6529
10.0487, 85, 2.0035, -5.26282, 28.3946, -152.339, -92.4827, 65.3672
10.0553, 85, 2.03328, -5.44085, 28.4922, -152.344, -92.3094, 65.2736
10.0633, 85, 2.09284, -5.7997, 28.6899, -152.353, -91.9598, 65.0886
10.0774, 85, 2.21246, -6.52662, 29.0969, -152.369, -91.2479, 64.7288
10.0795, 85, 2.21246, -6.52662, 29.0969, -152.369, -91.2479, 64.7288
10.0873, 85, 2.27257, -6.89413, 29.3045, -152.375, -90.8865, 64.554
10.0969, 85, 2.33286, -7.45127, 29.6219, -152.383, -90.3377, 64.2973
10.1034, 85, 2.39342, -7.63859, 29.7289, -152.385, -90.153, 64.2134
10.1113, 86, 2.4544, -8.01601, 29.9445, -152.388, -89.7812, 64.0483
10.1203, 86, 2.51585, -8.39539, 30.1633, -152.39, -89.4063, 63.8865
10.1274, 86, 2.57763, -8.77751, 30.3851, -152.391, -89.028, 63.7287
10.1363, 86, 2.6398, -9.16163, 30.6089, -152.391, -88.6472, 63.575
10.1434, 86, 2.70224, -9.54795, 30.8356, -152.391, -88.2638, 63.4251
10.1515, 86, 2.76486, -9.93557, 31.0647, -152.39, -87.8777, 63.2791
10.163, 86, 2.85917, -10.5205, 31.4119, -152.386, -87.2943, 63.067
10.1683, 86, 2.89066, -10.7163, 31.5292, -152.384, -87.0988, 62.9981
10.1781, 87, 2.98559, -11.305, 31.8832, -152.376, -86.5091, 62.7978
10.1834, 87, 3.01735, -11.5017, 32.002, -152.372, -86.3117, 62.7333
10.1913, 87, 3.0812, -11.8961, 32.2413, -152.364, -85.9154, 62.6074
10.1993, 87, 3.14555, -12.2918, 32.4821, -152.354, -85.5175, 62.4866
10.2075, 87, 3.21023, -12.688, 32.7247, -152.343, -85.1183, 62.3707
10.2153, 87, 3.27517, -13.0848, 32.9697, -152.33, -84.7178, 62.2594
10.2233, 87, 3.34031, -13.4821, 33.2156, -152.315, -84.3156, 62.1529
10.2313, 87, 3.40562, -13.8801, 33.4627, -152.3, -83.9129, 62.0512
10.2394, 87, 3.47116, -14.2779, 33.7111, -152.283, -83.5089, 61.9547
10.2473, 88, 3.53685, -14.6761, 33.9604, -152.264, -83.1044, 61.8627
10.2555, 88, 3.60284, -15.0738, 34.2115, -152.245, -82.6992, 61.7767
10.2643, 88, 3.66919, -15.4714, 34.4634, -152.223, -82.2933, 61.6959
10.2713, 88, 3.73584, -15.8679, 34.7161, -152.2, -81.8871, 61.6216
10.2806, 88, 3.80241, -16.264, 34.9698, -152.174, -81.4809, 61.5533
10.2883, 88, 3.86909, -16.6595, 35.2239, -152.147, -81.0742, 61.4903
10.2953, 88, 3.93599, -17.0543, 35.4791, -152.119, -80.6675, 61.4341
10.3033, 88, 4.00298, -17.448, 35.7349, -152.09, -80.2612, 61.384
10.3123, 89, 4.07006, -17.8409, 35.9906, -152.058, -79.8546, 61.3395
10.3194, 89, 4.13718, -18.2329, 36.2473, -152.024, -79.4481, 61.3018
10.3274, 89, 4.20458, -18.6234, 36.5041, -151.989, -79.0415, 61.2714
10.3365, 89, 4.27204, -19.0128, 36.761, -151.952, -78.6352, 61.2486
10.3444, 89, 4.33958, -19.4011, 37.0182, -151.912, -78.2296, 61.2335
10.3515, 89, 4.40717, -19.7881, 37.2747, -151.87, -77.8252, 61.2256
10.3595, 89, 4.47459, -20.1728, 37.5321, -151.827, -77.4208, 61.2234
10.3673, 89, 4.54207, -20.5561, 37.7895, -151.783, -77.0173, 61.2285
10.3754, 89, 4.60952, -20.9375, 38.0467, -151.735, -76.6143, 61.242
10.3836, 90, 4.67697, -21.3173, 38.3041, -151.686, -76.2114, 61.2632
10.3926, 90, 4.74429, -21.6946, 38.5607, -151.635, -75.8091, 61.2929
10.3995, 90, 4.81158, -22.0705, 38.8174, -151.581, -75.4076, 61.3318
10.4077, 90, 4.87883, -22.4445, 39.0737, -151.527, -75.0067, 61.3791
10.4156, 90, 4.94607, -22.8172, 39.3294, -151.469, -74.6068, 61.4352
10.4238, 90, 5.01336, -23.1874, 39.5852, -151.409, -74.2078, 61.5013
10.4318, 90, 5.08058, -23.5562, 39.8403, -151.348, -73.8092, 61.5769
10.4404, 90, 5.14777, -23.9227, 40.095, -151.283, -73.4113, 61.6618
10.4482, 91, 5.21484, -24.2871, 40.3495, -151.217, -73.0141, 61.7573
10.4575, 91, 5.28166, -24.6484, 40.6028, -151.148, -72.6176, 61.8623
10.4639, 91, 5.34829, -25.0077, 40.856, -151.077, -72.2216, 61.9777
10.4725, 91, 5.41461, -25.3647, 41.1085, -151.003, -71.8262, 62.1034
10.4799, 91, 5.44777, -25.5426, 41.2344, -150.966, -71.4313, 62.2399
10.4941, 91, 5.58058, -26.2488, 41.7373, -150.81, -70.8408, 62.4648
10.4962, 91, 5.61388, -26.4239, 41.8623, -150.77, -70.6441, 62.5453
10.5033, 91, 5.64715, -26.5985, 41.9872, -150.729, -70.4476, 62.6289
10.5113, 91, 5.71366, -26.9458, 42.2369, -150.645, -70.0552, 62.8047
10.5207, 92, 5.81364, -27.4628, 42.6088, -150.516, -69.4673, 63.0902
10.5273, 92, 5.84685, -27.6337, 42.7324, -150.472, -69.2715, 63.1912
10.5353, 92, 5.91332, -27.9743, 42.9795, -150.382, -68.88, 63.4021
10.5433, 92, 5.97997, -28.313, 43.2255, -150.29, -68.4885, 63.6251
10.5514, 92, 6.04676, -28.6495, 43.471, -150.196, -68.0973, 63.8605
10.5606, 92, 6.11373, -29.1488, 43.8367, -150.051, -67.5111, 64.2373
10.57, 92, 6.21446, -29.4789, 44.0789, -149.953, -67.1205, 64.5045
10.5753, 92, 6.24821, -29.6429, 44.1999, -149.904, -66.9253, 64.6429
10.5859, 93, 6.35012, -30.1312, 44.5606, -149.753, -66.3401, 65.0789
10.5913, 93, 6.38429, -30.2926, 44.6802, -149.702, -66.145, 65.2312
10.6017, 93, 6.48751, -30.7723, 45.0377, -149.546, -65.5595, 65.7101
10.6073, 93, 6.52233, -30.9313, 45.1559, -149.494, -65.3644, 65.8773
10.6218, 93, 6.62799, -31.4048, 45.6257, -149.282, -64.5838, 66.5846
10.6232, 93, 6.66351, -31.5614, 45.6257, -149.282, -64.5838, 66.5846
10.6323, 93, 6.7352, -31.8723, 45.8576, -149.175, -64.1935, 66.9601
10.6392, 93, 6.80768, -32.1794, 46.0881, -149.068, -63.803, 67.3504
10.6473, 93, 6.88118, -32.4842, 46.3174, -148.962, -63.4122, 67.7547
10.6553, 94, 6.95576, -32.7856, 46.5444, -148.856, -63.0213, 68.174
10.6633, 94, 7.03139, -33.0837, 46.7695, -148.752, -62.6304, 68.6092
10.6714, 94, 7.10851, -33.3782, 46.9925, -148.648, -62.2397, 69.0608
10.6793, 94, 7.18737, -33.6688, 47.212, -148.545, -61.8493, 69.5301
10.6875, 94, 7.26804, -33.9566, 47.4293, -148.443, -61.459, 70.0157
10.6977, 94, 7.35045, -34.2405, 47.7513, -148.295, -60.8736, 70.7751
10.7044, 94, 7.43464, -34.5205, 47.8569, -148.248, -60.6787, 71.0361
10.7123, 94, 7.5209, -34.7966, 48.0663, -148.154, -60.2891, 71.5697
10.7193, 94, 7.609, -35.0672, 48.2729, -148.065, -59.8999, 72.118
10.7273, 95, 7.69911, -35.3331, 48.4752, -147.979, -59.5119, 72.6818
10.7353, 95, 7.79146, -35.5943, 48.6732, -147.899, -59.1255, 73.2621
10.7433, 95, 7.88626, -35.8505, 48.8678, -147.823, -58.7405, 73.8598
10.7513, 95, 7.98386, -36.1022, 49.0578, -147.752, -58.3576, 74.4738
10.7629, 95, 8.13494, -36.4684, 49.3334, -147.656, -57.786, 75.4262
10.7675, 95, 8.18656, -36.5871, 49.4232, -147.627, -57.5963, 75.7516
10.7763, 95, 8.29178, -36.8201, 49.5999, -147.573, -57.2185, 76.4128
10.7833, 95, 8.39959, -37.0467, 49.7711, -147.527, -56.8434, 77.0871
10.7913, 96, 8.50986, -37.2654, 49.9365, -147.489, -56.4711, 77.7756
10.7993, 96, 8.62252, -37.4765, 50.0965, -147.458, -56.103, 78.4776
10.8075, 96, 8.7379, -37.6807, 50.25, -147.436, -55.7398, 79.1924
10.8153, 96, 8.85637, -37.8773, 50.3961, -147.423, -55.382, 79.9225
10.8237, 96, 8.97777, -38.0657, 50.5354, -147.417, -55.0295, 80.6659
10.8314, 96, 9.10155, -38.2459, 50.6681, -147.42, -54.6821, 81.4203
10.8394, 96, 9.22756, -38.4171, 50.794, -147.432, -54.3398, 82.187
10.8478, 96, 9.35587, -38.5786, 50.9133, -147.454, -54.0031, 82.9644
10.8554, 96, 9.48589, -38.7298, 51.0254, -147.486, -53.6728, 83.7496
10.8635, 97, 9.6172, -38.8704, 51.1295, -147.526, -53.3497, 84.5454
10.8713, 97, 9.75007, -39.0011, 51.225, -147.578, -53.0354, 85.3485
10.8794, 97, 9.885, -39.1222, 51.3116, -147.639, -52.7314, 86.1566
10.8873, 97, 10.0217, -39.2332, 51.3891, -147.71, -52.4379, 86.9737
10.8957, 97, 10.1596, -39.3331, 51.4579, -147.791, -52.1547, 87.7957
10.9035, 97, 10.2986, -39.4211, 51.5181, -147.88, -51.8812, 88.6225
10.9115, 97, 10.4381, -39.497, 51.57, -147.978, -51.6172, 89.456
10.9197, 97, 10.5774, -39.5606, 51.6134, -148.084, -51.3631, 90.2898
10.9276, 98, 10.7161, -39.6116, 51.6478, -148.198, -51.1196, 91.1263
10.9357, 98, 10.854, -39.6498, 51.6728, -148.32, -50.8885, 91.9644
10.9447, 98, 10.9913, -39.6764, 51.6883, -148.45, -50.6713, 92.7999
10.9518, 98, 11.1285, -39.6918, 51.6938, -148.588, -50.4689, 93.6362
10.9607, 98, 11.2651, -39.6957, 51.6892, -148.731, -50.2814, 94.4688
10.9679, 98, 11.4004, -39.687, 51.6749, -148.881, -50.1079, 95.2972
10.9764, 98, 11.534, -39.6652, 51.6514, -149.035, -49.948, 96.1247
10.9839, 98, 11.6002, -39.6495, 51.6363, -149.114, -49.8731, 96.9458
10.9923, 98, 11.7952, -39.5825, 51.5774, -149.357, -49.6686, 97.7635
10.9999, 99, 11.8588, -39.5534, 51.5531, -149.44, -49.6073, 98.1709
11.0084, 99, 12.0461, -39.447, 51.4661, -149.692, -49.4471, 99.378
11.0153, 99, 12.1074, -39.4053, 51.4321, -149.777, -49.4019, 99.7765
11.0234, 99, 12.2281, -39.3134, 51.3566, -149.949, -49.3244, 100.567
11.0344, 99, 12.4034, -39.1528, 51.2248, -150.21, -49.2388, 101.733
11.0393, 99, 12.46, -39.0928, 51.176, -150.297, -49.2187, 102.117
11.0473, 99, 12.5705, -38.9632, 51.0718, -150.471, -49.1896, 102.878
11.0553, 99, 12.6773, -38.8209, 50.9592, -150.644, -49.1754, 103.627
11.0648, 100, 12.8301, -38.5845, 50.7739, -150.902, -49.1806, 104.731
11.0728, 100, 12.927, -38.4126, 50.6394, -151.071, -49.2037, 105.452
11.0808, 100, 13.0201, -38.2297, 50.4959, -151.238, -49.2426, 106.159
11.0873, 100, 13.0653, -38.1342, 50.421, -151.321, -49.269, 106.509
11.0969, 100, 13.1947, -37.8301, 50.1841, -151.563, -49.3728, 107.535
11.1049, 100, 13.2754, -37.6136, 50.0158, -151.721, -49.4622, 108.201
11.1113, 100, 13.3138, -37.5012, 49.9285, -151.798, -49.5125, 108.529
11.1193, 100, 13.3874, -37.2677, 49.748, -151.949, -49.6245, 109.175
11.1283, 100, 13.4565, -37.0229, 49.5603, -152.095, -49.7511, 109.806
11.1363, 101, 13.5209, -36.7673, 49.3647, -152.236, -49.8921, 110.425
11.1433, 101, 13.581, -36.5002, 49.1605, -152.373, -50.0478, 111.029
11.1523, 101, 13.6369, -36.2231, 48.949, -152.504, -50.2189, 111.619
11.1593, 101, 13.6887, -35.937, 48.7306, -152.629, -50.4051, 112.194
11.1673, 101, 13.7364, -35.641, 48.5038, -152.749, -50.6061, 112.754
11.1753, 101, 13.7797, -35.3358, 48.2704, -152.863, -50.8212, 113.299
11.1833, 101, 13.8185, -35.02, 48.0308, -152.97, -51.0496, 113.831
11.1913, 101, 13.853, -34.6944, 47.7841, -153.072, -51.2906, 114.348
11.1993, 101, 13.8832, -34.3591, 47.5318, -153.168, -51.5438, 114.852
11.2073, 102, 13.9092, -34.0146, 47.2732, -153.257, -51.8097, 115.343
11.2153, 102, 13.9312, -33.661, 47.0084, -153.341, -52.088, 115.82
11.2233, 102, 13.9496, -33.2999, 46.7382, -153.418, -52.3793, 116.284
11.2313, 102, 13.9647, -32.9318, 46.4613, -153.489, -52.6835, 116.733
11.2393, 102, 13.9763, -32.5559, 46.1794, -153.553, -52.9996, 117.169
11.2473, 102, 13.9842, -32.1716, 45.8921, -153.613, -53.3265, 117.593
11.2553, 102, 13.9889, -31.7796, 45.6002, -153.666, -53.6636, 118.005
11.2634, 102, 13.9903, -31.3806, 45.3039, -153.713, -54.01, 118.405
11.2714, 103, 13.9883, -30.9748, 45.0031, -153.755, -54.3658, 118.794
11.2793, 103, 13.983, -30.5615, 44.6986, -153.792, -54.7306, 119.171
11.2874, 103, 13.9749, -30.1423, 44.3899, -153.822, -55.1053, 119.536
11.2953, 103, 13.9644, -29.7176, 44.0773, -153.847, -55.4895, 119.89
11.3035, 103, 13.9516, -29.2875, 43.7603, -153.866, -55.8832, 120.233
11.3114, 103, 13.9363, -28.8513, 43.4403, -153.881, -56.2856, 120.565
11.3193, 103, 13.9185, -28.4093, 43.117, -153.89, -56.6954, 120.887
11.3282, 103, 13.8982, -27.9623, 42.7919, -153.896, -57.1115, 121.2
11.3356, 103, 13.8758, -27.5097, 42.4642, -153.897, -57.5335, 121.503
11.3443, 104, 13.8511, -27.0526, 42.1353, -153.894, -57.9613, 121.797
11.3522, 104, 13.8244, -26.5917, 41.8035, -153.886, -58.3952, 122.082
11.3598, 104, 13.7961, -26.1274, 41.4698, -153.873, -58.8354, 122.356
11.3683, 104, 13.7667, -25.6604, 41.1342, -153.856, -59.282, 122.621
11.3762, 104, 13.736, -25.1911, 40.7982, -153.835, -59.7341, 122.877
11.3841, 104, 13.7044, -24.7194, 40.4604, -153.81, -60.1899, 123.125
11.3916, 104, 13.6721, -24.246, 40.1221, -153.782, -60.6488, 123.368
11.4007, 104, 13.6389, -23.7709, 39.7835, -153.751, -61.1099, 123.605
11.4083, 104, 13.6051, -23.2943, 39.4462, -153.717, -61.5719, 123.84
11.4156, 104, 13.5706, -22.8172, 39.1095, -153.682, -62.0347, 124.073
11.4236, 104, 13.5356, -22.3397, 38.7741, -153.645, -62.4974, 124.304
11.4324, 104, 13.5006, -21.8628, 38.4394, -153.605, -62.9597, 124.533
11.4401, 104, 13.4655, -21.387, 38.1063, -153.564, -63.4222, 124.762
11.4496, 104, 13.4304, -20.9118, 37.7741, -153.522, -63.8839, 124.99
11.4564, 104, 13.3953, -20.4376, 37.4437, -153.477, -64.3448, 125.217
11.4639, 104, 13.3606, -19.9641, 37.1143, -153.43, -64.8053, 125.443
11.4718, 104, 13.326, -19.4913, 36.787, -153.383, -65.2654, 125.667
11.4804, 104, 13.2914, -19.0193, 36.4606, -153.334, -65.7249, 125.891
11.4882, 104, 13.2741, -18.7834, 36.298, -153.308, -65.9544, 126.115
11.4952, 104, 13.2396, -18.3124, 35.9739, -153.257, -66.4134, 126.226
11.5043, 104, 13.1879, -17.6071, 35.4913, -153.177, -67.1008, 126.56
11.5112, 104, 13.1708, -17.3725, 35.331, -153.149, -67.3293, 126.671
11.5193, 104, 13.1365, -16.9044, 35.0114, -153.094, -67.786, 126.892
11.5285, 104, 13.0854, -16.2036, 34.5345, -153.006, -68.4695, 127.223
11.5352, 104, 13.0685, -15.9706, 34.3765, -152.977, -68.6972, 127.333
11.5433, 104, 13.0351, -15.5053, 34.0621, -152.916, -69.152, 127.552
11.5526, 104, 12.9854, -14.8093, 33.5931, -152.823, -69.8333, 127.881
11.5592, 104, 12.9689, -14.5777, 33.4376, -152.791, -70.0601, 127.99
11.5672, 104, 12.936, -14.1146, 33.1273, -152.726, -70.5131, 128.208
11.5773, 104, 12.8873, -13.4214, 32.6658, -152.627, -71.1903, 128.535
11.5833, 104, 12.871, -13.191, 32.5125, -152.592, -71.4156, 128.644
11.5913, 104, 12.8387, -12.7308, 32.2077, -152.524, -71.8659, 128.861
11.6009, 104, 12.7904, -12.0431, 31.7537, -152.418, -72.5401, 129.186
11.6091, 104, 12.7584, -11.5862, 31.4533, -152.346, -72.9883, 129.402
11.6153, 104, 12.7427, -11.3578, 31.3035, -152.309, -73.2122, 129.511
