rpiRobotics/ARM-21-02-F-19-Robot-Motion-Program/data_performance_abb/curve_1/baseline/100L/realrobot/bisect/run_3realrobot_curve_exe_v112.5_z10.csv
timestamp, cmd_num, J1, J2, J3, J4, J5, J6
0.001059, -1, 11.3778, 13.6139, 17.3392, -145.519, -97.923, 142.516
0.004262, -1, 11.3778, 13.6139, 17.3392, -145.519, -97.923, 142.516
0.007903, -1, 11.3778, 13.6139, 17.3392, -145.519, -97.923, 142.516
0.029773, -1, 11.3778, 13.6139, 17.3392, -145.519, -97.923, 142.516
0.033348, -1, 11.3778, 13.6139, 17.3392, -145.519, -97.923, 142.516
0.034827, -1, 11.3778, 13.6139, 17.3392, -145.519, -97.923, 142.516
0.03979, -1, 11.3778, 13.6139, 17.3392, -145.519, -97.923, 142.516
0.047735, -1, 11.3777, 13.6139, 17.3392, -145.519, -97.923, 142.516
0.055762, -1, 11.377, 13.6139, 17.3392, -145.519, -97.923, 142.516
0.064732, -1, 11.3743, 13.6136, 17.3391, -145.519, -97.923, 142.516
0.071712, -1, 11.368, 13.6128, 17.3389, -145.519, -97.923, 142.516
0.079757, -1, 11.3568, 13.611, 17.3384, -145.52, -97.9229, 142.514
0.08771, -1, 11.3393, 13.6074, 17.3376, -145.521, -97.9227, 142.506
0.095693, -1, 11.3127, 13.6014, 17.3367, -145.525, -97.922, 142.484
0.103717, -1, 11.2745, 13.5921, 17.3362, -145.532, -97.9202, 142.444
0.111841, -1, 11.2246, 13.5796, 17.3363, -145.543, -97.9167, 142.378
0.119692, -1, 11.1631, 13.5641, 17.338, -145.561, -97.9112, 142.282
0.12813, -1, 11.0901, 13.5449, 17.342, -145.584, -97.9033, 142.152
0.134771, -1, 11.0052, 13.5219, 17.3483, -145.613, -97.8932, 141.987
0.143694, -1, 10.9087, 13.4956, 17.3569, -145.647, -97.8811, 141.789
0.152521, -1, 10.8014, 13.4658, 17.3674, -145.685, -97.8675, 141.564
0.15969, -1, 10.6831, 13.433, 17.3786, -145.728, -97.8528, 141.317
0.167727, -1, 10.554, 13.3973, 17.3898, -145.772, -97.8374, 141.057
0.176534, -1, 10.4159, 13.3594, 17.4004, -145.818, -97.8215, 140.787
0.183687, -1, 10.2711, 13.3199, 17.4106, -145.866, -97.8053, 140.513
0.191712, -1, 10.1216, 13.2796, 17.4207, -145.913, -97.7887, 140.236
0.200481, -1, 9.96915, 13.2386, 17.4307, -145.96, -97.7718, 139.958
0.207742, -1, 9.81446, 13.1973, 17.4407, -146.009, -97.7545, 139.679
0.215712, -1, 9.6589, 13.1559, 17.4508, -146.057, -97.7374, 139.399
0.224462, -1, 9.50375, 13.1147, 17.4607, -146.104, -97.7204, 139.12
0.231694, -1, 9.34904, 13.0736, 17.4706, -146.153, -97.7037, 138.84
0.239695, -1, 9.19465, 13.0325, 17.4805, -146.201, -97.687, 138.561
0.249068, -1, 9.04081, 12.9915, 17.4905, -146.248, -97.6703, 138.281
0.255205, -1, 8.88717, 12.9505, 17.5006, -146.297, -97.6534, 138.001
0.263846, -1, 8.73381, 12.9095, 17.5107, -146.344, -97.6362, 137.722
0.272045, -1, 8.58092, 12.8685, 17.5207, -146.392, -97.6188, 137.442
0.279792, -1, 8.42819, 12.8273, 17.5309, -146.441, -97.6013, 137.162
0.287873, -1, 8.27518, 12.786, 17.5411, -146.488, -97.584, 136.882
0.296039, -1, 8.12166, 12.7445, 17.5513, -146.536, -97.5671, 136.602
0.303371, -1, 8.04476, 12.7237, 17.5615, -146.584, -97.5503, 136.321
0.311783, -1, 7.8131, 12.6614, 17.5715, -146.632, -97.5336, 136.041
0.321255, -1, 7.65816, 12.6198, 17.5817, -146.68, -97.517, 135.761
0.327737, -1, 7.50313, 12.5782, 17.5919, -146.728, -97.5002, 135.481
0.335911, -1, 7.34797, 12.5367, 17.602, -146.776, -97.4831, 135.201
0.34385, -1, 7.19275, 12.4953, 17.6122, -146.824, -97.4657, 134.92
0.351919, -1, 7.03761, 12.4538, 17.6225, -146.872, -97.4484, 134.64
0.360313, -1, 6.88242, 12.4126, 17.6328, -146.92, -97.4313, 134.36
0.368085, -1, 6.72745, 12.3714, 17.6431, -146.968, -97.4144, 134.08
0.376136, -1, 6.57286, 12.3301, 17.6536, -147.017, -97.3977, 133.799
0.382687, -1, 6.49563, 12.3095, 17.6587, -147.041, -97.3894, 133.659
0.392222, -1, 6.26418, 12.2476, 17.6742, -147.113, -97.3641, 133.239
0.398748, -1, 6.18706, 12.2269, 17.6793, -147.137, -97.3555, 133.098
0.408399, -1, 5.95546, 12.1648, 17.6947, -147.209, -97.3294, 132.677
0.416258, -1, 5.87816, 12.1441, 17.705, -147.257, -97.3118, 132.397
0.422701, -1, 5.72342, 12.1025, 17.7101, -147.281, -97.303, 132.256
0.431689, -1, 5.56852, 12.0608, 17.7202, -147.329, -97.2858, 131.976
0.439682, -1, 5.41339, 12.0192, 17.7305, -147.377, -97.2688, 131.695
0.447739, -1, 5.25801, 11.9775, 17.7407, -147.425, -97.252, 131.414
0.45568, -1, 5.10232, 11.9359, 17.7511, -147.474, -97.2353, 131.133
0.463679, -1, 4.94639, 11.8943, 17.7615, -147.521, -97.2184, 130.852
0.473017, -1, 4.71266, 11.8321, 17.7771, -147.594, -97.1926, 130.43
0.478681, -1, 4.63477, 11.8113, 17.7823, -147.618, -97.1839, 130.29
0.487692, -1, 4.47899, 11.7699, 17.7926, -147.666, -97.1664, 130.009
0.495727, -1, 4.32338, 11.7285, 17.8029, -147.715, -97.1491, 129.728
0.503697, -1, 4.16815, 11.6871, 17.8133, -147.763, -97.1321, 129.447
0.511683, -1, 4.01325, 11.6457, 17.8236, -147.811, -97.1152, 129.166
0.519729, -1, 3.85871, 11.6043, 17.8339, -147.859, -97.0984, 128.885
0.527731, -1, 3.70432, 11.5628, 17.8442, -147.908, -97.0815, 128.604
0.535675, -1, 3.54986, 11.5213, 17.8544, -147.956, -97.0644, 128.322
0.542683, -1, 3.39518, 11.4796, 17.8648, -148.005, -97.0472, 128.041
0.551702, -1, 3.24026, 11.438, 17.8753, -148.053, -97.0296, 127.759
0.559697, -1, 3.08509, 11.3963, 17.8856, -148.101, -97.0121, 127.478
0.567755, -1, 2.92975, 11.3546, 17.896, -148.149, -96.995, 127.196
0.576722, -1, 2.77416, 11.3129, 17.9063, -148.197, -96.9781, 126.915
0.583672, -1, 2.61818, 11.2712, 17.9167, -148.245, -96.9614, 126.633
0.59175, -1, 2.46189, 11.2294, 17.9271, -148.294, -96.9447, 126.351
0.599679, -1, 2.30539, 11.1878, 17.9374, -148.342, -96.9278, 126.069
0.740221, -1, -0.42203, 10.4575, 18.1192, -149.19, -96.6284, 121.13
0.741522, -1, -0.42203, 10.4575, 18.1192, -149.19, -96.6284, 121.13
0.743517, -1, -0.500642, 10.4366, 18.1244, -149.214, -96.6198, 120.988
0.744816, -1, -0.500642, 10.4366, 18.1244, -149.214, -96.6198, 120.988
0.746007, -1, -0.500642, 10.4366, 18.1244, -149.214, -96.6198, 120.988
0.748159, -1, -0.579334, 10.4157, 18.1296, -149.238, -96.6112, 120.847
0.749395, -1, -0.579334, 10.4157, 18.1296, -149.238, -96.6112, 120.847
0.751838, -1, -0.658023, 10.3948, 18.1348, -149.262, -96.6024, 120.706
0.893731, -1, -3.39568, 9.66245, 18.3165, -150.113, -96.3021, 115.746
0.895068, -1, -3.39568, 9.66245, 18.3165, -150.113, -96.3021, 115.746
0.897198, -1, -3.47467, 9.64146, 18.3218, -150.137, -96.2933, 115.604
0.898589, -1, -3.47467, 9.64146, 18.3218, -150.137, -96.2933, 115.604
0.901949, -1, -3.5536, 9.6205, 18.327, -150.162, -96.2845, 115.462
0.903228, -1, -3.5536, 9.6205, 18.327, -150.162, -96.2845, 115.462
0.905288, -1, -3.6325, 9.59959, 18.3322, -150.187, -96.2758, 115.32
0.908467, -1, -3.71141, 9.5787, 18.3373, -150.211, -96.2672, 115.178
0.909792, -1, -3.71141, 9.5787, 18.3373, -150.211, -96.2672, 115.178
0.911058, -1, -3.71141, 9.5787, 18.3373, -150.211, -96.2672, 115.178
0.913042, -1, -3.79038, 9.55778, 18.3425, -150.235, -96.2587, 115.036
0.91436, -1, -3.79038, 9.55778, 18.3425, -150.235, -96.2587, 115.036
0.916079, -1, -3.79038, 9.55778, 18.3425, -150.235, -96.2587, 115.036
0.917688, -1, -3.8694, 9.5368, 18.3477, -150.259, -96.2502, 114.894
0.918895, -1, -3.8694, 9.5368, 18.3477, -150.259, -96.2502, 114.894
0.921387, -1, -3.94841, 9.51581, 18.3529, -150.284, -96.2416, 114.752
0.92268, -1, -3.94841, 9.51581, 18.3529, -150.284, -96.2416, 114.752
0.925266, -1, -4.0274, 9.49485, 18.358, -150.308, -96.2332, 114.61
0.92741, -1, -4.0274, 9.49485, 18.358, -150.308, -96.2332, 114.61
0.929509, -1, -4.1063, 9.47392, 18.3632, -150.333, -96.2248, 114.468
0.930707, -1, -4.1063, 9.47392, 18.3632, -150.333, -96.2248, 114.468
0.932616, -1, -4.18518, 9.45299, 18.3684, -150.357, -96.2163, 114.326
0.936657, -1, -4.26407, 9.43206, 18.3735, -150.381, -96.2078, 114.183
0.938194, -1, -4.26407, 9.43206, 18.3735, -150.381, -96.2078, 114.183
0.939406, -1, -4.26407, 9.43206, 18.3735, -150.381, -96.2078, 114.183
0.94143, -1, -4.34292, 9.41108, 18.3786, -150.406, -96.1992, 114.041
0.942682, -1, -4.34292, 9.41108, 18.3786, -150.406, -96.1992, 114.041
0.944756, -1, -4.42163, 9.39008, 18.3838, -150.43, -96.1906, 113.899
0.946098, -1, -4.42163, 9.39008, 18.3838, -150.43, -96.1906, 113.899
0.947414, -1, -4.42163, 9.39008, 18.3838, -150.43, -96.1906, 113.899
0.95111, -1, -4.50023, 9.36911, 18.389, -150.455, -96.1819, 113.756
0.953187, -1, -4.57875, 9.34814, 18.3942, -150.479, -96.1731, 113.614
0.954415, -1, -4.57875, 9.34814, 18.3942, -150.479, -96.1731, 113.614
0.955666, -1, -4.57875, 9.34814, 18.3942, -150.479, -96.1731, 113.614
0.957718, -1, -4.65717, 9.32715, 18.3993, -150.504, -96.1643, 113.472
0.959035, -1, -4.65717, 9.32715, 18.3993, -150.504, -96.1643, 113.472
0.960846, -1, -4.73545, 9.30616, 18.4045, -150.528, -96.1554, 113.33
0.969658, -1, -4.89178, 9.26414, 18.4149, -150.577, -96.1377, 113.045
0.975662, -1, -4.96985, 9.24311, 18.4201, -150.601, -96.129, 112.903
0.983653, -1, -5.12578, 9.20107, 18.4306, -150.65, -96.1119, 112.618
0.991711, -1, -5.28169, 9.15903, 18.4411, -150.698, -96.0949, 112.333
0.999677, -1, -5.43785, 9.11686, 18.4516, -150.748, -96.0781, 112.049
1.00769, -1, -5.59404, 9.07478, 18.4619, -150.796, -96.0612, 111.764
1.01566, -1, -5.75057, 9.03273, 18.4723, -150.845, -96.0441, 111.479
1.02368, -1, -5.90757, 8.99057, 18.4827, -150.894, -96.0266, 111.194
1.03177, -1, -6.065, 8.94848, 18.4929, -150.943, -96.009, 110.909
1.03966, -1, -6.22302, 8.9064, 18.5033, -150.992, -95.9915, 110.624
1.0477, -1, -6.38141, 8.86431, 18.5135, -151.041, -95.9743, 110.339
1.05575, -1, -6.53988, 8.82231, 18.5239, -151.09, -95.9573, 110.054
1.06527, -1, -6.69844, 8.78025, 18.5344, -151.139, -95.9403, 109.768
1.07168, -1, -6.85715, 8.73816, 18.5449, -151.188, -95.9233, 109.483
1.07972, -1, -7.01565, 8.69614, 18.5553, -151.237, -95.9061, 109.197
1.08766, -1, -7.17406, 8.65407, 18.5658, -151.286, -95.8888, 108.912
1.09567, -1, -7.33232, 8.61193, 18.5761, -151.335, -95.8711, 108.626
1.10373, -1, -7.4902, 8.56969, 18.5866, -151.384, -95.8534, 108.341
1.11166, -1, -7.64783, 8.52741, 18.597, -151.433, -95.8358, 108.055
1.11974, -1, -7.80509, 8.48521, 18.6074, -151.482, -95.8187, 107.769
1.12766, -1, -7.96192, 8.44296, 18.6178, -151.531, -95.8017, 107.484
1.13566, -1, -8.11857, 8.40064, 18.6282, -151.58, -95.7847, 107.198
1.14414, -1, -8.27519, 8.35833, 18.6386, -151.629, -95.7677, 106.912
1.15074, -1, -8.43193, 8.31599, 18.6492, -151.678, -95.7505, 106.626
1.15967, -1, -8.58896, 8.27366, 18.6597, -151.727, -95.733, 106.34
1.16847, -1, -8.74632, 8.23145, 18.6701, -151.776, -95.7153, 106.053
1.17567, -1, -8.90409, 8.18917, 18.6804, -151.825, -95.6977, 105.767
1.18366, -1, -9.06221, 8.1469, 18.6908, -151.874, -95.6804, 105.481
1.19245, -1, -9.22085, 8.10472, 18.7012, -151.924, -95.6632, 105.194
1.19969, -1, -9.37981, 8.06248, 18.7116, -151.973, -95.6461, 104.908
1.20767, -1, -9.53894, 8.0202, 18.7221, -152.022, -95.629, 104.621
1.21648, -1, -9.69811, 7.97802, 18.7325, -152.072, -95.6117, 104.334
1.22367, -1, -9.85736, 7.93588, 18.7429, -152.12, -95.5941, 104.048
1.23173, -1, -10.0167, 7.89355, 18.7535, -152.17, -95.5762, 103.761
1.24046, -1, -10.1759, 7.85115, 18.7641, -152.219, -95.5584, 103.474
1.24766, -1, -10.3349, 7.80873, 18.7746, -152.268, -95.5408, 103.187
1.25593, -1, -10.4935, 7.76622, 18.7851, -152.318, -95.5236, 102.9
1.26453, -1, -10.652, 7.72379, 18.7955, -152.367, -95.5066, 102.613
1.27175, -1, -10.8102, 7.68131, 18.8059, -152.416, -95.4896, 102.326
1.28007, -1, -10.968, 7.63875, 18.8164, -152.465, -95.4725, 102.039
1.28722, -1, -11.1255, 7.59626, 18.8267, -152.515, -95.4552, 101.752
1.29529, -1, -11.2829, 7.55384, 18.8372, -152.564, -95.4374, 101.465
1.30426, -1, -11.4404, 7.51139, 18.8476, -152.614, -95.4196, 101.177
1.31255, -1, -11.5981, 7.4689, 18.8581, -152.663, -95.402, 100.89
1.31968, -1, -11.756, 7.42651, 18.8687, -152.712, -95.3846, 100.602
1.32863, -1, -11.9144, 7.38412, 18.8792, -152.761, -95.3674, 100.314
1.33661, -1, -12.0731, 7.34178, 18.8898, -152.811, -95.3503, 100.027
1.34379, -1, -12.2323, 7.29942, 18.9003, -152.86, -95.333, 99.7391
1.35265, -1, -12.3919, 7.25702, 18.9108, -152.91, -95.3157, 99.4511
1.36119, -1, -12.5517, 7.21463, 18.9213, -152.959, -95.2979, 99.1634
1.36667, -1, -12.6317, 7.19345, 18.9266, -152.984, -95.2889, 99.0194
1.37613, -1, -12.8718, 7.12984, 18.9424, -153.058, -95.2621, 98.5876
1.38568, -1, -13.0319, 7.0873, 18.9529, -153.107, -95.2446, 98.2995
1.3922, -1, -13.1918, 7.04475, 18.9634, -153.157, -95.2273, 98.0116
1.40029, -1, -13.3515, 7.00219, 18.9739, -153.207, -95.2102, 97.7234
1.40976, -1, -13.5108, 6.9595, 18.9845, -153.256, -95.1932, 97.4351
1.41628, -1, -13.67, 6.91677, 18.9951, -153.305, -95.176, 97.1464
1.42422, -1, -13.7495, 6.89543, 19.0056, -153.355, -95.1585, 96.8579
1.43307, -1, -13.9084, 6.85278, 19.0108, -153.379, -95.1497, 96.5694
1.44024, -1, -14.0667, 6.81009, 19.0212, -153.428, -95.1319, 96.425
1.44764, -1, -14.2248, 6.76751, 19.0318, -153.478, -95.1142, 96.1362
1.45565, -1, -14.3832, 6.72488, 19.0422, -153.528, -95.0968, 95.8471
1.46369, -1, -14.5414, 6.68223, 19.0527, -153.577, -95.0795, 95.5583
1.47164, -1, -14.7, 6.63969, 19.0632, -153.627, -95.0624, 95.2691
1.47965, -1, -14.8591, 6.59719, 19.0737, -153.676, -95.0452, 94.9798
1.48769, -1, -15.0184, 6.55455, 19.0843, -153.725, -95.0278, 94.6908
1.49566, -1, -15.1782, 6.51199, 19.095, -153.776, -95.0102, 94.4019
1.5038, -1, -15.3384, 6.46949, 19.1056, -153.825, -94.9922, 94.1127
1.51168, -1, -15.4988, 6.42687, 19.1162, -153.874, -94.9743, 93.8233
1.51964, -1, -15.6596, 6.38422, 19.1268, -153.925, -94.9566, 93.5342
1.52766, -1, -15.8203, 6.3415, 19.1373, -153.974, -94.9393, 93.2449
1.53567, -1, -15.981, 6.2987, 19.1479, -154.024, -94.9221, 92.9554
1.54364, -1, -16.1417, 6.25588, 19.1584, -154.074, -94.9049, 92.6656
1.55065, -1, -16.3024, 6.21304, 19.1689, -154.123, -94.8877, 92.3761
1.55969, -1, -16.463, 6.1701, 19.1794, -154.172, -94.8701, 92.0866
1.56766, -1, -16.6232, 6.12715, 19.1898, -154.222, -94.8523, 91.7965
1.57571, -1, -16.783, 6.08424, 19.2005, -154.272, -94.8344, 91.5064
1.58364, -1, -16.9424, 6.04131, 19.211, -154.322, -94.8167, 91.2165
1.59163, -1, -17.1016, 5.99838, 19.2217, -154.372, -94.7992, 90.9263
1.5997, -1, -17.2607, 5.95552, 19.2322, -154.421, -94.7818, 90.6362
1.60764, -1, -17.4198, 5.91276, 19.2428, -154.471, -94.7645, 90.346
1.61565, -1, -17.5792, 5.87002, 19.2535, -154.521, -94.7471, 90.0557
1.6237, -1, -17.7387, 5.82728, 19.2641, -154.57, -94.7295, 89.7654
1.63165, -1, -17.8983, 5.78452, 19.2748, -154.621, -94.7117, 89.4751
1.63963, -1, -18.0583, 5.74179, 19.2854, -154.67, -94.6935, 89.1846
1.64771, -1, -18.2188, 5.69905, 19.2959, -154.72, -94.6755, 88.8943
1.65564, -1, -18.3798, 5.6563, 19.3066, -154.77, -94.6579, 88.6035
1.6637, -1, -18.5411, 5.61344, 19.3173, -154.82, -94.6406, 88.3126
1.67165, -1, -18.7027, 5.57049, 19.328, -154.87, -94.6233, 88.0218
1.67975, -1, -18.8643, 5.52753, 19.3386, -154.92, -94.606, 87.7309
1.6877, -1, -19.0259, 5.48452, 19.3491, -154.97, -94.5885, 87.4399
1.69563, -1, -19.1874, 5.4414, 19.3597, -155.02, -94.5707, 87.1484
1.70372, -1, -19.3489, 5.3983, 19.3703, -155.07, -94.5526, 86.8572
1.71171, -1, -19.51, 5.35519, 19.3808, -155.12, -94.5346, 86.5658
1.71967, -1, -19.6708, 5.31199, 19.3914, -155.169, -94.5169, 86.2743
1.72773, -1, -19.8314, 5.26892, 19.4019, -155.22, -94.4994, 85.9827
1.73565, -1, -19.9918, 5.22583, 19.4125, -155.27, -94.4819, 85.6912
1.74364, -1, -20.1518, 5.18272, 19.4234, -155.32, -94.4645, 85.3998
1.75186, -1, -20.3117, 5.13981, 19.4341, -155.37, -94.4471, 85.108
1.75967, -1, -20.4717, 5.09687, 19.4449, -155.42, -94.4293, 84.8164
1.76772, -1, -20.6317, 5.05386, 19.4556, -155.47, -94.4113, 84.5247
1.77602, -1, -20.7921, 5.01095, 19.4662, -155.52, -94.3933, 84.2328
1.78373, -1, -20.9528, 4.96807, 19.4769, -155.57, -94.3756, 83.9407
1.79175, -1, -21.1139, 4.92504, 19.4875, -155.62, -94.3582, 83.6486
1.80022, -1, -21.2754, 4.88201, 19.4981, -155.671, -94.3409, 83.3567
1.80719, -1, -21.3564, 4.86046, 19.5034, -155.696, -94.3237, 83.0645
1.81568, -1, -21.5996, 4.79563, 19.5193, -155.771, -94.3065, 82.772
1.82447, -1, -21.7618, 4.75247, 19.53, -155.822, -94.2888, 82.4796
1.83168, -1, -21.9242, 4.7092, 19.5408, -155.871, -94.271, 82.1872
1.83974, -1, -22.0866, 4.66583, 19.5515, -155.922, -94.253, 81.8946
1.84863, -1, -22.249, 4.62252, 19.5622, -155.972, -94.2352, 81.6018
1.85582, -1, -22.4114, 4.57917, 19.5728, -156.022, -94.2176, 81.3092
1.86408, -1, -22.5732, 4.53579, 19.5835, -156.073, -94.2001, 81.0166
1.87284, -1, -22.7349, 4.49238, 19.5942, -156.123, -94.1827, 80.7239
1.88004, -1, -22.8962, 4.44903, 19.6049, -156.173, -94.1652, 80.4308
1.88662, -1, -22.9768, 4.4274, 19.6102, -156.198, -94.1564, 80.2844
1.89698, -1, -23.2184, 4.36254, 19.6262, -156.273, -94.1293, 79.845
1.90417, -1, -23.3793, 4.31933, 19.637, -156.324, -94.1111, 79.5515
1.91244, -1, -23.5401, 4.27615, 19.6478, -156.374, -94.093, 79.2582
1.92105, -1, -23.7011, 4.2329, 19.6586, -156.425, -94.0752, 78.965
1.92826, -1, -23.7818, 4.18969, 19.6694, -156.475, -94.0576, 78.6715
1.9363, -1, -23.9432, 4.16808, 19.6747, -156.526, -94.0403, 78.3778
1.94363, -1, -24.1049, 4.12476, 19.6854, -156.551, -94.0316, 78.2308
1.95163, -1, -24.2671, 4.0814, 19.6961, -156.601, -94.014, 77.937
1.95968, -1, -24.4298, 4.03801, 19.7068, -156.652, -93.9963, 77.643
1.96763, -1, -24.5927, 3.99455, 19.7173, -156.702, -93.9782, 77.3489
1.97563, -1, -24.7559, 3.95101, 19.728, -156.752, -93.96, 77.0548
1.98367, -1, -24.9192, 3.90747, 19.7386, -156.803, -93.9422, 76.7608
1.99163, -1, -25.0826, 3.86394, 19.7494, -156.853, -93.9245, 76.4668
1.99863, -1, -25.2459, 3.82037, 19.7602, -156.903, -93.907, 76.1724
2.00763, -1, -25.4088, 3.77681, 19.771, -156.954, -93.8895, 75.8781
2.01566, -1, -25.5715, 3.73319, 19.7818, -157.004, -93.8718, 75.584
2.02262, -1, -25.7342, 3.68958, 19.7924, -157.055, -93.8539, 75.2894
2.03162, -1, -25.8966, 3.64614, 19.8031, -157.105, -93.8356, 74.9947
2.03965, -1, -26.0587, 3.60265, 19.8139, -157.155, -93.8172, 74.7002
2.04769, -1, -26.2205, 3.55915, 19.8246, -157.206, -93.7991, 74.4056
2.05566, -1, -26.3821, 3.5158, 19.8353, -157.257, -93.7812, 74.1108
2.06366, -1, -26.5438, 3.4724, 19.846, -157.307, -93.7635, 73.8157
2.07262, -1, -26.7058, 3.42897, 19.8568, -157.358, -93.7459, 73.5207
2.07961, -1, -26.868, 3.38553, 19.8676, -157.409, -93.7284, 73.2256
2.09092, -1, -27.112, 3.32016, 19.8838, -157.485, -93.7013, 72.7827
2.09561, -1, -27.1935, 3.29837, 19.8892, -157.51, -93.6921, 72.6351
2.10363, -1, -27.3568, 3.2548, 19.9, -157.561, -93.6739, 72.34
2.11169, -1, -27.5205, 3.21106, 19.9106, -157.611, -93.6557, 72.0447
2.11964, -1, -27.6844, 3.16733, 19.9214, -157.662, -93.6379, 71.7492
2.12762, -1, -27.8484, 3.12367, 19.9321, -157.712, -93.6202, 71.4537
2.1357, -1, -28.0126, 3.07999, 19.9429, -157.763, -93.6025, 71.1582
2.14362, -1, -28.1767, 3.03628, 19.9537, -157.814, -93.5848, 70.8623
2.15162, -1, -28.3409, 2.99254, 19.9645, -157.865, -93.5668, 70.5663
2.1597, -1, -28.5048, 2.94883, 19.9753, -157.915, -93.5486, 70.2704
2.16762, -1, -28.6684, 2.90521, 19.9862, -157.966, -93.5301, 69.9745
2.17562, -1, -28.8319, 2.86153, 19.997, -158.017, -93.5119, 69.6784
2.18371, -1, -28.9949, 2.81788, 20.0078, -158.068, -93.4939, 69.3818
2.19162, -1, -29.1575, 2.77426, 20.0185, -158.119, -93.4762, 69.0856
2.19963, -1, -29.3201, 2.73063, 20.0293, -158.169, -93.4587, 68.789
2.2077, -1, -29.4829, 2.68704, 20.0401, -158.221, -93.441, 68.4923
2.21562, -1, -29.6458, 2.64333, 20.0508, -158.272, -93.4231, 68.1954
2.22372, -1, -29.8089, 2.59956, 20.0616, -158.322, -93.4049, 67.8989
2.23164, -1, -29.9721, 2.55583, 20.0723, -158.374, -93.3865, 67.6024
2.23963, -1, -30.1354, 2.51202, 20.0832, -158.424, -93.3682, 67.3054
2.24769, -1, -30.2993, 2.46808, 20.0942, -158.475, -93.3503, 67.0084
2.25566, -1, -30.4636, 2.42418, 20.1051, -158.526, -93.3326, 66.7116
2.2637, -1, -30.6284, 2.38024, 20.1159, -158.577, -93.3148, 66.4145
2.27177, -1, -30.7934, 2.33627, 20.1266, -158.628, -93.2972, 66.1172
2.27977, -1, -30.9584, 2.29238, 20.1375, -158.679, -93.2792, 65.8198
2.28772, -1, -31.1234, 2.24839, 20.1483, -158.73, -93.2609, 65.5226
2.29578, -1, -31.2883, 2.20445, 20.1591, -158.781, -93.2424, 65.2253
2.30375, -1, -31.453, 2.16064, 20.1699, -158.832, -93.224, 64.9276
2.31169, -1, -31.6176, 2.11668, 20.1806, -158.883, -93.206, 64.6299
2.31986, -1, -31.7821, 2.07271, 20.1915, -158.935, -93.1883, 64.3321
2.32765, -1, -31.9461, 2.02885, 20.2024, -158.986, -93.1707, 64.0342
2.33568, -1, -32.11, 1.98489, 20.2134, -159.037, -93.153, 63.7362
2.34379, -1, -32.2737, 1.94095, 20.2244, -159.088, -93.1352, 63.4385
2.35179, -1, -32.4373, 1.897, 20.2352, -159.139, -93.117, 63.1407
2.36017, -1, -32.601, 1.85292, 20.2461, -159.19, -93.0986, 62.8424
2.36662, -1, -32.6829, 1.83089, 20.2516, -159.216, -93.0894, 62.6932
2.37604, -1, -32.9289, 1.76486, 20.2679, -159.293, -93.0623, 62.2459
2.38263, -1, -33.011, 1.74276, 20.2734, -159.318, -93.0533, 62.0968
2.39215, -1, -33.258, 1.67653, 20.2897, -159.395, -93.0266, 61.6489
2.40039, -1, -33.4232, 1.63236, 20.3005, -159.446, -93.0087, 61.3503
2.40814, -1, -33.5888, 1.5882, 20.3115, -159.498, -92.9907, 61.0518
2.41619, -1, -33.7545, 1.54401, 20.3225, -159.549, -92.9723, 60.7529
2.42425, -1, -33.9202, 1.49984, 20.3334, -159.6, -92.9536, 60.4539
2.43213, -1, -34.0031, 1.47776, 20.3388, -159.626, -92.9351, 60.155
2.44029, -1, -34.169, 1.43365, 20.3551, -159.703, -92.9168, 59.8559
2.44763, -1, -34.3349, 1.38954, 20.3606, -159.729, -92.9078, 59.7062
2.45561, -1, -34.5008, 1.34535, 20.3715, -159.78, -92.8899, 59.4066
2.46363, -1, -34.6664, 1.30122, 20.3824, -159.832, -92.8721, 59.1073
2.47165, -1, -34.8315, 1.2571, 20.3932, -159.883, -92.8543, 58.8081
2.47971, -1, -34.9964, 1.21294, 20.4041, -159.934, -92.8362, 58.5085
2.48761, -1, -35.1611, 1.16875, 20.4151, -159.986, -92.8177, 58.2087
2.49562, -1, -35.3257, 1.12448, 20.4261, -160.037, -92.7991, 57.9091
2.50363, -1, -35.4898, 1.08038, 20.4372, -160.089, -92.7808, 57.6095
2.51167, -1, -35.6524, 1.03661, 20.4485, -160.14, -92.7627, 57.3097
2.5197, -1, -35.8124, 0.993344, 20.4599, -160.191, -92.7448, 57.0111
2.52764, -1, -35.9685, 0.951146, 20.4716, -160.242, -92.7272, 56.7154
2.5356, -1, -36.1196, 0.910523, 20.4835, -160.291, -92.7097, 56.4254
2.54365, -1, -36.2634, 0.872052, 20.4955, -160.339, -92.6926, 56.1451
2.55164, -1, -36.3976, 0.836433, 20.5071, -160.384, -92.676, 55.8805
2.5597, -1, -36.5208, 0.803898, 20.5177, -160.425, -92.6607, 55.6381
2.56765, -1, -36.6313, 0.774668, 20.527, -160.461, -92.6472, 55.4232
2.57668, -1, -36.7274, 0.749291, 20.5346, -160.492, -92.6359, 55.2412
2.5836, -1, -36.8089, 0.727665, 20.5399, -160.517, -92.627, 55.0941
2.59163, -1, -36.8765, 0.709734, 20.543, -160.537, -92.6203, 54.982
2.5997, -1, -36.931, 0.695398, 20.5444, -160.551, -92.6156, 54.902
2.6076, -1, -36.9728, 0.684402, 20.5448, -160.56, -92.6126, 54.8477
2.6156, -1, -37.0035, 0.676276, 20.5445, -160.566, -92.6108, 54.8143
2.62363, -1, -37.0248, 0.670689, 20.544, -160.569, -92.6098, 54.7952
2.6316, -1, -37.0381, 0.667362, 20.5436, -160.571, -92.6093, 54.7854
2.6397, 2, -37.0456, 0.665578, 20.5435, -160.572, -92.609, 54.7808
2.64764, 2, -37.0485, 0.664759, 20.5434, -160.572, -92.6089, 54.7786
2.6556, 2, -37.0487, 0.664413, 20.5433, -160.573, -92.6089, 54.7777
2.66363, 2, -37.0482, 0.664267, 20.5433, -160.573, -92.6089, 54.7773
2.67165, 2, -37.048, 0.664229, 20.5432, -160.573, -92.6089, 54.7772
2.67967, 2, -37.0483, 0.66417, 20.5432, -160.573, -92.6089, 54.7772
2.68765, 2, -37.0492, 0.664102, 20.5432, -160.573, -92.609, 54.7772
2.69563, 2, -37.0502, 0.664014, 20.5431, -160.573, -92.609, 54.7773
2.7036, 2, -37.0515, 0.663802, 20.5429, -160.573, -92.609, 54.7775
2.71165, 2, -37.0528, 0.663534, 20.5427, -160.573, -92.609, 54.7777
2.71971, 2, -37.054, 0.663306, 20.5425, -160.573, -92.6091, 54.7779
2.72764, 2, -37.0549, 0.663117, 20.5424, -160.573, -92.6091, 54.7781
2.73565, 2, -37.0554, 0.663011, 20.5422, -160.573, -92.6092, 54.7783
2.74367, 2, -37.0554, 0.662962, 20.542, -160.573, -92.6092, 54.7785
2.75161, 2, -37.0548, 0.662963, 20.5419, -160.573, -92.6092, 54.7787
2.75973, 2, -37.0539, 0.663038, 20.5418, -160.573, -92.6093, 54.7789
2.7677, 2, -37.0529, 0.663141, 20.5418, -160.573, -92.6093, 54.7792
2.7757, 2, -37.0514, 0.663254, 20.5417, -160.573, -92.6094, 54.7794
2.78373, 2, -37.0499, 0.663371, 20.5417, -160.573, -92.6094, 54.7795
2.79184, 2, -37.0488, 0.663447, 20.5416, -160.573, -92.6094, 54.7798
2.79977, 2, -37.0481, 0.663456, 20.5416, -160.573, -92.6094, 54.7799
2.80776, 2, -37.0478, 0.663431, 20.5416, -160.573, -92.6094, 54.78
2.81574, 2, -37.0478, 0.663394, 20.5415, -160.573, -92.6094, 54.78
2.82363, 2, -37.048, 0.663327, 20.5415, -160.573, -92.6094, 54.78
2.83182, 2, -37.0482, 0.663267, 20.5415, -160.573, -92.6094, 54.7801
2.83974, 2, -37.0487, 0.663207, 20.5415, -160.573, -92.6094, 54.7801
2.84773, 2, -37.0494, 0.663182, 20.5415, -160.573, -92.6095, 54.7801
2.85601, 2, -37.0502, 0.663168, 20.5415, -160.573, -92.6095, 54.7801
2.86385, 2, -37.051, 0.663175, 20.5415, -160.573, -92.6095, 54.7802
2.8722, 2, -37.0515, 0.663216, 20.5415, -160.573, -92.6095, 54.7802
2.88035, 2, -37.0517, 0.663263, 20.5415, -160.573, -92.6095, 54.7803
2.88805, 2, -37.0517, 0.663281, 20.5414, -160.573, -92.6095, 54.7804
2.89646, 2, -37.0517, 0.663293, 20.5414, -160.573, -92.6095, 54.7804
2.90419, 2, -37.0514, 0.663306, 20.5414, -160.573, -92.6095, 54.7805
2.91214, 2, -37.0509, 0.663301, 20.5414, -160.573, -92.6095, 54.7805
2.92058, 2, -37.0506, 0.663279, 20.5414, -160.573, -92.6095, 54.7805
2.92839, 2, -37.0504, 0.663281, 20.5414, -160.573, -92.6096, 54.7805
2.93615, 2, -37.0503, 0.663263, 20.5414, -160.573, -92.6096, 54.7806
2.94447, 2, -37.0501, 0.663211, 20.5414, -160.573, -92.6096, 54.7806
2.95161, 2, -37.0501, 0.663209, 20.5414, -160.573, -92.6096, 54.7806
2.95969, 2, -37.0501, 0.663195, 20.5413, -160.573, -92.6095, 54.7807
2.96845, 2, -37.0502, 0.6632, 20.5413, -160.573, -92.6096, 54.7807
2.97568, 2, -37.0502, 0.663202, 20.5413, -160.573, -92.6096, 54.7808
2.98362, 2, -37.0503, 0.663221, 20.5413, -160.573, -92.6097, 54.7809
2.99159, 2, -37.0506, 0.663247, 20.5413, -160.573, -92.6097, 54.7809
2.99968, 2, -37.0507, 0.663262, 20.5413, -160.573, -92.6097, 54.7809
3.00762, 2, -37.0508, 0.663273, 20.5413, -160.573, -92.6096, 54.781
3.01558, 2, -37.0509, 0.663278, 20.5413, -160.572, -92.6096, 54.7811
3.02362, 2, -37.0509, 0.663281, 20.5413, -160.572, -92.6097, 54.7812
3.03162, 2, -37.0508, 0.663282, 20.5413, -160.572, -92.6097, 54.7811
3.03967, 2, -37.0508, 0.663264, 20.5413, -160.572, -92.6097, 54.7812
3.04763, 2, -37.0507, 0.663242, 20.5413, -160.572, -92.6097, 54.7813
3.05562, 2, -37.0507, 0.66324, 20.5412, -160.572, -92.6097, 54.7813
3.06362, 2, -37.0507, 0.663239, 20.5412, -160.572, -92.6098, 54.7813
3.07163, 2, -37.0506, 0.663227, 20.5412, -160.572, -92.6098, 54.7813
3.08062, 2, -37.0507, 0.663238, 20.5412, -160.572, -92.6097, 54.7814
3.08758, 2, -37.0506, 0.663257, 20.5412, -160.572, -92.6098, 54.7814
3.0956, 2, -37.0506, 0.663271, 20.5412, -160.572, -92.6098, 54.7814
3.10362, 2, -37.0506, 0.66327, 20.5412, -160.572, -92.6098, 54.7815
3.11159, 2, -37.0506, 0.663272, 20.5412, -160.572, -92.6098, 54.7816
3.11968, 2, -37.0506, 0.663278, 20.5412, -160.572, -92.6098, 54.7816
3.12762, 2, -37.0506, 0.663281, 20.5412, -160.572, -92.6098, 54.7816
3.13558, 2, -37.0506, 0.663282, 20.5412, -160.572, -92.6098, 54.7817
3.14363, 2, -37.0506, 0.663282, 20.5412, -160.572, -92.6098, 54.7817
3.15161, 2, -37.0506, 0.663283, 20.5412, -160.572, -92.6098, 54.7818
3.15965, 2, -37.0506, 0.663275, 20.5412, -160.572, -92.6098, 54.7818
3.16761, 2, -37.0506, 0.663267, 20.5412, -160.572, -92.6098, 54.7817
3.17562, 2, -37.0505, 0.663271, 20.5411, -160.572, -92.6099, 54.7818
3.18358, 2, -37.0505, 0.66327, 20.5411, -160.572, -92.6099, 54.7818
3.19163, 2, -37.0505, 0.663265, 20.5411, -160.572, -92.6098, 54.7819
3.19969, 2, -37.0505, 0.66327, 20.5411, -160.572, -92.6098, 54.7819
3.20758, 2, -37.0505, 0.663277, 20.5411, -160.572, -92.6099, 54.782
3.21563, 2, -37.0505, 0.66328, 20.5411, -160.572, -92.6099, 54.782
3.22365, 2, -37.0505, 0.663282, 20.5411, -160.572, -92.6099, 54.782
3.23162, 2, -37.0505, 0.663282, 20.5411, -160.572, -92.6098, 54.7821
3.2397, 2, -37.0504, 0.663294, 20.5411, -160.572, -92.6099, 54.7821
3.24762, 2, -37.0504, 0.663295, 20.5411, -160.572, -92.6099, 54.7821
3.25558, 2, -37.0504, 0.663289, 20.5411, -160.572, -92.6099, 54.7821
3.26364, 2, -37.0504, 0.663273, 20.5411, -160.572, -92.6099, 54.7821
3.2717, 2, -37.0503, 0.663266, 20.5411, -160.572, -92.6099, 54.7821
3.27973, 2, -37.0503, 0.663275, 20.541, -160.572, -92.6099, 54.7822
3.28771, 2, -37.0503, 0.663279, 20.541, -160.572, -92.6099, 54.7822
3.29572, 2, -37.0503, 0.663281, 20.541, -160.572, -92.6099, 54.7822
3.30368, 2, -37.0503, 0.663282, 20.541, -160.572, -92.6099, 54.7822
3.31175, 2, -37.0503, 0.663283, 20.541, -160.572, -92.6099, 54.7823
3.31985, 2, -37.0502, 0.663283, 20.541, -160.572, -92.6099, 54.7823
3.32761, 2, -37.0502, 0.663294, 20.541, -160.572, -92.6099, 54.7824
3.33565, 2, -37.0502, 0.663314, 20.541, -160.572, -92.6099, 54.7824
3.34366, 2, -37.0502, 0.663315, 20.541, -160.572, -92.6099, 54.7824
3.35172, 2, -37.0502, 0.663298, 20.541, -160.572, -92.6099, 54.7825
3.35993, 2, -37.0502, 0.66329, 20.541, -160.572, -92.61, 54.7824
3.36785, 2, -37.0502, 0.663286, 20.541, -160.572, -92.61, 54.7824
3.37586, 2, -37.0502, 0.663284, 20.5409, -160.572, -92.61, 54.7824
3.38406, 2, -37.0502, 0.663284, 20.5409, -160.572, -92.61, 54.7825
3.39205, 2, -37.0502, 0.663283, 20.5409, -160.572, -92.61, 54.7825
3.40015, 2, -37.0501, 0.663283, 20.5409, -160.572, -92.6099, 54.7825
3.40821, 2, -37.0502, 0.663283, 20.5409, -160.572, -92.61, 54.7825
3.41614, 2, -37.0502, 0.663294, 20.5409, -160.572, -92.61, 54.7825
3.4241, 2, -37.0501, 0.663306, 20.5409, -160.572, -92.61, 54.7825
3.43226, 2, -37.0501, 0.66333, 20.5409, -160.572, -92.61, 54.7826
3.44028, 2, -37.0501, 0.663323, 20.5409, -160.572, -92.61, 54.7825
3.44757, 2, -37.0501, 0.663332, 20.5409, -160.572, -92.61, 54.7825
3.45559, 2, -37.05, 0.663313, 20.5409, -160.572, -92.61, 54.7825
3.4636, 2, -37.05, 0.663297, 20.5409, -160.572, -92.61, 54.7826
3.47158, 2, -37.05, 0.663289, 20.5409, -160.572, -92.61, 54.7826
3.47968, 2, -37.05, 0.663286, 20.5409, -160.572, -92.61, 54.7826
3.4876, 2, -37.05, 0.663284, 20.5409, -160.572, -92.61, 54.7826
3.49557, 2, -37.05, 0.663284, 20.5409, -160.572, -92.61, 54.7826
3.5036, 2, -37.05, 0.663302, 20.5408, -160.572, -92.61, 54.7826
3.5116, 2, -37.05, 0.663291, 20.5408, -160.572, -92.61, 54.7826
3.51964, 2, -37.05, 0.663287, 20.5408, -160.572, -92.61, 54.7826
3.52761, 2, -37.05, 0.663285, 20.5408, -160.572, -92.61, 54.7826
3.5356, 2, -37.05, 0.663284, 20.5408, -160.572, -92.61, 54.7826
3.54355, 2, -37.0499, 0.663313, 20.5408, -160.572, -92.61, 54.7827
3.55161, 2, -37.0499, 0.663333, 20.5408, -160.572, -92.6101, 54.7827
3.55967, 2, -37.0499, 0.663332, 20.5408, -160.572, -92.6101, 54.7827
3.5676, 2, -37.0499, 0.663335, 20.5408, -160.572, -92.61, 54.7827
3.57657, 2, -37.0499, 0.663356, 20.5408, -160.572, -92.61, 54.7827
3.5836, 2, -37.0499, 0.663342, 20.5408, -160.572, -92.6101, 54.7828
3.59259, 2, -37.0499, 0.66331, 20.5408, -160.572, -92.6101, 54.7827
3.59967, 2, -37.0499, 0.663325, 20.5408, -160.572, -92.6101, 54.7827
3.6076, 2, -37.0499, 0.66332, 20.5408, -160.572, -92.6101, 54.7828
3.61555, 2, -37.0498, 0.663326, 20.5407, -160.572, -92.6101, 54.7828
3.62359, 2, -37.0498, 0.663332, 20.5407, -160.572, -92.6101, 54.7828
3.6316, 2, -37.0498, 0.663342, 20.5407, -160.572, -92.6101, 54.7828
3.63978, 2, -37.0498, 0.663347, 20.5407, -160.572, -92.6101, 54.7828
3.64761, 2, -37.0497, 0.663349, 20.5407, -160.572, -92.6102, 54.7828
3.65557, 2, -37.0497, 0.663362, 20.5407, -160.572, -92.6101, 54.7829
3.66357, 2, -37.0497, 0.663356, 20.5407, -160.572, -92.6101, 54.7829
3.67163, 2, -37.0497, 0.663353, 20.5407, -160.572, -92.6101, 54.7829
3.67961, 2, -37.0497, 0.663352, 20.5407, -160.572, -92.6101, 54.7829
3.68754, 2, -37.0497, 0.663359, 20.5407, -160.572, -92.6101, 54.7829
3.69566, 2, -37.0497, 0.663359, 20.5407, -160.572, -92.6101, 54.7829
3.70358, 2, -37.0497, 0.663374, 20.5407, -160.572, -92.6101, 54.7829
3.71157, 2, -37.0497, 0.663348, 20.5407, -160.571, -92.6101, 54.7829
3.71971, 2, -37.0497, 0.663362, 20.5406, -160.571, -92.6101, 54.7829
3.72752, 4, -37.0496, 0.663375, 20.5406, -160.572, -92.6101, 54.7829
3.73561, 4, -37.0496, 0.663367, 20.5406, -160.572, -92.6102, 54.7829
3.74367, 4, -37.0496, 0.663366, 20.5406, -160.572, -92.6102, 54.7829
3.75152, 4, -37.0496, 0.663382, 20.5406, -160.571, -92.6101, 54.7829
3.75962, 4, -37.0496, 0.663382, 20.5406, -160.571, -92.6101, 54.7829
3.76766, 4, -37.0495, 0.663385, 20.5406, -160.571, -92.6101, 54.7829
3.77566, 4, -37.0495, 0.663391, 20.5406, -160.571, -92.6102, 54.7829
3.78366, 4, -37.0495, 0.663394, 20.5406, -160.571, -92.6101, 54.7829
3.79172, 4, -37.0494, 0.663375, 20.5406, -160.571, -92.6101, 54.783
3.79972, 4, -37.0495, 0.663374, 20.5406, -160.571, -92.6101, 54.7829
3.8077, 4, -37.0495, 0.663374, 20.5406, -160.571, -92.6101, 54.7829
3.81576, 4, -37.0494, 0.663374, 20.5406, -160.571, -92.6101, 54.7829
3.82355, 4, -37.0494, 0.663381, 20.5406, -160.571, -92.6101, 54.7829
3.83186, 4, -37.0494, 0.663389, 20.5405, -160.571, -92.6102, 54.7829
3.8586, 4, -37.0493, 0.663395, 20.5405, -160.571, -92.6102, 54.783
3.86067, 4, -37.0493, 0.663396, 20.5405, -160.571, -92.6102, 54.7829
3.86199, 4, -37.0493, 0.663396, 20.5405, -160.571, -92.6102, 54.7829
3.86459, 4, -37.0493, 0.663396, 20.5405, -160.571, -92.6102, 54.783
3.87194, 4, -37.0493, 0.663384, 20.5405, -160.571, -92.6102, 54.783
3.87992, 4, -37.049, 0.663354, 20.5405, -160.571, -92.6102, 54.783
3.8866, 4, -37.0485, 0.663232, 20.5405, -160.571, -92.6102, 54.783
3.89643, 4, -37.0434, 0.66126, 20.541, -160.571, -92.6102, 54.783
3.90411, 4, -37.0363, 0.657549, 20.5424, -160.571, -92.6103, 54.783
3.91216, 4, -37.027, 0.651969, 20.5454, -160.571, -92.6103, 54.783
3.92035, 4, -37.0163, 0.644612, 20.551, -160.57, -92.6102, 54.7829
3.92813, 4, -37.0031, 0.635025, 20.5597, -160.568, -92.6101, 54.7829
3.93613, 5, -36.9954, 0.629288, 20.5653, -160.567, -92.6101, 54.7829
3.9444, 5, -36.9787, 0.616083, 20.5793, -160.564, -92.61, 54.7828
3.95154, 5, -36.9608, 0.601144, 20.5968, -160.56, -92.6099, 54.7828
3.95961, 5, -36.9414, 0.584574, 20.6169, -160.556, -92.6097, 54.7826
3.96761, 5, -36.9197, 0.565616, 20.639, -160.552, -92.6094, 54.7825
3.97555, 5, -36.8946, 0.544295, 20.6627, -160.547, -92.6092, 54.7824
3.98358, 5, -36.8666, 0.521691, 20.687, -160.541, -92.6089, 54.7823
3.99156, 5, -36.8371, 0.498171, 20.7118, -160.536, -92.6085, 54.7821
3.99962, 5, -36.8068, 0.474121, 20.7368, -160.531, -92.608, 54.7819
4.00759, 5, -36.776, 0.44999, 20.7619, -160.525, -92.6076, 54.7818
4.01556, 5, -36.745, 0.42564, 20.7869, -160.519, -92.6071, 54.7815
4.02355, 5, -36.7141, 0.401257, 20.8119, -160.513, -92.6064, 54.7813
4.03162, 5, -36.6832, 0.376879, 20.8369, -160.508, -92.6059, 54.781
4.03962, 5, -36.6528, 0.352534, 20.8622, -160.502, -92.6053, 54.7808
4.04754, 5, -36.6223, 0.328412, 20.8875, -160.497, -92.6046, 54.7807
4.05455, 5, -36.5917, 0.304275, 20.9125, -160.491, -92.6039, 54.7806
4.06355, 5, -36.5609, 0.280357, 20.9378, -160.485, -92.6031, 54.7805
4.07159, 5, -36.5299, 0.256386, 20.963, -160.48, -92.6023, 54.7803
4.08055, 5, -36.4993, 0.232327, 20.9882, -160.475, -92.6016, 54.7803
4.08754, 5, -36.4688, 0.208419, 21.0134, -160.469, -92.6009, 54.7802
4.09655, 5, -36.4385, 0.184342, 21.0385, -160.464, -92.6, 54.7801
4.10362, 5, -36.408, 0.160259, 21.0636, -160.459, -92.5993, 54.78
4.11155, 5, -36.3773, 0.136137, 21.0887, -160.454, -92.5986, 54.7798
4.11964, 5, -36.3463, 0.111841, 21.1138, -160.449, -92.5978, 54.7796
4.12764, 5, -36.3151, 0.0876977, 21.1388, -160.444, -92.597, 54.7793
4.13555, 5, -36.2839, 0.063479, 21.1637, -160.438, -92.5963, 54.7792
4.14363, 5, -36.2527, 0.0392291, 21.1887, -160.433, -92.5955, 54.7789
4.15155, 5, -36.2214, 0.0151286, 21.2137, -160.428, -92.5948, 54.7785
4.15962, 5, -36.1903, -0.00905164, 21.2386, -160.423, -92.594, 54.7781
4.16765, 5, -36.1592, -0.0330156, 21.2636, -160.418, -92.5932, 54.7778
4.17555, 5, -36.1281, -0.0569149, 21.2886, -160.412, -92.5924, 54.7774
4.18355, 5, -36.0969, -0.0808097, 21.3136, -160.407, -92.5917, 54.7769
4.19178, 5, -36.0656, -0.104592, 21.3386, -160.402, -92.5909, 54.7764
4.2005, 5, -36.0345, -0.128492, 21.3633, -160.396, -92.5902, 54.7759
4.20754, 5, -36.0035, -0.152282, 21.3882, -160.39, -92.5894, 54.7755
4.21563, 5, -35.9725, -0.17612, 21.413, -160.385, -92.5887, 54.7749
4.22367, 5, -35.9416, -0.200077, 21.438, -160.379, -92.5879, 54.7745
4.23155, 5, -35.9103, -0.223891, 21.4627, -160.373, -92.5872, 54.7741
4.23972, 5, -35.8791, -0.247876, 21.4875, -160.367, -92.5865, 54.7736
4.24755, 5, -35.8478, -0.271789, 21.5122, -160.361, -92.5858, 54.7732
4.25555, 5, -35.8163, -0.295579, 21.5369, -160.355, -92.5851, 54.7728
4.26384, 5, -35.7848, -0.319514, 21.5616, -160.349, -92.5843, 54.7724
4.27159, 5, -35.7532, -0.34332, 21.5862, -160.344, -92.5836, 54.7721
4.27968, 5, -35.7219, -0.367122, 21.6109, -160.338, -92.5829, 54.7718
4.2884, 5, -35.6906, -0.390909, 21.6356, -160.333, -92.5821, 54.7715
4.29566, 5, -35.6592, -0.414528, 21.6603, -160.327, -92.5814, 54.7712
4.30365, 5, -35.6277, -0.438194, 21.6848, -160.322, -92.5807, 54.771
4.31324, 5, -35.5961, -0.46175, 21.7092, -160.316, -92.58, 54.7708
4.31972, 5, -35.5647, -0.485438, 21.7337, -160.311, -92.5793, 54.7707
4.32768, 5, -35.5334, -0.50914, 21.7582, -160.305, -92.5786, 54.7706
4.33559, 5, -35.5022, -0.532689, 21.7827, -160.3, -92.5779, 54.7704
4.34358, 5, -35.4708, -0.556326, 21.807, -160.295, -92.5772, 54.7703
4.35175, 5, -35.4393, -0.579863, 21.8313, -160.289, -92.5765, 54.7703
4.3598, 5, -35.4077, -0.603416, 21.8556, -160.284, -92.5757, 54.7702
4.36776, 5, -35.3762, -0.627124, 21.8799, -160.278, -92.575, 54.7702
4.37588, 5, -35.3445, -0.650595, 21.9041, -160.273, -92.5743, 54.7702
4.3839, 5, -35.3128, -0.674113, 21.9284, -160.267, -92.5736, 54.7702
4.39198, 5, -35.281, -0.697662, 21.9526, -160.262, -92.5729, 54.7701
4.40001, 5, -35.2492, -0.721102, 21.9768, -160.256, -92.5722, 54.7701
4.40817, 5, -35.2175, -0.744598, 22.001, -160.25, -92.5715, 54.7702
4.42107, 5, -35.1698, -0.779479, 22.037, -160.241, -92.5704, 54.7702
4.42407, 5, -35.1539, -0.791111, 22.049, -160.238, -92.5701, 54.7702
4.43219, 5, -35.122, -0.814427, 22.0731, -160.232, -92.5694, 54.7702
4.44012, 5, -35.1062, -0.826006, 22.0851, -160.229, -92.5687, 54.7702
4.44752, 5, -35.0745, -0.849242, 22.1092, -160.223, -92.5683, 54.7702
4.45615, 5, -35.0429, -0.872655, 22.133, -160.217, -92.5676, 54.7702
4.46552, 5, -34.9952, -0.907499, 22.1689, -160.208, -92.5666, 54.7702
4.47153, 5, -34.9792, -0.919149, 22.1808, -160.205, -92.5662, 54.7703
4.47952, 5, -34.9475, -0.942489, 22.2047, -160.199, -92.5655, 54.7704
4.48754, 5, -34.9157, -0.965695, 22.2285, -160.193, -92.5648, 54.7704
4.4956, 5, -34.884, -0.988977, 22.2522, -160.187, -92.564, 54.7704
4.50353, 5, -34.8521, -1.0122, 22.2761, -160.182, -92.5633, 54.7704
4.51154, 5, -34.82, -1.03523, 22.2998, -160.176, -92.5626, 54.7705
4.51958, 5, -34.788, -1.05836, 22.3235, -160.17, -92.5618, 54.7705
4.52752, 5, -34.756, -1.08139, 22.3471, -160.165, -92.5611, 54.7706
4.53554, 5, -34.724, -1.10441, 22.3707, -160.16, -92.5603, 54.7706
4.54359, 5, -34.692, -1.12754, 22.3943, -160.154, -92.5596, 54.7707
4.55153, 5, -34.6598, -1.1505, 22.4179, -160.148, -92.5589, 54.7707
4.55969, 5, -34.6278, -1.17353, 22.4415, -160.143, -92.5582, 54.7708
4.56759, 5, -34.5958, -1.19649, 22.465, -160.137, -92.5574, 54.7709
4.57724, 5, -34.5638, -1.21943, 22.4884, -160.132, -92.5563, 54.7713
4.58354, 5, -34.5316, -1.24253, 22.5117, -160.126, -92.556, 54.7714
4.59161, 5, -34.4994, -1.26547, 22.5352, -160.12, -92.5552, 54.7716
4.6006, 5, -34.4672, -1.28837, 22.5586, -160.114, -92.5545, 54.7719
4.60752, 5, -34.4351, -1.31134, 22.5819, -160.109, -92.5538, 54.7723
4.6156, 5, -34.403, -1.33414, 22.6053, -160.102, -92.553, 54.7727
4.62353, 5, -34.3707, -1.35704, 22.6286, -160.096, -92.5523, 54.7734
4.63176, 5, -34.3383, -1.37988, 22.6519, -160.09, -92.5515, 54.7741
4.63968, 5, -34.306, -1.40255, 22.6751, -160.084, -92.5507, 54.7748
4.64754, 5, -34.2737, -1.42537, 22.6982, -160.077, -92.55, 54.7758
4.65562, 5, -34.2415, -1.44808, 22.7214, -160.071, -92.5492, 54.7768
4.66353, 5, -34.209, -1.47075, 22.7446, -160.065, -92.5484, 54.7779
4.67153, 5, -34.1766, -1.49351, 22.7678, -160.058, -92.5477, 54.7792
4.67952, 5, -34.1443, -1.51609, 22.7909, -160.052, -92.5469, 54.7805
4.68761, 5, -34.112, -1.5387, 22.814, -160.046, -92.546, 54.782
4.69552, 5, -34.0797, -1.56131, 22.837, -160.04, -92.5453, 54.7834
4.70355, 5, -34.0473, -1.58382, 22.86, -160.034, -92.5445, 54.7849
4.7116, 5, -34.0148, -1.60648, 22.883, -160.028, -92.5438, 54.7863
4.71952, 5, -33.9824, -1.62909, 22.9059, -160.022, -92.543, 54.7879
4.72755, 5, -33.95, -1.65155, 22.9288, -160.017, -92.5422, 54.7894
4.73559, 5, -33.9175, -1.67412, 22.9518, -160.011, -92.5414, 54.791
4.74359, 5, -33.8849, -1.69655, 22.9747, -160.005, -92.5407, 54.7926
4.75186, 5, -33.8523, -1.71894, 22.9976, -159.999, -92.5399, 54.7942
4.76036, 5, -33.8198, -1.74153, 23.0202, -159.993, -92.5391, 54.7959
4.76792, 5, -33.7872, -1.76385, 23.0429, -159.987, -92.5382, 54.7975
4.77807, 5, -33.7546, -1.78623, 23.0656, -159.981, -92.5374, 54.7992
4.78368, 5, -33.7218, -1.80869, 23.0883, -159.975, -92.5367, 54.8009
4.79199, 5, -33.6891, -1.83099, 23.1111, -159.969, -92.5359, 54.8026
4.79963, 5, -33.6566, -1.85341, 23.1336, -159.963, -92.5351, 54.8043
4.8077, 5, -33.624, -1.87576, 23.1562, -159.956, -92.5343, 54.806
4.81613, 5, -33.5914, -1.89798, 23.1786, -159.95, -92.5335, 54.8077
4.82354, 5, -33.5586, -1.92033, 23.2012, -159.944, -92.5327, 54.8094
4.83187, 5, -33.5259, -1.94256, 23.2237, -159.937, -92.5319, 54.8112
4.8404, 5, -33.4932, -1.96488, 23.2461, -159.93, -92.5311, 54.8129
4.84762, 5, -33.4605, -1.98735, 23.2686, -159.924, -92.5302, 54.8147
4.85565, 5, -33.4278, -2.0097, 23.2911, -159.917, -92.5294, 54.8162
4.86405, 5, -33.3951, -2.03224, 23.3137, -159.911, -92.5284, 54.8178
4.87177, 5, -33.3625, -2.05492, 23.3363, -159.904, -92.5272, 54.8192
4.87987, 5, -33.3299, -2.0776, 23.3589, -159.898, -92.526, 54.8204
4.88795, 5, -33.2975, -2.10063, 23.3818, -159.891, -92.5245, 54.8214
4.89596, 6, -33.2649, -2.12374, 23.4048, -159.885, -92.5228, 54.822
4.90409, 6, -33.2325, -2.14696, 23.4281, -159.878, -92.5208, 54.8224
4.91249, 6, -33.2003, -2.17061, 23.4515, -159.871, -92.5185, 54.8226
4.92007, 6, -33.1682, -2.19439, 23.4751, -159.864, -92.5159, 54.8227
4.92845, 6, -33.1363, -2.21855, 23.4988, -159.857, -92.5131, 54.8227
4.93616, 6, -33.1043, -2.24301, 23.5228, -159.849, -92.51, 54.8226
4.94412, 6, -33.0883, -2.25524, 23.5349, -159.845, -92.5066, 54.8224
4.95151, 6, -33.0566, -2.27999, 23.5593, -159.837, -92.5048, 54.8223
4.95952, 6, -33.0252, -2.30504, 23.5837, -159.829, -92.501, 54.8217
4.96755, 6, -32.9937, -2.33031, 23.6085, -159.82, -92.4969, 54.8209
4.97551, 6, -32.9623, -2.35604, 23.6334, -159.811, -92.4926, 54.8199
4.9835, 7, -32.9309, -2.38187, 23.6586, -159.802, -92.4881, 54.8187
4.99157, 7, -32.8997, -2.40799, 23.6839, -159.792, -92.4834, 54.8176
4.99952, 7, -32.8688, -2.43438, 23.7093, -159.782, -92.4784, 54.8159
5.00751, 7, -32.8378, -2.46104, 23.735, -159.772, -92.4732, 54.8134
5.01554, 7, -32.807, -2.4881, 23.761, -159.762, -92.4677, 54.81
5.02367, 7, -32.7762, -2.51525, 23.7871, -159.752, -92.462, 54.806
5.03301, 7, -32.7456, -2.55666, 23.8266, -159.737, -92.453, 54.799
5.03953, 7, -32.7152, -2.57057, 23.8399, -159.731, -92.4498, 54.7964
5.04815, 7, -32.6849, -2.59871, 23.8667, -159.721, -92.4434, 54.7909
5.0555, 7, -32.6547, -2.62709, 23.8936, -159.71, -92.4366, 54.7849
5.06353, 7, -32.6245, -2.65568, 23.9207, -159.7, -92.4295, 54.7784
5.07233, 7, -32.5944, -2.68452, 23.948, -159.689, -92.4221, 54.7717
5.07954, 8, -32.5646, -2.7138, 23.9757, -159.677, -92.4143, 54.7645
5.08852, 8, -32.5348, -2.74334, 24.0035, -159.665, -92.4062, 54.7569
5.09654, 8, -32.5052, -2.7731, 24.0313, -159.653, -92.3976, 54.7489
5.10663, 8, -32.4607, -2.81821, 24.0736, -159.634, -92.3839, 54.7363
5.11151, 8, -32.446, -2.83343, 24.0879, -159.628, -92.3791, 54.7319
5.12204, 8, -32.4021, -2.87938, 24.1309, -159.609, -92.3643, 54.7182
5.12757, 8, -32.3875, -2.89483, 24.1452, -159.603, -92.3592, 54.7135
5.1355, 8, -32.3584, -2.92598, 24.1742, -159.59, -92.3491, 54.7036
5.14357, 8, -32.3293, -2.95735, 24.2034, -159.578, -92.3387, 54.6933
5.1515, 8, -32.3003, -2.98906, 24.2328, -159.565, -92.3283, 54.6826
5.15953, 8, -32.2717, -3.02096, 24.2623, -159.551, -92.3177, 54.6714
5.16757, 9, -32.243, -3.05312, 24.2922, -159.538, -92.307, 54.6599
5.1755, 9, -32.2145, -3.08559, 24.3223, -159.524, -92.2961, 54.6482
5.18351, 9, -32.1861, -3.11832, 24.3524, -159.509, -92.2849, 54.6362
5.19158, 9, -32.1577, -3.15135, 24.3827, -159.495, -92.2732, 54.624
5.19967, 9, -32.1294, -3.18463, 24.4133, -159.48, -92.2613, 54.6118
5.20851, 9, -32.1014, -3.21825, 24.4442, -159.466, -92.2488, 54.5994
5.2166, 9, -32.0734, -3.2521, 24.4751, -159.451, -92.2359, 54.5868
5.22749, 9, -32.0317, -3.30352, 24.5219, -159.429, -92.2156, 54.5674
5.23152, 9, -32.0177, -3.32079, 24.5377, -159.421, -92.2088, 54.5608
5.23951, 9, -31.9899, -3.3556, 24.5692, -159.406, -92.1951, 54.5473
5.24761, 9, -31.9623, -3.39059, 24.601, -159.39, -92.1813, 54.5336
5.25552, 9, -31.9349, -3.42587, 24.633, -159.374, -92.1674, 54.5193
5.26357, 10, -31.9076, -3.46156, 24.6653, -159.358, -92.1533, 54.5045
5.27154, 10, -31.8805, -3.49746, 24.6976, -159.341, -92.1389, 54.4892
5.2796, 10, -31.8534, -3.53362, 24.7302, -159.325, -92.1241, 54.4734
5.28767, 10, -31.8264, -3.57011, 24.7631, -159.309, -92.1087, 54.4572
5.29578, 10, -31.7996, -3.60685, 24.7961, -159.292, -92.0929, 54.441
5.30362, 10, -31.7729, -3.64384, 24.8293, -159.276, -92.0764, 54.4246
5.31169, 10, -31.7463, -3.68117, 24.8627, -159.259, -92.06, 54.4082
5.31961, 10, -31.7198, -3.71883, 24.8964, -159.242, -92.0434, 54.3917
5.32769, 10, -31.6933, -3.75661, 24.9303, -159.224, -92.027, 54.3748
5.33554, 10, -31.667, -3.79471, 24.9644, -159.206, -92.0104, 54.3578
5.34373, 10, -31.6409, -3.83319, 24.9988, -159.188, -91.9936, 54.3404
5.35155, 11, -31.6149, -3.87187, 25.0331, -159.17, -91.9764, 54.3223
5.35962, 11, -31.5888, -3.91081, 25.0678, -159.152, -91.9586, 54.3038
5.36809, 11, -31.5628, -3.9501, 25.1028, -159.134, -91.9402, 54.2847
5.3759, 11, -31.5368, -3.98971, 25.1378, -159.116, -91.9216, 54.2654
5.38381, 11, -31.511, -4.02962, 25.1729, -159.097, -91.9028, 54.2461
5.39197, 11, -31.4855, -4.06982, 25.2085, -159.077, -91.8841, 54.2266
5.40005, 11, -31.46, -4.1104, 25.2442, -159.057, -91.8651, 54.207
5.4088, 11, -31.4348, -4.15116, 25.2801, -159.038, -91.846, 54.1872
5.41618, 11, -31.4096, -4.19231, 25.3163, -159.019, -91.8264, 54.1669
5.42406, 11, -31.3842, -4.23382, 25.3526, -158.999, -91.8062, 54.1463
5.43297, 11, -31.3589, -4.2755, 25.389, -158.98, -91.7854, 54.125
5.44057, 12, -31.334, -4.31749, 25.4258, -158.959, -91.7645, 54.1032
5.4481, 12, -31.3216, -4.33862, 25.4443, -158.949, -91.7437, 54.0808
5.4555, 12, -31.2968, -4.38107, 25.4813, -158.928, -91.7333, 54.0696
5.46431, 12, -31.2723, -4.4238, 25.5185, -158.897, -91.7019, 54.0362
5.47665, 12, -31.2235, -4.51009, 25.5937, -158.866, -91.6695, 54.0024
5.47944, 12, -31.2235, -4.51009, 25.5937, -158.866, -91.6695, 54.0024
5.48913, 12, -31.187, -4.5755, 25.6506, -158.834, -91.6359, 53.9679
5.49552, 12, -31.1749, -4.59744, 25.6697, -158.824, -91.6246, 53.9561
5.50349, 12, -31.1508, -4.6415, 25.7079, -158.802, -91.6021, 53.932
5.5115, 12, -31.1267, -4.68585, 25.7464, -158.779, -91.5795, 53.9074
5.51954, 12, -31.1029, -4.73051, 25.7851, -158.757, -91.5567, 53.8826
5.52748, 12, -31.0791, -4.77553, 25.8239, -158.735, -91.5334, 53.858
5.53549, 13, -31.0553, -4.82085, 25.8629, -158.714, -91.5093, 53.8333
5.54561, 13, -31.02, -4.88937, 25.922, -158.68, -91.4725, 53.7957
5.55149, 13, -31.0082, -4.91238, 25.9418, -158.669, -91.4604, 53.783
5.55949, 13, -30.9847, -4.95866, 25.9815, -158.645, -91.4361, 53.757
5.56833, 13, -30.9613, -5.00525, 26.0214, -158.622, -91.4117, 53.7304
5.5755, 13, -30.9382, -5.05214, 26.0615, -158.599, -91.3866, 53.7036
5.5845, 13, -30.9151, -5.09925, 26.1019, -158.576, -91.3609, 53.6769
5.59151, 13, -30.892, -5.14667, 26.1424, -158.553, -91.335, 53.6501
5.59955, 13, -30.8692, -5.19441, 26.1832, -158.529, -91.3091, 53.623
5.60854, 13, -30.8465, -5.24227, 26.2242, -158.504, -91.2832, 53.5954
5.61649, 13, -30.8238, -5.29043, 26.2654, -158.48, -91.257, 53.5672
5.62351, 14, -30.8012, -5.33892, 26.3069, -158.456, -91.2301, 53.5385
5.63149, 14, -30.7789, -5.38757, 26.3485, -158.432, -91.2026, 53.5097
5.63949, 14, -30.7564, -5.43655, 26.3902, -158.408, -91.1752, 53.4814
5.64755, 14, -30.7341, -5.48587, 26.4323, -158.383, -91.1479, 53.4528
5.65549, 14, -30.7121, -5.53555, 26.4745, -158.357, -91.1205, 53.4238
5.66372, 14, -30.6901, -5.58556, 26.5169, -158.332, -91.0925, 53.3942
5.67153, 14, -30.6681, -5.6358, 26.5596, -158.306, -91.0637, 53.3637
5.67948, 14, -30.6463, -5.68649, 26.6024, -158.281, -91.0348, 53.3329
5.68748, 14, -30.6246, -5.73746, 26.6454, -158.256, -91.006, 53.3023
5.69549, 14, -30.6028, -5.78872, 26.6887, -158.229, -90.9771, 53.2717
5.70355, 14, -30.5812, -5.84032, 26.7321, -158.203, -90.9476, 53.2409
5.71151, 14, -30.5598, -5.8921, 26.7758, -158.176, -90.9173, 53.2093
5.71948, 15, -30.5386, -5.94421, 26.8196, -158.15, -90.887, 53.177
5.72755, 15, -30.5174, -5.99647, 26.8637, -158.124, -90.8569, 53.1447
5.73568, 15, -30.4963, -6.049, 26.9081, -158.097, -90.8268, 53.1124
5.74447, 15, -30.4754, -6.10185, 26.9526, -158.07, -90.796, 53.0799
5.75159, 15, -30.4545, -6.15489, 26.9974, -158.042, -90.7645, 53.0471
5.75951, 15, -30.4336, -6.20822, 27.0423, -158.015, -90.7332, 53.0135
5.76755, 15, -30.4129, -6.26193, 27.0874, -157.987, -90.7018, 52.9793
5.7757, 15, -30.3925, -6.31597, 27.1327, -157.96, -90.6702, 52.9452
5.78408, 15, -30.372, -6.3703, 27.1781, -157.931, -90.6376, 52.9111
5.79157, 15, -30.3517, -6.42511, 27.2239, -157.902, -90.6046, 52.8768
5.79991, 15, -30.3316, -6.48026, 27.2698, -157.874, -90.5721, 52.8417
5.80839, 16, -30.3115, -6.53571, 27.316, -157.846, -90.5395, 52.8059
5.81562, 16, -30.2914, -6.59142, 27.3622, -157.818, -90.5063, 52.7702
5.82388, 16, -30.2713, -6.64754, 27.4089, -157.788, -90.4722, 52.7347
5.83262, 16, -30.2515, -6.70384, 27.4557, -157.759, -90.4385, 52.699
5.84051, 16, -30.2318, -6.76032, 27.5026, -157.73, -90.4048, 52.6627
5.84833, 16, -30.2121, -6.81715, 27.5499, -157.701, -90.3706, 52.6257
5.85765, 16, -30.1925, -6.87407, 27.5974, -157.671, -90.3353, 52.5886
5.86452, 16, -30.1731, -6.93128, 27.6451, -157.641, -90.3001, 52.5517
5.87167, 16, -30.1538, -6.98874, 27.693, -157.611, -90.2652, 52.5146
5.87992, 16, -30.1345, -7.04655, 27.741, -157.581, -90.2299, 52.4769
5.8887, 16, -30.1152, -7.10465, 27.7893, -157.551, -90.1937, 52.4385
5.89586, 16, -30.0962, -7.16319, 27.8377, -157.52, -90.1576, 52.4002
5.90403, 17, -30.0773, -7.22214, 27.8864, -157.489, -90.1216, 52.3622
5.91281, 17, -30.0585, -7.28135, 27.9352, -157.458, -90.0853, 52.3239
5.92001, 17, -30.0397, -7.34098, 27.9843, -157.427, -90.0479, 52.285
5.92826, 17, -30.0211, -7.40091, 28.0335, -157.396, -90.0107, 52.2453
5.93822, 17, -30.0026, -7.46108, 28.083, -157.365, -89.9738, 52.2055
5.94405, 17, -29.9934, -7.49125, 28.1078, -157.332, -89.9365, 52.166
5.95218, 17, -29.975, -7.55175, 28.1576, -157.301, -89.8982, 52.1261
5.95947, 17, -29.9566, -7.61243, 28.2076, -157.285, -89.8791, 52.106
5.96747, 17, -29.9385, -7.67331, 28.2579, -157.253, -89.8412, 52.0652
5.97555, 17, -29.9204, -7.73446, 28.3085, -157.221, -89.803, 52.0243
5.98347, 17, -29.9024, -7.79585, 28.3591, -157.188, -89.7639, 51.9837
5.99144, 18, -29.8845, -7.85751, 28.41, -157.155, -89.7245, 51.9426
5.99954, 18, -29.8668, -7.91957, 28.461, -157.123, -89.6857, 51.9007
6.00747, 18, -29.8491, -7.98197, 28.5121, -157.09, -89.6465, 51.8583
6.01548, 18, -29.8315, -8.04476, 28.5635, -157.056, -89.6064, 51.8164
6.02513, 18, -29.8052, -8.1396, 28.6412, -157.006, -89.5466, 51.7531
6.03339, 18, -29.7878, -8.20316, 28.693, -156.973, -89.5065, 51.7099
6.04278, 18, -29.7705, -8.26709, 28.7453, -156.939, -89.4653, 51.6665
6.04755, 18, -29.7619, -8.29913, 28.7714, -156.921, -89.4446, 51.645
6.05545, 18, -29.7447, -8.36329, 28.8238, -156.887, -89.4039, 51.6019
6.06346, 18, -29.7276, -8.42766, 28.8765, -156.853, -89.3632, 51.5585
6.07155, 18, -29.7107, -8.49226, 28.9295, -156.819, -89.3213, 51.5143
6.07943, 19, -29.6939, -8.5571, 28.9827, -156.784, -89.2794, 51.4701
6.08848, 19, -29.6771, -8.62216, 29.036, -156.749, -89.2378, 51.4262
6.09561, 19, -29.6603, -8.68761, 29.0896, -156.714, -89.1954, 51.3821
6.10531, 19, -29.6436, -8.75334, 29.1432, -156.68, -89.1525, 51.3146
6.11145, 19, -29.6271, -8.81945, 29.197, -156.644, -89.11, 51.2923
6.11954, 19, -29.6106, -8.88589, 29.251, -156.608, -89.0675, 51.2476
6.12773, 19, -29.5943, -8.95261, 29.3053, -156.573, -89.024, 51.2026
6.13547, 19, -29.578, -9.0197, 29.3598, -156.537, -88.9809, 51.1566
6.14347, 19, -29.562, -9.08707, 29.4145, -156.501, -88.9377, 51.1104
6.15229, 19, -29.5461, -9.15464, 29.4694, -156.464, -88.8936, 51.0644
6.15955, 19, -29.5303, -9.22249, 29.5245, -156.428, -88.8494, 51.0181
6.16749, 19, -29.5144, -9.29052, 29.5799, -156.392, -88.8056, 50.9709
6.1763, 20, -29.4985, -9.35881, 29.6355, -156.355, -88.7614, 50.9236
6.18346, 20, -29.4828, -9.42735, 29.6912, -156.318, -88.7163, 50.8765
6.19146, 20, -29.4673, -9.49619, 29.7471, -156.281, -88.6718, 50.829
6.2005, 20, -29.4519, -9.56527, 29.8032, -156.244, -88.6269, 50.7806
6.20929, 20, -29.4365, -9.63472, 29.8594, -156.206, -88.5811, 50.7322
6.21647, 20, -29.4212, -9.7044, 29.9159, -156.168, -88.5358, 50.6842
6.22537, 20, -29.4062, -9.77448, 29.9726, -156.13, -88.4905, 50.6357
6.23247, 20, -29.3912, -9.84477, 30.0295, -156.092, -88.4441, 50.5865
6.23955, 20, -29.3763, -9.91539, 30.0867, -156.054, -88.3979, 50.5376
6.24746, 20, -29.3613, -9.98628, 30.144, -156.015, -88.3517, 50.4889
6.25567, 20, -29.3463, -10.0573, 30.2015, -155.977, -88.3046, 50.4397
6.26348, 21, -29.3315, -10.1287, 30.2593, -155.938, -88.2576, 50.3897
6.27147, 21, -29.3168, -10.2004, 30.3172, -155.899, -88.211, 50.3401
6.27963, 21, -29.3023, -10.2721, 30.3753, -155.86, -88.1635, 50.2905
6.28755, 21, -29.2878, -10.3443, 30.4335, -155.821, -88.1159, 50.2403
6.29557, 21, -29.2733, -10.4166, 30.4919, -155.782, -88.0687, 50.1899
6.30535, 21, -29.259, -10.4892, 30.5504, -155.742, -88.0205, 50.1401
6.31156, 21, -29.2448, -10.562, 30.6092, -155.702, -87.9722, 50.0899
6.31996, 21, -29.2307, -10.635, 30.6682, -155.663, -87.9242, 50.0388
6.32747, 21, -29.2166, -10.7084, 30.7274, -155.622, -87.8755, 49.9879
6.33567, 21, -29.2025, -10.7819, 30.7869, -155.582, -87.8265, 49.9372
6.34439, 21, -29.1884, -10.8558, 30.8465, -155.542, -87.7781, 49.8859
6.35149, 21, -29.1744, -10.93, 30.9063, -155.501, -87.7286, 49.8341
6.35959, 22, -29.1605, -11.0043, 30.9663, -155.459, -87.6788, 49.7829
6.36841, 22, -29.1468, -11.0789, 31.0264, -155.419, -87.6299, 49.7315
6.37608, 22, -29.1331, -11.1538, 31.0867, -155.377, -87.5798, 49.6791
6.38376, 22, -29.1195, -11.2289, 31.1472, -155.335, -87.5297, 49.6266
6.39254, 22, -29.1061, -11.3042, 31.2078, -155.294, -87.4798, 49.5746
6.39988, 22, -29.0928, -11.3797, 31.2686, -155.253, -87.4289, 49.5222
6.40853, 22, -29.0796, -11.4556, 31.3297, -155.21, -87.3782, 49.4689
6.41608, 22, -29.0665, -11.5316, 31.391, -155.168, -87.328, 49.4162
6.42403, 22, -29.0534, -11.608, 31.4525, -155.126, -87.2767, 49.3633
6.43203, 22, -29.0403, -11.6846, 31.5141, -155.084, -87.2258, 49.31
6.44011, 22, -29.0274, -11.7614, 31.5758, -155.04, -87.1749, 49.2562
6.44803, 23, -29.0209, -11.8, 31.6068, -154.998, -87.1229, 49.2032
6.45603, 23, -29.0081, -11.8772, 31.6688, -154.977, -87.097, 49.1766
6.4635, 23, -28.9953, -11.9546, 31.7309, -154.934, -87.0459, 49.1228
6.47212, 23, -28.9826, -12.0323, 31.7932, -154.89, -86.9936, 49.0691
6.47953, 23, -28.9699, -12.1102, 31.8556, -154.847, -86.9416, 49.0159
6.4875, 23, -28.9572, -12.1884, 31.9183, -154.804, -86.8898, 48.9621
6.49548, 23, -28.9448, -12.2667, 31.9811, -154.759, -86.8366, 48.9076
6.50352, 23, -28.9324, -12.3452, 32.0441, -154.715, -86.7841, 48.8538
6.51145, 23, -28.9201, -12.4241, 32.1075, -154.672, -86.7313, 48.7998
6.51946, 23, -28.9079, -12.5031, 32.1709, -154.627, -86.6776, 48.7451
6.5298, 23, -28.8897, -12.622, 32.2664, -154.561, -86.5981, 48.6636
6.53548, 23, -28.8836, -12.6617, 32.2983, -154.538, -86.5711, 48.6364
6.54346, 24, -28.8714, -12.7414, 32.3621, -154.493, -86.5173, 48.5815
6.55367, 24, -28.8535, -12.8613, 32.4581, -154.426, -86.437, 48.4988
6.55945, 24, -28.8476, -12.9013, 32.4901, -154.403, -86.4097, 48.4716
6.56758, 24, -28.8357, -12.9816, 32.5543, -154.358, -86.3557, 48.4165
6.57628, 24, -28.824, -13.0622, 32.6188, -154.312, -86.3017, 48.3606
6.58345, 24, -28.8123, -13.1431, 32.6835, -154.267, -86.2467, 48.3054
6.59248, 24, -28.8005, -13.2241, 32.7483, -154.221, -86.1927, 48.2502
6.59948, 24, -28.7889, -13.3053, 32.8133, -154.175, -86.1379, 48.1942
6.60848, 24, -28.7775, -13.3868, 32.8784, -154.129, -86.0828, 48.1384
6.61626, 24, -28.7659, -13.4684, 32.9436, -154.083, -86.0283, 48.0831
6.62345, 24, -28.7544, -13.5502, 33.009, -154.036, -85.9726, 48.0273
6.63145, 25, -28.743, -13.6322, 33.0745, -153.99, -85.9174, 47.9713
6.64027, 25, -28.7316, -13.7143, 33.1401, -153.943, -85.8624, 47.9161
6.64745, 25, -28.7201, -13.7967, 33.2059, -153.896, -85.8064, 47.8606
6.65546, 25, -28.709, -13.8793, 33.2719, -153.849, -85.7511, 47.8044
6.66444, 25, -28.6979, -13.9621, 33.338, -153.802, -85.6949, 47.7488
6.67163, 25, -28.6868, -14.045, 33.4042, -153.754, -85.6388, 47.6934
6.68047, 25, -28.6758, -14.1281, 33.4707, -153.707, -85.5832, 47.6373
6.69063, 25, -28.6595, -14.2533, 33.5706, -153.636, -85.4986, 47.5538
6.69545, 25, -28.654, -14.2951, 33.604, -153.611, -85.4707, 47.5261
6.70345, 25, -28.6431, -14.3787, 33.6708, -153.563, -85.4143, 47.4701
6.71163, 25, -28.6324, -14.4626, 33.7377, -153.515, -85.3574, 47.4138
6.71945, 26, -28.6217, -14.5467, 33.8047, -153.467, -85.3014, 47.3581
6.72745, 26, -28.611, -14.6309, 33.8718, -153.418, -85.2443, 47.3023
6.73552, 26, -28.6003, -14.7153, 33.9392, -153.37, -85.1875, 47.2459
6.74364, 26, -28.5897, -14.7999, 34.0066, -153.32, -85.1308, 47.1903
6.75151, 26, -28.5791, -14.8845, 34.0742, -153.272, -85.0731, 47.1346
6.75953, 26, -28.5684, -14.9693, 34.142, -153.223, -85.0163, 47.0783
6.76754, 26, -28.5578, -15.0543, 34.2099, -153.174, -84.9587, 47.0224
6.77546, 26, -28.5474, -15.1394, 34.278, -153.125, -84.9012, 46.9671
6.78349, 26, -28.5369, -15.2246, 34.3461, -153.075, -84.8437, 46.9113
6.79162, 26, -28.5265, -15.31, 34.4142, -153.025, -84.7856, 46.8554
6.79954, 26, -28.5162, -15.3957, 34.4825, -152.976, -84.7283, 46.8004
6.80755, 26, -28.5059, -15.4814, 34.5509, -152.926, -84.6703, 46.7452
6.81563, 27, -28.4956, -15.5673, 34.6195, -152.875, -84.6124, 46.6892
6.82355, 27, -28.4853, -15.6534, 34.6881, -152.826, -84.5546, 46.6339
6.83152, 27, -28.4751, -15.7397, 34.7569, -152.775, -84.496, 46.5787
6.83982, 27, -28.465, -15.826, 34.8258, -152.724, -84.4383, 46.5228
6.84853, 27, -28.4549, -15.9126, 34.8949, -152.674, -84.3797, 46.4673
6.8555, 27, -28.4448, -15.9993, 34.9641, -152.623, -84.3213, 46.4121
6.86354, 27, -28.4348, -16.0862, 35.0333, -152.572, -84.263, 46.3564
6.87166, 27, -28.4248, -16.1731, 35.1025, -152.521, -84.2039, 46.3007
6.87976, 27, -28.4147, -16.2602, 35.1718, -152.47, -84.1457, 46.2458
6.88776, 27, -28.4047, -16.3474, 35.2412, -152.418, -84.0867, 46.1908
6.89617, 27, -28.3948, -16.4346, 35.3108, -152.367, -84.0278, 46.1353
6.90384, 28, -28.3848, -16.522, 35.3805, -152.315, -83.9691, 46.0808
6.91194, 28, -28.3748, -16.6096, 35.4504, -152.264, -83.9096, 46.0264
6.9201, 28, -28.3648, -16.6973, 35.5203, -152.212, -83.8512, 45.9716
6.928, 28, -28.3549, -16.7851, 35.5904, -152.16, -83.792, 45.917
6.93622, 28, -28.3449, -16.8731, 35.6604, -152.108, -83.733, 45.8633
6.94515, 28, -28.335, -16.9611, 35.7304, -152.056, -83.6741, 45.8091
6.95201, 28, -28.33, -17.0051, 35.7655, -152.029, -83.6144, 45.7548
6.9608, 28, -28.3202, -17.0933, 35.8357, -151.977, -83.5851, 45.728
6.96749, 28, -28.3104, -17.1815, 35.9059, -151.925, -83.526, 45.6748
6.97546, 28, -28.3006, -17.2698, 35.9763, -151.871, -83.4663, 45.6213
6.98345, 28, -28.2908, -17.3582, 36.0467, -151.819, -83.4074, 45.5676
6.99148, 28, -28.2811, -17.4467, 36.1172, -151.766, -83.3474, 45.5148
6.99943, 29, -28.2714, -17.5354, 36.1878, -151.712, -83.288, 45.4621
7.00747, 29, -28.2616, -17.6241, 36.2586, -151.66, -83.2284, 45.4091
7.01548, 29, -28.2518, -17.713, 36.3294, -151.606, -83.1683, 45.3566
7.02343, 29, -28.242, -17.8019, 36.4001, -151.552, -83.1089, 45.3048
7.03396, 29, -28.2275, -17.9354, 36.5061, -151.472, -83.0187, 45.2265
7.04335, 29, -28.2226, -18.0245, 36.5769, -151.418, -82.9593, 45.1745
7.0474, 29, -28.2127, -18.0691, 36.6124, -151.391, -82.9291, 45.1489
7.05773, 29, -28.1981, -18.203, 36.7189, -151.31, -82.8395, 45.0722
7.06351, 29, -28.1933, -18.2477, 36.7545, -151.283, -82.8096, 45.0464
7.07143, 29, -28.1835, -18.3371, 36.8257, -151.23, -82.7491, 44.9954
7.08107, 29, -28.1737, -18.4265, 36.8969, -151.175, -82.6598, 44.9202
7.08749, 30, -28.164, -18.516, 36.9682, -151.12, -82.6295, 44.8951
7.09649, 30, -28.1544, -18.6055, 37.0393, -151.066, -82.5696, 44.8446
7.10347, 30, -28.1448, -18.6951, 37.1105, -151.011, -82.5096, 44.7949
7.11206, 30, -28.1351, -18.7847, 37.1818, -150.957, -82.4491, 44.7459
7.11942, 30, -28.1255, -18.8744, 37.2531, -150.902, -82.3895, 44.6969
7.12744, 30, -28.1158, -18.9643, 37.3244, -150.846, -82.3289, 44.6477
7.13544, 30, -28.106, -19.0542, 37.3958, -150.792, -82.2689, 44.5996
7.14352, 30, -28.0961, -19.1442, 37.4673, -150.736, -82.2086, 44.5518
7.15143, 30, -28.0863, -19.2342, 37.5388, -150.681, -82.1481, 44.5041
7.15943, 30, -28.0766, -19.3241, 37.6104, -150.626, -82.0884, 44.4563
7.1675, 30, -28.0667, -19.4141, 37.6819, -150.57, -82.0277, 44.4094
7.17541, 31, -28.0568, -19.5041, 37.7534, -150.515, -81.9679, 44.363
7.18345, 31, -28.0469, -19.594, 37.8248, -150.459, -81.9076, 44.3165
7.19151, 31, -28.037, -19.6839, 37.8963, -150.403, -81.8474, 44.2701
7.19943, 31, -28.027, -19.7739, 37.9679, -150.348, -81.7875, 44.2248
7.20758, 31, -28.017, -19.864, 38.0395, -150.292, -81.7271, 44.1798
7.21551, 31, -28.0071, -19.9541, 38.1112, -150.236, -81.6673, 44.1347
7.22346, 31, -27.9973, -20.0442, 38.1829, -150.18, -81.6067, 44.0897
7.2315, 31, -27.9873, -20.1343, 38.2546, -150.123, -81.5466, 44.0454
7.23943, 31, -27.9773, -20.2244, 38.3263, -150.067, -81.4865, 44.002
7.24749, 31, -27.9674, -20.3145, 38.3978, -150.01, -81.426, 43.9583
7.25545, 31, -27.9573, -20.4048, 38.4693, -149.954, -81.3662, 43.9146
7.26347, 31, -27.9472, -20.495, 38.5408, -149.898, -81.3055, 43.872
7.27151, 32, -27.9369, -20.5853, 38.6124, -149.841, -81.2459, 43.8301
7.27948, 32, -27.9268, -20.6755, 38.684, -149.785, -81.1857, 43.7885
7.28749, 32, -27.9166, -20.7657, 38.7556, -149.728, -81.1257, 43.7468
7.29558, 32, -27.9062, -20.8558, 38.8271, -149.671, -81.066, 43.7056
7.30376, 32, -27.8958, -20.946, 38.8988, -149.614, -81.0054, 43.6655
7.31198, 32, -27.8854, -21.0361, 38.9703, -149.557, -80.9459, 43.626
7.31961, 32, -27.875, -21.1262, 39.0419, -149.5, -80.8857, 43.5866
7.328, 32, -27.8644, -21.2162, 39.1133, -149.443, -80.8259, 43.5474
7.33543, 32, -27.8538, -21.3063, 39.1847, -149.386, -80.7662, 43.509
7.34369, 32, -27.8434, -21.3963, 39.256, -149.329, -80.7058, 43.4716
7.35238, 32, -27.8329, -21.4863, 39.3274, -149.271, -80.6466, 43.4348
7.35947, 33, -27.8222, -21.5762, 39.3988, -149.214, -80.5864, 43.3982
7.36757, 33, -27.8115, -21.6662, 39.4702, -149.156, -80.5268, 43.3617
7.37632, 33, -27.8006, -21.7561, 39.5416, -149.099, -80.4673, 43.3259
7.38373, 33, -27.7897, -21.8459, 39.6129, -149.042, -80.4072, 43.2914
7.39179, 33, -27.7786, -21.9358, 39.684, -148.983, -80.3482, 43.2574
7.40087, 33, -27.7676, -22.0256, 39.7551, -148.926, -80.2884, 43.2238
7.40884, 33, -27.7565, -22.1153, 39.8261, -148.868, -80.2291, 43.1903
7.41678, 33, -27.7453, -22.205, 39.8972, -148.811, -80.1698, 43.1574
7.42474, 33, -27.7341, -22.2946, 39.9682, -148.753, -80.11, 43.1254
7.432, 33, -27.7229, -22.3841, 40.0391, -148.695, -80.0514, 43.0944
7.44092, 33, -27.7116, -22.4737, 40.11, -148.638, -79.9917, 43.064
7.44799, 33, -27.706, -22.5631, 40.1808, -148.579, -79.9329, 43.0339
7.45597, 34, -27.6946, -22.6078, 40.2162, -148.55, -79.8736, 43.0041
7.46484, 34, -27.6833, -22.6972, 40.3224, -148.463, -79.814, 42.9747
7.47144, 34, -27.6719, -22.7865, 40.3577, -148.434, -79.7848, 42.9604
7.48245, 34, -27.6546, -22.9202, 40.4635, -148.347, -79.6955, 42.9191
7.48925, 34, -27.643, -23.0092, 40.5338, -148.288, -79.6367, 42.8926
7.49542, 34, -27.6371, -23.0537, 40.569, -148.259, -79.6073, 42.8796
7.50467, 34, -27.6192, -23.1871, 40.6744, -148.172, -79.5182, 42.8412
7.51145, 34, -27.6132, -23.2315, 40.7095, -148.143, -79.489, 42.8286
7.51946, 34, -27.6012, -23.3204, 40.7798, -148.085, -79.4297, 42.8038
7.52741, 34, -27.589, -23.4092, 40.85, -148.027, -79.3706, 42.7798
7.53694, 34, -27.5708, -23.5423, 40.9551, -147.939, -79.2821, 42.7457
7.5435, 35, -27.5646, -23.5866, 40.99, -147.91, -79.2524, 42.7349
7.55143, 35, -27.5523, -23.675, 41.0597, -147.851, -79.1942, 42.7137
7.55943, 35, -27.5399, -23.7634, 41.1294, -147.793, -79.1351, 42.6935
7.56898, 35, -27.5214, -23.8956, 41.2336, -147.705, -79.0475, 42.6643
7.57926, 35, -27.5088, -23.9835, 41.3032, -147.647, -78.9884, 42.6456
7.58349, 35, -27.5025, -24.0275, 41.3379, -147.618, -78.9589, 42.6364
7.59242, 35, -27.4898, -24.1153, 41.4072, -147.559, -78.9009, 42.6185
7.60222, 35, -27.4703, -24.2468, 41.5111, -147.472, -78.8127, 42.5934
7.6075, 35, -27.4638, -24.2906, 41.5457, -147.442, -78.7837, 42.5855
7.61542, 35, -27.4507, -24.3781, 41.6148, -147.383, -78.7255, 42.5706
7.62347, 35, -27.4374, -24.4654, 41.6837, -147.325, -78.6668, 42.5565
7.63166, 36, -27.424, -24.5527, 41.7524, -147.266, -78.609, 42.5434
7.64042, 36, -27.4104, -24.6399, 41.8208, -147.208, -78.5507, 42.5312
7.64749, 36, -27.3967, -24.7269, 41.8892, -147.149, -78.4928, 42.5199
7.65541, 36, -27.3829, -24.8138, 41.9575, -147.091, -78.4352, 42.5096
7.66353, 36, -27.3692, -24.9007, 42.0257, -147.033, -78.377, 42.5001
7.67164, 36, -27.3553, -24.9875, 42.0939, -146.973, -78.3198, 42.4913
7.68198, 36, -27.3343, -25.1172, 42.1959, -146.886, -78.2332, 42.4796
7.68842, 36, -27.3271, -25.1604, 42.2298, -146.857, -78.2047, 42.4761
7.69541, 36, -27.3128, -25.2466, 42.2976, -146.798, -78.1473, 42.4699
7.70352, 36, -27.2983, -25.3326, 42.365, -146.74, -78.0895, 42.4645
7.71142, 36, -27.2836, -25.4184, 42.4324, -146.681, -78.0325, 42.46
7.71942, 36, -27.2689, -25.5041, 42.4995, -146.623, -77.9752, 42.4564
7.7275, 37, -27.254, -25.5896, 42.5666, -146.564, -77.9179, 42.4538
7.73542, 37, -27.2389, -25.675, 42.6336, -146.506, -77.8612, 42.4521
7.74376, 37, -27.2237, -25.7603, 42.7004, -146.448, -77.8038, 42.4512
7.75265, 37, -27.2085, -25.8454, 42.767, -146.389, -77.7472, 42.4508
7.75941, 37, -27.1933, -25.9303, 42.8335, -146.331, -77.6903, 42.4506
7.76904, 37, -27.1779, -26.015, 42.8998, -146.273, -77.6336, 42.4507
7.77543, 37, -27.1621, -26.0995, 42.966, -146.215, -77.5773, 42.451
7.7837, 37, -27.1463, -26.1838, 43.032, -146.157, -77.5202, 42.4518
7.79149, 37, -27.1303, -26.2678, 43.0977, -146.098, -77.4641, 42.4538
7.7995, 37, -27.1141, -26.3518, 43.1632, -146.041, -77.4077, 42.4581
7.80792, 37, -27.0979, -26.4355, 43.2285, -145.982, -77.3511, 42.464
7.81552, 38, -27.0814, -26.5191, 43.2938, -145.924, -77.2954, 42.4715
7.82357, 38, -27.0648, -26.6025, 43.3589, -145.867, -77.2388, 42.4803
7.83196, 38, -27.0482, -26.6857, 43.4238, -145.808, -77.1827, 42.4904
7.83941, 38, -27.0314, -26.7687, 43.4885, -145.751, -77.1271, 42.5018
7.84833, 38, -27.0144, -26.8514, 43.553, -145.693, -77.0706, 42.5143
7.85623, 38, -26.9971, -26.9339, 43.6173, -145.636, -77.0151, 42.5281
7.86382, 38, -26.9796, -27.0162, 43.6813, -145.578, -76.9591, 42.5432
7.87159, 38, -26.962, -27.0983, 43.7452, -145.52, -76.9032, 42.5594
7.87959, 38, -26.9442, -27.1801, 43.8088, -145.464, -76.8483, 42.5772
7.8877, 38, -26.9263, -27.2618, 43.8722, -145.406, -76.7924, 42.5963
7.89578, 38, -26.9082, -27.3431, 43.9354, -145.349, -76.7372, 42.6169
7.90386, 38, -26.8901, -27.4244, 43.9984, -145.292, -76.682, 42.639
7.91246, 39, -26.8717, -27.5054, 44.0612, -145.235, -76.6262, 42.6622
7.91995, 39, -26.853, -27.5861, 44.1238, -145.179, -76.5717, 42.6863
7.92858, 39, -26.834, -27.6666, 44.1861, -145.121, -76.5163, 42.7114
7.936, 39, -26.8148, -27.7469, 44.2483, -145.065, -76.4612, 42.7376
7.94535, 39, -26.7956, -27.8269, 44.3102, -145.009, -76.4067, 42.7651
7.95203, 39, -26.7859, -27.9068, 44.3718, -144.952, -76.3511, 42.7944
7.96016, 39, -26.7664, -27.9466, 44.4026, -144.924, -76.3237, 42.825
7.9674, 39, -26.7466, -28.0259, 44.4638, -144.868, -76.2694, 42.8406
7.97539, 39, -26.7269, -28.1051, 44.5248, -144.811, -76.214, 42.8725
7.98425, 39, -26.7069, -28.1841, 44.5856, -144.756, -76.1593, 42.9056
7.99141, 39, -26.6865, -28.2627, 44.6461, -144.699, -76.1047, 42.9399
7.99937, 40, -26.6659, -28.341, 44.7064, -144.644, -76.0496, 42.9761
8.00885, 40, -26.6347, -28.4581, 44.7964, -144.561, -75.9685, 43.0327
8.01542, 40, -26.6242, -28.4969, 44.8262, -144.533, -75.941, 43.052
8.02339, 40, -26.6029, -28.5742, 44.8858, -144.478, -75.8866, 43.0913
8.03145, 40, -26.5815, -28.6513, 44.9451, -144.423, -75.8328, 43.132
8.03956, 40, -26.56, -28.7282, 45.0041, -144.367, -75.778, 43.1745
8.04748, 40, -26.5382, -28.8047, 45.0627, -144.314, -75.7241, 43.2183
8.05545, 40, -26.516, -28.881, 45.1211, -144.258, -75.6704, 43.2628
8.06755, 40, -26.4824, -28.9948, 45.208, -144.177, -75.5892, 43.3324
8.07135, 40, -26.4711, -29.0327, 45.2368, -144.15, -75.5626, 43.3566
8.07946, 40, -26.4482, -29.1081, 45.2943, -144.095, -75.5086, 43.4056
8.08743, 40, -26.4251, -29.1831, 45.3515, -144.042, -75.4545, 43.4554
8.09539, 41, -26.4018, -29.2579, 45.4083, -143.988, -75.4014, 43.5067
8.10349, 41, -26.3783, -29.3324, 45.465, -143.934, -75.3475, 43.56
8.1138, 41, -26.3422, -29.4434, 45.5493, -143.855, -75.2678, 43.6412
8.1204, 41, -26.3302, -29.4802, 45.5773, -143.828, -75.2412, 43.669
8.12747, 41, -26.3059, -29.5537, 45.633, -143.776, -75.1875, 43.7261
8.1356, 41, -26.2813, -29.6268, 45.6882, -143.724, -75.1347, 43.7844
8.14339, 41, -26.2564, -29.6996, 45.7432, -143.671, -75.082, 43.8437
8.15143, 41, -26.2313, -29.7721, 45.7978, -143.619, -75.0287, 43.9049
8.16019, 41, -26.2058, -29.8442, 45.8519, -143.567, -74.9764, 43.9677
8.1674, 41, -26.18, -29.9158, 45.9059, -143.515, -74.9235, 44.0314
8.17539, 41, -26.1542, -29.9872, 45.9595, -143.465, -74.8705, 44.0976
8.18429, 42, -26.128, -30.0582, 46.0128, -143.413, -74.8186, 44.1647
8.1914, 42, -26.1015, -30.1288, 46.0658, -143.362, -74.7658, 44.2329
8.1994, 42, -26.0748, -30.199, 46.1184, -143.313, -74.7134, 44.3034
8.20844, 42, -26.0475, -30.2689, 46.1705, -143.262, -74.6614, 44.3746
8.21622, 42, -26.02, -30.3384, 46.2224, -143.212, -74.6085, 44.4478
8.2234, 42, -25.9924, -30.4075, 46.2739, -143.163, -74.5564, 44.5226
8.23344, 42, -25.9644, -30.4762, 46.3249, -143.113, -74.5045, 44.5981
8.23947, 42, -25.9361, -30.5446, 46.3755, -143.064, -74.4519, 44.6762
8.2474, 42, -25.9074, -30.6125, 46.4259, -143.016, -74.4004, 44.7547
8.25539, 42, -25.8781, -30.6799, 46.4757, -142.968, -74.3484, 44.8355
8.26353, 42, -25.8488, -30.7469, 46.5251, -142.92, -74.2961, 44.9179
8.27164, 43, -25.8192, -30.8135, 46.5742, -142.873, -74.2449, 45.0017
8.27941, 43, -25.7892, -30.8797, 46.6228, -142.826, -74.1931, 45.0877
8.28756, 43, -25.7591, -30.9456, 46.6711, -142.779, -74.1414, 45.1746
8.29548, 43, -25.7285, -31.011, 46.7189, -142.733, -74.0905, 45.2638
8.3035, 43, -25.6976, -31.076, 46.7663, -142.687, -74.0387, 45.3537
8.3134, 43, -25.6663, -31.1406, 46.8132, -142.641, -73.9874, 45.4459
8.32046, 43, -25.6347, -31.2046, 46.8597, -142.597, -73.9368, 45.5388
8.32749, 43, -25.6027, -31.2681, 46.9059, -142.552, -73.8852, 45.634
8.33556, 43, -25.5702, -31.3312, 46.9516, -142.507, -73.8343, 45.73
8.34341, 43, -25.5375, -31.3937, 46.9968, -142.464, -73.7838, 45.8281
8.35144, 43, -25.5046, -31.4556, 47.0415, -142.42, -73.7324, 45.9274
8.35949, 43, -25.4713, -31.5171, 47.0857, -142.377, -73.6818, 46.0284
8.36745, 44, -25.4374, -31.578, 47.1294, -142.335, -73.6316, 46.131
8.37547, 44, -25.4031, -31.6385, 47.1726, -142.293, -73.5806, 46.2353
8.38369, 44, -25.3685, -31.6986, 47.2154, -142.251, -73.5304, 46.3415
8.39165, 44, -25.3335, -31.7582, 47.2577, -142.21, -73.4802, 46.4489
8.39972, 44, -25.2981, -31.8174, 47.2995, -142.17, -73.4295, 46.5583
8.40818, 44, -25.2623, -31.876, 47.3406, -142.13, -73.3797, 46.6693
8.41741, 44, -25.2261, -31.934, 47.3814, -142.09, -73.3299, 46.7818
8.42479, 44, -25.1896, -31.9915, 47.4217, -142.051, -73.2797, 46.8959
8.432, 44, -25.1528, -32.0483, 47.4613, -142.014, -73.2305, 47.0117
8.44056, 44, -25.1154, -32.1045, 47.5005, -141.976, -73.1809, 47.1295
8.44883, 44, -25.0776, -32.16, 47.5393, -141.938, -73.131, 47.249
8.456, 45, -25.0585, -32.215, 47.5773, -141.902, -73.0821, 47.3702
8.46392, 45, -25.0202, -32.2423, 47.5962, -141.884, -73.0577, 47.4315
8.47267, 45, -24.9814, -32.2964, 47.6335, -141.849, -73.0082, 47.5552
8.48025, 45, -24.9419, -32.3499, 47.6701, -141.796, -72.9354, 47.7444
8.48893, 45, -24.8821, -32.4293, 47.7239, -141.762, -72.8864, 47.8724
8.49538, 45, -24.8621, -32.4555, 47.7417, -141.745, -72.8618, 47.937
8.50338, 45, -24.8214, -32.5074, 47.7765, -141.712, -72.8134, 48.0674
8.51143, 45, -24.7803, -32.5587, 47.8107, -141.679, -72.7655, 48.1996
8.51941, 45, -24.7388, -32.6094, 47.8444, -141.647, -72.7168, 48.3335
8.52739, 45, -24.6969, -32.6593, 47.8775, -141.616, -72.6688, 48.4693
8.53763, 45, -24.633, -32.7326, 47.926, -141.571, -72.597, 48.6761
8.54339, 45, -24.6115, -32.7567, 47.9418, -141.556, -72.5728, 48.7459
8.55139, 46, -24.5682, -32.8044, 47.9732, -141.526, -72.5253, 48.8867
8.56164, 46, -24.5022, -32.8744, 48.0188, -141.484, -72.4545, 49.1007
8.56739, 46, -24.4799, -32.8973, 48.0336, -141.47, -72.4305, 49.1729
8.57721, 46, -24.4125, -32.9653, 48.0774, -141.431, -72.3603, 49.3925
8.5836, 46, -24.3898, -32.9876, 48.0916, -141.418, -72.337, 49.4667
8.59305, 46, -24.3441, -33.0317, 48.1195, -141.38, -72.2662, 49.6919
8.60028, 46, -24.2978, -33.0752, 48.1467, -141.368, -72.243, 49.7678
8.60845, 46, -24.2512, -33.118, 48.1732, -141.344, -72.1972, 49.9206
8.61539, 46, -24.204, -33.16, 48.1991, -141.321, -72.1507, 50.0753
8.62429, 46, -24.1562, -33.2011, 48.2242, -141.299, -72.1045, 50.2313
8.63237, 46, -24.108, -33.2415, 48.2485, -141.278, -72.0593, 50.3889
8.63945, 47, -24.0593, -33.281, 48.2722, -141.257, -72.0136, 50.5484
8.6482, 47, -24.0099, -33.3197, 48.2953, -141.237, -71.9679, 50.7097
8.6554, 47, -23.9601, -33.3575, 48.3175, -141.218, -71.9233, 50.8725
8.66344, 47, -23.9098, -33.3944, 48.3388, -141.201, -71.8786, 51.0373
8.67241, 47, -23.8589, -33.4304, 48.3593, -141.184, -71.8336, 51.2036
8.67954, 47, -23.8074, -33.4655, 48.3792, -141.169, -71.7895, 51.3715
8.68746, 47, -23.7555, -33.5, 48.3983, -141.154, -71.7457, 51.5414
8.69864, 47, -23.7031, -33.5334, 48.4168, -141.134, -71.6795, 51.7993
8.70337, 47, -23.6501, -33.5661, 48.4344, -141.127, -71.6579, 51.8861
8.71144, 47, -23.5966, -33.5978, 48.4511, -141.115, -71.6152, 52.0609
8.71939, 47, -23.5425, -33.6287, 48.4671, -141.103, -71.5722, 52.2376
8.72758, 48, -23.4879, -33.6586, 48.4822, -141.093, -71.5294, 52.4157
8.73547, 48, -23.4328, -33.6875, 48.4962, -141.083, -71.4877, 52.5954
8.7434, 48, -23.377, -33.7154, 48.5095, -141.075, -71.446, 52.7769
8.75138, 48, -23.3207, -33.7424, 48.522, -141.067, -71.4039, 52.9603
8.75945, 48, -23.2639, -33.7683, 48.5337, -141.061, -71.3628, 53.1453
8.76737, 48, -23.2065, -33.7932, 48.5445, -141.056, -71.3226, 53.3317
8.77555, 48, -23.1486, -33.8171, 48.5543, -141.052, -71.282, 53.5199
8.78446, 48, -23.0901, -33.84, 48.5634, -141.049, -71.2416, 53.7097
8.79142, 48, -23.031, -33.8621, 48.5716, -141.047, -71.2022, 53.9014
8.79947, 48, -22.9714, -33.883, 48.5788, -141.046, -71.1632, 54.0948
8.80753, 48, -22.9111, -33.9027, 48.5851, -141.045, -71.1237, 54.2898
8.81548, 48, -22.8503, -33.9216, 48.5905, -141.045, -71.0849, 54.4862
8.82352, 49, -22.789, -33.9392, 48.595, -141.046, -71.0472, 54.6841
8.83153, 49, -22.727, -33.9556, 48.5984, -141.049, -71.0098, 54.8834
8.83945, 49, -22.6645, -33.9709, 48.6008, -141.053, -70.9721, 55.0845
8.84766, 49, -22.6014, -33.9853, 48.6023, -141.058, -70.9353, 55.2872
8.85717, 49, -22.5378, -33.9984, 48.603, -141.064, -70.8993, 55.4917
8.86342, 49, -22.4737, -34.0101, 48.6032, -141.072, -70.8637, 55.6973
8.87146, 49, -22.4088, -34.0206, 48.6027, -141.081, -70.8279, 55.9046
8.88049, 49, -22.3435, -34.0301, 48.6012, -141.092, -70.793, 56.1138
8.88766, 49, -22.2775, -34.0385, 48.5989, -141.104, -70.7591, 56.3245
8.89569, 49, -22.2109, -34.0458, 48.5955, -141.117, -70.7258, 56.5366
8.90464, 49, -22.1438, -34.0518, 48.591, -141.132, -70.6924, 56.7502
8.9119, 49, -22.0762, -34.0566, 48.5853, -141.147, -70.6597, 56.9651
8.91984, 50, -22.0081, -34.06, 48.5784, -141.164, -70.6281, 57.1816
8.92871, 50, -21.9393, -34.062, 48.5705, -141.181, -70.5971, 57.4
8.93598, 50, -21.8701, -34.063, 48.5614, -141.2, -70.5666, 57.6196
8.94476, 50, -21.8001, -34.0631, 48.5513, -141.221, -70.5359, 57.8407
8.95289, 50, -21.7293, -34.0622, 48.5402, -141.243, -70.5063, 58.0631
8.95997, 50, -21.6937, -34.06, 48.5279, -141.266, -70.4778, 58.2873
8.9687, 50, -21.6221, -34.0584, 48.5213, -141.278, -70.4639, 58.4
8.97633, 50, -21.5501, -34.0542, 48.5071, -141.303, -70.4229, 58.7399
8.98336, 50, -21.4775, -34.0485, 48.4919, -141.328, -70.4094, 58.8538
8.99139, 50, -21.4045, -34.0414, 48.4755, -141.355, -70.3828, 59.0827
9.00051, 50, -21.294, -34.0279, 48.4486, -141.399, -70.3446, 59.4284
9.00736, 51, -21.2568, -34.0226, 48.4391, -141.415, -70.3324, 59.5444
9.01538, 51, -21.182, -34.0111, 48.4192, -141.446, -70.3087, 59.7774
9.02343, 51, -21.1067, -33.9981, 48.398, -141.478, -70.2856, 60.0118
9.03135, 51, -21.0307, -33.9835, 48.3758, -141.512, -70.2629, 60.2473
9.04185, 51, -20.9156, -33.9583, 48.3402, -141.565, -70.2299, 60.6035
9.04883, 51, -20.8769, -33.9491, 48.3151, -141.602, -70.2093, 60.8426
9.05536, 51, -20.7993, -33.9298, 48.302, -141.621, -70.1994, 60.9627
9.06566, 51, -20.6818, -33.8977, 48.2611, -141.68, -70.1714, 61.3244
9.07145, 51, -20.6425, -33.8863, 48.2469, -141.7, -70.1626, 61.4456
9.07936, 51, -20.5634, -33.8623, 48.2176, -141.742, -70.1456, 61.6891
9.08892, 51, -20.4838, -33.8366, 48.1871, -141.784, -70.1293, 62.0566
9.09636, 52, -20.4036, -33.8095, 48.1551, -141.828, -70.1137, 62.1797
9.10502, 52, -20.3229, -33.7806, 48.1221, -141.873, -70.0989, 62.5506
9.11141, 52, -20.2415, -33.7502, 48.0878, -141.92, -70.0849, 62.675
9.12009, 52, -20.1597, -33.7181, 48.0522, -141.968, -70.0722, 62.9248
9.12735, 52, -20.0773, -33.6843, 48.0155, -142.017, -70.0606, 63.1756
9.13536, 52, -19.9946, -33.6486, 47.9777, -142.067, -70.0502, 63.427
9.14336, 52, -19.9113, -33.6114, 47.9384, -142.119, -70.0409, 63.6797
9.15143, 52, -19.8275, -33.5723, 47.898, -142.171, -70.0328, 63.9336
9.15937, 52, -19.7432, -33.5316, 47.8563, -142.225, -70.0258, 64.1884
9.16736, 52, -19.6585, -33.4893, 47.8132, -142.281, -70.02, 64.4445
9.17542, 52, -19.5735, -33.4452, 47.7691, -142.337, -70.0152, 64.7012
9.18337, 52, -19.488, -33.3995, 47.7236, -142.394, -70.0116, 64.9592
9.19139, 53, -19.402, -33.352, 47.6768, -142.453, -70.0091, 65.2183
9.19942, 53, -19.3155, -33.3028, 47.6288, -142.514, -70.0076, 65.4783
9.20736, 53, -19.2285, -33.2519, 47.5795, -142.575, -70.0071, 65.7389
9.21551, 53, -19.1411, -33.1991, 47.5289, -142.637, -70.0072, 66.0005
9.22341, 53, -19.0532, -33.1446, 47.4771, -142.701, -70.0084, 66.2633
9.23136, 53, -18.9651, -33.0883, 47.4239, -142.766, -70.0107, 66.5269
9.23944, 53, -18.8764, -33.0301, 47.3695, -142.833, -70.0144, 66.7912
9.24736, 53, -18.7875, -32.9702, 47.3137, -142.899, -70.0194, 67.0565
9.25535, 53, -18.6981, -32.9083, 47.2567, -142.968, -70.0258, 67.3229
9.26343, 53, -18.6083, -32.8446, 47.1983, -143.037, -70.0338, 67.5899
9.27136, 53, -18.518, -32.7791, 47.1386, -143.108, -70.0432, 67.8575
9.27952, 54, -18.4273, -32.7117, 47.0777, -143.179, -70.0541, 68.1257
9.28742, 54, -18.3363, -32.6425, 47.0155, -143.252, -70.0666, 68.3948
9.29541, 54, -18.2449, -32.5715, 46.952, -143.326, -70.0809, 68.6646
9.3035, 54, -18.1533, -32.4986, 46.8872, -143.401, -70.0969, 68.9351
9.31162, 54, -18.0613, -32.424, 46.8211, -143.476, -70.1147, 69.206
9.32075, 54, -17.969, -32.3474, 46.7537, -143.553, -70.1338, 69.478
9.32756, 54, -17.8763, -32.269, 46.685, -143.631, -70.154, 69.7507
9.33591, 54, -17.7833, -32.1887, 46.6149, -143.71, -70.1756, 70.0237
9.34443, 54, -17.69, -32.1063, 46.5435, -143.79, -70.1987, 70.2971
9.35151, 54, -17.5965, -32.022, 46.4709, -143.871, -70.2235, 70.5713
9.36026, 54, -17.5026, -31.9357, 46.397, -143.953, -70.2504, 70.8462
9.36773, 55, -17.4086, -31.8475, 46.3219, -144.035, -70.2788, 71.1215
9.37548, 55, -17.3143, -31.7574, 46.2456, -144.119, -70.3083, 71.3971
9.38441, 55, -17.2199, -31.6655, 46.168, -144.203, -70.3393, 71.6737
9.39155, 55, -17.1251, -31.5716, 46.0891, -144.289, -70.3722, 71.9504
9.3997, 55, -17.03, -31.4758, 46.0088, -144.375, -70.4073, 72.2275
9.40881, 55, -16.9346, -31.3781, 45.9272, -144.462, -70.4434, 72.5046
9.4207, 55, -16.7912, -31.228, 45.8022, -144.594, -70.5, 72.9215
9.42391, 55, -16.7434, -31.177, 45.7599, -144.638, -70.5201, 73.0605
9.43256, 55, -16.6476, -31.0736, 45.6745, -144.727, -70.5618, 73.3388
9.43991, 55, -16.5518, -30.9685, 45.588, -144.817, -70.6043, 73.6172
9.44848, 55, -16.4557, -30.8614, 45.5003, -144.908, -70.6485, 73.8961
9.45597, 55, -16.4077, -30.7522, 45.4112, -144.999, -70.695, 74.1752
9.46454, 56, -16.2632, -30.641, 45.3209, -145.091, -70.7427, 74.4544
9.47194, 56, -16.215, -30.5846, 45.2752, -145.137, -70.7917, 74.7335
9.48152, 56, -16.07, -30.4127, 45.1361, -145.277, -70.8436, 75.0129
9.48929, 56, -16.0216, -30.3544, 45.0892, -145.324, -70.8965, 75.2926
9.49544, 56, -15.9248, -30.2366, 44.9947, -145.418, -70.9235, 75.4323
9.50335, 56, -15.8281, -30.1169, 44.899, -145.512, -70.9797, 75.7119
9.51134, 56, -15.7313, -29.9952, 44.8022, -145.608, -71.0371, 75.9918
9.51943, 56, -15.6345, -29.8714, 44.704, -145.703, -71.0963, 76.272
9.52741, 56, -15.5375, -29.7459, 44.6045, -145.799, -71.158, 76.5517
9.53534, 56, -15.4404, -29.6185, 44.5037, -145.895, -71.2204, 76.8313
9.54334, 56, -15.3432, -29.4895, 44.4017, -145.992, -71.2856, 77.1107
9.55289, 57, -15.1973, -29.2922, 44.2471, -146.138, -71.3855, 77.5299
9.56095, 57, -15.1001, -29.1583, 44.1426, -146.236, -71.4551, 77.809
9.56894, 57, -15.0031, -29.0224, 44.037, -146.333, -71.5258, 78.0879
9.57543, 57, -14.9546, -28.9538, 43.9838, -146.382, -71.5622, 78.2274
9.58576, 57, -14.8091, -28.7453, 43.8219, -146.53, -71.673, 78.6456
9.59134, 57, -14.7606, -28.6749, 43.7674, -146.579, -71.7113, 78.7849
9.5995, 57, -14.6636, -28.5326, 43.6578, -146.678, -71.7886, 79.063
9.60735, 57, -14.5668, -28.3882, 43.5473, -146.777, -71.8682, 79.3409
9.61545, 57, -14.4699, -28.2422, 43.4358, -146.876, -71.9489, 79.6187
9.62447, 57, -14.3732, -28.0947, 43.3231, -146.975, -72.0323, 79.8961
9.63134, 57, -14.2765, -27.9455, 43.2091, -147.074, -72.117, 80.173
9.63934, 57, -14.18, -27.7944, 43.094, -147.173, -72.2034, 80.4496
9.64735, 58, -14.0836, -27.6415, 42.9781, -147.273, -72.2917, 80.7261
9.65542, 58, -13.9874, -27.487, 42.8613, -147.372, -72.3819, 81.0019
9.66341, 58, -13.8913, -27.3311, 42.7436, -147.471, -72.4737, 81.2768
9.67134, 58, -13.7954, -27.1735, 42.625, -147.57, -72.5674, 81.5512
9.67955, 58, -13.6997, -27.0138, 42.5052, -147.669, -72.6631, 81.8254
9.68989, 58, -13.5567, -26.7707, 42.3237, -147.818, -72.8098, 82.2353
9.69633, 58, -13.5092, -26.6889, 42.2628, -147.867, -72.8597, 82.3716
9.70442, 58, -13.4142, -26.5245, 42.1404, -147.966, -72.961, 82.6437
9.71241, 58, -13.3193, -26.3583, 42.0172, -148.064, -73.0637, 82.9155
9.72038, 58, -13.2245, -26.19, 41.8931, -148.163, -73.1684, 83.1862
9.72846, 58, -13.1301, -26.0202, 41.768, -148.26, -73.2747, 83.4561
9.7364, 59, -13.0358, -25.8494, 41.6421, -148.358, -73.3824, 83.7251
9.74438, 59, -12.9419, -25.6775, 41.5154, -148.455, -73.4921, 83.9936
9.75234, 59, -12.8483, -25.5038, 41.3881, -148.552, -73.6036, 84.2613
9.75933, 59, -12.755, -25.3282, 41.26, -148.649, -73.7167, 84.5281
9.76734, 59, -12.6621, -25.1516, 41.1312, -148.745, -73.8315, 84.794
9.77571, 59, -12.5694, -24.9741, 41.0016, -148.841, -73.9479, 85.0594
9.7845, 59, -12.4769, -24.7949, 40.8713, -148.937, -74.0662, 85.3239
9.79159, 59, -12.3845, -24.6136, 40.7402, -149.032, -74.186, 85.5872
9.79974, 59, -12.2925, -24.4311, 40.6086, -149.126, -74.3074, 85.8492
9.80743, 59, -12.2008, -24.248, 40.4762, -149.22, -74.4307, 86.1106
9.81574, 59, -12.1096, -24.0636, 40.3434, -149.313, -74.5552, 86.3707
9.82453, 60, -12.0188, -23.8772, 40.21, -149.406, -74.6815, 86.6296
9.83147, 60, -11.9285, -23.6892, 40.0761, -149.498, -74.8092, 86.8872
9.83981, 60, -11.8385, -23.5007, 39.9416, -149.59, -74.9386, 87.1441
9.84846, 60, -11.7488, -23.311, 39.8066, -149.681, -75.0694, 87.3999
9.85977, 60, -11.6147, -23.0234, 39.6033, -149.816, -75.2682, 87.7809
9.86421, 60, -11.5702, -22.9271, 39.5353, -149.86, -75.3353, 87.9072
9.87339, 60, -11.4815, -22.7344, 39.3988, -149.949, -75.4703, 88.159
9.87947, 60, -11.3933, -22.5408, 39.2619, -150.037, -75.607, 88.4097
9.88751, 60, -11.3054, -22.3456, 39.1244, -150.124, -75.7449, 88.6594
9.89573, 60, -11.2182, -22.1493, 38.9868, -150.211, -75.8842, 88.9076
9.90368, 60, -11.1314, -21.9523, 38.8489, -150.297, -76.0246, 89.1542
9.91193, 60, -11.0451, -21.754, 38.7106, -150.382, -76.1665, 89.4
9.9212, 61, -10.9592, -21.5539, 38.5719, -150.466, -76.3096, 89.6442
9.92785, 61, -10.8736, -21.3533, 38.4331, -150.549, -76.454, 89.8868
9.9365, 61, -10.7884, -21.1522, 38.2943, -150.632, -76.5995, 90.1277
9.9451, 61, -10.7037, -20.9498, 38.1551, -150.713, -76.7465, 90.367
9.95417, 61, -10.6195, -20.7463, 38.0157, -150.794, -76.8945, 90.6052
9.96052, 61, -10.5359, -20.5424, 37.876, -150.873, -77.044, 90.8417
9.96796, 61, -10.4943, -20.4403, 37.806, -150.913, -77.1945, 91.0766
9.97647, 61, -10.3699, -20.132, 37.5962, -151.03, -77.3462, 91.3098
9.98333, 61, -10.3287, -20.0288, 37.5261, -151.069, -77.4224, 91.4259
9.99138, 61, -10.2469, -19.8223, 37.3859, -151.145, -77.5757, 91.6569
9.99935, 61, -10.1655, -19.6156, 37.2457, -151.22, -77.7298, 91.8862
10.0075, 62, -10.0847, -19.4077, 37.1055, -151.295, -77.885, 92.1136
10.0154, 62, -10.0043, -19.199, 36.9655, -151.368, -78.0409, 92.3391
10.0233, 62, -9.92427, -18.9901, 36.8255, -151.441, -78.1978, 92.5627
10.0313, 62, -9.845, -18.7806, 36.6855, -151.512, -78.3555, 92.7846
10.041, 62, -9.72707, -18.4649, 36.4753, -151.617, -78.5935, 93.1146
10.0475, 62, -9.68802, -18.3599, 36.4053, -151.652, -78.6732, 93.2236
10.0553, 62, -9.61017, -18.1498, 36.2655, -151.72, -78.8335, 93.4402
10.0689, 62, -9.45568, -17.7278, 35.9862, -151.853, -79.156, 93.8679
10.0729, 62, -9.41741, -17.6223, 35.9164, -151.886, -79.2369, 93.9737
10.0809, 62, -9.34125, -17.4111, 35.777, -151.95, -79.3998, 94.1839
10.09, 62, -9.26561, -17.1989, 35.6381, -152.013, -79.563, 94.3918
10.0969, 62, -9.22807, -17.0925, 35.5687, -152.045, -79.6449, 94.495
10.1034, 63, -9.15346, -16.88, 35.4301, -152.106, -79.8093, 94.6997
10.1124, 63, -9.07936, -16.6676, 35.2917, -152.167, -79.9743, 94.9021
10.1201, 63, -9.0058, -16.4546, 35.1536, -152.227, -80.14, 95.1029
10.1274, 63, -8.93269, -16.2416, 35.0159, -152.285, -80.3061, 95.3013
10.1353, 63, -8.86021, -16.0291, 34.8787, -152.342, -80.4729, 95.4977
10.1433, 63, -8.78817, -15.8164, 34.7416, -152.398, -80.64, 95.6916
10.1513, 63, -8.71677, -15.6032, 34.6049, -152.453, -80.8077, 95.8835
10.1594, 63, -8.64593, -15.3907, 34.4686, -152.507, -80.9756, 96.0733
10.1673, 63, -8.57562, -15.1786, 34.3327, -152.559, -81.144, 96.2609
10.1754, 63, -8.50576, -14.9661, 34.1974, -152.611, -81.3124, 96.4461
10.1833, 63, -8.43648, -14.7535, 34.0626, -152.661, -81.4813, 96.6289
10.1914, 64, -8.36781, -14.5414, 33.9283, -152.709, -81.6505, 96.8093
10.1993, 64, -8.29958, -14.3289, 33.7944, -152.758, -81.8197, 96.9869
10.2073, 64, -8.23198, -14.116, 33.6611, -152.804, -81.9893, 97.1624
10.2155, 64, -8.1649, -13.904, 33.5283, -152.849, -82.1585, 97.3358
10.2242, 64, -8.09837, -13.6928, 33.396, -152.894, -82.3285, 97.5069
10.2323, 64, -8.03238, -13.4816, 33.2643, -152.937, -82.4983, 97.675
10.2403, 64, -7.96699, -13.2709, 33.1331, -152.979, -82.6685, 97.8408
10.2473, 64, -7.90219, -13.0611, 33.0026, -153.02, -82.8387, 98.0038
10.2553, 64, -7.83785, -12.8514, 32.8727, -153.06, -83.0089, 98.1644
10.2641, 64, -7.77414, -12.6414, 32.7434, -153.099, -83.1792, 98.3227
10.2724, 64, -7.71087, -12.4322, 32.6148, -153.136, -83.3496, 98.4784
10.2793, 64, -7.64819, -12.2238, 32.4868, -153.172, -83.5199, 98.6314
10.2883, 65, -7.58595, -12.0153, 32.3596, -153.207, -83.6904, 98.7815
10.2955, 65, -7.52423, -11.8071, 32.2331, -153.241, -83.8606, 98.929
10.3034, 65, -7.46318, -11.5999, 32.1074, -153.273, -84.0308, 99.0734
10.3124, 65, -7.40263, -11.393, 31.9825, -153.305, -84.2009, 99.2151
10.3213, 65, -7.34257, -11.1862, 31.8581, -153.335, -84.3708, 99.354
10.3274, 65, -7.28308, -10.9803, 31.7345, -153.364, -84.5407, 99.4903
10.3373, 65, -7.22411, -10.7755, 31.6117, -153.392, -84.7103, 99.6238
10.3435, 65, -7.16573, -10.5711, 31.4898, -153.419, -84.8798, 99.7541
10.3514, 65, -7.10787, -10.367, 31.3686, -153.445, -85.0491, 99.8819
10.3594, 65, -7.05046, -10.164, 31.2483, -153.47, -85.2182, 100.006
10.3674, 65, -6.99363, -9.96173, 31.1286, -153.493, -85.387, 100.128
10.3754, 66, -6.93715, -9.75951, 31.0098, -153.516, -85.5554, 100.246
10.3834, 66, -6.88116, -9.55815, 30.8918, -153.537, -85.7236, 100.362
10.3916, 66, -6.82578, -9.35833, 30.7747, -153.557, -85.8916, 100.474
10.3996, 66, -6.77087, -9.15924, 30.6586, -153.575, -86.0593, 100.583
10.4076, 66, -6.71643, -8.96056, 30.5431, -153.593, -86.2266, 100.689
10.4197, 66, -6.63579, -8.66483, 30.3715, -153.618, -86.4768, 100.842
10.4238, 66, -6.60907, -8.56668, 30.3147, -153.626, -86.56, 100.891
10.4357, 66, -6.5298, -8.2725, 30.1459, -153.648, -86.8093, 101.035
10.4399, 66, -6.50365, -8.17472, 30.0901, -153.655, -86.8922, 101.081
10.4484, 66, -6.4516, -7.98025, 29.9792, -153.668, -87.0578, 101.171
10.4568, 66, -6.4, -7.78704, 29.869, -153.679, -87.2231, 101.257
10.4642, 67, -6.34898, -7.59419, 29.7595, -153.689, -87.3878, 101.34
10.4719, 67, -6.32362, -7.49792, 29.7051, -153.694, -87.4702, 101.419
10.4806, 67, -6.27325, -7.30636, 29.5972, -153.702, -87.6346, 101.458
10.4882, 67, -6.22341, -7.11627, 29.4903, -153.709, -87.7984, 101.568
10.4953, 67, -6.17401, -6.92679, 29.3843, -153.716, -87.962, 101.603
10.5052, 67, -6.10058, -6.64376, 29.2269, -153.724, -88.2062, 101.703
10.5125, 67, -6.05224, -6.45693, 29.1228, -153.728, -88.3685, 101.765
10.5193, 67, -6.02825, -6.36399, 29.0711, -153.729, -88.4495, 101.795
10.5273, 67, -5.98049, -6.17836, 28.9685, -153.732, -88.6112, 101.852
10.5367, 67, -5.90993, -5.90112, 28.8169, -153.734, -88.8526, 101.932
10.5433, 67, -5.88663, -5.80939, 28.7668, -153.734, -88.933, 101.956
10.5529, 67, -5.81723, -5.53551, 28.6178, -153.735, -89.1726, 102.023
10.5609, 68, -5.7715, -5.35335, 28.5192, -153.734, -89.3319, 102.064
10.5674, 68, -5.74877, -5.26256, 28.4702, -153.734, -89.4112, 102.083
10.5769, 68, -5.68105, -4.9928, 28.3251, -153.73, -89.6487, 102.134
10.5835, 68, -5.65863, -4.90367, 28.2772, -153.728, -89.7276, 102.149
10.5914, 68, -5.61415, -4.72584, 28.1823, -153.723, -89.8852, 102.176
10.601, 68, -5.57023, -4.5487, 28.0883, -153.715, -90.1206, 102.209
10.6074, 68, -5.52666, -4.37304, 27.995, -153.711, -90.1989, 102.218
10.6164, 68, -5.48338, -4.19888, 27.9023, -153.704, -90.3551, 102.234
10.6243, 68, -5.44063, -4.02533, 27.8106, -153.696, -90.5109, 102.246
10.6314, 68, -5.39824, -3.85227, 27.72, -153.686, -90.6663, 102.254
10.6393, 68, -5.35611, -3.68045, 27.6305, -153.676, -90.8212, 102.258
10.6473, 69, -5.31429, -3.51024, 27.542, -153.665, -90.9756, 102.26
10.6554, 69, -5.27297, -3.34085, 27.4544, -153.652, -91.1296, 102.259
10.6633, 69, -5.23195, -3.17192, 27.3674, -153.639, -91.2832, 102.254
10.6714, 69, -5.19124, -3.00412, 27.2813, -153.625, -91.4362, 102.243
10.6795, 69, -5.15091, -2.83794, 27.196, -153.609, -91.5887, 102.228
10.6898, 69, -5.11093, -2.67287, 27.1117, -153.584, -91.8163, 102.197
10.6954, 69, -5.07128, -2.50845, 27.0285, -153.576, -91.8919, 102.185
10.7044, 69, -5.03174, -2.34501, 26.9462, -153.558, -92.0427, 102.157
10.7113, 69, -4.99263, -2.18317, 26.8646, -153.54, -92.1931, 102.125
10.7195, 69, -4.95383, -2.02264, 26.7839, -153.522, -92.3427, 102.087
10.7282, 69, -4.91535, -1.86301, 26.7041, -153.502, -92.492, 102.046
10.7353, 69, -4.87696, -1.70409, 26.6251, -153.482, -92.6404, 102
10.7434, 70, -4.83894, -1.54637, 26.547, -153.46, -92.7889, 101.95
10.7521, 70, -4.80125, -1.39005, 26.4698, -153.438, -92.9364, 101.895
10.7593, 70, -4.76379, -1.23487, 26.3935, -153.416, -93.0838, 101.835
10.7674, 70, -4.72646, -1.08038, 26.3181, -153.393, -93.2305, 101.772
10.7763, 70, -4.68947, -0.926919, 26.2435, -153.369, -93.3768, 101.703
10.7876, 70, -4.63467, -0.699281, 26.1333, -153.332, -93.5953, 101.593
10.7914, 70, -4.61653, -0.624092, 26.097, -153.319, -93.668, 101.554
10.8026, 70, -4.5804, -0.47466, 26.0249, -153.28, -93.8853, 101.43
10.8074, 70, -4.54436, -0.326131, 25.9535, -153.267, -93.9575, 101.387
10.8154, 70, -4.50858, -0.178675, 25.8828, -153.241, -94.1015, 101.297
10.8237, 70, -4.47299, -0.03254, 25.813, -153.214, -94.2451, 101.203
10.8315, 71, -4.43749, 0.112187, 25.7442, -153.186, -94.3883, 101.104
10.8394, 71, -4.40208, 0.255842, 25.6763, -153.157, -94.5309, 101.001
10.8478, 71, -4.36686, 0.398643, 25.6092, -153.129, -94.673, 100.894
10.8556, 71, -4.33186, 0.540321, 25.5428, -153.1, -94.8147, 100.782
10.8635, 71, -4.29697, 0.680903, 25.4773, -153.07, -94.9558, 100.666
10.8721, 71, -4.26208, 0.82017, 25.4125, -153.039, -95.0964, 100.545
10.8823, 71, -4.22745, 0.958058, 25.3486, -153.009, -95.2363, 100.421
10.8883, 71, -4.193, 1.09487, 25.2854, -152.978, -95.376, 100.291
10.8955, 71, -4.15869, 1.23064, 25.223, -152.947, -95.5149, 100.158
10.9037, 71, -4.12444, 1.36509, 25.1613, -152.916, -95.6536, 100.021
10.9127, 71, -4.09017, 1.49816, 25.1005, -152.883, -95.7914, 99.8786
10.9197, 71, -4.05616, 1.62977, 25.0404, -152.851, -95.9288, 99.7325
10.9278, 72, -4.02218, 1.76013, 24.9812, -152.819, -96.0654, 99.5819
10.9366, 72, -3.98829, 1.88948, 24.9228, -152.787, -96.2015, 99.4269
10.9438, 72, -3.95435, 2.01756, 24.8651, -152.754, -96.3372, 99.2678
10.9526, 72, -3.92038, 2.14436, 24.8081, -152.72, -96.4721, 99.1046
10.9611, 72, -3.88659, 2.26977, 24.752, -152.687, -96.6067, 98.937
10.9684, 72, -3.85265, 2.39387, 24.6964, -152.655, -96.7403, 98.7652
10.9759, 72, -3.83568, 2.45538, 24.669, -152.638, -96.807, 98.5893
10.9833, 72, -3.80174, 2.57751, 24.6147, -152.604, -96.9397, 98.4997
10.9923, 72, -3.75083, 2.75847, 24.5346, -152.554, -97.1376, 98.2247
10.9993, 72, -3.73394, 2.81808, 24.5082, -152.537, -97.2032, 98.1311
11.0073, 72, -3.70013, 2.9362, 24.4562, -152.504, -97.3339, 97.9412
11.0153, 73, -3.66631, 3.05286, 24.4049, -152.47, -97.4642, 97.7471
11.0246, 73, -3.61539, 3.22501, 24.3294, -152.42, -97.6578, 97.4486
11.0313, 73, -3.5984, 3.28174, 24.3047, -152.403, -97.7221, 97.347
11.0394, 73, -3.56445, 3.39405, 24.2557, -152.371, -97.8497, 97.141
11.0491, 73, -3.51342, 3.55978, 24.1835, -152.321, -98.0399, 96.825
11.0568, 73, -3.49632, 3.66832, 24.1364, -152.288, -98.1656, 96.6094
11.0648, 73, -3.44475, 3.77523, 24.0901, -152.255, -98.2906, 96.3902
11.0729, 73, -3.41023, 3.88049, 24.0443, -152.223, -98.4145, 96.167
11.081, 73, -3.37563, 3.98415, 23.9995, -152.191, -98.5377, 95.9405
11.0873, 73, -3.35823, 4.03542, 23.9774, -152.175, -98.5989, 95.8259
11.0961, 73, -3.32327, 4.1368, 23.9335, -152.143, -98.7202, 95.5945
11.1051, 74, -3.28823, 4.23655, 23.8906, -152.111, -98.8407, 95.3595
11.1113, 74, -3.2531, 4.33457, 23.8482, -152.081, -98.96, 95.1214
11.1203, 74, -3.21791, 4.43092, 23.8067, -152.05, -99.0782, 94.8802
11.1281, 74, -3.18256, 4.52547, 23.7661, -152.019, -99.1952, 94.6361
11.1363, 74, -3.14692, 4.61818, 23.7262, -151.989, -99.3108, 94.389
11.1459, 74, -3.09344, 4.75394, 23.6679, -151.945, -99.4826, 94.0124
11.1524, 74, -3.0755, 4.79831, 23.6489, -151.931, -99.5389, 93.8853
11.1593, 74, -3.03949, 4.8856, 23.6113, -151.902, -99.6508, 93.6291
11.1673, 74, -3.00313, 4.97097, 23.5746, -151.874, -99.7615, 93.3701
11.1753, 74, -2.96667, 5.05436, 23.5387, -151.846, -99.8704, 93.1085
11.1833, 74, -2.93011, 5.13588, 23.5035, -151.819, -99.9782, 92.8441
11.1913, 74, -2.89331, 5.21533, 23.4691, -151.793, -100.085, 92.5775
11.1993, 75, -2.85625, 5.29274, 23.4357, -151.768, -100.189, 92.3091
11.2074, 75, -2.81889, 5.36809, 23.4029, -151.742, -100.292, 92.0386
11.2153, 75, -2.78147, 5.44134, 23.371, -151.718, -100.394, 91.7656
11.2234, 75, -2.74387, 5.51245, 23.3401, -151.694, -100.493, 91.4906
11.2313, 75, -2.70593, 5.5814, 23.3099, -151.671, -100.591, 91.2137
11.2393, 75, -2.6677, 5.64813, 23.2805, -151.649, -100.688, 90.9349
11.2474, 75, -2.62934, 5.71265, 23.2521, -151.628, -100.782, 90.654
11.2553, 75, -2.59082, 5.77487, 23.2246, -151.606, -100.875, 90.3715
11.2633, 75, -2.552, 5.83481, 23.198, -151.585, -100.966, 90.0874
11.2713, 75, -2.51293, 5.89242, 23.1722, -151.566, -101.054, 89.8021
11.2793, 75, -2.47365, 5.94771, 23.1474, -151.547, -101.142, 89.5155
11.2874, 76, -2.43428, 6.00055, 23.1235, -151.53, -101.226, 89.228
11.2953, 76, -2.39463, 6.05093, 23.1006, -151.513, -101.308, 88.9397
11.3033, 76, -2.35473, 6.09883, 23.0785, -151.497, -101.389, 88.6503
11.3114, 76, -2.31471, 6.14407, 23.0574, -151.482, -101.467, 88.3599
11.3195, 76, -2.27452, 6.18679, 23.0373, -151.467, -101.543, 88.0689
11.3283, 76, -2.23402, 6.22695, 23.0182, -151.453, -101.616, 87.7772
11.3355, 76, -2.19328, 6.26438, 23.0002, -151.439, -101.687, 87.4845
11.3438, 76, -2.15244, 6.29907, 22.9833, -151.427, -101.756, 87.191
11.3523, 76, -2.11143, 6.33121, 22.9672, -151.415, -101.821, 86.8972
11.3595, 76, -2.07013, 6.36063, 22.9522, -151.405, -101.885, 86.6032
11.3682, 76, -2.02857, 6.3874, 22.9383, -151.395, -101.945, 86.3089
11.3753, 76, -1.98688, 6.41116, 22.9254, -151.386, -102.004, 86.0146
11.3834, 77, -1.94508, 6.43227, 22.9135, -151.379, -102.059, 85.7209
11.3922, 77, -1.903, 6.4508, 22.9028, -151.372, -102.112, 85.4276
11.3995, 77, -1.86082, 6.46616, 22.8933, -151.365, -102.162, 85.1345
11.4076, 77, -1.81854, 6.47826, 22.885, -151.36, -102.208, 84.8416
11.4167, 77, -1.77608, 6.48762, 22.8778, -151.355, -102.251, 84.5493
11.4246, 77, -1.73341, 6.49426, 22.8717, -151.351, -102.293, 84.2572
11.4318, 77, -1.69068, 6.49783, 22.8668, -151.348, -102.33, 83.9655
11.4417, 77, -1.64796, 6.49859, 22.863, -151.345, -102.365, 83.6745
11.4479, 77, -1.60497, 6.49644, 22.8604, -151.344, -102.396, 83.3846
11.4565, 77, -1.56189, 6.49111, 22.8589, -151.343, -102.425, 83.0953
11.4639, 77, -1.51878, 6.48249, 22.8584, -151.342, -102.451, 82.8068
11.4761, 78, -1.47554, 6.46413, 22.8596, -151.342, -102.483, 82.3762
11.4805, 78, -1.43206, 6.45652, 22.8606, -151.342, -102.492, 82.2332
11.4873, 78, -1.41032, 6.44806, 22.862, -151.342, -102.5, 82.0906
11.4963, 78, -1.3451, 6.41747, 22.8681, -151.344, -102.519, 81.6644
11.5033, 78, -1.32333, 6.40571, 22.8708, -151.345, -102.524, 81.523
11.5125, 78, -1.25766, 6.36574, 22.8811, -151.349, -102.533, 81.101
11.5193, 78, -1.23578, 6.35069, 22.8852, -151.351, -102.535, 80.961
11.5286, 78, -1.17006, 6.3004, 22.8996, -151.358, -102.535, 80.5431
11.5353, 78, -1.14811, 6.28197, 22.9051, -151.361, -102.533, 80.4045
11.5433, 78, -1.10415, 6.24262, 22.9173, -151.366, -102.528, 80.1286
11.5527, 78, -1.03824, 6.1771, 22.9383, -151.376, -102.513, 79.7175
11.5608, 79, -0.994178, 6.12906, 22.9539, -151.384, -102.498, 79.4454
11.5692, 79, -0.949979, 6.07767, 22.9712, -151.392, -102.48, 79.1751
11.5767, 79, -0.927925, 6.05065, 22.9805, -151.396, -102.469, 78.9067
11.5848, 79, -0.861885, 5.96442, 23.0104, -151.409, -102.431, 78.64
11.5929, 79, -0.83987, 5.90278, 23.0321, -151.419, -102.401, 78.3749
11.6009, 79, -0.795738, 5.87073, 23.0556, -151.429, -102.367, 78.1117
