rpiRobotics/ARM-21-02-F-19-Robot-Motion-Program/data_performance_abb/curve_1/baseline/100L/realrobot/bisect/run_2realrobot_curve_exe_v150_z10.csv
timestamp, cmd_num, J1, J2, J3, J4, J5, J6
0.000362, -1, 11.3779, 13.614, 17.3393, -145.519, -97.9229, 142.516
0.004527, -1, 11.3779, 13.614, 17.3393, -145.519, -97.9229, 142.516
0.008357, -1, 11.3779, 13.614, 17.3393, -145.519, -97.923, 142.516
0.035724, -1, 11.3779, 13.614, 17.3393, -145.519, -97.923, 142.516
0.037174, -1, 11.3779, 13.614, 17.3393, -145.519, -97.923, 142.516
0.038448, -1, 11.3779, 13.614, 17.3393, -145.519, -97.923, 142.516
0.040564, -1, 11.3779, 13.614, 17.3393, -145.519, -97.923, 142.516
0.04778, -1, 11.3779, 13.614, 17.3393, -145.519, -97.923, 142.516
0.056353, -1, 11.3764, 13.6139, 17.3393, -145.519, -97.9229, 142.516
0.063075, -1, 11.3747, 13.6137, 17.3392, -145.519, -97.9229, 142.516
0.071157, -1, 11.3682, 13.6128, 17.339, -145.519, -97.9229, 142.516
0.080278, -1, 11.3493, 13.6093, 17.3381, -145.52, -97.9228, 142.51
0.087103, -1, 11.3396, 13.6072, 17.3377, -145.521, -97.9227, 142.504
0.095126, -1, 11.3128, 13.6011, 17.3368, -145.525, -97.922, 142.482
0.104438, -1, 11.2509, 13.5857, 17.3361, -145.537, -97.9187, 142.412
0.111084, -1, 11.2244, 13.5791, 17.3363, -145.544, -97.9168, 142.376
0.120519, -1, 11.1277, 13.5544, 17.3397, -145.572, -97.9077, 142.218
0.128718, -1, 11.0486, 13.5331, 17.345, -145.598, -97.8986, 142.07
0.136655, -1, 10.9576, 13.5083, 17.3525, -145.629, -97.8875, 141.888
0.14464, -1, 10.8555, 13.4802, 17.3621, -145.665, -97.8745, 141.676
0.152799, -1, 10.7425, 13.4488, 17.3731, -145.706, -97.8603, 141.439
0.160681, -1, 10.6819, 13.4145, 17.3844, -145.75, -97.8452, 141.185
0.168641, -1, 10.5529, 13.3963, 17.39, -145.772, -97.8375, 140.92
0.176872, -1, 10.3432, 13.3388, 17.4058, -145.842, -97.8136, 140.647
0.184071, -1, 10.2701, 13.319, 17.4109, -145.866, -97.8054, 140.51
0.192101, -1, 10.1207, 13.2786, 17.421, -145.913, -97.7888, 140.233
0.200146, -1, 9.96837, 13.2376, 17.431, -145.961, -97.7719, 139.955
0.208091, -1, 9.8138, 13.1963, 17.441, -146.009, -97.7547, 139.676
0.216139, -1, 9.65833, 13.155, 17.4511, -146.057, -97.7375, 139.397
0.224084, -1, 9.50319, 13.1138, 17.461, -146.104, -97.7205, 139.117
0.232084, -1, 9.3485, 13.0726, 17.4709, -146.153, -97.7037, 138.838
0.240123, -1, 9.19412, 13.0315, 17.4808, -146.201, -97.687, 138.559
0.248219, -1, 9.04028, 12.9905, 17.4908, -146.249, -97.6704, 138.279
0.256128, -1, 8.88664, 12.9495, 17.5008, -146.297, -97.6535, 138
0.264123, -1, 8.73315, 12.9086, 17.5109, -146.345, -97.6363, 137.72
0.273472, -1, 8.58018, 12.8675, 17.521, -146.392, -97.6188, 137.44
0.279145, -1, 8.42743, 12.8263, 17.5312, -146.441, -97.6013, 137.16
0.287085, -1, 8.27443, 12.7851, 17.5413, -146.489, -97.584, 136.88
0.295078, -1, 8.12099, 12.7436, 17.5514, -146.536, -97.5671, 136.6
0.303138, -1, 7.96706, 12.7021, 17.5617, -146.585, -97.5504, 136.32
0.311065, -1, 7.81252, 12.6605, 17.5717, -146.632, -97.5337, 136.04
0.319137, -1, 7.65763, 12.6189, 17.5818, -146.68, -97.5171, 135.76
0.328153, -1, 7.50261, 12.5774, 17.592, -146.728, -97.5002, 135.48
0.335074, -1, 7.34747, 12.536, 17.6021, -146.776, -97.4831, 135.2
0.343141, -1, 7.19239, 12.4945, 17.6124, -146.824, -97.4657, 134.919
0.352149, -1, 7.03728, 12.4531, 17.6226, -146.873, -97.4484, 134.639
0.359103, -1, 6.88206, 12.4119, 17.6328, -146.921, -97.4314, 134.359
0.367177, -1, 6.72721, 12.3707, 17.6432, -146.969, -97.4145, 134.079
0.376252, -1, 6.57263, 12.3294, 17.6536, -147.017, -97.3978, 133.799
0.383168, -1, 6.41818, 12.2882, 17.664, -147.065, -97.3809, 133.518
0.391263, -1, 6.26388, 12.2469, 17.6742, -147.113, -97.3641, 133.238
0.400137, -1, 6.10969, 12.2055, 17.6844, -147.161, -97.3469, 132.958
0.407217, -1, 5.95527, 12.1642, 17.6947, -147.209, -97.3294, 132.677
0.415268, -1, 5.80057, 12.1227, 17.705, -147.257, -97.3118, 132.396
0.424129, -1, 5.64577, 12.0811, 17.7151, -147.305, -97.2944, 132.116
0.43109, -1, 5.49069, 12.0395, 17.7254, -147.353, -97.2773, 131.835
0.439188, -1, 5.33542, 11.9979, 17.7356, -147.401, -97.2604, 131.554
0.44712, -1, 5.1799, 11.9562, 17.7458, -147.45, -97.2436, 131.273
0.45525, -1, 5.02401, 11.9146, 17.7563, -147.498, -97.2269, 130.992
0.46358, -1, 4.86812, 11.873, 17.7667, -147.546, -97.2099, 130.711
0.471333, -1, 4.71235, 11.8315, 17.777, -147.594, -97.1926, 130.43
0.479472, -1, 4.5566, 11.7901, 17.7874, -147.642, -97.1751, 130.149
0.48747, -1, 4.40096, 11.7486, 17.7976, -147.69, -97.1577, 129.869
0.622922, -1, 1.83513, 11.0623, 17.9684, -148.488, -96.8759, 125.224
0.624931, -1, 1.75684, 11.0416, 17.9736, -148.512, -96.8672, 125.083
0.626147, -1, 1.75684, 11.0416, 17.9736, -148.512, -96.8672, 125.083
0.627429, -1, 1.75684, 11.0416, 17.9736, -148.512, -96.8672, 125.083
0.629405, -1, 1.67861, 11.0207, 17.9788, -148.536, -96.8586, 124.942
0.630695, -1, 1.67861, 11.0207, 17.9788, -148.536, -96.8586, 124.942
0.635153, -1, 1.60051, 10.9998, 17.984, -148.56, -96.85, 124.802
0.639113, -1, 1.52251, 10.979, 17.9892, -148.585, -96.8416, 124.661
0.774908, -1, -1.13, 10.2692, 18.1656, -149.408, -96.5506, 119.857
0.776241, -1, -1.13, 10.2692, 18.1656, -149.408, -96.5506, 119.857
0.78046, -1, -1.20855, 10.2483, 18.1708, -149.433, -96.5422, 119.716
0.782468, -1, -1.28711, 10.2274, 18.1759, -149.457, -96.5337, 119.574
0.783895, -1, -1.28711, 10.2274, 18.1759, -149.457, -96.5337, 119.574
0.785912, -1, -1.36556, 10.2065, 18.1811, -149.482, -96.5254, 119.432
0.787265, -1, -1.36556, 10.2065, 18.1811, -149.482, -96.5254, 119.432
0.791181, -1, -1.4439, 10.1856, 18.1862, -149.506, -96.517, 119.291
0.792504, -1, -1.4439, 10.1856, 18.1862, -149.506, -96.517, 119.291
0.794488, -1, -1.52217, 10.1648, 18.1915, -149.53, -96.5085, 119.149
0.795861, -1, -1.52217, 10.1648, 18.1915, -149.53, -96.5085, 119.149
0.797665, -1, -1.52217, 10.1648, 18.1915, -149.53, -96.5085, 119.008
0.799133, -1, -1.60038, 10.1439, 18.1967, -149.554, -96.5001, 119.008
0.80035, -1, -1.60038, 10.1439, 18.1967, -149.554, -96.5001, 119.008
0.803296, -1, -1.67849, 10.123, 18.202, -149.579, -96.4916, 118.866
0.806604, -1, -1.75649, 10.1021, 18.2072, -149.603, -96.483, 118.724
0.807898, -1, -1.75649, 10.1021, 18.2072, -149.603, -96.483, 118.724
0.809091, -1, -1.75649, 10.1021, 18.2072, -149.603, -96.483, 118.724
0.811103, -1, -1.83433, 10.0812, 18.2124, -149.628, -96.4744, 118.583
0.812326, -1, -1.83433, 10.0812, 18.2124, -149.628, -96.4744, 118.583
0.814335, -1, -1.91207, 10.0603, 18.2176, -149.652, -96.4656, 118.441
0.815569, -1, -1.91207, 10.0603, 18.2176, -149.652, -96.4656, 118.441
0.817102, -1, -1.91207, 10.0603, 18.2176, -149.652, -96.4656, 118.441
0.819171, -1, -1.98975, 10.0394, 18.2228, -149.676, -96.4567, 118.299
0.820366, -1, -1.98975, 10.0394, 18.2228, -149.676, -96.4567, 118.299
0.82241, -1, -2.06736, 10.0185, 18.2281, -149.7, -96.4479, 118.157
0.823653, -1, -2.06736, 10.0185, 18.2281, -149.7, -96.4479, 118.157
0.82493, -1, -2.06736, 10.0185, 18.2281, -149.7, -96.4479, 118.157
0.827617, -1, -2.14491, 9.99754, 18.2333, -149.725, -96.4391, 118.016
0.830404, -1, -2.22247, 9.97665, 18.2384, -149.749, -96.4304, 117.874
0.832776, -1, -2.22247, 9.97665, 18.2384, -149.749, -96.4304, 117.874
0.834812, -1, -2.30009, 9.95578, 18.2436, -149.773, -96.4217, 117.732
0.836083, -1, -2.30009, 9.95578, 18.2436, -149.773, -96.4217, 117.732
0.837927, -1, -2.30009, 9.95578, 18.2436, -149.773, -96.4217, 117.732
0.839348, -1, -2.37778, 9.93486, 18.2488, -149.797, -96.4131, 117.59
0.840622, -1, -2.37778, 9.93486, 18.2488, -149.797, -96.4131, 117.59
0.847053, -1, -2.53341, 9.89291, 18.2593, -149.846, -96.3961, 117.307
0.856107, -1, -2.68929, 9.85102, 18.2696, -149.895, -96.3792, 117.023
0.864151, -1, -2.84553, 9.80912, 18.28, -149.943, -96.3625, 116.739
0.871072, -1, -3.00214, 9.76721, 18.2904, -149.992, -96.3456, 116.456
0.880081, -1, -3.15922, 9.7253, 18.3007, -150.041, -96.3283, 116.172
0.888112, -1, -3.31673, 9.68336, 18.3112, -150.089, -96.3108, 115.888
0.896114, -1, -3.47464, 9.64137, 18.3217, -150.138, -96.2933, 115.605
0.903224, -1, -3.63248, 9.5995, 18.3321, -150.187, -96.2758, 115.321
0.911185, -1, -3.79031, 9.55767, 18.3424, -150.235, -96.2587, 115.036
0.919113, -1, -3.94827, 9.51567, 18.3528, -150.284, -96.2417, 114.752
0.927265, -1, -4.10614, 9.47378, 18.3632, -150.333, -96.2247, 114.468
0.935083, -1, -4.26391, 9.43192, 18.3735, -150.382, -96.2077, 114.183
0.943102, -1, -4.42145, 9.38996, 18.3838, -150.43, -96.1906, 113.899
0.951219, -1, -4.5786, 9.34801, 18.3941, -150.479, -96.173, 113.614
0.959192, -1, -4.73534, 9.30604, 18.4044, -150.528, -96.1553, 113.33
0.967213, -1, -4.89166, 9.26404, 18.4148, -150.577, -96.1377, 113.045
0.975622, -1, -5.04779, 9.22201, 18.4254, -150.626, -96.1205, 112.76
0.984115, -1, -5.20367, 9.18, 18.4359, -150.674, -96.1034, 112.476
0.991434, -1, -5.35962, 9.13789, 18.4464, -150.723, -96.0865, 112.191
0.999595, -1, -5.51581, 9.09573, 18.4568, -150.772, -96.0697, 111.906
1.00819, -1, -5.67217, 9.05369, 18.4671, -150.821, -96.0527, 111.621
1.01567, -1, -5.82888, 9.01155, 18.4775, -150.87, -96.0354, 111.337
1.0242, -1, -5.98609, 8.9694, 18.4878, -150.919, -96.0179, 111.052
1.03164, -1, -6.14387, 8.92731, 18.4981, -150.967, -96.0004, 110.767
1.04016, -1, -6.30213, 8.88518, 18.5085, -151.016, -95.9829, 110.481
1.04765, -1, -6.38135, 8.86413, 18.5136, -151.041, -95.9658, 110.196
1.0561, -1, -6.61897, 8.80109, 18.5292, -151.114, -95.9488, 109.911
1.06309, -1, -6.69823, 8.78003, 18.5345, -151.139, -95.9403, 109.769
1.07217, -1, -6.93626, 8.71693, 18.5502, -151.213, -95.9148, 109.34
1.07906, -1, -7.01552, 8.69591, 18.5555, -151.237, -95.9062, 109.197
1.0883, -1, -7.25317, 8.63277, 18.5711, -151.311, -95.88, 108.769
1.09507, -1, -7.33221, 8.61171, 18.5762, -151.335, -95.8711, 108.627
1.1043, -1, -7.56892, 8.5483, 18.5919, -151.409, -95.8446, 108.198
1.11106, -1, -7.64774, 8.52718, 18.5971, -151.433, -95.8358, 108.055
1.12048, -1, -7.8834, 8.46387, 18.6127, -151.507, -95.8101, 107.627
1.1285, -1, -8.04015, 8.42156, 18.6231, -151.556, -95.7931, 107.341
1.13504, -1, -8.11847, 8.40041, 18.6283, -151.58, -95.7847, 107.198
1.14461, -1, -8.35345, 8.33693, 18.644, -151.654, -95.7592, 106.769
1.15267, -1, -8.51029, 8.29456, 18.6546, -151.703, -95.7418, 106.483
1.16074, -1, -8.66747, 8.25229, 18.6651, -151.752, -95.7241, 106.197
1.16865, -1, -8.74623, 8.23117, 18.6755, -151.801, -95.7064, 105.91
1.17667, -1, -8.90391, 8.18888, 18.6806, -151.825, -95.689, 105.624
1.18468, -1, -9.06206, 8.14658, 18.691, -151.875, -95.6804, 105.481
1.19204, -1, -9.22068, 8.10439, 18.7015, -151.924, -95.6632, 105.195
1.20006, -1, -9.37961, 8.06217, 18.7119, -151.973, -95.6462, 104.908
1.2081, -1, -9.53876, 8.01989, 18.7223, -152.022, -95.629, 104.621
1.21612, -1, -9.69796, 7.97772, 18.7327, -152.072, -95.6117, 104.335
1.22403, -1, -9.85724, 7.93558, 18.7431, -152.12, -95.5941, 104.048
1.23206, -1, -10.0166, 7.89329, 18.7537, -152.17, -95.5762, 103.761
1.24004, -1, -10.1758, 7.85098, 18.7643, -152.219, -95.5584, 103.474
1.24809, -1, -10.3347, 7.8086, 18.7748, -152.268, -95.5408, 103.187
1.2561, -1, -10.4934, 7.76612, 18.7854, -152.318, -95.5236, 102.9
1.26405, -1, -10.6519, 7.72369, 18.7957, -152.367, -95.5066, 102.613
1.27209, -1, -10.8101, 7.68126, 18.8062, -152.416, -95.4896, 102.327
1.28003, -1, -10.9679, 7.63871, 18.8166, -152.466, -95.4725, 102.04
1.28805, -1, -11.1253, 7.59623, 18.827, -152.515, -95.4551, 101.752
1.29615, -1, -11.2827, 7.5538, 18.8374, -152.564, -95.4374, 101.465
1.30408, -1, -11.4402, 7.51136, 18.8478, -152.614, -95.4196, 101.178
1.31204, -1, -11.5979, 7.46888, 18.8583, -152.663, -95.402, 100.89
1.32009, -1, -11.7558, 7.4265, 18.8689, -152.712, -95.3847, 100.602
1.32704, -1, -11.9142, 7.38412, 18.8795, -152.762, -95.3674, 100.314
1.3361, -1, -12.073, 7.34178, 18.8901, -152.811, -95.3503, 100.027
1.34303, -1, -12.2322, 7.29942, 18.9006, -152.86, -95.3331, 99.7393
1.35108, -1, -12.3918, 7.25701, 18.911, -152.91, -95.3157, 99.4512
1.36035, -1, -12.5517, 7.21462, 18.9215, -152.959, -95.2979, 99.1633
1.36705, -1, -12.7116, 7.17225, 18.932, -153.008, -95.2799, 98.8755
1.37609, -1, -12.8717, 7.12983, 18.9426, -153.058, -95.2621, 98.5875
1.38485, -1, -13.0318, 7.08728, 18.9531, -153.108, -95.2446, 98.2993
1.39118, -1, -13.1916, 7.04474, 18.9636, -153.157, -95.2273, 98.0113
1.3992, -1, -13.3513, 7.00219, 18.9742, -153.207, -95.2103, 97.7233
1.40749, -1, -13.5106, 6.95952, 18.9848, -153.256, -95.1933, 97.4349
1.41516, -1, -13.6698, 6.91677, 18.9953, -153.305, -95.176, 97.1463
1.4232, -1, -13.8289, 6.87411, 19.0058, -153.355, -95.1586, 96.8578
1.43266, -1, -13.9874, 6.83142, 19.0162, -153.404, -95.1408, 96.5693
1.44003, -1, -14.1456, 6.78877, 19.0267, -153.454, -95.123, 96.2806
1.44802, -1, -14.3039, 6.74618, 19.0373, -153.503, -95.1054, 95.9916
1.4569, -1, -14.4621, 6.7035, 19.0477, -153.552, -95.0882, 95.7027
1.46404, -1, -14.6206, 6.6609, 19.0581, -153.602, -95.071, 95.4137
1.47129, -1, -14.7795, 6.61838, 19.0686, -153.652, -95.0538, 95.1246
1.48097, -1, -14.9387, 6.57583, 19.0792, -153.701, -95.0366, 94.8355
1.48803, -1, -15.0982, 6.53323, 19.0899, -153.751, -95.0191, 94.5464
1.49547, -1, -15.2582, 6.49068, 19.1005, -153.8, -95.0012, 94.2575
1.50508, -1, -15.4185, 6.44813, 19.1111, -153.85, -94.9832, 93.9683
1.51211, -1, -15.5791, 6.40544, 19.1217, -153.9, -94.9654, 93.679
1.51956, -1, -15.7399, 6.36279, 19.1322, -153.949, -94.9479, 93.3898
1.52935, -1, -15.9006, 6.32006, 19.1428, -153.999, -94.9306, 93.1004
1.53566, -1, -16.0613, 6.27722, 19.1533, -154.049, -94.9135, 92.8108
1.5442, -1, -16.2221, 6.23443, 19.1638, -154.098, -94.8963, 92.5211
1.55238, -1, -16.3024, 6.213, 19.1691, -154.123, -94.8876, 92.3764
1.55959, -1, -16.4629, 6.17004, 19.1795, -154.173, -94.8702, 92.0868
1.56815, -1, -16.7031, 6.10566, 19.1953, -154.247, -94.8434, 91.6517
1.57504, -1, -16.7829, 6.0842, 19.2006, -154.272, -94.8344, 91.5067
1.5831, -1, -16.9423, 6.04124, 19.2111, -154.322, -94.8167, 91.2167
1.59222, -1, -17.1811, 5.97685, 19.2271, -154.396, -94.7905, 90.7816
1.59905, -1, -17.2606, 5.95541, 19.2324, -154.421, -94.7819, 90.6364
1.60707, -1, -17.4197, 5.91259, 19.2429, -154.471, -94.7646, 90.3462
1.61644, -1, -17.6588, 5.84848, 19.2589, -154.546, -94.7385, 89.911
1.62302, -1, -17.7385, 5.82709, 19.2642, -154.57, -94.7296, 89.7658
1.63105, -1, -17.8981, 5.78431, 19.2749, -154.621, -94.7116, 89.4755
1.64056, -1, -18.1385, 5.72024, 19.2908, -154.695, -94.6845, 89.0397
1.64937, -1, -18.2992, 5.67751, 19.3013, -154.745, -94.6668, 88.7492
1.65502, -1, -18.3797, 5.65615, 19.3067, -154.77, -94.658, 88.6038
1.66462, -1, -18.5411, 5.59179, 19.3227, -154.845, -94.632, 88.1674
1.67359, -1, -18.7026, 5.57031, 19.328, -154.87, -94.6147, 87.8766
1.67902, -1, -18.8642, 5.52734, 19.3387, -154.92, -94.606, 87.7312
1.68912, -1, -19.1066, 5.46281, 19.3544, -154.995, -94.5796, 87.2944
1.69508, -1, -19.1873, 5.44124, 19.3597, -155.02, -94.5707, 87.1487
1.7041, -1, -19.3488, 5.39813, 19.3703, -155.07, -94.5527, 86.8574
1.71202, -1, -19.5099, 5.35501, 19.3808, -155.12, -94.5346, 86.5659
1.72004, -1, -19.6707, 5.31179, 19.3914, -155.17, -94.5169, 86.2744
1.72802, -1, -19.8314, 5.26872, 19.4019, -155.22, -94.4994, 85.9827
1.73605, -1, -19.9918, 5.2256, 19.4125, -155.27, -94.482, 85.6913
1.74406, -1, -20.1518, 5.18252, 19.4233, -155.32, -94.4647, 85.3998
1.75203, -1, -20.3115, 5.13962, 19.4341, -155.37, -94.4471, 85.1082
1.76002, -1, -20.4715, 5.0967, 19.4449, -155.42, -94.4293, 84.8165
1.76806, -1, -20.6316, 5.05371, 19.4556, -155.47, -94.4113, 84.5247
1.77603, -1, -20.792, 5.01081, 19.4662, -155.521, -94.3932, 84.2329
1.78401, -1, -20.9527, 4.96798, 19.4769, -155.57, -94.3755, 83.9408
1.79111, -1, -21.1138, 4.92497, 19.4875, -155.62, -94.3581, 83.6487
1.79904, -1, -21.2754, 4.88194, 19.4981, -155.671, -94.3409, 83.3568
1.80803, -1, -21.4374, 4.83883, 19.5087, -155.721, -94.3237, 83.0647
1.81708, -1, -21.5995, 4.79561, 19.5193, -155.771, -94.3064, 82.7721
1.82402, -1, -21.7618, 4.75246, 19.53, -155.822, -94.2889, 82.4797
1.83203, -1, -21.9242, 4.70916, 19.5407, -155.871, -94.271, 82.1873
1.84008, -1, -22.0866, 4.66579, 19.5515, -155.922, -94.253, 81.8947
1.84802, -1, -22.249, 4.62245, 19.5622, -155.972, -94.2351, 81.6018
1.85611, -1, -22.4113, 4.57906, 19.5728, -156.022, -94.2176, 81.3093
1.86302, -1, -22.5732, 4.5357, 19.5835, -156.073, -94.2002, 81.0167
1.87206, -1, -22.7348, 4.4923, 19.5942, -156.123, -94.1828, 80.7239
1.88007, -1, -22.8961, 4.44896, 19.6049, -156.173, -94.1653, 80.4309
1.88803, -1, -23.0572, 4.40571, 19.6156, -156.223, -94.1474, 80.138
1.89609, -1, -23.2182, 4.36248, 19.6263, -156.273, -94.1293, 79.845
1.90312, -1, -23.3791, 4.31926, 19.637, -156.324, -94.111, 79.5516
1.91112, -1, -23.54, 4.27609, 19.6479, -156.375, -94.093, 79.2583
1.91963, -1, -23.7011, 4.23286, 19.6587, -156.425, -94.0752, 78.9651
1.92807, -1, -23.8624, 4.18968, 19.6695, -156.475, -94.0576, 78.6717
1.93602, -1, -24.0239, 4.1464, 19.6801, -156.526, -94.0403, 78.378
1.94381, -1, -24.1859, 4.10304, 19.6908, -156.576, -94.0229, 78.0841
1.95209, -1, -24.3484, 4.05967, 19.7015, -156.626, -94.0052, 77.7904
1.96001, -1, -24.5112, 4.01627, 19.7121, -156.677, -93.9872, 77.4964
1.96804, -1, -24.6743, 3.97276, 19.7227, -156.727, -93.9691, 77.202
1.97606, -1, -24.8376, 3.92919, 19.7333, -156.777, -93.9511, 76.908
1.98338, -1, -25.001, 3.88567, 19.744, -156.828, -93.9333, 76.614
1.99219, -1, -25.1643, 3.8421, 19.7549, -156.878, -93.9157, 76.3198
1.99942, -1, -25.3274, 3.79856, 19.7657, -156.929, -93.8982, 76.0254
2.00756, -1, -25.4901, 3.75497, 19.7765, -156.979, -93.8806, 75.7311
2.01638, -1, -25.6529, 3.71132, 19.7872, -157.029, -93.8629, 75.4368
2.02353, -1, -25.8153, 3.6678, 19.7978, -157.08, -93.8448, 75.1423
2.03212, -1, -25.9776, 3.62442, 19.8086, -157.13, -93.8264, 74.8475
2.04059, -1, -26.1395, 3.58089, 19.8194, -157.181, -93.8081, 74.553
2.04763, -1, -26.2203, 3.55919, 19.8247, -157.232, -93.7901, 74.2585
2.0561, -1, -26.4628, 3.49419, 19.8408, -157.282, -93.7723, 73.9635
2.06301, -1, -26.5437, 3.47247, 19.8462, -157.307, -93.7635, 73.8159
2.07101, -1, -26.7056, 3.42906, 19.8569, -157.358, -93.7459, 73.521
2.08005, -1, -26.9492, 3.36385, 19.8731, -157.434, -93.7194, 73.0781
2.08937, -1, -27.112, 3.32026, 19.884, -157.485, -93.7013, 72.7828
2.09505, -1, -27.1934, 3.29849, 19.8894, -157.51, -93.6921, 72.6353
2.10433, -1, -27.4385, 3.23306, 19.9054, -157.586, -93.6648, 72.1925
2.111, -1, -27.5204, 3.21118, 19.9108, -157.611, -93.6558, 72.0449
2.11908, -1, -27.6844, 3.16747, 19.9216, -157.662, -93.6379, 71.7493
2.12853, -1, -27.9305, 3.10197, 19.9377, -157.738, -93.6113, 71.3059
2.1374, -1, -28.0946, 3.05829, 19.9485, -157.789, -93.5937, 71.0103
2.14306, -1, -28.1766, 3.03643, 19.9539, -157.814, -93.5848, 70.8624
2.15259, -1, -28.4228, 2.97085, 19.97, -157.89, -93.5578, 70.4183
2.16148, -1, -28.5865, 2.92719, 19.981, -157.941, -93.5393, 70.1225
2.16707, -1, -28.6682, 2.90537, 19.9864, -157.966, -93.5301, 69.9745
2.17664, -1, -28.8317, 2.86169, 20.0026, -158.042, -93.5029, 69.5303
2.184, -1, -28.9947, 2.81805, 20.008, -158.068, -93.494, 69.382
2.19107, -1, -29.1574, 2.77444, 20.0187, -158.119, -93.4763, 69.0857
2.20104, -1, -29.4015, 2.70899, 20.0349, -158.195, -93.4499, 68.6408
2.20702, -1, -29.4829, 2.6872, 20.0402, -158.221, -93.4411, 68.4925
2.216, -1, -29.6457, 2.6435, 20.051, -158.272, -93.4231, 68.1957
2.22407, -1, -29.8088, 2.59973, 20.0618, -158.322, -93.4049, 67.899
2.232, -1, -29.972, 2.55602, 20.0725, -158.374, -93.3865, 67.6023
2.23902, -1, -30.1354, 2.5122, 20.0834, -158.424, -93.3683, 67.3054
2.248, -1, -30.2993, 2.46825, 20.0943, -158.475, -93.3503, 67.0085
2.256, -1, -30.4636, 2.42435, 20.1052, -158.526, -93.3326, 66.7117
2.263, -1, -30.6284, 2.38038, 20.1161, -158.577, -93.3149, 66.4146
2.272, -1, -30.7934, 2.33642, 20.1268, -158.628, -93.2972, 66.1172
2.27999, -1, -30.9584, 2.29251, 20.1376, -158.679, -93.2792, 65.82
2.28702, -1, -31.1233, 2.24852, 20.1485, -158.73, -93.2609, 65.5229
2.296, -1, -31.2882, 2.20456, 20.1593, -158.781, -93.2424, 65.2255
2.30401, -1, -31.4529, 2.16075, 20.17, -158.832, -93.224, 64.9277
2.31303, -1, -31.6175, 2.11682, 20.1808, -158.883, -93.2061, 64.6301
2.31999, -1, -31.7819, 2.07287, 20.1916, -158.935, -93.1883, 64.3323
2.328, -1, -31.9461, 2.02902, 20.2026, -158.986, -93.1706, 64.0344
2.33606, -1, -32.1099, 1.98509, 20.2135, -159.037, -93.153, 63.7364
2.34401, -1, -32.2736, 1.94117, 20.2245, -159.088, -93.1351, 63.4386
2.35199, -1, -32.4372, 1.89722, 20.2354, -159.139, -93.1171, 63.1407
2.36003, -1, -32.601, 1.85314, 20.2462, -159.19, -93.0986, 62.8425
2.368, -1, -32.7649, 1.80912, 20.2572, -159.242, -93.0803, 62.5443
2.37606, -1, -32.9288, 1.76509, 20.2681, -159.293, -93.0622, 62.2461
2.38312, -1, -33.0933, 1.72091, 20.279, -159.344, -93.0443, 61.9475
2.39109, -1, -33.2581, 1.67672, 20.2898, -159.395, -93.0266, 61.6489
2.3991, -1, -33.4232, 1.63257, 20.3007, -159.446, -93.0087, 61.3503
2.40802, -1, -33.5887, 1.58838, 20.3117, -159.498, -92.9907, 61.0518
2.41607, -1, -33.7544, 1.5442, 20.3226, -159.549, -92.9723, 60.7529
2.42399, -1, -33.9201, 1.50001, 20.3335, -159.6, -92.9536, 60.4539
2.43199, -1, -34.0859, 1.45588, 20.3444, -159.652, -92.935, 60.1549
2.44006, -1, -34.2517, 1.41181, 20.3552, -159.703, -92.9168, 59.8558
2.44799, -1, -34.4177, 1.36768, 20.3662, -159.754, -92.8988, 59.5563
2.456, -1, -34.5835, 1.32354, 20.3771, -159.806, -92.881, 59.2569
2.46406, -1, -34.7489, 1.27943, 20.388, -159.857, -92.8632, 58.9577
2.47218, -1, -34.9139, 1.23528, 20.3988, -159.908, -92.8453, 58.6583
2.47933, -1, -35.0788, 1.19114, 20.4097, -159.96, -92.8269, 58.3586
2.48734, -1, -35.2434, 1.14691, 20.4208, -160.011, -92.8084, 58.059
2.49558, -1, -35.4078, 1.10268, 20.4318, -160.063, -92.79, 57.7593
2.50402, -1, -35.5714, 1.05869, 20.443, -160.114, -92.7718, 57.4596
2.51216, -1, -35.7328, 1.0151, 20.4543, -160.165, -92.7538, 57.1602
2.51957, -1, -35.891, 0.972268, 20.4658, -160.216, -92.7359, 56.8627
2.52811, -1, -36.0448, 0.930788, 20.4777, -160.267, -92.7183, 56.5696
2.53575, -1, -36.1924, 0.891168, 20.4896, -160.315, -92.701, 56.2837
2.54415, -1, -36.3317, 0.854022, 20.5015, -160.362, -92.6842, 56.0104
2.55165, -1, -36.4606, 0.819934, 20.5127, -160.405, -92.6681, 55.7562
2.56018, -1, -36.5776, 0.788983, 20.5227, -160.444, -92.6537, 55.5271
2.56702, -1, -36.6312, 0.774834, 20.5271, -160.461, -92.6473, 55.4235
2.57603, -1, -36.7698, 0.738166, 20.5377, -160.505, -92.6312, 55.1635
2.58303, -1, -36.8088, 0.727806, 20.5401, -160.517, -92.627, 55.0943
2.59242, -1, -36.9052, 0.702244, 20.544, -160.544, -92.6176, 54.9386
2.59907, -1, -36.9309, 0.695497, 20.5445, -160.551, -92.6155, 54.9021
2.60859, -1, -36.9894, 0.680079, 20.5448, -160.563, -92.6115, 54.8289
2.61634, -1, -37.0153, 0.673268, 20.5444, -160.568, -92.6102, 54.8034
2.62305, -1, -37.0248, 0.67078, 20.5441, -160.569, -92.6098, 54.7952
2.6325, -1, -37.0425, 0.666368, 20.5435, -160.572, -92.6092, 54.7828
2.64085, 2, -37.0476, 0.665164, 20.5434, -160.572, -92.609, 54.7796
2.6485, 2, -37.0487, 0.664599, 20.5433, -160.573, -92.609, 54.7782
2.65703, 2, -37.0484, 0.664382, 20.5433, -160.573, -92.6089, 54.7777
2.66298, 2, -37.0481, 0.664326, 20.5433, -160.573, -92.6089, 54.7775
2.67105, 2, -37.0479, 0.664276, 20.5433, -160.573, -92.6089, 54.7773
2.68087, 2, -37.0487, 0.664189, 20.5432, -160.573, -92.609, 54.7773
2.68798, 2, -37.0492, 0.664167, 20.5432, -160.573, -92.609, 54.7774
2.696, 2, -37.0502, 0.664062, 20.543, -160.573, -92.6091, 54.7774
2.70409, 2, -37.0515, 0.663844, 20.5428, -160.573, -92.6091, 54.7775
2.71204, 2, -37.0529, 0.663571, 20.5426, -160.573, -92.6091, 54.7776
2.71998, 2, -37.0541, 0.663331, 20.5424, -160.573, -92.6091, 54.7779
2.72806, 2, -37.055, 0.663134, 20.5423, -160.573, -92.6092, 54.7781
2.73597, 2, -37.0555, 0.663031, 20.5421, -160.573, -92.6092, 54.7784
2.74398, 2, -37.0555, 0.662984, 20.5419, -160.573, -92.6092, 54.7785
2.75205, 2, -37.0549, 0.663009, 20.5418, -160.573, -92.6092, 54.7787
2.75997, 2, -37.054, 0.663053, 20.5417, -160.573, -92.6093, 54.7789
2.76798, 2, -37.053, 0.663141, 20.5417, -160.573, -92.6094, 54.7792
2.77604, 2, -37.0514, 0.663231, 20.5416, -160.573, -92.6094, 54.7794
2.78402, 2, -37.0499, 0.663379, 20.5415, -160.573, -92.6094, 54.7796
2.79199, 2, -37.0488, 0.663443, 20.5415, -160.573, -92.6094, 54.7797
2.79899, 2, -37.048, 0.66348, 20.5415, -160.573, -92.6094, 54.7798
2.80799, 2, -37.0477, 0.663442, 20.5414, -160.573, -92.6095, 54.7798
2.81704, 2, -37.0477, 0.663387, 20.5414, -160.573, -92.6095, 54.7799
2.82404, 2, -37.0479, 0.663311, 20.5414, -160.573, -92.6094, 54.7799
2.83198, 2, -37.0481, 0.663242, 20.5414, -160.573, -92.6095, 54.78
2.83998, 2, -37.0487, 0.663203, 20.5413, -160.573, -92.6095, 54.7801
2.84805, 2, -37.0494, 0.663178, 20.5413, -160.573, -92.6095, 54.7801
2.85598, 2, -37.0503, 0.663149, 20.5413, -160.573, -92.6095, 54.7801
2.86399, 2, -37.0511, 0.663155, 20.5413, -160.573, -92.6095, 54.7802
2.87206, 2, -37.0516, 0.663192, 20.5413, -160.573, -92.6095, 54.7803
2.88002, 2, -37.0518, 0.663236, 20.5413, -160.573, -92.6095, 54.7804
2.88796, 2, -37.0518, 0.663254, 20.5413, -160.573, -92.6095, 54.7804
2.89606, 2, -37.0518, 0.663258, 20.5413, -160.573, -92.6096, 54.7804
2.90397, 2, -37.0515, 0.663247, 20.5413, -160.573, -92.6096, 54.7804
2.91199, 2, -37.051, 0.663242, 20.5413, -160.573, -92.6096, 54.7804
2.92005, 2, -37.0507, 0.66324, 20.5413, -160.573, -92.6096, 54.7805
2.92797, 2, -37.0504, 0.663228, 20.5412, -160.573, -92.6097, 54.7805
2.93597, 2, -37.0503, 0.663226, 20.5413, -160.573, -92.6096, 54.7806
2.94404, 2, -37.0502, 0.663203, 20.5412, -160.573, -92.6096, 54.7807
2.95198, 2, -37.0501, 0.663196, 20.5412, -160.573, -92.6096, 54.7807
2.95997, 2, -37.0501, 0.663189, 20.5412, -160.573, -92.6096, 54.7807
2.96804, 2, -37.0502, 0.66319, 20.5412, -160.573, -92.6097, 54.7808
2.976, 2, -37.0503, 0.663216, 20.5412, -160.572, -92.6096, 54.7809
2.98398, 2, -37.0504, 0.663228, 20.5412, -160.572, -92.6096, 54.7809
2.99206, 2, -37.0507, 0.663245, 20.5412, -160.572, -92.6097, 54.781
2.99998, 2, -37.0508, 0.663248, 20.5412, -160.572, -92.6097, 54.781
3.00802, 2, -37.0509, 0.663255, 20.5412, -160.572, -92.6097, 54.781
3.01613, 2, -37.0509, 0.663251, 20.5412, -160.572, -92.6097, 54.7811
3.02349, 2, -37.0509, 0.663244, 20.5412, -160.572, -92.6097, 54.7812
3.03211, 2, -37.0509, 0.66324, 20.5412, -160.572, -92.6097, 54.7811
3.04004, 2, -37.0508, 0.663239, 20.5411, -160.572, -92.6098, 54.7812
3.04813, 2, -37.0508, 0.663238, 20.5411, -160.572, -92.6097, 54.7812
3.05562, 2, -37.0508, 0.663238, 20.5411, -160.572, -92.6097, 54.7813
3.06412, 2, -37.0508, 0.663238, 20.5411, -160.572, -92.6097, 54.7813
3.07097, 2, -37.0508, 0.663238, 20.5411, -160.572, -92.6098, 54.7814
3.08006, 2, -37.0508, 0.663238, 20.5411, -160.572, -92.6097, 54.7814
3.08784, 2, -37.0508, 0.663238, 20.5411, -160.572, -92.6097, 54.7814
3.09611, 2, -37.0507, 0.663238, 20.5411, -160.572, -92.6097, 54.7816
3.10312, 2, -37.0507, 0.663245, 20.5411, -160.572, -92.6098, 54.7816
3.11263, 2, -37.0507, 0.663264, 20.5411, -160.572, -92.6098, 54.7816
3.12028, 2, -37.0507, 0.663262, 20.5411, -160.572, -92.6098, 54.7816
3.12705, 2, -37.0507, 0.663261, 20.5411, -160.572, -92.6098, 54.7817
3.13684, 2, -37.0507, 0.663279, 20.5411, -160.572, -92.6098, 54.7817
3.1445, 2, -37.0506, 0.663269, 20.5411, -160.572, -92.6098, 54.7817
3.1525, 2, -37.0506, 0.663252, 20.5411, -160.572, -92.6098, 54.7817
3.16095, 2, -37.0506, 0.663244, 20.541, -160.572, -92.6098, 54.7817
3.16855, 2, -37.0506, 0.663241, 20.541, -160.572, -92.6098, 54.7818
3.17657, 2, -37.0506, 0.66324, 20.541, -160.572, -92.6099, 54.7818
3.1848, 2, -37.0506, 0.663238, 20.541, -160.572, -92.6099, 54.7819
3.19197, 2, -37.0506, 0.663238, 20.541, -160.572, -92.6099, 54.7819
3.19998, 2, -37.0506, 0.66325, 20.541, -160.572, -92.6099, 54.7819
3.20892, 2, -37.0506, 0.663251, 20.541, -160.572, -92.6099, 54.7819
3.21601, 2, -37.0506, 0.663268, 20.541, -160.572, -92.6099, 54.7819
3.22397, 2, -37.0506, 0.663257, 20.5409, -160.572, -92.6099, 54.782
3.23204, 2, -37.0506, 0.663266, 20.5409, -160.572, -92.6098, 54.7821
3.23997, 2, -37.0505, 0.663275, 20.541, -160.572, -92.6099, 54.7821
3.24796, 2, -37.0505, 0.663272, 20.541, -160.572, -92.6099, 54.7821
3.25601, 2, -37.0505, 0.663261, 20.5409, -160.572, -92.6099, 54.7821
3.26298, 2, -37.0505, 0.663253, 20.5409, -160.572, -92.6099, 54.7821
3.27198, 2, -37.0505, 0.663264, 20.5409, -160.572, -92.6099, 54.7822
3.28002, 2, -37.0505, 0.663255, 20.5409, -160.572, -92.6099, 54.7823
3.28796, 2, -37.0504, 0.663245, 20.5409, -160.572, -92.6099, 54.7823
3.29596, 2, -37.0505, 0.663241, 20.5409, -160.572, -92.6099, 54.7823
3.30403, 2, -37.0505, 0.663247, 20.5409, -160.572, -92.6099, 54.7823
3.31199, 2, -37.0504, 0.663266, 20.5409, -160.572, -92.6099, 54.7822
3.321, 2, -37.0504, 0.663275, 20.5409, -160.572, -92.61, 54.7822
3.32802, 2, -37.0504, 0.663279, 20.5409, -160.572, -92.6099, 54.7823
3.33596, 2, -37.0504, 0.6633, 20.5409, -160.572, -92.6099, 54.7823
3.34396, 2, -37.0504, 0.663291, 20.5409, -160.572, -92.61, 54.7824
3.35204, 2, -37.0503, 0.663305, 20.5409, -160.572, -92.61, 54.7824
3.35996, 2, -37.0504, 0.663293, 20.5409, -160.572, -92.61, 54.7824
3.36798, 2, -37.0503, 0.66328, 20.5408, -160.572, -92.61, 54.7824
3.37602, 2, -37.0503, 0.663277, 20.5408, -160.572, -92.61, 54.7824
3.384, 2, -37.0503, 0.663298, 20.5408, -160.572, -92.61, 54.7825
3.39196, 2, -37.0503, 0.663308, 20.5408, -160.572, -92.61, 54.7825
3.40004, 2, -37.0502, 0.663295, 20.5408, -160.572, -92.61, 54.7825
3.40796, 2, -37.0502, 0.663288, 20.5408, -160.572, -92.6099, 54.7825
3.41596, 2, -37.0503, 0.663273, 20.5408, -160.572, -92.61, 54.7825
3.42402, 2, -37.0503, 0.663278, 20.5408, -160.572, -92.61, 54.7825
3.43197, 2, -37.0503, 0.663292, 20.5408, -160.572, -92.61, 54.7825
3.43996, 2, -37.0502, 0.663324, 20.5408, -160.572, -92.61, 54.7825
3.44802, 2, -37.0502, 0.66332, 20.5408, -160.572, -92.61, 54.7826
3.45596, 2, -37.0502, 0.663295, 20.5408, -160.572, -92.61, 54.7826
3.46399, 2, -37.0502, 0.663307, 20.5408, -160.572, -92.61, 54.7826
3.47203, 2, -37.0502, 0.663287, 20.5408, -160.572, -92.61, 54.7825
3.47997, 2, -37.0502, 0.663298, 20.5408, -160.572, -92.61, 54.7825
3.48796, 2, -37.0501, 0.66329, 20.5408, -160.572, -92.61, 54.7826
3.49603, 2, -37.0501, 0.663297, 20.5408, -160.572, -92.61, 54.7826
3.50397, 2, -37.0501, 0.663284, 20.5407, -160.572, -92.61, 54.7826
3.51207, 2, -37.0501, 0.663295, 20.5407, -160.572, -92.61, 54.7826
3.52011, 2, -37.0501, 0.663283, 20.5407, -160.572, -92.61, 54.7826
3.52806, 2, -37.05, 0.663283, 20.5407, -160.572, -92.6101, 54.7826
3.53555, 2, -37.05, 0.663294, 20.5407, -160.572, -92.61, 54.7827
3.54413, 2, -37.05, 0.663325, 20.5407, -160.572, -92.61, 54.7827
3.55159, 2, -37.05, 0.663322, 20.5407, -160.572, -92.61, 54.7828
3.56002, 2, -37.0499, 0.663324, 20.5407, -160.572, -92.61, 54.7828
3.5681, 2, -37.0499, 0.663339, 20.5407, -160.572, -92.6101, 54.7827
3.57495, 2, -37.0499, 0.663332, 20.5407, -160.572, -92.6101, 54.7827
3.58399, 2, -37.0498, 0.663321, 20.5407, -160.572, -92.61, 54.7827
3.59095, 2, -37.0499, 0.66332, 20.5407, -160.572, -92.61, 54.7827
3.60015, 2, -37.0499, 0.663318, 20.5407, -160.572, -92.6101, 54.7828
3.607, 2, -37.0499, 0.663318, 20.5407, -160.572, -92.6101, 54.7828
3.61628, 2, -37.0498, 0.663312, 20.5407, -160.572, -92.6101, 54.7827
3.62295, 2, -37.0498, 0.663303, 20.5407, -160.572, -92.6101, 54.7827
3.63237, 2, -37.0498, 0.6633, 20.5406, -160.572, -92.6101, 54.7828
3.6391, 2, -37.0498, 0.663316, 20.5406, -160.572, -92.6101, 54.7828
3.64695, 2, -37.0498, 0.663335, 20.5406, -160.572, -92.6101, 54.7828
3.65691, 2, -37.0497, 0.663346, 20.5406, -160.572, -92.61, 54.7828
3.66451, 2, -37.0497, 0.663356, 20.5406, -160.572, -92.6101, 54.7829
3.67259, 2, -37.0497, 0.663358, 20.5406, -160.572, -92.61, 54.7829
3.68084, 2, -37.0497, 0.663356, 20.5406, -160.572, -92.6101, 54.7829
3.68702, 2, -37.0497, 0.663335, 20.5406, -160.572, -92.6101, 54.7829
3.69698, 2, -37.0497, 0.663346, 20.5406, -160.572, -92.6101, 54.7828
3.70296, 2, -37.0497, 0.663347, 20.5406, -160.572, -92.6101, 54.7828
3.71197, 4, -37.0497, 0.663331, 20.5406, -160.572, -92.6101, 54.7828
3.72004, 4, -37.0497, 0.663342, 20.5405, -160.571, -92.6101, 54.7829
3.72795, 4, -37.0497, 0.663347, 20.5405, -160.571, -92.6101, 54.7829
3.73596, 4, -37.0497, 0.663349, 20.5405, -160.571, -92.6101, 54.7829
3.74399, 4, -37.0496, 0.66335, 20.5405, -160.571, -92.6101, 54.7829
3.75196, 4, -37.0496, 0.663332, 20.5405, -160.571, -92.6101, 54.7829
3.75994, 4, -37.0496, 0.663354, 20.5405, -160.571, -92.6101, 54.7829
3.7681, 4, -37.0495, 0.66336, 20.5405, -160.571, -92.6102, 54.7829
3.77594, 4, -37.0495, 0.663372, 20.5405, -160.571, -92.6101, 54.7829
3.78394, 4, -37.0495, 0.66338, 20.5405, -160.571, -92.6101, 54.7829
3.79094, 4, -37.0495, 0.663381, 20.5405, -160.571, -92.6102, 54.7829
3.79995, 4, -37.0495, 0.663365, 20.5405, -160.571, -92.6102, 54.7829
3.8081, 4, -37.0495, 0.663357, 20.5405, -160.571, -92.6102, 54.7829
3.83276, 4, -37.0493, 0.663368, 20.5405, -160.571, -92.6102, 54.7829
3.83481, 4, -37.0493, 0.66337, 20.5405, -160.571, -92.6102, 54.7829
3.83602, 4, -37.0493, 0.66337, 20.5405, -160.571, -92.6102, 54.7829
3.83995, 4, -37.0493, 0.663371, 20.5405, -160.571, -92.6102, 54.7828
3.84799, 4, -37.0493, 0.663365, 20.5405, -160.571, -92.6101, 54.7828
3.85675, 4, -37.049, 0.663339, 20.5405, -160.571, -92.6102, 54.7828
3.86294, 4, -37.0475, 0.662951, 20.5405, -160.571, -92.6102, 54.7828
3.87198, 4, -37.0434, 0.6612, 20.541, -160.571, -92.6102, 54.7828
3.88072, 4, -37.0355, 0.657072, 20.5426, -160.571, -92.6102, 54.7828
3.88699, 4, -37.0246, 0.650378, 20.5463, -160.571, -92.6102, 54.7828
3.89594, 4, -37.0112, 0.641079, 20.553, -160.57, -92.6102, 54.7828
3.9055, 5, -36.9947, 0.628984, 20.5635, -160.568, -92.6101, 54.7828
3.91115, 5, -36.9748, 0.613709, 20.5786, -160.565, -92.6101, 54.7827
3.91938, 5, -36.9522, 0.595801, 20.5985, -160.561, -92.6099, 54.7827
3.92706, 5, -36.9277, 0.575558, 20.6224, -160.556, -92.6097, 54.7825
3.93623, 5, -36.9011, 0.552431, 20.6498, -160.55, -92.6094, 54.7824
3.94402, 5, -36.8707, 0.526474, 20.6796, -160.543, -92.6089, 54.7823
3.95195, 5, -36.8365, 0.497794, 20.7112, -160.536, -92.6084, 54.7821
3.95994, 5, -36.799, 0.46727, 20.7439, -160.529, -92.6078, 54.7818
3.96802, 5, -36.7595, 0.435814, 20.7771, -160.522, -92.6071, 54.7816
3.97594, 5, -36.7189, 0.403835, 20.8104, -160.514, -92.6065, 54.7813
3.98396, 5, -36.6778, 0.371594, 20.8437, -160.507, -92.6057, 54.781
3.99203, 5, -36.6365, 0.33917, 20.8771, -160.499, -92.6049, 54.7808
3.99994, 5, -36.5952, 0.306867, 20.9105, -160.492, -92.604, 54.7806
4.00796, 5, -36.5539, 0.274581, 20.9439, -160.484, -92.6031, 54.7804
4.01624, 5, -36.5129, 0.24225, 20.9774, -160.477, -92.6023, 54.7803
4.0235, 5, -36.4721, 0.210118, 21.0109, -160.47, -92.6014, 54.7801
4.03205, 5, -36.4311, 0.178127, 21.0442, -160.463, -92.6004, 54.78
4.04032, 5, -36.39, 0.146268, 21.0776, -160.456, -92.5995, 54.7798
4.04754, 5, -36.3489, 0.114344, 21.111, -160.449, -92.5985, 54.7797
4.05694, 5, -36.3079, 0.0825147, 21.1442, -160.442, -92.5975, 54.7796
4.06452, 5, -36.2672, 0.0506394, 21.1774, -160.436, -92.5965, 54.7794
4.07198, 5, -36.2264, 0.0187268, 21.2107, -160.429, -92.5955, 54.7792
4.08006, 5, -36.1853, -0.0132875, 21.244, -160.422, -92.5946, 54.779
4.08695, 5, -36.1648, -0.0292634, 21.2605, -160.418, -92.5941, 54.7788
4.09498, 5, -36.1234, -0.0612123, 21.2936, -160.411, -92.5931, 54.7786
4.10417, 5, -36.0607, -0.109132, 21.3433, -160.4, -92.5916, 54.7781
4.11093, 5, -36.0398, -0.125146, 21.3597, -160.396, -92.5911, 54.7779
4.11898, 5, -35.998, -0.1571, 21.3927, -160.389, -92.5901, 54.7775
4.12909, 5, -35.9351, -0.204874, 21.4423, -160.377, -92.5887, 54.7769
4.13634, 5, -35.8932, -0.236658, 21.4752, -160.37, -92.5877, 54.7765
4.14294, 5, -35.8722, -0.252527, 21.4916, -160.366, -92.5872, 54.7763
4.15333, 5, -35.8094, -0.29991, 21.5409, -160.354, -92.5857, 54.7757
4.15899, 5, -35.7885, -0.315717, 21.5574, -160.35, -92.5852, 54.7755
4.16853, 5, -35.7258, -0.363024, 21.6065, -160.339, -92.5837, 54.775
4.17749, 5, -35.6842, -0.394576, 21.6393, -160.332, -92.5828, 54.7747
4.18459, 5, -35.6635, -0.41033, 21.672, -160.324, -92.5819, 54.7744
4.19252, 5, -35.6218, -0.441844, 21.6882, -160.321, -92.5814, 54.7741
4.20159, 5, -35.5802, -0.473398, 21.7207, -160.313, -92.5799, 54.7739
4.20943, 5, -35.5176, -0.520746, 21.7695, -160.302, -92.579, 54.7737
4.21495, 5, -35.4967, -0.536483, 21.7857, -160.299, -92.5785, 54.7736
4.22399, 5, -35.4546, -0.567972, 21.818, -160.291, -92.5775, 54.7734
4.23093, 5, -35.4125, -0.599405, 21.8502, -160.284, -92.5766, 54.7734
4.23995, 5, -35.3702, -0.630905, 21.8825, -160.277, -92.5756, 54.7733
4.24806, 5, -35.3279, -0.662231, 21.9148, -160.269, -92.5747, 54.7732
4.25597, 5, -35.2854, -0.693568, 21.9469, -160.262, -92.5737, 54.7731
4.26392, 5, -35.243, -0.724844, 21.9792, -160.254, -92.5727, 54.7731
4.27193, 5, -35.2006, -0.756066, 22.0112, -160.246, -92.5718, 54.7732
4.27892, 5, -35.1581, -0.787056, 22.0432, -160.239, -92.5708, 54.7731
4.28792, 5, -35.1157, -0.818056, 22.0753, -160.231, -92.5699, 54.7731
4.29824, 5, -35.0735, -0.849095, 22.1073, -160.222, -92.5689, 54.7733
4.30447, 5, -35.0314, -0.880179, 22.1392, -160.214, -92.568, 54.7733
4.31099, 5, -34.9891, -0.911094, 22.171, -160.206, -92.567, 54.7733
4.32077, 5, -34.9468, -0.942083, 22.2029, -160.199, -92.566, 54.7733
4.32693, 5, -34.9044, -0.972997, 22.2346, -160.191, -92.565, 54.7733
4.33601, 5, -34.862, -1.00401, 22.2663, -160.183, -92.564, 54.7733
4.34807, 5, -34.7981, -1.05024, 22.3139, -160.172, -92.5626, 54.7734
4.35211, 5, -34.7767, -1.06567, 22.3297, -160.168, -92.5621, 54.7734
4.35991, 5, -34.7341, -1.0965, 22.3611, -160.161, -92.5611, 54.7735
4.36799, 5, -34.6913, -1.12739, 22.3926, -160.154, -92.5601, 54.7735
4.37595, 5, -34.6484, -1.15815, 22.4241, -160.146, -92.5591, 54.7736
4.38392, 5, -34.6056, -1.18877, 22.4555, -160.139, -92.5582, 54.7738
4.39198, 5, -34.5629, -1.21944, 22.4868, -160.131, -92.5571, 54.7738
4.39999, 5, -34.52, -1.25012, 22.518, -160.123, -92.5562, 54.774
4.40794, 5, -34.4769, -1.28067, 22.5494, -160.116, -92.5551, 54.7742
4.41593, 5, -34.434, -1.31116, 22.5805, -160.108, -92.5541, 54.7744
4.42411, 5, -34.3911, -1.34163, 22.6116, -160.1, -92.5531, 54.7747
4.43192, 5, -34.3481, -1.37218, 22.6427, -160.092, -92.5521, 54.7751
4.43995, 5, -34.3051, -1.40257, 22.6738, -160.083, -92.5511, 54.7757
4.44797, 5, -34.2622, -1.43296, 22.7047, -160.075, -92.55, 54.7764
4.45593, 5, -34.2192, -1.46329, 22.7356, -160.067, -92.549, 54.7772
4.46395, 5, -34.176, -1.49366, 22.7667, -160.058, -92.548, 54.7783
4.47197, 5, -34.1329, -1.52389, 22.7975, -160.05, -92.547, 54.7795
4.47993, 5, -34.0897, -1.55408, 22.8282, -160.042, -92.5459, 54.7809
4.48797, 5, -34.0464, -1.58417, 22.8589, -160.034, -92.5448, 54.7825
4.49704, 5, -34.0031, -1.61434, 22.8897, -160.026, -92.5438, 54.7842
4.50721, 5, -33.9597, -1.64441, 22.9203, -160.018, -92.5427, 54.7859
4.51218, 5, -33.9163, -1.67442, 22.9509, -160.011, -92.5417, 54.7878
4.51936, 5, -33.8728, -1.70433, 22.9815, -160.003, -92.5406, 54.7898
4.52783, 5, -33.8294, -1.73433, 23.012, -159.995, -92.5396, 54.7918
4.53634, 5, -33.786, -1.76423, 23.0423, -159.987, -92.5385, 54.7939
4.54349, 5, -33.7424, -1.79415, 23.0726, -159.979, -92.5374, 54.7961
4.55204, 5, -33.6988, -1.82406, 23.103, -159.971, -92.5363, 54.7983
4.56052, 5, -33.6554, -1.85391, 23.1331, -159.962, -92.5352, 54.8004
4.56749, 5, -33.6336, -1.86883, 23.1481, -159.958, -92.5347, 54.8016
4.58109, 5, -33.5683, -1.92844, 23.2084, -159.941, -92.5325, 54.8062
4.58291, 5, -33.5464, -1.92844, 23.2084, -159.941, -92.5325, 54.8062
4.59196, 5, -33.4811, -1.97334, 23.2534, -159.928, -92.5308, 54.8097
4.60005, 5, -33.4375, -2.00341, 23.2835, -159.919, -92.5296, 54.812
4.60694, 5, -33.4157, -2.0185, 23.2986, -159.915, -92.5289, 54.813
4.61613, 5, -33.3507, -2.06407, 23.3441, -159.902, -92.5266, 54.8158
4.62456, 6, -33.3074, -2.09478, 23.3745, -159.893, -92.5245, 54.8172
4.63243, 6, -33.2642, -2.12577, 23.4053, -159.884, -92.5221, 54.8181
4.64035, 6, -33.2211, -2.15705, 23.4365, -159.875, -92.5193, 54.8186
4.64708, 6, -33.1997, -2.17286, 23.4521, -159.87, -92.5178, 54.8188
4.65649, 6, -33.1357, -2.22095, 23.4995, -159.856, -92.5122, 54.8189
4.66449, 6, -33.093, -2.25352, 23.5317, -159.845, -92.508, 54.8188
4.67352, 6, -33.0508, -2.2865, 23.5642, -159.834, -92.5032, 54.8183
4.6805, 6, -33.0297, -2.31997, 23.5969, -159.823, -92.4981, 54.8175
4.68862, 6, -32.9667, -2.35407, 23.6302, -159.811, -92.4925, 54.8163
4.69592, 7, -32.9458, -2.37126, 23.6469, -159.805, -92.4895, 54.8156
4.70297, 7, -32.9041, -2.40594, 23.6806, -159.792, -92.4833, 54.8141
4.71198, 7, -32.8628, -2.4411, 23.7146, -159.779, -92.4766, 54.8116
4.72005, 7, -32.8216, -2.47687, 23.7491, -159.766, -92.4695, 54.8079
4.72696, 7, -32.7806, -2.51312, 23.784, -159.753, -92.4619, 54.8031
4.73596, 7, -32.7397, -2.54987, 23.819, -159.739, -92.4539, 54.7974
4.74393, 7, -32.6993, -2.58713, 23.8544, -159.725, -92.4454, 54.7909
4.75192, 7, -32.659, -2.62494, 23.8904, -159.711, -92.4365, 54.7835
4.76018, 8, -32.6188, -2.66308, 23.9266, -159.697, -92.427, 54.7755
4.76791, 8, -32.5789, -2.70177, 23.9632, -159.681, -92.4168, 54.7667
4.77596, 8, -32.5391, -2.74108, 24.0003, -159.666, -92.4061, 54.7572
4.78391, 8, -32.4996, -2.78076, 24.0375, -159.65, -92.3946, 54.747
4.79104, 8, -32.4601, -2.82089, 24.0752, -159.633, -92.3825, 54.7361
4.79896, 8, -32.4209, -2.86158, 24.1133, -159.616, -92.3697, 54.7245
4.80793, 8, -32.3819, -2.90275, 24.1517, -159.6, -92.3564, 54.7123
4.81793, 8, -32.3432, -2.94438, 24.1904, -159.583, -92.336, 54.6925
4.82402, 8, -32.3046, -2.98654, 24.2296, -159.566, -92.3291, 54.6855
4.83192, 9, -32.2662, -3.02912, 24.2692, -159.548, -92.3149, 54.6709
4.84106, 9, -32.2281, -3.07216, 24.309, -159.529, -92.3005, 54.6557
4.84772, 9, -32.1902, -3.11573, 24.3492, -159.51, -92.2855, 54.6399
4.85597, 9, -32.1522, -3.1598, 24.3897, -159.491, -92.27, 54.6237
4.86392, 9, -32.1147, -3.20432, 24.4307, -159.472, -92.2537, 54.6073
4.87198, 9, -32.0773, -3.24933, 24.4719, -159.452, -92.2366, 54.5905
4.87997, 9, -32.0402, -3.29494, 24.5135, -159.432, -92.2188, 54.5732
4.88886, 9, -32.0031, -3.34106, 24.5555, -159.412, -92.2008, 54.5554
4.8959, 9, -31.9663, -3.38764, 24.5978, -159.392, -92.1825, 54.537
4.90326, 10, -31.9298, -3.43481, 24.6406, -159.37, -92.1639, 54.5177
4.911, 10, -31.8934, -3.48257, 24.6836, -159.348, -92.1448, 54.4977
4.92104, 10, -31.8572, -3.53078, 24.727, -159.327, -92.1251, 54.4769
4.92707, 10, -31.8212, -3.5795, 24.7709, -159.305, -92.1046, 54.4555
4.93668, 10, -31.7855, -3.62868, 24.815, -159.283, -92.0832, 54.4338
4.9439, 10, -31.75, -3.67839, 24.8595, -159.26, -92.0615, 54.4119
4.9519, 10, -31.7146, -3.7286, 24.9045, -159.237, -92.0396, 54.3896
4.96185, 10, -31.6793, -3.77916, 24.9498, -159.213, -92.0175, 54.3669
4.96791, 11, -31.6443, -3.83031, 24.9954, -159.189, -91.9951, 54.3435
4.97597, 11, -31.6096, -3.88197, 25.0413, -159.166, -91.9718, 54.3193
4.98391, 11, -31.5751, -3.93401, 25.0877, -159.142, -91.9478, 54.2942
4.99219, 11, -31.5406, -3.98662, 25.1344, -159.117, -91.9231, 54.2684
5.00097, 11, -31.5062, -4.0398, 25.1814, -159.092, -91.8982, 54.2425
5.00792, 11, -31.4722, -4.09358, 25.2288, -159.066, -91.8731, 54.2163
5.01615, 11, -31.4383, -4.14778, 25.2766, -159.04, -91.8477, 54.1897
5.02338, 11, -31.4047, -4.20265, 25.3248, -159.014, -91.8213, 54.1624
5.032, 11, -31.371, -4.25809, 25.3732, -158.988, -91.794, 54.1343
5.04029, 12, -31.3377, -4.31396, 25.4222, -158.961, -91.7664, 54.1052
5.04748, 12, -31.3045, -4.37044, 25.4714, -158.933, -91.7387, 54.0756
5.05606, 12, -31.2716, -4.4274, 25.521, -158.906, -91.7108, 54.0459
5.06422, 12, -31.2389, -4.48485, 25.571, -158.878, -91.6823, 54.016
5.07244, 12, -31.2064, -4.5427, 25.6214, -158.85, -91.6528, 53.9855
5.07954, 12, -31.1902, -4.57181, 25.6468, -158.836, -91.6378, 53.9701
5.08797, 12, -31.142, -4.65985, 25.7232, -158.792, -91.5928, 53.9222
5.09493, 12, -31.126, -4.68942, 25.7489, -158.778, -91.5777, 53.9059
5.10409, 13, -31.0783, -4.77895, 25.8265, -158.734, -91.5313, 53.8569
5.11106, 13, -31.0625, -4.80907, 25.8525, -158.719, -91.5152, 53.8404
5.12047, 13, -31.031, -4.90023, 25.9312, -158.675, -91.4666, 53.7902
5.1269, 13, -30.9998, -4.93093, 25.9576, -158.659, -91.4504, 53.773
5.1363, 13, -30.9532, -5.02385, 26.0374, -158.613, -91.4014, 53.7203
5.14291, 13, -30.9378, -5.05514, 26.0642, -158.597, -91.3846, 53.7026
5.15331, 13, -30.8915, -5.14979, 26.1452, -158.551, -91.333, 53.6492
5.16043, 13, -30.861, -5.21358, 26.1996, -158.519, -91.2986, 53.6127
5.16846, 13, -30.8307, -5.27781, 26.2544, -158.486, -91.2638, 53.5753
5.17727, 14, -30.8007, -5.34257, 26.3096, -158.454, -91.228, 53.5371
5.18454, 14, -30.7857, -5.37507, 26.3373, -158.422, -91.1915, 53.4991
5.19806, 14, -30.7261, -5.50628, 26.449, -158.372, -91.137, 53.4416
5.1995, 14, -30.7261, -5.50628, 26.449, -158.372, -91.137, 53.4416
5.20765, 14, -30.6966, -5.57272, 26.5054, -158.338, -91.1, 53.4022
5.21489, 14, -30.6674, -5.63953, 26.5622, -158.304, -91.0616, 53.3617
5.2239, 14, -30.6384, -5.707, 26.6194, -158.271, -91.0232, 53.3211
5.23346, 14, -30.5951, -5.80926, 26.7059, -158.218, -90.9654, 53.2598
5.23903, 14, -30.5808, -5.84363, 26.7349, -158.201, -90.9455, 53.239
5.24791, 15, -30.5524, -5.91278, 26.7932, -158.166, -90.9051, 53.1966
5.25595, 15, -30.524, -5.98245, 26.8518, -158.131, -90.865, 53.1534
5.26608, 15, -30.4959, -6.05271, 26.9405, -158.077, -90.8044, 53.0888
5.27089, 15, -30.4679, -6.12346, 26.9703, -158.058, -90.7835, 53.0669
5.27989, 15, -30.44, -6.19463, 27.03, -158.022, -90.7416, 53.0224
5.28794, 15, -30.4123, -6.26628, 27.0902, -157.985, -90.6999, 52.9771
5.29489, 15, -30.3849, -6.33841, 27.1506, -157.948, -90.6572, 52.9318
5.3039, 15, -30.3576, -6.41111, 27.2114, -157.91, -90.6135, 52.8861
5.31094, 16, -30.3307, -6.48436, 27.2726, -157.872, -90.5701, 52.8393
5.31992, 16, -30.3039, -6.55813, 27.3342, -157.835, -90.5265, 52.7917
5.32892, 16, -30.2771, -6.63247, 27.3962, -157.796, -90.4814, 52.7444
5.33774, 16, -30.2506, -6.70738, 27.4587, -157.757, -90.4364, 52.6724
5.34391, 16, -30.2244, -6.78283, 27.5214, -157.718, -90.3914, 52.6479
5.35192, 16, -30.1983, -6.85882, 27.5845, -157.679, -90.3449, 52.5985
5.35989, 16, -30.1724, -6.93525, 27.648, -157.639, -90.2981, 52.5494
5.36791, 16, -30.1467, -7.01223, 27.7118, -157.598, -90.2516, 52.4996
5.37594, 16, -30.1209, -7.08974, 27.7761, -157.559, -90.2039, 52.4487
5.38306, 17, -30.0954, -7.16777, 27.8406, -157.518, -90.1557, 52.3979
5.39094, 17, -30.0702, -7.24629, 27.9055, -157.476, -90.1077, 52.347
5.39989, 17, -30.0451, -7.32536, 27.9708, -157.435, -90.0583, 52.2953
5.40804, 17, -30.0202, -7.40495, 28.0364, -157.394, -90.0087, 52.2424
5.41588, 17, -29.9955, -7.48498, 28.1026, -157.351, -89.9595, 52.1897
5.42401, 17, -29.9709, -7.5656, 28.169, -157.309, -89.9089, 52.1367
5.43195, 17, -29.9464, -7.64671, 28.2358, -157.267, -89.8581, 52.0826
5.43996, 17, -29.9223, -7.72837, 28.3031, -157.224, -89.8074, 52.0284
5.44788, 18, -29.8983, -7.81052, 28.3706, -157.18, -89.7551, 51.974
5.45606, 18, -29.8746, -7.89314, 28.4384, -157.137, -89.7032, 51.9187
5.46471, 18, -29.8511, -7.97632, 28.5066, -157.093, -89.6511, 51.8626
5.47296, 18, -29.8276, -8.05999, 28.5751, -157.048, -89.5975, 51.8067
5.47993, 18, -29.8042, -8.14412, 28.6441, -157.004, -89.5445, 51.7502
5.48791, 18, -29.7811, -8.22873, 28.7135, -156.959, -89.4906, 51.6924
5.49627, 18, -29.7581, -8.31392, 28.7833, -156.913, -89.4357, 51.635
5.50516, 18, -29.7353, -8.39954, 28.8535, -156.868, -89.3815, 51.5773
5.51131, 18, -29.7126, -8.48565, 28.924, -156.822, -89.3259, 51.5186
5.52021, 19, -29.6902, -8.57232, 28.9948, -156.775, -89.2702, 51.4598
5.52736, 19, -29.6678, -8.65955, 29.066, -156.729, -89.2143, 51.4009
5.53625, 19, -29.6454, -8.74724, 29.1375, -156.683, -89.1572, 51.3411
5.54489, 19, -29.6234, -8.83546, 29.2093, -156.635, -89.1006, 51.2813
5.55201, 19, -29.6017, -8.92413, 29.2815, -156.588, -89.0433, 51.2216
5.56005, 19, -29.58, -9.01324, 29.3541, -156.541, -88.9856, 51.1606
5.56808, 19, -29.5585, -9.10292, 29.4271, -156.492, -88.9278, 51.0992
5.57588, 19, -29.5373, -9.1931, 29.5004, -156.443, -88.8688, 51.0379
5.58486, 20, -29.5161, -9.28371, 29.5742, -156.395, -88.8104, 50.9754
5.59225, 20, -29.495, -9.37488, 29.6484, -156.346, -88.751, 50.9126
5.59893, 20, -29.4846, -9.42069, 29.6855, -156.321, -88.7211, 50.8814
5.60907, 20, -29.4537, -9.55864, 29.7975, -156.247, -88.6316, 50.7859
5.61615, 20, -29.4333, -9.65122, 29.8724, -156.196, -88.5707, 50.7218
5.62292, 20, -29.4231, -9.69769, 29.9101, -156.171, -88.5405, 50.69
5.63306, 20, -29.3928, -9.83782, 30.0236, -156.096, -88.4488, 50.5924
5.63892, 20, -29.3829, -9.8848, 30.0617, -156.07, -88.4179, 50.5599
5.64836, 20, -29.353, -10.0265, 30.1765, -155.993, -88.3251, 50.4621
5.65491, 21, -29.3431, -10.0739, 30.2149, -155.968, -88.2936, 50.429
5.66292, 21, -29.3235, -10.1693, 30.292, -155.916, -88.2314, 50.3627
5.67246, 21, -29.2944, -10.3131, 30.4081, -155.838, -88.1366, 50.2632
5.68086, 21, -29.2751, -10.4094, 30.4858, -155.785, -88.0735, 50.196
5.68771, 21, -29.2656, -10.4577, 30.5248, -155.758, -88.0415, 50.1626
5.69652, 21, -29.2465, -10.5547, 30.6032, -155.706, -87.9452, 50.0616
5.70387, 21, -29.2277, -10.6521, 30.6819, -155.653, -87.9131, 50.0274
5.71187, 21, -29.209, -10.75, 30.7609, -155.599, -87.8478, 49.9596
5.72084, 22, -29.1903, -10.8978, 30.8802, -155.518, -87.7503, 49.8569
5.72801, 22, -29.1717, -10.9473, 30.9202, -155.491, -87.7171, 49.8224
5.73743, 22, -29.1443, -11.0964, 31.0403, -155.409, -87.6186, 49.7194
5.74397, 22, -29.1352, -11.1462, 31.0804, -155.381, -87.5852, 49.6845
5.7509, 22, -29.1171, -11.2464, 31.1609, -155.325, -87.5184, 49.6146
5.75998, 22, -29.0991, -11.347, 31.2418, -155.27, -87.4513, 49.5453
5.76792, 22, -29.0813, -11.4481, 31.323, -155.214, -87.3837, 49.4747
5.77583, 22, -29.0638, -11.5496, 31.4047, -155.158, -87.3166, 49.4043
5.78392, 22, -29.0463, -11.6517, 31.4866, -155.102, -87.2482, 49.3338
5.79187, 23, -29.0289, -11.7542, 31.569, -155.045, -87.1804, 49.2625
5.79996, 23, -29.0118, -11.857, 31.6516, -154.988, -87.1112, 49.1917
5.81035, 23, -28.9864, -12.0118, 31.7757, -154.901, -87.0081, 49.0841
5.81588, 23, -28.9779, -12.0636, 31.8172, -154.872, -86.9732, 49.0485
5.82388, 23, -28.961, -12.1676, 31.9006, -154.815, -86.904, 48.9772
5.83288, 23, -28.9444, -12.2719, 31.9843, -154.756, -86.8337, 48.9047
5.83989, 23, -28.928, -12.3768, 32.0684, -154.698, -86.7636, 48.8328
5.84888, 23, -28.9116, -12.482, 32.1529, -154.639, -86.6926, 48.7603
5.8559, 23, -28.8954, -12.5876, 32.2377, -154.579, -86.6218, 48.6875
5.86388, 24, -28.8791, -12.6935, 32.3226, -154.52, -86.5502, 48.6151
5.87299, 24, -28.863, -12.7998, 32.4078, -154.46, -86.4791, 48.5414
5.87901, 24, -28.847, -12.9066, 32.4931, -154.4, -86.407, 48.4685
5.8909, 24, -28.8233, -13.0674, 32.6218, -154.309, -86.2988, 48.3576
5.89665, 24, -28.8154, -13.1213, 32.6648, -154.279, -86.2623, 48.3207
5.90295, 24, -28.7997, -13.2294, 32.7512, -154.218, -86.1899, 48.2473
5.91188, 24, -28.7843, -13.3376, 32.838, -154.156, -86.1167, 48.1727
5.92242, 24, -28.7615, -13.5006, 32.9686, -154.064, -86.007, 48.0619
5.92791, 25, -28.754, -13.5551, 33.0122, -154.033, -85.9699, 48.0246
5.93593, 25, -28.7388, -13.6645, 33.0995, -153.971, -85.8965, 47.9502
5.94294, 25, -28.7236, -13.7741, 33.187, -153.909, -85.8223, 47.8765
5.95204, 25, -28.7085, -13.8843, 33.2749, -153.846, -85.7483, 47.8018
5.95998, 25, -28.6935, -13.9947, 33.3632, -153.783, -85.6733, 47.7277
5.96786, 25, -28.6787, -14.1053, 33.4518, -153.719, -85.599, 47.6533
5.97586, 25, -28.664, -14.2163, 33.5407, -153.656, -85.5239, 47.5787
5.98393, 25, -28.6493, -14.3275, 33.6297, -153.592, -85.449, 47.5046
5.99188, 25, -28.6348, -14.4392, 33.7189, -153.528, -85.3734, 47.4296
6.00004, 26, -28.6206, -14.5513, 33.8082, -153.463, -85.2982, 47.3552
6.00725, 26, -28.6065, -14.6637, 33.8978, -153.399, -85.2224, 47.2805
6.01523, 26, -28.5924, -14.7764, 33.9877, -153.334, -85.1466, 47.2057
6.02374, 26, -28.5783, -14.8892, 34.0778, -153.269, -85.0701, 47.1315
6.03196, 26, -28.5642, -15.0022, 34.1683, -153.203, -84.994, 47.0564
6.04001, 26, -28.5502, -15.1157, 34.2591, -153.137, -84.9172, 46.9824
6.04797, 26, -28.5362, -15.2292, 34.35, -153.072, -84.8406, 46.9081
6.05599, 26, -28.5224, -15.3432, 34.4409, -153.005, -84.7635, 46.8337
6.06404, 27, -28.5086, -15.4575, 34.532, -152.939, -84.6867, 46.7604
6.0722, 27, -28.4948, -15.5719, 34.6233, -152.872, -84.6094, 46.6858
6.08024, 27, -28.4812, -15.6866, 34.7149, -152.805, -84.5319, 46.6123
6.08687, 27, -28.4744, -15.744, 34.7608, -152.772, -84.493, 46.5755
6.09487, 27, -28.4609, -15.8592, 34.8528, -152.704, -84.4157, 46.5012
6.10392, 27, -28.4407, -16.0327, 34.9912, -152.602, -84.2989, 46.391
6.11287, 27, -28.4273, -16.1487, 35.0834, -152.534, -84.2206, 46.3166
6.12052, 27, -28.4138, -16.2649, 35.1757, -152.466, -84.1427, 46.2435
6.12814, 27, -28.4005, -16.3812, 35.2682, -152.398, -84.064, 46.1699
6.13491, 28, -28.3939, -16.4394, 35.3146, -152.364, -84.0249, 46.1331
6.14286, 28, -28.3807, -16.556, 35.4075, -152.294, -83.9463, 46.0604
6.15323, 28, -28.3609, -16.7314, 35.5474, -152.191, -83.8286, 45.9508
6.15891, 28, -28.3543, -16.79, 35.5942, -152.156, -83.7891, 45.9146
6.16841, 28, -28.3344, -16.9659, 35.7343, -152.052, -83.6708, 45.8065
6.17492, 28, -28.3279, -17.0245, 35.7809, -152.017, -83.6312, 45.7703
6.18455, 28, -28.3083, -17.2007, 35.9212, -151.912, -83.5129, 45.6633
6.19245, 28, -28.3017, -17.2595, 35.9681, -151.841, -83.4337, 45.5917
6.20051, 29, -28.2886, -17.3773, 36.062, -151.806, -83.3543, 45.5209
6.20786, 29, -28.2756, -17.4955, 36.1563, -151.735, -83.3146, 45.4859
6.21588, 29, -28.2624, -17.6139, 36.2507, -151.665, -83.2352, 45.4153
6.22651, 29, -28.2427, -17.7917, 36.3921, -151.557, -83.1157, 45.3108
6.23186, 29, -28.2362, -17.851, 36.4392, -151.522, -83.0757, 45.2762
6.24, 29, -28.2233, -17.9696, 36.5334, -151.45, -82.996, 45.2065
6.24789, 29, -28.2103, -18.0885, 36.6279, -151.379, -82.9161, 45.1379
6.25486, 29, -28.1974, -18.2076, 36.7226, -151.307, -82.8364, 45.0698
6.26391, 29, -28.1845, -18.3269, 36.8176, -151.235, -82.7562, 45.0015
6.27186, 30, -28.1716, -18.4461, 36.9127, -151.162, -82.6768, 44.9346
6.27885, 30, -28.1587, -18.5654, 37.0077, -151.09, -82.5965, 44.8675
6.28785, 30, -28.1459, -18.6847, 37.1025, -151.017, -82.5167, 44.8009
6.29598, 30, -28.1329, -18.8041, 37.1973, -150.944, -82.4363, 44.7355
6.30283, 30, -28.1199, -18.9237, 37.2923, -150.87, -82.3564, 44.6698
6.31187, 30, -28.1068, -19.0436, 37.3876, -150.797, -82.276, 44.6051
6.31992, 30, -28.0936, -19.1636, 37.483, -150.724, -82.1956, 44.5415
6.32792, 30, -28.0805, -19.2835, 37.5785, -150.65, -82.1154, 44.4776
6.33688, 31, -28.0674, -19.4034, 37.6739, -150.576, -82.0352, 44.4147
6.34596, 31, -28.0478, -19.5833, 37.8166, -150.465, -81.9147, 44.3216
6.35192, 31, -28.0412, -19.6433, 37.8642, -150.428, -81.8744, 44.2907
6.3599, 31, -28.0281, -19.7634, 37.9595, -150.354, -81.7945, 44.2299
6.36809, 31, -28.0149, -19.8835, 38.055, -150.279, -81.7143, 44.1699
6.37672, 31, -28.0018, -20.0036, 38.1507, -150.204, -81.634, 44.1097
6.38385, 31, -27.9885, -20.1236, 38.2464, -150.129, -81.5537, 44.0506
6.39189, 31, -27.9752, -20.2436, 38.3419, -150.054, -81.4735, 43.9926
6.39997, 31, -27.9617, -20.3638, 38.4372, -149.979, -81.3932, 43.9343
6.40785, 32, -27.9481, -20.4841, 38.5325, -149.903, -81.3128, 43.8773
6.41601, 32, -27.9343, -20.6044, 38.6278, -149.828, -81.233, 43.8215
6.4238, 32, -27.9206, -20.7248, 38.7233, -149.752, -81.1528, 43.7661
6.43191, 32, -27.9069, -20.8449, 38.8189, -149.677, -81.073, 43.7111
6.43992, 32, -27.8931, -20.9651, 38.9145, -149.601, -80.9927, 43.6578
6.44791, 32, -27.8793, -21.0853, 39.0099, -149.525, -80.9131, 43.6051
6.45585, 32, -27.8653, -21.2055, 39.105, -149.449, -80.8329, 43.5528
6.46495, 32, -27.8513, -21.3256, 39.2001, -149.372, -80.7532, 43.5018
6.47307, 33, -27.8373, -21.4456, 39.2953, -149.296, -80.6733, 43.4523
6.47999, 33, -27.8231, -21.5654, 39.3905, -149.22, -80.5937, 43.4032
6.48785, 33, -27.8088, -21.6851, 39.4858, -149.143, -80.514, 43.3547
6.50075, 33, -27.7869, -21.8647, 39.6286, -149.028, -80.3945, 43.2849
6.50393, 33, -27.7795, -21.9247, 39.676, -148.989, -80.3551, 43.2623
6.51186, 33, -27.7648, -22.0445, 39.7708, -148.913, -80.2757, 43.2172
6.51994, 33, -27.75, -22.1642, 39.8653, -148.836, -80.1965, 43.1728
6.52796, 33, -27.7351, -22.2837, 39.9599, -148.759, -80.1172, 43.1299
6.53593, 33, -27.7201, -22.403, 40.0545, -148.681, -80.0385, 43.0885
6.544, 34, -27.705, -22.5224, 40.1491, -148.604, -79.9594, 43.0481
6.55196, 34, -27.6899, -22.6417, 40.2436, -148.527, -79.8805, 43.0081
6.56002, 34, -27.6747, -22.7609, 40.3379, -148.45, -79.8015, 42.9692
6.56867, 34, -27.6594, -22.8799, 40.4319, -148.372, -79.7225, 42.932
6.57784, 34, -27.6439, -22.9987, 40.5257, -148.295, -79.6436, 42.8963
6.58484, 34, -27.6281, -23.1171, 40.6194, -148.217, -79.5646, 42.8617
6.59269, 34, -27.6121, -23.2354, 40.7132, -148.139, -79.4861, 42.8277
6.59997, 34, -27.596, -23.3538, 40.8069, -148.062, -79.4073, 42.7949
6.6069, 34, -27.5879, -23.413, 40.8537, -148.023, -79.3681, 42.779
6.6168, 35, -27.5635, -23.5904, 40.9939, -147.906, -79.25, 42.7343
6.62418, 35, -27.5469, -23.7083, 41.0869, -147.828, -79.1721, 42.7062
6.63084, 35, -27.5386, -23.7671, 41.1332, -147.789, -79.1327, 42.6928
6.64067, 35, -27.5137, -23.9433, 41.2721, -147.672, -79.0155, 42.6542
6.64845, 35, -27.497, -24.0606, 41.3646, -147.594, -78.9372, 42.6297
6.65667, 35, -27.4799, -24.1777, 41.4571, -147.516, -78.8594, 42.6065
6.66443, 35, -27.4625, -24.2946, 41.5495, -147.438, -78.7814, 42.5852
6.67245, 35, -27.445, -24.4112, 41.6416, -147.36, -78.7034, 42.5654
6.68041, 36, -27.4272, -24.5273, 41.7332, -147.282, -78.6259, 42.5474
6.68864, 36, -27.4093, -24.6432, 41.8246, -147.204, -78.5485, 42.531
6.6977, 36, -27.391, -24.759, 41.9157, -147.126, -78.4712, 42.5162
6.70384, 36, -27.3818, -24.8169, 41.9612, -147.087, -78.4326, 42.5094
6.71186, 36, -27.3633, -24.9327, 42.0522, -147.009, -78.3554, 42.497
6.71988, 36, -27.3446, -25.0483, 42.143, -146.931, -78.2787, 42.4859
6.72785, 36, -27.3257, -25.1637, 42.2336, -146.853, -78.2019, 42.4764
6.73743, 36, -27.2967, -25.3359, 42.3688, -146.736, -78.0869, 42.4649
6.74291, 36, -27.287, -25.3932, 42.4137, -146.697, -78.0488, 42.4619
6.7519, 37, -27.2674, -25.5076, 42.5031, -146.619, -77.9725, 42.4572
6.75985, 37, -27.2477, -25.6216, 42.5924, -146.541, -77.8964, 42.4541
6.76929, 37, -27.2275, -25.7354, 42.7261, -146.424, -77.7821, 42.4521
6.77484, 37, -27.2073, -25.8488, 42.7706, -146.385, -77.7445, 42.4518
6.78384, 37, -27.1868, -25.9617, 42.8594, -146.308, -77.6686, 42.4516
6.7919, 37, -27.166, -26.0743, 42.9478, -146.23, -77.5933, 42.4524
6.79983, 37, -27.1448, -26.1865, 43.0357, -146.153, -77.5175, 42.455
6.80783, 37, -27.1233, -26.2985, 43.1232, -146.075, -77.4426, 42.4607
6.81796, 38, -27.0909, -26.4661, 43.2539, -145.959, -77.3297, 42.4733
6.82386, 38, -27.0799, -26.5219, 43.2973, -145.921, -77.2924, 42.4786
6.83287, 38, -27.0576, -26.6331, 43.3841, -145.844, -77.2171, 42.491
6.84312, 38, -27.0352, -26.7439, 43.5136, -145.728, -77.1054, 42.5131
6.84689, 38, -27.0126, -26.8543, 43.5566, -145.69, -77.0679, 42.5215
6.85588, 38, -26.9895, -26.9643, 43.6422, -145.613, -76.9937, 42.5399
6.86384, 38, -26.9662, -27.074, 43.7274, -145.536, -76.919, 42.5606
6.87187, 38, -26.9426, -27.1832, 43.8121, -145.46, -76.8454, 42.5836
6.87988, 38, -26.9187, -27.292, 43.8966, -145.384, -76.7711, 42.6091
6.88783, 39, -26.8944, -27.4003, 43.9808, -145.308, -76.6975, 42.6371
6.89585, 39, -26.8698, -27.508, 44.0646, -145.232, -76.6235, 42.667
6.90384, 39, -26.8448, -27.6154, 44.1481, -145.156, -76.5504, 42.6987
6.91209, 39, -26.8193, -27.7225, 44.2311, -145.08, -76.4767, 42.7326
6.91981, 39, -26.7937, -27.8293, 44.3137, -145.005, -76.4037, 42.7689
6.92785, 39, -26.7678, -27.9358, 44.3958, -144.93, -76.3301, 42.8079
6.93596, 39, -26.7415, -28.0418, 44.4773, -144.855, -76.2572, 42.849
6.94384, 39, -26.715, -28.1473, 44.5585, -144.78, -76.1839, 42.8918
6.95206, 40, -26.6879, -28.2522, 44.6393, -144.705, -76.1111, 42.937
6.9599, 40, -26.6605, -28.3567, 44.7196, -144.631, -76.0381, 42.9851
6.96783, 40, -26.6328, -28.4607, 44.7996, -144.557, -75.9659, 43.0353
6.97583, 40, -26.6046, -28.5641, 44.8791, -144.483, -75.8932, 43.0872
6.98399, 40, -26.5761, -28.6669, 44.9582, -144.41, -75.821, 43.1416
6.99201, 40, -26.5472, -28.7692, 45.0367, -144.337, -75.7484, 43.1989
6.9999, 40, -26.5177, -28.8708, 45.1145, -144.264, -75.6769, 43.2579
7.00842, 40, -26.4878, -28.9719, 45.1919, -144.192, -75.6046, 43.3193
7.01583, 40, -26.4576, -29.0726, 45.2687, -144.119, -75.5332, 43.3838
7.02387, 41, -26.4269, -29.1727, 45.3451, -144.048, -75.461, 43.4499
7.03296, 41, -26.3957, -29.2724, 45.4209, -143.976, -75.3901, 43.5186
7.041, 41, -26.3641, -29.3717, 45.4963, -143.905, -75.3183, 43.5901
7.04829, 41, -26.332, -29.4704, 45.5711, -143.834, -75.2476, 43.6631
7.05639, 41, -26.2995, -29.5685, 45.6452, -143.764, -75.1761, 43.7396
7.06396, 41, -26.2667, -29.6659, 45.7187, -143.694, -75.1059, 43.818
7.07239, 41, -26.2333, -29.7626, 45.7916, -143.625, -75.035, 43.8992
7.07882, 41, -26.2164, -29.8108, 45.8278, -143.59, -74.9999, 43.941
7.08791, 41, -26.1649, -29.9541, 45.9355, -143.487, -74.8941, 44.0694
7.09482, 42, -26.1476, -30.0015, 45.9712, -143.453, -74.8591, 44.1139
7.10288, 42, -26.1125, -30.0959, 46.0421, -143.385, -74.7895, 44.2038
7.11294, 42, -26.0587, -30.2364, 46.1473, -143.285, -74.6846, 44.3444
7.12002, 42, -26.0222, -30.3291, 46.2167, -143.218, -74.6146, 44.4411
7.12688, 42, -26.0037, -30.3752, 46.2511, -143.185, -74.5797, 44.4909
7.13482, 42, -25.9665, -30.4669, 46.3193, -143.119, -74.5105, 44.5915
7.14422, 42, -25.9096, -30.6031, 46.4202, -143.022, -74.4063, 44.748
7.15087, 42, -25.8903, -30.6482, 46.4534, -142.989, -74.3718, 44.8014
7.16182, 43, -25.8316, -30.7823, 46.5523, -142.894, -74.2679, 44.9665
7.16841, 43, -25.7918, -30.8708, 46.6174, -142.831, -74.1992, 45.0802
7.17638, 43, -25.7513, -30.9586, 46.6816, -142.769, -74.1304, 45.1964
7.18945, 43, -25.6895, -31.0886, 46.7767, -142.677, -74.0275, 45.3761
7.19237, 43, -25.6895, -31.0886, 46.7767, -142.677, -73.9933, 45.4374
7.20036, 43, -25.6477, -31.1743, 46.8391, -142.616, -73.9596, 45.562
7.20683, 43, -25.6053, -31.2591, 46.9007, -142.557, -73.8913, 45.6254
7.21692, 43, -25.5401, -31.3847, 46.9916, -142.469, -73.7897, 45.8194
7.22382, 43, -25.5181, -31.4261, 47.0215, -142.44, -73.7554, 45.8854
7.23383, 44, -25.4511, -31.549, 47.1098, -142.353, -73.6543, 46.0877
7.23982, 44, -25.4283, -31.5895, 47.1388, -142.326, -73.6205, 46.1567
7.24789, 44, -25.3825, -31.6699, 47.1961, -142.27, -73.5529, 46.297
7.2561, 44, -25.336, -31.7495, 47.2527, -142.215, -73.486, 46.4399
7.263, 44, -25.2889, -31.8282, 47.3083, -142.162, -73.4186, 46.586
7.27192, 44, -25.241, -31.9058, 47.3631, -142.108, -73.3525, 46.7349
7.27982, 44, -25.1923, -31.9825, 47.417, -142.056, -73.2856, 46.8864
7.28781, 44, -25.143, -32.0582, 47.4698, -142.006, -73.2197, 47.0413
7.29586, 45, -25.0929, -32.1328, 47.5217, -141.955, -73.1533, 47.1993
7.30383, 45, -25.0421, -32.2064, 47.5728, -141.907, -73.0878, 47.3604
7.3119, 45, -24.9905, -32.279, 47.6228, -141.859, -73.0221, 47.5245
7.31981, 45, -24.9382, -32.3504, 47.6717, -141.812, -72.9569, 47.6916
7.327, 45, -24.8851, -32.4208, 47.7197, -141.766, -72.892, 47.8619
7.3358, 45, -24.8312, -32.4901, 47.7666, -141.722, -72.8269, 48.0348
7.34483, 45, -24.7765, -32.5584, 47.8123, -141.678, -72.7628, 48.2109
7.35173, 45, -24.721, -32.6255, 47.857, -141.636, -72.6981, 48.3901
7.3599, 45, -24.6647, -32.6914, 47.9006, -141.595, -72.6345, 48.5724
7.3689, 46, -24.6075, -32.7562, 47.9431, -141.555, -72.5704, 48.7576
7.37586, 46, -24.5494, -32.8196, 47.9846, -141.516, -72.5074, 48.9458
7.38465, 46, -24.4905, -32.8817, 48.0248, -141.479, -72.4441, 49.1368
7.39102, 46, -24.4308, -32.9424, 48.0639, -141.444, -72.3813, 49.3312
7.39989, 46, -24.3703, -33.0019, 48.1019, -141.409, -72.3188, 49.5288
7.40781, 46, -24.3089, -33.06, 48.1385, -141.376, -72.2562, 49.7294
7.41581, 46, -24.2468, -33.1168, 48.174, -141.344, -72.195, 49.933
7.42485, 46, -24.1836, -33.1723, 48.2083, -141.314, -72.1329, 50.1395
7.43203, 47, -24.1195, -33.2264, 48.2412, -141.285, -72.0722, 50.3487
7.43946, 47, -24.0546, -33.2791, 48.2728, -141.258, -72.0113, 50.5612
7.44887, 47, -23.9886, -33.3306, 48.3032, -141.232, -71.9509, 50.7768
7.4599, 47, -23.9218, -33.3806, 48.332, -141.207, -71.8916, 51.1056
7.46385, 47, -23.854, -33.4289, 48.3595, -141.185, -71.8316, 51.2166
7.47259, 47, -23.7852, -33.4757, 48.3857, -141.165, -71.773, 51.441
7.47983, 47, -23.7156, -33.5209, 48.4106, -141.146, -71.7142, 51.6688
7.48782, 47, -23.645, -33.5643, 48.434, -141.128, -71.6562, 51.8996
7.49775, 47, -23.5734, -33.6062, 48.456, -141.112, -71.5991, 52.1334
7.50381, 48, -23.5008, -33.6463, 48.4766, -141.098, -71.5418, 52.3699
7.5119, 48, -23.4274, -33.6848, 48.4956, -141.085, -71.4859, 52.6094
7.51982, 48, -23.3529, -33.7217, 48.5131, -141.074, -71.43, 52.8519
7.52959, 48, -23.2775, -33.7569, 48.5293, -141.065, -71.3747, 53.0977
7.53534, 48, -23.201, -33.7904, 48.5438, -141.058, -71.3208, 53.3462
7.54391, 48, -23.1237, -33.822, 48.5565, -141.053, -71.2666, 53.5974
7.5523, 48, -23.0453, -33.8519, 48.568, -141.049, -71.2136, 53.852
7.55945, 48, -22.9658, -33.88, 48.5778, -141.048, -71.1615, 54.1097
7.56793, 48, -22.8853, -33.906, 48.5859, -141.047, -71.1092, 54.37
7.57663, 49, -22.8037, -33.9302, 48.5924, -141.048, -71.0584, 54.633
7.58382, 49, -22.7212, -33.9521, 48.5972, -141.052, -71.0084, 54.8987
7.59184, 49, -22.6377, -33.9722, 48.6002, -141.058, -70.9585, 55.1674
7.60027, 49, -22.5532, -33.9903, 48.6017, -141.065, -70.9102, 55.4388
7.60792, 49, -22.4677, -34.0061, 48.6019, -141.076, -70.8625, 55.713
7.6159, 49, -22.3812, -34.0197, 48.6005, -141.088, -70.8152, 55.99
7.62438, 49, -22.2936, -34.0313, 48.5974, -141.103, -70.7695, 56.2701
7.63082, 49, -22.2495, -34.0363, 48.5952, -141.112, -70.7472, 56.411
7.64013, 50, -22.1153, -34.0485, 48.5858, -141.14, -70.6806, 56.8377
7.64697, 50, -22.0701, -34.0514, 48.5817, -141.151, -70.659, 56.9812
7.65616, 50, -21.979, -34.0567, 48.5664, -141.185, -70.5965, 57.4163
7.66288, 50, -21.887, -34.0574, 48.5603, -141.197, -70.576, 57.5627
7.67088, 50, -21.7938, -34.0576, 48.5468, -141.224, -70.5354, 57.8573
7.68038, 50, -21.652, -34.0534, 48.523, -141.269, -70.4775, 58.304
7.68914, 50, -21.5561, -34.0476, 48.5045, -141.302, -70.4408, 58.6052
7.69486, 50, -21.5077, -34.0437, 48.4945, -141.319, -70.4226, 58.7567
7.70433, 50, -21.4104, -34.0339, 48.4732, -141.354, -70.3869, 59.2143
7.71323, 51, -21.3121, -34.0217, 48.4496, -141.393, -70.3529, 59.3682
7.71898, 51, -21.2129, -34.0071, 48.424, -141.434, -70.3205, 59.6776
7.72763, 51, -21.1128, -33.9902, 48.3962, -141.476, -70.2894, 59.9894
7.73485, 51, -21.0117, -33.9703, 48.3665, -141.521, -70.2592, 60.3037
7.7438, 51, -20.9095, -33.9477, 48.3347, -141.569, -70.2304, 60.6207
7.7518, 51, -20.8062, -33.9224, 48.301, -141.618, -70.2034, 60.9397
7.75978, 51, -20.7018, -33.8941, 48.2649, -141.671, -70.1783, 61.2607
7.76783, 51, -20.5965, -33.8633, 48.2268, -141.725, -70.1549, 61.5843
7.77588, 52, -20.4904, -33.8294, 48.1866, -141.781, -70.1329, 61.9101
7.7838, 52, -20.3835, -33.7927, 48.1442, -141.84, -70.1122, 62.238
7.79196, 52, -20.2757, -33.7534, 48.0997, -141.901, -70.0931, 62.5679
7.80276, 52, -20.112, -33.6887, 48.0287, -141.997, -70.0678, 63.0674
7.80776, 52, -20.0571, -33.6657, 48.0039, -142.03, -70.0605, 63.2347
7.8158, 52, -19.9465, -33.6175, 47.9528, -142.097, -70.0471, 63.5705
7.82386, 52, -19.8348, -33.5662, 47.8994, -142.168, -70.0359, 63.9085
7.83082, 52, -19.7223, -33.512, 47.8437, -142.24, -70.0266, 64.2484
7.84076, 52, -19.6092, -33.4547, 47.7859, -142.314, -70.0194, 64.5899
7.84781, 53, -19.4955, -33.3943, 47.7258, -142.39, -70.0141, 64.9336
7.85682, 53, -19.3809, -33.3309, 47.6635, -142.469, -70.0108, 65.2791
7.86484, 53, -19.2654, -33.2643, 47.599, -142.55, -70.0094, 65.6259
7.871, 53, -19.1492, -33.1947, 47.5322, -142.633, -70.0095, 65.9744
7.87888, 53, -19.0322, -33.122, 47.4631, -142.718, -70.0114, 66.3248
7.88857, 53, -18.9144, -33.0461, 47.3917, -142.806, -70.0156, 66.6767
7.89503, 53, -18.7958, -32.967, 47.318, -142.895, -70.0221, 67.0301
7.90386, 53, -18.6766, -32.8845, 47.2419, -142.986, -70.031, 67.3853
7.91479, 54, -18.4965, -32.7547, 47.1234, -143.126, -70.0492, 67.9201
7.9198, 54, -18.436, -32.7098, 47.0828, -143.174, -70.0566, 68.0989
7.92787, 54, -18.3147, -32.6175, 46.9999, -143.271, -70.0736, 68.4578
7.93582, 54, -18.1926, -32.522, 46.9148, -143.37, -70.0935, 68.8179
7.94313, 54, -18.0701, -32.4232, 46.8274, -143.471, -70.1163, 69.179
7.95187, 54, -17.9469, -32.3211, 46.7377, -143.574, -70.1415, 69.5417
7.9598, 54, -17.8232, -32.2154, 46.6455, -143.678, -70.169, 69.9052
7.96781, 54, -17.699, -32.1065, 46.5509, -143.784, -70.199, 70.2695
7.97586, 54, -17.5744, -31.9941, 46.454, -143.892, -70.2323, 70.6352
7.9838, 55, -17.4492, -31.8784, 46.3549, -144.001, -70.2689, 71.0018
7.99197, 55, -17.3236, -31.7594, 46.2537, -144.112, -70.3076, 71.3691
7.99932, 55, -17.1976, -31.6369, 46.1502, -144.225, -70.349, 71.7377
8.00786, 55, -17.0711, -31.5109, 46.0444, -144.339, -70.394, 72.1066
8.01581, 55, -16.9442, -31.3813, 45.9362, -144.455, -70.4417, 72.476
8.02386, 55, -16.8168, -31.2482, 45.8255, -144.572, -70.4913, 72.8463
8.03203, 55, -16.6892, -31.1119, 45.7125, -144.69, -70.5453, 73.217
8.03931, 55, -16.5613, -30.9724, 45.5976, -144.81, -70.6016, 73.588
8.0479, 55, -16.4332, -30.8294, 45.4805, -144.931, -70.6608, 73.9599
8.05619, 56, -16.3049, -30.6828, 45.3613, -145.053, -70.7236, 74.3317
8.06365, 56, -16.1766, -30.5328, 45.2396, -145.176, -70.7885, 74.7037
8.0719, 56, -16.0478, -30.3795, 45.1155, -145.3, -70.8576, 75.0764
8.07993, 56, -15.9189, -30.2231, 44.9894, -145.425, -70.929, 75.4492
8.08794, 56, -15.79, -30.0633, 44.8613, -145.552, -71.0042, 75.822
8.09582, 56, -15.661, -29.8997, 44.7312, -145.679, -71.0821, 76.1955
8.10386, 56, -15.5316, -29.7327, 44.599, -145.807, -71.1637, 76.5685
8.11189, 56, -15.4021, -29.5627, 44.4644, -145.935, -71.2481, 76.9411
8.11881, 57, -15.3373, -29.4766, 44.3964, -146, -71.2915, 77.1275
8.12812, 57, -15.143, -29.2129, 44.1893, -146.194, -71.4264, 77.6862
8.13496, 57, -15.0782, -29.1231, 44.1192, -146.259, -71.4731, 77.8723
8.14493, 57, -14.9489, -28.8493, 43.9061, -146.455, -71.6176, 78.4302
8.15224, 57, -14.7549, -28.6638, 43.7617, -146.587, -71.7183, 78.8014
8.15886, 57, -14.6903, -28.5699, 43.6888, -146.652, -71.7698, 78.9868
8.16909, 57, -14.4965, -28.2822, 43.4674, -146.85, -71.9292, 79.5426
8.1748, 57, -14.432, -28.1845, 43.3925, -146.916, -71.984, 79.7276
8.18439, 57, -14.2388, -27.8879, 43.1649, -147.114, -72.1533, 80.2815
8.19317, 58, -14.1102, -27.6863, 43.0113, -147.247, -72.2699, 80.6502
8.19883, 58, -14.046, -27.5841, 42.9339, -147.313, -72.3295, 80.8342
8.20861, 58, -13.9178, -27.2733, 42.6988, -147.511, -72.5129, 81.384
8.21727, 58, -13.7899, -27.1685, 42.5397, -147.643, -72.6395, 81.7498
8.22279, 58, -13.6624, -26.9565, 42.4594, -147.709, -72.704, 81.9323
8.2318, 58, -13.5353, -26.7409, 42.2982, -147.841, -72.8351, 82.2962
8.23983, 58, -13.4086, -26.5227, 42.1357, -147.972, -72.9697, 82.6592
8.24779, 58, -13.2823, -26.3015, 41.9711, -148.103, -73.1072, 83.021
8.25736, 59, -13.0934, -25.9629, 41.7212, -148.299, -73.3196, 83.5608
8.26286, 59, -13.0306, -25.8488, 41.6375, -148.364, -73.3917, 83.7401
8.27186, 59, -12.9055, -25.6188, 41.4693, -148.494, -73.5384, 84.098
8.27978, 59, -12.7809, -25.3858, 41.2992, -148.623, -73.6882, 84.454
8.28692, 59, -12.6569, -25.1504, 41.1272, -148.751, -73.841, 84.8088
8.29486, 59, -12.5335, -24.9128, 40.9547, -148.879, -73.9968, 85.1624
8.30386, 59, -12.4105, -24.6723, 40.7812, -149.006, -74.1556, 85.5138
8.31178, 59, -12.2879, -24.4293, 40.6058, -149.132, -74.3173, 85.8633
8.31979, 59, -12.1658, -24.1848, 40.429, -149.257, -74.4818, 86.2113
8.3268, 60, -12.0444, -23.9375, 40.2518, -149.381, -74.6492, 86.5572
8.33594, 60, -11.9236, -23.6877, 40.0738, -149.503, -74.8192, 86.901
8.34385, 60, -11.8036, -23.4357, 39.8942, -149.625, -74.9921, 87.2431
8.3528, 60, -11.6842, -23.1807, 39.7136, -149.746, -75.1674, 87.5829
8.35978, 60, -11.5656, -22.9237, 39.533, -149.865, -75.3455, 87.9204
8.3678, 60, -11.4477, -22.6655, 39.3515, -149.983, -75.5261, 88.2558
8.37578, 60, -11.3304, -22.4053, 39.1685, -150.1, -75.709, 88.5893
8.38379, 60, -11.2138, -22.1437, 38.985, -150.216, -75.8945, 88.9204
8.39181, 61, -11.098, -21.8805, 38.8015, -150.33, -76.0822, 89.249
8.3998, 61, -10.9832, -21.6145, 38.6168, -150.442, -76.2722, 89.5755
8.40857, 61, -10.8691, -21.3474, 38.4311, -150.553, -76.4646, 89.8989
8.41621, 61, -10.7558, -21.0789, 38.2459, -150.663, -76.659, 90.2196
8.42288, 61, -10.6434, -20.8085, 38.0608, -150.771, -76.8558, 90.5377
8.43178, 61, -10.5318, -20.5371, 37.8745, -150.877, -77.0548, 90.8533
8.43988, 61, -10.421, -20.2639, 37.6879, -150.982, -77.2556, 91.1659
8.44778, 61, -10.3109, -19.9889, 37.5017, -151.085, -77.4584, 91.4756
8.45584, 61, -10.2019, -19.7133, 37.3149, -151.186, -77.6632, 91.7827
8.46379, 62, -10.0939, -19.4361, 37.1274, -151.286, -77.8695, 92.0864
8.47179, 62, -9.9868, -19.1582, 36.9408, -151.384, -78.0775, 92.3868
8.48003, 62, -9.88053, -18.8794, 36.7548, -151.48, -78.2871, 92.6842
8.48775, 62, -9.77533, -18.5991, 36.5681, -151.574, -78.4982, 92.9787
8.49578, 62, -9.67115, -18.3188, 36.3811, -151.666, -78.7104, 93.2697
8.50385, 62, -9.56776, -18.0382, 36.1949, -151.756, -78.9243, 93.5573
8.51183, 62, -9.46503, -17.7572, 36.0088, -151.844, -79.1395, 93.8421
8.51988, 62, -9.3632, -17.476, 35.8223, -151.931, -79.356, 94.1233
8.52802, 63, -9.2624, -17.1936, 35.637, -152.016, -79.5736, 94.4007
8.53583, 63, -9.16251, -16.9109, 35.4526, -152.098, -79.7924, 94.6744
8.54392, 63, -9.06361, -16.6279, 35.268, -152.179, -80.0124, 94.9443
8.55231, 63, -8.9656, -16.3443, 35.0834, -152.258, -80.2335, 95.2108
8.5607, 63, -8.86855, -16.061, 34.9001, -152.334, -80.4554, 95.4733
8.56795, 63, -8.77253, -15.7771, 34.7177, -152.408, -80.6783, 95.7316
8.57631, 63, -8.6775, -15.4933, 34.5354, -152.481, -80.9018, 95.9864
8.58378, 63, -8.58346, -15.2101, 34.3539, -152.552, -81.126, 96.2374
8.59199, 63, -8.49039, -14.9269, 34.1741, -152.62, -81.3505, 96.484
8.60195, 64, -8.39848, -14.6442, 33.9946, -152.686, -81.5758, 96.7264
8.60812, 64, -8.30764, -14.3612, 33.8152, -152.751, -81.8014, 96.9643
8.61683, 64, -8.2178, -14.0777, 33.6373, -152.813, -82.0272, 97.1982
8.62393, 64, -8.12885, -13.7955, 33.4609, -152.873, -82.2534, 97.428
8.63198, 64, -8.04065, -13.5139, 33.2851, -152.931, -82.4798, 97.6532
8.64048, 64, -7.95331, -13.2335, 33.1097, -152.987, -82.7066, 97.8739
8.64814, 64, -7.86682, -12.9537, 32.936, -153.041, -82.9336, 98.0902
8.65622, 64, -7.78127, -12.6739, 32.7639, -153.093, -83.1605, 98.302
8.66278, 64, -7.73887, -12.5344, 32.678, -153.118, -83.2741, 98.4061
8.67236, 65, -7.61328, -12.1178, 32.4215, -153.19, -83.6148, 98.7113
8.68137, 65, -7.53071, -11.8408, 32.2528, -153.235, -83.8418, 98.9087
8.68929, 65, -7.44935, -11.565, 32.0854, -153.278, -84.0687, 99.101
8.69639, 65, -7.369, -11.2893, 31.9187, -153.32, -84.2953, 99.2883
8.70435, 65, -7.3292, -11.1517, 31.8358, -153.36, -84.5218, 99.4708
8.71176, 65, -7.25036, -10.8779, 31.6713, -153.378, -84.6349, 99.5602
8.71881, 65, -7.17241, -10.605, 31.5087, -153.414, -84.8609, 99.7352
8.72887, 65, -7.05707, -10.1982, 31.2667, -153.465, -85.1991, 99.9878
8.73573, 66, -7.01917, -10.0632, 31.1866, -153.481, -85.3117, 100.069
8.74282, 66, -6.94386, -9.79342, 31.028, -153.512, -85.5363, 100.228
8.75192, 66, -6.86938, -9.52512, 30.8711, -153.539, -85.7607, 100.382
8.75882, 66, -6.79581, -9.25879, 30.7152, -153.565, -85.9845, 100.529
8.76781, 66, -6.72298, -8.99361, 30.5606, -153.59, -86.2077, 100.672
8.77579, 66, -6.65096, -8.73053, 30.4078, -153.612, -86.4302, 100.809
8.78376, 66, -6.5797, -8.46885, 30.2568, -153.633, -86.6521, 100.94
8.79182, 66, -6.50935, -8.20796, 30.1072, -153.651, -86.8735, 101.065
8.79976, 66, -6.43999, -7.94908, 29.9589, -153.668, -87.0942, 101.185
8.80784, 67, -6.37147, -7.69174, 29.8123, -153.683, -87.3142, 101.298
8.81477, 67, -6.3038, -7.43559, 29.6674, -153.695, -87.5337, 101.405
8.82392, 67, -6.23701, -7.1816, 29.5241, -153.706, -87.7524, 101.507
8.83182, 67, -6.17105, -6.92885, 29.3824, -153.714, -87.9706, 101.601
8.84143, 67, -6.10594, -6.67721, 29.2422, -153.722, -88.1877, 101.733
8.84781, 67, -6.04166, -6.42796, 29.1037, -153.727, -88.4041, 101.773
8.85586, 67, -5.97804, -6.18035, 28.9669, -153.73, -88.6197, 101.85
8.86376, 67, -5.91519, -5.9343, 28.8318, -153.732, -88.8343, 101.92
8.87173, 68, -5.85314, -5.69045, 28.6982, -153.733, -89.0479, 101.983
8.87977, 68, -5.79176, -5.44769, 28.5663, -153.733, -89.2607, 102.04
8.88783, 68, -5.73112, -5.20599, 28.4358, -153.731, -89.4725, 102.091
8.89591, 68, -5.67108, -4.96677, 28.3073, -153.726, -89.6834, 102.134
8.90481, 68, -5.61167, -4.72955, 28.1803, -153.72, -89.8936, 102.171
8.91176, 68, -5.553, -4.49399, 28.0548, -153.713, -90.103, 102.201
8.91984, 68, -5.49497, -4.26092, 27.931, -153.704, -90.3116, 102.224
8.92776, 68, -5.43765, -4.02985, 27.8088, -153.693, -90.5194, 102.24
8.93576, 68, -5.38109, -3.79997, 27.6882, -153.68, -90.7265, 102.25
8.94482, 69, -5.32515, -3.57225, 27.5693, -153.665, -90.9326, 102.254
8.95095, 69, -5.26995, -3.34682, 27.4521, -153.649, -91.1381, 102.252
8.95983, 69, -5.21532, -3.12275, 27.3364, -153.631, -91.3426, 102.241
8.96957, 69, -5.16125, -2.90048, 27.2223, -153.611, -91.5462, 102.223
8.97593, 69, -5.10784, -2.68053, 27.1097, -153.59, -91.7488, 102.197
8.98383, 69, -5.05491, -2.462, 26.9987, -153.568, -91.9504, 102.164
8.99176, 69, -5.00248, -2.2448, 26.8893, -153.544, -92.1513, 102.124
8.99977, 69, -4.95081, -2.03024, 26.7816, -153.52, -92.351, 102.075
9.00796, 70, -4.89956, -1.81789, 26.6756, -153.493, -92.5498, 102.018
9.0159, 70, -4.84868, -1.60692, 26.5709, -153.465, -92.7478, 101.954
9.02394, 70, -4.79831, -1.39793, 26.4676, -153.436, -92.9449, 101.882
9.03226, 70, -4.74827, -1.1913, 26.3658, -153.406, -93.1412, 101.802
9.03922, 70, -4.69851, -0.986264, 26.2658, -153.375, -93.3366, 101.714
9.04739, 70, -4.64938, -0.782795, 26.1674, -153.343, -93.5311, 101.618
9.05618, 70, -4.60067, -0.581872, 26.0705, -153.308, -93.725, 101.515
9.0634, 70, -4.55228, -0.383533, 25.9749, -153.274, -93.9179, 101.403
9.07191, 70, -4.50442, -0.186858, 25.8806, -153.239, -94.11, 101.285
9.08033, 71, -4.45704, 0.00797349, 25.7876, -153.203, -94.3014, 101.158
9.08786, 71, -4.40988, 0.200172, 25.6963, -153.165, -94.4918, 101.023
9.09609, 71, -4.36303, 0.390234, 25.6068, -153.127, -94.6814, 100.881
9.10432, 71, -4.31641, 0.578943, 25.5186, -153.088, -94.87, 100.73
9.11185, 71, -4.26996, 0.765886, 25.4318, -153.048, -95.0579, 100.572
9.11992, 71, -4.22371, 0.950039, 25.3463, -153.007, -95.2446, 100.406
9.12677, 71, -4.20068, 1.04119, 25.304, -152.986, -95.3377, 100.321
9.13601, 71, -4.13193, 1.31247, 25.1791, -152.924, -95.6156, 100.052
9.14286, 71, -4.10903, 1.40196, 25.1383, -152.903, -95.7076, 99.9583
9.15222, 72, -4.04066, 1.66614, 25.0181, -152.839, -95.9824, 99.6665
9.15876, 72, -4.01795, 1.75299, 24.9788, -152.817, -96.0734, 99.5653
9.1693, 72, -3.94983, 2.01107, 24.8627, -152.752, -96.3452, 99.2504
9.17727, 72, -3.90446, 2.18036, 24.7869, -152.707, -96.5251, 99.0312
9.18281, 72, -3.88179, 2.26392, 24.7495, -152.686, -96.6146, 98.9187
9.19318, 72, -3.81378, 2.51059, 24.6393, -152.619, -96.8812, 98.5704
9.19876, 72, -3.79107, 2.5918, 24.6033, -152.596, -96.9695, 98.4506
9.20829, 72, -3.74579, 2.75271, 24.5322, -152.552, -97.2326, 98.0803
9.21727, 73, -3.70067, 2.9109, 24.4281, -152.485, -97.4067, 97.8247
9.2238, 73, -3.65546, 3.06631, 24.3941, -152.463, -97.4932, 97.6941
9.23176, 73, -3.6101, 3.21932, 24.3271, -152.418, -97.6652, 97.4278
9.24096, 73, -3.54202, 3.44442, 24.2292, -152.352, -97.9204, 97.0152
9.24925, 73, -3.51926, 3.59115, 24.1656, -152.308, -98.089, 96.7319
9.25485, 73, -3.4735, 3.66342, 24.1344, -152.286, -98.1727, 96.5877
9.26632, 73, -3.40453, 3.87562, 24.0424, -152.222, -98.4214, 96.1451
9.27075, 73, -3.38142, 3.9449, 24.0124, -152.2, -98.5034, 95.9944
9.27977, 73, -3.33493, 4.0814, 23.9533, -152.157, -98.666, 95.6885
9.28775, 74, -3.2882, 4.21501, 23.8957, -152.115, -98.8269, 95.3765
9.29817, 74, -3.21775, 4.40954, 23.8117, -152.054, -99.0644, 94.8979
9.30281, 74, -3.19413, 4.4728, 23.7844, -152.033, -99.1427, 94.7357
9.31181, 74, -3.14659, 4.5968, 23.7309, -151.993, -99.2973, 94.4072
9.31977, 74, -3.09885, 4.71765, 23.6788, -151.954, -99.4501, 94.0733
9.32774, 74, -3.05088, 4.83541, 23.6281, -151.916, -99.6002, 93.7342
9.33479, 74, -3.00245, 4.94985, 23.5788, -151.877, -99.7481, 93.3902
9.34375, 74, -2.9537, 5.06094, 23.531, -151.841, -99.8932, 93.0413
9.35273, 75, -2.90472, 5.16856, 23.4846, -151.806, -100.036, 92.6879
9.35875, 75, -2.8553, 5.27248, 23.4397, -151.772, -100.176, 92.3309
9.36789, 75, -2.80556, 5.37271, 23.3962, -151.738, -100.313, 91.97
9.37579, 75, -2.75568, 5.46918, 23.3541, -151.706, -100.447, 91.6049
9.38378, 75, -2.70539, 5.5618, 23.3136, -151.675, -100.579, 91.2364
9.39176, 75, -2.65454, 5.65048, 23.2746, -151.646, -100.707, 90.8645
9.39977, 75, -2.60338, 5.73508, 23.2372, -151.617, -100.832, 90.4893
9.40777, 75, -2.55176, 5.81561, 23.2013, -151.589, -100.953, 90.1117
9.41575, 75, -2.49965, 5.89191, 23.167, -151.563, -101.071, 89.7317
9.42382, 76, -2.44719, 5.96394, 23.1344, -151.539, -101.186, 89.3494
9.43174, 76, -2.39433, 6.03159, 23.1035, -151.516, -101.296, 88.9653
9.43989, 76, -2.34122, 6.09487, 23.0741, -151.495, -101.403, 88.5794
9.44732, 76, -2.28782, 6.15365, 23.0466, -151.475, -101.506, 88.1917
9.45575, 76, -2.23397, 6.208, 23.0208, -151.456, -101.604, 87.803
9.46375, 76, -2.17975, 6.25765, 22.9969, -151.438, -101.698, 87.413
9.47186, 76, -2.12523, 6.30245, 22.9747, -151.422, -101.788, 87.0219
9.47976, 76, -2.07032, 6.34252, 22.9543, -151.408, -101.874, 86.6303
9.4878, 77, -2.01506, 6.37774, 22.9359, -151.395, -101.954, 86.2381
9.49581, 77, -1.9595, 6.40774, 22.9193, -151.384, -102.03, 85.8464
9.50374, 77, -1.90366, 6.43274, 22.9046, -151.374, -102.101, 85.4555
9.51355, 77, -1.84757, 6.45284, 22.8921, -151.366, -102.167, 85.0648
9.51995, 77, -1.79123, 6.46741, 22.8815, -151.358, -102.227, 84.6747
9.52783, 77, -1.73449, 6.47657, 22.873, -151.353, -102.283, 84.2854
9.53596, 77, -1.67756, 6.48067, 22.8666, -151.349, -102.333, 83.8967
9.54381, 77, -1.62043, 6.47987, 22.8622, -151.346, -102.377, 83.5096
9.55189, 77, -1.56301, 6.47368, 22.8599, -151.344, -102.416, 83.1239
9.56028, 78, -1.50552, 6.46204, 22.8595, -151.343, -102.45, 82.7395
9.568, 78, -1.44778, 6.4448, 22.8612, -151.343, -102.478, 82.3572
9.57662, 78, -1.38996, 6.4216, 22.8652, -151.344, -102.499, 81.9766
9.58385, 78, -1.33208, 6.39282, 22.8715, -151.346, -102.515, 81.5984
9.59175, 78, -1.27392, 6.35846, 22.8802, -151.35, -102.525, 81.2228
9.59982, 78, -1.21576, 6.31818, 22.8915, -151.355, -102.529, 80.8496
9.60805, 78, -1.15752, 6.27198, 22.905, -151.361, -102.528, 80.4786
9.61491, 78, -1.12831, 6.24674, 22.9127, -151.365, -102.525, 80.2943
9.62421, 79, -1.04069, 6.16191, 22.94, -151.378, -102.506, 79.7453
9.63074, 79, -1.01145, 6.13058, 22.9504, -151.382, -102.497, 79.5635
9.64039, 79, -0.923385, 6.02737, 22.9854, -151.398, -102.459, 79.0234
9.65209, 79, -0.835333, 5.91035, 23.0265, -151.416, -102.406, 78.4902
9.65475, 79, -0.835333, 5.91035, 23.0265, -151.416, -102.406, 78.4902
9.66602, 79, -0.74715, 5.77984, 23.0737, -151.437, -102.338, 77.9641
9.67306, 79, -0.688497, 5.68521, 23.1088, -151.452, -102.284, 77.6175
9.6788, 79, -0.659133, 5.63559, 23.1274, -151.46, -102.254, 77.4453
9.68837, 79, -0.571136, 5.47753, 23.1874, -151.485, -102.157, 76.9344
9.69712, 80, -0.512503, 5.36426, 23.2311, -151.502, -102.082, 76.5986
9.70286, 80, -0.48321, 5.30531, 23.2541, -151.511, -102.043, 76.4319
9.71235, 80, -0.424676, 5.1828, 23.3275, -151.538, -101.914, 75.9372
9.72059, 80, -0.366228, 5.05406, 23.3534, -151.556, -101.819, 75.6121
9.72975, 80, -0.278616, 4.84932, 23.436, -151.576, -101.718, 75.2906
9.73578, 80, -0.249471, 4.77789, 23.4651, -151.586, -101.664, 75.1311
9.74375, 80, -0.191171, 4.63026, 23.5257, -151.607, -101.553, 74.8151
9.75178, 80, -0.132939, 4.47666, 23.5894, -151.628, -101.434, 74.5032
9.75973, 80, -0.0747425, 4.31726, 23.6564, -151.649, -101.308, 74.1948
9.76789, 81, -0.0164728, 4.15155, 23.7264, -151.67, -101.176, 73.8899
9.77789, 81, 0.0707808, 3.89071, 23.8375, -151.702, -100.965, 73.4393
9.78374, 81, 0.0998356, 3.80075, 23.8763, -151.713, -100.891, 73.2908
9.79526, 81, 0.186788, 3.52307, 23.9975, -151.746, -100.658, 72.8511
9.79972, 81, 0.215652, 3.4277, 24.0397, -151.758, -100.577, 72.7064
9.80772, 81, 0.273283, 3.23183, 24.1267, -151.781, -100.41, 72.4201
9.81474, 81, 0.330812, 3.02939, 24.2172, -151.803, -100.236, 72.1374
9.82374, 81, 0.388232, 2.8217, 24.3112, -151.826, -100.056, 71.8582
9.83171, 82, 0.445797, 2.60857, 24.4086, -151.848, -99.868, 71.5823
9.84125, 82, 0.503157, 2.38877, 24.5092, -151.87, -99.6737, 71.3101
9.84774, 82, 0.56046, 2.16283, 24.6134, -151.893, -99.4731, 71.0412
9.85578, 82, 0.617879, 1.93133, 24.7213, -151.916, -99.2658, 70.7756
9.86382, 82, 0.675106, 1.69311, 24.833, -151.938, -99.0518, 70.5134
9.87187, 82, 0.732196, 1.44871, 24.9485, -151.96, -98.8312, 70.2548
9.8797, 82, 0.789317, 1.19876, 25.0675, -151.982, -98.6041, 69.9998
9.88779, 82, 0.846448, 0.942503, 25.1898, -152.003, -98.3706, 69.7481
9.89572, 82, 0.903645, 0.680746, 25.3157, -152.025, -98.1309, 69.4993
9.90374, 83, 0.960967, 0.413644, 25.4454, -152.047, -97.8851, 69.2537
9.91176, 83, 1.01828, 0.140115, 25.579, -152.068, -97.6334, 69.0115
9.92003, 83, 1.07563, -0.138511, 25.7163, -152.088, -97.3755, 68.7721
9.93111, 83, 1.13297, -0.56593, 25.9284, -152.117, -96.9769, 68.419
9.93572, 83, 1.19025, -0.710892, 26.001, -152.127, -96.8408, 68.3028
9.94707, 83, 1.27626, -1.15305, 26.2243, -152.155, -96.4244, 67.9592
9.95172, 83, 1.30492, -1.30329, 26.3004, -152.164, -96.2828, 67.8464
9.95972, 83, 1.36236, -1.60738, 26.4553, -152.183, -95.995, 67.6228
9.96779, 84, 1.41988, -1.91671, 26.6139, -152.2, -95.702, 67.4022
9.97573, 84, 1.47753, -2.23114, 26.7765, -152.218, -95.4034, 67.1846
9.98375, 84, 1.53539, -2.54993, 26.9426, -152.234, -95.0994, 66.9703
9.99179, 84, 1.5934, -2.87383, 27.1115, -152.249, -94.7897, 66.7594
9.99997, 84, 1.65145, -3.20198, 27.2838, -152.264, -94.4745, 66.5516
10.0078, 84, 1.70967, -3.53507, 27.4607, -152.278, -94.1545, 66.3467
10.0157, 84, 1.76803, -3.87196, 27.6415, -152.291, -93.8293, 66.1447
10.0239, 84, 1.82656, -4.21331, 27.8248, -152.304, -93.4996, 65.9456
10.0317, 84, 1.88528, -4.55897, 28.0109, -152.317, -93.1652, 65.7498
10.0398, 85, 1.94424, -4.90918, 28.2012, -152.328, -92.8261, 65.5569
10.0479, 85, 2.00351, -5.26288, 28.3946, -152.339, -92.4827, 65.3673
10.056, 85, 2.06301, -5.61991, 28.5906, -152.349, -92.1351, 65.1807
10.0638, 85, 2.12256, -5.98024, 28.7906, -152.358, -91.7833, 64.9974
10.074, 85, 2.18236, -6.34369, 28.9943, -152.365, -91.4273, 64.8174
10.08, 85, 2.24239, -6.71, 29.2005, -152.372, -91.0677, 64.6409
10.0888, 85, 2.30267, -7.07903, 29.4095, -152.378, -90.7045, 64.4677
10.0957, 85, 2.36315, -7.45127, 29.622, -152.383, -90.3376, 64.2973
10.1037, 86, 2.42387, -7.82695, 29.8365, -152.386, -89.9675, 64.1304
10.1118, 86, 2.48514, -8.20534, 30.0536, -152.389, -89.5941, 63.9669
10.1198, 86, 2.54677, -8.58616, 30.2741, -152.39, -89.2175, 63.8072
10.1279, 86, 2.6087, -8.96925, 30.4968, -152.391, -88.8379, 63.6513
10.136, 86, 2.67101, -9.35456, 30.7219, -152.391, -88.4559, 63.4995
10.1428, 86, 2.70225, -9.54787, 30.8357, -152.391, -88.2638, 63.425
10.1531, 86, 2.79628, -10.1302, 31.18, -152.389, -87.6838, 63.2073
10.1601, 86, 2.85918, -10.5205, 31.4121, -152.386, -87.2943, 63.0669
10.1681, 86, 2.92221, -10.9124, 31.6469, -152.381, -86.9027, 62.9302
10.1747, 87, 2.95387, -11.1086, 31.7649, -152.379, -86.7061, 62.8634
10.1843, 87, 3.04923, -11.6988, 32.1215, -152.368, -86.1136, 62.6696
10.1931, 87, 3.11329, -12.0938, 32.3618, -152.359, -85.7166, 62.5463
10.1992, 87, 3.14549, -12.2919, 32.4823, -152.354, -85.5175, 62.4866
10.2086, 87, 3.24263, -12.8862, 32.847, -152.337, -84.9182, 62.3147
10.2163, 87, 3.27514, -13.0847, 32.9696, -152.33, -84.7177, 62.2058
10.225, 87, 3.34028, -13.482, 33.2155, -152.315, -84.3157, 62.1017
10.2317, 87, 3.40563, -13.8801, 33.4627, -152.3, -83.9128, 62.0513
10.2405, 88, 3.47121, -14.2779, 33.7112, -152.283, -83.5089, 61.9081
10.2493, 88, 3.53688, -14.676, 33.9603, -152.264, -83.1044, 61.8628
10.2558, 88, 3.60284, -15.0738, 34.2114, -152.245, -82.6991, 61.7768
10.2637, 88, 3.66919, -15.4715, 34.4634, -152.223, -82.2933, 61.696
10.2751, 88, 3.76918, -16.0662, 34.843, -152.187, -81.6839, 61.587
10.2799, 88, 3.80245, -16.264, 34.97, -152.174, -81.4808, 61.5534
10.2877, 88, 3.86912, -16.6596, 35.224, -152.147, -81.0742, 61.4905
10.2958, 88, 3.93604, -17.0544, 35.4791, -152.119, -80.6675, 61.4342
10.3037, 88, 4.00303, -17.4482, 35.7349, -152.09, -80.2612, 61.3839
10.3117, 89, 4.07011, -17.841, 35.9906, -152.058, -79.8546, 61.3394
10.3198, 89, 4.13727, -18.233, 36.2474, -152.024, -79.4481, 61.3016
10.3279, 89, 4.20466, -18.6235, 36.5041, -151.989, -79.0415, 61.2713
10.3357, 89, 4.27214, -19.0129, 36.7611, -151.952, -78.6352, 61.2486
10.3452, 89, 4.33963, -19.401, 37.0182, -151.912, -78.2297, 61.2336
10.3517, 89, 4.40726, -19.7881, 37.2748, -151.87, -77.8251, 61.2257
10.3607, 89, 4.47466, -20.1729, 37.5322, -151.827, -77.4208, 61.2236
10.3677, 89, 4.54215, -20.5562, 37.7896, -151.783, -77.0173, 61.2286
10.3758, 89, 4.60958, -20.9374, 38.0467, -151.735, -76.6143, 61.2421
10.3837, 90, 4.67702, -21.3172, 38.3041, -151.686, -76.2114, 61.2633
10.3917, 90, 4.74436, -21.6947, 38.5607, -151.635, -75.8092, 61.2931
10.401, 90, 4.81163, -22.0706, 38.8174, -151.582, -75.4076, 61.3318
10.4079, 90, 4.87887, -22.4446, 39.0738, -151.527, -75.0067, 61.3792
10.4158, 90, 4.94611, -22.8173, 39.3295, -151.469, -74.6069, 61.4352
10.4268, 90, 5.04704, -23.3722, 39.7131, -151.379, -74.0083, 61.5381
10.4317, 90, 5.08062, -23.5564, 39.8405, -151.348, -73.8091, 61.5768
10.4398, 90, 5.1478, -23.9229, 40.0952, -151.283, -73.4114, 61.6616
10.4477, 91, 5.21484, -24.2873, 40.3495, -151.217, -73.0141, 61.757
10.4557, 91, 5.28168, -24.6486, 40.6027, -151.148, -72.6177, 61.8619
10.4638, 91, 5.3483, -25.0079, 40.856, -151.077, -72.2216, 61.9774
10.4717, 91, 5.41463, -25.3649, 41.1086, -151.003, -71.8262, 62.103
10.4799, 91, 5.48094, -25.7204, 41.3604, -150.928, -71.4313, 62.2395
10.4884, 91, 5.54733, -26.0733, 41.6121, -150.85, -71.0375, 62.3868
10.4958, 91, 5.61388, -26.424, 41.8624, -150.77, -70.6442, 62.5451
10.5037, 91, 5.68039, -26.7725, 42.1122, -150.687, -70.2513, 62.7153
10.5117, 91, 5.747, -27.1189, 42.3613, -150.603, -69.8591, 62.8968
10.5198, 92, 5.81366, -27.4629, 42.6089, -150.516, -69.4673, 63.0901
10.528, 92, 5.88009, -27.8043, 42.8562, -150.427, -69.0757, 63.2949
10.5359, 92, 5.94665, -28.1441, 43.1028, -150.336, -68.6842, 63.5119
10.5437, 92, 6.01333, -28.4816, 43.3484, -150.243, -68.2929, 63.7411
10.5551, 92, 6.0802, -28.817, 43.5935, -150.148, -67.9017, 64.1087
10.56, 92, 6.14721, -29.149, 43.8368, -150.051, -67.5111, 64.2374
10.5678, 92, 6.21444, -29.4791, 44.079, -149.953, -67.1205, 64.5045
10.5758, 92, 6.28206, -29.8064, 44.3207, -149.854, -66.7302, 64.7847
10.5838, 93, 6.3501, -30.1313, 44.5606, -149.753, -66.3401, 65.0789
10.5919, 93, 6.41852, -30.4533, 44.7998, -149.65, -65.9497, 65.3873
10.6004, 93, 6.48745, -30.7724, 45.0378, -149.546, -65.5595, 65.7102
10.608, 93, 6.55735, -31.0899, 45.2737, -149.441, -65.1692, 66.0485
10.6167, 93, 6.62796, -31.4048, 45.5087, -149.335, -64.7789, 66.4022
10.624, 93, 6.69922, -31.7174, 45.7419, -149.228, -64.3886, 66.7706
10.6307, 93, 6.73517, -31.8723, 45.8576, -149.175, -64.1934, 66.9602
10.6407, 93, 6.84424, -32.3322, 46.2031, -149.015, -63.6075, 67.5509
10.648, 93, 6.91829, -32.6355, 46.4314, -148.909, -63.2167, 67.9624
10.6561, 94, 6.99341, -32.9351, 46.6572, -148.804, -62.8258, 68.3896
10.6628, 94, 7.03139, -33.0838, 46.7696, -148.752, -62.6304, 68.6092
10.6725, 94, 7.14768, -33.524, 47.1027, -148.596, -62.0446, 69.2934
10.6806, 94, 7.22744, -33.8133, 47.321, -148.494, -61.6541, 69.7711
10.6905, 94, 7.30898, -34.0994, 47.5375, -148.394, -61.2639, 70.2648
10.6964, 94, 7.39223, -34.3811, 47.7512, -148.296, -60.8737, 70.7752
10.7043, 94, 7.47743, -34.6593, 47.9618, -148.2, -60.4839, 71.301
10.7123, 94, 7.52079, -34.9327, 48.17, -148.109, -60.0944, 71.8422
10.7197, 95, 7.60894, -35.0674, 48.2729, -148.065, -59.8998, 72.1181
10.7287, 95, 7.74498, -35.4646, 48.5748, -147.938, -59.3185, 72.97
10.7357, 95, 7.79146, -35.5945, 48.6734, -147.899, -59.1255, 73.2622
10.7428, 95, 7.88628, -35.8506, 48.8679, -147.823, -58.7406, 73.8597
10.7577, 95, 8.08401, -36.3482, 49.2426, -147.686, -57.9762, 75.1046
10.7599, 95, 8.08401, -36.3482, 49.2426, -147.686, -57.9762, 75.1046
10.769, 95, 8.23881, -36.7045, 49.5123, -147.599, -57.4071, 76.0804
10.7748, 95, 8.29171, -36.8203, 49.6, -147.573, -57.2186, 76.4126
10.7837, 95, 8.39948, -37.0468, 49.7712, -147.527, -56.8434, 77.0871
10.7917, 96, 8.50976, -37.2655, 49.9367, -147.489, -56.4711, 77.7756
10.7997, 96, 8.62249, -37.4766, 50.0967, -147.458, -56.1029, 78.4776
10.8077, 96, 8.73791, -37.6807, 50.2501, -147.436, -55.7398, 79.1924
10.8158, 96, 8.85635, -37.8773, 50.3963, -147.423, -55.3819, 79.9225
10.8237, 96, 8.97775, -38.0658, 50.5356, -147.417, -55.0295, 80.6658
10.8317, 96, 9.10151, -38.246, 50.6683, -147.42, -54.682, 81.4203
10.8398, 96, 9.22746, -38.4172, 50.7942, -147.432, -54.3396, 82.1871
10.8477, 96, 9.35573, -38.5787, 50.9135, -147.454, -54.003, 82.9642
10.8562, 96, 9.48575, -38.7298, 51.0255, -147.486, -53.6727, 83.7497
10.8628, 97, 9.61709, -38.8704, 51.1296, -147.526, -53.3497, 84.5454
10.8717, 97, 9.74998, -39.001, 51.2252, -147.578, -53.0354, 85.3484
10.8825, 97, 9.95315, -39.1791, 51.3517, -147.673, -52.5832, 86.5642
10.8878, 97, 10.0217, -39.2332, 51.3893, -147.71, -52.4378, 86.9738
10.8957, 97, 10.1596, -39.3331, 51.458, -147.791, -52.1547, 87.7956
10.9037, 97, 10.2986, -39.4212, 51.5182, -147.88, -51.8812, 88.6227
10.9118, 97, 10.438, -39.497, 51.5701, -147.978, -51.6172, 89.4559
10.9197, 97, 10.5774, -39.5606, 51.6135, -148.084, -51.3631, 90.29
10.9277, 98, 10.7161, -39.6116, 51.6479, -148.198, -51.1196, 91.1264
10.9358, 98, 10.8541, -39.6498, 51.6729, -148.32, -50.8885, 91.9645
10.9437, 98, 10.9915, -39.6763, 51.6884, -148.45, -50.6714, 92.7999
10.9517, 98, 11.1286, -39.6917, 51.6938, -148.588, -50.4689, 93.6359
10.9597, 98, 11.2651, -39.6956, 51.6892, -148.731, -50.2815, 94.4686
10.9677, 98, 11.4004, -39.6869, 51.6749, -148.881, -50.1079, 95.2973
10.9758, 98, 11.534, -39.6651, 51.6514, -149.035, -49.9481, 96.1245
10.9837, 98, 11.6658, -39.6304, 51.6189, -149.194, -49.8016, 96.9459
10.9918, 98, 11.7951, -39.5824, 51.5773, -149.357, -49.6686, 97.7634
10.9997, 99, 11.9218, -39.521, 51.5265, -149.523, -49.55, 98.5759
11.0077, 99, 12.0461, -39.4469, 51.466, -149.692, -49.4471, 99.378
11.0158, 99, 12.1681, -39.3608, 51.3955, -149.863, -49.3611, 100.173
11.024, 99, 12.2875, -39.263, 51.315, -150.036, -49.2913, 100.959
11.033, 99, 12.4035, -39.1527, 51.2246, -150.21, -49.2388, 101.733
11.0397, 99, 12.5158, -39.0294, 51.1249, -150.384, -49.2022, 102.499
11.0478, 99, 12.6245, -38.8934, 51.0164, -150.558, -49.1807, 103.254
11.0558, 99, 12.7293, -38.745, 50.8994, -150.73, -49.1732, 103.997
11.0638, 100, 12.8302, -38.5843, 50.7737, -150.902, -49.1806, 104.731
11.0719, 100, 12.927, -38.4124, 50.6392, -151.071, -49.2036, 105.452
11.0798, 100, 13.0201, -38.2297, 50.4958, -151.238, -49.2426, 106.159
11.0878, 100, 13.1095, -38.0357, 50.3439, -151.402, -49.2997, 106.854
11.0959, 100, 13.1948, -37.8301, 50.1839, -151.563, -49.3727, 107.535
11.1038, 100, 13.2753, -37.6136, 50.0156, -151.721, -49.4622, 108.201
11.1118, 100, 13.3512, -37.3859, 49.8389, -151.874, -49.5667, 108.853
11.1198, 100, 13.4225, -37.1465, 49.6547, -152.022, -49.6861, 109.493
11.1278, 100, 13.4893, -36.8964, 49.4632, -152.166, -49.8197, 110.117
11.1359, 101, 13.5515, -36.6351, 49.2634, -152.305, -49.9681, 110.729
11.144, 101, 13.6095, -36.3627, 49.0554, -152.439, -50.1315, 111.326
11.1507, 101, 13.6369, -36.2231, 48.9489, -152.504, -50.2189, 111.619
11.1601, 101, 13.7131, -35.7901, 48.618, -152.689, -50.5039, 112.475
11.1667, 101, 13.7364, -35.6408, 48.5037, -152.749, -50.6062, 112.754
11.1762, 101, 13.7996, -35.179, 48.1512, -152.917, -50.9338, 113.566
11.1848, 101, 13.8362, -34.858, 47.908, -153.022, -51.1687, 114.091
11.1923, 101, 13.8686, -34.5277, 47.6585, -153.121, -51.4158, 114.601
11.2003, 102, 13.8966, -34.1876, 47.4035, -153.214, -51.6752, 115.099
11.2083, 102, 13.9206, -33.8388, 47.1416, -153.3, -51.9472, 115.583
11.2171, 102, 13.9311, -33.481, 46.8741, -153.38, -52.2321, 116.054
11.2242, 102, 13.9494, -33.2996, 46.7381, -153.418, -52.3793, 116.284
11.2332, 102, 13.9645, -32.9315, 46.4612, -153.489, -52.6835, 116.733
11.2397, 102, 13.9761, -32.5555, 46.1793, -153.554, -52.9997, 117.169
11.2477, 102, 13.9841, -32.1711, 45.892, -153.613, -53.3265, 117.593
11.2557, 102, 13.9888, -31.7792, 45.6002, -153.666, -53.6636, 118.005
11.2627, 102, 13.9901, -31.3802, 45.3039, -153.713, -54.0101, 118.405
11.2717, 103, 13.9882, -30.9743, 45.0032, -153.755, -54.3657, 118.794
11.2797, 103, 13.983, -30.5611, 44.6988, -153.792, -54.7306, 119.171
11.2877, 103, 13.9748, -30.1418, 44.39, -153.822, -55.1053, 119.536
11.2957, 103, 13.9643, -29.7171, 44.0773, -153.847, -55.4894, 119.89
11.3037, 103, 13.9515, -29.2871, 43.7603, -153.866, -55.8833, 120.233
11.3117, 103, 13.9362, -28.8509, 43.4402, -153.881, -56.2856, 120.565
11.3197, 103, 13.9184, -28.4088, 43.1169, -153.89, -56.6953, 120.887
11.3278, 103, 13.8982, -27.9619, 42.7919, -153.896, -57.1115, 121.2
11.3357, 104, 13.8758, -27.5096, 42.4643, -153.897, -57.5334, 121.503
11.3437, 104, 13.8511, -27.0522, 42.1352, -153.894, -57.9614, 121.797
11.3517, 104, 13.8243, -26.5912, 41.8035, -153.886, -58.3953, 122.082
11.3614, 104, 13.7961, -26.127, 41.4698, -153.873, -58.8355, 122.356
11.3677, 104, 13.7667, -25.6601, 41.1342, -153.856, -59.282, 122.621
11.3758, 104, 13.736, -25.1909, 40.7981, -153.835, -59.734, 122.877
11.3837, 104, 13.7044, -24.7193, 40.4604, -153.811, -60.19, 123.125
11.3917, 104, 13.6721, -24.2459, 40.1221, -153.782, -60.6489, 123.368
11.3997, 104, 13.639, -23.7708, 39.7835, -153.751, -61.1099, 123.605
11.4077, 104, 13.6051, -23.2942, 39.4461, -153.717, -61.5719, 123.84
11.4157, 104, 13.5706, -22.8171, 39.1093, -153.682, -62.0346, 124.073
11.4237, 104, 13.5356, -22.3397, 38.774, -153.645, -62.4973, 124.304
11.4317, 104, 13.5005, -21.8627, 38.4393, -153.605, -62.9598, 124.533
11.4397, 104, 13.4655, -21.3869, 38.1061, -153.564, -63.4221, 124.762
11.4476, 104, 13.4304, -20.9117, 37.7741, -153.522, -63.8839, 124.99
11.4557, 104, 13.3953, -20.4377, 37.4438, -153.477, -64.3448, 125.217
11.4637, 104, 13.3606, -19.9643, 37.1144, -153.43, -64.8053, 125.443
11.4717, 104, 13.3261, -19.4913, 36.787, -153.383, -65.2655, 125.667
11.4797, 104, 13.2914, -19.0192, 36.4605, -153.334, -65.7249, 125.891
11.4877, 104, 13.2568, -18.5478, 36.1358, -153.283, -66.1838, 126.115
11.4957, 104, 13.2224, -18.077, 35.8124, -153.231, -66.6428, 126.338
11.5037, 104, 13.188, -17.6072, 35.4912, -153.177, -67.1007, 126.56
11.5117, 104, 13.1537, -17.1382, 35.1709, -153.122, -67.5578, 126.781
11.5197, 104, 13.1195, -16.6704, 34.8522, -153.065, -68.0141, 127.002
11.5277, 104, 13.0854, -16.2036, 34.5345, -153.006, -68.4696, 127.223
11.5358, 104, 13.0517, -15.7377, 34.2192, -152.947, -68.9247, 127.443
11.5437, 104, 13.0183, -15.2728, 33.9052, -152.885, -69.3793, 127.662
11.5517, 104, 12.9853, -14.809, 33.593, -152.823, -69.8332, 127.881
11.5598, 104, 12.9523, -14.3456, 33.282, -152.759, -70.2867, 128.099
11.5678, 104, 12.9198, -13.883, 32.9729, -152.693, -70.7391, 128.317
11.5758, 104, 12.8873, -13.4212, 32.6657, -152.627, -71.1903, 128.535
11.5838, 104, 12.8549, -12.9605, 32.3599, -152.558, -71.6409, 128.752
11.5918, 104, 12.8227, -12.5011, 32.0561, -152.489, -72.0908, 128.969
11.5997, 104, 12.7904, -12.0428, 31.7536, -152.418, -72.54, 129.186
11.6078, 104, 12.7585, -11.586, 31.4533, -152.346, -72.9883, 129.402
11.6202, 104, 12.7113, -10.9022, 31.0052, -152.235, -73.6594, 129.727
