rpiRobotics/ARM-21-02-F-19-Robot-Motion-Program/data_performance_abb/curve_1/baseline/100L/realrobot/bisect/run_0realrobot_curve_exe_v103.125_z10.csv
timestamp, cmd_num, J1, J2, J3, J4, J5, J6
0.000419, -1, 11.3785, 13.6124, 17.3402, -145.519, -97.9231, 142.516
0.004006, -1, 11.3785, 13.6124, 17.3402, -145.519, -97.9231, 142.516
0.008047, -1, 11.3785, 13.6124, 17.3402, -145.519, -97.9231, 142.516
0.033681, -1, 11.3785, 13.6124, 17.3401, -145.519, -97.9232, 142.516
0.035678, -1, 11.3785, 13.6124, 17.3401, -145.519, -97.9232, 142.516
0.037048, -1, 11.3785, 13.6124, 17.3401, -145.519, -97.9232, 142.516
0.039715, -1, 11.3785, 13.6124, 17.3401, -145.519, -97.9232, 142.516
0.048848, -1, 11.3785, 13.6124, 17.3402, -145.519, -97.9232, 142.516
0.055953, -1, 11.3777, 13.6123, 17.3401, -145.519, -97.9231, 142.516
0.063881, -1, 11.375, 13.612, 17.3401, -145.519, -97.9231, 142.516
0.071993, -1, 11.3686, 13.6111, 17.3399, -145.519, -97.9231, 142.515
0.080056, -1, 11.3575, 13.609, 17.3394, -145.519, -97.9231, 142.513
0.086702, -1, 11.3497, 13.6074, 17.339, -145.52, -97.9231, 142.51
0.096582, -1, 11.3134, 13.599, 17.3378, -145.524, -97.9224, 142.482
0.1051, -1, 11.2752, 13.5895, 17.3372, -145.531, -97.9209, 142.441
0.110767, -1, 11.2517, 13.5836, 17.3372, -145.536, -97.9195, 142.411
0.120297, -1, 11.1638, 13.5613, 17.3391, -145.559, -97.9123, 142.279
0.12913, -1, 11.0907, 13.5419, 17.343, -145.582, -97.9045, 142.148
0.134742, -1, 11.0497, 13.5307, 17.3459, -145.596, -97.8997, 142.07
0.144479, -1, 10.9588, 13.5059, 17.3534, -145.645, -97.8824, 141.785
0.15168, -1, 10.8568, 13.4776, 17.363, -145.664, -97.8758, 141.676
0.158747, -1, 10.7439, 13.4461, 17.3739, -145.705, -97.8615, 141.439
0.168769, -1, 10.5543, 13.3935, 17.3908, -145.771, -97.8387, 141.053
0.175775, -1, 10.4862, 13.3747, 17.3962, -145.793, -97.8308, 140.919
0.183674, -1, 10.3445, 13.3358, 17.4066, -145.84, -97.8148, 140.647
0.191739, -1, 10.197, 13.2957, 17.4168, -145.888, -97.7984, 140.371
0.199706, -1, 10.046, 13.2549, 17.4268, -145.935, -97.7816, 140.094
0.206696, -1, 9.89233, 13.2136, 17.4368, -145.983, -97.7645, 139.815
0.21573, -1, 9.73699, 13.1721, 17.4469, -146.031, -97.7471, 139.536
0.223678, -1, 9.58157, 13.1307, 17.4569, -146.079, -97.73, 139.257
0.230804, -1, 9.42671, 13.0895, 17.4667, -146.127, -97.7131, 138.978
0.238726, -1, 9.27217, 13.0482, 17.4766, -146.175, -97.6964, 138.698
0.247671, -1, 9.11809, 13.0071, 17.4865, -146.223, -97.6797, 138.419
0.255796, -1, 8.96446, 12.966, 17.4966, -146.272, -97.6629, 138.139
0.263672, -1, 8.81086, 12.925, 17.5067, -146.32, -97.6458, 137.859
0.27171, -1, 8.65767, 12.8839, 17.5168, -146.367, -97.6285, 137.58
0.280696, -1, 8.50495, 12.8428, 17.5269, -146.415, -97.6109, 137.3
0.287674, -1, 8.35212, 12.8015, 17.5371, -146.464, -97.5935, 137.02
0.296719, -1, 8.19886, 12.7601, 17.5472, -146.511, -97.5763, 136.74
0.303735, -1, 8.04513, 12.7186, 17.5574, -146.56, -97.5594, 136.46
0.311673, -1, 7.89088, 12.6771, 17.5675, -146.608, -97.5427, 136.18
0.319671, -1, 7.7361, 12.6355, 17.5776, -146.655, -97.526, 135.9
0.327684, -1, 7.58105, 12.5939, 17.5878, -146.703, -97.5092, 135.62
0.335764, -1, 7.42588, 12.5524, 17.5979, -146.752, -97.4922, 135.339
0.344149, -1, 7.2707, 12.511, 17.6081, -146.799, -97.4748, 135.059
0.350753, -1, 7.11559, 12.4696, 17.6184, -146.848, -97.4574, 134.779
0.359695, -1, 6.96038, 12.4284, 17.6286, -146.896, -97.4403, 134.499
0.368465, -1, 6.80528, 12.3872, 17.6389, -146.944, -97.4233, 134.219
0.375723, -1, 6.65059, 12.346, 17.6493, -146.992, -97.4064, 133.939
0.383685, -1, 6.49611, 12.3049, 17.6596, -147.04, -97.3897, 133.658
0.392455, -1, 6.34178, 12.2637, 17.67, -147.088, -97.3728, 133.378
0.399682, -1, 6.18752, 12.2223, 17.6802, -147.137, -97.3557, 133.097
0.407678, -1, 6.03321, 12.181, 17.6904, -147.185, -97.3384, 132.817
0.417134, -1, 5.87862, 12.1396, 17.7007, -147.233, -97.3209, 132.536
0.423681, -1, 5.72388, 12.098, 17.7109, -147.281, -97.3034, 132.255
0.431753, -1, 5.56898, 12.0565, 17.7211, -147.329, -97.2861, 131.975
0.439683, -1, 5.41383, 12.0149, 17.7314, -147.377, -97.2691, 131.694
0.447669, -1, 5.2584, 11.9733, 17.7416, -147.425, -97.2523, 131.413
0.455854, -1, 5.10263, 11.9317, 17.7519, -147.474, -97.2355, 131.132
0.4637, -1, 4.94669, 11.8902, 17.7624, -147.521, -97.2187, 130.851
0.47171, -1, 4.79089, 11.8487, 17.7728, -147.57, -97.2015, 130.57
0.480117, -1, 4.63512, 11.8072, 17.7831, -147.618, -97.1841, 130.289
0.621912, -1, 1.9139, 11.0802, 17.9641, -148.463, -96.8847, 125.365
0.623094, -1, 1.9139, 11.0802, 17.9641, -148.463, -96.8847, 125.365
0.625803, -1, 1.83564, 11.0595, 17.9693, -148.487, -96.876, 125.224
0.627002, -1, 1.83564, 11.0595, 17.9693, -148.487, -96.876, 125.224
0.629242, -1, 1.75742, 11.0387, 17.9745, -148.511, -96.8673, 125.083
0.630612, -1, 1.75742, 11.0387, 17.9745, -148.511, -96.8673, 125.083
0.633276, -1, 1.67923, 11.0178, 17.9797, -148.535, -96.8587, 124.942
0.637202, -1, 1.60113, 10.997, 17.985, -148.56, -96.8501, 124.801
0.775248, -1, -1.05105, 10.2877, 18.1613, -149.384, -96.5592, 119.998
0.777194, -1, -1.05105, 10.2877, 18.1613, -149.384, -96.5592, 119.998
0.779558, -1, -1.12964, 10.2668, 18.1664, -149.408, -96.5507, 119.857
0.782172, -1, -1.12964, 10.2668, 18.1664, -149.408, -96.5424, 119.715
0.783459, -1, -1.20817, 10.2459, 18.1716, -149.433, -96.5424, 119.715
0.785391, -1, -1.20817, 10.2459, 18.1716, -149.433, -96.5424, 119.574
0.786748, -1, -1.28666, 10.225, 18.1767, -149.457, -96.534, 119.574
0.7908, -1, -1.36506, 10.2041, 18.1819, -149.482, -96.5256, 119.432
0.792031, -1, -1.36506, 10.2041, 18.1819, -149.482, -96.5256, 119.432
0.794198, -1, -1.4434, 10.1833, 18.187, -149.506, -96.5172, 119.29
0.795472, -1, -1.4434, 10.1833, 18.187, -149.506, -96.5172, 119.29
0.796821, -1, -1.4434, 10.1833, 18.187, -149.506, -96.5172, 119.29
0.798858, -1, -1.52171, 10.1624, 18.1923, -149.53, -96.5088, 119.149
0.800218, -1, -1.52171, 10.1624, 18.1923, -149.53, -96.5088, 119.149
0.803626, -1, -1.59995, 10.1415, 18.1975, -149.554, -96.5003, 119.007
0.807501, -1, -1.67806, 10.1206, 18.2028, -149.579, -96.4918, 118.866
0.808721, -1, -1.67806, 10.1206, 18.2028, -149.579, -96.4918, 118.866
0.81076, -1, -1.75605, 10.0997, 18.208, -149.603, -96.4832, 118.724
0.811978, -1, -1.75605, 10.0997, 18.208, -149.603, -96.4832, 118.724
0.813841, -1, -1.83391, 10.0788, 18.2132, -149.627, -96.4746, 118.582
0.815236, -1, -1.83391, 10.0788, 18.2132, -149.627, -96.4746, 118.582
0.816556, -1, -1.83391, 10.0788, 18.2132, -149.627, -96.4746, 118.582
0.81964, -1, -1.91167, 10.0579, 18.2184, -149.652, -96.4658, 118.44
0.820893, -1, -1.91167, 10.0579, 18.2184, -149.652, -96.4658, 118.44
0.823102, -1, -1.98936, 10.037, 18.2236, -149.676, -96.4569, 118.299
0.824401, -1, -1.98936, 10.037, 18.2236, -149.676, -96.4569, 118.299
0.827115, -1, -2.06698, 10.0161, 18.2288, -149.7, -96.4481, 118.157
0.828462, -1, -2.06698, 10.0161, 18.2288, -149.7, -96.4481, 118.157
0.831173, -1, -2.14456, 9.99517, 18.234, -149.725, -96.4393, 118.015
0.832375, -1, -2.14456, 9.99517, 18.234, -149.725, -96.4393, 118.015
0.835363, -1, -2.22215, 9.97429, 18.2391, -149.749, -96.4305, 117.874
0.836705, -1, -2.22215, 9.97429, 18.2391, -149.749, -96.4305, 117.874
0.838708, -1, -2.29977, 9.95342, 18.2443, -149.773, -96.4218, 117.732
0.840029, -1, -2.29977, 9.95342, 18.2443, -149.773, -96.4218, 117.732
0.841866, -1, -2.29977, 9.95342, 18.2443, -149.797, -96.4132, 117.59
0.843351, -1, -2.37745, 9.9325, 18.2495, -149.797, -96.4132, 117.59
0.844535, -1, -2.37745, 9.9325, 18.2495, -149.797, -96.4132, 117.59
0.848671, -1, -2.45522, 9.91155, 18.2548, -149.821, -96.4047, 117.448
0.85672, -1, -2.61098, 9.86963, 18.2652, -149.87, -96.3878, 117.165
0.863738, -1, -2.76698, 9.82777, 18.2756, -149.919, -96.371, 116.881
0.871648, -1, -2.92339, 9.78586, 18.2859, -149.967, -96.3542, 116.597
0.87966, -1, -3.08026, 9.74397, 18.2963, -150.016, -96.3372, 116.314
0.887726, -1, -3.23741, 9.7021, 18.3066, -150.065, -96.3199, 116.03
0.895658, -1, -3.3951, 9.66017, 18.3171, -150.113, -96.3023, 115.746
0.903678, -1, -3.55305, 9.61824, 18.3275, -150.162, -96.2848, 115.462
0.911718, -1, -3.71085, 9.57644, 18.3379, -150.211, -96.2675, 115.178
0.91965, -1, -3.86876, 9.53455, 18.3483, -150.259, -96.2506, 114.894
0.927662, -1, -4.02676, 9.49261, 18.3586, -150.308, -96.2336, 114.61
0.935726, -1, -4.18459, 9.45078, 18.3689, -150.357, -96.2167, 114.325
0.943671, -1, -4.3423, 9.40887, 18.3792, -150.406, -96.1996, 114.041
0.951762, -1, -4.49965, 9.36692, 18.3895, -150.455, -96.1822, 113.756
0.959651, -1, -4.65668, 9.32495, 18.3998, -150.504, -96.1646, 113.472
0.967679, -1, -4.81324, 9.28298, 18.4102, -150.552, -96.1469, 113.187
0.975855, -1, -4.96951, 9.24096, 18.4207, -150.601, -96.1294, 112.903
0.983742, -1, -5.12549, 9.19898, 18.4311, -150.65, -96.1122, 112.618
0.991752, -1, -5.2814, 9.15695, 18.4416, -150.698, -96.0953, 112.333
1.0001, -1, -5.43747, 9.11483, 18.4521, -150.748, -96.0784, 112.049
1.00778, -1, -5.59364, 9.07281, 18.4624, -150.796, -96.0614, 111.764
1.01646, -1, -5.75011, 9.03076, 18.4728, -150.845, -96.0442, 111.479
1.02383, -1, -5.90707, 8.98862, 18.4832, -150.894, -96.0268, 111.194
1.03168, -1, -6.06451, 8.94652, 18.4934, -150.943, -96.0092, 110.909
1.0404, -1, -6.2225, 8.90446, 18.5038, -150.992, -95.9916, 110.624
1.04776, -1, -6.38082, 8.86238, 18.514, -151.041, -95.9743, 110.339
1.05574, -1, -6.53927, 8.82038, 18.5243, -151.09, -95.9573, 110.054
1.06472, -1, -6.69778, 8.77834, 18.5349, -151.139, -95.9403, 109.769
1.07197, -1, -6.85649, 8.73627, 18.5454, -151.188, -95.9233, 109.483
1.07992, -1, -7.01501, 8.69426, 18.5558, -151.237, -95.9062, 109.198
1.0888, -1, -7.17355, 8.65218, 18.5662, -151.286, -95.8887, 108.912
1.09613, -1, -7.33187, 8.61006, 18.5766, -151.335, -95.871, 108.626
1.10412, -1, -7.48972, 8.56783, 18.587, -151.384, -95.8532, 108.341
1.11316, -1, -7.64742, 8.52557, 18.5975, -151.433, -95.8357, 108.055
1.12022, -1, -7.80471, 8.4834, 18.6079, -151.482, -95.8186, 107.769
1.1282, -1, -7.96155, 8.44121, 18.6183, -151.531, -95.8015, 107.484
1.13712, -1, -8.11821, 8.3989, 18.6286, -151.58, -95.7846, 107.198
1.14266, -1, -8.19649, 8.37777, 18.6338, -151.605, -95.7762, 107.055
1.15266, -1, -8.43152, 8.31431, 18.6496, -151.678, -95.7505, 106.626
1.1612, -1, -8.50999, 8.29314, 18.6549, -151.702, -95.7418, 106.483
1.16765, -1, -8.66714, 8.25091, 18.6653, -151.752, -95.7241, 106.197
1.17566, -1, -8.8247, 8.20871, 18.6757, -151.801, -95.7064, 105.91
1.18371, -1, -8.98257, 8.16642, 18.6861, -151.85, -95.689, 105.624
1.19065, -1, -9.14093, 8.12421, 18.6965, -151.899, -95.6718, 105.338
1.19965, -1, -9.29969, 8.08202, 18.7069, -151.948, -95.6547, 105.051
1.20773, -1, -9.45871, 8.03973, 18.7173, -151.997, -95.6376, 104.764
1.21564, -1, -9.61788, 7.99751, 18.7277, -152.047, -95.6204, 104.478
1.22364, -1, -9.77713, 7.95536, 18.7381, -152.096, -95.603, 104.191
1.23168, -1, -9.93647, 7.91313, 18.7486, -152.145, -95.5853, 103.904
1.23966, -1, -10.0958, 7.87083, 18.7592, -152.195, -95.5674, 103.617
1.24763, -1, -10.2549, 7.82844, 18.7697, -152.244, -95.5497, 103.331
1.2557, -1, -10.4138, 7.78603, 18.7803, -152.293, -95.5323, 103.044
1.26365, -1, -10.5723, 7.74359, 18.7907, -152.343, -95.5152, 102.757
1.27164, -1, -10.7307, 7.7012, 18.8011, -152.392, -95.4982, 102.47
1.27971, -1, -10.8887, 7.6587, 18.8116, -152.441, -95.4812, 102.183
1.28968, -1, -11.1251, 7.59501, 18.8271, -152.515, -95.4553, 101.752
1.29563, -1, -11.2038, 7.57381, 18.8324, -152.539, -95.4465, 101.608
1.30371, -1, -11.3612, 7.53138, 18.8428, -152.589, -95.4287, 101.321
1.31386, -1, -11.5976, 7.46771, 18.8584, -152.663, -95.4022, 100.89
1.31967, -1, -11.6765, 7.44652, 18.8637, -152.687, -95.3935, 100.746
1.32765, -1, -11.8347, 7.40418, 18.8743, -152.737, -95.3763, 100.458
1.33564, -1, -11.9932, 7.36184, 18.8849, -152.786, -95.3591, 100.171
1.34378, -1, -12.1522, 7.31951, 18.8955, -152.835, -95.3419, 99.8828
1.35165, -1, -12.3116, 7.27713, 18.9059, -152.885, -95.3246, 99.5951
1.35994, -1, -12.4713, 7.23471, 18.9164, -152.934, -95.3071, 99.3071
1.36765, -1, -12.6313, 7.19237, 18.9269, -152.984, -95.2892, 99.0194
1.37563, -1, -12.7913, 7.14997, 18.9374, -153.033, -95.2713, 98.7317
1.38371, -1, -12.9514, 7.10751, 18.948, -153.083, -95.2536, 98.4436
1.39163, -1, -13.1114, 7.06498, 18.9585, -153.132, -95.2363, 98.1556
1.39964, -1, -13.2713, 7.02245, 18.969, -153.182, -95.2191, 97.8676
1.40844, -1, -13.4307, 6.97986, 18.9796, -153.231, -95.2021, 97.5794
1.41563, -1, -13.59, 6.93714, 18.9902, -153.28, -95.185, 97.2909
1.42363, -1, -13.7492, 6.89446, 19.0007, -153.33, -95.1677, 97.0023
1.43244, -1, -13.9079, 6.85183, 19.0112, -153.379, -95.15, 96.7139
1.43964, -1, -14.0662, 6.80915, 19.0216, -153.428, -95.1323, 96.4251
1.44765, -1, -14.2244, 6.76655, 19.0322, -153.478, -95.1145, 96.1363
1.45651, -1, -14.3826, 6.72395, 19.0426, -153.528, -95.0971, 95.8473
1.46363, -1, -14.541, 6.68129, 19.0531, -153.577, -95.0799, 95.5585
1.47173, -1, -14.6996, 6.63876, 19.0636, -153.627, -95.0628, 95.2692
1.48051, -1, -14.8587, 6.5963, 19.0741, -153.676, -95.0457, 94.98
1.48772, -1, -15.0181, 6.55373, 19.0848, -153.725, -95.0283, 94.691
1.49578, -1, -15.1778, 6.51118, 19.0955, -153.776, -95.0106, 94.402
1.50453, -1, -15.338, 6.46868, 19.1061, -153.825, -94.9925, 94.1128
1.51177, -1, -15.4985, 6.42608, 19.1167, -153.875, -94.9745, 93.8233
1.51983, -1, -15.6593, 6.38343, 19.1272, -153.925, -94.9568, 93.5343
1.52868, -1, -15.82, 6.34076, 19.1377, -153.974, -94.9394, 93.2451
1.53567, -1, -15.9807, 6.29797, 19.1484, -154.024, -94.9221, 92.9555
1.54373, -1, -16.1415, 6.25515, 19.1589, -154.074, -94.905, 92.6658
1.55256, -1, -16.3022, 6.21235, 19.1694, -154.123, -94.8877, 92.3763
1.55979, -1, -16.4626, 6.16943, 19.1799, -154.172, -94.8702, 92.0868
1.56783, -1, -16.6228, 6.12649, 19.1903, -154.222, -94.8523, 91.7968
1.57682, -1, -16.7826, 6.08363, 19.2009, -154.272, -94.8344, 91.5067
1.58405, -1, -16.942, 6.0407, 19.2115, -154.322, -94.8167, 91.2166
1.59069, -1, -17.0217, 6.01926, 19.2168, -154.347, -94.8078, 91.0716
1.60006, -1, -17.2603, 5.95495, 19.2327, -154.421, -94.7817, 90.6363
1.60827, -1, -17.4194, 5.91214, 19.2433, -154.471, -94.7644, 90.3461
1.61617, -1, -17.5788, 5.86939, 19.254, -154.521, -94.747, 90.056
1.62414, -1, -17.7383, 5.82664, 19.2646, -154.57, -94.7294, 89.7658
1.63065, -1, -17.818, 5.80527, 19.27, -154.595, -94.7205, 89.6207
1.64022, -1, -17.9778, 5.74123, 19.2859, -154.671, -94.6934, 89.185
1.64816, -1, -18.1381, 5.71988, 19.2912, -154.695, -94.6755, 88.8945
1.65472, -1, -18.2989, 5.67715, 19.3018, -154.745, -94.6667, 88.7492
1.66362, -1, -18.4601, 5.6344, 19.3125, -154.795, -94.6491, 88.4584
1.67162, -1, -18.6216, 5.59149, 19.3232, -154.845, -94.6319, 88.1674
1.67865, -1, -18.7831, 5.54855, 19.3338, -154.895, -94.6146, 87.8766
1.68764, -1, -18.9448, 5.5056, 19.3444, -154.945, -94.5973, 87.5858
1.69563, -1, -19.1063, 5.46254, 19.3549, -154.995, -94.5795, 87.2944
1.70263, -1, -19.2678, 5.41941, 19.3655, -155.045, -94.5616, 87.0032
1.71163, -1, -19.4291, 5.37631, 19.3761, -155.095, -94.5435, 86.7118
1.71967, -1, -19.5901, 5.33314, 19.3866, -155.144, -94.5257, 86.4203
1.72762, -1, -19.7508, 5.29002, 19.3972, -155.195, -94.508, 86.1286
1.73562, -1, -19.9113, 5.24695, 19.4077, -155.245, -94.4906, 85.8372
1.74372, -1, -20.0716, 5.20383, 19.4185, -155.294, -94.4732, 85.5457
1.75396, -1, -20.3113, 5.13942, 19.4346, -155.37, -94.4471, 85.1083
1.75962, -1, -20.3913, 5.11799, 19.44, -155.395, -94.4382, 84.9624
1.76665, -1, -20.5513, 5.07501, 19.4508, -155.445, -94.4203, 84.6708
1.77566, -1, -20.7115, 5.03205, 19.4614, -155.495, -94.4022, 84.379
1.78269, -1, -20.872, 4.98921, 19.472, -155.545, -94.3843, 84.0872
1.7917, -1, -21.033, 4.94627, 19.4827, -155.595, -94.3668, 83.7949
1.80067, -1, -21.1942, 4.90326, 19.4933, -155.646, -94.3494, 83.503
1.80762, -1, -21.356, 4.86019, 19.5039, -155.696, -94.3322, 83.211
1.81568, -1, -21.5182, 4.81702, 19.5145, -155.746, -94.315, 82.9187
1.82361, -1, -21.6803, 4.77383, 19.5252, -155.796, -94.2976, 82.6262
1.83163, -1, -21.8427, 4.73063, 19.5359, -155.846, -94.28, 82.3337
1.83969, -1, -22.0051, 4.68729, 19.5466, -155.896, -94.262, 82.0411
1.84761, -1, -22.1675, 4.64395, 19.5574, -155.947, -94.2441, 81.7483
1.85564, -1, -22.33, 4.60063, 19.568, -155.997, -94.2264, 81.4556
1.86368, -1, -22.4921, 4.55728, 19.5786, -156.047, -94.209, 81.1632
1.87165, -1, -22.6538, 4.51394, 19.5893, -156.098, -94.1916, 80.8703
1.87962, -1, -22.8153, 4.47057, 19.6, -156.147, -94.1741, 80.5774
1.88768, -1, -22.9764, 4.42727, 19.6107, -156.198, -94.1564, 80.2844
1.89561, -1, -23.1374, 4.38404, 19.6214, -156.248, -94.1385, 79.9915
1.90362, -1, -23.2984, 4.3408, 19.6321, -156.298, -94.1203, 79.6982
1.91174, -1, -23.4593, 4.29764, 19.6429, -156.349, -94.1021, 79.4049
1.91961, -1, -23.6202, 4.2544, 19.6537, -156.399, -94.0842, 79.1117
1.92761, -1, -23.7814, 4.21119, 19.6645, -156.449, -94.0665, 78.8183
1.93568, -1, -23.9428, 4.16801, 19.6752, -156.5, -94.049, 78.5248
1.94362, -1, -24.1046, 4.12467, 19.6858, -156.551, -94.0316, 78.231
1.95165, -1, -24.2668, 4.0813, 19.6965, -156.601, -94.0141, 77.9372
1.95968, -1, -24.4295, 4.03793, 19.7072, -156.652, -93.9963, 77.6433
1.96762, -1, -24.5924, 3.9945, 19.7178, -156.702, -93.9782, 77.3492
1.97572, -1, -24.7556, 3.95093, 19.7284, -156.752, -93.9601, 77.0551
1.9837, -1, -24.919, 3.90742, 19.739, -156.803, -93.9423, 76.7612
1.99172, -1, -25.0824, 3.86391, 19.7498, -156.853, -93.9246, 76.4671
1.99978, -1, -25.2456, 3.82035, 19.7607, -156.903, -93.907, 76.1728
2.00772, -1, -25.4084, 3.77679, 19.7715, -156.954, -93.8895, 75.8786
2.01579, -1, -25.5711, 3.73318, 19.7823, -157.004, -93.8718, 75.5844
2.02373, -1, -25.7338, 3.68955, 19.7929, -157.055, -93.8538, 75.2898
2.03166, -1, -25.8961, 3.64613, 19.8036, -157.105, -93.8356, 74.9952
2.03979, -1, -26.0582, 3.60265, 19.8143, -157.155, -93.8172, 74.7005
2.04765, -1, -26.22, 3.55917, 19.825, -157.206, -93.799, 74.406
2.05568, -1, -26.3816, 3.51581, 19.8358, -157.257, -93.7812, 74.1113
2.06382, -1, -26.5433, 3.47241, 19.8465, -157.307, -93.7635, 73.8161
2.07185, -1, -26.7052, 3.42896, 19.8572, -157.358, -93.746, 73.5211
2.08017, -1, -26.8675, 3.38548, 19.8681, -157.409, -93.7283, 73.226
2.08838, -1, -27.0302, 3.34194, 19.8789, -157.459, -93.7104, 72.9308
2.096, -1, -27.1932, 3.29834, 19.8897, -157.51, -93.6922, 72.6355
2.10408, -1, -27.3565, 3.25479, 19.9004, -157.561, -93.6739, 72.3403
2.11059, -1, -27.4383, 3.23293, 19.9058, -157.586, -93.6648, 72.1927
2.12017, -1, -27.6842, 3.16734, 19.9219, -157.662, -93.6379, 71.7496
2.12838, -1, -27.8482, 3.12368, 19.9327, -157.712, -93.6202, 71.454
2.13624, -1, -28.0123, 3.07999, 19.9434, -157.763, -93.6025, 71.1586
2.14424, -1, -28.0943, 3.03628, 19.9542, -157.814, -93.5848, 70.8629
2.15216, -1, -28.2584, 3.01441, 19.9596, -157.839, -93.5759, 70.5669
2.16029, -1, -28.4225, 2.97065, 19.9704, -157.915, -93.5486, 70.271
2.16762, -1, -28.5862, 2.92696, 19.9813, -157.941, -93.5394, 70.1232
2.1756, -1, -28.7497, 2.88329, 19.9921, -157.992, -93.521, 69.8273
2.18371, -1, -28.9129, 2.83958, 20.0029, -158.042, -93.503, 69.5309
2.19163, -1, -29.0757, 2.79595, 20.0137, -158.093, -93.4852, 69.2344
2.1996, -1, -29.2384, 2.75236, 20.0244, -158.144, -93.4676, 68.938
2.20776, -1, -29.4012, 2.70874, 20.0352, -158.195, -93.45, 68.6414
2.21561, -1, -29.564, 2.66508, 20.0459, -158.246, -93.4323, 68.3446
2.22361, -1, -29.7269, 2.62134, 20.0567, -158.297, -93.4142, 68.0481
2.23171, -1, -29.8901, 2.57759, 20.0675, -158.348, -93.3959, 67.7514
2.2396, -1, -30.0534, 2.53386, 20.0783, -158.399, -93.3776, 67.4546
2.24764, -1, -30.217, 2.48998, 20.0893, -158.449, -93.3595, 67.1575
2.25571, -1, -30.3811, 2.4461, 20.1002, -158.501, -93.3417, 66.8606
2.26362, -1, -30.5456, 2.40223, 20.1111, -158.552, -93.3239, 66.5636
2.27161, -1, -30.7105, 2.35821, 20.1218, -158.602, -93.3063, 66.2664
2.28059, -1, -30.8755, 2.3143, 20.1326, -158.654, -93.2885, 65.969
2.28763, -1, -31.0405, 2.27036, 20.1435, -158.705, -93.2703, 65.6719
2.29661, -1, -31.2054, 2.22631, 20.1543, -158.755, -93.2519, 65.3746
2.30375, -1, -31.3702, 2.18249, 20.1651, -158.807, -93.2333, 65.0771
2.31266, -1, -31.5349, 2.13864, 20.1758, -158.858, -93.215, 64.7793
2.3196, -1, -31.6995, 2.09463, 20.1865, -158.909, -93.1972, 64.4817
2.32767, -1, -31.8637, 2.05075, 20.1975, -158.96, -93.1795, 64.1838
2.3356, -1, -32.0277, 2.0069, 20.2084, -159.011, -93.1619, 63.8857
2.34361, -1, -32.1915, 1.96292, 20.2194, -159.062, -93.1441, 63.5879
2.35166, -1, -32.3551, 1.91903, 20.2303, -159.114, -93.1262, 63.2901
2.35962, -1, -32.5188, 1.87503, 20.2411, -159.165, -93.1079, 62.9921
2.36766, -1, -32.6826, 1.83098, 20.2521, -159.216, -93.0895, 62.6938
2.37562, -1, -32.8465, 1.78701, 20.263, -159.267, -93.0713, 62.3956
2.38368, -1, -33.0107, 1.7429, 20.2738, -159.318, -93.0534, 62.0972
2.3916, -1, -33.1753, 1.69872, 20.2847, -159.37, -93.0355, 61.7987
2.39961, -1, -33.3401, 1.65458, 20.2956, -159.421, -93.0177, 61.5001
2.40767, -1, -33.5055, 1.61042, 20.3065, -159.472, -92.9997, 61.2017
2.4157, -1, -33.6712, 1.56624, 20.3175, -159.524, -92.9815, 60.9031
2.42362, -1, -33.8368, 1.52206, 20.3284, -159.574, -92.963, 60.6041
2.43166, -1, -34.0026, 1.4779, 20.3393, -159.626, -92.9443, 60.305
2.4396, -1, -34.1684, 1.43378, 20.3501, -159.677, -92.9258, 60.0061
2.4476, -1, -34.3344, 1.38967, 20.361, -159.729, -92.9077, 59.7067
2.45568, -1, -34.5003, 1.3455, 20.3719, -159.78, -92.8898, 59.4071
2.46362, -1, -34.6659, 1.30139, 20.3828, -159.832, -92.872, 59.1078
2.47161, -1, -34.8311, 1.25725, 20.3937, -159.883, -92.8541, 58.8085
2.4797, -1, -34.9961, 1.2131, 20.4045, -159.934, -92.8361, 58.509
2.48768, -1, -35.1609, 1.16893, 20.4155, -159.986, -92.8176, 58.2092
2.49568, -1, -35.3254, 1.12468, 20.4265, -160.037, -92.799, 57.9097
2.50377, -1, -35.4896, 1.08053, 20.4376, -160.089, -92.7807, 57.61
2.5117, -1, -35.6521, 1.03677, 20.4489, -160.14, -92.7626, 57.3103
2.51972, -1, -35.8119, 0.993511, 20.4603, -160.191, -92.7447, 57.0116
2.52778, -1, -35.968, 0.951299, 20.472, -160.242, -92.7271, 56.7159
2.53561, -1, -36.1191, 0.910677, 20.4839, -160.291, -92.7096, 56.4259
2.54369, -1, -36.2629, 0.872161, 20.4958, -160.339, -92.6925, 56.1456
2.55168, -1, -36.3972, 0.836504, 20.5074, -160.384, -92.676, 55.8811
2.55964, -1, -36.5204, 0.80395, 20.518, -160.425, -92.6607, 55.6386
2.56783, -1, -36.6309, 0.774704, 20.5273, -160.461, -92.6472, 55.4238
2.57585, -1, -36.7271, 0.749324, 20.5349, -160.492, -92.6359, 55.2416
2.58396, -1, -36.8085, 0.727661, 20.5402, -160.517, -92.627, 55.0943
2.59066, -1, -36.844, 0.718234, 20.542, -160.528, -92.6233, 55.0339
2.60005, -1, -36.9308, 0.695382, 20.5446, -160.551, -92.6156, 54.902
2.60808, -1, -36.9727, 0.684375, 20.545, -160.56, -92.6126, 54.8478
2.61654, -1, -37.0035, 0.676252, 20.5447, -160.566, -92.6108, 54.8144
2.62417, -1, -37.0247, 0.670684, 20.5442, -160.569, -92.6098, 54.7952
2.63214, -1, -37.0381, 0.667355, 20.5438, -160.571, -92.6093, 54.7854
2.64038, 2, -37.0455, 0.665575, 20.5435, -160.572, -92.6091, 54.7808
2.64821, 2, -37.0475, 0.664739, 20.5434, -160.572, -92.609, 54.7787
2.65618, 2, -37.0486, 0.664528, 20.5434, -160.572, -92.609, 54.7778
2.66363, 2, -37.0483, 0.66432, 20.5434, -160.573, -92.6089, 54.7776
2.67163, 2, -37.0479, 0.664224, 20.5434, -160.573, -92.6089, 54.7773
2.67958, 2, -37.048, 0.66418, 20.5433, -160.573, -92.6089, 54.7772
2.6876, 2, -37.0486, 0.664117, 20.5433, -160.573, -92.609, 54.7772
2.69565, 2, -37.0497, 0.664063, 20.5432, -160.573, -92.609, 54.7773
2.7036, 2, -37.0508, 0.663893, 20.543, -160.573, -92.609, 54.7775
2.71161, 2, -37.0522, 0.663662, 20.5428, -160.573, -92.6091, 54.7776
2.71964, 2, -37.0535, 0.663432, 20.5426, -160.573, -92.6091, 54.7778
2.72759, 2, -37.0546, 0.663206, 20.5424, -160.573, -92.6091, 54.778
2.7356, 2, -37.0553, 0.663062, 20.5422, -160.573, -92.6091, 54.7782
2.74364, 2, -37.0555, 0.663006, 20.5421, -160.573, -92.6093, 54.7785
2.75162, 2, -37.0552, 0.662972, 20.5419, -160.573, -92.6093, 54.7787
2.7596, 2, -37.0545, 0.663016, 20.5418, -160.573, -92.6094, 54.7788
2.76657, 2, -37.0535, 0.663082, 20.5417, -160.573, -92.6094, 54.7791
2.77558, 2, -37.0522, 0.663166, 20.5417, -160.573, -92.6094, 54.7793
2.78362, 2, -37.0506, 0.663289, 20.5416, -160.573, -92.6093, 54.7795
2.79258, 2, -37.0492, 0.663414, 20.5415, -160.573, -92.6094, 54.7797
2.79958, 2, -37.0483, 0.663441, 20.5415, -160.573, -92.6094, 54.7798
2.8076, 2, -37.0477, 0.663443, 20.5415, -160.573, -92.6094, 54.7799
2.81563, 2, -37.0476, 0.663398, 20.5415, -160.573, -92.6094, 54.7799
2.82359, 2, -37.0477, 0.663336, 20.5415, -160.573, -92.6095, 54.78
2.8316, 2, -37.0479, 0.663264, 20.5414, -160.573, -92.6095, 54.78
2.83963, 2, -37.0482, 0.663208, 20.5414, -160.573, -92.6095, 54.78
2.84758, 2, -37.049, 0.663187, 20.5414, -160.573, -92.6095, 54.7801
2.85559, 2, -37.0498, 0.663158, 20.5414, -160.573, -92.6095, 54.7801
2.86366, 2, -37.0507, 0.663178, 20.5414, -160.573, -92.6095, 54.7802
2.87159, 2, -37.0514, 0.663174, 20.5413, -160.573, -92.6095, 54.7803
2.87961, 2, -37.0517, 0.663201, 20.5413, -160.573, -92.6095, 54.7803
2.88762, 2, -37.0518, 0.663228, 20.5413, -160.573, -92.6095, 54.7804
2.89558, 2, -37.0518, 0.663258, 20.5413, -160.573, -92.6095, 54.7804
2.90367, 2, -37.0517, 0.663271, 20.5413, -160.573, -92.6096, 54.7805
2.91163, 2, -37.0512, 0.663278, 20.5413, -160.573, -92.6095, 54.7805
2.91963, 2, -37.0508, 0.66328, 20.5413, -160.573, -92.6096, 54.7805
2.92759, 2, -37.0505, 0.663275, 20.5413, -160.573, -92.6096, 54.7805
2.93563, 2, -37.0502, 0.663255, 20.5413, -160.573, -92.6096, 54.7806
2.94359, 2, -37.0501, 0.663227, 20.5413, -160.573, -92.6096, 54.7806
2.9516, 2, -37.05, 0.663203, 20.5413, -160.573, -92.6096, 54.7807
2.95966, 2, -37.05, 0.663196, 20.5412, -160.573, -92.6096, 54.7807
2.96759, 2, -37.0501, 0.663177, 20.5412, -160.573, -92.6096, 54.7807
2.97561, 2, -37.0502, 0.663173, 20.5412, -160.573, -92.6096, 54.7808
2.98369, 2, -37.0502, 0.663201, 20.5412, -160.572, -92.6097, 54.7809
2.99166, 2, -37.0505, 0.66324, 20.5412, -160.573, -92.6096, 54.7809
2.99969, 2, -37.0507, 0.663263, 20.5412, -160.572, -92.6097, 54.781
3.00775, 2, -37.0508, 0.663274, 20.5412, -160.572, -92.6097, 54.781
3.01569, 2, -37.0509, 0.663279, 20.5412, -160.572, -92.6098, 54.781
3.02372, 2, -37.0509, 0.663281, 20.5412, -160.572, -92.6098, 54.7811
3.03176, 2, -37.0508, 0.663282, 20.5412, -160.572, -92.6097, 54.7812
3.03958, 2, -37.0508, 0.663275, 20.5412, -160.572, -92.6097, 54.7812
3.04788, 2, -37.0507, 0.663255, 20.5412, -160.572, -92.6097, 54.7812
3.05566, 2, -37.0507, 0.663235, 20.5412, -160.572, -92.6097, 54.7813
3.06364, 2, -37.0507, 0.663211, 20.5412, -160.572, -92.6098, 54.7813
3.07187, 2, -37.0507, 0.663207, 20.5411, -160.572, -92.6098, 54.7813
3.0798, 2, -37.0506, 0.663224, 20.5411, -160.572, -92.6098, 54.7813
3.08787, 2, -37.0506, 0.663238, 20.5411, -160.572, -92.6098, 54.7814
3.09462, 2, -37.0506, 0.663253, 20.5411, -160.572, -92.6098, 54.7814
3.10401, 2, -37.0506, 0.663274, 20.5411, -160.572, -92.6098, 54.7816
3.11059, 2, -37.0506, 0.663277, 20.5411, -160.572, -92.6098, 54.7816
3.1202, 2, -37.0506, 0.663281, 20.5411, -160.572, -92.6098, 54.7816
3.12814, 2, -37.0506, 0.663282, 20.5411, -160.572, -92.6098, 54.7817
3.13611, 2, -37.0506, 0.663275, 20.5411, -160.572, -92.6098, 54.7817
3.14439, 2, -37.0506, 0.663267, 20.5411, -160.572, -92.6099, 54.7817
3.15221, 2, -37.0505, 0.663263, 20.5411, -160.572, -92.6099, 54.7817
3.16007, 2, -37.0506, 0.663255, 20.5411, -160.572, -92.6099, 54.7817
3.16758, 2, -37.0505, 0.663246, 20.5411, -160.572, -92.6098, 54.7817
3.17561, 2, -37.0505, 0.663241, 20.5411, -160.572, -92.6098, 54.7817
3.18358, 2, -37.0506, 0.663239, 20.541, -160.572, -92.6098, 54.7818
3.19158, 2, -37.0505, 0.663227, 20.541, -160.572, -92.6098, 54.7818
3.19963, 2, -37.0505, 0.663245, 20.541, -160.572, -92.6098, 54.7818
3.20759, 2, -37.0505, 0.663266, 20.541, -160.572, -92.6098, 54.7819
3.21569, 2, -37.0505, 0.663275, 20.541, -160.572, -92.6098, 54.7819
3.22368, 2, -37.0505, 0.663279, 20.541, -160.572, -92.6098, 54.782
3.23156, 2, -37.0504, 0.663281, 20.541, -160.572, -92.6099, 54.782
3.23958, 2, -37.0504, 0.663282, 20.541, -160.572, -92.6098, 54.782
3.24761, 2, -37.0504, 0.663283, 20.541, -160.572, -92.6099, 54.782
3.25561, 2, -37.0504, 0.663263, 20.541, -160.572, -92.6099, 54.7821
3.2636, 2, -37.0504, 0.663257, 20.541, -160.572, -92.6099, 54.7821
3.27171, 2, -37.0503, 0.663264, 20.541, -160.572, -92.6099, 54.7822
3.27956, 2, -37.0503, 0.663269, 20.5409, -160.572, -92.6099, 54.7822
3.28856, 2, -37.0503, 0.663277, 20.5409, -160.572, -92.6099, 54.7822
3.29563, 2, -37.0503, 0.663273, 20.5409, -160.572, -92.6099, 54.7821
3.30461, 2, -37.0503, 0.663266, 20.5409, -160.572, -92.6099, 54.7822
3.31158, 2, -37.0503, 0.66327, 20.5409, -160.572, -92.6099, 54.7822
3.31961, 2, -37.0503, 0.663277, 20.5409, -160.572, -92.6099, 54.7823
3.32756, 2, -37.0502, 0.66328, 20.5409, -160.572, -92.6099, 54.7823
3.33559, 2, -37.0502, 0.663282, 20.5409, -160.572, -92.6099, 54.7824
3.34362, 2, -37.0502, 0.663282, 20.5409, -160.572, -92.6099, 54.7824
3.35156, 2, -37.0502, 0.663283, 20.5409, -160.572, -92.6099, 54.7824
3.35958, 2, -37.0502, 0.663283, 20.5409, -160.572, -92.6099, 54.7824
3.36763, 2, -37.0502, 0.663276, 20.5409, -160.572, -92.6099, 54.7824
3.37556, 2, -37.0502, 0.663275, 20.5409, -160.572, -92.6099, 54.7824
3.38362, 2, -37.0502, 0.663267, 20.5409, -160.572, -92.6099, 54.7824
3.39162, 2, -37.0502, 0.663276, 20.5408, -160.572, -92.6099, 54.7825
3.39956, 2, -37.0501, 0.66328, 20.5408, -160.572, -92.6099, 54.7825
3.40757, 2, -37.0501, 0.663281, 20.5408, -160.572, -92.6099, 54.7825
3.41561, 2, -37.0501, 0.663282, 20.5408, -160.572, -92.6099, 54.7825
3.42362, 2, -37.0501, 0.663283, 20.5408, -160.572, -92.6099, 54.7825
3.43158, 2, -37.0501, 0.663283, 20.5408, -160.572, -92.6099, 54.7825
3.43962, 2, -37.0501, 0.663283, 20.5408, -160.572, -92.61, 54.7825
3.44756, 2, -37.0501, 0.663283, 20.5408, -160.572, -92.61, 54.7825
3.45561, 2, -37.0501, 0.663283, 20.5408, -160.572, -92.6101, 54.7826
3.46365, 2, -37.0501, 0.663283, 20.5408, -160.572, -92.61, 54.7826
3.47157, 2, -37.0501, 0.663276, 20.5408, -160.572, -92.61, 54.7825
3.4796, 2, -37.0501, 0.663267, 20.5408, -160.572, -92.61, 54.7826
3.48766, 2, -37.0501, 0.663263, 20.5408, -160.572, -92.61, 54.7826
3.49565, 2, -37.0501, 0.663262, 20.5408, -160.572, -92.61, 54.7826
3.50369, 2, -37.05, 0.663268, 20.5407, -160.572, -92.61, 54.7826
3.51171, 2, -37.05, 0.663276, 20.5407, -160.572, -92.61, 54.7826
3.51967, 2, -37.05, 0.663291, 20.5407, -160.572, -92.61, 54.7826
3.52769, 2, -37.05, 0.663294, 20.5407, -160.572, -92.61, 54.7826
3.53574, 2, -37.05, 0.663288, 20.5407, -160.572, -92.61, 54.7826
3.54359, 2, -37.0499, 0.663278, 20.5407, -160.572, -92.61, 54.7826
3.55195, 2, -37.0499, 0.663294, 20.5407, -160.572, -92.61, 54.7826
3.55965, 2, -37.0499, 0.663288, 20.5407, -160.572, -92.61, 54.7826
3.56763, 2, -37.0499, 0.663296, 20.5407, -160.572, -92.61, 54.7827
3.57606, 2, -37.0499, 0.663326, 20.5407, -160.572, -92.61, 54.7828
3.58388, 2, -37.0499, 0.66331, 20.5407, -160.572, -92.61, 54.7828
3.59187, 2, -37.0499, 0.663295, 20.5407, -160.572, -92.61, 54.7828
3.60025, 2, -37.0499, 0.6633, 20.5407, -160.572, -92.6101, 54.7828
3.60798, 2, -37.0499, 0.663298, 20.5407, -160.572, -92.6101, 54.7828
3.61603, 2, -37.0499, 0.66329, 20.5407, -160.572, -92.6101, 54.7828
3.62444, 2, -37.0499, 0.663286, 20.5406, -160.572, -92.6101, 54.7828
3.63212, 2, -37.0498, 0.663295, 20.5406, -160.572, -92.6101, 54.7829
3.6401, 2, -37.0498, 0.663325, 20.5406, -160.572, -92.6101, 54.7829
3.64904, 2, -37.0498, 0.663321, 20.5406, -160.572, -92.6101, 54.7829
3.65618, 2, -37.0498, 0.66332, 20.5406, -160.572, -92.6101, 54.7828
3.66421, 2, -37.0497, 0.663311, 20.5406, -160.572, -92.6101, 54.7828
3.67159, 2, -37.0497, 0.663314, 20.5406, -160.572, -92.6101, 54.7829
3.68055, 2, -37.0497, 0.663316, 20.5406, -160.572, -92.6101, 54.7829
3.6876, 2, -37.0497, 0.663316, 20.5406, -160.572, -92.6101, 54.7829
3.69555, 2, -37.0497, 0.663335, 20.5406, -160.572, -92.6101, 54.7829
3.70359, 2, -37.0497, 0.663314, 20.5406, -160.572, -92.61, 54.7829
3.7116, 4, -37.0497, 0.663316, 20.5406, -160.572, -92.6101, 54.783
3.71957, 4, -37.0496, 0.663298, 20.5406, -160.571, -92.6101, 54.7829
3.72755, 4, -37.0496, 0.663308, 20.5406, -160.571, -92.6102, 54.783
3.73559, 4, -37.0496, 0.663324, 20.5406, -160.571, -92.6101, 54.7829
3.74356, 4, -37.0496, 0.663328, 20.5405, -160.572, -92.6101, 54.7829
3.75155, 4, -37.0496, 0.66334, 20.5405, -160.572, -92.6101, 54.7829
3.75965, 4, -37.0496, 0.66334, 20.5405, -160.572, -92.6101, 54.7829
3.76754, 4, -37.0496, 0.663338, 20.5405, -160.572, -92.6101, 54.783
3.77555, 4, -37.0496, 0.663345, 20.5405, -160.571, -92.6101, 54.783
3.78524, 4, -37.0496, 0.663348, 20.5405, -160.572, -92.6101, 54.783
3.79155, 4, -37.0495, 0.663357, 20.5405, -160.571, -92.6101, 54.783
3.80054, 4, -37.0495, 0.663359, 20.5405, -160.571, -92.6102, 54.783
3.80776, 4, -37.0494, 0.663354, 20.5405, -160.571, -92.6101, 54.783
3.83208, 4, -37.0494, 0.663351, 20.5405, -160.571, -92.6102, 54.783
3.83409, 4, -37.0494, 0.663351, 20.5405, -160.571, -92.6102, 54.783
3.8354, 4, -37.0494, 0.663351, 20.5405, -160.571, -92.6102, 54.783
3.83955, 4, -37.0494, 0.66334, 20.5405, -160.571, -92.6102, 54.783
3.84755, 4, -37.0494, 0.663346, 20.5404, -160.571, -92.6101, 54.783
3.85632, 4, -37.0494, 0.663361, 20.5405, -160.571, -92.6101, 54.783
3.86355, 4, -37.0491, 0.663313, 20.5404, -160.571, -92.6102, 54.783
3.87158, 4, -37.0476, 0.662932, 20.5405, -160.571, -92.6101, 54.783
3.88028, 4, -37.0436, 0.661306, 20.5409, -160.571, -92.6101, 54.7829
3.88756, 4, -37.0367, 0.657856, 20.5423, -160.571, -92.6102, 54.783
3.89555, 4, -37.0279, 0.652658, 20.5453, -160.571, -92.6102, 54.783
3.9049, 4, -37.0177, 0.645908, 20.5505, -160.57, -92.6102, 54.7829
3.91153, 5, -37.0054, 0.637014, 20.5587, -160.568, -92.6102, 54.7829
3.91963, 5, -36.9907, 0.625793, 20.5701, -160.566, -92.6101, 54.7829
3.92759, 5, -36.9748, 0.612676, 20.5848, -160.563, -92.61, 54.7828
3.93554, 5, -36.9579, 0.598114, 20.6023, -160.559, -92.6098, 54.7827
3.94363, 5, -36.9391, 0.581784, 20.6218, -160.555, -92.6096, 54.7826
3.95155, 5, -36.9176, 0.56309, 20.643, -160.551, -92.6094, 54.7825
3.95954, 5, -36.8931, 0.542586, 20.6653, -160.546, -92.6091, 54.7823
3.96784, 5, -36.8666, 0.521378, 20.6878, -160.541, -92.6089, 54.7822
3.97555, 5, -36.839, 0.499567, 20.7106, -160.536, -92.6086, 54.7822
3.98358, 5, -36.8109, 0.477336, 20.7334, -160.531, -92.6082, 54.782
3.9919, 5, -36.7826, 0.455196, 20.7565, -160.526, -92.6077, 54.7818
3.99963, 5, -36.7543, 0.432883, 20.7796, -160.521, -92.6073, 54.7816
4.00763, 5, -36.726, 0.410495, 20.8025, -160.516, -92.6067, 54.7814
4.01617, 5, -36.6977, 0.388258, 20.8255, -160.51, -92.6061, 54.7812
4.02366, 5, -36.6697, 0.365973, 20.8486, -160.505, -92.6055, 54.7809
4.03175, 5, -36.6416, 0.343789, 20.8718, -160.5, -92.6048, 54.7808
4.04029, 5, -36.6135, 0.321793, 20.895, -160.495, -92.6041, 54.7807
4.04757, 5, -36.5853, 0.299741, 20.918, -160.49, -92.6034, 54.7806
4.05453, 5, -36.5712, 0.288803, 20.9296, -160.487, -92.6031, 54.7806
4.06455, 5, -36.529, 0.255791, 20.9643, -160.48, -92.6021, 54.7805
4.07164, 5, -36.5012, 0.23362, 20.9875, -160.475, -92.6014, 54.7803
4.07977, 5, -36.4734, 0.211585, 21.0106, -160.47, -92.6007, 54.7803
4.08863, 5, -36.4456, 0.189387, 21.0335, -160.465, -92.5999, 54.7802
4.0959, 5, -36.4175, 0.167179, 21.0565, -160.46, -92.5992, 54.7801
4.10396, 5, -36.3889, 0.145048, 21.0795, -160.456, -92.5986, 54.7799
4.11295, 5, -36.3603, 0.122721, 21.1026, -160.451, -92.5979, 54.7796
4.12004, 5, -36.3317, 0.100524, 21.1256, -160.446, -92.5972, 54.7793
4.1281, 5, -36.3031, 0.0784216, 21.1485, -160.442, -92.5965, 54.7791
4.13694, 5, -36.2747, 0.0561928, 21.1714, -160.437, -92.5957, 54.7788
4.1441, 5, -36.2461, 0.0341605, 21.1944, -160.432, -92.595, 54.7785
4.15227, 5, -36.2174, 0.0121359, 21.2174, -160.428, -92.5943, 54.7781
4.16115, 5, -36.2032, 0.0010773, 21.2288, -160.425, -92.5936, 54.7777
4.16753, 5, -36.1747, -0.0208791, 21.2517, -160.42, -92.5932, 54.7775
4.17558, 5, -36.1461, -0.0427171, 21.2746, -160.416, -92.5925, 54.777
4.18354, 5, -36.1178, -0.0646909, 21.2975, -160.411, -92.5919, 54.7765
4.19153, 5, -36.0893, -0.0865035, 21.3206, -160.406, -92.5912, 54.7761
4.19959, 5, -36.0609, -0.108389, 21.3433, -160.401, -92.5905, 54.7755
4.20758, 5, -36.0326, -0.130471, 21.366, -160.396, -92.5899, 54.7751
4.21561, 5, -36.0041, -0.15238, 21.3889, -160.391, -92.5891, 54.7746
4.22553, 5, -35.9755, -0.185336, 21.423, -160.383, -92.5881, 54.774
4.23153, 5, -35.9469, -0.196335, 21.4345, -160.38, -92.5877, 54.7738
4.23959, 5, -35.918, -0.218189, 21.4572, -160.374, -92.5871, 54.7733
4.24753, 5, -35.8893, -0.240135, 21.4798, -160.369, -92.5864, 54.7728
4.25553, 5, -35.8605, -0.262113, 21.5025, -160.364, -92.5858, 54.7724
4.26364, 5, -35.8317, -0.283866, 21.5252, -160.358, -92.5851, 54.772
4.27314, 5, -35.7886, -0.316628, 21.5592, -160.35, -92.5842, 54.7715
4.27954, 5, -35.7741, -0.327523, 21.5705, -160.348, -92.5838, 54.7714
4.28906, 5, -35.7452, -0.349221, 21.5931, -160.342, -92.5832, 54.7711
4.29453, 5, -35.7166, -0.371021, 21.6157, -160.337, -92.5825, 54.7708
4.30356, 5, -35.6879, -0.39276, 21.6384, -160.332, -92.5819, 54.7706
4.31159, 5, -35.6593, -0.414375, 21.6609, -160.327, -92.5812, 54.7704
4.31954, 5, -35.6306, -0.436165, 21.6833, -160.322, -92.5806, 54.7702
4.32753, 5, -35.6018, -0.457824, 21.7057, -160.317, -92.58, 54.77
4.33559, 5, -35.5731, -0.479553, 21.7281, -160.312, -92.5793, 54.7699
4.34354, 5, -35.5443, -0.501377, 21.7506, -160.307, -92.5786, 54.7698
4.35153, 5, -35.5155, -0.523012, 21.7731, -160.302, -92.578, 54.7697
4.35959, 5, -35.4866, -0.544669, 21.7953, -160.297, -92.5774, 54.7697
4.36753, 5, -35.4576, -0.566326, 21.8176, -160.293, -92.5768, 54.7696
4.37563, 5, -35.4286, -0.587861, 21.8398, -160.288, -92.5761, 54.7696
4.38353, 5, -35.3996, -0.609492, 21.8621, -160.283, -92.5754, 54.7695
4.39155, 5, -35.3706, -0.631103, 21.8844, -160.278, -92.5747, 54.7695
4.39971, 5, -35.3416, -0.652521, 21.9065, -160.273, -92.5741, 54.7694
4.40752, 5, -35.3125, -0.674055, 21.9288, -160.267, -92.5735, 54.7694
4.41554, 5, -35.2834, -0.695616, 21.951, -160.262, -92.5729, 54.7694
4.42361, 5, -35.2544, -0.717057, 21.9731, -160.257, -92.5722, 54.7694
4.43157, 5, -35.2254, -0.738571, 21.9953, -160.252, -92.5716, 54.7695
4.43953, 5, -35.1964, -0.760032, 22.0173, -160.246, -92.5709, 54.7694
4.44761, 5, -35.1674, -0.78131, 22.0393, -160.241, -92.5702, 54.7694
4.45554, 5, -35.1382, -0.802726, 22.0614, -160.235, -92.5696, 54.7695
4.46367, 5, -35.1091, -0.824066, 22.0834, -160.229, -92.5689, 54.7695
4.4716, 5, -35.0801, -0.845366, 22.1055, -160.224, -92.5683, 54.7694
4.47953, 5, -35.051, -0.866879, 22.1274, -160.218, -92.5676, 54.7694
4.48763, 5, -35.0218, -0.888288, 22.1493, -160.213, -92.567, 54.7695
4.49582, 5, -34.9926, -0.909553, 22.1712, -160.207, -92.5663, 54.7696
4.50363, 5, -34.9633, -0.93098, 22.193, -160.202, -92.5657, 54.7696
4.51186, 5, -34.9342, -0.952257, 22.215, -160.196, -92.5651, 54.7696
4.52005, 5, -34.9051, -0.973467, 22.2367, -160.191, -92.5643, 54.7696
4.52763, 5, -34.8759, -0.994821, 22.2585, -160.186, -92.5637, 54.7696
4.53585, 5, -34.8467, -1.016, 22.2803, -160.181, -92.5631, 54.7697
4.54429, 5, -34.8172, -1.03707, 22.3021, -160.176, -92.5624, 54.7697
4.55156, 5, -34.7879, -1.05825, 22.3239, -160.171, -92.5617, 54.7698
4.55958, 5, -34.7586, -1.07937, 22.3455, -160.165, -92.5611, 54.7699
4.56834, 5, -34.7294, -1.10049, 22.367, -160.161, -92.5604, 54.7699
4.57569, 5, -34.7002, -1.12173, 22.3887, -160.156, -92.5598, 54.77
4.58378, 5, -34.6708, -1.14282, 22.4104, -160.151, -92.5591, 54.7701
4.59249, 5, -34.6413, -1.16393, 22.432, -160.146, -92.5584, 54.7702
4.59993, 5, -34.6119, -1.18508, 22.4536, -160.14, -92.5578, 54.7704
4.6079, 5, -34.5825, -1.20612, 22.475, -160.135, -92.5571, 54.7705
4.61671, 5, -34.5531, -1.22728, 22.4964, -160.13, -92.5563, 54.7707
4.6241, 5, -34.5236, -1.24842, 22.5179, -160.125, -92.5557, 54.771
4.63244, 5, -34.4941, -1.26937, 22.5394, -160.12, -92.555, 54.7713
4.64086, 5, -34.4646, -1.29037, 22.5608, -160.114, -92.5544, 54.7716
4.64815, 5, -34.4352, -1.31134, 22.5822, -160.109, -92.5537, 54.7721
4.65608, 5, -34.4204, -1.32174, 22.6037, -160.103, -92.553, 54.7727
4.6649, 5, -34.3909, -1.34263, 22.6143, -160.1, -92.5523, 54.7733
4.67211, 5, -34.3612, -1.36361, 22.6357, -160.094, -92.552, 54.774
4.67953, 5, -34.3316, -1.38445, 22.6572, -160.089, -92.5513, 54.7744
4.68756, 5, -34.302, -1.40527, 22.6783, -160.083, -92.5506, 54.7752
4.69551, 5, -34.2725, -1.42618, 22.6995, -160.077, -92.5499, 54.7762
4.70469, 5, -34.243, -1.45742, 22.7313, -160.068, -92.5488, 54.7779
4.71154, 5, -34.2133, -1.46784, 22.7419, -160.065, -92.5485, 54.7785
4.71957, 5, -34.1836, -1.48872, 22.7633, -160.06, -92.5478, 54.7797
4.72921, 5, -34.1391, -1.51988, 22.7949, -160.051, -92.5467, 54.7816
4.73763, 5, -34.1243, -1.53024, 22.8055, -160.048, -92.546, 54.7829
4.74501, 5, -34.0798, -1.56137, 22.8372, -160.04, -92.5453, 54.7843
4.75157, 5, -34.0649, -1.57169, 22.8477, -160.037, -92.5449, 54.7849
4.75952, 5, -34.0351, -1.59237, 22.8687, -160.032, -92.5443, 54.7864
4.76764, 5, -34.0054, -1.61312, 22.8899, -160.027, -92.5435, 54.7879
4.77804, 5, -33.9609, -1.64401, 22.9213, -160.019, -92.5424, 54.79
4.78359, 5, -33.946, -1.6543, 22.9318, -160.016, -92.5421, 54.7908
4.79151, 5, -33.9162, -1.67498, 22.9529, -160.011, -92.5415, 54.7922
4.8005, 5, -33.8862, -1.6955, 22.9739, -160.005, -92.5407, 54.7936
4.80754, 5, -33.8564, -1.71603, 22.9948, -160, -92.5399, 54.7951
4.81652, 5, -33.8266, -1.73671, 23.0156, -159.995, -92.5393, 54.7967
4.82359, 5, -33.7968, -1.75726, 23.0363, -159.989, -92.5385, 54.7982
4.83165, 5, -33.767, -1.77772, 23.0571, -159.984, -92.5378, 54.7997
4.83956, 5, -33.737, -1.79833, 23.078, -159.978, -92.5371, 54.8012
4.84758, 5, -33.707, -1.81888, 23.0989, -159.973, -92.5363, 54.8028
4.85551, 5, -33.6771, -1.8394, 23.1195, -159.967, -92.5355, 54.8043
4.86352, 5, -33.6473, -1.85992, 23.1402, -159.961, -92.5348, 54.8058
4.87158, 5, -33.6174, -1.8804, 23.1609, -159.955, -92.5341, 54.8073
4.87954, 5, -33.5875, -1.90082, 23.1815, -159.949, -92.5334, 54.8089
4.88754, 5, -33.5574, -1.92122, 23.2022, -159.943, -92.5327, 54.8105
4.89553, 5, -33.5274, -1.94161, 23.2228, -159.937, -92.5319, 54.812
4.90369, 5, -33.4974, -1.96203, 23.2433, -159.931, -92.5311, 54.8136
4.91152, 5, -33.4674, -1.98256, 23.264, -159.925, -92.5304, 54.8152
4.91951, 5, -33.4374, -2.0031, 23.2846, -159.919, -92.5296, 54.8167
4.92774, 5, -33.4073, -2.02362, 23.3052, -159.913, -92.5288, 54.8181
4.93656, 5, -33.3774, -2.04436, 23.326, -159.907, -92.5279, 54.8196
4.94352, 5, -33.3475, -2.06513, 23.3466, -159.901, -92.5269, 54.8207
4.95158, 5, -33.3177, -2.08596, 23.3674, -159.896, -92.5257, 54.8217
4.95957, 5, -33.288, -2.10714, 23.3884, -159.89, -92.5242, 54.8225
4.96751, 6, -33.2582, -2.12832, 23.4095, -159.883, -92.5225, 54.823
4.97553, 6, -33.2285, -2.14963, 23.4309, -159.877, -92.5207, 54.8233
4.984, 6, -33.199, -2.17132, 23.4523, -159.871, -92.5185, 54.8234
4.99154, 6, -33.1696, -2.19312, 23.4739, -159.864, -92.5162, 54.8235
5.0006, 6, -33.1403, -2.21517, 23.4957, -159.858, -92.5135, 54.8236
5.00788, 6, -33.111, -2.23757, 23.5176, -159.851, -92.5107, 54.8235
5.01563, 6, -33.0817, -2.26004, 23.5398, -159.844, -92.5077, 54.8233
5.02361, 6, -33.0527, -2.28281, 23.5621, -159.836, -92.5044, 54.823
5.03585, 6, -33.0238, -2.30576, 23.5845, -159.829, -92.4991, 54.8222
5.03971, 6, -32.995, -2.32891, 23.6072, -159.821, -92.4972, 54.8219
5.04753, 6, -32.9662, -2.35249, 23.63, -159.812, -92.4934, 54.821
5.05558, 6, -32.9373, -2.37611, 23.6531, -159.804, -92.4892, 54.8199
5.06358, 7, -32.9088, -2.39997, 23.6762, -159.795, -92.485, 54.8189
5.07156, 7, -32.8804, -2.42413, 23.6993, -159.786, -92.4806, 54.8175
5.08004, 7, -32.852, -2.44835, 23.7228, -159.777, -92.4759, 54.8156
5.08775, 7, -32.8238, -2.47305, 23.7464, -159.767, -92.471, 54.8128
5.09575, 7, -32.7956, -2.49786, 23.7704, -159.758, -92.4659, 54.8094
5.1039, 7, -32.7673, -2.52281, 23.7943, -159.749, -92.4605, 54.8054
5.11253, 7, -32.7393, -2.54818, 23.8184, -159.74, -92.4551, 54.801
5.11998, 7, -32.7115, -2.57367, 23.8427, -159.73, -92.4493, 54.7961
5.12853, 7, -32.6837, -2.59951, 23.8672, -159.721, -92.4433, 54.7908
5.13613, 7, -32.656, -2.6255, 23.8919, -159.711, -92.4371, 54.7852
5.14407, 7, -32.6283, -2.65169, 23.9167, -159.701, -92.4307, 54.7793
5.15215, 7, -32.6008, -2.67812, 23.9418, -159.691, -92.424, 54.773
5.16023, 7, -32.5734, -2.70486, 23.967, -159.681, -92.4169, 54.7664
5.16805, 8, -32.5597, -2.71834, 23.9797, -159.675, -92.4132, 54.7595
5.17627, 8, -32.5324, -2.74538, 24.0051, -159.664, -92.4057, 54.756
5.1835, 8, -32.5053, -2.77267, 24.0306, -159.653, -92.3978, 54.7487
5.19149, 8, -32.4781, -2.80015, 24.0563, -159.642, -92.3895, 54.741
5.19958, 8, -32.451, -2.82786, 24.0824, -159.63, -92.3809, 54.733
5.20753, 8, -32.4241, -2.85593, 24.1086, -159.619, -92.3719, 54.7247
5.21558, 8, -32.3973, -2.88405, 24.1348, -159.607, -92.3627, 54.7162
5.22365, 8, -32.3705, -2.91249, 24.1612, -159.596, -92.3534, 54.7072
5.23372, 8, -32.3439, -2.95556, 24.2013, -159.578, -92.3393, 54.6932
5.23961, 8, -32.3172, -2.97007, 24.2148, -159.572, -92.3345, 54.6883
5.24749, 8, -32.2908, -2.99922, 24.2417, -159.561, -92.3249, 54.6784
5.2555, 8, -32.2646, -3.02853, 24.2689, -159.548, -92.3152, 54.668
5.26352, 9, -32.2384, -3.05804, 24.2963, -159.536, -92.3054, 54.6574
5.27157, 9, -32.2123, -3.08788, 24.3239, -159.523, -92.2953, 54.6465
5.27962, 9, -32.1863, -3.11791, 24.3515, -159.51, -92.2851, 54.6355
5.28749, 9, -32.1601, -3.14817, 24.3792, -159.496, -92.2745, 54.6244
5.29589, 9, -32.1342, -3.17867, 24.4072, -159.483, -92.2636, 54.6132
5.30348, 9, -32.1086, -3.20943, 24.4354, -159.469, -92.2523, 54.6019
5.31248, 9, -32.0829, -3.24043, 24.4637, -159.456, -92.2405, 54.5904
5.32055, 9, -32.0573, -3.27164, 24.4922, -159.442, -92.2284, 54.5788
5.33047, 9, -32.0191, -3.31897, 24.5353, -159.422, -92.2096, 54.5608
5.33549, 9, -32.0063, -3.33489, 24.5497, -159.415, -92.2034, 54.5547
5.34362, 9, -31.9808, -3.36684, 24.5787, -159.401, -92.1908, 54.5423
5.35149, 9, -31.9556, -3.39901, 24.6079, -159.387, -92.1781, 54.5296
5.35958, 9, -31.9305, -3.43147, 24.6373, -159.372, -92.1653, 54.5165
5.37019, 10, -31.8931, -3.48069, 24.6818, -159.349, -92.1458, 54.4959
5.37549, 10, -31.8807, -3.49718, 24.6966, -159.342, -92.1392, 54.4888
5.38358, 10, -31.8559, -3.53034, 24.7265, -159.327, -92.1256, 54.4743
5.39149, 10, -31.831, -3.56374, 24.7567, -159.312, -92.1117, 54.4595
5.39958, 10, -31.8064, -3.5974, 24.787, -159.297, -92.0972, 54.4446
5.4075, 10, -31.7819, -3.63123, 24.8173, -159.282, -92.0823, 54.4296
5.41556, 10, -31.7575, -3.66534, 24.8479, -159.266, -92.0671, 54.4147
5.42364, 10, -31.7333, -3.69971, 24.8788, -159.251, -92.052, 54.3997
5.4325, 10, -31.7091, -3.73428, 24.9098, -159.235, -92.0368, 54.3844
5.44048, 10, -31.6848, -3.76903, 24.9409, -159.218, -92.0217, 54.369
5.44749, 10, -31.6608, -3.80399, 24.9723, -159.202, -92.0064, 54.3532
5.4555, 10, -31.6367, -3.83937, 25.0039, -159.185, -91.991, 54.3372
5.46356, 11, -31.6127, -3.87489, 25.0354, -159.169, -91.9752, 54.3206
5.47156, 11, -31.5888, -3.91056, 25.0673, -159.152, -91.959, 54.3036
5.47977, 11, -31.565, -3.94658, 25.0994, -159.136, -91.9421, 54.2862
5.48749, 11, -31.5412, -3.98292, 25.1315, -159.119, -91.925, 54.2685
5.49553, 11, -31.5175, -4.01936, 25.1637, -159.102, -91.9077, 54.2507
5.50385, 11, -31.4941, -4.05615, 25.1963, -159.084, -91.8905, 54.233
5.51158, 11, -31.4707, -4.09327, 25.2291, -159.066, -91.8733, 54.215
5.51986, 11, -31.4474, -4.13049, 25.2619, -159.048, -91.8559, 54.197
5.5303, 11, -31.4242, -4.16798, 25.2949, -159.03, -91.8382, 54.1788
5.53559, 11, -31.4011, -4.20586, 25.3282, -159.012, -91.82, 54.1602
5.54355, 11, -31.3778, -4.24392, 25.3615, -158.995, -91.8014, 54.1411
5.55168, 11, -31.3549, -4.28212, 25.3949, -158.977, -91.7822, 54.1216
5.55991, 12, -31.3321, -4.32066, 25.4288, -158.958, -91.763, 54.1015
5.56809, 12, -31.3094, -4.35944, 25.4627, -158.939, -91.744, 54.081
5.57654, 12, -31.2868, -4.39848, 25.4966, -158.92, -91.7249, 54.0607
5.58376, 12, -31.2644, -4.43773, 25.5309, -158.901, -91.7058, 54.0403
5.59319, 12, -31.242, -4.4772, 25.5653, -158.882, -91.6863, 54.0198
5.59978, 12, -31.2194, -4.51686, 25.5999, -158.863, -91.6662, 53.9993
5.60797, 12, -31.1971, -4.5568, 25.6347, -158.843, -91.6456, 53.9783
5.61588, 12, -31.175, -4.59701, 25.6697, -158.824, -91.6249, 53.9569
5.62471, 12, -31.1529, -4.63741, 25.7046, -158.804, -91.6042, 53.9351
5.63287, 12, -31.1308, -4.67803, 25.7399, -158.783, -91.5836, 53.9127
5.64001, 12, -31.109, -4.71892, 25.7754, -158.763, -91.5627, 53.8901
5.64812, 12, -31.0872, -4.76008, 25.8109, -158.743, -91.5416, 53.8675
5.65696, 12, -31.0652, -4.80154, 25.8466, -158.723, -91.5198, 53.8449
5.66406, 13, -31.0542, -4.82238, 25.8646, -158.713, -91.4974, 53.8221
5.67206, 13, -31.0325, -4.8642, 25.9006, -158.693, -91.4861, 53.7991
5.67948, 13, -31.0111, -4.90626, 25.9368, -158.672, -91.4637, 53.7875
5.68751, 13, -30.9895, -4.94865, 25.9732, -158.651, -91.4414, 53.7638
5.69657, 13, -30.9575, -5.01265, 26.0281, -158.619, -91.4078, 53.7272
5.70348, 13, -30.947, -5.03411, 26.0464, -158.608, -91.3964, 53.7147
5.71154, 13, -30.9258, -5.07724, 26.0834, -158.587, -91.3731, 53.6901
5.71965, 13, -30.9046, -5.12054, 26.1205, -158.566, -91.3494, 53.6655
5.72746, 13, -30.8835, -5.16409, 26.1577, -158.544, -91.3256, 53.6407
5.73552, 13, -30.8626, -5.20789, 26.1952, -158.522, -91.3019, 53.6157
5.74348, 13, -30.8417, -5.2518, 26.2328, -158.5, -91.2781, 53.5901
5.75332, 13, -30.8106, -5.31822, 26.2896, -158.466, -91.2418, 53.5509
5.75944, 14, -30.8004, -5.34047, 26.3087, -158.455, -91.2294, 53.5376
5.76748, 14, -30.7799, -5.38507, 26.3468, -158.433, -91.2042, 53.5111
5.77703, 14, -30.7492, -5.45251, 26.4042, -158.4, -91.1665, 53.4721
5.78348, 14, -30.739, -5.47513, 26.4235, -158.388, -91.154, 53.459
5.79152, 14, -30.7186, -5.52058, 26.4622, -158.365, -91.129, 53.4325
5.80119, 14, -30.6984, -5.56637, 26.5203, -158.33, -91.0905, 53.3918
5.80748, 14, -30.6781, -5.61238, 26.5399, -158.318, -91.0773, 53.3779
5.81566, 14, -30.6581, -5.6586, 26.579, -158.295, -91.0507, 53.3495
5.82345, 14, -30.6381, -5.70518, 26.6184, -158.272, -91.0243, 53.3213
5.83155, 14, -30.6183, -5.752, 26.6579, -158.248, -90.9978, 53.2933
5.83957, 14, -30.5984, -5.79902, 26.6975, -158.224, -90.9712, 53.2652
5.84846, 14, -30.5787, -5.84629, 26.7374, -158.2, -90.944, 53.2368
5.85557, 14, -30.5592, -5.8938, 26.7775, -158.176, -90.9161, 53.208
5.86382, 15, -30.5396, -5.94149, 26.8176, -158.152, -90.8884, 53.1784
5.87148, 15, -30.5201, -5.98934, 26.858, -158.128, -90.8608, 53.1487
5.87948, 15, -30.5008, -6.03744, 26.8986, -158.103, -90.8332, 53.1193
5.88886, 15, -30.4816, -6.08577, 26.9394, -158.078, -90.8053, 53.0896
5.89549, 15, -30.4625, -6.1343, 26.9804, -158.053, -90.7765, 53.0597
5.90358, 15, -30.4434, -6.18312, 27.0214, -158.027, -90.7477, 53.0292
5.91147, 15, -30.4243, -6.2322, 27.0626, -158.002, -90.719, 52.9981
5.92138, 15, -30.4054, -6.2816, 27.1041, -157.977, -90.6903, 52.9668
5.92754, 15, -30.3867, -6.3313, 27.1456, -157.952, -90.661, 52.9356
5.93549, 15, -30.3678, -6.38124, 27.1873, -157.925, -90.6309, 52.9042
5.94352, 15, -30.3492, -6.43157, 27.2293, -157.899, -90.6008, 52.8727
5.95154, 15, -30.3308, -6.48215, 27.2714, -157.873, -90.5709, 52.8406
5.95943, 16, -30.3126, -6.53298, 27.3137, -157.848, -90.5411, 52.808
5.96747, 16, -30.2942, -6.58406, 27.3561, -157.821, -90.5107, 52.7752
5.97549, 16, -30.2758, -6.63537, 27.3988, -157.795, -90.4795, 52.7427
5.98357, 16, -30.2575, -6.68688, 27.4418, -157.768, -90.4485, 52.7102
5.9915, 16, -30.2394, -6.73848, 27.4847, -157.741, -90.4176, 52.6771
5.99959, 16, -30.2213, -6.7904, 27.528, -157.714, -90.3865, 52.6436
6.00756, 16, -30.2033, -6.84245, 27.5714, -157.688, -90.3546, 52.6094
6.0158, 16, -30.1855, -6.8947, 27.6151, -157.66, -90.3221, 52.5755
6.02463, 16, -30.1678, -6.94725, 27.659, -157.632, -90.29, 52.5417
6.03197, 16, -30.1501, -7.00002, 27.7028, -157.605, -90.2579, 52.5077
6.03964, 16, -30.1324, -7.05318, 27.7469, -157.577, -90.2256, 52.473
6.04747, 16, -30.1147, -7.10651, 27.7912, -157.55, -90.1923, 52.4378
6.05619, 16, -30.0971, -7.16026, 27.8355, -157.522, -90.1592, 52.4027
6.06351, 17, -30.0798, -7.21435, 27.8801, -157.493, -90.1262, 52.3678
6.07155, 17, -30.0624, -7.26866, 27.9249, -157.465, -90.0931, 52.3327
6.08058, 17, -30.0452, -7.32325, 27.9698, -157.437, -90.0591, 52.2972
6.08768, 17, -30.0282, -7.37807, 28.0149, -157.409, -90.0248, 52.261
6.09605, 17, -30.0113, -7.43314, 28.0601, -157.38, -89.9909, 52.2244
6.10455, 17, -29.9945, -7.48825, 28.1056, -157.35, -89.9571, 52.1881
6.11223, 17, -29.9775, -7.54359, 28.1513, -157.321, -89.9225, 52.1518
6.12092, 17, -29.9607, -7.59915, 28.1971, -157.292, -89.8873, 52.1151
6.12792, 17, -29.944, -7.65483, 28.2432, -157.263, -89.8525, 52.0778
6.13656, 17, -29.9274, -7.71074, 28.2894, -157.234, -89.8177, 52.0402
6.14425, 17, -29.9108, -7.76694, 28.3359, -157.203, -89.7823, 52.0029
6.15206, 17, -29.8944, -7.82336, 28.3824, -157.173, -89.746, 51.9656
6.16134, 18, -29.878, -7.88013, 28.4291, -157.144, -89.7102, 51.9275
6.16806, 18, -29.8699, -7.90866, 28.4525, -157.129, -89.6746, 51.8889
6.1761, 18, -29.8537, -7.96592, 28.4993, -157.099, -89.6385, 51.85
6.18346, 18, -29.8376, -8.0235, 28.5463, -157.068, -89.6201, 51.8308
6.19151, 18, -29.8214, -8.08129, 28.5936, -157.037, -89.5833, 51.7923
6.19946, 18, -29.8053, -8.13943, 28.6411, -157.006, -89.5469, 51.7534
6.2075, 18, -29.7893, -8.19769, 28.6886, -156.976, -89.5102, 51.7139
6.22082, 18, -29.7656, -8.28544, 28.7845, -156.913, -89.4347, 51.6347
6.22341, 18, -29.7577, -8.31477, 28.7845, -156.913, -89.4347, 51.6347
6.23146, 18, -29.7419, -8.37347, 28.8327, -156.882, -89.3974, 51.5952
6.23952, 18, -29.7263, -8.43238, 28.8811, -156.851, -89.3599, 51.5553
6.24745, 18, -29.7108, -8.49148, 28.9297, -156.82, -89.3214, 51.5148
6.25548, 18, -29.6954, -8.55088, 28.9785, -156.787, -89.283, 51.4742
6.26346, 19, -29.68, -8.61051, 29.0273, -156.755, -89.2449, 51.4341
6.27304, 19, -29.6568, -8.70059, 29.1009, -156.708, -89.1867, 51.3735
6.27951, 19, -29.6491, -8.73076, 29.1255, -156.692, -89.167, 51.3529
6.28746, 19, -29.6339, -8.79139, 29.1747, -156.66, -89.1278, 51.3115
6.29702, 19, -29.6188, -8.85233, 29.2242, -156.627, -89.0891, 51.2501
6.30346, 19, -29.6038, -8.9135, 29.2738, -156.594, -89.0497, 51.2296
6.31331, 19, -29.5888, -8.97488, 29.3237, -156.562, -89.0098, 51.1669
6.31952, 19, -29.574, -9.03648, 29.3736, -156.529, -88.9704, 51.1457
6.32851, 19, -29.5594, -9.09822, 29.4239, -156.495, -88.9308, 51.1032
6.33555, 19, -29.5448, -9.16004, 29.4743, -156.462, -88.8903, 51.061
6.34352, 19, -29.5303, -9.22207, 29.5248, -156.429, -88.8498, 51.0185
6.35145, 19, -29.5157, -9.28429, 29.5756, -156.396, -88.8096, 50.9752
6.35941, 20, -29.5012, -9.3467, 29.6266, -156.362, -88.7692, 50.9317
6.36746, 20, -29.4868, -9.40945, 29.6777, -156.327, -88.7279, 50.8887
6.37553, 20, -29.4725, -9.47244, 29.7288, -156.293, -88.687, 50.8453
6.3835, 20, -29.4583, -9.53569, 29.7802, -156.26, -88.6463, 50.8012
6.39151, 20, -29.4442, -9.59929, 29.8316, -156.225, -88.6046, 50.7565
6.39945, 20, -29.4301, -9.66319, 29.8832, -156.19, -88.5627, 50.7125
6.40769, 20, -29.4162, -9.7273, 29.9351, -156.156, -88.5213, 50.6684
6.41665, 20, -29.4024, -9.79167, 29.9871, -156.121, -88.4796, 50.6238
6.42345, 20, -29.3886, -9.85623, 30.0393, -156.087, -88.4369, 50.5786
6.4315, 20, -29.375, -9.92097, 30.0917, -156.051, -88.3945, 50.5336
6.43949, 20, -29.3613, -9.98582, 30.1442, -156.016, -88.3523, 50.489
6.44749, 20, -29.3476, -10.0508, 30.197, -155.981, -88.3091, 50.444
6.45763, 21, -29.3341, -10.1161, 30.2499, -155.945, -88.266, 50.3982
6.46345, 21, -29.3206, -10.1816, 30.303, -155.909, -88.2232, 50.3526
6.47152, 21, -29.3072, -10.2473, 30.3561, -155.873, -88.1799, 50.3073
6.4796, 21, -29.2939, -10.3132, 30.4094, -155.838, -88.1361, 50.2615
6.48755, 21, -29.2806, -10.3794, 30.4629, -155.802, -88.0929, 50.2152
6.4955, 21, -29.2673, -10.4459, 30.5164, -155.765, -88.0494, 50.1693
6.50374, 21, -29.2543, -10.5125, 30.5701, -155.729, -88.0049, 50.1237
6.51169, 21, -29.2413, -10.5795, 30.624, -155.693, -87.9606, 50.0775
6.51957, 21, -29.2283, -10.6466, 30.6781, -155.657, -87.9168, 50.0306
6.52792, 21, -29.2154, -10.7139, 30.7324, -155.619, -87.8719, 49.9839
6.53557, 21, -29.2024, -10.7814, 30.7869, -155.582, -87.827, 49.9375
6.54355, 21, -29.1894, -10.8491, 30.8414, -155.545, -87.7827, 49.8906
6.55219, 21, -29.1766, -10.917, 30.8962, -155.508, -87.7374, 49.843
6.56151, 22, -29.1639, -10.985, 30.9513, -155.47, -87.6917, 49.796
6.56755, 22, -29.1512, -11.0533, 31.0063, -155.433, -87.6468, 49.7491
6.57648, 22, -29.1387, -11.1219, 31.0615, -155.395, -87.6014, 49.7015
6.58365, 22, -29.1263, -11.1905, 31.1168, -155.357, -87.5551, 49.6533
6.59163, 22, -29.1138, -11.2596, 31.1722, -155.318, -87.5093, 49.6055
6.60057, 22, -29.1017, -11.3287, 31.2277, -155.28, -87.4634, 49.5579
6.60814, 22, -29.0896, -11.398, 31.2835, -155.243, -87.4165, 49.5097
6.61591, 22, -29.0775, -11.4676, 31.3395, -155.204, -87.3702, 49.4609
6.62451, 22, -29.0654, -11.5374, 31.3957, -155.165, -87.3242, 49.4125
6.632, 22, -29.0535, -11.6075, 31.452, -155.127, -87.2771, 49.3641
6.64066, 22, -29.0414, -11.6777, 31.5084, -155.088, -87.2304, 49.3151
6.648, 22, -29.0295, -11.7482, 31.5649, -155.048, -87.1839, 49.2658
6.65676, 23, -29.0177, -11.8188, 31.6217, -155.009, -87.1363, 49.217
6.66405, 23, -29.0059, -11.8896, 31.6784, -154.97, -87.0889, 49.1681
6.67199, 23, -29, -11.925, 31.7069, -154.95, -87.0655, 49.1186
6.68063, 23, -28.9825, -12.0318, 31.7925, -154.89, -86.9941, 49.0692
6.68743, 23, -28.9767, -12.0674, 31.821, -154.871, -86.9701, 49.0447
6.69547, 23, -28.9651, -12.1388, 31.8783, -154.831, -86.9227, 48.9958
6.70523, 23, -28.9478, -12.2463, 31.9645, -154.771, -86.8504, 48.9212
6.7151, 23, -28.9365, -12.3182, 32.0222, -154.73, -86.8019, 48.8715
6.71946, 23, -28.9308, -12.3542, 32.0511, -154.711, -86.778, 48.8468
6.72746, 23, -28.9195, -12.4264, 32.1091, -154.671, -86.7295, 48.7973
6.7355, 23, -28.9084, -12.4988, 32.1671, -154.63, -86.6803, 48.7471
6.74345, 23, -28.8973, -12.5715, 32.2254, -154.589, -86.6317, 48.6971
6.75143, 23, -28.8861, -12.6443, 32.2838, -154.548, -86.5828, 48.6475
6.75943, 24, -28.8749, -12.7173, 32.3422, -154.507, -86.5331, 48.5975
6.76749, 24, -28.864, -12.7905, 32.4008, -154.465, -86.4844, 48.5467
6.77795, 24, -28.8475, -12.9005, 32.4889, -154.404, -86.41, 48.4713
6.7835, 24, -28.8421, -12.9373, 32.5183, -154.383, -86.3852, 48.4463
6.79143, 24, -28.8313, -13.011, 32.5773, -154.341, -86.336, 48.3954
6.7995, 24, -28.8205, -13.0849, 32.6364, -154.299, -86.286, 48.3442
6.80759, 24, -28.8097, -13.159, 32.6957, -154.258, -86.2357, 48.2936
6.81541, 24, -28.799, -13.2332, 32.7553, -154.216, -86.1862, 48.243
6.82352, 24, -28.7883, -13.3078, 32.8148, -154.173, -86.1359, 48.1917
6.83144, 24, -28.7778, -13.3824, 32.8745, -154.131, -86.0853, 48.1406
6.83943, 24, -28.7672, -13.4572, 32.9344, -154.089, -86.0354, 48.09
6.8475, 24, -28.7567, -13.5322, 32.9943, -154.046, -85.9845, 48.0391
6.8566, 25, -28.7462, -13.6073, 33.0543, -154.004, -85.9336, 47.9876
6.86343, 25, -28.7358, -13.6825, 33.1146, -153.961, -85.8834, 47.9368
6.87146, 25, -28.7253, -13.7579, 33.1748, -153.918, -85.8323, 47.8862
6.88086, 25, -28.7149, -13.8335, 33.2352, -153.875, -85.7812, 47.835
6.88745, 25, -28.7047, -13.9093, 33.2958, -153.832, -85.7305, 47.7836
6.8955, 25, -28.6945, -13.9853, 33.3564, -153.789, -85.6787, 47.7328
6.90343, 25, -28.6844, -14.0614, 33.4173, -153.745, -85.6275, 47.682
6.91459, 25, -28.6693, -14.1759, 33.5088, -153.68, -85.5506, 47.6047
6.91948, 25, -28.6643, -14.2142, 33.5393, -153.658, -85.5246, 47.5793
6.92743, 25, -28.6542, -14.2907, 33.6005, -153.614, -85.4734, 47.5285
6.93546, 25, -28.6442, -14.3674, 33.6618, -153.57, -85.4218, 47.4773
6.94349, 25, -28.6344, -14.4443, 33.7231, -153.526, -85.3695, 47.4255
6.9515, 25, -28.6246, -14.5213, 33.7846, -153.481, -85.3181, 47.3743
6.95945, 26, -28.6148, -14.5985, 33.8461, -153.437, -85.2661, 47.3234
6.96746, 26, -28.6049, -14.6757, 33.9077, -153.393, -85.2137, 47.2718
6.97566, 26, -28.5952, -14.7532, 33.9696, -153.348, -85.162, 47.2204
6.98343, 26, -28.5856, -14.8308, 34.0314, -153.303, -85.1094, 47.1696
6.99153, 26, -28.5759, -14.9084, 34.0935, -153.258, -85.0567, 47.1184
6.9996, 26, -28.5662, -14.9862, 34.1557, -153.214, -85.0047, 47.0668
7.00767, 26, -28.5565, -15.0642, 34.218, -153.168, -84.9518, 47.0157
7.0156, 26, -28.5469, -15.1422, 34.2804, -153.123, -84.8991, 46.9651
7.02354, 26, -28.5373, -15.2202, 34.3429, -153.078, -84.8465, 46.914
7.03161, 26, -28.5277, -15.2985, 34.4054, -153.032, -84.7931, 46.8627
7.0396, 26, -28.5182, -15.377, 34.4681, -152.987, -84.7405, 46.8124
7.04753, 26, -28.5088, -15.4555, 34.5308, -152.941, -84.6877, 46.762
7.05542, 27, -28.4994, -15.5342, 34.5935, -152.895, -84.6342, 46.7108
7.06367, 27, -28.4898, -15.6131, 34.6565, -152.849, -84.5816, 46.6597
7.07154, 27, -28.4805, -15.6922, 34.7194, -152.803, -84.5282, 46.6092
7.07955, 27, -28.4713, -15.7713, 34.7826, -152.756, -84.4746, 46.5582
7.08764, 27, -28.462, -15.8505, 34.8458, -152.71, -84.4218, 46.507
7.09565, 27, -28.4527, -15.93, 34.9092, -152.664, -84.3678, 46.4562
7.10412, 27, -28.4437, -16.0094, 34.9726, -152.617, -84.3144, 46.4056
7.11288, 27, -28.4346, -16.089, 35.036, -152.57, -84.2609, 46.3544
7.11983, 27, -28.4254, -16.1687, 35.0995, -152.524, -84.2066, 46.3033
7.12871, 27, -28.4162, -16.2485, 35.163, -152.477, -84.1533, 46.253
7.13595, 27, -28.407, -16.3285, 35.2266, -152.429, -84.0995, 46.2026
7.14452, 27, -28.3978, -16.4085, 35.2903, -152.383, -84.0452, 46.1516
7.15291, 27, -28.3886, -16.4886, 35.3541, -152.336, -83.9916, 46.1013
7.16032, 28, -28.3794, -16.5689, 35.418, -152.288, -83.9372, 46.0516
7.16803, 28, -28.3702, -16.6493, 35.4821, -152.241, -83.8832, 46.0015
7.17894, 28, -28.361, -16.7297, 35.5461, -152.193, -83.8296, 45.9511
7.18338, 28, -28.3565, -16.77, 35.5782, -152.169, -83.8024, 45.9261
7.19142, 28, -28.3474, -16.8506, 35.6424, -152.122, -83.748, 45.8767
7.19947, 28, -28.3383, -16.9313, 35.7066, -152.074, -83.6944, 45.8273
7.2076, 28, -28.3292, -17.012, 35.7708, -152.025, -83.6396, 45.7774
7.21554, 28, -28.3203, -17.0928, 35.8351, -151.977, -83.5854, 45.7281
7.22348, 28, -28.3113, -17.1737, 35.8995, -151.93, -83.5315, 45.6793
7.23141, 28, -28.3024, -17.2546, 35.964, -151.88, -83.4766, 45.6303
7.23941, 28, -28.2934, -17.3356, 36.0285, -151.832, -83.4226, 45.5809
7.24748, 28, -28.2846, -17.4167, 36.0931, -151.784, -83.3679, 45.5324
7.25539, 29, -28.2757, -17.498, 36.1578, -151.735, -83.3131, 45.4842
7.26354, 29, -28.2668, -17.5793, 36.2226, -151.686, -83.2589, 45.4358
7.27141, 29, -28.2577, -17.6608, 36.2875, -151.638, -83.2037, 45.3873
7.28116, 29, -28.2441, -17.7831, 36.3847, -151.564, -83.1218, 45.3159
7.28741, 29, -28.2396, -17.8238, 36.4171, -151.54, -83.0943, 45.2921
7.29776, 29, -28.2307, -17.9054, 36.4819, -151.491, -83.0117, 45.2201
7.30357, 29, -28.2217, -17.9871, 36.5467, -151.441, -82.9847, 45.1963
7.31161, 29, -28.2127, -18.0688, 36.6118, -151.392, -82.9296, 45.1492
7.31949, 29, -28.2038, -18.1505, 36.6769, -151.343, -82.8747, 45.1025
7.32846, 29, -28.1949, -18.2323, 36.7421, -151.293, -82.8201, 45.0554
7.33542, 29, -28.186, -18.3142, 36.8074, -151.244, -82.7646, 45.0083
7.34349, 29, -28.1771, -18.3962, 36.8727, -151.194, -82.7098, 44.9622
7.35237, 29, -28.1682, -18.4782, 36.938, -151.143, -82.6551, 44.9163
7.35941, 30, -28.1595, -18.5602, 37.0033, -151.094, -82.5997, 44.8701
7.36741, 30, -28.1507, -18.6423, 37.0685, -151.044, -82.5452, 44.8239
7.37677, 30, -28.1418, -18.7245, 37.1338, -150.993, -82.4897, 44.7787
7.38341, 30, -28.133, -18.8067, 37.1991, -150.944, -82.4344, 44.7337
7.39149, 30, -28.1241, -18.889, 37.2645, -150.893, -82.3798, 44.6886
7.39943, 30, -28.1152, -18.9714, 37.3299, -150.842, -82.3241, 44.6435
7.41051, 30, -28.1017, -19.0949, 37.4281, -150.767, -82.2417, 44.5776
7.41549, 30, -28.0972, -19.1362, 37.4609, -150.741, -82.214, 44.5557
7.42341, 30, -28.0882, -19.2188, 37.5264, -150.691, -82.1583, 44.512
7.43141, 30, -28.0793, -19.3012, 37.5921, -150.641, -82.1036, 44.4681
7.43948, 30, -28.0703, -19.3836, 37.6576, -150.589, -82.0483, 44.4249
7.44741, 30, -28.0612, -19.4661, 37.7231, -150.539, -81.9931, 44.3822
7.45542, 31, -28.0522, -19.5484, 37.7886, -150.488, -81.9382, 44.3397
7.46356, 31, -28.0431, -19.6309, 37.8542, -150.436, -81.8826, 44.2969
7.47141, 31, -28.034, -19.7134, 37.9197, -150.386, -81.8278, 44.2547
7.48047, 31, -28.0249, -19.7959, 37.9854, -150.335, -81.7728, 44.2135
7.48741, 31, -28.0157, -19.8784, 38.051, -150.283, -81.7174, 44.1723
7.49542, 31, -28.0067, -19.961, 38.1168, -150.232, -81.6627, 44.131
7.50367, 31, -27.9977, -20.0436, 38.1825, -150.18, -81.6071, 44.0896
7.51247, 31, -27.9886, -20.1262, 38.2481, -150.128, -81.5519, 44.049
7.51955, 31, -27.9794, -20.2089, 38.3138, -150.077, -81.497, 44.0092
7.52791, 31, -27.9703, -20.2915, 38.3793, -150.025, -81.4414, 43.9693
7.53553, 31, -27.9611, -20.3741, 38.4449, -149.973, -81.3865, 43.9291
7.54352, 31, -27.9518, -20.4568, 38.5104, -149.922, -81.3312, 43.8896
7.55205, 31, -27.9423, -20.5395, 38.576, -149.87, -81.2758, 43.8509
7.56053, 32, -27.933, -20.6222, 38.6416, -149.818, -81.2212, 43.8125
7.56744, 32, -27.9236, -20.7049, 38.7072, -149.767, -81.1659, 43.7744
7.57637, 32, -27.9142, -20.7875, 38.7728, -149.714, -81.1111, 43.7363
7.5835, 32, -27.9047, -20.8701, 38.8384, -149.662, -81.0563, 43.6986
7.59161, 32, -27.8952, -20.9528, 38.904, -149.61, -81.0008, 43.662
7.60046, 32, -27.8856, -21.0354, 38.9696, -149.557, -80.9463, 43.6258
7.60774, 32, -27.8761, -21.1179, 39.0351, -149.506, -80.8913, 43.5897
7.61573, 32, -27.8664, -21.2004, 39.1006, -149.453, -80.8361, 43.5538
7.62483, 32, -27.8567, -21.283, 39.166, -149.4, -80.7816, 43.5183
7.63281, 32, -27.8472, -21.3655, 39.2314, -149.349, -80.7262, 43.4838
7.63991, 32, -27.8376, -21.448, 39.2969, -149.295, -80.6715, 43.45
7.64886, 32, -27.8279, -21.5305, 39.3623, -149.243, -80.6171, 43.4164
7.656, 33, -27.8181, -21.613, 39.4277, -149.191, -80.5618, 43.3829
7.66459, 33, -27.8084, -21.6954, 39.4931, -149.137, -80.5075, 43.3495
7.675, 33, -27.7984, -21.7777, 39.5585, -149.085, -80.4525, 43.3171
7.67935, 33, -27.7934, -21.8189, 39.5912, -149.059, -80.4249, 43.3013
7.68744, 33, -27.7833, -21.9013, 39.6565, -149.006, -80.3706, 43.27
7.69547, 33, -27.7732, -21.9836, 39.7217, -148.953, -80.3162, 43.239
7.70357, 33, -27.7632, -22.0659, 39.7869, -148.901, -80.2613, 43.2082
7.7114, 33, -27.753, -22.1482, 39.852, -148.847, -80.2074, 43.1775
7.71945, 33, -27.7427, -22.2304, 39.9171, -148.795, -80.1526, 43.1474
7.72742, 33, -27.7325, -22.3125, 39.9822, -148.742, -80.0982, 43.1183
7.73541, 33, -27.7222, -22.3947, 40.0471, -148.688, -80.0444, 43.09
7.74344, 33, -27.7119, -22.4768, 40.1122, -148.636, -79.9896, 43.0622
7.75164, 34, -27.7015, -22.5588, 40.1772, -148.582, -79.9358, 43.0347
7.75939, 34, -27.6912, -22.6407, 40.2421, -148.529, -79.8816, 43.0073
7.76912, 34, -27.6756, -22.7635, 40.3395, -148.449, -79.7998, 42.9668
7.77543, 34, -27.6703, -22.8044, 40.3718, -148.422, -79.773, 42.9538
7.78346, 34, -27.6598, -22.8861, 40.4365, -148.369, -79.7184, 42.9284
7.79305, 34, -27.6438, -23.0085, 40.5332, -148.289, -79.6372, 42.8918
7.79958, 34, -27.6384, -23.0493, 40.5655, -148.262, -79.6101, 42.8799
7.80822, 34, -27.6274, -23.131, 40.63, -148.21, -79.5553, 42.8564
7.81542, 34, -27.6165, -23.2125, 40.6944, -148.156, -79.5015, 42.8332
7.82439, 34, -27.6055, -23.2939, 40.7589, -148.102, -79.4475, 42.8103
7.83154, 34, -27.5943, -23.3753, 40.8232, -148.049, -79.3929, 42.788
7.84052, 34, -27.5831, -23.4567, 40.8876, -147.995, -79.3394, 42.7664
7.84739, 34, -27.572, -23.538, 40.9518, -147.942, -79.2849, 42.7459
7.85547, 35, -27.5607, -23.6192, 41.0158, -147.889, -79.2308, 42.7264
7.86339, 35, -27.5493, -23.7002, 41.0798, -147.835, -79.1774, 42.7072
7.87229, 35, -27.538, -23.7812, 41.1436, -147.782, -79.123, 42.689
7.87939, 35, -27.5267, -23.862, 41.2074, -147.728, -79.0695, 42.6712
7.88739, 35, -27.5152, -23.9427, 41.2711, -147.674, -79.0159, 42.6539
7.8968, 35, -27.5036, -24.0233, 41.3348, -147.621, -78.9616, 42.637
7.90339, 35, -27.4919, -24.1039, 41.3983, -147.567, -78.9083, 42.6205
7.91147, 35, -27.48, -24.1842, 41.4619, -147.513, -78.8546, 42.6046
7.91939, 35, -27.468, -24.2646, 41.5253, -147.46, -78.8009, 42.5898
7.92756, 35, -27.4559, -24.3449, 41.5887, -147.406, -78.7477, 42.5757
7.93639, 35, -27.4437, -24.425, 41.6519, -147.353, -78.6937, 42.5623
7.94339, 35, -27.4315, -24.505, 41.715, -147.299, -78.6404, 42.5499
7.95163, 36, -27.419, -24.5851, 41.7779, -147.245, -78.5874, 42.5383
7.95946, 36, -27.4066, -24.665, 41.8406, -147.192, -78.5339, 42.5274
7.96741, 36, -27.3939, -24.7447, 41.9033, -147.138, -78.4811, 42.5173
7.97547, 36, -27.3812, -24.8244, 41.9659, -147.084, -78.4282, 42.508
7.98341, 36, -27.3686, -24.9039, 42.0285, -147.031, -78.3748, 42.4992
7.9914, 36, -27.3559, -24.9834, 42.091, -146.976, -78.3224, 42.4912
7.99964, 36, -27.3431, -25.0627, 42.1533, -146.924, -78.2694, 42.4838
8.00845, 36, -27.3301, -25.142, 42.2156, -146.87, -78.2166, 42.4771
8.01552, 36, -27.3169, -25.221, 42.2777, -146.816, -78.1644, 42.4711
8.02386, 36, -27.3037, -25.2999, 42.3396, -146.763, -78.1114, 42.4658
8.03151, 36, -27.2904, -25.3787, 42.4014, -146.708, -78.0588, 42.4613
8.0395, 36, -27.2769, -25.4574, 42.463, -146.655, -78.0067, 42.4575
8.04798, 36, -27.2633, -25.5359, 42.5246, -146.602, -77.9539, 42.4545
8.0554, 37, -27.2496, -25.6142, 42.586, -146.547, -77.9018, 42.4524
8.06342, 37, -27.2357, -25.6925, 42.6473, -146.494, -77.8496, 42.451
8.07246, 37, -27.2219, -25.7706, 42.7084, -146.441, -77.7969, 42.4502
8.07967, 37, -27.208, -25.8486, 42.7696, -146.387, -77.7452, 42.4498
8.08753, 37, -27.194, -25.9264, 42.8305, -146.334, -77.6932, 42.4497
8.09635, 37, -27.1798, -26.004, 42.8913, -146.281, -77.6411, 42.4498
8.10368, 37, -27.1654, -26.0816, 42.952, -146.227, -77.5895, 42.45
8.11169, 37, -27.1509, -26.1589, 43.0125, -146.174, -77.5373, 42.4507
8.12015, 37, -27.1362, -26.236, 43.0728, -146.12, -77.4852, 42.4524
8.12945, 37, -27.1215, -26.313, 43.1329, -146.068, -77.4341, 42.4559
8.13654, 37, -27.1067, -26.3898, 43.1929, -146.015, -77.382, 42.4608
8.14391, 37, -27.0917, -26.4665, 43.2528, -145.961, -77.3305, 42.4669
8.15249, 38, -27.0765, -26.5431, 43.3126, -145.908, -77.2793, 42.4744
8.15993, 38, -27.0614, -26.6195, 43.3721, -145.855, -77.2273, 42.483
8.16899, 38, -27.0461, -26.6958, 43.4316, -145.802, -77.176, 42.4926
8.1762, 38, -27.0384, -26.7338, 43.4613, -145.776, -77.125, 42.5034
8.18398, 38, -27.023, -26.8098, 43.5205, -145.723, -77.0732, 42.515
8.19143, 38, -27.0073, -26.8856, 43.5796, -145.67, -77.0477, 42.5212
8.19944, 38, -26.9913, -26.9612, 43.6385, -145.617, -76.9969, 42.5343
8.20743, 38, -26.9753, -27.0365, 43.6971, -145.564, -76.9453, 42.5484
8.21538, 38, -26.9592, -27.1116, 43.7557, -145.512, -76.8943, 42.5637
8.22638, 38, -26.9348, -27.224, 43.8431, -145.433, -76.8184, 42.5888
8.23157, 38, -26.9265, -27.2614, 43.8722, -145.407, -76.7927, 42.5978
8.23938, 38, -26.9099, -27.336, 43.9302, -145.355, -76.7421, 42.6166
8.24743, 38, -26.8933, -27.4105, 43.988, -145.303, -76.6917, 42.6367
8.25538, 39, -26.8764, -27.4848, 44.0456, -145.25, -76.6404, 42.6578
8.26492, 39, -26.8507, -27.5959, 44.1317, -145.172, -76.5652, 42.6907
8.27138, 39, -26.842, -27.6328, 44.1603, -145.146, -76.5399, 42.7021
8.27944, 39, -26.8245, -27.7065, 44.2174, -145.093, -76.4889, 42.7257
8.28737, 39, -26.807, -27.78, 44.2743, -145.042, -76.4389, 42.7501
8.29787, 39, -26.7804, -27.8898, 44.3592, -144.964, -76.363, 42.7893
8.30348, 39, -26.7714, -27.9264, 44.3874, -144.938, -76.3376, 42.803
8.31297, 39, -26.7534, -27.9993, 44.4437, -144.887, -76.2878, 42.8313
8.31956, 39, -26.7353, -28.0719, 44.4996, -144.835, -76.2374, 42.8602
8.32823, 39, -26.7171, -28.1445, 44.5553, -144.784, -76.1867, 42.8899
8.33537, 39, -26.6987, -28.2167, 44.611, -144.733, -76.1369, 42.9206
8.3434, 39, -26.6798, -28.2887, 44.6663, -144.681, -76.0865, 42.9524
8.35137, 40, -26.6609, -28.3605, 44.7215, -144.63, -76.0362, 42.9859
8.35942, 40, -26.6418, -28.432, 44.7765, -144.58, -75.9869, 43.0205
8.36737, 40, -26.6226, -28.5032, 44.8312, -144.528, -75.9367, 43.0558
8.37545, 40, -26.6031, -28.5741, 44.8858, -144.478, -75.8868, 43.0918
8.38344, 40, -26.5835, -28.6448, 44.9401, -144.428, -75.8376, 43.1288
8.39139, 40, -26.5638, -28.7153, 44.9942, -144.377, -75.7874, 43.1675
8.3994, 40, -26.5439, -28.7855, 45.048, -144.328, -75.7376, 43.2073
8.40737, 40, -26.5236, -28.8556, 45.1016, -144.277, -75.6887, 43.2477
8.41562, 40, -26.5031, -28.9254, 45.1548, -144.227, -75.6389, 43.2891
8.42524, 40, -26.4826, -28.9949, 45.2078, -144.178, -75.5894, 43.3321
8.43137, 40, -26.4618, -29.0643, 45.2606, -144.127, -75.5405, 43.3765
8.43944, 40, -26.4407, -29.1333, 45.3132, -144.078, -75.4907, 43.4216
8.44739, 40, -26.4195, -29.202, 45.3655, -144.029, -75.4414, 43.4674
8.45539, 41, -26.3981, -29.2705, 45.4176, -143.979, -75.3927, 43.5148
8.46453, 41, -26.3764, -29.3386, 45.4694, -143.93, -75.3433, 43.5637
8.47237, 41, -26.3544, -29.4065, 45.5209, -143.882, -75.2944, 43.6131
8.47937, 41, -26.3322, -29.4741, 45.5723, -143.833, -75.2459, 43.6634
8.48739, 41, -26.3101, -29.5415, 45.6233, -143.785, -75.1966, 43.7154
8.49639, 41, -26.2876, -29.6087, 45.674, -143.737, -75.148, 43.7687
8.50339, 41, -26.2649, -29.6756, 45.7245, -143.689, -75.0999, 43.8227
8.51145, 41, -26.242, -29.7422, 45.7746, -143.641, -75.0511, 43.8782
8.5197, 41, -26.2188, -29.8085, 45.8244, -143.594, -75.0028, 43.9354
8.53149, 41, -26.1836, -29.9073, 45.8987, -143.522, -74.9305, 44.0225
8.53555, 41, -26.1717, -29.9401, 45.9233, -143.499, -74.906, 44.0523
8.54348, 41, -26.148, -30.0054, 45.9724, -143.453, -74.8578, 44.1135
8.5515, 42, -26.1239, -30.0703, 46.0212, -143.405, -74.8101, 44.1751
8.55954, 42, -26.0996, -30.135, 46.0697, -143.359, -74.7617, 44.2377
8.56741, 42, -26.075, -30.1994, 46.1179, -143.313, -74.7136, 44.3024
8.57549, 42, -26.05, -30.2634, 46.1657, -143.267, -74.6661, 44.3676
8.58343, 42, -26.0249, -30.3271, 46.2133, -143.22, -74.6176, 44.4343
8.59158, 42, -25.9997, -30.3906, 46.2606, -143.176, -74.5696, 44.5027
8.59958, 42, -25.9741, -30.4538, 46.3075, -143.13, -74.5223, 44.5714
8.60759, 42, -25.9483, -30.5166, 46.3541, -143.085, -74.4741, 44.6421
8.6161, 42, -25.9222, -30.579, 46.4003, -143.041, -74.4263, 44.714
8.62376, 42, -25.8956, -30.641, 46.4463, -142.996, -74.3791, 44.7866
8.63183, 42, -25.8688, -30.7027, 46.4918, -142.952, -74.3311, 44.8617
8.64051, 42, -25.8419, -30.7639, 46.5371, -142.908, -74.2834, 44.9371
8.64793, 42, -25.8146, -30.8248, 46.5821, -142.866, -74.2367, 45.0146
8.65595, 43, -25.7871, -30.8855, 46.6267, -142.822, -74.1891, 45.0935
8.66448, 43, -25.7596, -30.9458, 46.6709, -142.779, -74.1417, 45.1732
8.67203, 43, -25.7315, -31.0057, 46.7147, -142.737, -74.0951, 45.2549
8.67996, 43, -25.7173, -31.0355, 46.7365, -142.716, -74.0477, 45.3371
8.68736, 43, -25.6889, -31.095, 46.7799, -142.674, -74.0239, 45.379
8.69642, 43, -25.6457, -31.1834, 46.8442, -142.612, -73.954, 45.5062
8.70336, 43, -25.6312, -31.2127, 46.8655, -142.591, -73.9307, 45.5493
8.71152, 43, -25.6017, -31.2709, 46.9078, -142.55, -73.8834, 45.6367
8.72162, 43, -25.572, -31.3574, 46.9705, -142.489, -73.8137, 45.7693
8.72736, 43, -25.5422, -31.386, 46.9912, -142.469, -73.7905, 45.8143
8.73538, 43, -25.5121, -31.4428, 47.0322, -142.429, -73.7433, 45.9048
8.74341, 43, -25.4816, -31.4992, 47.0729, -142.389, -73.6967, 45.9972
8.75134, 44, -25.4508, -31.5553, 47.1133, -142.35, -73.6507, 46.0904
8.76091, 44, -25.4035, -31.6386, 47.1728, -142.293, -73.5807, 46.2337
8.76983, 44, -25.3717, -31.6938, 47.212, -142.255, -73.5348, 46.3311
8.77541, 44, -25.3558, -31.7212, 47.2315, -142.236, -73.512, 46.3802
8.78545, 44, -25.3075, -31.8029, 47.2892, -142.18, -73.4423, 46.5295
8.79137, 44, -25.2912, -31.8299, 47.3083, -142.162, -73.4192, 46.58
8.79942, 44, -25.2583, -31.8836, 47.346, -142.125, -73.3737, 46.682
8.80738, 44, -25.2251, -31.9367, 47.3833, -142.088, -73.3281, 46.7853
8.81786, 44, -25.1917, -32.0155, 47.4386, -142.036, -73.2594, 46.9429
8.82338, 44, -25.1579, -32.0414, 47.4568, -142.018, -73.2369, 46.9961
8.83236, 44, -25.1237, -32.0929, 47.4928, -141.984, -73.1916, 47.1038
8.83942, 44, -25.0891, -32.1439, 47.5285, -141.949, -73.1457, 47.2127
8.84737, 44, -25.0542, -32.1944, 47.5636, -141.915, -73.1007, 47.3233
8.85637, 45, -25.019, -32.2445, 47.5982, -141.883, -73.056, 47.4354
8.86436, 45, -24.9834, -32.2943, 47.6325, -141.85, -73.0106, 47.5487
8.87144, 45, -24.9473, -32.3434, 47.6661, -141.817, -72.9658, 47.6636
8.87936, 45, -24.9109, -32.3923, 47.6992, -141.786, -72.9215, 47.78
8.88742, 45, -24.8743, -32.4406, 47.7318, -141.755, -72.8764, 47.8975
8.89537, 45, -24.8373, -32.4884, 47.7641, -141.725, -72.8316, 48.0166
8.90345, 45, -24.7997, -32.5357, 47.7956, -141.694, -72.7877, 48.1371
8.91153, 45, -24.7618, -32.5825, 47.8267, -141.664, -72.7434, 48.259
8.92039, 45, -24.7237, -32.6286, 47.8575, -141.635, -72.6989, 48.3825
8.92742, 45, -24.6852, -32.6739, 47.8877, -141.607, -72.6552, 48.5076
8.93534, 45, -24.6462, -32.7186, 47.9173, -141.579, -72.6114, 48.634
8.94335, 45, -24.6068, -32.7629, 47.9465, -141.552, -72.567, 48.7617
8.95144, 46, -24.567, -32.8065, 47.9752, -141.525, -72.5235, 48.8908
8.95936, 46, -24.5268, -32.8494, 48.0032, -141.499, -72.4805, 49.0213
8.96742, 46, -24.4862, -32.8918, 48.0306, -141.474, -72.4368, 49.1532
8.97538, 46, -24.4451, -32.9337, 48.0575, -141.449, -72.3935, 49.2866
8.98405, 46, -24.4038, -32.9751, 48.0839, -141.426, -72.3509, 49.4217
8.99242, 46, -24.362, -33.0159, 48.1096, -141.402, -72.3077, 49.5582
8.99936, 46, -24.3198, -33.056, 48.1348, -141.379, -72.2644, 49.6964
9.00842, 46, -24.2773, -33.0956, 48.1594, -141.356, -72.2222, 49.8359
9.01717, 46, -24.2344, -33.1345, 48.1834, -141.335, -72.1801, 49.9767
9.02436, 46, -24.1909, -33.1727, 48.2069, -141.315, -72.1372, 50.1187
9.03163, 46, -24.147, -33.2102, 48.2297, -141.295, -72.0952, 50.2621
9.03946, 46, -24.1027, -33.2471, 48.252, -141.275, -72.0537, 50.4069
9.0476, 47, -24.058, -33.2831, 48.2737, -141.256, -72.0117, 50.5533
9.05741, 47, -24.0128, -33.3185, 48.2947, -141.238, -71.9697, 50.7013
9.06435, 47, -23.9671, -33.3533, 48.3152, -141.22, -71.9288, 50.8505
9.07141, 47, -23.9211, -33.3874, 48.3348, -141.204, -71.8881, 51.0012
9.07944, 47, -23.8746, -33.4207, 48.3537, -141.189, -71.8468, 51.1535
9.08748, 47, -23.8275, -33.4532, 48.3721, -141.174, -71.806, 51.3067
9.09579, 47, -23.7801, -33.4852, 48.3899, -141.16, -71.766, 51.4616
9.10353, 47, -23.7323, -33.5164, 48.4071, -141.147, -71.7256, 51.6179
9.11255, 47, -23.6841, -33.5468, 48.4239, -141.135, -71.6851, 51.7758
9.12062, 47, -23.6354, -33.5764, 48.4396, -141.123, -71.6456, 51.9352
9.1277, 47, -23.5863, -33.6054, 48.4547, -141.112, -71.6065, 52.0958
9.13582, 47, -23.5366, -33.6336, 48.4692, -141.102, -71.567, 52.2581
9.14486, 47, -23.4864, -33.6608, 48.4829, -141.092, -71.5279, 52.4214
9.15188, 48, -23.4359, -33.6873, 48.4957, -141.083, -71.4895, 52.5861
9.16136, 48, -23.3848, -33.713, 48.5079, -141.075, -71.4514, 52.7523
9.16887, 48, -23.3332, -33.738, 48.5195, -141.068, -71.4128, 52.92
9.17649, 48, -23.2813, -33.762, 48.5304, -141.062, -71.3748, 53.0891
9.18404, 48, -23.2289, -33.7853, 48.5406, -141.057, -71.3378, 53.2595
9.19291, 48, -23.2025, -33.7966, 48.5454, -141.055, -71.3193, 53.3453
9.19939, 48, -23.1495, -33.8186, 48.5543, -141.051, -71.2822, 53.5177
9.20822, 48, -23.0959, -33.8396, 48.5626, -141.047, -71.2269, 53.7792
9.21691, 48, -23.0144, -33.8699, 48.5737, -141.046, -71.1909, 53.9555
9.22335, 48, -22.9871, -33.8794, 48.577, -141.045, -71.173, 54.0442
9.23253, 48, -22.9043, -33.9066, 48.5858, -141.045, -71.1188, 54.3122
9.23936, 48, -22.8764, -33.9154, 48.5884, -141.045, -71.101, 54.4022
9.2473, 49, -22.8205, -33.9321, 48.5929, -141.045, -71.066, 54.5829
9.25678, 49, -22.7356, -33.955, 48.598, -141.048, -71.0145, 54.8565
9.26486, 49, -22.6784, -33.9692, 48.6004, -141.051, -70.98, 55.0406
9.27295, 49, -22.6207, -33.9826, 48.602, -141.056, -70.9459, 55.2261
9.28119, 49, -22.5626, -33.9951, 48.6028, -141.061, -70.9128, 55.4129
9.28734, 49, -22.5333, -34.0009, 48.603, -141.064, -70.8964, 55.5069
9.29535, 49, -22.4745, -34.0115, 48.6031, -141.071, -70.8637, 55.6954
9.30516, 49, -22.3851, -34.0258, 48.6022, -141.084, -70.8146, 55.981
9.31219, 49, -22.3552, -34.0301, 48.6016, -141.089, -70.7986, 56.0769
9.32095, 49, -22.2948, -34.038, 48.5996, -141.1, -70.7674, 56.2697
9.32749, 49, -22.234, -34.045, 48.5968, -141.112, -70.7369, 56.4637
9.3364, 49, -22.1728, -34.0511, 48.5931, -141.125, -70.7063, 56.6591
9.34335, 49, -22.1109, -34.056, 48.5884, -141.139, -70.6759, 56.8555
9.35395, 50, -22.0174, -34.061, 48.5796, -141.161, -70.6319, 57.1525
9.35941, 50, -21.986, -34.0622, 48.5762, -141.169, -70.6177, 57.2522
9.36738, 50, -21.9228, -34.0637, 48.5686, -141.186, -70.5895, 57.4526
9.3754, 50, -21.8592, -34.0644, 48.5601, -141.203, -70.5614, 57.6542
9.38334, 50, -21.795, -34.0644, 48.5506, -141.222, -70.5334, 57.857
9.39135, 50, -21.7302, -34.0636, 48.5404, -141.242, -70.5063, 58.0609
9.3994, 50, -21.6648, -34.0618, 48.5292, -141.264, -70.4801, 58.2662
9.40749, 50, -21.5991, -34.0587, 48.5169, -141.286, -70.4547, 58.473
9.41635, 50, -21.533, -34.0546, 48.5036, -141.309, -70.4297, 58.6807
9.42341, 50, -21.4663, -34.0492, 48.4894, -141.332, -70.4049, 58.8896
9.43135, 50, -21.3993, -34.0426, 48.4742, -141.357, -70.3804, 59.0994
9.43934, 50, -21.3319, -34.0346, 48.458, -141.384, -70.357, 59.3104
9.44737, 51, -21.2639, -34.0254, 48.4408, -141.412, -70.3343, 59.5227
9.45541, 51, -21.1954, -34.0149, 48.4227, -141.44, -70.3124, 59.7361
9.46334, 51, -21.1264, -34.0033, 48.4036, -141.469, -70.2911, 59.9507
9.47137, 51, -21.0569, -33.9904, 48.3834, -141.5, -70.2702, 60.1662
9.47936, 51, -20.9869, -33.9759, 48.3624, -141.532, -70.2496, 60.383
9.48734, 51, -20.9164, -33.9599, 48.3402, -141.565, -70.2296, 60.6012
9.49543, 51, -20.8456, -33.9428, 48.3172, -141.598, -70.2106, 60.8204
9.50357, 51, -20.7743, -33.9247, 48.2931, -141.633, -70.1926, 61.0405
9.51231, 51, -20.7024, -33.9051, 48.268, -141.669, -70.1756, 61.2618
9.51965, 51, -20.6303, -33.8842, 48.242, -141.707, -70.1594, 61.4837
9.52743, 51, -20.5577, -33.862, 48.215, -141.744, -70.1439, 61.7069
9.53549, 51, -20.4846, -33.8384, 48.1869, -141.783, -70.129, 61.9314
9.54392, 51, -20.4111, -33.8136, 48.1576, -141.824, -70.1147, 62.1568
9.55234, 52, -20.3371, -33.7872, 48.1274, -141.865, -70.1009, 62.3832
9.5594, 52, -20.2627, -33.7596, 48.0963, -141.907, -70.0879, 62.6105
9.5681, 52, -20.1879, -33.7307, 48.064, -141.951, -70.0759, 62.8392
9.5769, 52, -20.1126, -33.7001, 48.0308, -141.996, -70.0649, 63.0687
9.58435, 52, -20.037, -33.6681, 47.9966, -142.041, -70.0548, 63.299
9.59224, 52, -19.9609, -33.6348, 47.9613, -142.087, -70.0458, 63.53
9.59946, 52, -19.8843, -33.5999, 47.9248, -142.135, -70.0377, 63.7619
9.61165, 52, -19.8073, -33.5637, 47.8875, -142.208, -70.0273, 64.1119
9.61564, 52, -19.73, -33.5261, 47.849, -142.233, -70.0244, 64.2289
9.6237, 52, -19.6524, -33.4872, 47.8094, -142.284, -70.0191, 64.4637
9.63234, 52, -19.5744, -33.4468, 47.7689, -142.336, -70.0148, 64.699
9.63984, 52, -19.4961, -33.4049, 47.7272, -142.389, -70.0114, 64.9353
9.65031, 53, -19.4174, -33.3616, 47.6844, -142.443, -70.0089, 65.1729
9.65643, 53, -19.3382, -33.3168, 47.6407, -142.497, -70.0074, 65.4109
9.66392, 53, -19.2584, -33.2705, 47.5958, -142.554, -70.0067, 65.6498
9.67194, 53, -19.1785, -33.2227, 47.5499, -142.61, -70.0066, 65.8892
9.68137, 53, -19.0981, -33.1734, 47.5029, -142.668, -70.0072, 66.1296
9.68786, 53, -19.0578, -33.1482, 47.479, -142.698, -70.0078, 66.2501
9.69635, 53, -18.9364, -33.0703, 47.4057, -142.787, -70.0112, 66.6127
9.70423, 53, -18.8958, -33.0436, 47.3807, -142.818, -70.0128, 66.8551
9.71132, 53, -18.8143, -32.9891, 47.3299, -142.879, -70.017, 66.9767
9.72049, 53, -18.6914, -32.9044, 47.2517, -142.972, -70.0257, 67.3429
9.72732, 53, -18.6503, -32.8754, 47.225, -143.004, -70.0292, 67.4652
9.73533, 53, -18.5678, -32.8162, 47.1709, -143.068, -70.0371, 67.7102
9.7451, 54, -18.4433, -32.7246, 47.0877, -143.166, -70.0514, 68.0786
9.75439, 54, -18.3599, -32.6615, 47.0309, -143.232, -70.0625, 68.3251
9.75932, 54, -18.3181, -32.6294, 47.0021, -143.266, -70.0686, 68.4486
9.76887, 54, -18.1924, -32.5308, 46.9142, -143.368, -70.0893, 68.82
9.77687, 54, -18.1083, -32.4631, 46.8542, -143.437, -70.1049, 69.0681
9.78488, 54, -18.0237, -32.3938, 46.7931, -143.507, -70.1219, 69.3169
9.79298, 54, -17.9389, -32.323, 46.7309, -143.578, -70.1399, 69.5665
9.80089, 54, -17.8538, -32.2506, 46.6675, -143.65, -70.1588, 69.8165
9.80741, 54, -17.8112, -32.2138, 46.6354, -143.686, -70.1686, 69.9417
9.81775, 54, -17.7257, -32.1389, 46.5704, -143.759, -70.2001, 70.3176
9.82332, 54, -17.6401, -32.0625, 46.5043, -143.833, -70.2113, 70.4432
9.83141, 54, -17.5543, -31.9843, 46.4372, -143.907, -70.2351, 70.695
9.83932, 54, -17.4682, -31.9046, 46.3691, -143.982, -70.2605, 70.9471
9.84846, 55, -17.382, -31.8232, 46.2999, -144.058, -70.2869, 71.1996
9.85835, 55, -17.2955, -31.6981, 46.1941, -144.174, -70.3284, 71.5792
9.86429, 55, -17.2089, -31.6557, 46.1584, -144.213, -70.3429, 71.706
9.87276, 55, -17.1219, -31.5696, 46.086, -144.291, -70.3732, 71.9598
9.87932, 55, -17.0347, -31.4819, 46.0124, -144.37, -70.4055, 72.2139
9.88739, 55, -16.9472, -31.3925, 45.9377, -144.45, -70.4384, 72.468
9.89532, 55, -16.8597, -31.3016, 45.8618, -144.53, -70.4723, 72.7225
9.90332, 55, -16.772, -31.209, 45.7849, -144.611, -70.5078, 72.9774
9.9114, 55, -16.6843, -31.1148, 45.707, -144.693, -70.5454, 73.2325
9.91933, 55, -16.5965, -31.0191, 45.6281, -144.775, -70.5842, 73.4876
9.92732, 55, -16.5086, -30.9218, 45.5483, -144.858, -70.6237, 73.7431
9.93543, 55, -16.4205, -30.8227, 45.4674, -144.941, -70.665, 73.9989
9.94332, 55, -16.3323, -30.722, 45.3854, -145.025, -70.7083, 74.2546
9.95146, 56, -16.2439, -30.6196, 45.3022, -145.109, -70.7521, 74.5106
9.95932, 56, -16.1553, -30.5156, 45.218, -145.194, -70.7974, 74.7664
9.96747, 56, -16.0667, -30.4099, 45.1327, -145.28, -70.8451, 75.0226
9.97535, 56, -15.9779, -30.3028, 45.0465, -145.366, -70.8936, 75.279
9.98341, 56, -15.8893, -30.1941, 44.9594, -145.452, -70.9435, 75.5354
9.9914, 56, -15.8006, -30.0838, 44.8714, -145.539, -70.9958, 75.7916
9.99934, 56, -15.712, -29.9718, 44.7823, -145.626, -71.0484, 76.0482
10.0074, 56, -15.6232, -29.8581, 44.6921, -145.714, -71.103, 76.3051
10.0157, 56, -15.5341, -29.7429, 44.6008, -145.802, -71.1596, 76.5615
10.0234, 56, -15.445, -29.6261, 44.5084, -145.89, -71.2169, 76.8179
10.0315, 56, -15.3559, -29.5079, 44.415, -145.979, -71.2765, 77.0741
10.0398, 56, -15.2668, -29.3881, 44.321, -146.068, -71.3367, 77.3303
10.0476, 57, -15.1778, -29.2666, 44.226, -146.157, -71.3989, 77.5863
10.0563, 57, -15.0888, -29.1435, 44.13, -146.247, -71.4629, 77.8421
10.0643, 57, -14.9999, -29.0187, 44.0331, -146.337, -71.5279, 78.0977
10.0713, 57, -14.911, -28.8925, 43.9351, -146.427, -71.5948, 78.3534
10.0793, 57, -14.822, -28.7648, 43.8359, -146.517, -71.6625, 78.6089
10.0883, 57, -14.733, -28.6356, 43.7361, -146.607, -71.7328, 78.8641
10.0954, 57, -14.644, -28.5047, 43.6354, -146.697, -71.8039, 79.1189
10.1035, 57, -14.5551, -28.3722, 43.534, -146.788, -71.8772, 79.3737
10.1119, 57, -14.4664, -28.2382, 43.4317, -146.879, -71.9512, 79.6284
10.1196, 57, -14.3778, -28.103, 43.3283, -146.97, -72.0277, 79.8827
10.1277, 57, -14.2893, -27.9665, 43.2238, -147.061, -72.105, 80.1366
10.1358, 57, -14.2009, -27.8283, 43.1184, -147.152, -72.1844, 80.39
10.1442, 58, -14.1124, -27.6885, 43.0124, -147.243, -72.2645, 80.6436
10.1534, 58, -14.0242, -27.5474, 42.9057, -147.334, -72.3469, 80.8966
10.1602, 58, -13.9359, -27.4049, 42.7982, -147.425, -72.4303, 81.1491
10.1685, 58, -13.8479, -27.2611, 42.69, -147.515, -72.5152, 81.4009
10.1759, 58, -13.7601, -27.1157, 42.5806, -147.606, -72.6019, 81.6524
10.1844, 58, -13.6725, -26.9685, 42.4704, -147.697, -72.6901, 81.9034
10.1919, 58, -13.6287, -26.8944, 42.4151, -147.743, -72.7349, 82.0288
10.2003, 58, -13.4979, -26.67, 42.2481, -147.879, -72.8711, 82.404
10.2074, 58, -13.4544, -26.5947, 42.1921, -147.924, -72.9174, 82.5287
10.2153, 58, -13.3673, -26.443, 42.0796, -148.014, -73.011, 82.778
10.2233, 58, -13.2804, -26.2896, 41.9663, -148.104, -73.1059, 83.0268
10.2325, 58, -13.1502, -26.0571, 41.7945, -148.239, -73.2512, 83.3985
10.2393, 58, -13.107, -25.9791, 41.7369, -148.284, -73.3004, 83.5219
10.2475, 59, -13.0207, -25.8224, 41.6214, -148.373, -73.3993, 83.7684
10.2553, 59, -12.9346, -25.6644, 41.5053, -148.463, -73.5001, 84.0146
10.2633, 59, -12.8488, -25.5047, 41.3887, -148.552, -73.6023, 84.26
10.2714, 59, -12.7634, -25.3438, 41.2715, -148.64, -73.7058, 84.5046
10.2793, 59, -12.6781, -25.1818, 41.1532, -148.729, -73.8109, 84.7483
10.2897, 59, -12.5505, -24.9369, 40.9748, -148.86, -73.9709, 85.1133
10.2953, 59, -12.508, -24.8545, 40.9152, -148.904, -74.0251, 85.2346
10.3051, 59, -12.3811, -24.6052, 40.7354, -149.035, -74.1897, 85.5968
10.3113, 59, -12.339, -24.5216, 40.6752, -149.078, -74.2451, 85.7171
10.3194, 59, -12.2548, -24.3539, 40.5543, -149.165, -74.3573, 85.9569
10.3283, 59, -12.1709, -24.1853, 40.4326, -149.25, -74.4707, 86.1961
10.3363, 59, -12.0874, -24.0151, 40.3106, -149.336, -74.5852, 86.434
10.3435, 60, -12.0044, -23.8435, 40.1881, -149.421, -74.7015, 86.6714
10.3515, 60, -11.9215, -23.6711, 40.0654, -149.505, -74.8186, 86.9074
10.3594, 60, -11.8389, -23.4982, 39.9423, -149.589, -74.9373, 87.1427
10.3673, 60, -11.7565, -23.324, 39.8186, -149.673, -75.057, 87.3772
10.3754, 60, -11.6746, -23.1483, 39.6944, -149.755, -75.1779, 87.6104
10.3833, 60, -11.5929, -22.9719, 39.5698, -149.837, -75.3004, 87.8428
10.3913, 60, -11.5116, -22.7953, 39.4449, -149.919, -75.4236, 88.074
10.3994, 60, -11.4306, -22.6179, 39.3195, -150, -75.5486, 88.3043
10.4073, 60, -11.35, -22.4389, 39.1939, -150.08, -75.6745, 88.5337
10.4153, 60, -11.2698, -22.2589, 39.0678, -150.16, -75.8015, 88.7619
10.4234, 60, -11.19, -22.0785, 38.9415, -150.239, -75.9295, 88.9888
10.4313, 60, -11.1105, -21.8974, 38.8148, -150.318, -76.0586, 89.2145
10.4411, 60, -11.0312, -21.7148, 38.688, -150.395, -76.1889, 89.4394
10.4474, 61, -10.9524, -21.531, 38.5609, -150.473, -76.3202, 89.6633
10.4554, 61, -10.874, -21.3471, 38.4337, -150.549, -76.4527, 89.8857
10.4633, 61, -10.7958, -21.163, 38.3063, -150.624, -76.5859, 90.1066
10.4714, 61, -10.7182, -20.9777, 38.1788, -150.699, -76.7204, 90.3261
10.4793, 61, -10.641, -20.7913, 38.051, -150.773, -76.8559, 90.5446
10.4873, 61, -10.5644, -20.6049, 37.9231, -150.846, -76.9926, 90.7618
10.4953, 61, -10.4881, -20.4182, 37.7949, -150.919, -77.1303, 90.9778
10.5033, 61, -10.4119, -20.2303, 37.6666, -150.99, -77.2689, 91.1925
10.5114, 61, -10.3362, -20.0414, 37.5382, -151.062, -77.4084, 91.4056
10.5193, 61, -10.2611, -19.8523, 37.4096, -151.132, -77.5488, 91.6175
10.5275, 61, -10.1863, -19.6634, 37.2811, -151.202, -77.6899, 91.828
10.5354, 61, -10.112, -19.4733, 37.1525, -151.27, -77.8319, 92.0368
10.5434, 62, -10.0382, -19.2822, 37.0241, -151.338, -77.9745, 92.2444
10.5515, 62, -9.96471, -19.0911, 36.8958, -151.404, -78.118, 92.45
10.5594, 62, -9.89164, -18.8998, 36.7675, -151.471, -78.2622, 92.6543
10.5676, 62, -9.81912, -18.7075, 36.6391, -151.535, -78.4071, 92.8572
10.5763, 62, -9.74705, -18.5147, 36.5107, -151.6, -78.5526, 93.0588
10.5834, 62, -9.67542, -18.3224, 36.3823, -151.663, -78.6986, 93.2587
10.5917, 62, -9.60406, -18.1301, 36.2541, -151.725, -78.8455, 93.4569
10.6022, 62, -9.5331, -17.9371, 36.126, -151.787, -78.9929, 93.6535
10.6083, 62, -9.46246, -17.7435, 35.998, -151.847, -79.1412, 93.849
10.6156, 62, -9.39237, -17.5502, 35.8701, -151.907, -79.2899, 94.0429
10.6236, 62, -9.32279, -17.3565, 35.7425, -151.966, -79.4393, 94.2351
10.6317, 62, -9.25361, -17.1618, 35.6151, -152.024, -79.589, 94.4255
10.6398, 62, -9.18505, -16.9668, 35.488, -152.081, -79.7395, 94.6139
10.6479, 63, -9.11687, -16.7722, 35.361, -152.137, -79.8905, 94.8005
10.6565, 63, -9.04914, -16.5774, 35.2343, -152.192, -80.0421, 94.9854
10.6645, 63, -8.98178, -16.382, 35.1078, -152.246, -80.1942, 95.1688
10.6719, 63, -8.91489, -16.1869, 34.9816, -152.299, -80.3466, 95.35
10.6804, 63, -8.84856, -15.9923, 34.8557, -152.351, -80.4995, 95.5297
10.6879, 63, -8.81551, -15.895, 34.7929, -152.402, -80.6528, 95.7072
10.696, 63, -8.74986, -15.6999, 34.6675, -152.453, -80.8065, 95.883
10.7033, 63, -8.68476, -15.5048, 34.5423, -152.478, -80.8835, 95.9703
10.7133, 63, -8.58783, -15.2133, 34.3552, -152.55, -81.1149, 96.2293
10.7193, 63, -8.55573, -15.116, 34.293, -152.574, -81.192, 96.3147
10.7284, 63, -8.4599, -14.8235, 34.1072, -152.644, -81.424, 96.5679
10.7353, 63, -8.42824, -14.7261, 34.0455, -152.667, -81.5014, 96.6514
10.7433, 64, -8.36531, -14.5316, 33.9225, -152.711, -81.6566, 96.8166
10.7526, 64, -8.27165, -14.2391, 33.7384, -152.777, -81.8893, 97.0602
10.7593, 64, -8.24073, -14.1415, 33.6773, -152.799, -81.967, 97.1405
10.7694, 64, -8.14867, -13.8502, 33.4947, -152.861, -82.2, 97.3787
10.7754, 64, -8.11821, -13.7535, 33.4341, -152.881, -82.2779, 97.4572
10.7856, 64, -8.02746, -13.4632, 33.2531, -152.941, -82.5115, 97.6887
10.7915, 64, -7.99742, -13.3666, 33.1929, -152.96, -82.5896, 97.7651
10.7993, 64, -7.93778, -13.174, 33.0728, -152.998, -82.7454, 97.9158
10.8089, 64, -7.87844, -12.9818, 32.8939, -153.054, -82.9795, 98.1379
10.8169, 64, -7.81959, -12.7894, 32.8345, -153.072, -83.0575, 98.2835
10.8249, 64, -7.76129, -12.5969, 32.7162, -153.107, -83.2137, 98.4269
10.8323, 64, -7.70336, -12.4053, 32.5986, -153.14, -83.3699, 98.4979
10.8394, 64, -7.64593, -12.2142, 32.4813, -153.174, -83.5261, 98.6379
10.8483, 65, -7.58892, -12.023, 32.3646, -153.206, -83.6823, 98.7754
10.8563, 65, -7.5323, -11.8319, 32.2486, -153.237, -83.8384, 98.9109
10.8642, 65, -7.47628, -11.6418, 32.1333, -153.267, -83.9944, 99.0437
10.8723, 65, -7.42072, -11.4521, 32.0188, -153.295, -84.1503, 99.1743
10.8803, 65, -7.3655, -11.2623, 31.9047, -153.324, -84.3061, 99.3024
10.8883, 65, -7.31079, -11.073, 31.791, -153.351, -84.4619, 99.4281
10.8961, 65, -7.25653, -10.885, 31.678, -153.378, -84.6176, 99.5518
10.9033, 65, -7.2027, -10.6975, 31.5657, -153.403, -84.773, 99.6731
10.9114, 65, -7.14937, -10.51, 31.4543, -153.427, -84.9284, 99.7919
10.9193, 65, -7.09642, -10.3228, 31.3435, -153.45, -85.0835, 99.9083
10.9273, 65, -7.04379, -10.1369, 31.2334, -153.473, -85.2385, 100.022
10.9354, 65, -6.99158, -9.95138, 31.1236, -153.495, -85.3932, 100.133
10.9433, 66, -6.93976, -9.76575, 31.0146, -153.515, -85.5476, 100.242
10.9513, 66, -6.88836, -9.58093, 30.9064, -153.535, -85.7017, 100.348
10.9612, 66, -6.8375, -9.39756, 30.7991, -153.553, -85.8558, 100.451
10.9683, 66, -6.78709, -9.21488, 30.6926, -153.57, -86.0096, 100.551
10.9754, 66, -6.73705, -9.03226, 30.5865, -153.587, -86.1631, 100.65
10.9833, 66, -6.68755, -8.85033, 30.481, -153.602, -86.3162, 100.745
10.9914, 66, -6.63837, -8.66972, 30.3762, -153.618, -86.469, 100.838
10.9993, 66, -6.58944, -8.4896, 30.2723, -153.632, -86.6215, 100.928
11.0073, 66, -6.54109, -8.30955, 30.1694, -153.646, -86.7738, 101.016
11.0157, 66, -6.49318, -8.13016, 30.0672, -153.658, -86.926, 101.1
11.0243, 66, -6.44551, -7.9521, 29.9656, -153.669, -87.0777, 101.182
11.0314, 66, -6.39826, -7.7748, 29.8645, -153.68, -87.2291, 101.261
11.0397, 66, -6.35156, -7.59757, 29.764, -153.689, -87.3801, 101.337
11.0484, 67, -6.30516, -7.42112, 29.6645, -153.697, -87.531, 101.41
11.0554, 67, -6.25909, -7.24624, 29.5661, -153.705, -87.6815, 101.48
11.0639, 67, -6.21344, -7.07217, 29.4685, -153.711, -87.8317, 101.548
11.0723, 67, -6.16815, -6.89828, 29.3715, -153.717, -87.9815, 101.612
11.0793, 67, -6.12318, -6.72498, 29.275, -153.722, -88.131, 101.674
11.0882, 67, -6.07863, -6.55318, 29.179, -153.726, -88.2798, 101.733
11.0953, 67, -6.03451, -6.38244, 29.084, -153.729, -88.4286, 101.789
11.1034, 67, -5.99078, -6.21192, 28.99, -153.732, -88.5768, 101.841
11.1126, 67, -5.9475, -6.04185, 28.8969, -153.733, -88.7247, 101.892
11.1203, 67, -5.9045, -5.87291, 28.8047, -153.734, -88.8721, 101.939
11.1279, 67, -5.8619, -5.70512, 28.713, -153.735, -89.019, 101.982
11.1365, 67, -5.81948, -5.53768, 28.6219, -153.735, -89.1652, 102.022
11.1437, 68, -5.7775, -5.37066, 28.5315, -153.735, -89.3113, 102.06
11.1519, 68, -5.73586, -5.20467, 28.442, -153.734, -89.4567, 102.095
11.1609, 68, -5.69448, -5.0401, 28.3534, -153.731, -89.602, 102.126
11.1684, 68, -5.65333, -4.87655, 28.2658, -153.728, -89.7465, 102.153
11.1761, 68, -5.61267, -4.71348, 28.1787, -153.724, -89.891, 102.177
11.1846, 68, -5.59251, -4.55133, 28.0923, -153.719, -90.0348, 102.199
11.1919, 68, -5.55243, -4.4707, 28.0067, -153.713, -90.1786, 102.217
11.2004, 68, -5.4927, -4.23059, 27.9217, -153.706, -90.3218, 102.232
11.2073, 68, -5.47297, -4.15086, 27.8795, -153.703, -90.3933, 102.238
11.2164, 68, -5.41445, -3.9125, 27.7543, -153.69, -90.6072, 102.253
11.2234, 68, -5.39506, -3.83341, 27.7129, -153.686, -90.6784, 102.256
11.2313, 68, -5.35648, -3.67614, 27.6308, -153.677, -90.8204, 102.259
11.2405, 69, -5.29925, -3.44219, 27.5093, -153.661, -91.0327, 102.261
11.2473, 69, -5.28034, -3.36453, 27.4691, -153.655, -91.1033, 102.261
11.2571, 69, -5.22403, -3.13248, 27.3497, -153.637, -91.3144, 102.254
11.2634, 69, -5.20533, -3.05566, 27.3103, -153.63, -91.3846, 102.249
11.2713, 69, -5.16822, -2.90292, 27.2319, -153.616, -91.5246, 102.237
11.2793, 69, -5.13135, -2.75131, 27.1542, -153.601, -91.664, 102.221
11.2873, 69, -5.0948, -2.60033, 27.0773, -153.586, -91.8029, 102.201
11.2969, 69, -5.0403, -2.37551, 26.9636, -153.562, -92.0106, 102.166
11.3033, 69, -5.02226, -2.30107, 26.926, -153.554, -92.0796, 102.152
11.3136, 69, -4.96874, -2.07953, 26.8144, -153.529, -92.286, 102.104
11.3193, 69, -4.95102, -2.00615, 26.7776, -153.52, -92.3545, 102.087
11.3283, 69, -4.91575, -1.85989, 26.7045, -153.502, -92.4914, 102.048
11.3354, 69, -4.88052, -1.71434, 26.632, -153.483, -92.6274, 102.006
11.3433, 70, -4.84565, -1.56974, 26.5603, -153.464, -92.7634, 101.961
11.3513, 70, -4.81109, -1.42616, 26.4893, -153.444, -92.8988, 101.911
11.3593, 70, -4.77672, -1.28368, 26.4192, -153.423, -93.0339, 101.858
11.3673, 70, -4.74261, -1.14187, 26.3497, -153.402, -93.1686, 101.801
11.3753, 70, -4.70857, -1.00091, 26.281, -153.381, -93.303, 101.74
11.3833, 70, -4.67492, -0.860944, 26.213, -153.359, -93.4368, 101.675
11.3913, 70, -4.64147, -0.722133, 26.1457, -153.336, -93.5703, 101.608
11.3993, 70, -4.60823, -0.584516, 26.0791, -153.312, -93.7036, 101.536
11.4073, 70, -4.575, -0.447887, 26.013, -153.289, -93.8363, 101.46
11.4153, 70, -4.54192, -0.312009, 25.9477, -153.265, -93.9688, 101.382
11.4233, 70, -4.5091, -0.177056, 25.883, -153.241, -94.1007, 101.299
11.4315, 70, -4.47643, -0.0431516, 25.819, -153.216, -94.2325, 101.213
11.4403, 71, -4.44389, 0.0897151, 25.7558, -153.191, -94.3637, 101.123
11.4483, 71, -4.41135, 0.221607, 25.6934, -153.164, -94.4946, 101.029
11.4563, 71, -4.37909, 0.352766, 25.6317, -153.138, -94.6249, 100.932
11.4653, 71, -4.34695, 0.483044, 25.5707, -153.112, -94.755, 100.831
11.4713, 71, -4.31492, 0.612432, 25.5102, -153.085, -94.8845, 100.726
11.4793, 71, -4.28305, 0.740747, 25.4505, -153.058, -95.0137, 100.618
11.4873, 71, -4.25115, 0.867906, 25.3914, -153.029, -95.1424, 100.506
11.4953, 71, -4.21955, 0.993992, 25.3331, -153.001, -95.2706, 100.391
11.5033, 71, -4.18803, 1.11913, 25.2753, -152.973, -95.3986, 100.271
11.5115, 71, -4.15662, 1.24333, 25.2181, -152.945, -95.5259, 100.149
11.5193, 71, -4.12534, 1.36639, 25.1616, -152.916, -95.653, 100.023
11.5274, 71, -4.09388, 1.48835, 25.1059, -152.886, -95.7793, 99.8929
11.5356, 71, -4.06258, 1.60915, 25.0507, -152.857, -95.9054, 99.7594
11.5434, 72, -4.03136, 1.7289, 24.9963, -152.827, -96.0308, 99.6222
11.5516, 72, -4.00026, 1.84771, 24.9426, -152.798, -96.1555, 99.4815
11.5606, 72, -3.96923, 1.96557, 24.8894, -152.768, -96.2802, 99.337
11.5674, 72, -3.93807, 2.08246, 24.837, -152.737, -96.404, 99.189
11.5753, 72, -3.907, 2.19818, 24.7851, -152.707, -96.5276, 99.0377
11.584, 72, -3.87597, 2.31275, 24.7339, -152.677, -96.6506, 98.8827
11.5923, 72, -3.84487, 2.42617, 24.6832, -152.647, -96.7731, 98.7242
