rpiRobotics/ARM-21-02-F-19-Robot-Motion-Program/data_performance_abb/curve_1/baseline/100L/realrobot/bisect/run_1realrobot_curve_exe_v75.0_z10.csv
timestamp, cmd_num, J1, J2, J3, J4, J5, J6
0.000482, -1, 11.3779, 13.6139, 17.3393, -145.519, -97.9229, 142.516
0.004289, -1, 11.378, 13.6139, 17.3393, -145.519, -97.9229, 142.516
0.008184, -1, 11.378, 13.6139, 17.3393, -145.519, -97.9229, 142.516
0.029347, -1, 11.378, 13.6139, 17.3393, -145.519, -97.9229, 142.516
0.032187, -1, 11.3779, 13.6139, 17.3393, -145.519, -97.9229, 142.516
0.033543, -1, 11.3779, 13.6139, 17.3393, -145.519, -97.9229, 142.516
0.038926, -1, 11.3779, 13.6139, 17.3393, -145.519, -97.9229, 142.516
0.048637, -1, 11.3777, 13.6139, 17.3393, -145.519, -97.9229, 142.516
0.056369, -1, 11.3764, 13.6138, 17.3392, -145.519, -97.9229, 142.516
0.064927, -1, 11.3721, 13.6132, 17.3391, -145.519, -97.923, 142.516
0.072538, -1, 11.3635, 13.6118, 17.3388, -145.519, -97.9229, 142.515
0.080461, -1, 11.3496, 13.6091, 17.3381, -145.52, -97.9228, 142.511
0.089218, -1, 11.328, 13.6042, 17.3373, -145.523, -97.9225, 142.497
0.094911, -1, 11.3133, 13.6007, 17.3369, -145.525, -97.9221, 142.484
0.104556, -1, 11.2516, 13.5854, 17.3363, -145.537, -97.9187, 142.415
0.112545, -1, 11.2251, 13.5787, 17.3365, -145.552, -97.9143, 142.336
0.119897, -1, 11.1637, 13.563, 17.3382, -145.561, -97.9113, 142.283
0.127914, -1, 11.0906, 13.5437, 17.3421, -145.584, -97.9035, 142.152
0.136005, -1, 11.0056, 13.5205, 17.3484, -145.613, -97.8933, 141.987
0.143913, -1, 10.909, 13.494, 17.357, -145.647, -97.8812, 141.79
0.151918, -1, 10.8016, 13.4641, 17.3674, -145.686, -97.8676, 141.564
0.159946, -1, 10.6833, 13.4312, 17.3786, -145.728, -97.853, 141.318
0.1679, -1, 10.5543, 13.3954, 17.3898, -145.773, -97.8376, 141.057
0.175979, -1, 10.4163, 13.3575, 17.4005, -145.819, -97.8217, 140.788
0.184013, -1, 10.2714, 13.318, 17.4107, -145.866, -97.8056, 140.513
0.191908, -1, 10.122, 13.2776, 17.4207, -145.913, -97.7889, 140.236
0.19993, -1, 9.96952, 13.2366, 17.4308, -145.961, -97.772, 139.958
0.207964, -1, 9.81492, 13.1953, 17.4408, -146.009, -97.7547, 139.679
0.215953, -1, 9.65942, 13.1539, 17.4509, -146.057, -97.7376, 139.4
0.223934, -1, 9.5043, 13.1127, 17.4608, -146.105, -97.7205, 139.12
0.231966, -1, 9.34951, 13.0715, 17.4707, -146.153, -97.7038, 138.841
0.239914, -1, 9.19514, 13.0304, 17.4806, -146.201, -97.6871, 138.561
0.24893, -1, 9.04138, 12.9894, 17.4906, -146.249, -97.6704, 138.282
0.255949, -1, 8.88777, 12.9483, 17.5007, -146.297, -97.6535, 138.002
0.264891, -1, 8.73428, 12.9074, 17.5108, -146.345, -97.6364, 137.722
0.272728, -1, 8.58135, 12.8663, 17.5209, -146.392, -97.6189, 137.442
0.278902, -1, 8.42863, 12.8251, 17.5311, -146.441, -97.6013, 137.162
0.287911, -1, 8.27559, 12.7838, 17.5412, -146.488, -97.5841, 136.882
0.296032, -1, 8.12203, 12.7424, 17.5514, -146.536, -97.5671, 136.602
0.303889, -1, 7.96812, 12.7009, 17.5616, -146.585, -97.5503, 136.322
0.311912, -1, 7.81356, 12.6594, 17.5717, -146.632, -97.5337, 136.041
0.320673, -1, 7.65861, 12.6178, 17.5818, -146.68, -97.5171, 135.761
0.326985, -1, 7.50356, 12.5763, 17.5921, -146.728, -97.5002, 135.481
0.33595, -1, 7.34834, 12.5349, 17.6022, -146.776, -97.483, 135.201
0.344719, -1, 7.19327, 12.4935, 17.6124, -146.824, -97.4656, 134.92
0.35189, -1, 7.03808, 12.4521, 17.6227, -146.873, -97.4483, 134.64
0.35989, -1, 6.88291, 12.4109, 17.6329, -146.921, -97.4313, 134.36
0.36873, -1, 6.72797, 12.3697, 17.6433, -146.968, -97.4144, 134.08
0.375946, -1, 6.57341, 12.3285, 17.6537, -147.017, -97.3977, 133.8
0.383904, -1, 6.41894, 12.2873, 17.664, -147.065, -97.381, 133.519
0.392689, -1, 6.26472, 12.246, 17.6744, -147.113, -97.364, 133.239
0.399888, -1, 6.1105, 12.2046, 17.6845, -147.161, -97.3469, 132.958
0.407912, -1, 5.956, 12.1633, 17.6948, -147.209, -97.3294, 132.677
0.417388, -1, 5.80129, 12.1217, 17.7051, -147.257, -97.3118, 132.397
0.423905, -1, 5.64642, 12.0801, 17.7152, -147.305, -97.2944, 132.116
0.431964, -1, 5.49137, 12.0385, 17.7255, -147.353, -97.2773, 131.835
0.439982, -1, 5.33613, 11.9969, 17.7357, -147.401, -97.2604, 131.554
0.447978, -1, 5.18058, 11.9552, 17.746, -147.45, -97.2436, 131.273
0.456104, -1, 5.02467, 11.9136, 17.7564, -147.498, -97.2268, 130.992
0.464, -1, 4.86874, 11.8721, 17.7668, -147.546, -97.2099, 130.711
0.471996, -1, 4.71297, 11.8306, 17.7772, -147.594, -97.1926, 130.43
0.480083, -1, 4.55722, 11.7892, 17.7875, -147.642, -97.1751, 130.15
0.487954, -1, 4.40153, 11.7478, 17.7978, -147.69, -97.1577, 129.869
0.495948, -1, 4.2461, 11.7064, 17.8082, -147.739, -97.1406, 129.588
0.630954, -1, 1.67905, 11.0201, 17.979, -148.536, -96.8585, 124.943
0.635345, -1, 1.60094, 10.9992, 17.9842, -148.56, -96.85, 124.802
0.63743, -1, 1.52294, 10.9784, 17.9894, -148.585, -96.8415, 124.661
0.638778, -1, 1.52294, 10.9784, 17.9894, -148.585, -96.8415, 124.661
0.639961, -1, 1.52294, 10.9784, 17.9894, -148.585, -96.8415, 124.661
0.642002, -1, 1.44496, 10.9576, 17.9946, -148.609, -96.833, 124.519
0.643197, -1, 1.44496, 10.9576, 17.9946, -148.609, -96.833, 124.519
0.647013, -1, 1.36696, 10.9368, 17.9998, -148.633, -96.8246, 124.378
0.784376, -1, -1.2869, 10.227, 18.176, -149.457, -96.5337, 119.574
0.786392, -1, -1.36531, 10.2061, 18.1811, -149.482, -96.5253, 119.432
0.787667, -1, -1.36531, 10.2061, 18.1811, -149.482, -96.5253, 119.432
0.788945, -1, -1.36531, 10.2061, 18.1811, -149.482, -96.5253, 119.432
0.790915, -1, -1.44364, 10.1852, 18.1863, -149.506, -96.5169, 119.291
0.792191, -1, -1.44364, 10.1852, 18.1863, -149.506, -96.5169, 119.291
0.794004, -1, -1.44364, 10.1644, 18.1916, -149.53, -96.5085, 119.149
0.796982, -1, -1.52194, 10.1644, 18.1916, -149.53, -96.5085, 119.149
0.799087, -1, -1.60017, 10.1435, 18.1968, -149.554, -96.5, 119.007
0.800281, -1, -1.60017, 10.1435, 18.1968, -149.554, -96.5, 119.007
0.802894, -1, -1.67829, 10.1226, 18.2021, -149.579, -96.4915, 118.866
0.805045, -1, -1.67829, 10.1226, 18.2021, -149.579, -96.4915, 118.866
0.807139, -1, -1.75631, 10.1017, 18.2073, -149.603, -96.483, 118.724
0.808344, -1, -1.75631, 10.1017, 18.2073, -149.603, -96.483, 118.724
0.810222, -1, -1.83421, 10.0807, 18.2125, -149.628, -96.4743, 118.582
0.811637, -1, -1.83421, 10.0807, 18.2125, -149.628, -96.4743, 118.582
0.812893, -1, -1.83421, 10.0807, 18.2125, -149.628, -96.4743, 118.582
0.814843, -1, -1.91197, 10.0598, 18.2177, -149.652, -96.4655, 118.441
0.81623, -1, -1.91197, 10.0598, 18.2177, -149.652, -96.4655, 118.441
0.817428, -1, -1.91197, 10.0598, 18.2177, -149.652, -96.4655, 118.441
0.819529, -1, -1.98964, 10.0389, 18.2229, -149.676, -96.4567, 118.299
0.820757, -1, -1.98964, 10.0389, 18.2229, -149.676, -96.4567, 118.299
0.823853, -1, -2.06724, 10.018, 18.2281, -149.7, -96.4479, 118.157
0.825171, -1, -2.06724, 10.018, 18.2281, -149.7, -96.4479, 118.157
0.828666, -1, -2.14479, 9.99709, 18.2333, -149.725, -96.4391, 118.015
0.830637, -1, -2.22238, 9.97619, 18.2384, -149.749, -96.4303, 117.874
0.831972, -1, -2.22238, 9.97619, 18.2384, -149.749, -96.4303, 117.874
0.833172, -1, -2.22238, 9.97619, 18.2384, -149.749, -96.4303, 117.874
0.835216, -1, -2.30003, 9.9553, 18.2436, -149.773, -96.4216, 117.732
0.836756, -1, -2.30003, 9.9553, 18.2436, -149.773, -96.4216, 117.732
0.843234, -1, -2.45548, 9.91341, 18.2541, -149.822, -96.4045, 117.448
0.844454, -1, -2.45548, 9.91341, 18.2541, -149.822, -96.4045, 117.448
0.84636, -1, -2.45548, 9.91341, 18.2541, -149.822, -96.4045, 117.307
0.847724, -1, -2.53332, 9.89243, 18.2593, -149.846, -96.3961, 117.307
0.849035, -1, -2.53332, 9.89243, 18.2593, -149.846, -96.3961, 117.307
0.852491, -1, -2.61122, 9.87148, 18.2645, -149.87, -96.3876, 117.165
0.855919, -1, -2.68918, 9.85053, 18.2696, -149.895, -96.3792, 117.023
0.866419, -1, -2.8454, 9.80861, 18.28, -149.943, -96.3624, 116.74
0.871887, -1, -3.00208, 9.76669, 18.2904, -149.992, -96.3455, 116.456
0.879876, -1, -3.15918, 9.72482, 18.3007, -150.041, -96.3284, 116.172
0.887934, -1, -3.31661, 9.6829, 18.3112, -150.089, -96.3109, 115.888
0.895926, -1, -3.47447, 9.64095, 18.3217, -150.138, -96.2933, 115.605
0.903889, -1, -3.63238, 9.59909, 18.3321, -150.187, -96.2759, 115.32
0.91196, -1, -3.79022, 9.55727, 18.3425, -150.235, -96.2587, 115.036
0.919879, -1, -3.94818, 9.51533, 18.3528, -150.284, -96.2416, 114.752
0.927872, -1, -4.1061, 9.47347, 18.3632, -150.333, -96.2248, 114.468
0.93602, -1, -4.26387, 9.43162, 18.3735, -150.382, -96.2077, 114.183
0.943931, -1, -4.4215, 9.38966, 18.3838, -150.43, -96.1906, 113.899
0.951964, -1, -4.57862, 9.34774, 18.3941, -150.48, -96.1731, 113.614
0.960034, -1, -4.73539, 9.30575, 18.4044, -150.528, -96.1553, 113.33
0.967644, -1, -4.89184, 9.26377, 18.4148, -150.577, -96.1377, 113.045
0.976025, -1, -5.04795, 9.22176, 18.4254, -150.626, -96.1204, 112.76
0.984071, -1, -5.20379, 9.17976, 18.4358, -150.674, -96.1033, 112.476
0.991875, -1, -5.35979, 9.13767, 18.4463, -150.723, -96.0865, 112.191
0.999879, -1, -5.51593, 9.09554, 18.4567, -150.772, -96.0697, 111.906
1.00807, -1, -5.67221, 9.05354, 18.4671, -150.821, -96.0527, 111.621
1.01487, -1, -5.7505, 9.0325, 18.4723, -150.845, -96.044, 111.479
1.0241, -1, -5.98616, 8.96928, 18.4878, -150.919, -96.0179, 111.052
1.03087, -1, -6.06494, 8.94823, 18.4929, -150.943, -96.009, 110.909
1.04023, -1, -6.30205, 8.88509, 18.5084, -151.016, -95.9829, 110.481
1.04689, -1, -6.38124, 8.86405, 18.5136, -151.041, -95.9743, 110.339
1.05621, -1, -6.61896, 8.80101, 18.5291, -151.114, -95.9488, 109.911
1.06286, -1, -6.69825, 8.77995, 18.5344, -151.139, -95.9403, 109.768
1.07236, -1, -6.9363, 8.71684, 18.5502, -151.213, -95.9148, 109.34
1.0804, -1, -7.09483, 8.67479, 18.5606, -151.261, -95.8976, 109.055
1.08859, -1, -7.25328, 8.63269, 18.571, -151.311, -95.88, 108.769
1.09645, -1, -7.4113, 8.59052, 18.5814, -151.36, -95.8622, 108.483
1.10445, -1, -7.56905, 8.54827, 18.5918, -151.409, -95.8446, 108.198
1.11276, -1, -7.64786, 8.506, 18.6023, -151.458, -95.8273, 107.912
1.11986, -1, -7.80513, 8.48492, 18.6075, -151.482, -95.8188, 107.769
1.12786, -1, -7.96198, 8.44271, 18.6179, -151.531, -95.8017, 107.484
1.13592, -1, -8.1186, 8.4004, 18.6283, -151.58, -95.7848, 107.198
1.14391, -1, -8.2752, 8.35812, 18.6387, -151.63, -95.7678, 106.912
1.15189, -1, -8.43193, 8.31579, 18.6492, -151.678, -95.7506, 106.626
1.15987, -1, -8.58895, 8.27344, 18.6598, -151.727, -95.7331, 106.34
1.16787, -1, -8.74633, 8.2312, 18.6702, -151.777, -95.7153, 106.053
1.17595, -1, -8.90402, 8.18894, 18.6805, -151.825, -95.6978, 105.767
1.18387, -1, -9.06214, 8.14663, 18.6909, -151.875, -95.6805, 105.481
1.19187, -1, -9.22075, 8.10444, 18.7014, -151.924, -95.6633, 105.194
1.1999, -1, -9.37969, 8.06219, 18.7117, -151.973, -95.6462, 104.908
1.20795, -1, -9.53884, 8.01989, 18.7222, -152.022, -95.629, 104.621
1.21586, -1, -9.69806, 7.97773, 18.7326, -152.072, -95.6117, 104.334
1.22393, -1, -9.85727, 7.93557, 18.743, -152.121, -95.5941, 104.047
1.23187, -1, -10.0167, 7.89327, 18.7536, -152.17, -95.5762, 103.761
1.23986, -1, -10.1759, 7.85093, 18.7642, -152.219, -95.5584, 103.474
1.24794, -1, -10.3349, 7.80855, 18.7747, -152.268, -95.5408, 103.187
1.25785, -1, -10.4936, 7.76606, 18.7904, -152.343, -95.515, 102.757
1.26387, -1, -10.6521, 7.72364, 18.7956, -152.367, -95.5065, 102.613
1.27193, -1, -10.8102, 7.6812, 18.806, -152.416, -95.4896, 102.326
1.27986, -1, -10.968, 7.63869, 18.8165, -152.466, -95.4725, 102.039
1.28786, -1, -11.1255, 7.59623, 18.8269, -152.515, -95.4551, 101.752
1.29592, -1, -11.2828, 7.55381, 18.8373, -152.564, -95.4374, 101.464
1.30387, -1, -11.4403, 7.51137, 18.8477, -152.614, -95.4196, 101.177
1.31193, -1, -11.598, 7.4689, 18.8582, -152.663, -95.402, 100.89
1.31987, -1, -11.7559, 7.42653, 18.8688, -152.712, -95.3846, 100.602
1.32786, -1, -11.9143, 7.38415, 18.8793, -152.761, -95.3674, 100.314
1.33604, -1, -12.0731, 7.34179, 18.8899, -152.811, -95.3503, 100.027
1.34296, -1, -12.2323, 7.29944, 18.9004, -152.86, -95.333, 99.739
1.35186, -1, -12.3919, 7.25705, 18.9109, -152.91, -95.3157, 99.4512
1.36018, -1, -12.5519, 7.21466, 18.9214, -152.959, -95.2979, 99.1634
1.36686, -1, -12.7118, 7.17229, 18.9319, -153.008, -95.28, 98.8756
1.37587, -1, -12.8719, 7.12989, 18.9425, -153.058, -95.2621, 98.5876
1.38465, -1, -13.0319, 7.08737, 18.953, -153.108, -95.2446, 98.2995
1.39185, -1, -13.1918, 7.04484, 18.9635, -153.157, -95.2273, 98.0116
1.39986, -1, -13.3514, 7.00231, 18.9741, -153.207, -95.2102, 97.7235
1.40865, -1, -13.5107, 6.95966, 18.9846, -153.256, -95.1932, 97.4352
1.41587, -1, -13.67, 6.91694, 18.9952, -153.305, -95.176, 97.1466
1.42386, -1, -13.829, 6.87429, 19.0057, -153.355, -95.1585, 96.8582
1.43274, -1, -13.9875, 6.83164, 19.0161, -153.404, -95.1408, 96.5697
1.43989, -1, -14.1456, 6.78898, 19.0266, -153.454, -95.123, 96.2811
1.44791, -1, -14.3038, 6.7464, 19.0371, -153.503, -95.1054, 95.992
1.45695, -1, -14.4621, 6.70374, 19.0476, -153.552, -95.0881, 95.703
1.46396, -1, -14.6206, 6.66113, 19.0581, -153.602, -95.0709, 95.4139
1.47202, -1, -14.7795, 6.61861, 19.0686, -153.652, -95.0538, 95.1246
1.48112, -1, -14.9387, 6.57608, 19.0791, -153.701, -95.0366, 94.8354
1.48748, -1, -15.0184, 6.53346, 19.0898, -153.751, -95.019, 94.5463
1.49602, -1, -15.2583, 6.49091, 19.1005, -153.801, -95.0012, 94.2572
1.50532, -1, -15.4186, 6.44835, 19.111, -153.85, -94.9832, 93.968
1.51089, -1, -15.4988, 6.42701, 19.1163, -153.875, -94.9742, 93.8233
1.52006, -1, -15.74, 6.36301, 19.1321, -153.949, -94.9478, 93.3895
1.52685, -1, -15.8204, 6.34164, 19.1374, -153.974, -94.9392, 93.2448
1.53601, -1, -16.0614, 6.27743, 19.1533, -154.049, -94.9135, 92.8103
1.54285, -1, -16.1418, 6.25604, 19.1585, -154.074, -94.9049, 92.6655
1.55376, -1, -16.3827, 6.19175, 19.1742, -154.148, -94.879, 92.2311
1.56027, -1, -16.543, 6.14879, 19.1847, -154.198, -94.8613, 91.9414
1.56684, -1, -16.6231, 6.12732, 19.1899, -154.222, -94.8524, 91.7963
1.57795, -1, -16.8627, 6.06294, 19.2058, -154.297, -94.8256, 91.3612
1.58449, -1, -17.022, 6.02002, 19.2164, -154.347, -94.808, 91.0713
1.59245, -1, -17.1812, 5.97709, 19.227, -154.396, -94.7906, 90.7811
1.60117, -1, -17.3402, 5.93425, 19.2376, -154.446, -94.7732, 90.4908
1.60847, -1, -17.4994, 5.89146, 19.2482, -154.496, -94.7559, 90.2007
1.6164, -1, -17.5792, 5.87008, 19.2535, -154.521, -94.7472, 89.9106
1.62385, -1, -17.7387, 5.82735, 19.2642, -154.57, -94.7296, 89.7654
1.6319, -1, -17.8982, 5.78461, 19.2748, -154.621, -94.7116, 89.475
1.63985, -1, -18.0583, 5.74186, 19.2855, -154.671, -94.6935, 89.1845
1.64784, -1, -18.2189, 5.69915, 19.296, -154.72, -94.6755, 88.8941
1.65591, -1, -18.3799, 5.65639, 19.3067, -154.77, -94.6579, 88.6034
1.66384, -1, -18.5412, 5.61353, 19.3174, -154.82, -94.6406, 88.3125
1.67184, -1, -18.7028, 5.57058, 19.3281, -154.87, -94.6233, 88.0217
1.67994, -1, -18.8644, 5.52765, 19.3387, -154.92, -94.6061, 87.7308
1.68784, -1, -19.026, 5.48467, 19.3492, -154.97, -94.5886, 87.4399
1.69584, -1, -19.1875, 5.44154, 19.3598, -155.02, -94.5708, 87.1484
1.70386, -1, -19.3489, 5.39843, 19.3703, -155.07, -94.5527, 86.8573
1.71186, -1, -19.51, 5.35532, 19.3809, -155.12, -94.5347, 86.5659
1.7199, -1, -19.6708, 5.3121, 19.3914, -155.17, -94.517, 86.2743
1.72693, -1, -19.8314, 5.26902, 19.402, -155.22, -94.4994, 85.9826
1.7359, -1, -19.9918, 5.22592, 19.4125, -155.27, -94.482, 85.6911
1.74386, -1, -20.1518, 5.18282, 19.4234, -155.32, -94.4646, 85.3997
1.75285, -1, -20.3116, 5.13989, 19.4341, -155.37, -94.4471, 85.108
1.75991, -1, -20.4716, 5.09697, 19.4449, -155.42, -94.4293, 84.8163
1.76784, -1, -20.6317, 5.05394, 19.4556, -155.47, -94.4113, 84.5245
1.77584, -1, -20.7921, 5.01105, 19.4662, -155.521, -94.3933, 84.2328
1.78391, -1, -20.9529, 4.9682, 19.4769, -155.57, -94.3755, 83.9407
1.79184, -1, -21.114, 4.92519, 19.4875, -155.62, -94.3581, 83.6485
1.79984, -1, -21.2756, 4.88218, 19.4981, -155.671, -94.3409, 83.3566
1.8079, -1, -21.4376, 4.83907, 19.5087, -155.721, -94.3237, 83.0645
1.81584, -1, -21.5996, 4.79584, 19.5193, -155.771, -94.3064, 82.7721
1.8239, -1, -21.7619, 4.75269, 19.53, -155.822, -94.2888, 82.4795
1.83191, -1, -21.9243, 4.70941, 19.5407, -155.871, -94.271, 82.1871
1.83984, -1, -22.0867, 4.66606, 19.5515, -155.922, -94.253, 81.8944
1.8479, -1, -22.2491, 4.62275, 19.5622, -155.972, -94.2352, 81.6018
1.8559, -1, -22.4114, 4.57938, 19.5728, -156.022, -94.2177, 81.3091
1.86386, -1, -22.5733, 4.53599, 19.5835, -156.073, -94.2002, 81.0166
1.87185, -1, -22.7349, 4.49261, 19.5942, -156.123, -94.1828, 80.7238
1.87992, -1, -22.8963, 4.44923, 19.6048, -156.173, -94.1653, 80.4308
1.88786, -1, -23.0574, 4.40598, 19.6155, -156.223, -94.1474, 80.1379
1.89585, -1, -23.2184, 4.3627, 19.6262, -156.274, -94.1293, 79.8449
1.90392, -1, -23.3793, 4.31942, 19.6369, -156.324, -94.1111, 79.5515
1.91184, -1, -23.5401, 4.27621, 19.6478, -156.375, -94.093, 79.2582
1.92, -1, -23.7012, 4.23296, 19.6585, -156.425, -94.0752, 78.965
1.92783, -1, -23.8625, 4.18974, 19.6693, -156.475, -94.0576, 78.6713
1.93584, -1, -24.024, 4.14648, 19.68, -156.526, -94.0403, 78.3776
1.9441, -1, -24.186, 4.10312, 19.6906, -156.576, -94.0228, 78.0838
1.95134, -1, -24.3485, 4.05975, 19.7014, -156.626, -94.0052, 77.79
1.95945, -1, -24.5113, 4.01633, 19.712, -156.677, -93.9872, 77.4958
1.96827, -1, -24.6743, 3.97282, 19.7225, -156.727, -93.969, 77.2016
1.97543, -1, -24.8376, 3.92927, 19.7332, -156.777, -93.9511, 76.9077
1.98394, -1, -25.001, 3.88574, 19.7438, -156.828, -93.9333, 76.6138
1.9925, -1, -25.1643, 3.84214, 19.7547, -156.878, -93.9157, 76.3196
2.00001, -1, -25.3274, 3.79859, 19.7655, -156.929, -93.8982, 76.0252
2.00787, -1, -25.4902, 3.75501, 19.7763, -156.979, -93.8806, 75.731
2.01674, -1, -25.6529, 3.71136, 19.787, -157.029, -93.8628, 75.4367
2.02389, -1, -25.8154, 3.66782, 19.7976, -157.08, -93.8447, 75.1421
2.03211, -1, -25.9777, 3.62437, 19.8083, -157.13, -93.8264, 74.8474
2.03884, -1, -26.0587, 3.6026, 19.8137, -157.155, -93.8172, 74.7002
2.04688, -1, -26.2205, 3.55911, 19.8245, -157.206, -93.7991, 74.4056
2.05625, -1, -26.4629, 3.49407, 19.8405, -157.282, -93.7723, 73.9633
2.06282, -1, -26.5438, 3.47235, 19.8459, -157.307, -93.7635, 73.8157
2.07088, -1, -26.7057, 3.42889, 19.8566, -157.358, -93.7459, 73.5207
2.08075, -1, -26.9493, 3.36363, 19.8728, -157.434, -93.7193, 73.0779
2.08919, -1, -27.1121, 3.32002, 19.8837, -157.485, -93.7013, 72.7826
2.09484, -1, -27.1935, 3.29825, 19.8891, -157.51, -93.6921, 72.6351
2.10444, -1, -27.4386, 3.23282, 19.9051, -157.586, -93.6648, 72.1923
2.11317, -1, -27.5206, 3.21093, 19.9159, -157.636, -93.6468, 71.897
2.11884, -1, -27.6845, 3.16719, 19.9213, -157.662, -93.6379, 71.7491
2.12907, -1, -27.9305, 3.1017, 19.9374, -157.738, -93.6113, 71.3059
2.13584, -1, -28.0126, 3.07984, 19.9428, -157.763, -93.6025, 71.1581
2.14284, -1, -28.1767, 3.03611, 19.9536, -157.814, -93.5847, 70.8624
2.15183, -1, -28.3409, 2.99238, 19.9643, -157.865, -93.5668, 70.5665
2.15985, -1, -28.5048, 2.94866, 19.9752, -157.915, -93.5485, 70.2705
2.16684, -1, -28.6684, 2.90502, 19.9861, -157.966, -93.53, 69.9747
2.17582, -1, -28.8318, 2.86134, 19.9969, -158.017, -93.5118, 69.6786
2.18386, -1, -28.9948, 2.81771, 20.0077, -158.068, -93.4939, 69.3821
2.19082, -1, -29.1576, 2.77409, 20.0184, -158.119, -93.4762, 69.0858
2.19983, -1, -29.3203, 2.73048, 20.0292, -158.169, -93.4587, 68.7892
2.20782, -1, -29.4831, 2.68686, 20.04, -158.221, -93.4411, 68.4924
2.21482, -1, -29.6459, 2.64314, 20.0507, -158.272, -93.4231, 68.1956
2.22382, -1, -29.809, 2.59938, 20.0615, -158.322, -93.405, 67.8991
2.23183, -1, -29.9721, 2.55567, 20.0723, -158.374, -93.3866, 67.6024
2.23882, -1, -30.1355, 2.51188, 20.0832, -158.424, -93.3683, 67.3053
2.24782, -1, -30.2993, 2.46794, 20.0942, -158.475, -93.3504, 67.0083
2.25684, -1, -30.4636, 2.42406, 20.105, -158.526, -93.3326, 66.7116
2.26282, -1, -30.6284, 2.38013, 20.1159, -158.577, -93.3148, 66.4144
2.27183, -1, -30.7934, 2.33619, 20.1266, -158.628, -93.2972, 66.1171
2.27982, -1, -30.9584, 2.2923, 20.1374, -158.679, -93.2793, 65.8198
2.28789, -1, -31.1234, 2.24833, 20.1483, -158.73, -93.2609, 65.5226
2.29581, -1, -31.2883, 2.20439, 20.1591, -158.781, -93.2423, 65.2253
2.30382, -1, -31.453, 2.16058, 20.1698, -158.833, -93.224, 64.9276
2.31183, -1, -31.6176, 2.11665, 20.1806, -158.883, -93.206, 64.6299
2.31983, -1, -31.7821, 2.07271, 20.1914, -158.935, -93.1882, 64.332
2.3279, -1, -31.9462, 2.02888, 20.2024, -158.986, -93.1706, 64.0342
2.33582, -1, -32.1101, 1.98496, 20.2134, -159.037, -93.153, 63.7362
2.34382, -1, -32.2738, 1.94104, 20.2243, -159.088, -93.1352, 63.4384
2.35194, -1, -32.4374, 1.89712, 20.2352, -159.139, -93.117, 63.1406
2.35983, -1, -32.6011, 1.85308, 20.2461, -159.19, -93.0986, 62.8423
2.36788, -1, -32.765, 1.80911, 20.257, -159.242, -93.0803, 62.5441
2.37589, -1, -32.929, 1.76509, 20.2679, -159.293, -93.0623, 62.2459
2.38383, -1, -33.0933, 1.72093, 20.2788, -159.344, -93.0444, 61.9474
2.39182, -1, -33.2581, 1.67678, 20.2897, -159.395, -93.0266, 61.6487
2.39989, -1, -33.4232, 1.63266, 20.3006, -159.446, -93.0087, 61.3501
2.40781, -1, -33.5888, 1.5885, 20.3115, -159.498, -92.9906, 61.0515
2.41582, -1, -33.7545, 1.54432, 20.3225, -159.549, -92.9722, 60.7528
2.42391, -1, -33.9202, 1.50019, 20.3334, -159.6, -92.9535, 60.4537
2.43183, -1, -34.086, 1.45605, 20.3443, -159.652, -92.935, 60.1546
2.43982, -1, -34.2519, 1.412, 20.3552, -159.703, -92.9168, 59.8555
2.44795, -1, -34.4178, 1.36785, 20.3661, -159.754, -92.8988, 59.556
2.4559, -1, -34.5835, 1.3237, 20.377, -159.806, -92.881, 59.2566
2.46391, -1, -34.749, 1.27958, 20.3879, -159.857, -92.8633, 58.9573
2.47245, -1, -34.914, 1.23545, 20.3987, -159.908, -92.8453, 58.6579
2.47992, -1, -35.0788, 1.19134, 20.4096, -159.96, -92.827, 58.3584
2.48793, -1, -35.2435, 1.14712, 20.4206, -160.011, -92.8084, 58.0587
2.49601, -1, -35.4079, 1.10289, 20.4317, -160.063, -92.79, 57.7591
2.50382, -1, -35.5715, 1.05894, 20.4429, -160.114, -92.7718, 57.4593
2.51185, -1, -35.7328, 1.01539, 20.4542, -160.165, -92.7538, 57.1599
2.51999, -1, -35.891, 0.972582, 20.4657, -160.216, -92.736, 56.8626
2.52682, -1, -35.9685, 0.951639, 20.4716, -160.242, -92.7272, 56.7153
2.53628, -1, -36.1926, 0.891456, 20.4895, -160.315, -92.701, 56.2835
2.54281, -1, -36.2634, 0.872509, 20.4954, -160.339, -92.6925, 56.1449
2.55211, -1, -36.4606, 0.820177, 20.5125, -160.405, -92.6682, 55.756
2.55888, -1, -36.5207, 0.804276, 20.5177, -160.425, -92.6607, 55.6379
2.56844, -1, -36.6811, 0.761833, 20.531, -160.477, -92.6413, 55.3279
2.57628, -1, -36.7699, 0.738321, 20.5375, -160.505, -92.6312, 55.1633
2.58465, -1, -36.8443, 0.718498, 20.5416, -160.528, -92.6233, 55.0337
2.59247, -1, -36.9053, 0.702335, 20.5438, -160.544, -92.6177, 54.9385
2.60041, -1, -36.9534, 0.689676, 20.5447, -160.556, -92.6139, 54.8719
2.60841, -1, -36.9894, 0.680152, 20.5447, -160.563, -92.6115, 54.8289
2.61669, -1, -37.0152, 0.673298, 20.5443, -160.568, -92.6102, 54.8034
2.62433, -1, -37.0247, 0.670797, 20.5441, -160.569, -92.6098, 54.7953
2.63182, -1, -37.0381, 0.667449, 20.5437, -160.571, -92.6093, 54.7855
2.63988, 2, -37.0455, 0.665653, 20.5435, -160.572, -92.6091, 54.7809
2.6478, 2, -37.0484, 0.664831, 20.5434, -160.572, -92.609, 54.7787
2.6558, 2, -37.0486, 0.664488, 20.5434, -160.573, -92.6089, 54.7778
2.66389, 2, -37.0482, 0.664338, 20.5434, -160.573, -92.6089, 54.7774
2.67182, 2, -37.048, 0.664269, 20.5433, -160.573, -92.6089, 54.7773
2.67981, 2, -37.0483, 0.664219, 20.5433, -160.573, -92.6089, 54.7772
2.68791, 2, -37.0492, 0.664166, 20.5433, -160.573, -92.609, 54.7773
2.69581, 2, -37.0503, 0.664051, 20.5431, -160.573, -92.609, 54.7774
2.70381, 2, -37.0516, 0.663832, 20.5429, -160.573, -92.609, 54.7776
2.71184, 2, -37.0529, 0.663547, 20.5427, -160.573, -92.6091, 54.7777
2.71982, 2, -37.0541, 0.663313, 20.5426, -160.573, -92.6091, 54.778
2.72783, 2, -37.055, 0.66312, 20.5424, -160.573, -92.6092, 54.7781
2.73584, 2, -37.0555, 0.663012, 20.5422, -160.573, -92.6092, 54.7784
2.7438, 2, -37.0553, 0.662975, 20.5421, -160.573, -92.6092, 54.7785
2.7528, 2, -37.0548, 0.662995, 20.5419, -160.573, -92.6092, 54.7788
2.75986, 2, -37.0539, 0.663058, 20.5419, -160.573, -92.6093, 54.779
2.76885, 2, -37.0529, 0.663132, 20.5418, -160.573, -92.6093, 54.7792
2.77583, 2, -37.0513, 0.663232, 20.5418, -160.573, -92.6093, 54.7793
2.78383, 2, -37.0498, 0.66335, 20.5417, -160.573, -92.6094, 54.7795
2.79181, 2, -37.0487, 0.663382, 20.5416, -160.573, -92.6094, 54.7797
2.79983, 2, -37.048, 0.66339, 20.5416, -160.573, -92.6095, 54.7798
2.80784, 2, -37.0477, 0.663386, 20.5416, -160.573, -92.6095, 54.7799
2.8158, 2, -37.0477, 0.663338, 20.5416, -160.573, -92.6095, 54.7799
2.82383, 2, -37.0479, 0.663252, 20.5416, -160.573, -92.6095, 54.78
2.83187, 2, -37.0481, 0.663195, 20.5415, -160.573, -92.6095, 54.78
2.8398, 2, -37.0487, 0.663157, 20.5415, -160.573, -92.6095, 54.7801
2.84783, 2, -37.0494, 0.663139, 20.5415, -160.573, -92.6095, 54.7801
2.85589, 2, -37.0502, 0.663131, 20.5415, -160.573, -92.6095, 54.7801
2.8638, 2, -37.051, 0.663128, 20.5415, -160.573, -92.6095, 54.7802
2.87184, 2, -37.0515, 0.663145, 20.5415, -160.573, -92.6095, 54.7802
2.87984, 2, -37.0517, 0.66317, 20.5415, -160.573, -92.6096, 54.7803
2.88781, 2, -37.0517, 0.663214, 20.5415, -160.573, -92.6095, 54.7804
2.89583, 2, -37.0517, 0.663213, 20.5415, -160.573, -92.6096, 54.7803
2.90385, 2, -37.0513, 0.663216, 20.5415, -160.573, -92.6096, 54.7803
2.9118, 2, -37.0509, 0.663232, 20.5415, -160.573, -92.6096, 54.7804
2.91983, 2, -37.0506, 0.663224, 20.5414, -160.573, -92.6096, 54.7805
2.92786, 2, -37.0504, 0.663206, 20.5414, -160.573, -92.6096, 54.7805
2.9358, 2, -37.0502, 0.663169, 20.5414, -160.573, -92.6096, 54.7805
2.94385, 2, -37.0501, 0.66315, 20.5414, -160.573, -92.6096, 54.7805
2.95189, 2, -37.0501, 0.663136, 20.5414, -160.573, -92.6096, 54.7806
2.95989, 2, -37.0501, 0.66313, 20.5414, -160.573, -92.6096, 54.7806
2.96793, 2, -37.0502, 0.663127, 20.5414, -160.573, -92.6096, 54.7808
2.97594, 2, -37.0503, 0.663133, 20.5413, -160.572, -92.6096, 54.7808
2.9839, 2, -37.0504, 0.663164, 20.5413, -160.572, -92.6097, 54.7809
2.99195, 2, -37.0506, 0.663175, 20.5413, -160.572, -92.6097, 54.7809
2.99997, 2, -37.0508, 0.663201, 20.5413, -160.572, -92.6096, 54.7809
3.0078, 2, -37.0508, 0.663203, 20.5413, -160.573, -92.6096, 54.7809
3.0159, 2, -37.0508, 0.663222, 20.5413, -160.572, -92.6096, 54.781
3.02394, 2, -37.0508, 0.66323, 20.5413, -160.572, -92.6096, 54.7811
3.03186, 2, -37.0507, 0.663223, 20.5413, -160.572, -92.6097, 54.7811
3.0402, 2, -37.0507, 0.663194, 20.5413, -160.572, -92.6097, 54.7812
3.04681, 2, -37.0507, 0.663179, 20.5413, -160.572, -92.6097, 54.7812
3.05608, 2, -37.0506, 0.66315, 20.5413, -160.572, -92.6097, 54.7813
3.06284, 2, -37.0506, 0.663149, 20.5413, -160.572, -92.6097, 54.7813
3.07226, 2, -37.0506, 0.663148, 20.5412, -160.572, -92.6097, 54.7813
3.08025, 2, -37.0506, 0.663155, 20.5412, -160.572, -92.6097, 54.7814
3.08868, 2, -37.0506, 0.663163, 20.5412, -160.572, -92.6098, 54.7814
3.09665, 2, -37.0506, 0.663178, 20.5412, -160.572, -92.6097, 54.7815
3.10437, 2, -37.0506, 0.663192, 20.5412, -160.572, -92.6098, 54.7815
3.1126, 2, -37.0506, 0.663217, 20.5412, -160.572, -92.6098, 54.7816
3.12043, 2, -37.0506, 0.663223, 20.5412, -160.572, -92.6097, 54.7816
3.12828, 2, -37.0506, 0.663231, 20.5412, -160.572, -92.6098, 54.7816
3.13667, 2, -37.0506, 0.663236, 20.5412, -160.572, -92.6098, 54.7817
3.14381, 2, -37.0506, 0.663236, 20.5412, -160.572, -92.6099, 54.7817
3.1518, 2, -37.0505, 0.663219, 20.5412, -160.572, -92.6098, 54.7817
3.1607, 2, -37.0505, 0.663187, 20.5412, -160.572, -92.6098, 54.7817
3.16784, 2, -37.0506, 0.663196, 20.5412, -160.572, -92.6098, 54.7818
3.17585, 2, -37.0505, 0.663182, 20.5412, -160.572, -92.6098, 54.7819
3.18381, 2, -37.0505, 0.663194, 20.5412, -160.572, -92.6098, 54.7818
3.19187, 2, -37.0505, 0.663168, 20.5411, -160.572, -92.6099, 54.7818
3.19979, 2, -37.0504, 0.663198, 20.5411, -160.572, -92.6098, 54.7819
3.20781, 2, -37.0504, 0.663209, 20.5411, -160.572, -92.6098, 54.7819
3.21581, 2, -37.0504, 0.663229, 20.5411, -160.572, -92.6098, 54.782
3.2238, 2, -37.0504, 0.663246, 20.5411, -160.572, -92.6098, 54.7821
3.23182, 2, -37.0504, 0.663242, 20.5411, -160.572, -92.6098, 54.7821
3.23981, 2, -37.0504, 0.663239, 20.5411, -160.572, -92.6098, 54.782
3.24778, 2, -37.0504, 0.663238, 20.5411, -160.572, -92.6099, 54.782
3.25766, 2, -37.0504, 0.663215, 20.5411, -160.572, -92.6099, 54.7821
3.26383, 2, -37.0504, 0.663211, 20.5411, -160.572, -92.6099, 54.7821
3.27283, 2, -37.0503, 0.663196, 20.5411, -160.572, -92.6099, 54.7822
3.27982, 2, -37.0503, 0.663211, 20.5411, -160.572, -92.6099, 54.7821
3.28782, 2, -37.0503, 0.663226, 20.541, -160.572, -92.6099, 54.7821
3.29578, 2, -37.0503, 0.663239, 20.541, -160.572, -92.6099, 54.7822
3.30381, 2, -37.0503, 0.663243, 20.541, -160.572, -92.6099, 54.7823
3.31181, 2, -37.0503, 0.66324, 20.541, -160.572, -92.6099, 54.7823
3.31979, 2, -37.0503, 0.663239, 20.541, -160.572, -92.6099, 54.7823
3.32781, 2, -37.0503, 0.663251, 20.541, -160.572, -92.6099, 54.7824
3.33584, 2, -37.0503, 0.663225, 20.541, -160.572, -92.6099, 54.7824
3.34378, 2, -37.0503, 0.663232, 20.541, -160.572, -92.6099, 54.7824
3.35181, 2, -37.0502, 0.663247, 20.541, -160.572, -92.6099, 54.7824
3.35989, 2, -37.0502, 0.663242, 20.541, -160.572, -92.61, 54.7824
3.36778, 2, -37.0502, 0.663221, 20.541, -160.572, -92.61, 54.7824
3.3758, 2, -37.0502, 0.66323, 20.541, -160.572, -92.61, 54.7825
3.38383, 2, -37.0502, 0.663234, 20.541, -160.572, -92.61, 54.7825
3.3918, 2, -37.0502, 0.663218, 20.541, -160.572, -92.61, 54.7824
3.39981, 2, -37.0502, 0.663229, 20.541, -160.572, -92.61, 54.7825
3.40782, 2, -37.0502, 0.663233, 20.5409, -160.572, -92.61, 54.7825
3.41578, 2, -37.0502, 0.663236, 20.5409, -160.572, -92.61, 54.7825
3.42381, 2, -37.0502, 0.663237, 20.5409, -160.572, -92.61, 54.7825
3.43184, 2, -37.0501, 0.663237, 20.5409, -160.572, -92.61, 54.7825
3.43979, 2, -37.0501, 0.66325, 20.5409, -160.572, -92.61, 54.7825
3.44784, 2, -37.0501, 0.663263, 20.5409, -160.572, -92.6099, 54.7825
3.45588, 2, -37.0501, 0.663274, 20.5409, -160.572, -92.61, 54.7826
3.46387, 2, -37.05, 0.663271, 20.5409, -160.572, -92.61, 54.7825
3.4719, 2, -37.05, 0.663253, 20.5409, -160.572, -92.6101, 54.7825
3.47993, 2, -37.05, 0.663245, 20.5409, -160.572, -92.6101, 54.7825
3.48789, 2, -37.05, 0.663248, 20.5409, -160.572, -92.6101, 54.7826
3.49592, 2, -37.05, 0.663247, 20.5408, -160.572, -92.61, 54.7826
3.50395, 2, -37.05, 0.663242, 20.5408, -160.572, -92.61, 54.7826
3.51179, 2, -37.05, 0.66324, 20.5408, -160.572, -92.61, 54.7827
3.51985, 2, -37.05, 0.663239, 20.5408, -160.572, -92.61, 54.7827
3.52796, 2, -37.05, 0.663245, 20.5408, -160.572, -92.61, 54.7827
3.53586, 2, -37.05, 0.663258, 20.5408, -160.572, -92.61, 54.7827
3.54395, 2, -37.0499, 0.663267, 20.5408, -160.572, -92.61, 54.7827
3.5521, 2, -37.0499, 0.663256, 20.5408, -160.572, -92.61, 54.7827
3.55879, 2, -37.0499, 0.663257, 20.5408, -160.572, -92.61, 54.7828
3.56823, 2, -37.0499, 0.663267, 20.5408, -160.572, -92.61, 54.7828
3.57484, 2, -37.0499, 0.663265, 20.5408, -160.572, -92.61, 54.7828
3.58423, 2, -37.0499, 0.663246, 20.5408, -160.572, -92.6101, 54.7827
3.59235, 2, -37.0499, 0.663249, 20.5408, -160.572, -92.6101, 54.7827
3.60044, 2, -37.0499, 0.663248, 20.5408, -160.572, -92.61, 54.7827
3.60836, 2, -37.0499, 0.663242, 20.5408, -160.572, -92.6101, 54.7828
3.61636, 2, -37.0499, 0.663252, 20.5407, -160.572, -92.6101, 54.7828
3.62451, 2, -37.0499, 0.663247, 20.5407, -160.572, -92.6101, 54.7828
3.63238, 2, -37.0499, 0.663262, 20.5407, -160.572, -92.6101, 54.7828
3.6398, 2, -37.0498, 0.663273, 20.5407, -160.572, -92.6101, 54.7828
3.64964, 2, -37.0498, 0.663268, 20.5407, -160.572, -92.6101, 54.7829
3.65576, 2, -37.0498, 0.663273, 20.5407, -160.572, -92.6101, 54.7829
3.66378, 2, -37.0497, 0.663278, 20.5407, -160.572, -92.6101, 54.7829
3.67182, 2, -37.0497, 0.663281, 20.5407, -160.572, -92.6101, 54.7828
3.67979, 2, -37.0498, 0.663282, 20.5407, -160.572, -92.6101, 54.7828
3.68778, 2, -37.0498, 0.663275, 20.5407, -160.572, -92.6101, 54.7828
3.69587, 2, -37.0498, 0.663274, 20.5407, -160.572, -92.6101, 54.7828
3.70375, 2, -37.0497, 0.663279, 20.5407, -160.571, -92.6101, 54.7829
3.71178, 2, -37.0497, 0.663281, 20.5407, -160.571, -92.6102, 54.7829
3.71981, 2, -37.0497, 0.663282, 20.5407, -160.571, -92.6101, 54.7829
3.72778, 4, -37.0496, 0.663283, 20.5407, -160.571, -92.6101, 54.7829
3.73578, 4, -37.0497, 0.663283, 20.5406, -160.571, -92.6101, 54.7829
3.7438, 4, -37.0496, 0.663283, 20.5406, -160.571, -92.6101, 54.7829
3.75178, 4, -37.0496, 0.663283, 20.5406, -160.571, -92.6101, 54.7829
3.76138, 4, -37.0496, 0.663294, 20.5406, -160.571, -92.6101, 54.7829
3.76782, 4, -37.0496, 0.663295, 20.5406, -160.571, -92.6101, 54.7829
3.77682, 4, -37.0495, 0.663289, 20.5406, -160.571, -92.6101, 54.7829
3.78378, 4, -37.0495, 0.663297, 20.5406, -160.571, -92.6101, 54.7829
3.7918, 4, -37.0495, 0.663297, 20.5406, -160.571, -92.6101, 54.7829
3.79979, 4, -37.0495, 0.6633, 20.5406, -160.571, -92.6101, 54.7829
3.80778, 4, -37.0494, 0.663298, 20.5406, -160.571, -92.6101, 54.7829
3.81581, 4, -37.0494, 0.66329, 20.5406, -160.571, -92.6101, 54.7829
3.82378, 4, -37.0494, 0.663297, 20.5406, -160.571, -92.6101, 54.7829
3.84938, 4, -37.0494, 0.663303, 20.5406, -160.571, -92.6101, 54.7829
3.85141, 4, -37.0493, 0.663318, 20.5405, -160.571, -92.6101, 54.7829
3.85272, 4, -37.0493, 0.663318, 20.5405, -160.571, -92.6101, 54.7829
3.85491, 4, -37.0493, 0.663329, 20.5406, -160.571, -92.6101, 54.7829
3.86388, 4, -37.0492, 0.663341, 20.5405, -160.571, -92.6101, 54.7829
3.87178, 4, -37.0493, 0.663346, 20.5405, -160.571, -92.6102, 54.7829
3.87978, 4, -37.0492, 0.663361, 20.5405, -160.571, -92.6101, 54.7829
3.88783, 4, -37.049, 0.663308, 20.5405, -160.571, -92.6102, 54.7829
3.89578, 4, -37.0475, 0.662936, 20.5406, -160.571, -92.6102, 54.7829
3.90376, 4, -37.044, 0.66152, 20.5408, -160.571, -92.6101, 54.7829
3.91183, 4, -37.0384, 0.658752, 20.5419, -160.571, -92.6102, 54.7829
3.91978, 4, -37.0315, 0.654809, 20.5441, -160.571, -92.6102, 54.7829
3.92777, 4, -37.0238, 0.64979, 20.548, -160.57, -92.6102, 54.7829
3.93585, 4, -37.0144, 0.643156, 20.5543, -160.569, -92.6102, 54.7829
3.94377, 5, -37.0034, 0.63486, 20.5631, -160.567, -92.6102, 54.7828
3.95186, 5, -36.9918, 0.62532, 20.574, -160.565, -92.61, 54.7828
3.95985, 5, -36.9795, 0.614429, 20.5868, -160.562, -92.6099, 54.7828
3.96785, 5, -36.9656, 0.602147, 20.6014, -160.559, -92.6097, 54.7827
3.97592, 5, -36.9493, 0.588437, 20.6168, -160.556, -92.6096, 54.7826
3.98392, 5, -36.9311, 0.573635, 20.6327, -160.553, -92.6095, 54.7826
3.99187, 5, -36.9119, 0.55802, 20.6493, -160.549, -92.6094, 54.7825
3.99995, 5, -36.8918, 0.542029, 20.666, -160.546, -92.6092, 54.7824
4.00784, 5, -36.8713, 0.526059, 20.6824, -160.542, -92.6091, 54.7823
4.01598, 5, -36.8507, 0.509943, 20.6989, -160.538, -92.6089, 54.7822
4.02386, 5, -36.8302, 0.493486, 20.7155, -160.535, -92.6086, 54.7821
4.03186, 5, -36.8097, 0.477105, 20.7321, -160.531, -92.6083, 54.7819
4.03994, 5, -36.7895, 0.460995, 20.7489, -160.527, -92.6079, 54.7818
4.04799, 5, -36.7692, 0.444914, 20.766, -160.524, -92.6074, 54.7817
4.05599, 5, -36.7489, 0.428655, 20.783, -160.52, -92.607, 54.7815
4.06276, 5, -36.7387, 0.420574, 20.7914, -160.518, -92.6068, 54.7814
4.07212, 5, -36.7076, 0.396745, 20.8166, -160.512, -92.606, 54.7811
4.07881, 5, -36.6973, 0.388803, 20.8251, -160.51, -92.6058, 54.7811
4.0884, 5, -36.6668, 0.364565, 20.85, -160.504, -92.605, 54.7809
4.09627, 5, -36.6467, 0.348482, 20.867, -160.501, -92.6045, 54.7808
4.10432, 5, -36.6265, 0.332523, 20.8841, -160.497, -92.604, 54.7807
4.11263, 5, -36.6063, 0.316342, 20.9009, -160.493, -92.6034, 54.7806
4.12037, 5, -36.5961, 0.299965, 20.9177, -160.489, -92.6029, 54.7806
4.12831, 5, -36.5755, 0.291853, 20.9261, -160.488, -92.6024, 54.7805
4.13653, 5, -36.5546, 0.275731, 20.943, -160.484, -92.6021, 54.7804
4.14375, 5, -36.5337, 0.259451, 20.9597, -160.48, -92.6016, 54.7804
4.15175, 5, -36.513, 0.242975, 20.9767, -160.477, -92.601, 54.7803
4.1598, 5, -36.4924, 0.226691, 20.9938, -160.473, -92.6004, 54.7802
4.16775, 5, -36.4718, 0.210612, 21.0106, -160.47, -92.5999, 54.7801
4.17579, 5, -36.4513, 0.194493, 21.0274, -160.466, -92.5993, 54.78
4.18376, 5, -36.4309, 0.17823, 21.0442, -160.463, -92.5988, 54.7798
4.19177, 5, -36.4102, 0.162278, 21.0609, -160.46, -92.5983, 54.7795
4.19984, 5, -36.3894, 0.146382, 21.0777, -160.456, -92.5977, 54.7794
4.20776, 5, -36.3688, 0.130308, 21.0947, -160.453, -92.5972, 54.779
4.21575, 5, -36.3483, 0.114089, 21.1117, -160.45, -92.5967, 54.7788
4.2238, 5, -36.3278, 0.0980876, 21.1285, -160.446, -92.5961, 54.7784
4.23179, 5, -36.3073, 0.082127, 21.1454, -160.443, -92.5956, 54.778
4.23975, 5, -36.2868, 0.0659621, 21.1621, -160.44, -92.5952, 54.7777
4.24782, 5, -36.2661, 0.049655, 21.1786, -160.436, -92.5946, 54.7773
4.25576, 5, -36.2452, 0.0336169, 21.1953, -160.433, -92.5942, 54.7769
4.26583, 5, -36.2138, 0.00947336, 21.2206, -160.428, -92.5934, 54.7762
4.27185, 5, -36.2034, 0.00133243, 21.229, -160.426, -92.5931, 54.7759
4.28082, 5, -36.1827, -0.0149242, 21.2456, -160.422, -92.5926, 54.7754
4.28774, 5, -36.1619, -0.0308974, 21.2625, -160.419, -92.5921, 54.7749
4.29581, 5, -36.1411, -0.0468109, 21.2792, -160.415, -92.5916, 54.7745
4.30375, 5, -36.1205, -0.0628893, 21.2957, -160.412, -92.5911, 54.774
4.31175, 5, -36.0998, -0.0789123, 21.3126, -160.408, -92.5906, 54.7735
4.31975, 5, -36.0789, -0.0947006, 21.3294, -160.404, -92.5901, 54.7731
4.32784, 5, -36.0582, -0.110644, 21.346, -160.401, -92.5896, 54.7726
4.33575, 5, -36.0376, -0.126761, 21.3625, -160.397, -92.5892, 54.7722
4.34377, 5, -36.0168, -0.142764, 21.3791, -160.393, -92.5887, 54.7718
4.35182, 5, -35.9961, -0.158604, 21.3956, -160.389, -92.5882, 54.7714
4.35975, 5, -35.9754, -0.174533, 21.4121, -160.385, -92.5878, 54.771
4.36791, 5, -35.9548, -0.190639, 21.4289, -160.381, -92.5872, 54.7707
4.37582, 5, -35.9338, -0.206623, 21.4456, -160.377, -92.5868, 54.7704
4.38375, 5, -35.9128, -0.222504, 21.462, -160.373, -92.5863, 54.7701
4.39174, 5, -35.892, -0.23847, 21.4786, -160.369, -92.5859, 54.7698
4.39984, 5, -35.8711, -0.254553, 21.4951, -160.365, -92.5854, 54.7695
4.40776, 5, -35.8501, -0.27045, 21.5114, -160.361, -92.585, 54.7692
4.41581, 5, -35.8292, -0.286157, 21.5278, -160.358, -92.5845, 54.769
4.42376, 5, -35.8084, -0.302022, 21.5445, -160.354, -92.584, 54.7688
4.43175, 5, -35.7875, -0.318039, 21.561, -160.35, -92.5835, 54.7686
4.43983, 5, -35.7665, -0.333814, 21.5774, -160.346, -92.583, 54.7684
4.44788, 5, -35.7455, -0.349537, 21.594, -160.342, -92.5826, 54.7683
4.45578, 5, -35.7248, -0.365425, 21.6105, -160.339, -92.5821, 54.7682
4.46389, 5, -35.7039, -0.381424, 21.6267, -160.335, -92.5816, 54.7681
4.47205, 5, -35.683, -0.397219, 21.6431, -160.331, -92.5812, 54.768
4.47937, 5, -35.6622, -0.412991, 21.6598, -160.328, -92.5808, 54.7678
4.48792, 5, -35.6413, -0.428911, 21.6761, -160.324, -92.5803, 54.7678
4.49625, 5, -35.6203, -0.444861, 21.6923, -160.32, -92.5799, 54.7677
4.50349, 5, -35.5992, -0.460546, 21.7087, -160.317, -92.5794, 54.7676
4.51193, 5, -35.5782, -0.476307, 21.7249, -160.313, -92.5789, 54.7675
4.52051, 5, -35.5573, -0.49222, 21.741, -160.31, -92.5785, 54.7675
4.52779, 5, -35.5362, -0.508095, 21.7574, -160.306, -92.578, 54.7674
4.53591, 5, -35.5153, -0.523744, 21.7739, -160.303, -92.5776, 54.7674
4.54473, 5, -35.4944, -0.53939, 21.7901, -160.299, -92.5771, 54.7674
4.55199, 5, -35.4735, -0.555177, 21.8063, -160.296, -92.5766, 54.7674
4.56009, 5, -35.4524, -0.570917, 21.8227, -160.292, -92.5762, 54.7673
4.56678, 5, -35.4418, -0.578674, 21.8308, -160.29, -92.5759, 54.7673
4.57476, 5, -35.4208, -0.594195, 21.8467, -160.287, -92.5755, 54.7673
4.58418, 5, -35.3892, -0.617872, 21.871, -160.281, -92.5748, 54.7673
4.59303, 5, -35.3681, -0.633662, 21.8873, -160.278, -92.5743, 54.7673
4.5988, 5, -35.3576, -0.64143, 21.8954, -160.276, -92.574, 54.7673
4.6083, 5, -35.3261, -0.664794, 21.9196, -160.27, -92.5733, 54.7673
4.61712, 5, -35.3049, -0.680625, 21.9358, -160.266, -92.5729, 54.7673
4.62296, 5, -35.2943, -0.688529, 21.9439, -160.264, -92.5727, 54.7673
4.63225, 5, -35.273, -0.704125, 21.9598, -160.261, -92.5722, 54.7673
4.63973, 5, -35.2519, -0.719653, 21.9759, -160.257, -92.5717, 54.7673
4.64674, 5, -35.2307, -0.735362, 21.9922, -160.253, -92.5713, 54.7673
4.65685, 5, -35.1989, -0.75895, 22.0161, -160.247, -92.5706, 54.7674
4.66375, 5, -35.1884, -0.766638, 22.0241, -160.245, -92.5704, 54.7674
4.67076, 5, -35.1673, -0.781986, 22.0401, -160.241, -92.5699, 54.7674
4.67975, 5, -35.146, -0.797536, 22.0561, -160.237, -92.5694, 54.7674
4.68778, 5, -35.1248, -0.813187, 22.0719, -160.232, -92.569, 54.7674
4.69475, 5, -35.1038, -0.828565, 22.088, -160.228, -92.5685, 54.7674
4.70379, 5, -35.0826, -0.843967, 22.1041, -160.224, -92.568, 54.7674
4.71178, 5, -35.0614, -0.859619, 22.12, -160.22, -92.5675, 54.7674
4.71873, 5, -35.0403, -0.875359, 22.1359, -160.216, -92.5671, 54.7675
4.72773, 5, -35.0194, -0.890848, 22.1519, -160.212, -92.5666, 54.7675
4.73581, 5, -34.9983, -0.906239, 22.1677, -160.208, -92.5662, 54.7675
4.74355, 5, -34.977, -0.921799, 22.1833, -160.204, -92.5657, 54.7675
4.75179, 5, -34.9559, -0.937468, 22.1992, -160.2, -92.5652, 54.7675
4.75975, 5, -34.9347, -0.952857, 22.2152, -160.196, -92.5647, 54.7676
4.76874, 5, -34.9134, -0.9682, 22.231, -160.192, -92.5642, 54.7676
4.77581, 5, -34.8921, -0.983717, 22.2467, -160.189, -92.5638, 54.7677
4.78481, 5, -34.8709, -0.999333, 22.2627, -160.185, -92.5634, 54.7677
4.79159, 5, -34.8496, -1.01464, 22.2786, -160.181, -92.5628, 54.7678
4.79981, 5, -34.8282, -1.02983, 22.2941, -160.178, -92.5624, 54.7679
4.80773, 5, -34.8069, -1.04521, 22.31, -160.174, -92.5619, 54.768
4.81574, 5, -34.7857, -1.06069, 22.326, -160.17, -92.5614, 54.768
4.8238, 5, -34.7644, -1.07598, 22.3418, -160.167, -92.5609, 54.768
4.83173, 5, -34.743, -1.09122, 22.3573, -160.163, -92.5604, 54.7681
4.83975, 5, -34.7216, -1.10663, 22.373, -160.16, -92.56, 54.7682
4.84781, 5, -34.7004, -1.12221, 22.3886, -160.156, -92.5595, 54.7684
4.85573, 5, -34.6789, -1.13756, 22.4041, -160.152, -92.559, 54.7685
4.86492, 5, -34.6575, -1.15284, 22.4199, -160.149, -92.5586, 54.7688
4.87178, 5, -34.6362, -1.16829, 22.4357, -160.145, -92.558, 54.7689
4.87982, 5, -34.6149, -1.1838, 22.4514, -160.141, -92.5575, 54.7692
4.88773, 5, -34.5935, -1.19907, 22.467, -160.138, -92.5571, 54.7694
4.89572, 5, -34.5722, -1.21431, 22.4827, -160.134, -92.5566, 54.7696
4.90381, 5, -34.5509, -1.22968, 22.4983, -160.13, -92.5561, 54.77
4.91173, 5, -34.5295, -1.2451, 22.5136, -160.126, -92.5556, 54.7705
4.92154, 5, -34.508, -1.26026, 22.5292, -160.122, -92.5551, 54.771
4.92779, 5, -34.4866, -1.27535, 22.545, -160.118, -92.5546, 54.7715
4.93573, 5, -34.4652, -1.29058, 22.5605, -160.114, -92.5542, 54.7721
4.94382, 5, -34.4436, -1.30591, 22.576, -160.11, -92.5536, 54.7728
4.95173, 5, -34.4222, -1.321, 22.5917, -160.106, -92.5531, 54.7735
4.95976, 5, -34.4007, -1.33609, 22.6073, -160.102, -92.5526, 54.7743
4.96787, 5, -34.3793, -1.35135, 22.6226, -160.098, -92.5521, 54.7751
4.97583, 5, -34.3577, -1.36676, 22.6381, -160.094, -92.5517, 54.7759
4.98383, 5, -34.3362, -1.38196, 22.6539, -160.089, -92.5512, 54.7769
4.99133, 5, -34.3148, -1.39703, 22.6695, -160.085, -92.5506, 54.7779
4.9999, 5, -34.2932, -1.41224, 22.6847, -160.081, -92.5501, 54.7789
5.0078, 5, -34.2717, -1.42758, 22.7002, -160.077, -92.5497, 54.7798
5.01577, 5, -34.2502, -1.44273, 22.7157, -160.072, -92.5492, 54.7808
5.02382, 5, -34.2288, -1.45772, 22.7309, -160.068, -92.5487, 54.7819
5.03203, 5, -34.2072, -1.47283, 22.7461, -160.064, -92.5482, 54.7829
5.03892, 5, -34.1963, -1.48047, 22.7539, -160.062, -92.5479, 54.7834
5.04794, 5, -34.1641, -1.50322, 22.7775, -160.055, -92.5472, 54.785
5.05601, 5, -34.1426, -1.51817, 22.7928, -160.051, -92.5467, 54.786
5.06278, 5, -34.1318, -1.52564, 22.8004, -160.049, -92.5464, 54.7865
5.07205, 5, -34.0995, -1.54837, 22.8235, -160.043, -92.5456, 54.788
5.07874, 5, -34.0888, -1.55593, 22.8311, -160.041, -92.5454, 54.7885
5.08819, 5, -34.0564, -1.5783, 22.8537, -160.036, -92.5447, 54.79
5.09622, 5, -34.0347, -1.59335, 22.8691, -160.032, -92.5441, 54.7911
5.10436, 5, -34.0131, -1.60858, 22.8846, -160.028, -92.5436, 54.7922
5.11233, 5, -33.9915, -1.62371, 22.8998, -160.024, -92.5431, 54.7931
5.12031, 5, -33.9699, -1.63859, 22.915, -160.02, -92.5426, 54.7941
5.12857, 5, -33.9482, -1.65351, 22.9305, -160.016, -92.5421, 54.7951
5.13635, 5, -33.9374, -1.66105, 22.9381, -160.015, -92.5418, 54.7961
5.14427, 5, -33.9158, -1.67617, 22.9532, -160.011, -92.5414, 54.7966
5.15172, 5, -33.8939, -1.69106, 22.9683, -160.007, -92.5409, 54.7976
5.15973, 5, -33.8721, -1.70585, 22.9837, -160.003, -92.5403, 54.7986
5.16777, 5, -33.8504, -1.7208, 22.9991, -159.999, -92.5398, 54.7996
5.17571, 5, -33.8288, -1.73591, 23.0141, -159.995, -92.5393, 54.8006
5.1839, 5, -33.8072, -1.75083, 23.0292, -159.991, -92.5387, 54.8017
5.19557, 5, -33.7746, -1.77304, 23.0519, -159.985, -92.5379, 54.8031
5.19967, 5, -33.7638, -1.78051, 23.0594, -159.983, -92.5377, 54.8036
5.20778, 5, -33.742, -1.79559, 23.0743, -159.979, -92.5371, 54.8047
5.21576, 5, -33.7202, -1.81051, 23.0895, -159.975, -92.5366, 54.8057
5.22371, 5, -33.6984, -1.82528, 23.1049, -159.971, -92.5361, 54.8068
5.23174, 5, -33.6768, -1.84017, 23.12, -159.967, -92.5355, 54.8078
5.2398, 5, -33.6551, -1.85522, 23.1349, -159.963, -92.535, 54.8088
5.24771, 5, -33.6334, -1.87021, 23.15, -159.958, -92.5345, 54.8097
5.25572, 5, -33.6117, -1.88496, 23.165, -159.954, -92.534, 54.8108
5.26472, 5, -33.59, -1.89975, 23.1797, -159.95, -92.5335, 54.8119
5.27172, 5, -33.5681, -1.9147, 23.1947, -159.945, -92.533, 54.8129
5.28072, 5, -33.5462, -1.9296, 23.2099, -159.941, -92.5325, 54.8139
5.28772, 5, -33.5244, -1.94426, 23.225, -159.936, -92.5319, 54.815
5.29571, 5, -33.5025, -1.95904, 23.2398, -159.932, -92.5314, 54.816
5.30451, 5, -33.4806, -1.97399, 23.2548, -159.928, -92.5309, 54.8171
5.31072, 5, -33.4588, -1.989, 23.2699, -159.923, -92.5303, 54.8182
5.31971, 5, -33.4369, -2.00378, 23.2848, -159.919, -92.5297, 54.8193
5.32874, 5, -33.4149, -2.01856, 23.2996, -159.915, -92.5292, 54.8203
5.33586, 5, -33.3931, -2.03354, 23.3147, -159.91, -92.5286, 54.8212
5.34371, 5, -33.3713, -2.04865, 23.33, -159.906, -92.528, 54.8222
5.35253, 5, -33.3495, -2.06356, 23.3449, -159.902, -92.5273, 54.8231
5.35971, 5, -33.3278, -2.07854, 23.3599, -159.898, -92.5265, 54.8238
5.36772, 5, -33.3062, -2.09381, 23.3751, -159.893, -92.5255, 54.8245
5.37719, 5, -33.2845, -2.10928, 23.3903, -159.889, -92.5244, 54.825
5.38373, 5, -33.2627, -2.1246, 23.4054, -159.885, -92.5232, 54.8254
5.39179, 6, -33.2411, -2.13993, 23.421, -159.88, -92.5219, 54.8256
5.39972, 6, -33.2197, -2.15557, 23.4367, -159.876, -92.5205, 54.8258
5.40773, 6, -33.1983, -2.17146, 23.4523, -159.871, -92.519, 54.8259
5.41571, 6, -33.1768, -2.18724, 23.468, -159.867, -92.5174, 54.826
5.42381, 6, -33.1554, -2.20308, 23.4839, -159.862, -92.5155, 54.8259
5.43172, 6, -33.1342, -2.2193, 23.4997, -159.857, -92.5135, 54.8258
5.43978, 6, -33.1129, -2.23568, 23.5155, -159.852, -92.5115, 54.8257
5.44782, 6, -33.0916, -2.25193, 23.5316, -159.847, -92.5093, 54.8256
5.45589, 6, -33.0704, -2.26826, 23.548, -159.842, -92.507, 54.8254
5.46325, 6, -33.0493, -2.28492, 23.5642, -159.836, -92.5046, 54.8251
5.47275, 6, -33.0283, -2.30169, 23.5805, -159.831, -92.5021, 54.8247
5.4798, 6, -33.0072, -2.31835, 23.597, -159.825, -92.4995, 54.8243
5.48788, 6, -32.9864, -2.33524, 23.6135, -159.819, -92.4967, 54.8237
5.49623, 6, -32.9654, -2.35249, 23.6301, -159.813, -92.4939, 54.823
5.50382, 6, -32.9444, -2.36969, 23.6471, -159.806, -92.491, 54.8222
5.51236, 6, -32.9235, -2.38683, 23.664, -159.8, -92.4879, 54.8214
5.51973, 6, -32.9027, -2.40423, 23.6809, -159.793, -92.4847, 54.8206
5.52776, 7, -32.882, -2.42191, 23.6978, -159.787, -92.4815, 54.8195
5.53657, 7, -32.8612, -2.43944, 23.7148, -159.78, -92.4781, 54.8181
5.54385, 7, -32.8406, -2.45709, 23.7318, -159.773, -92.4747, 54.8161
5.55187, 7, -32.8202, -2.47516, 23.7492, -159.766, -92.4711, 54.8137
5.56082, 7, -32.7996, -2.49326, 23.7668, -159.76, -92.4674, 54.8109
5.56805, 7, -32.779, -2.51129, 23.7843, -159.753, -92.4637, 54.8077
5.57471, 7, -32.7688, -2.52037, 23.7931, -159.75, -92.4617, 54.8061
5.58487, 7, -32.7383, -2.5481, 23.8195, -159.74, -92.4557, 54.8006
5.59224, 7, -32.718, -2.56655, 23.837, -159.733, -92.4515, 54.7967
5.60073, 7, -32.6978, -2.58515, 23.8547, -159.726, -92.4473, 54.7927
5.60889, 7, -32.6777, -2.60411, 23.8727, -159.719, -92.4428, 54.7885
5.61631, 7, -32.6577, -2.62304, 23.8908, -159.712, -92.4383, 54.7842
5.62432, 7, -32.6375, -2.64192, 23.9089, -159.705, -92.4337, 54.7797
5.63308, 7, -32.6275, -2.65148, 23.918, -159.698, -92.4289, 54.7749
5.63871, 7, -32.6074, -2.67076, 23.9362, -159.694, -92.4264, 54.7725
5.64952, 7, -32.5774, -2.69968, 23.9636, -159.683, -92.4188, 54.7651
5.6557, 7, -32.5674, -2.70946, 23.9728, -159.679, -92.4162, 54.7626
5.66373, 8, -32.5475, -2.72919, 23.9915, -159.671, -92.4107, 54.7574
5.67171, 8, -32.5277, -2.74888, 24.01, -159.663, -92.4051, 54.752
5.67878, 8, -32.508, -2.76864, 24.0286, -159.655, -92.3993, 54.7465
5.68778, 8, -32.4883, -2.78867, 24.0474, -159.647, -92.3933, 54.741
5.69572, 8, -32.4685, -2.80865, 24.0661, -159.638, -92.387, 54.7352
5.70277, 8, -32.4489, -2.82883, 24.085, -159.63, -92.3806, 54.7293
5.71174, 8, -32.4293, -2.84929, 24.1042, -159.621, -92.3739, 54.7233
5.71971, 8, -32.4097, -2.86966, 24.1233, -159.613, -92.3672, 54.717
5.72672, 8, -32.3902, -2.89015, 24.1426, -159.605, -92.3605, 54.7106
5.73569, 8, -32.3709, -2.91094, 24.1618, -159.596, -92.3536, 54.7041
5.74387, 8, -32.3517, -2.9317, 24.181, -159.588, -92.3468, 54.6973
5.75253, 8, -32.3323, -2.95259, 24.2005, -159.579, -92.3399, 54.6903
5.75969, 8, -32.3131, -2.97377, 24.2201, -159.571, -92.333, 54.6832
5.76772, 8, -32.2939, -2.99492, 24.2398, -159.562, -92.326, 54.6759
5.77669, 8, -32.2747, -3.01612, 24.2595, -159.554, -92.319, 54.6684
5.78371, 8, -32.2556, -3.03756, 24.2794, -159.545, -92.3119, 54.6607
5.79274, 8, -32.2364, -3.05899, 24.2993, -159.536, -92.3048, 54.653
5.7997, 9, -32.2175, -3.08067, 24.3194, -159.526, -92.2976, 54.645
5.80771, 9, -32.1987, -3.1025, 24.3394, -159.517, -92.2903, 54.6371
5.81841, 9, -32.1703, -3.13528, 24.3696, -159.502, -92.279, 54.6252
5.82384, 9, -32.1609, -3.14635, 24.3798, -159.497, -92.2752, 54.6213
5.8317, 9, -32.142, -3.16853, 24.4001, -159.487, -92.2674, 54.6133
5.8397, 9, -32.1232, -3.1907, 24.4206, -159.477, -92.2592, 54.6052
5.8477, 9, -32.1044, -3.21314, 24.4411, -159.467, -92.2509, 54.5972
5.85571, 9, -32.0856, -3.23568, 24.4617, -159.458, -92.2423, 54.589
5.86373, 9, -32.067, -3.25825, 24.4823, -159.448, -92.2334, 54.5808
5.87184, 9, -32.0486, -3.28112, 24.503, -159.438, -92.2244, 54.5724
5.87885, 9, -32.03, -3.30404, 24.5239, -159.428, -92.2152, 54.5639
5.88775, 9, -32.0114, -3.3271, 24.5449, -159.418, -92.206, 54.5552
5.89569, 9, -31.9929, -3.35035, 24.5658, -159.408, -92.1968, 54.5463
5.90372, 9, -31.9745, -3.37357, 24.587, -159.398, -92.1876, 54.5373
5.91176, 9, -31.9562, -3.39704, 24.6083, -159.388, -92.1783, 54.528
5.91969, 9, -31.9379, -3.42059, 24.6297, -159.377, -92.1691, 54.5186
5.92773, 9, -31.9196, -3.44425, 24.6512, -159.366, -92.1598, 54.5087
5.93573, 10, -31.9015, -3.46818, 24.6726, -159.355, -92.1504, 54.4988
5.9437, 10, -31.8835, -3.49205, 24.6941, -159.344, -92.1409, 54.4884
5.95178, 10, -31.8654, -3.51612, 24.7158, -159.333, -92.1312, 54.478
5.95971, 10, -31.8473, -3.54033, 24.7375, -159.322, -92.1212, 54.4673
5.96782, 10, -31.8292, -3.56458, 24.7595, -159.311, -92.1111, 54.4565
5.97578, 10, -31.8113, -3.58913, 24.7815, -159.3, -92.1005, 54.4457
5.98385, 10, -31.7935, -3.61363, 24.8035, -159.289, -92.0897, 54.4348
5.9918, 10, -31.7756, -3.6383, 24.8256, -159.278, -92.0786, 54.424
5.99981, 10, -31.758, -3.66319, 24.8478, -159.267, -92.0675, 54.4133
6.00787, 10, -31.7404, -3.68813, 24.8702, -159.256, -92.0564, 54.4025
6.01593, 10, -31.7228, -3.71333, 24.8927, -159.244, -92.0453, 54.3916
6.02435, 10, -31.7051, -3.73848, 24.9151, -159.233, -92.0344, 54.3807
6.03178, 10, -31.6874, -3.76379, 24.9378, -159.221, -92.0234, 54.3697
6.03973, 10, -31.6697, -3.78922, 24.9606, -159.208, -92.0125, 54.3585
6.04817, 10, -31.6521, -3.81474, 24.9835, -159.196, -92.0015, 54.347
6.05468, 10, -31.6434, -3.82765, 24.9949, -159.19, -91.9959, 54.3412
6.06394, 10, -31.6172, -3.86635, 25.0292, -159.173, -91.979, 54.3235
6.07094, 11, -31.6085, -3.8793, 25.0407, -159.167, -91.9732, 54.3173
6.08008, 11, -31.5827, -3.91841, 25.0754, -159.149, -91.9553, 54.2987
6.08819, 11, -31.5655, -3.94457, 25.0988, -159.137, -91.943, 54.286
6.09634, 11, -31.5481, -3.9711, 25.1221, -159.125, -91.9304, 54.273
6.1042, 11, -31.5308, -3.99753, 25.1455, -159.112, -91.9178, 54.26
6.11234, 11, -31.5135, -4.02414, 25.1691, -159.1, -91.9052, 54.247
6.12029, 11, -31.4964, -4.05087, 25.1927, -159.087, -91.8927, 54.2342
6.12829, 11, -31.4794, -4.07782, 25.2165, -159.073, -91.8802, 54.2212
6.1365, 11, -31.4623, -4.10488, 25.2402, -159.06, -91.8677, 54.2082
6.14534, 11, -31.4539, -4.13201, 25.2641, -159.047, -91.8551, 54.1951
6.15168, 11, -31.4371, -4.14563, 25.2761, -159.041, -91.8488, 54.1885
6.15976, 11, -31.4203, -4.17292, 25.3002, -159.028, -91.8359, 54.1752
6.16769, 11, -31.4035, -4.2005, 25.3244, -159.015, -91.8228, 54.1617
6.17568, 11, -31.3866, -4.22815, 25.3485, -159.002, -91.8092, 54.1479
6.18376, 11, -31.3698, -4.25586, 25.3728, -158.989, -91.7954, 54.134
6.1917, 11, -31.3532, -4.2837, 25.3972, -158.976, -91.7813, 54.1196
6.19968, 11, -31.3366, -4.31171, 25.4217, -158.962, -91.7673, 54.1048
6.20796, 12, -31.32, -4.33994, 25.4464, -158.949, -91.7533, 54.0899
6.21572, 12, -31.3035, -4.36815, 25.471, -158.935, -91.7394, 54.0749
6.22368, 12, -31.2872, -4.39658, 25.4957, -158.921, -91.7256, 54.0599
6.23318, 12, -31.2628, -4.4394, 25.533, -158.9, -91.7049, 54.0377
6.23968, 12, -31.2547, -4.45379, 25.5456, -158.893, -91.6979, 54.0303
6.24778, 12, -31.2384, -4.48254, 25.5706, -158.879, -91.6837, 54.0154
6.25648, 12, -31.2221, -4.51138, 25.5957, -158.865, -91.6692, 54.0005
6.26275, 12, -31.2058, -4.54035, 25.621, -158.851, -91.6543, 53.9854
6.27169, 12, -31.1897, -4.56954, 25.6464, -158.837, -91.6392, 53.9702
6.28142, 12, -31.1735, -4.59887, 25.6719, -158.823, -91.624, 53.9468
6.28852, 12, -31.1574, -4.62829, 25.6973, -158.808, -91.6088, 53.9388
6.29568, 12, -31.1413, -4.65782, 25.7228, -158.794, -91.5938, 53.9226
6.30448, 12, -31.1254, -4.68747, 25.7486, -158.778, -91.5788, 53.906
6.31168, 12, -31.1095, -4.71734, 25.7744, -158.764, -91.5637, 53.8894
6.31968, 12, -31.0936, -4.74725, 25.8002, -158.749, -91.5485, 53.8729
6.3285, 12, -31.0775, -4.77739, 25.8261, -158.734, -91.5328, 53.8566
6.3349, 12, -31.0616, -4.8076, 25.8521, -158.72, -91.5169, 53.8404
6.34375, 12, -31.0457, -4.83799, 25.8783, -158.705, -91.5005, 53.8239
6.35247, 13, -31.0299, -4.86844, 25.9044, -158.691, -91.4839, 53.8074
6.35969, 13, -31.0142, -4.89901, 25.9308, -158.676, -91.4674, 53.7907
6.36775, 13, -30.9986, -4.92976, 25.9572, -158.661, -91.4512, 53.7738
6.37752, 13, -30.9831, -4.96069, 25.9839, -158.645, -91.4351, 53.7566
6.3835, 13, -30.9677, -4.99168, 26.0104, -158.629, -91.4188, 53.7389
6.39174, 13, -30.9523, -5.02281, 26.037, -158.614, -91.4025, 53.721
6.39968, 13, -30.9369, -5.05408, 26.0638, -158.598, -91.3859, 53.7031
6.40774, 13, -30.9214, -5.08549, 26.0907, -158.583, -91.3689, 53.6852
6.41575, 13, -30.9059, -5.11695, 26.1177, -158.568, -91.3515, 53.6676
6.42369, 13, -30.8905, -5.1486, 26.1448, -158.552, -91.334, 53.6498
6.43648, 13, -30.8676, -5.19635, 26.1855, -158.528, -91.3081, 53.6229
6.43975, 13, -30.86, -5.21228, 26.1992, -158.52, -91.2994, 53.6138
6.44767, 13, -30.8448, -5.2442, 26.2265, -158.504, -91.2822, 53.5955
6.45587, 13, -30.8297, -5.27626, 26.2539, -158.487, -91.2649, 53.5767
6.4637, 13, -30.8147, -5.30856, 26.2815, -158.471, -91.2473, 53.5577
6.47197, 13, -30.7998, -5.34093, 26.3093, -158.455, -91.2294, 53.5384
6.47975, 13, -30.7849, -5.37336, 26.337, -158.439, -91.211, 53.5192
6.48777, 14, -30.77, -5.40591, 26.3647, -158.423, -91.1925, 53.5
6.49618, 14, -30.755, -5.43871, 26.3925, -158.407, -91.174, 53.4813
6.50339, 14, -30.7402, -5.47159, 26.4206, -158.39, -91.1558, 53.4624
6.51186, 14, -30.7254, -5.50458, 26.4488, -158.374, -91.1377, 53.4435
6.52046, 14, -30.7106, -5.53777, 26.4769, -158.357, -91.1195, 53.4243
6.5277, 14, -30.6959, -5.57119, 26.5051, -158.339, -91.101, 53.4046
6.53577, 14, -30.6812, -5.60463, 26.5335, -158.322, -91.0821, 53.3846
6.54456, 14, -30.6667, -5.6381, 26.5619, -158.306, -91.0627, 53.3641
6.55219, 14, -30.6522, -5.67181, 26.5904, -158.289, -91.0432, 53.3433
6.56054, 14, -30.6377, -5.70568, 26.6191, -158.272, -91.0239, 53.3225
6.56861, 14, -30.6234, -5.73965, 26.648, -158.255, -91.0046, 53.3018
6.57605, 14, -30.6088, -5.77367, 26.6768, -158.238, -90.9854, 53.2814
6.58272, 14, -30.6016, -5.79078, 26.6911, -158.229, -90.9758, 53.2712
6.5929, 14, -30.5801, -5.84232, 26.7346, -158.202, -90.9463, 53.2404
6.60024, 14, -30.5658, -5.87679, 26.7638, -158.184, -90.9261, 53.2195
6.609, 14, -30.5516, -5.91136, 26.7929, -158.167, -90.9056, 53.1983
6.61621, 14, -30.5374, -5.94612, 26.8222, -158.15, -90.8855, 53.1765
6.62432, 15, -30.5233, -5.98095, 26.8515, -158.132, -90.8654, 53.1547
6.63311, 15, -30.5163, -6.01587, 26.8811, -158.115, -90.8454, 53.133
6.63874, 15, -30.5024, -6.03338, 26.8958, -158.106, -90.8354, 53.1222
6.64881, 15, -30.4816, -6.08616, 26.9402, -158.078, -90.8051, 53.0898
6.65566, 15, -30.4746, -6.10383, 26.9551, -158.069, -90.7947, 53.0789
6.66373, 15, -30.4607, -6.1392, 26.985, -158.05, -90.7737, 53.0571
6.67167, 15, -30.4467, -6.17471, 27.0148, -158.032, -90.7525, 53.0349
6.6797, 15, -30.4329, -6.21039, 27.0447, -158.014, -90.7317, 53.0123
6.68669, 15, -30.4191, -6.24623, 27.0747, -157.995, -90.7108, 52.9893
6.6958, 15, -30.4053, -6.28223, 27.1049, -157.977, -90.6899, 52.9663
6.70365, 15, -30.3917, -6.31836, 27.1351, -157.959, -90.6687, 52.9435
6.71171, 15, -30.3781, -6.35459, 27.1653, -157.94, -90.6471, 52.9206
6.71971, 15, -30.3645, -6.39102, 27.1958, -157.921, -90.6251, 52.8979
6.72766, 15, -30.3511, -6.42763, 27.2263, -157.901, -90.6029, 52.8751
6.73467, 15, -30.3377, -6.46433, 27.2568, -157.882, -90.5811, 52.8518
6.74375, 15, -30.3243, -6.50116, 27.2876, -157.864, -90.5594, 52.8282
6.75072, 15, -30.311, -6.5381, 27.3185, -157.845, -90.5378, 52.8042
6.75976, 16, -30.2975, -6.57517, 27.3493, -157.826, -90.5158, 52.7801
6.76767, 16, -30.2841, -6.61235, 27.3802, -157.807, -90.4933, 52.7564
6.77666, 16, -30.2709, -6.64966, 27.4114, -157.787, -90.4704, 52.7328
6.78373, 16, -30.2576, -6.68714, 27.4426, -157.768, -90.4478, 52.709
6.79267, 16, -30.2443, -6.72459, 27.4738, -157.748, -90.4253, 52.6852
6.79969, 16, -30.2312, -6.76218, 27.5052, -157.729, -90.403, 52.6611
6.80766, 16, -30.218, -6.80007, 27.5367, -157.709, -90.3803, 52.6365
6.81572, 16, -30.2049, -6.83799, 27.5683, -157.69, -90.3571, 52.6115
6.82367, 16, -30.1919, -6.87598, 27.5999, -157.67, -90.3334, 52.5865
6.83166, 16, -30.179, -6.91418, 27.6318, -157.65, -90.3097, 52.5619
6.83988, 16, -30.1661, -6.95255, 27.6637, -157.63, -90.2863, 52.5374
6.85002, 16, -30.1532, -7.01029, 27.7115, -157.6, -90.2514, 52.5004
6.85484, 16, -30.1403, -7.02962, 27.7275, -157.59, -90.2398, 52.4879
6.86374, 16, -30.1273, -7.06845, 27.7597, -157.57, -90.2159, 52.4625
6.87166, 16, -30.1146, -7.10729, 27.7919, -157.55, -90.1916, 52.4369
6.87967, 16, -30.1018, -7.1463, 27.8241, -157.53, -90.1674, 52.4111
6.88819, 16, -30.0891, -7.18557, 27.8565, -157.509, -90.1434, 52.3857
6.89467, 17, -30.0765, -7.2249, 27.889, -157.488, -90.1195, 52.3605
6.90365, 17, -30.0639, -7.26428, 27.9216, -157.468, -90.0955, 52.3353
6.91359, 17, -30.0514, -7.30391, 27.9542, -157.447, -90.0709, 52.3098
6.91969, 17, -30.039, -7.34366, 27.987, -157.426, -90.0459, 52.2839
6.92776, 17, -30.0267, -7.38348, 28.0198, -157.406, -90.0209, 52.2574
6.93566, 17, -30.0143, -7.42341, 28.0526, -157.385, -89.9962, 52.2307
6.94373, 17, -30.002, -7.46344, 28.0858, -157.364, -89.9716, 52.2042
6.95166, 17, -29.9896, -7.50355, 28.1189, -157.342, -89.947, 52.1779
6.95968, 17, -29.9772, -7.54379, 28.1521, -157.321, -89.9218, 52.1516
6.97105, 17, -29.965, -7.58417, 28.1853, -157.3, -89.8961, 52.1252
6.97517, 17, -29.9528, -7.62464, 28.2189, -157.279, -89.8706, 52.0984
6.98375, 17, -29.9407, -7.66524, 28.2523, -157.258, -89.8453, 52.071
6.99182, 17, -29.9286, -7.70598, 28.2859, -157.236, -89.8201, 52.0437
6.99976, 17, -29.9166, -7.74697, 28.3197, -157.214, -89.7946, 52.0166
7.00776, 17, -29.9045, -7.78807, 28.3534, -157.192, -89.7684, 51.9894
7.01585, 17, -29.8925, -7.82927, 28.3872, -157.171, -89.7419, 51.9622
7.02367, 17, -29.8807, -7.87061, 28.4212, -157.149, -89.7159, 51.9349
7.03168, 18, -29.8689, -7.91216, 28.4552, -157.127, -89.69, 51.907
7.03976, 18, -29.8571, -7.95377, 28.4892, -157.106, -89.6641, 51.8786
7.04776, 18, -29.8454, -7.99552, 28.5234, -157.083, -89.6379, 51.8503
7.05588, 18, -29.8336, -8.03744, 28.5577, -157.061, -89.611, 51.8222
7.06467, 18, -29.8218, -8.07937, 28.5921, -157.038, -89.5843, 51.7943
7.07194, 18, -29.8102, -8.12148, 28.6266, -157.016, -89.5578, 51.7663
7.07869, 18, -29.8044, -8.14262, 28.644, -157.005, -89.5445, 51.7522
7.08812, 18, -29.7869, -8.20598, 28.6959, -156.972, -89.5046, 51.7089
7.09465, 18, -29.7812, -8.22712, 28.7133, -156.96, -89.491, 51.6942
7.10414, 18, -29.7639, -8.29093, 28.7658, -156.926, -89.4495, 51.6506
7.11082, 18, -29.7582, -8.31222, 28.7832, -156.915, -89.4358, 51.6363
7.12022, 18, -29.7409, -8.37619, 28.8357, -156.88, -89.395, 51.5932
7.12822, 18, -29.7296, -8.41908, 28.871, -156.858, -89.3679, 51.5645
7.1363, 18, -29.7183, -8.46204, 28.9062, -156.835, -89.3402, 51.5351
7.14423, 18, -29.7127, -8.48359, 28.9239, -156.824, -89.3262, 51.5054
7.15165, 18, -29.7013, -8.52687, 28.9593, -156.801, -89.2981, 51.4904
7.1597, 18, -29.6901, -8.57029, 28.9949, -156.777, -89.2703, 51.461
7.16761, 19, -29.6789, -8.61377, 29.0303, -156.754, -89.2427, 51.4318
7.17566, 19, -29.6676, -8.65749, 29.0659, -156.73, -89.2149, 51.4026
7.18365, 19, -29.6563, -8.70137, 29.1017, -156.707, -89.1862, 51.3732
7.19166, 19, -29.6453, -8.74532, 29.1374, -156.685, -89.1575, 51.3432
7.19969, 19, -29.6342, -8.78939, 29.1732, -156.661, -89.129, 51.313
7.20965, 19, -29.6177, -8.85573, 29.2273, -156.625, -89.0868, 51.2682
7.2157, 19, -29.6123, -8.87789, 29.2453, -156.613, -89.0727, 51.2534
7.22375, 19, -29.6014, -8.92224, 29.2814, -156.59, -89.0439, 51.2235
7.23166, 19, -29.5905, -8.96667, 29.3178, -156.566, -89.0148, 51.1935
7.23965, 19, -29.5797, -9.01127, 29.3541, -156.542, -88.9861, 51.1628
7.2477, 19, -29.569, -9.05592, 29.3905, -156.518, -88.9575, 51.1317
7.2558, 19, -29.5583, -9.10069, 29.4272, -156.494, -88.9288, 51.1007
7.26276, 19, -29.5477, -9.14559, 29.4638, -156.469, -88.8994, 51.0699
7.27172, 19, -29.5371, -9.19063, 29.5004, -156.445, -88.8697, 51.0391
7.2807, 19, -29.5266, -9.23589, 29.5373, -156.421, -88.8404, 51.008
7.28764, 19, -29.5161, -9.28129, 29.5743, -156.397, -88.8113, 50.9763
7.29574, 19, -29.5055, -9.32673, 29.6113, -156.373, -88.7822, 50.9444
7.30387, 20, -29.495, -9.37244, 29.6484, -156.348, -88.7524, 50.9129
7.31265, 20, -29.4846, -9.41831, 29.6855, -156.323, -88.7223, 50.8815
7.31965, 20, -29.4741, -9.46422, 29.7227, -156.298, -88.6925, 50.8501
7.32764, 20, -29.4637, -9.51031, 29.76, -156.273, -88.6629, 50.8183
7.33564, 20, -29.4535, -9.55645, 29.7974, -156.249, -88.633, 50.7861
7.34371, 20, -29.4432, -9.60274, 29.8348, -156.224, -88.6026, 50.7535
7.35164, 20, -29.4329, -9.64921, 29.8724, -156.198, -88.5719, 50.7214
7.3597, 20, -29.4227, -9.69565, 29.9101, -156.173, -88.5416, 50.6895
7.36766, 20, -29.4127, -9.7422, 29.9478, -156.148, -88.5116, 50.6575
7.37582, 20, -29.4026, -9.7889, 29.9857, -156.123, -88.4813, 50.6252
7.38448, 20, -29.3925, -9.83562, 30.0236, -156.098, -88.4502, 50.5921
7.39169, 20, -29.3826, -9.88253, 30.0616, -156.072, -88.4192, 50.5592
7.39966, 20, -29.3727, -9.92962, 30.0999, -156.046, -88.3885, 50.5267
7.4077, 20, -29.3627, -9.97679, 30.138, -156.02, -88.3578, 50.4943
7.41565, 20, -29.3527, -10.0241, 30.1762, -155.995, -88.3266, 50.462
7.42368, 20, -29.3429, -10.0715, 30.2146, -155.97, -88.2949, 50.4291
7.43173, 20, -29.333, -10.1192, 30.253, -155.944, -88.2635, 50.3956
7.43964, 20, -29.3232, -10.167, 30.2916, -155.917, -88.2324, 50.3624
7.44772, 21, -29.3133, -10.2149, 30.3303, -155.891, -88.2014, 50.3295
7.45577, 21, -29.3036, -10.2628, 30.3688, -155.865, -88.1697, 50.2965
7.46366, 21, -29.2939, -10.3109, 30.4075, -155.839, -88.1377, 50.2633
7.47304, 21, -29.2842, -10.3591, 30.4464, -155.814, -88.1061, 50.2297
7.48006, 21, -29.2744, -10.4074, 30.4852, -155.787, -88.0747, 50.1959
7.48802, 21, -29.2648, -10.4557, 30.5242, -155.76, -88.043, 50.1626
7.49558, 21, -29.2553, -10.5041, 30.5634, -155.734, -88.0105, 50.1295
7.5042, 21, -29.2459, -10.5527, 30.6025, -155.708, -87.9781, 50.0962
7.51122, 21, -29.2411, -10.6013, 30.6418, -155.682, -87.9462, 50.0625
7.51964, 21, -29.2269, -10.65, 30.6812, -155.655, -87.9143, 50.0283
7.5303, 21, -29.2176, -10.6989, 30.7206, -155.628, -87.8818, 49.9942
7.53459, 21, -29.213, -10.7234, 30.7404, -155.614, -87.8653, 49.9772
7.54368, 21, -29.1988, -10.797, 30.7999, -155.574, -87.8164, 49.9267
7.55263, 21, -29.1894, -10.8463, 30.8395, -155.547, -87.784, 49.8926
7.5598, 21, -29.1801, -10.8958, 30.8793, -155.52, -87.7515, 49.858
7.56996, 21, -29.1708, -10.9454, 30.9193, -155.493, -87.718, 49.8233
7.57664, 21, -29.1615, -10.9951, 30.9592, -155.465, -87.6849, 49.7891
7.58396, 22, -29.1523, -11.0449, 30.9993, -155.437, -87.6521, 49.7549
7.59068, 22, -29.1477, -11.0698, 31.0193, -155.424, -87.6358, 49.7378
7.59865, 22, -29.1386, -11.1198, 31.0594, -155.397, -87.6028, 49.7033
7.60815, 22, -29.125, -11.1947, 31.1198, -155.355, -87.5523, 49.6503
7.61713, 22, -29.116, -11.2449, 31.1601, -155.327, -87.5189, 49.6153
7.62275, 22, -29.1115, -11.27, 31.1803, -155.313, -87.5024, 49.598
7.63225, 22, -29.0983, -11.3454, 31.241, -155.272, -87.4521, 49.5459
7.64106, 22, -29.0939, -11.3706, 31.2613, -155.244, -87.4179, 49.5109
7.64839, 22, -29.0851, -11.421, 31.3224, -155.216, -87.3841, 49.4753
7.65567, 22, -29.0764, -11.4717, 31.3427, -155.202, -87.3673, 49.4574
7.66363, 22, -29.0677, -11.5225, 31.3834, -155.173, -87.334, 49.4222
7.67163, 22, -29.0591, -11.5733, 31.4244, -155.145, -87.3001, 49.3872
7.67967, 22, -29.0504, -11.6245, 31.4653, -155.117, -87.2657, 49.3522
7.68763, 22, -29.0416, -11.6757, 31.5062, -155.089, -87.2319, 49.3167
7.69566, 22, -29.0329, -11.727, 31.5474, -155.06, -87.1981, 49.2808
7.70366, 22, -29.0242, -11.7785, 31.5886, -155.031, -87.164, 49.2453
7.71166, 22, -29.0156, -11.83, 31.6299, -155.003, -87.129, 49.21
7.71962, 23, -29.0069, -11.8815, 31.6712, -154.975, -87.0945, 49.1748
7.72764, 23, -28.9983, -11.9331, 31.7125, -154.947, -87.0604, 49.139
7.73464, 23, -28.9897, -11.9847, 31.754, -154.918, -87.0262, 49.1028
7.74366, 23, -28.9813, -12.0365, 31.7956, -154.888, -86.9911, 49.0669
7.75166, 23, -28.9728, -12.0882, 31.8371, -154.859, -86.9563, 49.0316
7.75866, 23, -28.9644, -12.14, 31.8789, -154.831, -86.9219, 48.9962
7.76765, 23, -28.956, -12.1921, 31.9207, -154.802, -86.8873, 48.9604
7.77793, 23, -28.9477, -12.2442, 31.9625, -154.773, -86.8518, 48.9239
7.78362, 23, -28.9396, -12.2965, 32.0045, -154.743, -86.8163, 48.8875
7.79184, 23, -28.9314, -12.3489, 32.0465, -154.714, -86.7813, 48.8516
7.79969, 23, -28.9232, -12.4015, 32.0887, -154.685, -86.7463, 48.8158
7.80763, 23, -28.9152, -12.4542, 32.1309, -154.656, -86.7106, 48.7795
7.81565, 23, -28.9073, -12.507, 32.1731, -154.626, -86.6747, 48.7429
7.82366, 23, -28.8993, -12.5599, 32.2155, -154.596, -86.6394, 48.7063
7.83164, 23, -28.8911, -12.6129, 32.2579, -154.566, -86.6041, 48.6701
7.83966, 23, -28.883, -12.6658, 32.3005, -154.537, -86.5681, 48.634
7.84762, 23, -28.8749, -12.7189, 32.3431, -154.507, -86.5319, 48.5975
7.85562, 24, -28.8669, -12.772, 32.3857, -154.476, -86.4963, 48.5606
7.86369, 24, -28.8589, -12.825, 32.4285, -154.446, -86.461, 48.5234
7.87162, 24, -28.8509, -12.8783, 32.4713, -154.416, -86.4249, 48.4869
7.87963, 24, -28.8429, -12.9316, 32.514, -154.387, -86.3885, 48.4503
7.88769, 24, -28.835, -12.9852, 32.557, -154.356, -86.3526, 48.4136
7.89562, 24, -28.8272, -13.0388, 32.6, -154.326, -86.3168, 48.3762
7.90362, 24, -28.8193, -13.0926, 32.6432, -154.295, -86.2804, 48.3389
7.91169, 24, -28.8114, -13.1466, 32.6862, -154.265, -86.2435, 48.3021
7.91963, 24, -28.8035, -13.2007, 32.7295, -154.235, -86.2073, 48.2653
7.92764, 24, -28.7958, -13.2549, 32.7729, -154.204, -86.1715, 48.2286
7.93585, 24, -28.7881, -13.3092, 32.8162, -154.173, -86.1349, 48.1912
7.94382, 24, -28.7805, -13.3635, 32.8596, -154.142, -86.0979, 48.1537
7.95162, 24, -28.7729, -13.4178, 32.9032, -154.112, -86.0615, 48.1168
7.95975, 24, -28.7653, -13.4722, 32.9468, -154.082, -86.0252, 48.08
7.96766, 24, -28.7577, -13.5266, 32.9905, -154.05, -85.9882, 48.0431
7.97572, 24, -28.7502, -13.581, 33.0342, -154.019, -85.9509, 48.0058
7.98377, 24, -28.7426, -13.6355, 33.078, -153.988, -85.9142, 47.9683
7.99177, 25, -28.735, -13.6902, 33.1219, -153.957, -85.8778, 47.9316
7.99975, 25, -28.7273, -13.745, 33.1656, -153.926, -85.8407, 47.8951
8.00817, 25, -28.7197, -13.7999, 33.2096, -153.894, -85.8033, 47.8583
8.01521, 25, -28.7159, -13.855, 33.2536, -153.863, -85.7664, 47.821
8.02384, 25, -28.7048, -13.9102, 33.2976, -153.832, -85.7297, 47.7835
8.03261, 25, -28.6974, -13.9656, 33.3417, -153.801, -85.6921, 47.7465
8.03966, 25, -28.6899, -14.0211, 33.3858, -153.769, -85.6544, 47.7097
8.04768, 25, -28.6826, -14.0766, 33.4301, -153.737, -85.6173, 47.6728
8.05688, 25, -28.6753, -14.1322, 33.4744, -153.705, -85.5803, 47.6353
8.06478, 25, -28.668, -14.1878, 33.5187, -153.674, -85.5427, 47.5978
8.07187, 25, -28.6608, -14.2434, 33.5633, -153.642, -85.505, 47.5608
8.08099, 25, -28.6535, -14.299, 33.6078, -153.609, -85.4679, 47.524
8.08795, 25, -28.6462, -14.3547, 33.6524, -153.577, -85.4305, 47.4869
8.09608, 25, -28.639, -14.4103, 33.697, -153.546, -85.3925, 47.4493
8.10262, 25, -28.6354, -14.4382, 33.7193, -153.53, -85.3734, 47.4303
8.11214, 25, -28.6248, -14.5221, 33.7864, -153.481, -85.3172, 47.3742
8.12022, 25, -28.6177, -14.5782, 33.8311, -153.449, -85.2797, 47.3371
8.12927, 26, -28.6106, -14.6345, 33.8759, -153.416, -85.2415, 47.2999
8.1362, 26, -28.6036, -14.6909, 33.9208, -153.385, -85.2036, 47.2621
8.14436, 26, -28.5966, -14.7475, 33.9657, -153.352, -85.166, 47.2244
8.15161, 26, -28.5931, -14.7757, 33.9882, -153.336, -85.1471, 47.2059
8.15966, 26, -28.5861, -14.8323, 34.0331, -153.303, -85.1087, 47.1689
8.16763, 26, -28.5791, -14.8889, 34.0783, -153.27, -85.0702, 47.1317
8.17562, 26, -28.5719, -14.9454, 34.1234, -153.238, -85.0323, 47.0944
8.18374, 26, -28.5648, -15.002, 34.1686, -153.206, -84.9944, 47.0567
8.19161, 26, -28.5577, -15.0585, 34.2139, -153.172, -84.9558, 47.0194
8.19961, 26, -28.5507, -15.1151, 34.2593, -153.139, -84.9173, 46.9827
8.20983, 26, -28.5401, -15.2, 34.3275, -153.09, -84.8602, 46.9273
8.21562, 26, -28.5366, -15.2284, 34.3502, -153.074, -84.8409, 46.9087
8.22366, 26, -28.5295, -15.2852, 34.3956, -153.04, -84.8019, 46.8712
8.23166, 26, -28.5227, -15.3423, 34.4412, -153.007, -84.7634, 46.8343
8.23961, 26, -28.5158, -15.3996, 34.4866, -152.974, -84.7253, 46.7978
8.24761, 26, -28.509, -15.4569, 34.5321, -152.941, -84.6869, 46.7613
8.25569, 26, -28.5021, -15.5143, 34.5778, -152.908, -84.6479, 46.7242
8.26365, 27, -28.4952, -15.5719, 34.6234, -152.874, -84.6094, 46.6866
8.2716, 27, -28.4883, -15.6294, 34.6692, -152.84, -84.5711, 46.6495
8.28162, 27, -28.4782, -15.7157, 34.7378, -152.79, -84.5124, 46.5943
8.28761, 27, -28.4748, -15.7445, 34.7608, -152.773, -84.4928, 46.5759
8.29661, 27, -28.4682, -15.8019, 34.8068, -152.739, -84.4543, 46.5387
8.30369, 27, -28.4615, -15.8593, 34.8527, -152.706, -84.4159, 46.5012
8.31166, 27, -28.4548, -15.9168, 34.8988, -152.672, -84.3766, 46.4641
8.31961, 27, -28.4481, -15.9745, 34.9448, -152.639, -84.3373, 46.4275
8.32761, 27, -28.4415, -16.0322, 34.9909, -152.604, -84.2988, 46.3907
8.33569, 27, -28.4348, -16.0901, 35.037, -152.57, -84.26, 46.3535
8.34366, 27, -28.4281, -16.1481, 35.0831, -152.536, -84.2204, 46.3159
8.35178, 27, -28.4213, -16.2063, 35.1292, -152.503, -84.1812, 46.2789
8.36061, 27, -28.4145, -16.2646, 35.1753, -152.468, -84.1426, 46.2424
8.3676, 27, -28.4077, -16.323, 35.2215, -152.433, -84.1036, 46.2058
8.37561, 27, -28.4009, -16.3813, 35.2678, -152.4, -84.0639, 46.1688
8.38372, 27, -28.3943, -16.4397, 35.3142, -152.366, -84.0247, 46.1315
8.39162, 27, -28.3877, -16.498, 35.3605, -152.331, -83.9858, 46.095
8.3998, 28, -28.381, -16.5562, 35.4071, -152.296, -83.9463, 46.0589
8.40767, 28, -28.3743, -16.6144, 35.4537, -152.262, -83.9065, 46.0227
8.41562, 28, -28.3676, -16.6727, 35.5002, -152.228, -83.8675, 45.9863
8.42373, 28, -28.361, -16.731, 35.5469, -152.193, -83.8286, 45.9494
8.43164, 28, -28.3544, -16.7894, 35.5935, -152.158, -83.789, 45.9131
8.43967, 28, -28.3478, -16.848, 35.6403, -152.123, -83.7495, 45.8771
8.4476, 28, -28.3411, -16.9067, 35.6869, -152.089, -83.7106, 45.8414
8.4556, 28, -28.3344, -16.9655, 35.7336, -152.054, -83.6713, 45.8055
8.46384, 28, -28.3278, -17.0243, 35.7803, -152.019, -83.6312, 45.7692
8.47181, 28, -28.3213, -17.0833, 35.8269, -151.984, -83.5918, 45.7332
8.47966, 28, -28.3149, -17.1422, 35.8737, -151.949, -83.5528, 45.6978
8.48785, 28, -28.3084, -17.2012, 35.9205, -151.914, -83.5132, 45.6625
8.4957, 28, -28.302, -17.2601, 35.9675, -151.878, -83.4732, 45.6271
8.50377, 28, -28.2955, -17.3189, 36.0144, -151.843, -83.4339, 45.5913
8.51215, 28, -28.2891, -17.3777, 36.0614, -151.808, -83.3946, 45.5556
8.5192, 28, -28.2859, -17.4072, 36.1085, -151.773, -83.3544, 45.5204
8.5282, 28, -28.2762, -17.4955, 36.1555, -151.737, -83.3144, 45.4855
8.53568, 28, -28.2696, -17.5546, 36.2026, -151.701, -83.275, 45.4505
8.54369, 29, -28.263, -17.6137, 36.2498, -151.666, -83.2354, 45.4151
8.55249, 29, -28.2563, -17.6729, 36.2969, -151.631, -83.195, 45.3797
8.55978, 29, -28.2497, -17.7323, 36.344, -151.595, -83.1553, 45.3449
8.56781, 29, -28.2431, -17.7918, 36.3911, -151.559, -83.1157, 45.3105
8.57667, 29, -28.2366, -17.8512, 36.4383, -151.524, -83.0755, 45.276
8.584, 29, -28.2301, -17.9106, 36.4854, -151.488, -83.0352, 45.2414
8.59197, 29, -28.2235, -17.9701, 36.5326, -151.452, -82.9956, 45.2063
8.59865, 29, -28.2202, -17.9998, 36.5562, -151.434, -82.9759, 45.1889
8.60816, 29, -28.2105, -18.0888, 36.6273, -151.381, -82.9157, 45.1376
8.61651, 29, -28.204, -18.1481, 36.6746, -151.345, -82.8756, 45.1038
8.62955, 29, -28.1944, -18.2372, 36.7458, -151.29, -82.8163, 45.0526
8.63226, 29, -28.1911, -18.2669, 36.7695, -151.272, -82.7962, 45.0354
8.64019, 29, -28.1846, -18.3264, 36.8169, -151.237, -82.7556, 45.0013
8.64894, 29, -28.1813, -18.3562, 36.8406, -151.219, -82.7158, 44.9679
8.65619, 29, -28.1748, -18.4159, 36.8881, -151.182, -82.6962, 44.9347
8.66365, 29, -28.1684, -18.4756, 36.9356, -151.145, -82.6564, 44.9181
8.67161, 29, -28.162, -18.5355, 36.9831, -151.109, -82.616, 44.8849
8.67964, 30, -28.1556, -18.5952, 37.0305, -151.073, -82.5761, 44.8513
8.68761, 30, -28.1491, -18.6552, 37.078, -151.037, -82.5365, 44.8176
8.69559, 30, -28.1427, -18.715, 37.1255, -151, -82.4962, 44.7847
8.7037, 30, -28.1363, -18.7747, 37.1729, -150.963, -82.4556, 44.752
8.71161, 30, -28.1298, -18.8344, 37.2205, -150.927, -82.4158, 44.7196
8.71861, 30, -28.1235, -18.8942, 37.2681, -150.89, -82.3762, 44.6868
8.72759, 30, -28.117, -18.9539, 37.3158, -150.853, -82.3357, 44.6538
8.7356, 30, -28.1105, -19.0137, 37.3634, -150.817, -82.2953, 44.6212
8.74371, 30, -28.1039, -19.0736, 37.411, -150.781, -82.2556, 44.5894
8.75159, 30, -28.0973, -19.1336, 37.4588, -150.744, -82.2154, 44.5577
8.75975, 30, -28.0907, -19.1937, 37.5063, -150.706, -82.1747, 44.526
8.76844, 30, -28.0841, -19.2538, 37.554, -150.67, -82.1346, 44.494
8.7746, 30, -28.0776, -19.3139, 37.6017, -150.633, -82.0949, 44.462
8.78367, 30, -28.071, -19.374, 37.6494, -150.596, -82.0547, 44.4304
8.7926, 30, -28.0643, -19.434, 37.6971, -150.559, -82.0144, 44.3994
8.79963, 30, -28.0577, -19.494, 37.7448, -150.522, -81.9747, 44.3685
8.80863, 30, -28.0511, -19.5539, 37.7925, -150.485, -81.9348, 44.3375
8.81559, 31, -28.0446, -19.6138, 37.8401, -150.448, -81.8942, 44.3063
8.82366, 31, -28.038, -19.6736, 37.8879, -150.411, -81.854, 44.2751
8.83412, 31, -28.0281, -19.7635, 37.9595, -150.356, -81.7945, 44.2294
8.83861, 31, -28.0247, -19.7935, 37.9834, -150.337, -81.7744, 44.2144
8.84758, 31, -28.0181, -19.8535, 38.0312, -150.299, -81.7338, 44.1845
8.85559, 31, -28.0114, -19.9136, 38.079, -150.262, -81.6939, 44.1546
8.86365, 31, -28.0049, -19.9738, 38.1267, -150.225, -81.6542, 44.1245
8.87158, 31, -27.9984, -20.0341, 38.1744, -150.187, -81.6137, 44.0941
8.87964, 31, -27.9918, -20.0942, 38.2222, -150.149, -81.5732, 44.0641
8.88772, 31, -27.9851, -20.1544, 38.2699, -150.112, -81.5334, 44.0347
8.8956, 31, -27.9785, -20.2145, 38.3178, -150.075, -81.4936, 44.0057
8.9037, 31, -27.9719, -20.2745, 38.3654, -150.037, -81.4529, 43.9768
8.91158, 31, -27.9653, -20.3345, 38.4132, -149.999, -81.4128, 43.9477
8.91959, 31, -27.9586, -20.3944, 38.4609, -149.961, -81.373, 43.9185
8.92764, 31, -27.9518, -20.4544, 38.5086, -149.924, -81.3327, 43.8895
8.9356, 31, -27.9449, -20.5145, 38.5563, -149.886, -81.2922, 43.8613
8.94367, 31, -27.938, -20.5747, 38.6041, -149.848, -81.2522, 43.8333
8.95165, 32, -27.9312, -20.6349, 38.6518, -149.811, -81.2127, 43.8057
8.95959, 32, -27.9244, -20.6952, 38.6994, -149.773, -81.1723, 43.7782
8.9677, 32, -27.9175, -20.7555, 38.747, -149.735, -81.1321, 43.7505
8.97563, 32, -27.9106, -20.8158, 38.7947, -149.697, -81.0926, 43.7227
8.98379, 32, -27.9037, -20.876, 38.8423, -149.66, -81.0527, 43.6954
8.99168, 32, -27.8968, -20.9361, 38.89, -149.622, -81.0122, 43.6688
8.99974, 32, -27.8899, -20.9962, 38.9378, -149.583, -80.9722, 43.6424
9.0077, 32, -27.883, -21.0562, 38.9855, -149.545, -80.9327, 43.6164
9.01569, 32, -27.876, -21.116, 39.0331, -149.508, -80.8927, 43.5902
9.02382, 32, -27.869, -21.1759, 39.0808, -149.47, -80.8524, 43.5641
9.03185, 32, -27.8619, -21.2359, 39.1284, -149.431, -80.8127, 43.538
9.04014, 32, -27.8549, -21.2959, 39.1759, -149.393, -80.7731, 43.5124
9.04658, 32, -27.8514, -21.3259, 39.1997, -149.374, -80.753, 43.4998
9.05573, 32, -27.841, -21.4161, 39.2711, -149.317, -80.6926, 43.4627
9.0638, 32, -27.834, -21.4763, 39.3187, -149.278, -80.6532, 43.4384
9.07186, 32, -27.8269, -21.5365, 39.3662, -149.24, -80.6136, 43.4142
9.07984, 32, -27.8199, -21.5965, 39.4138, -149.202, -80.5733, 43.39
9.0879, 33, -27.8128, -21.6566, 39.4613, -149.164, -80.5336, 43.3656
9.09629, 33, -27.8057, -21.7164, 39.5088, -149.125, -80.4942, 43.3414
9.10412, 33, -27.7985, -21.7762, 39.5564, -149.087, -80.4542, 43.3179
9.11213, 33, -27.7912, -21.8359, 39.604, -149.049, -80.4139, 43.295
9.12015, 33, -27.7837, -21.8956, 39.6515, -149.01, -80.3744, 43.2724
9.1282, 33, -27.7763, -21.9553, 39.6989, -148.972, -80.3353, 43.25
9.13617, 33, -27.769, -22.0151, 39.7464, -148.934, -80.2952, 43.2276
9.14442, 33, -27.7616, -22.0749, 39.7938, -148.895, -80.2555, 43.2052
9.15243, 33, -27.7542, -22.1348, 39.841, -148.857, -80.2163, 43.1828
9.16107, 33, -27.7505, -22.1948, 39.8884, -148.818, -80.1768, 43.1606
9.16757, 33, -27.7431, -22.2248, 39.9121, -148.799, -80.1568, 43.1497
9.17638, 33, -27.7358, -22.2847, 39.9594, -148.761, -80.1168, 43.1283
9.18363, 33, -27.7284, -22.3446, 40.0066, -148.722, -80.0777, 43.1073
9.19157, 33, -27.721, -22.4044, 40.0539, -148.683, -80.0385, 43.0869
9.19962, 33, -27.7135, -22.4641, 40.1012, -148.645, -79.9986, 43.0666
9.20757, 33, -27.7059, -22.5236, 40.1484, -148.607, -79.9591, 43.0466
9.21557, 33, -27.6984, -22.5831, 40.1957, -148.567, -79.9201, 43.0267
9.22365, 34, -27.691, -22.6424, 40.243, -148.529, -79.8805, 43.0067
9.2316, 34, -27.6835, -22.7019, 40.2902, -148.49, -79.8404, 42.9866
9.23959, 34, -27.6759, -22.7613, 40.3373, -148.451, -79.801, 42.9669
9.24913, 34, -27.6645, -22.8506, 40.4078, -148.393, -79.7421, 42.9385
9.25557, 34, -27.6607, -22.8804, 40.4313, -148.374, -79.7221, 42.9293
9.26362, 34, -27.6531, -22.94, 40.4782, -148.335, -79.6823, 42.9111
9.27238, 34, -27.6454, -22.9996, 40.5251, -148.296, -79.6431, 42.8935
9.27858, 34, -27.6376, -23.0591, 40.572, -148.257, -79.6038, 42.8762
9.28758, 34, -27.6296, -23.1186, 40.6189, -148.219, -79.5637, 42.8591
9.29729, 34, -27.6216, -23.1779, 40.6657, -148.18, -79.5241, 42.8422
9.3045, 34, -27.6136, -23.2371, 40.7125, -148.14, -79.4853, 42.8253
9.31159, 34, -27.6056, -23.2962, 40.7595, -148.102, -79.4459, 42.8085
9.32038, 34, -27.5975, -23.3553, 40.8062, -148.063, -79.4061, 42.7921
9.32755, 34, -27.5894, -23.4142, 40.853, -148.025, -79.3669, 42.776
9.33557, 34, -27.5814, -23.4733, 40.8998, -147.985, -79.3279, 42.7607
9.34446, 34, -27.5733, -23.5323, 40.9465, -147.946, -79.2884, 42.7458
9.35157, 34, -27.5652, -23.5914, 40.9932, -147.908, -79.2486, 42.7314
9.3596, 35, -27.5569, -23.6505, 41.0396, -147.869, -79.2097, 42.7174
9.36833, 35, -27.5487, -23.7095, 41.0862, -147.829, -79.1709, 42.7039
9.37558, 35, -27.5404, -23.7685, 41.1326, -147.791, -79.1313, 42.6906
9.38368, 35, -27.5322, -23.8274, 41.1789, -147.752, -79.092, 42.6778
9.39345, 35, -27.5239, -23.8862, 41.2253, -147.713, -79.0535, 42.6651
9.39957, 35, -27.5156, -23.9449, 41.2717, -147.674, -79.0145, 42.6526
9.40763, 35, -27.5072, -24.0034, 41.3181, -147.635, -78.9747, 42.6402
9.41558, 35, -27.4989, -24.0618, 41.3643, -147.596, -78.9356, 42.6281
9.42363, 35, -27.4904, -24.1202, 41.4106, -147.556, -78.8971, 42.6162
9.43173, 35, -27.4818, -24.1785, 41.4569, -147.518, -78.8581, 42.6048
9.43959, 35, -27.4729, -24.2369, 41.503, -147.479, -78.8187, 42.5937
9.44773, 35, -27.4641, -24.2953, 41.5492, -147.44, -78.78, 42.5832
9.45565, 35, -27.4553, -24.3538, 41.5953, -147.4, -78.7415, 42.573
9.46361, 35, -27.4464, -24.4122, 41.6413, -147.362, -78.7022, 42.5633
9.47179, 35, -27.4375, -24.4706, 41.6871, -147.323, -78.663, 42.5541
9.47969, 35, -27.4285, -24.5289, 41.7329, -147.283, -78.6245, 42.5454
9.48787, 35, -27.4195, -24.5872, 41.7787, -147.244, -78.5862, 42.5371
9.49594, 36, -27.4105, -24.6453, 41.8243, -147.206, -78.5471, 42.5291
9.5037, 36, -27.4014, -24.7033, 41.87, -147.167, -78.5085, 42.5216
9.51206, 36, -27.3921, -24.7611, 41.9156, -147.127, -78.4703, 42.5145
9.51968, 36, -27.3829, -24.8188, 41.9613, -147.088, -78.432, 42.5078
9.52775, 36, -27.3738, -24.8766, 42.0068, -147.05, -78.393, 42.5015
9.53638, 36, -27.3645, -24.9343, 42.0522, -147.011, -78.3545, 42.4953
9.54364, 36, -27.3552, -24.9921, 42.0977, -146.971, -78.3166, 42.4895
9.55166, 36, -27.3459, -25.0498, 42.143, -146.933, -78.2783, 42.484
9.5605, 36, -27.3366, -25.1076, 42.1882, -146.894, -78.2395, 42.4789
9.56807, 36, -27.3271, -25.1653, 42.2334, -146.854, -78.2014, 42.4742
9.57577, 36, -27.3175, -25.223, 42.2786, -146.815, -78.1635, 42.4698
9.58454, 36, -27.3078, -25.2805, 42.3237, -146.777, -78.125, 42.4658
9.59198, 36, -27.2982, -25.338, 42.3686, -146.738, -78.0864, 42.4622
9.59994, 36, -27.2884, -25.3953, 42.4136, -146.698, -78.0484, 42.4589
9.60661, 36, -27.2835, -25.4239, 42.4361, -146.678, -78.0295, 42.4574
9.61638, 36, -27.2686, -25.5094, 42.5032, -146.621, -77.9723, 42.4537
9.62497, 36, -27.2587, -25.5664, 42.548, -146.581, -77.9339, 42.4518
9.6321, 36, -27.2487, -25.6233, 42.5927, -146.542, -77.8962, 42.4503
9.6403, 37, -27.2387, -25.6801, 42.6373, -146.504, -77.8585, 42.4492
9.64899, 37, -27.2337, -25.7085, 42.6818, -146.465, -77.82, 42.4485
9.65611, 37, -27.2237, -25.7654, 42.704, -146.445, -77.8008, 42.4481
9.66357, 37, -27.2137, -25.8223, 42.7485, -146.406, -77.763, 42.448
9.67155, 37, -27.2036, -25.8791, 42.7928, -146.367, -77.7256, 42.4478
9.67858, 37, -27.1934, -25.9358, 42.837, -146.329, -77.6877, 42.4478
9.68872, 37, -27.1779, -26.0207, 42.9033, -146.27, -77.6307, 42.4478
9.69555, 37, -27.1727, -26.0489, 42.9254, -146.251, -77.612, 42.4479
9.7036, 37, -27.1621, -26.1052, 42.9695, -146.212, -77.5746, 42.4481
9.7117, 37, -27.1515, -26.1613, 43.0135, -146.174, -77.5366, 42.4484
9.71955, 37, -27.1409, -26.2174, 43.0574, -146.135, -77.4984, 42.4491
9.72761, 37, -27.1303, -26.2733, 43.1013, -146.096, -77.4611, 42.4503
9.73556, 37, -27.1195, -26.3291, 43.145, -146.058, -77.4239, 42.4529
9.74356, 37, -27.1087, -26.3849, 43.1886, -146.019, -77.386, 42.4565
9.75161, 37, -27.0979, -26.4408, 43.2322, -145.98, -77.3482, 42.4609
9.75956, 37, -27.087, -26.4966, 43.2758, -145.941, -77.3111, 42.4661
9.76755, 37, -27.0759, -26.5524, 43.3192, -145.903, -77.2739, 42.472
9.77564, 38, -27.065, -26.6081, 43.3625, -145.864, -77.2359, 42.4785
9.78356, 38, -27.0541, -26.6637, 43.4058, -145.825, -77.1983, 42.4857
9.79257, 38, -27.0429, -26.7192, 43.449, -145.787, -77.1613, 42.4934
9.79962, 38, -27.0317, -26.7745, 43.492, -145.749, -77.1242, 42.5016
9.8077, 38, -27.0204, -26.8296, 43.5351, -145.71, -77.0864, 42.5103
9.81664, 38, -27.0089, -26.8846, 43.578, -145.671, -77.049, 42.5196
9.82355, 38, -26.9973, -26.9393, 43.6209, -145.634, -77.0121, 42.5292
9.83233, 38, -26.9857, -26.994, 43.6637, -145.595, -76.975, 42.5395
9.83955, 38, -26.974, -27.0487, 43.7062, -145.557, -76.9373, 42.5503
9.84757, 38, -26.9622, -27.1033, 43.7489, -145.518, -76.9001, 42.5617
9.8566, 38, -26.9503, -27.1578, 43.7913, -145.48, -76.8636, 42.5738
9.8637, 38, -26.9384, -27.2124, 43.8335, -145.442, -76.8268, 42.5863
9.87155, 38, -26.9264, -27.267, 43.8758, -145.404, -76.7895, 42.5995
9.88045, 38, -26.9143, -27.3215, 43.9179, -145.366, -76.7526, 42.6134
9.88755, 38, -26.9023, -27.3758, 43.9599, -145.329, -76.7161, 42.6281
9.89556, 38, -26.8902, -27.4301, 44.0019, -145.29, -76.6793, 42.6432
9.9049, 38, -26.878, -27.4841, 44.0436, -145.252, -76.6418, 42.6589
9.91155, 39, -26.8656, -27.5379, 44.0855, -145.214, -76.605, 42.6749
9.91963, 39, -26.8531, -27.5916, 44.1273, -145.177, -76.5688, 42.6911
9.92755, 39, -26.8403, -27.6451, 44.1687, -145.139, -76.5321, 42.7077
9.93565, 39, -26.8277, -27.6985, 44.2103, -145.1, -76.4948, 42.7249
9.94357, 39, -26.8148, -27.7518, 44.2518, -145.063, -76.4583, 42.7425
9.95162, 39, -26.8019, -27.805, 44.293, -145.025, -76.422, 42.7607
9.95955, 39, -26.789, -27.8583, 44.3342, -144.987, -76.3853, 42.7796
9.96762, 39, -26.776, -27.9115, 44.3753, -144.949, -76.3481, 42.7995
9.9756, 39, -26.7629, -27.9648, 44.4162, -144.912, -76.3115, 42.8199
9.98384, 39, -26.7499, -28.0178, 44.457, -144.875, -76.2753, 42.8407
9.99164, 39, -26.7368, -28.0708, 44.4976, -144.837, -76.2387, 42.8618
9.99972, 39, -26.7236, -28.1238, 44.5382, -144.799, -76.2016, 42.8832
10.0077, 39, -26.7102, -28.1765, 44.5787, -144.763, -76.1651, 42.905
10.0157, 39, -26.6967, -28.229, 44.6191, -144.725, -76.1289, 42.9275
10.0237, 39, -26.6829, -28.2812, 44.6595, -144.687, -76.0922, 42.9506
10.0317, 39, -26.6692, -28.3333, 44.6996, -144.65, -76.0552, 42.9744
10.0396, 39, -26.6554, -28.3852, 44.7398, -144.614, -76.0191, 42.9993
10.0476, 40, -26.6414, -28.4369, 44.7799, -144.577, -75.9833, 43.0246
10.0558, 40, -26.6274, -28.4886, 44.8197, -144.539, -75.947, 43.0501
10.0639, 40, -26.6133, -28.5403, 44.8595, -144.503, -75.9102, 43.0759
10.0717, 40, -26.5991, -28.5918, 44.8991, -144.466, -75.8743, 43.1022
10.0798, 40, -26.5849, -28.6433, 44.9386, -144.43, -75.8384, 43.1291
10.0879, 40, -26.5706, -28.6948, 44.9781, -144.393, -75.8022, 43.1568
10.0959, 40, -26.5562, -28.7462, 45.0172, -144.356, -75.7655, 43.1854
10.1039, 40, -26.5416, -28.7974, 45.0563, -144.32, -75.7296, 43.2145
10.1124, 40, -26.5268, -28.8484, 45.0953, -144.284, -75.694, 43.2437
10.1201, 40, -26.5119, -28.8993, 45.1341, -144.247, -75.6581, 43.2735
10.1283, 40, -26.4969, -28.95, 45.1727, -144.211, -75.6217, 43.3039
10.137, 40, -26.4818, -29.0004, 45.2114, -144.175, -75.5859, 43.3352
10.1441, 40, -26.4665, -29.0507, 45.2499, -144.138, -75.5504, 43.3674
10.1522, 40, -26.4589, -29.1008, 45.2883, -144.102, -75.5145, 43.4002
10.1604, 40, -26.4434, -29.1258, 45.3074, -144.066, -75.4781, 43.433
10.1675, 40, -26.4281, -29.1757, 45.3455, -144.048, -75.4602, 43.4496
10.1755, 40, -26.4125, -29.2255, 45.3834, -144.013, -75.4247, 43.4832
10.1836, 41, -26.397, -29.2753, 45.4214, -143.977, -75.3894, 43.5177
10.1916, 41, -26.3812, -29.325, 45.4591, -143.941, -75.3535, 43.5532
10.2011, 41, -26.3571, -29.3993, 45.5153, -143.888, -75.3, 43.607
10.2075, 41, -26.349, -29.4241, 45.534, -143.871, -75.2824, 43.625
10.2156, 41, -26.3329, -29.4735, 45.5713, -143.835, -75.2472, 43.6616
10.2235, 41, -26.3166, -29.5226, 45.6084, -143.799, -75.2115, 43.6991
10.2316, 41, -26.3003, -29.5716, 45.6455, -143.765, -75.1756, 43.7376
10.2396, 41, -26.2838, -29.6204, 45.6822, -143.73, -75.1405, 43.7765
10.2475, 41, -26.2673, -29.669, 45.7189, -143.695, -75.1057, 43.8156
10.2582, 41, -26.2424, -29.7415, 45.7738, -143.642, -75.0525, 43.8755
10.2635, 41, -26.234, -29.7656, 45.7919, -143.625, -75.0347, 43.896
10.2716, 41, -26.217, -29.8137, 45.8281, -143.591, -74.9998, 43.9377
10.2796, 41, -26.1999, -29.8615, 45.8642, -143.556, -74.965, 43.9795
10.2875, 41, -26.1828, -29.9092, 45.9002, -143.521, -74.9299, 44.0218
10.2966, 41, -26.1655, -29.9569, 45.936, -143.488, -74.8942, 44.0651
10.3036, 41, -26.1481, -30.0045, 45.9717, -143.454, -74.8592, 44.1097
10.3116, 41, -26.1305, -30.0519, 46.0072, -143.42, -74.8245, 44.1544
10.3205, 42, -26.1129, -30.099, 46.0424, -143.385, -74.7897, 44.1996
10.3275, 42, -26.0952, -30.1461, 46.0777, -143.352, -74.7543, 44.2455
10.3355, 42, -26.0774, -30.1931, 46.1127, -143.319, -74.7194, 44.2927
10.3436, 42, -26.0593, -30.2398, 46.1474, -143.285, -74.6848, 44.3401
10.3516, 42, -26.0411, -30.2863, 46.1822, -143.251, -74.6501, 44.388
10.3596, 42, -26.0229, -30.3326, 46.2168, -143.218, -74.6146, 44.4368
10.3675, 42, -26.0045, -30.3788, 46.2511, -143.185, -74.5795, 44.4868
10.3755, 42, -25.9859, -30.4247, 46.2854, -143.152, -74.5451, 44.5368
10.3836, 42, -25.9672, -30.4704, 46.3195, -143.119, -74.5106, 44.587
10.3915, 42, -25.9484, -30.5159, 46.3532, -143.086, -74.4755, 44.6386
10.3997, 42, -25.9295, -30.5613, 46.3869, -143.054, -74.4405, 44.6911
10.4077, 42, -25.9103, -30.6064, 46.4206, -143.022, -74.406, 44.7434
10.4155, 42, -25.8909, -30.6515, 46.4538, -142.99, -74.3717, 44.7967
10.4235, 42, -25.8715, -30.6963, 46.4869, -142.957, -74.3368, 44.8515
10.4316, 42, -25.852, -30.7411, 46.5199, -142.925, -74.3018, 44.9061
10.4395, 42, -25.8323, -30.7857, 46.5527, -142.894, -74.2675, 44.9615
10.4476, 42, -25.8125, -30.8299, 46.5852, -142.863, -74.2335, 45.0182
10.4558, 43, -25.7926, -30.8741, 46.6177, -142.831, -74.1991, 45.0755
10.4635, 43, -25.7727, -30.9181, 46.65, -142.8, -74.1643, 45.133
10.4717, 43, -25.7525, -30.9619, 46.682, -142.769, -74.1302, 45.1916
10.4796, 43, -25.732, -31.0055, 46.7137, -142.739, -74.0963, 45.2512
10.4876, 43, -25.7114, -31.0488, 46.7455, -142.708, -74.0621, 45.3107
10.4961, 43, -25.6908, -31.092, 46.777, -142.677, -74.0273, 45.3713
10.5031, 43, -25.6698, -31.1349, 46.8082, -142.646, -73.993, 45.4328
10.5116, 43, -25.6488, -31.1776, 46.8393, -142.617, -73.9593, 45.4943
10.5201, 43, -25.6277, -31.22, 46.8703, -142.587, -73.9255, 45.557
10.5276, 43, -25.6066, -31.2623, 46.901, -142.557, -73.8911, 45.6206
10.5357, 43, -25.5852, -31.3043, 46.9316, -142.527, -73.8569, 45.684
10.5444, 43, -25.5635, -31.3461, 46.962, -142.497, -73.8232, 45.7486
10.552, 43, -25.5418, -31.3878, 46.9921, -142.468, -73.7896, 45.814
10.5596, 43, -25.5199, -31.4291, 47.0219, -142.44, -73.7553, 45.8793
10.5685, 43, -25.4977, -31.4704, 47.0516, -142.411, -73.7209, 45.9461
10.5757, 43, -25.4753, -31.5115, 47.0811, -142.382, -73.6873, 46.0133
10.5846, 43, -25.4529, -31.5523, 47.1103, -142.353, -73.6539, 46.0809
10.5919, 43, -25.4302, -31.5928, 47.1392, -142.325, -73.6203, 46.1503
10.5986, 44, -25.4187, -31.6131, 47.1536, -142.312, -73.6032, 46.1851
10.6087, 44, -25.3843, -31.6735, 47.1966, -142.27, -73.5525, 46.2902
10.616, 44, -25.3613, -31.7135, 47.225, -142.242, -73.5193, 46.3618
10.6241, 44, -25.3381, -31.7532, 47.2531, -142.215, -73.486, 46.4331
10.633, 44, -25.3146, -31.7926, 47.2811, -142.188, -73.452, 46.506
10.6401, 44, -25.2909, -31.8319, 47.3089, -142.161, -73.4183, 46.5793
10.6482, 44, -25.267, -31.8708, 47.3363, -142.135, -73.3851, 46.6531
10.6571, 44, -25.255, -31.8903, 47.35, -142.108, -73.3522, 46.7284
10.6643, 44, -25.2308, -31.9288, 47.3906, -142.081, -73.3189, 46.8032
10.673, 44, -25.2065, -31.9671, 47.4176, -142.056, -73.2853, 46.8795
10.6795, 44, -25.1822, -32.0053, 47.4309, -142.043, -73.2688, 46.918
10.6875, 44, -25.1577, -32.0431, 47.4573, -142.018, -73.236, 46.9947
10.6956, 44, -25.133, -32.0808, 47.4835, -141.993, -73.2033, 47.0733
10.7035, 44, -25.108, -32.1181, 47.5095, -141.967, -73.1701, 47.1521
10.7116, 44, -25.0828, -32.1553, 47.5354, -141.942, -73.1366, 47.2318
10.7195, 44, -25.0575, -32.1921, 47.5607, -141.918, -73.1039, 47.3126
10.7276, 44, -25.0318, -32.2287, 47.586, -141.894, -73.0715, 47.3937
10.7355, 45, -25.006, -32.2651, 47.611, -141.87, -73.0389, 47.4764
10.7436, 45, -24.98, -32.3013, 47.6358, -141.847, -73.0057, 47.5588
10.7516, 45, -24.9538, -32.337, 47.6603, -141.823, -72.9731, 47.6427
10.761, 45, -24.9274, -32.3903, 47.6964, -141.788, -72.9248, 47.7693
10.7675, 45, -24.9011, -32.4079, 47.7083, -141.776, -72.9086, 47.8123
10.7756, 45, -24.8743, -32.4429, 47.732, -141.754, -72.8757, 47.8979
10.7853, 45, -24.8475, -32.4949, 47.7672, -141.721, -72.8269, 48.028
10.7915, 45, -24.8205, -32.5121, 47.7787, -141.71, -72.8108, 48.0714
10.8005, 45, -24.793, -32.5463, 47.8016, -141.688, -72.779, 48.1592
10.8086, 45, -24.7654, -32.5803, 47.8242, -141.666, -72.7468, 48.2479
10.8163, 45, -24.7378, -32.6139, 47.8466, -141.645, -72.7142, 48.3371
10.8236, 45, -24.7099, -32.6471, 47.8688, -141.624, -72.6821, 48.4278
10.8323, 45, -24.682, -32.6801, 47.8905, -141.604, -72.6504, 48.5187
10.8395, 45, -24.6537, -32.7127, 47.9122, -141.584, -72.6187, 48.611
10.8475, 45, -24.6251, -32.7451, 47.9335, -141.564, -72.5864, 48.7033
10.8563, 45, -24.5964, -32.7771, 47.9546, -141.544, -72.5542, 48.7969
10.8636, 45, -24.5674, -32.8089, 47.9755, -141.524, -72.5226, 48.8908
10.8715, 46, -24.5382, -32.8402, 47.9958, -141.505, -72.4914, 48.9859
10.8803, 46, -24.5088, -32.8714, 48.0158, -141.486, -72.46, 49.0813
10.8886, 46, -24.4791, -32.9021, 48.0357, -141.468, -72.428, 49.1776
10.8955, 46, -24.4492, -32.9326, 48.0552, -141.451, -72.3965, 49.2747
10.9069, 46, -24.4193, -32.9628, 48.0746, -141.433, -72.3654, 49.4218
10.9115, 46, -24.3891, -32.9927, 48.0937, -141.416, -72.3345, 49.4716
10.9196, 46, -24.3587, -33.0222, 48.1122, -141.399, -72.303, 49.571
10.9276, 46, -24.3279, -33.0514, 48.1307, -141.382, -72.2713, 49.6716
10.9355, 46, -24.297, -33.0802, 48.1488, -141.365, -72.2403, 49.7725
10.9436, 46, -24.266, -33.1088, 48.1664, -141.35, -72.2097, 49.8745
10.9515, 46, -24.2347, -33.137, 48.1838, -141.334, -72.1792, 49.9769
10.9597, 46, -24.2033, -33.1648, 48.201, -141.319, -72.1481, 50.0803
10.9676, 46, -24.1714, -33.1924, 48.2178, -141.304, -72.1172, 50.1839
10.9755, 46, -24.1394, -33.2194, 48.2343, -141.29, -72.0868, 50.2886
10.9836, 46, -24.1072, -33.2464, 48.2507, -141.276, -72.0566, 50.394
10.9917, 46, -24.0748, -33.2727, 48.2665, -141.262, -72.0264, 50.4999
10.9996, 46, -24.0422, -33.2987, 48.2818, -141.249, -71.9955, 50.6071
11.0077, 47, -24.0091, -33.3245, 48.2971, -141.235, -71.9651, 50.7146
11.0156, 47, -23.9758, -33.3497, 48.3121, -141.222, -71.9352, 50.8234
11.0236, 47, -23.9424, -33.3748, 48.3264, -141.21, -71.9058, 50.9324
11.0316, 47, -23.9089, -33.3992, 48.3405, -141.199, -71.8761, 51.0425
11.0397, 47, -23.875, -33.4234, 48.3543, -141.188, -71.8459, 51.1536
11.0475, 47, -23.8408, -33.4472, 48.3676, -141.177, -71.8161, 51.2647
11.0556, 47, -23.8065, -33.4705, 48.3805, -141.167, -71.7868, 51.3771
11.0636, 47, -23.772, -33.4937, 48.3932, -141.157, -71.7578, 51.4901
11.0716, 47, -23.7373, -33.5163, 48.4058, -141.148, -71.7285, 51.6038
11.0803, 47, -23.7022, -33.5385, 48.418, -141.139, -71.6987, 51.7185
11.0878, 47, -23.667, -33.5605, 48.4298, -141.13, -71.6696, 51.8338
11.0958, 47, -23.6316, -33.5818, 48.441, -141.121, -71.6409, 51.95
11.104, 47, -23.5958, -33.6028, 48.4519, -141.113, -71.6126, 52.0667
11.1119, 47, -23.5598, -33.6236, 48.4626, -141.105, -71.5841, 52.1842
11.1206, 47, -23.5235, -33.6437, 48.4728, -141.098, -71.5553, 52.3026
11.1284, 47, -23.487, -33.6635, 48.4826, -141.091, -71.5269, 52.4213
11.1361, 47, -23.4503, -33.683, 48.4921, -141.084, -71.4991, 52.5408
11.1441, 48, -23.4134, -33.7018, 48.5011, -141.078, -71.4714, 52.6612
11.1522, 48, -23.376, -33.7203, 48.5098, -141.072, -71.4437, 52.7822
11.1602, 48, -23.3572, -33.7385, 48.5183, -141.067, -71.4155, 52.9043
11.168, 48, -23.3197, -33.7474, 48.5224, -141.065, -71.4015, 52.9656
11.1755, 48, -23.282, -33.7647, 48.5302, -141.061, -71.374, 53.0888
11.1835, 48, -23.2438, -33.7817, 48.5377, -141.057, -71.347, 53.2127
11.1915, 48, -23.2054, -33.7983, 48.5448, -141.054, -71.3203, 53.3374
11.1995, 48, -23.1668, -33.8144, 48.5514, -141.051, -71.2933, 53.4627
11.2075, 48, -23.128, -33.83, 48.5575, -141.049, -71.2661, 53.5886
11.2155, 48, -23.0889, -33.8451, 48.5634, -141.047, -71.2392, 53.7154
11.2237, 48, -23.0495, -33.8599, 48.569, -141.046, -71.2129, 53.843
11.2334, 48, -22.99, -33.8814, 48.5765, -141.044, -71.1738, 54.0362
11.2395, 48, -22.97, -33.8881, 48.5789, -141.044, -71.1608, 54.1009
11.2476, 48, -22.9299, -33.9013, 48.5832, -141.044, -71.1345, 54.2309
11.2556, 48, -22.8896, -33.9142, 48.5871, -141.044, -71.1081, 54.3614
11.2635, 48, -22.8491, -33.9268, 48.5905, -141.044, -71.0823, 54.4928
11.2716, 48, -22.8083, -33.9387, 48.5935, -141.044, -71.0571, 54.6246
11.2795, 49, -22.7672, -33.9498, 48.5961, -141.045, -71.0323, 54.7571
11.2891, 49, -22.7258, -33.9605, 48.5982, -141.047, -71.0073, 54.957
11.2964, 49, -22.6842, -33.9709, 48.6, -141.049, -70.9822, 55.0242
11.3035, 49, -22.6423, -33.9809, 48.6012, -141.052, -70.9572, 55.159
11.3125, 49, -22.6001, -33.9904, 48.602, -141.056, -70.9328, 55.2943
11.3203, 49, -22.5577, -33.9992, 48.6025, -141.06, -70.9088, 55.4305
11.3275, 49, -22.5151, -34.0074, 48.6026, -141.065, -70.885, 55.5674
11.3355, 49, -22.4722, -34.015, 48.6027, -141.07, -70.8613, 55.7046
11.3445, 49, -22.429, -34.0222, 48.6026, -141.076, -70.8374, 55.8426
11.3547, 49, -22.3638, -34.0321, 48.6021, -141.086, -70.8019, 56.0513
11.3595, 49, -22.342, -34.0352, 48.6018, -141.09, -70.7904, 56.1212
11.3683, 49, -22.2982, -34.041, 48.6008, -141.098, -70.7677, 56.2617
11.3766, 49, -22.254, -34.0463, 48.5994, -141.107, -70.7455, 56.4027
11.3835, 49, -22.2097, -34.0511, 48.5975, -141.116, -70.7234, 56.5443
11.3923, 49, -22.165, -34.0553, 48.595, -141.126, -70.7013, 56.6867
11.3995, 49, -22.1199, -34.0587, 48.5919, -141.137, -70.6791, 56.8294
11.4075, 49, -22.0746, -34.0616, 48.5883, -141.147, -70.6573, 56.9727
11.4162, 50, -22.0292, -34.064, 48.5842, -141.158, -70.636, 57.1169
11.4235, 50, -21.9834, -34.0657, 48.5795, -141.17, -70.6153, 57.2618
11.4315, 50, -21.9375, -34.0668, 48.5743, -141.182, -70.5948, 57.4075
11.4414, 50, -21.8914, -34.0675, 48.5684, -141.194, -70.5745, 57.5538
11.4475, 50, -21.845, -34.0677, 48.562, -141.207, -70.5541, 57.7008
11.4556, 50, -21.7981, -34.0677, 48.5551, -141.221, -70.5337, 57.8484
11.4635, 50, -21.7511, -34.0673, 48.5478, -141.235, -70.5136, 57.9965
11.4715, 50, -21.7038, -34.0664, 48.5401, -141.251, -70.4942, 58.1454
11.4797, 50, -21.6561, -34.0649, 48.5319, -141.267, -70.4753, 58.295
11.4876, 50, -21.6084, -34.0629, 48.523, -141.283, -70.4569, 58.4454
11.4963, 50, -21.5604, -34.0604, 48.5136, -141.3, -70.4388, 58.5964
11.5037, 50, -21.5122, -34.0574, 48.5035, -141.317, -70.4208, 58.748
11.5116, 50, -21.4636, -34.0536, 48.4929, -141.334, -70.4029, 58.9002
11.5196, 50, -21.415, -34.0492, 48.4818, -141.352, -70.3849, 59.0527
11.528, 50, -21.366, -34.0439, 48.4701, -141.37, -70.3674, 59.206
11.5356, 50, -21.3167, -34.0379, 48.458, -141.39, -70.3505, 59.3597
11.5441, 50, -21.2672, -34.0311, 48.4453, -141.411, -70.334, 59.5142
11.5516, 51, -21.2175, -34.0236, 48.4323, -141.431, -70.3181, 59.6694
11.5595, 51, -21.1674, -34.0153, 48.4187, -141.452, -70.3025, 59.825
11.5683, 51, -21.1171, -34.0063, 48.4045, -141.474, -70.2871, 59.9814
11.5757, 51, -21.0665, -33.9969, 48.3896, -141.496, -70.2719, 60.1382
11.5837, 51, -21.0157, -33.9867, 48.3744, -141.519, -70.2569, 60.2955
11.5927, 51, -20.9646, -33.9755, 48.3586, -141.542, -70.2419, 60.4537
11.5998, 51, -20.9134, -33.9637, 48.3421, -141.567, -70.2274, 60.6125
11.6079, 51, -20.8619, -33.9513, 48.3253, -141.591, -70.2134, 60.772
