rpiRobotics/ARM-21-02-F-19-Robot-Motion-Program/data_performance_abb/curve_1/baseline/100L/realrobot/bisect/run_0realrobot_curve_exe_v93.75_z10.csv
timestamp, cmd_num, J1, J2, J3, J4, J5, J6
0.000359, -1, 11.3784, 13.6126, 17.3401, -145.519, -97.923, 142.516
0.004107, -1, 11.3784, 13.6126, 17.3401, -145.519, -97.923, 142.516
0.008309, -1, 11.3784, 13.6126, 17.3402, -145.519, -97.9231, 142.516
0.029243, -1, 11.3784, 13.6126, 17.3402, -145.519, -97.9231, 142.516
0.031334, -1, 11.3784, 13.6126, 17.3402, -145.519, -97.9231, 142.516
0.034485, -1, 11.3784, 13.6126, 17.3402, -145.519, -97.9231, 142.516
0.039189, -1, 11.3784, 13.6126, 17.3402, -145.519, -97.9231, 142.516
0.047157, -1, 11.3782, 13.6126, 17.3402, -145.519, -97.9231, 142.516
0.055257, -1, 11.3767, 13.6124, 17.3401, -145.519, -97.9231, 142.516
0.063267, -1, 11.3725, 13.6118, 17.34, -145.519, -97.923, 142.516
0.07124, -1, 11.3638, 13.6104, 17.3397, -145.519, -97.923, 142.515
0.079318, -1, 11.3499, 13.6076, 17.339, -145.52, -97.923, 142.509
0.087735, -1, 11.3283, 13.6028, 17.3382, -145.522, -97.9227, 142.494
0.096149, -1, 11.2962, 13.5949, 17.3374, -145.527, -97.9217, 142.463
0.103262, -1, 11.2522, 13.5839, 17.3371, -145.536, -97.9193, 142.411
0.111299, -1, 11.1965, 13.5699, 17.3379, -145.55, -97.915, 142.331
0.119204, -1, 11.1294, 13.5524, 17.3407, -145.57, -97.9085, 142.217
0.127188, -1, 11.0505, 13.5311, 17.3458, -145.596, -97.8995, 142.069
0.135498, -1, 10.9598, 13.5062, 17.3533, -145.627, -97.8883, 141.887
0.143293, -1, 10.8579, 13.478, 17.363, -145.664, -97.8755, 141.675
0.151351, -1, 10.7451, 13.4466, 17.374, -145.705, -97.8612, 141.438
0.15944, -1, 10.6213, 13.4121, 17.3852, -145.748, -97.8461, 141.183
0.167481, -1, 10.4874, 13.3752, 17.3962, -145.793, -97.8305, 140.918
0.175568, -1, 10.3456, 13.3363, 17.4066, -145.84, -97.8145, 140.646
0.183919, -1, 10.1981, 13.2962, 17.4168, -145.888, -97.7981, 140.37
0.192237, -1, 10.047, 13.2554, 17.4268, -145.935, -97.7813, 140.092
0.200005, -1, 9.89342, 13.2141, 17.4368, -145.983, -97.7642, 139.814
0.208289, -1, 9.73809, 13.1727, 17.4469, -146.031, -97.7469, 139.535
0.215715, -1, 9.58265, 13.1313, 17.4568, -146.079, -97.7298, 139.255
0.224303, -1, 9.42781, 13.09, 17.4667, -146.127, -97.7129, 138.976
0.231967, -1, 9.35051, 13.0695, 17.4716, -146.152, -97.6962, 138.697
0.239735, -1, 9.19618, 13.0283, 17.4816, -146.199, -97.6878, 138.417
0.248221, -1, 8.9656, 12.9666, 17.4966, -146.272, -97.6626, 138.138
0.255188, -1, 8.88881, 12.9461, 17.5017, -146.296, -97.6541, 137.998
0.264241, -1, 8.65899, 12.8845, 17.5167, -146.367, -97.6282, 137.579
0.271179, -1, 8.58259, 12.8639, 17.5217, -146.391, -97.6195, 137.439
0.280663, -1, 8.35345, 12.8021, 17.537, -146.464, -97.5932, 137.019
0.287137, -1, 8.27687, 12.7814, 17.5421, -146.488, -97.5846, 136.879
0.296524, -1, 8.04642, 12.7192, 17.5574, -146.56, -97.5592, 136.459
0.303158, -1, 7.96936, 12.6984, 17.5625, -146.584, -97.5508, 136.319
0.312608, -1, 7.73729, 12.636, 17.5775, -146.655, -97.5258, 135.899
0.320737, -1, 7.5823, 12.5944, 17.5878, -146.704, -97.509, 135.619
0.329694, -1, 7.42709, 12.553, 17.5979, -146.752, -97.492, 135.339
0.335203, -1, 7.34948, 12.5323, 17.6029, -146.776, -97.4834, 135.199
0.344778, -1, 7.11672, 12.4702, 17.6183, -146.848, -97.4573, 134.778
0.35361, -1, 7.03911, 12.4495, 17.6286, -146.896, -97.4401, 134.498
0.360788, -1, 6.88387, 12.4083, 17.6337, -146.944, -97.4231, 134.218
0.368744, -1, 6.7289, 12.3671, 17.6441, -146.968, -97.4147, 134.078
0.376137, -1, 6.57429, 12.3259, 17.6545, -147.016, -97.398, 133.798
0.384171, -1, 6.41982, 12.2847, 17.6648, -147.064, -97.3812, 133.517
0.392182, -1, 6.26552, 12.2434, 17.6751, -147.112, -97.3643, 133.237
0.400131, -1, 6.11126, 12.202, 17.6853, -147.161, -97.3471, 132.957
0.407172, -1, 5.9568, 12.1607, 17.6956, -147.209, -97.3296, 132.676
0.415582, -1, 5.80218, 12.1192, 17.7058, -147.257, -97.312, 132.395
0.423159, -1, 5.6474, 12.0776, 17.716, -147.305, -97.2946, 132.115
0.431136, -1, 5.49234, 12.036, 17.7263, -147.353, -97.2775, 131.834
0.439906, -1, 5.33712, 11.9944, 17.7365, -147.401, -97.2606, 131.553
0.447167, -1, 5.18165, 11.9529, 17.7468, -147.45, -97.2438, 131.272
0.455144, -1, 5.02574, 11.9113, 17.7572, -147.497, -97.2271, 130.991
0.463899, -1, 4.86973, 11.8698, 17.7676, -147.545, -97.2101, 130.71
0.472195, -1, 4.71393, 11.8283, 17.778, -147.594, -97.1928, 130.429
0.48019, -1, 4.55811, 11.7869, 17.7883, -147.642, -97.1753, 130.149
0.614758, -1, 1.99291, 11.1013, 17.9591, -148.439, -96.8847, 125.365
0.616208, -1, 1.91461, 11.0805, 17.9642, -148.463, -96.8847, 125.365
0.617398, -1, 1.91461, 11.0805, 17.9642, -148.463, -96.8847, 125.365
0.620266, -1, 1.83633, 11.0598, 17.9694, -148.487, -96.876, 125.224
0.621503, -1, 1.83633, 11.0598, 17.9694, -148.487, -96.876, 125.224
0.623546, -1, 1.75806, 11.039, 17.9746, -148.511, -96.8673, 125.083
0.624753, -1, 1.75806, 11.039, 17.9746, -148.511, -96.8673, 125.083
0.627247, -1, 1.67982, 11.0182, 17.9798, -148.536, -96.8586, 124.942
0.765138, -1, -0.972006, 10.3089, 18.1563, -149.36, -96.5677, 120.14
0.766422, -1, -0.972006, 10.3089, 18.1563, -149.36, -96.5677, 120.14
0.768281, -1, -1.05064, 10.288, 18.1614, -149.384, -96.5592, 119.998
0.769652, -1, -1.05064, 10.288, 18.1614, -149.384, -96.5592, 119.998
0.771008, -1, -1.05064, 10.288, 18.1614, -149.384, -96.5592, 119.998
0.77301, -1, -1.12924, 10.2671, 18.1666, -149.408, -96.5507, 119.857
0.774358, -1, -1.12924, 10.2671, 18.1666, -149.408, -96.5507, 119.857
0.7786, -1, -1.2078, 10.2462, 18.1717, -149.433, -96.5422, 119.715
0.780558, -1, -1.28633, 10.2253, 18.1769, -149.457, -96.5338, 119.574
0.781932, -1, -1.28633, 10.2253, 18.1769, -149.457, -96.5338, 119.574
0.783111, -1, -1.28633, 10.2253, 18.1769, -149.457, -96.5338, 119.574
0.785146, -1, -1.36478, 10.2044, 18.182, -149.482, -96.5254, 119.432
0.786352, -1, -1.36478, 10.2044, 18.182, -149.482, -96.5254, 119.432
0.788318, -1, -1.44314, 10.1835, 18.1872, -149.506, -96.517, 119.29
0.789683, -1, -1.44314, 10.1835, 18.1872, -149.506, -96.517, 119.29
0.792642, -1, -1.52145, 10.1627, 18.1924, -149.53, -96.5086, 119.149
0.794121, -1, -1.52145, 10.1627, 18.1924, -149.53, -96.5086, 119.149
0.795317, -1, -1.52145, 10.1627, 18.1924, -149.53, -96.5086, 119.149
0.797353, -1, -1.59968, 10.1418, 18.1977, -149.554, -96.5002, 119.007
0.798568, -1, -1.59968, 10.1418, 18.1977, -149.554, -96.5002, 119.007
0.801197, -1, -1.67781, 10.1209, 18.203, -149.579, -96.4917, 118.866
0.803315, -1, -1.67781, 10.1209, 18.203, -149.579, -96.4917, 118.866
0.808903, -1, -1.83366, 10.0791, 18.2133, -149.627, -96.4744, 118.582
0.812625, -1, -1.91144, 10.0582, 18.2186, -149.652, -96.4656, 118.44
0.814132, -1, -1.91144, 10.0582, 18.2186, -149.652, -96.4656, 118.44
0.815378, -1, -1.91144, 10.0582, 18.2186, -149.652, -96.4656, 118.44
0.817403, -1, -1.98915, 10.0373, 18.2238, -149.676, -96.4568, 118.299
0.818628, -1, -1.98915, 10.0373, 18.2238, -149.676, -96.4568, 118.299
0.820464, -1, -1.98915, 10.0373, 18.2238, -149.676, -96.448, 118.157
0.821872, -1, -2.06676, 10.0164, 18.229, -149.7, -96.448, 118.157
0.825488, -1, -2.14433, 9.99549, 18.2342, -149.725, -96.4391, 118.015
0.827618, -1, -2.14433, 9.99549, 18.2342, -149.725, -96.4391, 118.015
0.829741, -1, -2.2219, 9.97463, 18.2393, -149.749, -96.4303, 117.874
0.830959, -1, -2.2219, 9.97463, 18.2393, -149.749, -96.4303, 117.874
0.832877, -1, -2.29953, 9.95375, 18.2445, -149.773, -96.4217, 117.732
0.834277, -1, -2.29953, 9.95375, 18.2445, -149.773, -96.4217, 117.732
0.839118, -1, -2.37721, 9.93284, 18.2498, -149.797, -96.4131, 117.59
0.847254, -1, -2.53279, 9.89093, 18.2602, -149.846, -96.3961, 117.306
0.85512, -1, -2.68868, 9.84907, 18.2706, -149.895, -96.3792, 117.023
0.864682, -1, -2.84491, 9.80718, 18.2809, -149.943, -96.3625, 116.597
0.872113, -1, -3.00158, 9.76528, 18.2913, -149.992, -96.3456, 116.455
0.879107, -1, -3.15867, 9.72339, 18.3016, -150.041, -96.3285, 116.172
0.887118, -1, -3.31615, 9.68147, 18.3121, -150.089, -96.3109, 115.888
0.895183, -1, -3.47402, 9.63948, 18.3226, -150.138, -96.2934, 115.604
0.903115, -1, -3.63187, 9.59762, 18.333, -150.187, -96.276, 115.32
0.911124, -1, -3.78975, 9.5558, 18.3433, -150.235, -96.2588, 115.036
0.919179, -1, -3.94776, 9.51382, 18.3536, -150.284, -96.2418, 114.751
0.927148, -1, -4.10562, 9.47196, 18.364, -150.333, -96.2248, 114.467
0.935115, -1, -4.26346, 9.43009, 18.3743, -150.382, -96.2078, 114.183
0.943174, -1, -4.42108, 9.3881, 18.3846, -150.43, -96.1906, 113.898
0.951117, -1, -4.57819, 9.34619, 18.3949, -150.479, -96.1731, 113.614
0.959111, -1, -4.73488, 9.30422, 18.4052, -150.528, -96.1553, 113.329
0.968118, -1, -4.89125, 9.26223, 18.4157, -150.577, -96.1378, 113.045
0.975114, -1, -5.04736, 9.22022, 18.4262, -150.626, -96.1205, 112.76
0.98315, -1, -5.20319, 9.17825, 18.4366, -150.674, -96.1034, 112.475
0.991217, -1, -5.35921, 9.13618, 18.4472, -150.723, -96.0866, 112.191
0.999116, -1, -5.5154, 9.09406, 18.4575, -150.772, -96.0697, 111.906
1.00712, -1, -5.67171, 9.05208, 18.4679, -150.821, -96.0527, 111.621
1.01518, -1, -5.82842, 9.00996, 18.4783, -150.87, -96.0355, 111.336
1.02311, -1, -5.98564, 8.96785, 18.4886, -150.919, -96.0179, 111.052
1.03118, -1, -6.14339, 8.92578, 18.4989, -150.967, -96.0003, 110.767
1.03917, -1, -6.30161, 8.88367, 18.5092, -151.016, -95.9829, 110.481
1.04719, -1, -6.46004, 8.84161, 18.5195, -151.066, -95.9658, 110.196
1.05518, -1, -6.61854, 8.79962, 18.5299, -151.114, -95.9489, 109.911
1.06315, -1, -6.7772, 8.75753, 18.5405, -151.163, -95.9319, 109.626
1.07126, -1, -6.93585, 8.71548, 18.5509, -151.213, -95.9149, 109.34
1.07921, -1, -7.09433, 8.67347, 18.5614, -151.261, -95.8976, 109.055
1.08722, -1, -7.25277, 8.63136, 18.5717, -151.31, -95.88, 108.769
1.09535, -1, -7.41076, 8.58922, 18.5821, -151.36, -95.8623, 108.483
1.10322, -1, -7.56849, 8.54699, 18.5926, -151.408, -95.8446, 108.198
1.11121, -1, -7.72601, 8.50473, 18.603, -151.458, -95.8273, 107.912
1.11929, -1, -7.88302, 8.46259, 18.6134, -151.507, -95.8102, 107.626
1.12715, -1, -8.03975, 8.42033, 18.6238, -151.555, -95.7932, 107.34
1.13522, -1, -8.19634, 8.37805, 18.6342, -151.605, -95.7763, 107.055
1.14323, -1, -8.35299, 8.33577, 18.6447, -151.654, -95.7592, 106.769
1.15149, -1, -8.50992, 8.29343, 18.6552, -151.702, -95.7419, 106.483
1.15939, -1, -8.6671, 8.2512, 18.6657, -151.752, -95.7243, 106.196
1.16739, -1, -8.8247, 8.20897, 18.6761, -151.801, -95.7066, 105.91
1.17553, -1, -8.98259, 8.1667, 18.6864, -151.85, -95.6892, 105.624
1.18412, -1, -9.14097, 8.12448, 18.6968, -151.899, -95.672, 105.338
1.19156, -1, -9.29979, 8.08228, 18.7072, -151.948, -95.6548, 105.051
1.20022, -1, -9.45883, 8.04001, 18.7176, -151.997, -95.6377, 104.764
1.20782, -1, -9.618, 7.9978, 18.7281, -152.047, -95.6205, 104.478
1.21627, -1, -9.77719, 7.95568, 18.7384, -152.096, -95.6031, 104.191
1.2237, -1, -9.93652, 7.91347, 18.7489, -152.145, -95.5853, 103.904
1.23223, -1, -10.0958, 7.87116, 18.7596, -152.195, -95.5674, 103.617
1.23967, -1, -10.1754, 7.84998, 18.7648, -152.219, -95.5585, 103.33
1.24816, -1, -10.4138, 7.78634, 18.7806, -152.293, -95.5322, 103.043
1.25587, -1, -10.4931, 7.76511, 18.7858, -152.318, -95.5236, 102.9
1.26421, -1, -10.7307, 7.70154, 18.8014, -152.392, -95.4981, 102.47
1.2711, -1, -10.8097, 7.68031, 18.8066, -152.416, -95.4896, 102.326
1.2803, -1, -11.0463, 7.61656, 18.8223, -152.49, -95.4638, 101.895
1.28726, -1, -11.125, 7.59535, 18.8274, -152.515, -95.4552, 101.752
1.29665, -1, -11.3612, 7.53173, 18.8431, -152.589, -95.4285, 101.321
1.30456, -1, -11.5188, 7.48927, 18.8535, -152.638, -95.4108, 101.033
1.31112, -1, -11.5977, 7.46804, 18.8588, -152.663, -95.4021, 100.89
1.3206, -1, -11.8348, 7.4045, 18.8746, -152.737, -95.3761, 100.458
1.32872, -1, -11.9933, 7.36217, 18.8852, -152.786, -95.3589, 100.17
1.33668, -1, -12.1524, 7.31985, 18.8957, -152.835, -95.3417, 99.8827
1.34486, -1, -12.3118, 7.2775, 18.9062, -152.885, -95.3244, 99.595
1.35277, -1, -12.4715, 7.23509, 18.9167, -152.935, -95.3069, 99.307
1.36093, -1, -12.5514, 7.21392, 18.9219, -152.984, -95.2891, 99.0192
1.36869, -1, -12.7114, 7.17156, 18.9324, -153.008, -95.28, 98.8754
1.37689, -1, -12.8715, 7.12919, 18.9429, -153.083, -95.2534, 98.4434
1.38411, -1, -13.0316, 7.08667, 18.9535, -153.107, -95.2446, 98.2994
1.39211, -1, -13.1914, 7.0441, 18.964, -153.157, -95.2273, 98.0113
1.40014, -1, -13.3511, 7.00157, 18.9745, -153.207, -95.2103, 97.7231
1.4081, -1, -13.5103, 6.95892, 18.9851, -153.256, -95.1933, 97.4348
1.4161, -1, -13.6696, 6.91619, 18.9956, -153.305, -95.1761, 97.1462
1.42423, -1, -13.8286, 6.87355, 19.0061, -153.355, -95.1586, 96.8578
1.43211, -1, -13.9871, 6.83089, 19.0165, -153.404, -95.1408, 96.5693
1.44009, -1, -14.1453, 6.78822, 19.0271, -153.453, -95.123, 96.2806
1.44815, -1, -14.3036, 6.74563, 19.0375, -153.503, -95.1055, 95.9917
1.4561, -1, -14.4619, 6.70298, 19.048, -153.552, -95.0882, 95.7028
1.46416, -1, -14.6203, 6.66037, 19.0585, -153.602, -95.071, 95.4137
1.47211, -1, -14.7792, 6.61788, 19.069, -153.652, -95.0539, 95.1246
1.48015, -1, -14.9384, 6.57533, 19.0795, -153.701, -95.0367, 94.8353
1.48816, -1, -15.0979, 6.53269, 19.0902, -153.751, -95.0191, 94.5463
1.49609, -1, -15.2579, 6.49015, 19.1009, -153.8, -95.0012, 94.2572
1.50411, -1, -15.4182, 6.44763, 19.1115, -153.85, -94.9832, 93.968
1.51217, -1, -15.5788, 6.40496, 19.1221, -153.9, -94.9654, 93.6787
1.5191, -1, -15.7396, 6.3623, 19.1325, -153.949, -94.9479, 93.3895
1.5281, -1, -15.9003, 6.31957, 19.1431, -153.999, -94.9307, 93.1
1.53515, -1, -16.061, 6.27674, 19.1537, -154.049, -94.9136, 92.8104
1.54314, -1, -16.2217, 6.23397, 19.1642, -154.098, -94.8965, 92.5207
1.55201, -1, -16.3824, 6.19105, 19.1747, -154.148, -94.879, 92.2313
1.56016, -1, -16.5427, 6.14807, 19.1851, -154.198, -94.8614, 91.9415
1.56715, -1, -16.7028, 6.10516, 19.1957, -154.247, -94.8434, 91.6514
1.57617, -1, -16.8624, 6.06225, 19.2063, -154.297, -94.8256, 91.3614
1.58319, -1, -17.0217, 6.01933, 19.2169, -154.347, -94.8081, 91.0714
1.59126, -1, -17.1809, 5.97642, 19.2275, -154.396, -94.7906, 90.7812
1.60031, -1, -17.3399, 5.93357, 19.238, -154.446, -94.7733, 90.4909
1.60721, -1, -17.4992, 5.89081, 19.2486, -154.496, -94.756, 90.2009
1.61532, -1, -17.6586, 5.84807, 19.2593, -154.546, -94.7385, 89.9107
1.62371, -1, -17.8181, 5.80528, 19.2699, -154.595, -94.7207, 89.6203
1.63117, -1, -17.9779, 5.76255, 19.2806, -154.646, -94.7026, 89.3298
1.63919, -1, -18.1382, 5.71982, 19.2912, -154.695, -94.6845, 89.0395
1.64881, -1, -18.2989, 5.67706, 19.3018, -154.745, -94.6668, 88.749
1.65609, -1, -18.4601, 5.63428, 19.3125, -154.795, -94.6493, 88.4582
1.66334, -1, -18.6216, 5.59133, 19.3231, -154.845, -94.632, 88.1672
1.67303, -1, -18.7832, 5.54841, 19.3338, -154.895, -94.6147, 87.8765
1.68012, -1, -18.9447, 5.50546, 19.3444, -154.945, -94.5974, 87.5855
1.68754, -1, -19.1064, 5.46242, 19.3548, -154.995, -94.5797, 87.2942
1.69719, -1, -19.2679, 5.4193, 19.3654, -155.045, -94.5617, 87.0029
1.70367, -1, -19.4292, 5.37622, 19.376, -155.095, -94.5436, 86.7116
1.71226, -1, -19.5901, 5.33304, 19.3865, -155.144, -94.5257, 86.4201
1.7216, -1, -19.7508, 5.28989, 19.3971, -155.195, -94.5081, 86.1284
1.72771, -1, -19.9114, 5.24684, 19.4076, -155.245, -94.4907, 85.8369
1.73632, -1, -20.0716, 5.20372, 19.4183, -155.294, -94.4734, 85.5456
1.7436, -1, -20.1515, 5.18219, 19.4237, -155.319, -94.4647, 85.3999
1.75213, -1, -20.3914, 5.1179, 19.4399, -155.395, -94.4384, 84.9622
1.75908, -1, -20.4714, 5.09643, 19.4453, -155.42, -94.4294, 84.8163
1.76813, -1, -20.7116, 5.03199, 19.4613, -155.495, -94.4023, 84.3788
1.7763, -1, -20.8721, 4.98915, 19.4719, -155.545, -94.3844, 84.0869
1.78308, -1, -20.9525, 4.96771, 19.4772, -155.57, -94.3756, 83.9408
1.79232, -1, -21.1943, 4.90318, 19.4931, -155.646, -94.3495, 83.5027
1.79909, -1, -21.2751, 4.88169, 19.4984, -155.671, -94.3409, 83.3568
1.80844, -1, -21.5182, 4.81698, 19.5143, -155.746, -94.3151, 82.9184
1.81513, -1, -21.5993, 4.79535, 19.5196, -155.771, -94.3065, 82.7722
1.82517, -1, -21.8427, 4.73061, 19.5357, -155.846, -94.2799, 82.3335
1.83108, -1, -21.9239, 4.70895, 19.5411, -155.871, -94.2709, 82.1872
1.84065, -1, -22.1675, 4.64393, 19.5572, -155.947, -94.244, 81.7483
1.8471, -1, -22.2487, 4.62229, 19.5626, -155.972, -94.2352, 81.6019
1.85664, -1, -22.4111, 4.55724, 19.5785, -156.047, -94.2089, 81.1631
1.86464, -1, -22.573, 4.53554, 19.5838, -156.073, -94.1915, 80.8704
1.87281, -1, -22.7346, 4.49214, 19.5945, -156.147, -94.1741, 80.5775
1.88008, -1, -22.896, 4.4488, 19.6052, -156.173, -94.1653, 80.431
1.88808, -1, -23.0571, 4.40554, 19.6159, -156.223, -94.1475, 80.1382
1.89508, -1, -23.2181, 4.3623, 19.6265, -156.274, -94.1294, 79.8451
1.90308, -1, -23.379, 4.31907, 19.6373, -156.324, -94.1111, 79.5518
1.91209, -1, -23.5398, 4.27589, 19.6481, -156.374, -94.093, 79.2583
1.91909, -1, -23.7009, 4.23269, 19.6589, -156.424, -94.0752, 78.9651
1.92714, -1, -23.8622, 4.1895, 19.6696, -156.475, -94.0576, 78.6716
1.9351, -1, -24.0237, 4.14623, 19.6803, -156.526, -94.0402, 78.3778
1.9431, -1, -24.1857, 4.10286, 19.691, -156.576, -94.0228, 78.084
1.95208, -1, -24.3482, 4.05952, 19.7017, -156.626, -94.0052, 77.7902
1.96013, -1, -24.511, 4.01612, 19.7123, -156.677, -93.9872, 77.4961
1.9681, -1, -24.6741, 3.9726, 19.7228, -156.727, -93.9691, 77.2019
1.9761, -1, -24.8373, 3.92906, 19.7335, -156.777, -93.9511, 76.908
1.98419, -1, -25.0007, 3.88555, 19.7442, -156.828, -93.9334, 76.614
1.99208, -1, -25.164, 3.84198, 19.755, -156.878, -93.9158, 76.3198
2.00008, -1, -25.3271, 3.79842, 19.7659, -156.929, -93.8983, 76.0254
2.00817, -1, -25.4899, 3.75482, 19.7767, -156.979, -93.8807, 75.7312
2.01713, -1, -25.6525, 3.71115, 19.7873, -157.029, -93.863, 75.4368
2.02408, -1, -25.815, 3.66764, 19.798, -157.08, -93.8448, 75.1422
2.03215, -1, -25.9773, 3.62422, 19.8087, -157.13, -93.8264, 74.8474
2.03918, -1, -26.1393, 3.58068, 19.8194, -157.181, -93.8081, 74.553
2.04714, -1, -26.3009, 3.5373, 19.8302, -157.232, -93.7901, 74.2584
2.05508, -1, -26.4625, 3.49397, 19.8409, -157.282, -93.7723, 73.9634
2.06409, -1, -26.6244, 3.45051, 19.8516, -157.332, -93.7547, 73.6683
2.07214, -1, -26.7865, 3.40706, 19.8624, -157.383, -93.7371, 73.3733
2.07922, -1, -26.949, 3.36358, 19.8732, -157.434, -93.7194, 73.0781
2.08748, -1, -27.1118, 3.31998, 19.884, -157.485, -93.7013, 72.7828
2.09521, -1, -27.2748, 3.27644, 19.8948, -157.535, -93.6831, 72.4878
2.1032, -1, -27.4383, 3.23282, 19.9055, -157.586, -93.6648, 72.1925
2.11167, -1, -27.6022, 3.18906, 19.9162, -157.636, -93.6469, 71.8971
2.11929, -1, -27.7662, 3.14539, 19.927, -157.687, -93.6291, 71.6015
2.12708, -1, -27.9303, 3.1017, 19.9378, -157.738, -93.6114, 71.306
2.13586, -1, -28.0944, 3.058, 19.9486, -157.789, -93.5937, 71.0104
2.14412, -1, -28.2585, 3.01427, 19.9593, -157.839, -93.5759, 70.7145
2.15115, -1, -28.4226, 2.97054, 19.97, -157.89, -93.5578, 70.4185
2.16013, -1, -28.5863, 2.92688, 19.9809, -157.941, -93.5393, 70.1227
2.16768, -1, -28.7498, 2.88325, 19.9918, -157.992, -93.521, 69.8268
2.17611, -1, -28.913, 2.83957, 20.0026, -158.042, -93.503, 69.5305
2.18428, -1, -29.0758, 2.79598, 20.0133, -158.093, -93.4852, 69.234
2.19152, -1, -29.2385, 2.75237, 20.024, -158.144, -93.4675, 68.9377
2.1996, -1, -29.4013, 2.70877, 20.0348, -158.195, -93.45, 68.641
2.20842, -1, -29.5641, 2.66512, 20.0455, -158.246, -93.4321, 68.3442
2.21598, -1, -29.727, 2.62138, 20.0563, -158.297, -93.4141, 68.0477
2.2242, -1, -29.8901, 2.57768, 20.0671, -158.348, -93.3958, 67.7511
2.2325, -1, -30.0533, 2.53398, 20.0779, -158.399, -93.3775, 67.4543
2.2398, -1, -30.217, 2.49009, 20.0888, -158.449, -93.3594, 67.1572
2.24811, -1, -30.3812, 2.44618, 20.0998, -158.501, -93.3415, 66.8604
2.25507, -1, -30.4634, 2.42425, 20.1052, -158.526, -93.3326, 66.7119
2.26308, -1, -30.6281, 2.38032, 20.116, -158.577, -93.3149, 66.4148
2.27112, -1, -30.7931, 2.33637, 20.1268, -158.628, -93.2972, 66.1174
2.28102, -1, -31.0407, 2.2705, 20.143, -158.705, -93.2701, 65.6717
2.28829, -1, -31.2056, 2.22649, 20.1539, -158.755, -93.2517, 65.3745
2.29512, -1, -31.288, 2.20455, 20.1593, -158.781, -93.2424, 65.2258
2.30523, -1, -31.5351, 2.1388, 20.1754, -158.858, -93.215, 64.7791
2.31111, -1, -31.6174, 2.1168, 20.1807, -158.883, -93.206, 64.6303
2.32061, -1, -31.8638, 2.05097, 20.197, -158.96, -93.1794, 64.1836
2.32925, -1, -32.0278, 2.00714, 20.208, -159.011, -93.1618, 63.8855
2.33512, -1, -32.1097, 1.98517, 20.2135, -159.037, -93.153, 63.7367
2.34466, -1, -32.3552, 1.91929, 20.2299, -159.114, -93.1262, 63.2899
2.35354, -1, -32.5188, 1.87529, 20.2407, -159.165, -93.1078, 62.9919
2.3592, -1, -32.6007, 1.85325, 20.2462, -159.19, -93.0986, 62.8427
2.3695, -1, -32.7646, 1.80924, 20.2626, -159.268, -93.0713, 62.3954
2.37507, -1, -32.9287, 1.7652, 20.268, -159.293, -93.0623, 62.2462
2.38406, -1, -33.0931, 1.72102, 20.2789, -159.344, -93.0444, 61.9478
2.39211, -1, -33.2579, 1.67682, 20.2897, -159.395, -93.0266, 61.6491
2.39911, -1, -33.423, 1.63268, 20.3006, -159.446, -93.0087, 61.3506
2.40713, -1, -33.5886, 1.58847, 20.3115, -159.498, -92.9907, 61.052
2.41507, -1, -33.7542, 1.54426, 20.3225, -159.549, -92.9723, 60.7532
2.42306, -1, -33.9199, 1.50012, 20.3334, -159.6, -92.9536, 60.4541
2.43209, -1, -34.0858, 1.45596, 20.3443, -159.652, -92.935, 60.1551
2.44012, -1, -34.2516, 1.41188, 20.3551, -159.703, -92.9167, 59.856
2.44706, -1, -34.4176, 1.36773, 20.366, -159.754, -92.8987, 59.5565
2.45606, -1, -34.5833, 1.32361, 20.3769, -159.806, -92.881, 59.2571
2.46411, -1, -34.7487, 1.27952, 20.3878, -159.857, -92.8632, 58.9579
2.47207, -1, -34.9137, 1.23533, 20.3986, -159.908, -92.8453, 58.6585
2.48008, -1, -35.0785, 1.19121, 20.4095, -159.96, -92.8269, 58.3589
2.48817, -1, -35.2431, 1.147, 20.4206, -160.011, -92.8084, 58.0592
2.49606, -1, -35.4076, 1.10277, 20.4316, -160.063, -92.7899, 57.7596
2.50405, -1, -35.5711, 1.0588, 20.4428, -160.114, -92.7718, 57.4598
2.51401, -1, -35.8121, 0.993705, 20.4598, -160.191, -92.7448, 57.0114
2.51911, -1, -35.8907, 0.972438, 20.4656, -160.216, -92.7359, 56.8631
2.52712, -1, -36.0444, 0.930955, 20.4774, -160.266, -92.7184, 56.5699
2.53613, -1, -36.1922, 0.891336, 20.4894, -160.315, -92.7011, 56.284
2.54306, -1, -36.3315, 0.854157, 20.5012, -160.362, -92.6842, 56.0107
2.55206, -1, -36.4604, 0.82007, 20.5124, -160.405, -92.6681, 55.7565
2.56014, -1, -36.5775, 0.789098, 20.5224, -160.444, -92.6537, 55.5273
2.56709, -1, -36.681, 0.76173, 20.5309, -160.477, -92.6413, 55.3284
2.57607, -1, -36.7697, 0.738246, 20.5374, -160.505, -92.6312, 55.1636
2.58412, -1, -36.844, 0.718448, 20.5416, -160.528, -92.6234, 55.034
2.59116, -1, -36.9051, 0.702282, 20.5437, -160.544, -92.6176, 54.9387
2.59927, -1, -36.9532, 0.689621, 20.5446, -160.556, -92.6138, 54.872
2.60718, -1, -36.9893, 0.680134, 20.5447, -160.563, -92.6115, 54.829
2.61533, -1, -37.0151, 0.673301, 20.5442, -160.568, -92.6102, 54.8036
2.62405, -1, -37.0322, 0.668893, 20.5438, -160.57, -92.6094, 54.7896
2.63212, -1, -37.0423, 0.666398, 20.5435, -160.572, -92.6091, 54.7828
2.63937, 2, -37.0475, 0.66516, 20.5434, -160.572, -92.609, 54.7796
2.64717, 2, -37.0486, 0.664621, 20.5433, -160.573, -92.6089, 54.7781
2.65514, 2, -37.0483, 0.664388, 20.5433, -160.573, -92.6089, 54.7775
2.66347, 2, -37.048, 0.664255, 20.5433, -160.573, -92.609, 54.7772
2.67136, 2, -37.0481, 0.664213, 20.5433, -160.573, -92.609, 54.7771
2.67938, 2, -37.0487, 0.664163, 20.5432, -160.573, -92.609, 54.7772
2.68748, 2, -37.0497, 0.664114, 20.5432, -160.573, -92.609, 54.7773
2.69553, 2, -37.0508, 0.663948, 20.543, -160.573, -92.609, 54.7774
2.70352, 2, -37.0521, 0.663711, 20.5428, -160.573, -92.609, 54.7776
2.71216, 2, -37.0534, 0.66343, 20.5426, -160.573, -92.6091, 54.7777
2.71977, 2, -37.0545, 0.663205, 20.5424, -160.573, -92.6092, 54.7778
2.72825, 2, -37.0553, 0.663051, 20.5423, -160.573, -92.6092, 54.7781
2.7357, 2, -37.0555, 0.663004, 20.5421, -160.573, -92.6092, 54.7783
2.74416, 2, -37.0552, 0.66299, 20.542, -160.573, -92.6092, 54.7785
2.75105, 2, -37.0549, 0.663004, 20.5419, -160.573, -92.6092, 54.7786
2.76009, 2, -37.0535, 0.663077, 20.5418, -160.573, -92.6094, 54.779
2.7671, 2, -37.0529, 0.663118, 20.5418, -160.573, -92.6094, 54.7791
2.77626, 2, -37.0506, 0.663238, 20.5417, -160.573, -92.6094, 54.7795
2.78305, 2, -37.0499, 0.663289, 20.5416, -160.573, -92.6094, 54.7796
2.79229, 2, -37.0484, 0.663356, 20.5416, -160.573, -92.6094, 54.7798
2.79911, 2, -37.0481, 0.663354, 20.5416, -160.573, -92.6094, 54.7798
2.80837, 2, -37.0477, 0.663322, 20.5416, -160.573, -92.6094, 54.7799
2.8151, 2, -37.0477, 0.663302, 20.5415, -160.573, -92.6095, 54.78
2.82467, 2, -37.048, 0.663216, 20.5415, -160.573, -92.6095, 54.78
2.83254, 2, -37.0483, 0.663172, 20.5415, -160.573, -92.6095, 54.7801
2.84058, 2, -37.0489, 0.663146, 20.5415, -160.573, -92.6095, 54.7801
2.84872, 2, -37.0498, 0.663123, 20.5415, -160.573, -92.6095, 54.7801
2.85662, 2, -37.0506, 0.663117, 20.5415, -160.573, -92.6095, 54.7801
2.86463, 2, -37.051, 0.663126, 20.5414, -160.573, -92.6095, 54.7802
2.87279, 2, -37.0515, 0.663143, 20.5414, -160.573, -92.6095, 54.7802
2.88007, 2, -37.0517, 0.663163, 20.5414, -160.573, -92.6095, 54.7803
2.88804, 2, -37.0518, 0.663185, 20.5414, -160.573, -92.6095, 54.7803
2.89611, 2, -37.0517, 0.663195, 20.5414, -160.573, -92.6095, 54.7804
2.90404, 2, -37.0514, 0.663189, 20.5414, -160.573, -92.6095, 54.7804
2.91208, 2, -37.051, 0.663179, 20.5414, -160.573, -92.6096, 54.7805
2.92011, 2, -37.0507, 0.663174, 20.5414, -160.573, -92.6096, 54.7805
2.92804, 2, -37.0504, 0.663172, 20.5414, -160.573, -92.6095, 54.7805
2.93608, 2, -37.0503, 0.663133, 20.5414, -160.573, -92.6095, 54.7806
2.9441, 2, -37.0502, 0.663128, 20.5414, -160.573, -92.6096, 54.7806
2.95204, 2, -37.0501, 0.663108, 20.5413, -160.573, -92.6096, 54.7806
2.96005, 2, -37.0502, 0.663129, 20.5413, -160.573, -92.6096, 54.7807
2.9681, 2, -37.0502, 0.663134, 20.5413, -160.573, -92.6095, 54.7808
2.97607, 2, -37.0503, 0.663146, 20.5413, -160.573, -92.6096, 54.7808
2.98404, 2, -37.0503, 0.663147, 20.5413, -160.572, -92.6096, 54.7809
2.99218, 2, -37.0505, 0.663142, 20.5413, -160.572, -92.6096, 54.7809
3.00005, 2, -37.0507, 0.663175, 20.5413, -160.572, -92.6097, 54.781
3.00904, 2, -37.0508, 0.663172, 20.5413, -160.572, -92.6097, 54.781
3.01607, 2, -37.0508, 0.663171, 20.5413, -160.572, -92.6097, 54.7811
3.02507, 2, -37.0508, 0.66317, 20.5413, -160.572, -92.6097, 54.7811
3.03207, 2, -37.0508, 0.66317, 20.5413, -160.572, -92.6097, 54.7812
3.04008, 2, -37.0507, 0.663163, 20.5412, -160.572, -92.6097, 54.7812
3.04708, 2, -37.0507, 0.663142, 20.5412, -160.572, -92.6097, 54.7813
3.05608, 2, -37.0507, 0.663133, 20.5412, -160.572, -92.6097, 54.7814
3.06407, 2, -37.0506, 0.663128, 20.5412, -160.572, -92.6097, 54.7814
3.07111, 2, -37.0506, 0.663138, 20.5412, -160.572, -92.6097, 54.7814
3.08008, 2, -37.0506, 0.663131, 20.5412, -160.572, -92.6097, 54.7814
3.08807, 2, -37.0506, 0.663135, 20.5412, -160.572, -92.6097, 54.7814
3.09519, 2, -37.0506, 0.663146, 20.5412, -160.572, -92.6098, 54.7815
3.10318, 2, -37.0506, 0.663154, 20.5412, -160.572, -92.6098, 54.7816
3.11117, 2, -37.0506, 0.663181, 20.5412, -160.572, -92.6098, 54.7816
3.11924, 2, -37.0506, 0.663175, 20.5412, -160.572, -92.6098, 54.7816
3.12708, 2, -37.0506, 0.663183, 20.5412, -160.572, -92.6098, 54.7816
3.13521, 2, -37.0506, 0.663183, 20.5411, -160.572, -92.6098, 54.7816
3.14312, 2, -37.0506, 0.663176, 20.5411, -160.572, -92.6098, 54.7817
3.15112, 2, -37.0505, 0.663153, 20.5411, -160.572, -92.6098, 54.7817
3.15925, 2, -37.0505, 0.663138, 20.5411, -160.572, -92.6098, 54.7817
3.16728, 2, -37.0505, 0.66315, 20.5411, -160.572, -92.6098, 54.7818
3.1753, 2, -37.0505, 0.663153, 20.5411, -160.572, -92.6098, 54.7818
3.18385, 2, -37.0505, 0.663138, 20.5411, -160.572, -92.6098, 54.7819
3.19205, 2, -37.0504, 0.66315, 20.5411, -160.572, -92.6099, 54.782
3.20012, 2, -37.0505, 0.663161, 20.5411, -160.572, -92.6098, 54.7819
3.20791, 2, -37.0505, 0.663177, 20.5411, -160.572, -92.6098, 54.7819
3.21615, 2, -37.0505, 0.663191, 20.5411, -160.572, -92.6098, 54.782
3.22368, 2, -37.0504, 0.663187, 20.5411, -160.572, -92.6098, 54.782
3.23218, 2, -37.0504, 0.663189, 20.5411, -160.572, -92.6098, 54.7821
3.23966, 2, -37.0504, 0.663197, 20.5411, -160.572, -92.6098, 54.7821
3.24818, 2, -37.0503, 0.663182, 20.5411, -160.572, -92.6098, 54.7821
3.25592, 2, -37.0503, 0.663171, 20.5411, -160.572, -92.6098, 54.7821
3.26406, 2, -37.0503, 0.663158, 20.541, -160.572, -92.6098, 54.7822
3.27105, 2, -37.0503, 0.663154, 20.541, -160.572, -92.6099, 54.7822
3.28043, 2, -37.0503, 0.66318, 20.541, -160.572, -92.6099, 54.7822
3.28708, 2, -37.0503, 0.663177, 20.541, -160.572, -92.6099, 54.7822
3.29627, 2, -37.0503, 0.663156, 20.541, -160.572, -92.6099, 54.7823
3.30303, 2, -37.0503, 0.663153, 20.541, -160.572, -92.6099, 54.7823
3.31105, 2, -37.0503, 0.663192, 20.541, -160.572, -92.6099, 54.7823
3.32046, 2, -37.0502, 0.663205, 20.541, -160.572, -92.6099, 54.7823
3.32702, 2, -37.0502, 0.663205, 20.541, -160.572, -92.6099, 54.7824
3.3351, 2, -37.0502, 0.663204, 20.541, -160.572, -92.6099, 54.7824
3.34457, 2, -37.0503, 0.66321, 20.541, -160.572, -92.6099, 54.7824
3.35305, 2, -37.0502, 0.663225, 20.541, -160.572, -92.6099, 54.7824
3.3606, 2, -37.0502, 0.663221, 20.541, -160.572, -92.6099, 54.7824
3.36861, 2, -37.0502, 0.663204, 20.541, -160.572, -92.6099, 54.7825
3.37719, 2, -37.0501, 0.663193, 20.5409, -160.572, -92.6099, 54.7825
3.38305, 2, -37.0501, 0.663196, 20.5409, -160.572, -92.61, 54.7825
3.39206, 2, -37.0501, 0.663189, 20.5409, -160.572, -92.6099, 54.7824
3.40096, 2, -37.0501, 0.663197, 20.5409, -160.572, -92.6099, 54.7825
3.40803, 2, -37.0501, 0.663193, 20.5409, -160.572, -92.6099, 54.7825
3.41606, 2, -37.0501, 0.663217, 20.5409, -160.572, -92.6099, 54.7825
3.42405, 2, -37.0501, 0.663228, 20.5409, -160.572, -92.6099, 54.7825
3.43106, 2, -37.0501, 0.663222, 20.5409, -160.572, -92.61, 54.7826
3.4401, 2, -37.0501, 0.663223, 20.5409, -160.572, -92.6099, 54.7826
3.44805, 2, -37.05, 0.663231, 20.5409, -160.572, -92.6099, 54.7825
3.45603, 2, -37.0501, 0.663235, 20.5409, -160.572, -92.61, 54.7825
3.46405, 2, -37.0501, 0.663236, 20.5409, -160.572, -92.61, 54.7826
3.47206, 2, -37.0501, 0.663226, 20.5409, -160.572, -92.61, 54.7826
3.47911, 2, -37.0501, 0.663196, 20.5409, -160.572, -92.61, 54.7825
3.48706, 2, -37.0501, 0.663223, 20.5408, -160.572, -92.61, 54.7826
3.4961, 2, -37.05, 0.663231, 20.5408, -160.572, -92.61, 54.7826
3.50403, 2, -37.05, 0.663205, 20.5408, -160.572, -92.61, 54.7826
3.51303, 2, -37.05, 0.663215, 20.5408, -160.572, -92.61, 54.7826
3.52006, 2, -37.05, 0.663227, 20.5408, -160.572, -92.61, 54.7826
3.52705, 2, -37.05, 0.663233, 20.5408, -160.572, -92.61, 54.7826
3.53607, 2, -37.05, 0.663248, 20.5408, -160.572, -92.61, 54.7827
3.54405, 2, -37.05, 0.66325, 20.5408, -160.572, -92.61, 54.7827
3.55105, 2, -37.0499, 0.663237, 20.5408, -160.572, -92.61, 54.7827
3.56006, 2, -37.0499, 0.663242, 20.5408, -160.572, -92.6101, 54.7827
3.56804, 2, -37.0499, 0.663247, 20.5408, -160.572, -92.61, 54.7827
3.57604, 2, -37.0499, 0.663254, 20.5408, -160.572, -92.61, 54.7828
3.58405, 2, -37.0499, 0.663232, 20.5408, -160.572, -92.61, 54.7828
3.59205, 2, -37.0499, 0.663247, 20.5408, -160.572, -92.6101, 54.7828
3.60004, 2, -37.0499, 0.663249, 20.5407, -160.572, -92.6101, 54.7827
3.60716, 2, -37.0499, 0.66326, 20.5407, -160.572, -92.6101, 54.7827
3.61517, 2, -37.0499, 0.663248, 20.5407, -160.572, -92.6101, 54.7827
3.62316, 2, -37.0499, 0.66325, 20.5407, -160.572, -92.61, 54.7828
3.63106, 2, -37.0499, 0.66326, 20.5407, -160.572, -92.61, 54.7828
3.63941, 2, -37.0498, 0.663268, 20.5407, -160.572, -92.61, 54.7829
3.64821, 2, -37.0498, 0.663276, 20.5407, -160.572, -92.6101, 54.7829
3.65602, 2, -37.0498, 0.663267, 20.5407, -160.572, -92.6101, 54.7829
3.66327, 2, -37.0498, 0.663276, 20.5407, -160.572, -92.6101, 54.7828
3.67165, 2, -37.0498, 0.663272, 20.5407, -160.572, -92.6101, 54.7828
3.68003, 2, -37.0498, 0.663273, 20.5407, -160.572, -92.6101, 54.7828
3.68802, 2, -37.0497, 0.663271, 20.5407, -160.572, -92.61, 54.7828
3.69611, 2, -37.0497, 0.663273, 20.5407, -160.572, -92.61, 54.7828
3.70406, 2, -37.0497, 0.663271, 20.5407, -160.571, -92.61, 54.7829
3.71155, 2, -37.0497, 0.66326, 20.5407, -160.571, -92.6101, 54.7829
3.72042, 2, -37.0497, 0.66326, 20.5406, -160.571, -92.6101, 54.7829
3.72761, 4, -37.0497, 0.66326, 20.5406, -160.571, -92.6101, 54.7829
3.73612, 4, -37.0497, 0.663265, 20.5406, -160.571, -92.6102, 54.7829
3.74391, 4, -37.0496, 0.66327, 20.5406, -160.571, -92.6102, 54.7829
3.75202, 4, -37.0496, 0.663277, 20.5406, -160.571, -92.6101, 54.7829
3.75974, 4, -37.0496, 0.663279, 20.5406, -160.571, -92.6101, 54.7829
3.76811, 4, -37.0496, 0.663282, 20.5406, -160.571, -92.6101, 54.7829
3.77502, 4, -37.0496, 0.663282, 20.5406, -160.571, -92.6101, 54.7829
3.78414, 4, -37.0496, 0.663283, 20.5406, -160.571, -92.6101, 54.7829
3.79101, 4, -37.0495, 0.663275, 20.5406, -160.571, -92.6101, 54.7829
3.80028, 4, -37.0495, 0.663277, 20.5406, -160.571, -92.6101, 54.7829
3.80706, 4, -37.0495, 0.663279, 20.5406, -160.571, -92.6101, 54.7829
3.81651, 4, -37.0495, 0.663282, 20.5405, -160.571, -92.6101, 54.7829
3.82324, 4, -37.0495, 0.663282, 20.5405, -160.571, -92.6102, 54.7829
3.84955, 4, -37.0494, 0.663283, 20.5405, -160.571, -92.6102, 54.7829
3.85085, 4, -37.0494, 0.663283, 20.5405, -160.571, -92.6102, 54.7829
3.85299, 4, -37.0494, 0.663283, 20.5405, -160.571, -92.6102, 54.7829
3.85665, 4, -37.0493, 0.663283, 20.5405, -160.571, -92.6102, 54.783
3.86538, 4, -37.0492, 0.663283, 20.5405, -160.571, -92.6102, 54.7829
3.87101, 4, -37.0492, 0.663283, 20.5405, -160.571, -92.6102, 54.7829
3.88055, 4, -37.0492, 0.663283, 20.5405, -160.571, -92.6102, 54.7829
3.88939, 4, -37.0485, 0.663149, 20.5405, -160.571, -92.6102, 54.7829
3.89507, 4, -37.0459, 0.662285, 20.5407, -160.571, -92.6101, 54.783
3.90401, 4, -37.0407, 0.659878, 20.5414, -160.571, -92.6102, 54.7829
3.91206, 4, -37.0332, 0.655777, 20.5433, -160.571, -92.6102, 54.7829
3.91907, 4, -37.0246, 0.650276, 20.5469, -160.571, -92.6102, 54.7829
3.92807, 4, -37.0143, 0.643175, 20.553, -160.569, -92.6102, 54.7829
3.93601, 5, -37.0018, 0.63397, 20.5621, -160.567, -92.6102, 54.7829
3.94301, 5, -36.9877, 0.622842, 20.5741, -160.565, -92.6101, 54.7828
3.95103, 5, -36.9728, 0.610143, 20.5889, -160.562, -92.6099, 54.7827
3.96002, 5, -36.9566, 0.596108, 20.606, -160.558, -92.6097, 54.7826
3.96701, 5, -36.938, 0.580235, 20.6245, -160.554, -92.6095, 54.7826
3.97603, 5, -36.9168, 0.562346, 20.6444, -160.55, -92.6094, 54.7825
3.98402, 5, -36.8935, 0.543206, 20.6649, -160.546, -92.6092, 54.7824
3.99207, 5, -36.8687, 0.523697, 20.6854, -160.542, -92.609, 54.7823
4.00006, 5, -36.8433, 0.503765, 20.7062, -160.537, -92.6087, 54.7822
4.00803, 5, -36.8178, 0.48338, 20.7271, -160.532, -92.6083, 54.7821
4.017, 5, -36.792, 0.463119, 20.7479, -160.528, -92.608, 54.7819
4.02506, 5, -36.7663, 0.4429, 20.7689, -160.523, -92.6075, 54.7817
4.032, 5, -36.7407, 0.42251, 20.7898, -160.518, -92.607, 54.7815
4.04008, 5, -36.7153, 0.40229, 20.8108, -160.514, -92.6065, 54.7813
4.04801, 5, -36.6897, 0.382157, 20.8319, -160.509, -92.6059, 54.7811
4.05508, 5, -36.6642, 0.361961, 20.8528, -160.504, -92.6053, 54.7809
4.064, 5, -36.6385, 0.341997, 20.8739, -160.499, -92.6047, 54.7808
4.072, 5, -36.6129, 0.322097, 20.895, -160.494, -92.604, 54.7806
4.08008, 5, -36.5874, 0.302034, 20.916, -160.49, -92.6035, 54.7806
4.08801, 5, -36.562, 0.282102, 20.9372, -160.485, -92.6028, 54.7805
4.096, 5, -36.5366, 0.262007, 20.9583, -160.481, -92.6021, 54.7804
4.10407, 5, -36.5112, 0.241739, 20.9794, -160.476, -92.6015, 54.7803
4.11111, 5, -36.4858, 0.221517, 21.0004, -160.472, -92.6009, 54.7802
4.11925, 5, -36.4601, 0.201308, 21.0212, -160.468, -92.6002, 54.7801
4.12707, 5, -36.4343, 0.180975, 21.0422, -160.463, -92.5995, 54.7799
4.13502, 5, -36.4083, 0.160704, 21.0631, -160.459, -92.5989, 54.7798
4.14401, 5, -36.3823, 0.14053, 21.0841, -160.455, -92.5982, 54.7796
4.15208, 5, -36.3564, 0.120215, 21.1051, -160.451, -92.5976, 54.7794
4.16002, 5, -36.3305, 0.100056, 21.126, -160.446, -92.5969, 54.7792
4.16722, 5, -36.3047, 0.0800954, 21.1469, -160.442, -92.5962, 54.7789
4.17526, 5, -36.2789, 0.0599849, 21.1678, -160.438, -92.5956, 54.7786
4.18335, 5, -36.253, 0.0399518, 21.1887, -160.434, -92.595, 54.7782
4.19134, 5, -36.2269, 0.0200627, 21.2097, -160.429, -92.5943, 54.7779
4.19957, 5, -36.2011, 3.1813E-05, 21.2306, -160.425, -92.5937, 54.7775
4.20807, 5, -36.1753, -0.0200174, 21.2514, -160.421, -92.5931, 54.7771
4.21616, 5, -36.1496, -0.0399408, 21.2723, -160.416, -92.5924, 54.7766
4.22356, 5, -36.124, -0.0599581, 21.2932, -160.412, -92.5918, 54.7762
4.23211, 5, -36.0981, -0.0800377, 21.3141, -160.407, -92.5911, 54.7756
4.24024, 5, -36.072, -0.0999739, 21.3349, -160.403, -92.5905, 54.7752
4.24775, 5, -36.0589, -0.109981, 21.3452, -160.398, -92.5899, 54.7747
4.25602, 5, -36.0199, -0.140157, 21.3763, -160.394, -92.5893, 54.7742
4.26409, 5, -35.9938, -0.160124, 21.397, -160.389, -92.5887, 54.7738
4.27099, 5, -35.9807, -0.170072, 21.4073, -160.386, -92.5884, 54.7735
4.28019, 5, -35.9417, -0.200078, 21.4386, -160.379, -92.5875, 54.7729
4.28702, 5, -35.9286, -0.210019, 21.4489, -160.377, -92.5871, 54.7727
4.29633, 5, -35.8893, -0.239731, 21.4799, -160.369, -92.5863, 54.7722
4.30305, 5, -35.8763, -0.249718, 21.4903, -160.367, -92.586, 54.772
4.31234, 5, -35.8372, -0.279433, 21.5211, -160.359, -92.585, 54.7714
4.31899, 5, -35.8241, -0.289253, 21.5314, -160.357, -92.5847, 54.7712
4.32853, 5, -35.7852, -0.319057, 21.5624, -160.35, -92.5838, 54.7707
4.33655, 5, -35.759, -0.338854, 21.5829, -160.345, -92.5833, 54.7705
4.34489, 5, -35.7329, -0.358616, 21.6036, -160.34, -92.5827, 54.7703
4.35256, 5, -35.707, -0.378579, 21.6242, -160.335, -92.5821, 54.7701
4.36092, 5, -35.6809, -0.398388, 21.6447, -160.331, -92.5815, 54.7699
4.3678, 5, -35.6679, -0.408248, 21.655, -160.329, -92.5812, 54.7698
4.37499, 5, -35.6417, -0.428084, 21.6754, -160.324, -92.5806, 54.7696
4.384, 5, -35.6154, -0.447911, 21.6957, -160.32, -92.5801, 54.7694
4.39282, 5, -35.5891, -0.467592, 21.7161, -160.315, -92.5795, 54.7694
4.4, 5, -35.5628, -0.487395, 21.7365, -160.311, -92.5789, 54.7692
4.408, 5, -35.5366, -0.507211, 21.7569, -160.306, -92.5783, 54.7691
4.41608, 5, -35.5104, -0.52682, 21.7773, -160.302, -92.5777, 54.769
4.424, 5, -35.4842, -0.546438, 21.7976, -160.297, -92.5771, 54.769
4.432, 5, -35.4579, -0.566127, 21.8179, -160.293, -92.5765, 54.7689
4.44, 5, -35.4316, -0.585633, 21.8381, -160.288, -92.5759, 54.7689
4.44705, 5, -35.4053, -0.605192, 21.8583, -160.284, -92.5754, 54.7689
4.45607, 5, -35.379, -0.624935, 21.8786, -160.279, -92.5748, 54.7689
4.464, 5, -35.3528, -0.644485, 21.8987, -160.275, -92.5742, 54.7688
4.47201, 5, -35.3265, -0.663968, 21.9189, -160.27, -92.5736, 54.7689
4.48007, 5, -35.3001, -0.683684, 21.9392, -160.265, -92.573, 54.7688
4.488, 5, -35.2736, -0.703288, 21.9592, -160.261, -92.5725, 54.7688
4.49599, 5, -35.2472, -0.722774, 21.9795, -160.256, -92.5719, 54.7688
4.50412, 5, -35.2207, -0.742412, 21.9996, -160.251, -92.5712, 54.7688
4.51201, 5, -35.1942, -0.761959, 22.0195, -160.246, -92.5706, 54.7689
4.52098, 5, -35.1677, -0.781269, 22.0395, -160.241, -92.5701, 54.7689
4.52807, 5, -35.1411, -0.800721, 22.0595, -160.236, -92.5695, 54.7689
4.536, 5, -35.1146, -0.820158, 22.0795, -160.23, -92.5689, 54.7689
4.544, 5, -35.0882, -0.83942, 22.0996, -160.225, -92.5684, 54.7689
4.55209, 5, -35.0617, -0.858866, 22.1195, -160.22, -92.5677, 54.7689
4.55905, 5, -35.0353, -0.878419, 22.1394, -160.215, -92.5671, 54.769
4.56805, 5, -35.009, -0.897744, 22.1593, -160.21, -92.5665, 54.769
4.576, 5, -34.9824, -0.917102, 22.179, -160.205, -92.566, 54.769
4.584, 5, -34.9559, -0.936602, 22.1989, -160.2, -92.5654, 54.769
4.59206, 5, -34.9296, -0.955943, 22.2187, -160.195, -92.5648, 54.7691
4.60062, 5, -34.9031, -0.975244, 22.2385, -160.191, -92.5642, 54.7691
4.60807, 5, -34.8766, -0.994679, 22.2583, -160.186, -92.5636, 54.7691
4.61509, 5, -34.8501, -1.01399, 22.2781, -160.181, -92.563, 54.7692
4.62318, 5, -34.8232, -1.03308, 22.2978, -160.177, -92.5624, 54.7692
4.63376, 5, -34.7965, -1.05233, 22.3176, -160.172, -92.5618, 54.7693
4.64098, 5, -34.77, -1.07159, 22.3373, -160.167, -92.5612, 54.7694
4.648, 5, -34.7433, -1.09072, 22.3569, -160.163, -92.5607, 54.7694
4.65601, 5, -34.7167, -1.10994, 22.3765, -160.158, -92.56, 54.7694
4.66413, 5, -34.69, -1.12926, 22.3961, -160.154, -92.5595, 54.7695
4.67114, 5, -34.6631, -1.14841, 22.4158, -160.149, -92.5588, 54.7697
4.68009, 5, -34.6363, -1.16756, 22.4354, -160.145, -92.5582, 54.7698
4.68801, 5, -34.6097, -1.18681, 22.455, -160.14, -92.5575, 54.7699
4.69599, 5, -34.583, -1.20592, 22.4745, -160.136, -92.557, 54.7701
4.70432, 5, -34.5563, -1.22511, 22.494, -160.131, -92.5564, 54.7703
4.71144, 5, -34.5297, -1.24437, 22.5134, -160.126, -92.5557, 54.7705
4.71955, 5, -34.5028, -1.26344, 22.5329, -160.121, -92.5551, 54.7709
4.72846, 5, -34.4762, -1.28244, 22.5524, -160.116, -92.5545, 54.7712
4.73557, 5, -34.4494, -1.30154, 22.5718, -160.111, -92.5539, 54.7717
4.74415, 5, -34.4226, -1.3205, 22.5913, -160.106, -92.5533, 54.7722
4.75256, 5, -34.3957, -1.33939, 22.6108, -160.101, -92.5527, 54.7728
4.75999, 5, -34.3687, -1.35843, 22.6301, -160.096, -92.5521, 54.7735
4.76702, 5, -34.3552, -1.36798, 22.6399, -160.093, -92.5517, 54.7739
4.77689, 5, -34.3148, -1.39635, 22.669, -160.085, -92.5508, 54.7753
4.7841, 5, -34.288, -1.41528, 22.6882, -160.08, -92.5501, 54.7762
4.79107, 5, -34.2745, -1.42483, 22.6979, -160.077, -92.5498, 54.7767
4.80102, 5, -34.2342, -1.45323, 22.7268, -160.069, -92.5489, 54.7783
4.80822, 5, -34.2071, -1.47206, 22.746, -160.064, -92.5483, 54.7796
4.81497, 5, -34.1935, -1.48157, 22.7556, -160.061, -92.548, 54.7802
4.82527, 5, -34.1531, -1.50999, 22.7846, -160.054, -92.547, 54.782
4.83103, 5, -34.1397, -1.51935, 22.7942, -160.051, -92.5467, 54.7826
4.84058, 5, -34.0993, -1.54764, 22.823, -160.044, -92.5457, 54.7844
4.84977, 5, -34.0725, -1.56644, 22.8421, -160.039, -92.5451, 54.7857
4.85975, 5, -34.0454, -1.58509, 22.8612, -160.034, -92.5444, 54.7871
4.86459, 5, -34.0183, -1.60394, 22.8804, -160.029, -92.5438, 54.7884
4.87341, 5, -34.0049, -1.62281, 22.8995, -160.024, -92.5431, 54.7897
4.87905, 5, -33.9778, -1.63214, 22.9091, -160.022, -92.5428, 54.7904
4.88857, 5, -33.9507, -1.65075, 22.9283, -160.017, -92.5422, 54.7923
4.89859, 5, -33.9101, -1.67894, 22.9569, -160.01, -92.5412, 54.7937
4.90403, 5, -33.8965, -1.68826, 22.9664, -160.007, -92.5409, 54.7944
4.91202, 5, -33.8692, -1.70685, 22.9855, -160.002, -92.5403, 54.7958
4.91999, 5, -33.8422, -1.72558, 23.0045, -159.997, -92.5396, 54.7972
4.92697, 5, -33.8151, -1.7444, 23.0234, -159.993, -92.5389, 54.7985
4.93598, 5, -33.7879, -1.76301, 23.0423, -159.988, -92.5383, 54.7999
4.94397, 5, -33.7607, -1.78158, 23.0613, -159.983, -92.5376, 54.8012
4.95202, 5, -33.7335, -1.80036, 23.0801, -159.977, -92.5369, 54.8025
4.959, 5, -33.7062, -1.81901, 23.0991, -159.972, -92.5362, 54.8039
4.96798, 5, -33.6791, -1.83755, 23.1179, -159.967, -92.5357, 54.8052
4.98175, 5, -33.625, -1.87495, 23.1557, -159.957, -92.5343, 54.8081
4.98405, 5, -33.625, -1.87495, 23.1557, -159.957, -92.5343, 54.8081
4.99197, 5, -33.5978, -1.89338, 23.1744, -159.951, -92.5337, 54.8094
4.99898, 5, -33.5704, -1.91192, 23.1931, -159.946, -92.533, 54.8108
5.00805, 5, -33.5432, -1.93056, 23.2119, -159.94, -92.5323, 54.8122
5.01601, 5, -33.5159, -1.94903, 23.2306, -159.935, -92.5316, 54.8136
5.02397, 5, -33.4886, -1.96758, 23.2493, -159.929, -92.531, 54.815
5.03297, 5, -33.4613, -1.98634, 23.2682, -159.924, -92.5303, 54.8164
5.04001, 5, -33.434, -2.00493, 23.2868, -159.919, -92.5296, 54.8177
5.04798, 5, -33.4065, -2.02354, 23.3056, -159.913, -92.5289, 54.8191
5.05599, 5, -33.3793, -2.04244, 23.3245, -159.908, -92.5281, 54.8203
5.06399, 5, -33.3521, -2.06127, 23.3432, -159.902, -92.5272, 54.8215
5.07214, 5, -33.3249, -2.08013, 23.362, -159.897, -92.5261, 54.8224
5.07997, 5, -33.2979, -2.09933, 23.3811, -159.892, -92.5249, 54.8232
5.08801, 6, -33.2707, -2.11857, 23.4003, -159.886, -92.5234, 54.8238
5.09597, 6, -33.2436, -2.13782, 23.4195, -159.881, -92.5218, 54.8241
5.10313, 6, -33.2168, -2.15738, 23.4391, -159.875, -92.52, 54.8243
5.11108, 6, -33.1901, -2.17716, 23.4587, -159.869, -92.518, 54.8245
5.11931, 6, -33.1634, -2.19699, 23.4784, -159.863, -92.5159, 54.8245
5.12711, 6, -33.1368, -2.21713, 23.4982, -159.857, -92.5135, 54.8244
5.13497, 6, -33.1102, -2.23751, 23.518, -159.851, -92.5109, 54.8243
5.14398, 6, -33.0836, -2.25794, 23.5382, -159.844, -92.5081, 54.8242
5.15204, 6, -33.0573, -2.27861, 23.5585, -159.838, -92.5051, 54.8239
5.16002, 6, -33.031, -2.29948, 23.5789, -159.831, -92.5021, 54.8235
5.16798, 6, -33.0047, -2.32041, 23.5995, -159.824, -92.4987, 54.823
5.1761, 6, -32.9785, -2.34175, 23.6202, -159.816, -92.4953, 54.8223
5.18318, 6, -32.9524, -2.36327, 23.6411, -159.809, -92.4916, 54.8213
5.19242, 6, -32.9262, -2.38482, 23.6621, -159.801, -92.4879, 54.8203
5.2003, 7, -32.9002, -2.40663, 23.6831, -159.792, -92.484, 54.8194
5.20746, 7, -32.8744, -2.4286, 23.7043, -159.784, -92.4799, 54.818
5.2156, 7, -32.8486, -2.45066, 23.7257, -159.776, -92.4755, 54.816
5.2244, 7, -32.8229, -2.47312, 23.7472, -159.767, -92.4711, 54.8133
5.23211, 7, -32.7972, -2.49571, 23.769, -159.759, -92.4665, 54.8101
5.24254, 7, -32.7716, -2.51838, 23.7908, -159.75, -92.4617, 54.8065
5.24821, 7, -32.7588, -2.54137, 23.8127, -159.742, -92.4567, 54.8024
5.2555, 7, -32.7334, -2.55291, 23.8237, -159.738, -92.4516, 54.7979
5.264, 7, -32.6955, -2.58791, 23.8569, -159.725, -92.4462, 54.7932
5.27096, 7, -32.6829, -2.59969, 23.8681, -159.721, -92.4435, 54.7907
5.27896, 7, -32.6578, -2.62331, 23.8906, -159.712, -92.4379, 54.7855
5.28811, 7, -32.62, -2.65914, 23.9245, -159.698, -92.429, 54.7771
5.29512, 7, -32.6075, -2.67112, 23.9359, -159.694, -92.426, 54.7743
5.30294, 7, -32.5826, -2.69525, 23.9588, -159.684, -92.4196, 54.7683
5.31262, 8, -32.5454, -2.73213, 23.9935, -159.67, -92.4096, 54.7589
5.32026, 8, -32.5205, -2.75671, 24.0166, -159.66, -92.4026, 54.7522
5.32702, 8, -32.5082, -2.76914, 24.0282, -159.655, -92.399, 54.7488
5.33655, 8, -32.4711, -2.80674, 24.0633, -159.639, -92.3876, 54.7381
5.34701, 8, -32.4465, -2.83195, 24.0871, -159.628, -92.3797, 54.7307
5.35252, 8, -32.4221, -2.85748, 24.1109, -159.618, -92.3715, 54.7232
5.36073, 8, -32.3977, -2.88305, 24.1347, -159.607, -92.363, 54.7153
5.36865, 8, -32.3734, -2.90886, 24.1588, -159.597, -92.3545, 54.7071
5.37655, 8, -32.3614, -2.92185, 24.1829, -159.587, -92.3459, 54.6988
5.38461, 8, -32.3371, -2.94799, 24.1951, -159.581, -92.3416, 54.69
5.39333, 8, -32.3129, -2.9744, 24.2196, -159.571, -92.333, 54.6855
5.39895, 8, -32.2889, -3.00078, 24.2441, -159.56, -92.3243, 54.6764
5.40798, 8, -32.2651, -3.02751, 24.2689, -159.549, -92.3155, 54.6669
5.41766, 9, -32.2412, -3.05431, 24.2937, -159.537, -92.3065, 54.6523
5.42401, 9, -32.2174, -3.08137, 24.3188, -159.526, -92.2975, 54.6474
5.43099, 9, -32.1938, -3.10872, 24.3439, -159.514, -92.2882, 54.6373
5.43996, 9, -32.1701, -3.1361, 24.369, -159.502, -92.2788, 54.6274
5.44695, 9, -32.1465, -3.16376, 24.3944, -159.489, -92.2691, 54.6173
5.45596, 9, -32.1231, -3.19158, 24.42, -159.477, -92.259, 54.607
5.46452, 9, -32.0997, -3.21969, 24.4458, -159.465, -92.2485, 54.5968
5.47196, 9, -32.0763, -3.24789, 24.4715, -159.453, -92.2377, 54.5864
5.47996, 9, -32.053, -3.27637, 24.4974, -159.44, -92.2265, 54.5759
5.49018, 9, -32.0299, -3.30502, 24.5235, -159.428, -92.2151, 54.5596
5.49495, 9, -32.0066, -3.33388, 24.5498, -159.416, -92.2037, 54.5541
5.50397, 9, -31.9835, -3.36295, 24.5761, -159.403, -92.1922, 54.5429
5.51382, 9, -31.9607, -3.39215, 24.616, -159.383, -92.1748, 54.5256
5.51932, 9, -31.9379, -3.42159, 24.6293, -159.377, -92.169, 54.5196
5.52792, 10, -31.9152, -3.45128, 24.6563, -159.363, -92.1573, 54.5073
5.53676, 10, -31.8926, -3.48115, 24.6832, -159.349, -92.1455, 54.4947
5.54295, 10, -31.87, -3.51116, 24.7102, -159.335, -92.1334, 54.4818
5.55196, 10, -31.8473, -3.54139, 24.7374, -159.322, -92.121, 54.4685
5.56312, 10, -31.8136, -3.58718, 24.7787, -159.301, -92.1016, 54.4482
5.56695, 10, -31.8025, -3.60251, 24.7924, -159.294, -92.0949, 54.4414
5.57597, 10, -31.7803, -3.63328, 24.82, -159.281, -92.0812, 54.4278
5.58404, 10, -31.7581, -3.6643, 24.8478, -159.267, -92.0674, 54.4143
5.59196, 10, -31.7361, -3.69555, 24.8758, -159.253, -92.0537, 54.4007
5.59996, 10, -31.7141, -3.727, 24.9038, -159.238, -92.0398, 54.3869
5.60802, 10, -31.692, -3.7585, 24.9321, -159.223, -92.0261, 54.3729
5.6161, 10, -31.67, -3.79023, 24.9605, -159.208, -92.0124, 54.3588
5.62896, 10, -31.6371, -3.83837, 25.0034, -159.186, -91.9915, 54.3371
5.63191, 10, -31.6261, -3.85448, 25.0177, -159.178, -91.9844, 54.3297
5.63996, 11, -31.6044, -3.88681, 25.0464, -159.163, -91.9699, 54.3144
5.64802, 11, -31.5828, -3.91936, 25.0754, -159.148, -91.9549, 54.2988
5.65596, 11, -31.5613, -3.95223, 25.1046, -159.133, -91.9395, 54.2828
5.66398, 11, -31.5396, -3.98526, 25.1337, -159.118, -91.9238, 54.2666
5.67114, 11, -31.5181, -4.01845, 25.163, -159.102, -91.9081, 54.2504
5.67914, 11, -31.4967, -4.0519, 25.1926, -159.086, -91.8925, 54.2342
5.68749, 11, -31.4754, -4.08562, 25.2223, -159.07, -91.8769, 54.2179
5.69603, 11, -31.454, -4.11949, 25.2521, -159.053, -91.8612, 54.2016
5.70398, 11, -31.4329, -4.15351, 25.282, -159.037, -91.8453, 54.1851
5.712, 11, -31.412, -4.18779, 25.3122, -159.021, -91.829, 54.1683
5.7201, 11, -31.3909, -4.22233, 25.3424, -159.005, -91.8123, 54.1513
5.72805, 11, -31.3699, -4.25699, 25.3727, -158.989, -91.795, 54.1338
5.73631, 11, -31.3491, -4.29178, 25.4032, -158.972, -91.7775, 54.1158
5.74483, 12, -31.3284, -4.32687, 25.434, -158.955, -91.7601, 54.0973
5.75206, 12, -31.3077, -4.36216, 25.4648, -158.938, -91.7427, 54.0787
5.76013, 12, -31.2871, -4.39764, 25.4956, -158.92, -91.7254, 54.0601
5.76694, 12, -31.2769, -4.41542, 25.5112, -158.911, -91.7168, 54.0508
5.776, 12, -31.2465, -4.46919, 25.5581, -158.886, -91.6905, 54.0231
5.78519, 12, -31.226, -4.5052, 25.5894, -158.868, -91.6725, 54.0045
5.79099, 12, -31.2158, -4.52324, 25.6052, -158.86, -91.6633, 53.9952
5.80017, 12, -31.1855, -4.57783, 25.6528, -158.833, -91.6351, 53.9666
5.80694, 12, -31.1755, -4.59612, 25.6687, -158.824, -91.6256, 53.9569
5.81624, 12, -31.1453, -4.65119, 25.7164, -158.797, -91.5974, 53.9269
5.82294, 12, -31.1353, -4.66965, 25.7325, -158.788, -91.588, 53.9167
5.83416, 12, -31.1054, -4.72544, 25.7809, -158.76, -91.5596, 53.8859
5.84184, 12, -31.0856, -4.76291, 25.8131, -158.741, -91.5403, 53.8654
5.84859, 12, -31.0657, -4.80062, 25.8456, -158.723, -91.5205, 53.845
5.85806, 13, -31.0458, -4.83856, 25.8783, -158.705, -91.5001, 53.8244
5.86455, 13, -31.0261, -4.87661, 25.9111, -158.687, -91.4796, 53.8036
5.87254, 13, -31.0065, -4.91492, 25.944, -158.668, -91.4592, 53.7825
5.88135, 13, -30.9967, -4.93421, 25.9606, -158.648, -91.4389, 53.761
5.88853, 13, -30.9772, -4.97291, 25.9938, -158.639, -91.4288, 53.7389
5.89594, 13, -30.9579, -5.01175, 26.0271, -158.619, -91.4084, 53.7278
5.90395, 13, -30.9387, -5.05079, 26.0605, -158.6, -91.3876, 53.7055
5.91099, 13, -30.9194, -5.09005, 26.0942, -158.581, -91.3663, 53.6832
5.92109, 13, -30.8906, -5.14922, 26.1448, -158.552, -91.3337, 53.6498
5.927, 13, -30.881, -5.16907, 26.1617, -158.542, -91.323, 53.6386
5.93601, 13, -30.862, -5.20889, 26.1958, -158.522, -91.3014, 53.6159
5.94396, 13, -30.843, -5.24879, 26.2301, -158.501, -91.2798, 53.5928
5.95194, 13, -30.8241, -5.28892, 26.2644, -158.481, -91.258, 53.5691
5.96129, 13, -30.8054, -5.32937, 26.2989, -158.461, -91.2244, 53.533
5.97002, 14, -30.7775, -5.39021, 26.3509, -158.431, -91.2013, 53.509
5.97603, 14, -30.7682, -5.4106, 26.3682, -158.421, -91.1898, 53.4972
5.98396, 14, -30.7496, -5.45166, 26.4031, -158.4, -91.1671, 53.4734
5.99194, 14, -30.731, -5.49286, 26.4383, -158.38, -91.1443, 53.4498
6.00001, 14, -30.7125, -5.53427, 26.4734, -158.358, -91.1216, 53.4256
6.0086, 14, -30.6941, -5.57604, 26.5086, -158.337, -91.0984, 53.4011
6.01494, 14, -30.6757, -5.61791, 26.5441, -158.316, -91.0745, 53.3758
6.02398, 14, -30.6576, -5.65991, 26.5797, -158.295, -91.0503, 53.35
6.03274, 14, -30.6395, -5.70225, 26.6155, -158.274, -91.0262, 53.3242
6.03898, 14, -30.6215, -5.74481, 26.6515, -158.252, -91.0021, 53.2986
6.04797, 14, -30.6034, -5.78744, 26.6875, -158.23, -90.9781, 53.2731
6.05699, 14, -30.5854, -5.83033, 26.7236, -158.208, -90.9536, 53.2474
6.06313, 14, -30.5675, -5.87342, 26.76, -158.186, -90.9284, 53.2213
6.07596, 15, -30.5409, -5.93832, 26.8148, -158.154, -90.8904, 53.1811
6.08074, 15, -30.532, -5.96005, 26.833, -158.143, -90.8779, 53.1675
6.08707, 15, -30.5145, -6.00361, 26.8699, -158.121, -90.8529, 53.1403
6.096, 15, -30.497, -6.04739, 26.9069, -158.098, -90.8278, 53.1133
6.10718, 15, -30.471, -6.11346, 26.9625, -158.064, -90.7892, 53.0727
6.11103, 15, -30.4623, -6.13557, 26.9812, -158.052, -90.7761, 53.0591
6.11994, 15, -30.4448, -6.17997, 27.0186, -158.029, -90.7498, 53.0315
6.12801, 15, -30.4274, -6.22456, 27.056, -158.007, -90.7238, 53.0031
6.13596, 15, -30.4103, -6.26946, 27.0936, -157.984, -90.6976, 52.9744
6.14394, 15, -30.3932, -6.31457, 27.1314, -157.961, -90.6713, 52.946
6.152, 15, -30.3761, -6.35985, 27.1692, -157.937, -90.6441, 52.9176
6.15996, 15, -30.3592, -6.40546, 27.2072, -157.913, -90.6166, 52.889
6.16794, 15, -30.3424, -6.45128, 27.2455, -157.889, -90.5893, 52.8602
6.17601, 15, -30.3257, -6.49725, 27.2838, -157.866, -90.5621, 52.8308
6.1851, 16, -30.309, -6.54348, 27.3223, -157.842, -90.535, 52.8009
6.19406, 16, -30.2922, -6.58985, 27.361, -157.819, -90.5073, 52.771
6.19995, 16, -30.2755, -6.63642, 27.3998, -157.794, -90.4789, 52.7416
6.20826, 16, -30.2589, -6.68325, 27.4388, -157.77, -90.4507, 52.7119
6.21538, 16, -30.2424, -6.73009, 27.4779, -157.745, -90.4226, 52.682
6.22346, 16, -30.226, -6.77714, 27.5171, -157.721, -90.3945, 52.6516
6.23231, 16, -30.2096, -6.82449, 27.5566, -157.697, -90.3658, 52.6207
6.23949, 16, -30.1934, -6.87188, 27.5962, -157.672, -90.3363, 52.5896
6.2481, 16, -30.1772, -6.91955, 27.636, -157.647, -90.3069, 52.5589
6.25653, 16, -30.1611, -6.96743, 27.6759, -157.622, -90.2778, 52.5282
6.26395, 16, -30.145, -7.01554, 27.7158, -157.597, -90.2486, 52.4973
6.27265, 16, -30.1289, -7.06395, 27.756, -157.572, -90.219, 52.4657
6.28042, 16, -30.1128, -7.11253, 27.7963, -157.547, -90.1887, 52.4337
6.28892, 16, -30.0969, -7.16142, 27.8365, -157.522, -90.1585, 52.4017
6.29692, 17, -30.0811, -7.21058, 27.8771, -157.496, -90.1285, 52.3701
6.30415, 17, -30.0654, -7.25986, 27.9178, -157.47, -90.0985, 52.3383
6.31097, 17, -30.0575, -7.28459, 27.9382, -157.457, -90.0832, 52.3224
6.32113, 17, -30.0342, -7.35914, 27.9996, -157.418, -90.0364, 52.2736
6.32939, 17, -30.0188, -7.40906, 28.0406, -157.392, -90.0055, 52.2403
6.33497, 17, -30.0112, -7.43403, 28.0612, -157.379, -89.9901, 52.2237
6.34504, 17, -29.9881, -7.50917, 28.1235, -157.339, -89.9438, 52.1742
6.35098, 17, -29.9804, -7.53433, 28.1442, -157.326, -89.928, 52.1578
6.36104, 17, -29.9574, -7.61001, 28.2067, -157.286, -89.8801, 52.1077
6.36933, 17, -29.9422, -7.66069, 28.2486, -157.26, -89.8485, 52.0737
6.37498, 17, -29.9347, -7.68611, 28.2696, -157.247, -89.8327, 52.0566
6.38458, 17, -29.9196, -7.76274, 28.3328, -157.206, -89.7847, 52.0056
6.39244, 17, -29.9045, -7.78841, 28.3539, -157.192, -89.7683, 51.9886
6.39993, 17, -29.8896, -7.83989, 28.3962, -157.165, -89.7353, 51.9545
6.40879, 18, -29.8749, -7.89165, 28.4387, -157.138, -89.6867, 51.9024
6.41497, 18, -29.8601, -7.94367, 28.4812, -157.111, -89.6706, 51.8847
6.42393, 18, -29.8454, -7.99591, 28.5239, -157.083, -89.6377, 51.8493
6.43193, 18, -29.8307, -8.04833, 28.5668, -157.054, -89.6042, 51.8145
6.43993, 18, -29.816, -8.10097, 28.6098, -157.027, -89.5709, 51.7794
6.44804, 18, -29.8015, -8.15381, 28.6531, -156.999, -89.5379, 51.7439
6.45739, 18, -29.7797, -8.23318, 28.718, -156.957, -89.4874, 51.6896
6.46397, 18, -29.7725, -8.25975, 28.7398, -156.943, -89.4701, 51.6714
6.47195, 18, -29.7582, -8.313, 28.7836, -156.914, -89.4357, 51.6355
6.47993, 18, -29.7438, -8.36625, 28.8273, -156.886, -89.4017, 51.5995
6.48799, 18, -29.7297, -8.41976, 28.8713, -156.857, -89.3678, 51.5635
6.49491, 18, -29.7156, -8.47343, 28.9154, -156.829, -89.333, 51.5267
6.50407, 18, -29.7014, -8.52739, 28.9596, -156.8, -89.2979, 51.4897
6.51118, 19, -29.6874, -8.58156, 29.004, -156.771, -89.2633, 51.453
6.51892, 19, -29.6733, -8.63602, 29.0484, -156.742, -89.2286, 51.4165
6.52802, 19, -29.6592, -8.69079, 29.093, -156.713, -89.1931, 51.3798
6.53691, 19, -29.6453, -8.74577, 29.1377, -156.684, -89.1573, 51.3424
6.54291, 19, -29.6314, -8.80098, 29.1824, -156.655, -89.1219, 51.3047
6.55193, 19, -29.6177, -8.85641, 29.2275, -156.625, -89.0866, 51.2676
6.55998, 19, -29.6041, -8.91201, 29.2726, -156.595, -89.0508, 51.2305
6.56792, 19, -29.5906, -8.96768, 29.3179, -156.566, -89.0145, 51.1929
6.57595, 19, -29.5771, -9.02354, 29.3633, -156.536, -88.9786, 51.1545
6.58398, 19, -29.5638, -9.07955, 29.4089, -156.506, -88.9427, 51.1159
6.59194, 19, -29.5505, -9.13557, 29.4548, -156.475, -88.9062, 51.0774
6.60023, 19, -29.5373, -9.1918, 29.5006, -156.445, -88.8692, 51.039
6.60874, 19, -29.5241, -9.24827, 29.5467, -156.415, -88.8326, 51.0002
6.61592, 19, -29.5108, -9.30489, 29.5929, -156.385, -88.7962, 50.9607
6.62477, 20, -29.4976, -9.36179, 29.6393, -156.353, -88.7592, 50.9211
6.63194, 20, -29.4846, -9.41898, 29.6857, -156.322, -88.7217, 50.8819
6.63994, 20, -29.4716, -9.47644, 29.7322, -156.291, -88.6845, 50.8424
6.6509, 20, -29.4523, -9.56299, 29.8022, -156.245, -88.6286, 50.7821
6.65598, 20, -29.4458, -9.59198, 29.8256, -156.229, -88.6096, 50.7618
6.66392, 20, -29.433, -9.65019, 29.8724, -156.198, -88.5713, 50.7217
6.67194, 20, -29.4203, -9.70842, 29.9195, -156.166, -88.5336, 50.6816
6.67992, 20, -29.4078, -9.76687, 29.9668, -156.135, -88.4959, 50.6414
6.68797, 20, -29.3953, -9.82537, 30.0141, -156.104, -88.4575, 50.6005
6.6961, 20, -29.3828, -9.88402, 30.0616, -156.072, -88.4187, 50.5594
6.70325, 20, -29.3704, -9.94279, 30.1094, -156.039, -88.3804, 50.5189
6.71139, 20, -29.3579, -10.0017, 30.1572, -156.007, -88.3418, 50.4781
6.71938, 20, -29.3455, -10.0608, 30.2051, -155.976, -88.3024, 50.4371
6.72824, 20, -29.3331, -10.1201, 30.2532, -155.943, -88.2631, 50.3953
6.73607, 21, -29.3209, -10.1798, 30.3015, -155.91, -88.2242, 50.3538
6.74402, 21, -29.3087, -10.2395, 30.3497, -155.878, -88.1851, 50.3126
6.75155, 21, -29.2965, -10.2996, 30.3981, -155.845, -88.1452, 50.2711
6.7601, 21, -29.2845, -10.3599, 30.4466, -155.813, -88.1057, 50.2291
6.76809, 21, -29.2723, -10.4203, 30.4951, -155.78, -88.0664, 50.187
6.77492, 21, -29.2663, -10.4506, 30.5195, -155.763, -88.0466, 50.1662
6.78396, 21, -29.2486, -10.5417, 30.5929, -155.714, -87.9857, 50.1038
6.79202, 21, -29.2368, -10.6025, 30.642, -155.681, -87.9459, 50.0616
6.79891, 21, -29.2309, -10.633, 30.6666, -155.664, -87.926, 50.0402
6.80818, 21, -29.2133, -10.7246, 30.7406, -155.613, -87.8649, 49.9764
6.81491, 21, -29.2074, -10.7552, 30.7654, -155.596, -87.8444, 49.9554
6.82454, 21, -29.1896, -10.8472, 30.8398, -155.546, -87.7838, 49.8916
6.83266, 21, -29.178, -10.9088, 30.8897, -155.513, -87.7428, 49.8483
6.8404, 21, -29.1664, -10.9707, 30.9396, -155.478, -87.7011, 49.8053
6.84851, 22, -29.1549, -11.0327, 30.9897, -155.444, -87.6601, 49.7625
6.8565, 22, -29.1434, -11.0951, 31.0397, -155.41, -87.6192, 49.7196
6.86452, 22, -29.1321, -11.1576, 31.09, -155.376, -87.5773, 49.676
6.87314, 22, -29.1208, -11.2202, 31.1402, -155.34, -87.5353, 49.6322
6.87896, 22, -29.1151, -11.2516, 31.1654, -155.323, -87.5146, 49.6105
6.88861, 22, -29.0985, -11.346, 31.2413, -155.271, -87.4518, 49.5456
6.89591, 22, -29.093, -11.3775, 31.2667, -155.254, -87.4305, 49.5238
6.90391, 22, -29.082, -11.4407, 31.3175, -155.219, -87.3881, 49.4795
6.91196, 22, -29.071, -11.504, 31.3685, -155.184, -87.3464, 49.4354
6.91992, 22, -29.0602, -11.5674, 31.4197, -155.148, -87.3041, 49.3916
6.92797, 22, -29.0493, -11.631, 31.4709, -155.114, -87.2613, 49.3477
6.93491, 22, -29.0383, -11.6949, 31.5223, -155.078, -87.219, 49.3032
6.94391, 22, -29.0275, -11.7589, 31.5738, -155.042, -87.1765, 49.2585
6.95211, 23, -29.0169, -11.8231, 31.6254, -155.006, -87.1331, 49.2144
6.95891, 23, -29.0061, -11.8875, 31.677, -154.971, -87.09, 49.1701
6.96797, 23, -28.9954, -11.9521, 31.7288, -154.935, -87.0475, 49.1253
6.97825, 23, -28.9795, -12.0493, 31.8066, -154.881, -86.9821, 49.058
6.9829, 23, -28.9742, -12.0818, 31.8326, -154.863, -86.9604, 49.0359
6.99191, 23, -28.9636, -12.1468, 31.8847, -154.827, -86.9174, 48.9914
6.99898, 23, -28.9531, -12.2119, 31.937, -154.791, -86.8738, 48.9465
7.00804, 23, -28.9428, -12.2772, 31.9894, -154.754, -86.8294, 48.901
7.01591, 23, -28.9325, -12.3426, 32.0419, -154.717, -86.7856, 48.856
7.0249, 23, -28.9223, -12.4082, 32.0946, -154.681, -86.7418, 48.8111
7.0309, 23, -28.9122, -12.474, 32.1474, -154.644, -86.6971, 48.7656
7.03991, 23, -28.9021, -12.5399, 32.2003, -154.607, -86.6526, 48.7199
7.04813, 23, -28.892, -12.606, 32.2533, -154.569, -86.6086, 48.6744
7.05596, 23, -28.8818, -12.6722, 32.3065, -154.533, -86.5636, 48.6292
7.06392, 24, -28.8718, -12.7387, 32.3596, -154.495, -86.5186, 48.5835
7.07195, 24, -28.8618, -12.8052, 32.4129, -154.457, -86.4744, 48.5372
7.07992, 24, -28.8519, -12.8719, 32.4663, -154.42, -86.4294, 48.4915
7.08797, 24, -28.8419, -12.9387, 32.5197, -154.382, -86.384, 48.4459
7.09591, 24, -28.832, -13.0057, 32.5733, -154.344, -86.3393, 48.3996
7.10398, 24, -28.8223, -13.0728, 32.6271, -154.306, -86.2941, 48.353
7.11191, 24, -28.8124, -13.1402, 32.681, -154.268, -86.2481, 48.307
7.11993, 24, -28.8025, -13.2077, 32.735, -154.231, -86.203, 48.2611
7.12801, 24, -28.7928, -13.2754, 32.7892, -154.192, -86.1579, 48.2147
7.13546, 24, -28.7832, -13.3432, 32.8434, -154.153, -86.1117, 48.1679
7.14311, 24, -28.7736, -13.4111, 32.8977, -154.115, -86.0661, 48.1216
7.15095, 24, -28.764, -13.4791, 32.9522, -154.077, -86.0207, 48.0756
7.15897, 24, -28.7545, -13.5473, 33.0067, -154.038, -85.9741, 48.0291
7.16816, 24, -28.7452, -13.6156, 33.0613, -153.999, -85.9279, 47.9823
7.17611, 25, -28.7357, -13.684, 33.1161, -153.961, -85.8824, 47.9362
7.18391, 25, -28.7262, -13.7525, 33.1708, -153.922, -85.8359, 47.8904
7.19217, 25, -28.7167, -13.8212, 33.2258, -153.882, -85.7894, 47.844
7.19956, 25, -28.7075, -13.8901, 33.2808, -153.843, -85.7433, 47.7971
7.20802, 25, -28.6981, -13.9591, 33.336, -153.804, -85.6966, 47.7508
7.21839, 25, -28.6888, -14.0282, 33.3912, -153.764, -85.6496, 47.7048
7.22406, 25, -28.6796, -14.0976, 33.4466, -153.724, -85.6033, 47.6582
7.232, 25, -28.6704, -14.167, 33.502, -153.685, -85.5566, 47.6113
7.24, 25, -28.6613, -14.2366, 33.5576, -153.645, -85.5095, 47.565
7.24812, 25, -28.6522, -14.3063, 33.6132, -153.605, -85.463, 47.5188
7.25628, 25, -28.6431, -14.376, 33.669, -153.565, -85.416, 47.4721
7.26355, 25, -28.6341, -14.4459, 33.7248, -153.525, -85.3684, 47.425
7.27223, 25, -28.6252, -14.5159, 33.7807, -153.485, -85.3216, 47.3785
7.28093, 26, -28.6163, -14.586, 33.8365, -153.444, -85.2747, 47.3322
7.28799, 26, -28.6075, -14.6562, 33.8925, -153.404, -85.2269, 47.2855
7.29628, 26, -28.5987, -14.7266, 33.9487, -153.364, -85.1798, 47.2384
7.30289, 26, -28.5944, -14.7619, 33.9768, -153.343, -85.1563, 47.2151
7.31208, 26, -28.5813, -14.8678, 34.0612, -153.282, -85.0843, 47.1456
7.31891, 26, -28.5769, -14.9031, 34.0895, -153.262, -85.0605, 47.1223
7.32892, 26, -28.5636, -15.0093, 34.1742, -153.201, -84.9894, 47.0518
7.33631, 26, -28.5548, -15.0802, 34.2308, -153.159, -84.941, 47.0056
7.34289, 26, -28.5504, -15.1156, 34.2592, -153.139, -84.917, 46.9826
7.3532, 26, -28.5372, -15.2221, 34.3443, -153.077, -84.8455, 46.9131
7.35894, 26, -28.5328, -15.2576, 34.3727, -153.056, -84.8213, 46.8897
7.369, 26, -28.5198, -15.3645, 34.4581, -152.994, -84.749, 46.8205
7.37626, 26, -28.5155, -15.4002, 34.4866, -152.974, -84.7252, 46.7977
7.38289, 26, -28.507, -15.4716, 34.5436, -152.932, -84.6768, 46.7518
7.39273, 27, -28.4984, -15.5432, 34.6006, -152.89, -84.6283, 46.6819
7.39989, 27, -28.4898, -15.615, 34.6578, -152.848, -84.5805, 46.6588
7.40853, 27, -28.4813, -15.6869, 34.715, -152.807, -84.5319, 46.6129
7.417, 27, -28.4687, -15.7948, 34.8011, -152.743, -84.4591, 46.5435
7.4239, 27, -28.4646, -15.8308, 34.8298, -152.722, -84.4351, 46.5201
7.43191, 27, -28.4561, -15.9029, 34.8873, -152.68, -84.3864, 46.4736
7.44153, 27, -28.4437, -16.0111, 34.9737, -152.616, -84.3132, 46.4047
7.44795, 27, -28.4396, -16.0473, 35.0025, -152.595, -84.289, 46.3816
7.45594, 27, -28.4313, -16.1197, 35.0602, -152.553, -84.24, 46.3349
7.4639, 27, -28.4229, -16.1921, 35.118, -152.511, -84.1907, 46.2886
7.47189, 27, -28.4144, -16.2646, 35.1757, -152.467, -84.1425, 46.2428
7.47991, 27, -28.4059, -16.3374, 35.2335, -152.424, -84.0934, 46.1968
7.48795, 27, -28.3975, -16.4101, 35.2915, -152.382, -84.0441, 46.1504
7.49819, 28, -28.3849, -16.5195, 35.3785, -152.317, -83.9709, 46.0819
7.50391, 28, -28.3807, -16.556, 35.4076, -152.296, -83.9461, 46.0593
7.51189, 28, -28.3724, -16.6291, 35.4658, -152.253, -83.8966, 46.0138
7.52137, 28, -28.3641, -16.7021, 35.524, -152.21, -83.848, 45.968
7.528, 28, -28.3559, -16.7752, 35.5823, -152.166, -83.7987, 45.9223
7.53591, 28, -28.3477, -16.8485, 35.6407, -152.123, -83.7493, 45.8774
7.5439, 28, -28.3394, -16.9217, 35.699, -152.08, -83.7005, 45.8325
7.55196, 28, -28.331, -16.9951, 35.7574, -152.036, -83.6509, 45.7872
7.55989, 28, -28.3228, -17.0685, 35.8158, -151.992, -83.6013, 45.7421
7.56794, 28, -28.3147, -17.142, 35.8743, -151.949, -83.5526, 45.6977
7.57596, 28, -28.3065, -17.2157, 35.9328, -151.904, -83.5028, 45.6534
7.58389, 28, -28.2983, -17.2893, 35.9914, -151.86, -83.4532, 45.6087
7.59203, 28, -28.2903, -17.363, 36.05, -151.816, -83.4042, 45.5639
7.59898, 28, -28.2823, -17.4368, 36.1088, -151.772, -83.3541, 45.52
7.60814, 29, -28.2742, -17.5107, 36.1676, -151.727, -83.3044, 45.4764
7.61505, 29, -28.266, -17.5846, 36.2266, -151.684, -83.2552, 45.4323
7.62395, 29, -28.2578, -17.6586, 36.2854, -151.639, -83.205, 45.3881
7.63189, 29, -28.2495, -17.7327, 36.3443, -151.594, -83.1552, 45.3447
7.6399, 29, -28.2413, -17.8068, 36.4032, -151.55, -83.1057, 45.3017
7.64798, 29, -28.2332, -17.8808, 36.4622, -151.506, -83.0552, 45.2584
7.65593, 29, -28.225, -17.9551, 36.5211, -151.46, -83.0055, 45.2148
7.66389, 29, -28.2168, -18.0293, 36.5802, -151.415, -82.956, 45.1717
7.67195, 29, -28.2087, -18.1036, 36.6394, -151.371, -82.9056, 45.1292
7.67989, 29, -28.2006, -18.1779, 36.6985, -151.326, -82.8559, 45.0868
7.68796, 29, -28.1926, -18.2523, 36.7579, -151.281, -82.8061, 45.0441
7.69601, 29, -28.1845, -18.3269, 36.8172, -151.236, -82.7557, 45.0014
7.70389, 29, -28.1763, -18.4014, 36.8765, -151.191, -82.7061, 44.9597
7.71237, 29, -28.1682, -18.476, 36.9359, -151.145, -82.6564, 44.9181
7.72029, 30, -28.1603, -18.5506, 36.9953, -151.1, -82.6059, 44.8764
7.72743, 30, -28.1523, -18.6253, 37.0546, -151.054, -82.5563, 44.8343
7.73676, 30, -28.1442, -18.7001, 37.114, -151.008, -82.5063, 44.7929
7.74431, 30, -28.1362, -18.7747, 37.1733, -150.963, -82.4557, 44.752
7.75162, 30, -28.1282, -18.8495, 37.2327, -150.918, -82.406, 44.7112
7.76246, 30, -28.1202, -18.9244, 37.2922, -150.871, -82.3559, 44.67
7.76682, 30, -28.1162, -18.9618, 37.3219, -150.848, -82.3305, 44.6495
7.77488, 30, -28.108, -19.0366, 37.3814, -150.803, -82.2804, 44.6091
7.78392, 30, -28.0956, -19.1492, 37.4708, -150.734, -82.2051, 44.5494
7.79269, 30, -28.0875, -19.2242, 37.5304, -150.688, -82.1546, 44.5096
7.79994, 30, -28.0794, -19.2992, 37.5901, -150.642, -82.1048, 44.4696
7.80692, 30, -28.0753, -19.3366, 37.6199, -150.619, -82.0799, 44.4497
7.81645, 30, -28.0629, -19.4492, 37.7093, -150.549, -82.0043, 44.3914
7.82474, 30, -28.0547, -19.5241, 37.7689, -150.503, -81.9546, 44.3527
7.83229, 31, -28.0465, -19.599, 37.8285, -150.457, -81.9042, 44.3139
7.83887, 31, -28.0425, -19.6365, 37.8583, -150.433, -81.8789, 44.2945
7.84833, 31, -28.03, -19.7489, 37.9478, -150.364, -81.8043, 44.2371
7.85648, 31, -28.0217, -19.824, 38.0074, -150.317, -81.7539, 44.1996
7.86698, 31, -28.0134, -19.899, 38.0672, -150.27, -81.7038, 44.1621
7.87241, 31, -28.0052, -19.9741, 38.1269, -150.224, -81.6541, 44.1245
7.88048, 31, -27.9969, -20.0493, 38.1866, -150.177, -81.6034, 44.0867
7.88874, 31, -27.9886, -20.1244, 38.2463, -150.13, -81.5532, 44.0498
7.89643, 31, -27.9845, -20.162, 38.2762, -150.106, -81.5283, 44.0134
7.90388, 31, -27.9762, -20.2371, 38.3358, -150.06, -81.4782, 43.9953
7.91192, 31, -27.9678, -20.3122, 38.3954, -150.012, -81.4277, 43.9591
7.91886, 31, -27.9595, -20.3873, 38.4551, -149.965, -81.3779, 43.9227
7.92787, 31, -27.9511, -20.4624, 38.5147, -149.919, -81.3274, 43.8867
7.9361, 31, -27.9425, -20.5375, 38.5743, -149.871, -81.2771, 43.8516
7.94389, 32, -27.9339, -20.6126, 38.634, -149.824, -81.2275, 43.8168
7.95188, 32, -27.9254, -20.6878, 38.6936, -149.778, -81.1773, 43.7823
7.95989, 32, -27.9168, -20.763, 38.7532, -149.73, -81.1271, 43.7476
7.96686, 32, -27.9082, -20.8382, 38.8129, -149.682, -81.0776, 43.7131
7.9759, 32, -27.8995, -20.9134, 38.8725, -149.635, -81.0272, 43.6793
7.98445, 32, -27.8909, -20.9885, 38.9321, -149.587, -80.9772, 43.6463
7.99187, 32, -27.8822, -21.0636, 38.9917, -149.54, -80.9276, 43.6135
7.99987, 32, -27.8735, -21.1387, 39.0513, -149.493, -80.8773, 43.5808
8.00686, 32, -27.8647, -21.2137, 39.1108, -149.445, -80.8274, 43.5481
8.01749, 32, -27.8559, -21.3262, 39.2001, -149.374, -80.7528, 43.5002
8.02388, 32, -27.8472, -21.3637, 39.2298, -149.35, -80.7275, 43.4847
8.03363, 32, -27.8385, -21.4387, 39.2893, -149.302, -80.6531, 43.4386
8.03901, 32, -27.8296, -21.5138, 39.3488, -149.254, -80.6284, 43.4234
8.04783, 33, -27.8207, -21.5887, 39.4083, -149.207, -80.5782, 43.393
8.05668, 33, -27.8118, -21.6638, 39.4677, -149.158, -80.5285, 43.3625
8.06286, 33, -27.8029, -21.7387, 39.5272, -149.11, -80.4791, 43.3325
8.07187, 33, -27.7938, -21.8135, 39.5866, -149.063, -80.4288, 43.3035
8.08308, 33, -27.78, -21.9258, 39.6756, -148.99, -80.3548, 43.261
8.08786, 33, -27.7754, -21.9632, 39.7053, -148.966, -80.3302, 43.2469
8.09593, 33, -27.7662, -22.0379, 39.7646, -148.919, -80.2801, 43.219
8.10392, 33, -27.757, -22.1127, 39.8238, -148.87, -80.2309, 43.1909
8.11187, 33, -27.7476, -22.1875, 39.883, -148.822, -80.1816, 43.1631
8.11991, 33, -27.7383, -22.2622, 39.9422, -148.775, -80.1315, 43.1361
8.12789, 33, -27.7291, -22.3368, 40.0013, -148.726, -80.0825, 43.1098
8.13592, 33, -27.7198, -22.4116, 40.0604, -148.678, -80.0334, 43.084
8.14397, 33, -27.7103, -22.4862, 40.1195, -148.63, -79.9835, 43.0589
8.15191, 33, -27.7009, -22.5607, 40.1786, -148.581, -79.9346, 43.0339
8.16003, 34, -27.6916, -22.6352, 40.2377, -148.533, -79.8854, 43.009
8.16718, 34, -27.6821, -22.7096, 40.2967, -148.485, -79.8354, 42.9841
8.1749, 34, -27.6725, -22.784, 40.3556, -148.436, -79.7864, 42.96
8.1839, 34, -27.663, -22.8583, 40.4144, -148.387, -79.7371, 42.9366
8.19188, 34, -27.6534, -22.9325, 40.4731, -148.34, -79.6872, 42.9139
8.19988, 34, -27.6437, -23.0068, 40.5317, -148.291, -79.6384, 42.8918
8.20795, 34, -27.6339, -23.0811, 40.5904, -148.242, -79.5889, 42.8704
8.21588, 34, -27.6239, -23.1553, 40.649, -148.194, -79.539, 42.849
8.2239, 34, -27.614, -23.2294, 40.7076, -148.145, -79.4903, 42.828
8.23222, 34, -27.604, -23.3035, 40.7661, -148.096, -79.4411, 42.8071
8.23942, 34, -27.5938, -23.3775, 40.8246, -148.048, -79.3915, 42.7868
8.24797, 34, -27.5836, -23.4514, 40.883, -147.999, -79.3428, 42.7672
8.25622, 34, -27.5736, -23.5253, 40.9414, -147.951, -79.2935, 42.7484
8.26505, 34, -27.5634, -23.5991, 40.9997, -147.903, -79.244, 42.7305
8.27152, 35, -27.5582, -23.6359, 41.0578, -147.853, -79.1956, 42.713
8.28004, 35, -27.5428, -23.7464, 41.1159, -147.805, -79.1464, 42.6962
8.2879, 35, -27.5326, -23.8199, 41.1739, -147.757, -79.0971, 42.6799
8.2949, 35, -27.5274, -23.8566, 41.2028, -147.732, -79.073, 42.672
8.30396, 35, -27.5118, -23.9666, 41.2897, -147.659, -78.9998, 42.6485
8.31236, 35, -27.5012, -24.0399, 41.3476, -147.61, -78.9505, 42.6333
8.31885, 35, -27.4959, -24.0766, 41.3765, -147.585, -78.9263, 42.6259
8.32825, 35, -27.4799, -24.1862, 41.4632, -147.512, -78.8534, 42.6043
8.33488, 35, -27.4745, -24.2228, 41.492, -147.488, -78.8287, 42.5974
8.34434, 35, -27.4581, -24.3323, 41.5784, -147.414, -78.7561, 42.5777
8.35085, 35, -27.4527, -24.3688, 41.6072, -147.39, -78.7318, 42.5716
8.359, 35, -27.4416, -24.4416, 41.6646, -147.342, -78.6827, 42.5597
8.3684, 35, -27.4247, -24.5508, 41.7506, -147.268, -78.6103, 42.5434
8.37798, 36, -27.4135, -24.6235, 41.8077, -147.22, -78.5619, 42.5331
8.38458, 36, -27.4021, -24.696, 41.8646, -147.171, -78.5134, 42.5236
8.39243, 36, -27.3964, -24.7322, 41.8931, -147.122, -78.4656, 42.5146
8.40126, 36, -27.3849, -24.8047, 41.9501, -147.097, -78.4415, 42.5103
8.40788, 36, -27.3735, -24.877, 42.007, -147.049, -78.3929, 42.5022
8.41586, 36, -27.362, -24.9492, 42.0638, -147, -78.345, 42.4946
8.42385, 36, -27.3503, -25.0214, 42.1206, -146.951, -78.2974, 42.4875
8.43085, 36, -27.3386, -25.0934, 42.1772, -146.903, -78.249, 42.4811
8.43989, 36, -27.3267, -25.1654, 42.2337, -146.854, -78.2012, 42.4752
8.44791, 36, -27.3146, -25.2373, 42.2901, -146.805, -78.1537, 42.4698
8.45485, 36, -27.3026, -25.309, 42.3464, -146.757, -78.1054, 42.4651
8.46386, 36, -27.2905, -25.3807, 42.4026, -146.707, -78.0577, 42.461
8.47189, 36, -27.2782, -25.4522, 42.4587, -146.658, -78.0104, 42.4574
8.48001, 36, -27.2659, -25.5235, 42.5146, -146.61, -77.9624, 42.4546
8.48787, 37, -27.2534, -25.5948, 42.5705, -146.561, -77.9148, 42.4524
8.49592, 37, -27.2408, -25.6659, 42.6262, -146.513, -77.8676, 42.451
8.50386, 37, -27.2282, -25.7369, 42.6819, -146.464, -77.8197, 42.4501
8.51185, 37, -27.2157, -25.8079, 42.7375, -146.415, -77.7722, 42.4496
8.51991, 37, -27.203, -25.8788, 42.793, -146.367, -77.7254, 42.4494
8.52944, 37, -27.1903, -25.9495, 42.8483, -146.319, -77.6778, 42.4493
8.53586, 37, -27.1774, -26.02, 42.9036, -146.27, -77.6305, 42.4494
8.54486, 37, -27.1643, -26.0906, 42.9587, -146.222, -77.5838, 42.4496
8.55267, 37, -27.151, -26.1608, 43.0137, -146.173, -77.5363, 42.45
8.55986, 37, -27.1377, -26.2309, 43.0686, -146.124, -77.489, 42.451
8.56787, 37, -27.1243, -26.301, 43.1233, -146.076, -77.4424, 42.4533
8.57689, 37, -27.1108, -26.3707, 43.1778, -146.028, -77.3953, 42.4574
8.58298, 37, -27.0972, -26.4405, 43.2323, -145.979, -77.3481, 42.4626
8.5909, 37, -27.0835, -26.5102, 43.2868, -145.931, -77.3017, 42.4689
8.6007, 38, -27.0697, -26.5796, 43.341, -145.883, -77.2547, 42.4763
8.60788, 38, -27.056, -26.6491, 43.3951, -145.834, -77.2075, 42.4846
8.61585, 38, -27.0421, -26.7184, 43.4492, -145.787, -77.1613, 42.4937
8.62704, 38, -27.0209, -26.822, 43.5298, -145.715, -77.091, 42.5091
8.63185, 38, -27.0138, -26.8565, 43.5567, -145.69, -77.0675, 42.5146
8.63985, 38, -26.9994, -26.9252, 43.6103, -145.642, -77.0213, 42.5262
8.64792, 38, -26.9849, -26.9938, 43.6638, -145.595, -76.9748, 42.5388
8.65587, 38, -26.9702, -27.0622, 43.7171, -145.546, -76.9278, 42.5522
8.66386, 38, -26.9555, -27.1304, 43.7703, -145.499, -76.8818, 42.5665
8.67193, 38, -26.9407, -27.1985, 43.8232, -145.452, -76.836, 42.5817
8.67985, 38, -26.9257, -27.2664, 43.8761, -145.403, -76.7893, 42.5979
8.68785, 38, -26.9106, -27.3343, 43.9288, -145.356, -76.7434, 42.6152
8.69592, 38, -26.8955, -27.4021, 43.9814, -145.309, -76.6976, 42.6335
8.70405, 39, -26.8802, -27.4697, 44.0337, -145.261, -76.651, 42.6528
8.71191, 39, -26.8648, -27.5372, 44.086, -145.214, -76.6049, 42.6726
8.71987, 39, -26.8491, -27.6045, 44.138, -145.167, -76.5596, 42.6929
8.72789, 39, -26.8332, -27.6715, 44.1899, -145.119, -76.5133, 42.714
8.736, 39, -26.8173, -27.7384, 44.2418, -145.072, -76.4673, 42.736
8.74395, 39, -26.8012, -27.8051, 44.2934, -145.025, -76.422, 42.7587
8.75195, 39, -26.7851, -27.8715, 44.3449, -144.977, -76.3759, 42.7826
8.75948, 39, -26.7688, -27.938, 44.3962, -144.93, -76.3297, 42.8075
8.76807, 39, -26.7524, -28.0041, 44.4473, -144.884, -76.2844, 42.8334
8.77599, 39, -26.736, -28.0702, 44.4981, -144.836, -76.2386, 42.8599
8.78386, 39, -26.7195, -28.1362, 44.5488, -144.79, -76.1924, 42.8867
8.79262, 39, -26.7028, -28.202, 44.5994, -144.744, -76.1471, 42.9145
8.80019, 39, -26.6857, -28.2675, 44.6498, -144.696, -76.1016, 42.9432
8.80836, 39, -26.6685, -28.3329, 44.7, -144.65, -76.0555, 42.9731
8.8149, 40, -26.6599, -28.3656, 44.7251, -144.627, -76.0328, 42.9885
8.82291, 40, -26.6425, -28.4306, 44.7751, -144.581, -75.9879, 43.0201
8.83217, 40, -26.6162, -28.5276, 44.8496, -144.512, -75.9195, 43.0683
8.83888, 40, -26.6074, -28.5598, 44.8744, -144.489, -75.8968, 43.0847
8.84896, 40, -26.5807, -28.6561, 44.9486, -144.42, -75.8296, 43.1352
8.85631, 40, -26.5628, -28.7202, 44.9977, -144.374, -75.7839, 43.1705
8.86283, 40, -26.5538, -28.7521, 45.0222, -144.351, -75.7611, 43.1885
8.87087, 40, -26.5355, -28.8159, 45.071, -144.306, -75.7165, 43.225
8.88047, 40, -26.5076, -28.9113, 45.1437, -144.237, -75.6491, 43.2809
8.88925, 40, -26.4983, -28.9746, 45.192, -144.192, -75.6038, 43.3195
8.89491, 40, -26.4796, -29.0062, 45.2161, -144.17, -75.5816, 43.3394
8.90447, 40, -26.4606, -29.0693, 45.264, -144.124, -75.5146, 43.4005
8.91184, 40, -26.4414, -29.132, 45.3119, -144.079, -75.4918, 43.421
8.91984, 40, -26.4221, -29.1945, 45.3595, -144.035, -75.4468, 43.4625
8.92867, 41, -26.4027, -29.2567, 45.4069, -143.99, -75.4027, 43.5052
8.93589, 41, -26.3831, -29.3187, 45.4542, -143.945, -75.358, 43.5494
8.94387, 41, -26.3632, -29.3804, 45.5011, -143.901, -75.3131, 43.5942
8.95084, 41, -26.3431, -29.442, 45.5479, -143.857, -75.2691, 43.6395
8.95985, 41, -26.3231, -29.5034, 45.5945, -143.812, -75.2248, 43.6858
8.96789, 41, -26.3028, -29.5646, 45.6409, -143.769, -75.18, 43.7338
8.978, 41, -26.2718, -29.6561, 45.7098, -143.703, -75.1142, 43.8067
8.98389, 41, -26.2615, -29.6865, 45.7327, -143.681, -75.0922, 43.8315
8.99186, 41, -26.2407, -29.747, 45.7783, -143.638, -75.0478, 43.8821
8.99985, 41, -26.2196, -29.8073, 45.8235, -143.595, -75.004, 43.9342
9.00792, 41, -26.1983, -29.8672, 45.8687, -143.552, -74.9604, 43.9867
9.01484, 41, -26.1768, -29.9269, 45.9136, -143.508, -74.9162, 44.04
9.02399, 41, -26.1553, -29.9863, 45.9584, -143.466, -74.872, 44.0952
9.03081, 41, -26.1335, -30.0453, 46.0028, -143.424, -74.8287, 44.1511
9.03984, 42, -26.1114, -30.1041, 46.047, -143.381, -74.785, 44.2073
9.04886, 42, -26.0892, -30.1628, 46.0911, -143.339, -74.7409, 44.2651
9.0559, 42, -26.0667, -30.2212, 46.1347, -143.297, -74.6976, 44.3242
9.06386, 42, -26.0439, -30.2794, 46.1782, -143.255, -74.6542, 44.3835
9.07185, 42, -26.0211, -30.3373, 46.2214, -143.213, -74.61, 44.4446
9.07991, 42, -25.9981, -30.395, 46.2643, -143.173, -74.5664, 44.5068
9.08783, 42, -25.9748, -30.4524, 46.307, -143.132, -74.5234, 44.5693
9.09585, 42, -25.9514, -30.5095, 46.3493, -143.09, -74.4796, 44.6333
9.10395, 42, -25.9277, -30.5663, 46.3914, -143.05, -74.436, 44.6987
9.11187, 42, -25.9036, -30.6226, 46.4333, -143.01, -74.3931, 44.7643
9.12018, 42, -25.8792, -30.6788, 46.4748, -142.969, -74.3498, 44.832
9.13169, 42, -25.8426, -30.7623, 46.5367, -142.91, -74.2845, 44.9347
9.13583, 42, -25.8303, -30.7901, 46.5572, -142.89, -74.2632, 44.9696
9.14464, 43, -25.8054, -30.8453, 46.5978, -142.851, -74.2207, 45.0408
9.15184, 43, -25.7805, -30.9004, 46.6383, -142.811, -74.1772, 45.1124
9.15986, 43, -25.7554, -30.9553, 46.6784, -142.773, -74.1343, 45.1855
9.17104, 43, -25.7169, -31.037, 46.738, -142.715, -74.0705, 45.2971
9.17583, 43, -25.704, -31.0641, 46.7577, -142.696, -74.0489, 45.3346
9.18383, 43, -25.6781, -31.118, 46.797, -142.657, -74.0057, 45.4111
9.19192, 43, -25.6517, -31.1716, 46.8358, -142.62, -73.9636, 45.4879
9.19985, 43, -25.6253, -31.2247, 46.8745, -142.583, -73.9212, 45.5662
9.2079, 43, -25.5987, -31.2775, 46.9129, -142.545, -73.8781, 45.6457
9.21592, 43, -25.5717, -31.3299, 46.9509, -142.508, -73.8357, 45.7256
9.22386, 43, -25.5446, -31.3819, 46.9887, -142.472, -73.7937, 45.8073
9.23228, 43, -25.5173, -31.4336, 47.0261, -142.436, -73.7509, 45.8892
9.23934, 43, -25.4896, -31.4849, 47.0631, -142.4, -73.7082, 45.9731
9.24809, 43, -25.4616, -31.5361, 47.0999, -142.364, -73.6665, 46.0574
9.25656, 44, -25.4332, -31.5869, 47.1361, -142.329, -73.6246, 46.1434
9.26338, 44, -25.4044, -31.6375, 47.1721, -142.294, -73.5819, 46.2302
9.272, 44, -25.3755, -31.6878, 47.2078, -142.259, -73.5401, 46.3185
9.28079, 44, -25.3466, -31.7377, 47.2431, -142.225, -73.4985, 46.4078
9.28784, 44, -25.3174, -31.7872, 47.2781, -142.191, -73.4562, 46.4982
9.29587, 44, -25.2879, -31.8364, 47.3128, -142.158, -73.4141, 46.59
9.30287, 44, -25.273, -31.8608, 47.3299, -142.141, -73.3934, 46.6361
9.31082, 44, -25.243, -31.9094, 47.364, -142.108, -73.3522, 46.7299
9.32001, 44, -25.1974, -31.9811, 47.4147, -142.059, -73.2894, 46.8716
9.32688, 44, -25.1821, -32.0049, 47.4314, -142.043, -73.2687, 46.9198
9.33616, 44, -25.1357, -32.0755, 47.4807, -141.996, -73.2073, 47.0654
9.34302, 44, -25.1201, -32.0988, 47.497, -141.98, -73.1865, 47.1147
9.35226, 44, -25.0886, -32.1683, 47.5455, -141.933, -73.1241, 47.2641
9.35882, 44, -25.0569, -32.1913, 47.5613, -141.918, -73.1037, 47.3146
9.36838, 45, -25.009, -32.2597, 47.6084, -141.873, -73.0428, 47.4678
9.37662, 45, -24.9765, -32.3049, 47.6394, -141.844, -73.0014, 47.5711
9.38441, 45, -24.9436, -32.3496, 47.6698, -141.814, -72.9608, 47.6759
9.39308, 45, -24.9105, -32.3941, 47.6998, -141.785, -72.9206, 47.7817
9.40045, 45, -24.8939, -32.4161, 47.7147, -141.771, -72.8797, 47.8887
9.40841, 45, -24.8603, -32.4597, 47.7443, -141.743, -72.8591, 47.9967
9.41582, 45, -24.8266, -32.5029, 47.7733, -141.716, -72.8187, 48.0511
9.42288, 45, -24.7924, -32.5457, 47.802, -141.688, -72.7789, 48.1609
9.43189, 45, -24.7579, -32.588, 47.8302, -141.661, -72.7385, 48.2719
9.43987, 45, -24.7233, -32.6298, 47.8582, -141.634, -72.698, 48.3844
9.44785, 45, -24.6883, -32.6711, 47.8855, -141.609, -72.6582, 48.4979
9.45485, 45, -24.6529, -32.7118, 47.9125, -141.584, -72.6186, 48.6128
9.46382, 45, -24.6171, -32.7522, 47.9391, -141.559, -72.5781, 48.7286
9.47207, 46, -24.5811, -32.7921, 47.9653, -141.534, -72.5383, 48.8455
9.47982, 46, -24.5446, -32.8315, 47.991, -141.51, -72.4992, 48.9636
9.48782, 46, -24.5078, -32.8704, 48.0161, -141.486, -72.4598, 49.0827
9.49589, 46, -24.4707, -32.9088, 48.0408, -141.464, -72.4199, 49.2032
9.50381, 46, -24.4334, -32.9468, 48.065, -141.442, -72.3809, 49.3251
9.51183, 46, -24.3958, -32.9843, 48.0889, -141.421, -72.3421, 49.4482
9.51888, 46, -24.3578, -33.0212, 48.1122, -141.399, -72.3029, 49.5724
9.52788, 46, -24.3194, -33.0576, 48.1351, -141.378, -72.2635, 49.6982
9.5374, 46, -24.2806, -33.0936, 48.1574, -141.358, -72.225, 49.8249
9.54382, 46, -24.2417, -33.129, 48.1793, -141.338, -72.1869, 49.9526
9.55285, 46, -24.2024, -33.1638, 48.2008, -141.319, -72.148, 50.0817
9.55985, 46, -24.1625, -33.198, 48.2216, -141.301, -72.1094, 50.2116
9.56795, 46, -24.1224, -33.2318, 48.2421, -141.283, -72.0717, 50.3427
9.57496, 46, -24.0821, -33.265, 48.2621, -141.266, -72.0339, 50.4749
9.58382, 47, -24.0413, -33.2976, 48.2815, -141.249, -71.9955, 50.6086
9.59188, 47, -23.9999, -33.3296, 48.3005, -141.232, -71.9577, 50.7435
9.59982, 47, -23.9583, -33.3612, 48.3189, -141.217, -71.9206, 50.8795
9.60788, 47, -23.9164, -33.392, 48.3366, -141.202, -71.8836, 51.0167
9.61585, 47, -23.874, -33.4223, 48.3539, -141.188, -71.8459, 51.1553
9.62388, 47, -23.8312, -33.4519, 48.3708, -141.175, -71.8088, 51.2945
9.63182, 47, -23.7882, -33.481, 48.3868, -141.162, -71.7724, 51.4351
9.63985, 47, -23.7449, -33.5096, 48.4025, -141.15, -71.7358, 51.5769
9.64787, 47, -23.7012, -33.5373, 48.4179, -141.139, -71.6988, 51.7201
9.65582, 47, -23.657, -33.5646, 48.4325, -141.128, -71.6624, 51.8645
9.66383, 47, -23.6126, -33.5911, 48.4464, -141.118, -71.6268, 52.0098
9.67186, 47, -23.5678, -33.6172, 48.46, -141.108, -71.5913, 52.1565
9.67982, 47, -23.5224, -33.6425, 48.4729, -141.098, -71.5553, 52.3044
9.68806, 47, -23.4767, -33.6671, 48.4851, -141.09, -71.52, 52.453
9.69601, 48, -23.4307, -33.6912, 48.4966, -141.082, -71.4852, 52.6029
9.70381, 48, -23.3842, -33.7144, 48.5076, -141.075, -71.4506, 52.754
9.71197, 48, -23.3374, -33.7372, 48.5182, -141.068, -71.4154, 52.9066
9.71982, 48, -23.2903, -33.7592, 48.5282, -141.063, -71.3808, 53.0603
9.72794, 48, -23.2427, -33.7804, 48.5377, -141.058, -71.3469, 53.2149
9.73835, 48, -23.1947, -33.8011, 48.5464, -141.054, -71.3134, 53.3708
9.74397, 48, -23.1464, -33.8209, 48.5544, -141.051, -71.2796, 53.5279
9.75191, 48, -23.0976, -33.84, 48.562, -141.048, -71.2459, 53.686
9.75997, 48, -23.0485, -33.8586, 48.569, -141.046, -71.2129, 53.8457
9.768, 48, -22.9989, -33.8764, 48.5753, -141.045, -71.1804, 54.0064
9.77597, 48, -22.949, -33.8933, 48.581, -141.045, -71.1477, 54.1684
9.78391, 48, -22.8986, -33.9096, 48.5861, -141.044, -71.1147, 54.3312
9.79218, 48, -22.8479, -33.9252, 48.5905, -141.045, -71.0826, 54.4952
9.80177, 49, -22.7969, -33.9399, 48.5942, -141.045, -71.0511, 54.6601
9.80792, 49, -22.7453, -33.9537, 48.5972, -141.047, -71.02, 54.826
9.81598, 49, -22.6934, -33.9667, 48.5995, -141.05, -70.9887, 54.9931
9.82399, 49, -22.6411, -33.9791, 48.6012, -141.053, -70.9574, 55.1615
9.8308, 49, -22.6148, -33.9852, 48.6018, -141.056, -70.9421, 55.246
9.84018, 49, -22.5353, -34.0017, 48.6027, -141.063, -70.8971, 55.5014
9.84683, 49, -22.5086, -34.0066, 48.6028, -141.066, -70.8823, 55.587
9.85627, 49, -22.4279, -34.0204, 48.6026, -141.077, -70.8375, 55.8451
9.86281, 49, -22.4008, -34.0247, 48.6023, -141.081, -70.8226, 55.9318
9.87232, 49, -22.3189, -34.0362, 48.6005, -141.095, -70.7793, 56.1939
9.88041, 49, -22.2638, -34.043, 48.5985, -141.105, -70.7513, 56.3699
9.88925, 49, -22.2084, -34.0491, 48.5957, -141.117, -70.7237, 56.5467
9.89482, 49, -22.1805, -34.0517, 48.594, -141.123, -70.7098, 56.6357
9.90443, 49, -22.1243, -34.0563, 48.59, -141.142, -70.6683, 56.9036
9.91341, 50, -22.0678, -34.0599, 48.5824, -141.156, -70.6416, 57.0834
9.91982, 50, -22.011, -34.0626, 48.5795, -141.163, -70.6285, 57.1738
9.92782, 50, -21.9537, -34.0644, 48.5732, -141.177, -70.6027, 57.3554
9.93584, 50, -21.8961, -34.0654, 48.566, -141.193, -70.5773, 57.5381
9.94281, 50, -21.8381, -34.0658, 48.5579, -141.209, -70.5517, 57.7218
9.95185, 50, -21.7795, -34.0657, 48.549, -141.226, -70.5264, 57.9065
9.95988, 50, -21.7205, -34.0648, 48.5396, -141.245, -70.5018, 58.092
9.9668, 50, -21.661, -34.063, 48.5293, -141.265, -70.4781, 58.2788
9.97582, 50, -21.6013, -34.0604, 48.5182, -141.285, -70.4551, 58.4668
9.98389, 50, -21.5413, -34.0569, 48.5063, -141.306, -70.4324, 58.6557
9.9908, 50, -21.4807, -34.0523, 48.4934, -141.327, -70.4098, 58.8455
9.99981, 50, -21.4199, -34.0466, 48.4799, -141.35, -70.3874, 59.0359
10.008, 50, -21.3587, -34.0398, 48.4654, -141.373, -70.3657, 59.2274
10.0182, 50, -21.2662, -34.0277, 48.4421, -141.411, -70.3345, 59.5164
10.0238, 51, -21.2351, -34.0232, 48.4341, -141.424, -70.3245, 59.6134
10.0333, 51, -21.1726, -34.0132, 48.4174, -141.45, -70.3049, 59.8078
10.0398, 51, -21.1098, -34.0024, 48.3996, -141.476, -70.2856, 60.0032
10.0489, 51, -21.0465, -33.9904, 48.3811, -141.504, -70.2667, 60.1993
10.0579, 51, -20.9509, -33.97, 48.3517, -141.549, -70.2387, 60.4954
10.0639, 51, -20.9188, -33.9625, 48.3415, -141.564, -70.2297, 60.5947
10.0718, 51, -20.8544, -33.947, 48.3207, -141.594, -70.2124, 60.7939
10.0798, 51, -20.7896, -33.9307, 48.299, -141.625, -70.1959, 60.9939
10.0868, 51, -20.7244, -33.9134, 48.2763, -141.658, -70.1802, 61.1949
10.0958, 51, -20.6588, -33.8947, 48.253, -141.692, -70.1652, 61.3964
10.1039, 51, -20.593, -33.8752, 48.2287, -141.726, -70.1508, 61.5989
10.112, 51, -20.5268, -33.8546, 48.2036, -141.761, -70.1371, 61.8023
10.1199, 51, -20.4602, -33.8326, 48.1776, -141.796, -70.1237, 62.0066
10.1278, 51, -20.3933, -33.8096, 48.1507, -141.834, -70.1108, 62.2117
10.1358, 52, -20.3261, -33.7853, 48.1231, -141.871, -70.0984, 62.4175
10.1439, 52, -20.2584, -33.76, 48.0947, -141.91, -70.0867, 62.6242
10.1518, 52, -20.1903, -33.7336, 48.0653, -141.949, -70.0758, 62.8321
10.1598, 52, -20.1219, -33.7057, 48.0351, -141.99, -70.0657, 63.0407
10.1678, 52, -20.0532, -33.6768, 48.0041, -142.031, -70.0564, 63.25
10.1759, 52, -19.984, -33.6467, 47.9723, -142.073, -70.048, 63.4599
10.1838, 52, -19.9145, -33.6156, 47.9394, -142.116, -70.0404, 63.6703
10.1919, 52, -19.8448, -33.5831, 47.9058, -142.16, -70.0335, 63.8818
10.1998, 52, -19.7747, -33.5497, 47.8714, -142.204, -70.0274, 64.0939
10.2078, 52, -19.7043, -33.5151, 47.8359, -142.25, -70.0221, 64.3068
10.2159, 52, -19.6337, -33.4793, 47.7996, -142.296, -70.0177, 64.5203
10.2238, 52, -19.5627, -33.4422, 47.7626, -142.343, -70.0139, 64.7343
10.2323, 52, -19.4915, -33.4039, 47.7246, -142.391, -70.0109, 64.9493
10.2437, 53, -19.3839, -33.3443, 47.666, -142.465, -70.0078, 65.2733
10.2479, 53, -19.3478, -33.3238, 47.646, -142.49, -70.0072, 65.3815
10.2567, 53, -19.2753, -33.2818, 47.6054, -142.541, -70.0065, 65.5986
10.2643, 53, -19.2028, -33.2387, 47.5639, -142.593, -70.0062, 65.816
10.2719, 53, -19.1298, -33.1943, 47.5215, -142.645, -70.0065, 66.0343
10.2824, 53, -19.0566, -33.1487, 47.4782, -142.698, -70.0074, 66.2533
10.2867, 53, -19.02, -33.1255, 47.4562, -142.725, -70.0081, 66.3631
10.2959, 53, -18.9094, -33.0538, 47.3889, -142.807, -70.0117, 66.6932
10.3038, 53, -18.8354, -33.0046, 47.3428, -142.863, -70.0152, 66.9138
10.3127, 53, -18.7611, -32.9541, 47.296, -142.918, -70.0197, 67.1355
10.3199, 53, -18.6865, -32.9022, 47.2482, -142.976, -70.0253, 67.3577
10.3268, 53, -18.6491, -32.8758, 47.2239, -143.005, -70.0285, 67.469
10.3364, 53, -18.5364, -32.7947, 47.1498, -143.092, -70.0397, 67.8035
10.3443, 53, -18.461, -32.739, 47.0993, -143.152, -70.0483, 68.0269
10.3528, 54, -18.3853, -32.682, 47.0479, -143.211, -70.0582, 68.2508
10.3603, 54, -18.3094, -32.6237, 46.9957, -143.273, -70.0693, 68.4754
10.3683, 54, -18.2332, -32.5641, 46.9425, -143.334, -70.0815, 68.7004
10.3764, 54, -18.1567, -32.5033, 46.8885, -143.397, -70.0951, 68.9259
10.3869, 54, -18.0801, -32.4412, 46.8335, -143.46, -70.1099, 69.1516
10.3926, 54, -18.0417, -32.3778, 46.7777, -143.524, -70.1258, 69.3781
10.4004, 54, -17.9647, -32.3132, 46.7209, -143.589, -70.1423, 69.6052
10.4084, 54, -17.8873, -32.2804, 46.6632, -143.654, -70.1597, 69.8325
10.4158, 54, -17.8099, -32.2137, 46.634, -143.687, -70.1688, 69.9463
10.4238, 54, -17.7322, -32.1457, 46.5749, -143.753, -70.1875, 70.1741
10.4318, 54, -17.6544, -32.0763, 46.515, -143.82, -70.2074, 70.4022
10.4398, 54, -17.5765, -32.0055, 46.4542, -143.887, -70.2285, 70.6309
10.4478, 54, -17.4983, -31.9334, 46.3925, -143.955, -70.2512, 70.86
10.456, 54, -17.4199, -31.8599, 46.3299, -144.025, -70.275, 71.0894
10.4629, 55, -17.3414, -31.7851, 46.2666, -144.094, -70.2995, 71.3189
10.4718, 55, -17.2626, -31.7091, 46.2024, -144.164, -70.325, 71.549
10.4798, 55, -17.1836, -31.6318, 46.1372, -144.235, -70.3514, 71.7797
10.4878, 55, -17.1045, -31.5531, 46.0711, -144.306, -70.3794, 72.0105
10.4958, 55, -17.0252, -31.4732, 46.004, -144.378, -70.4089, 72.2415
10.5043, 55, -16.9458, -31.3919, 45.936, -144.451, -70.439, 72.4725
10.5118, 55, -16.8663, -31.3094, 45.8671, -144.524, -70.4698, 72.7037
10.5198, 55, -16.7867, -31.2254, 45.7973, -144.597, -70.5018, 72.9354
10.5268, 55, -16.707, -31.1401, 45.7267, -144.671, -70.5357, 73.1672
10.5358, 55, -16.6272, -31.0535, 45.6553, -144.746, -70.5707, 73.3991
10.5448, 55, -16.5473, -30.9655, 45.5831, -144.821, -70.6063, 73.6312
10.5508, 55, -16.4672, -30.8762, 45.5099, -144.896, -70.6429, 73.8634
10.5624, 55, -16.3468, -30.7395, 45.3986, -145.011, -70.7011, 74.2122
10.5669, 55, -16.3067, -30.6933, 45.3611, -145.049, -70.7209, 74.3284
10.5748, 56, -16.2263, -30.5999, 45.2853, -145.126, -70.7608, 74.5609
10.5838, 56, -16.1458, -30.5052, 45.2085, -145.203, -70.8022, 74.7935
10.5918, 56, -16.0652, -30.4091, 45.131, -145.281, -70.8457, 75.0264
10.603, 56, -15.9443, -30.2627, 45.0132, -145.398, -70.9121, 75.376
10.6078, 56, -15.904, -30.2132, 44.9736, -145.438, -70.9349, 75.4924
10.6158, 56, -15.8234, -30.1132, 44.8937, -145.516, -70.9821, 75.7255
10.6238, 56, -15.7428, -30.0119, 44.813, -145.596, -71.0299, 75.9588
10.6318, 56, -15.6621, -29.9091, 44.7314, -145.675, -71.0786, 76.1923
10.6398, 56, -15.5812, -29.8051, 44.6488, -145.755, -71.1295, 76.4258
10.6478, 56, -15.5002, -29.6997, 44.5654, -145.835, -71.1811, 76.6592
10.6558, 56, -15.4191, -29.5931, 44.4811, -145.916, -71.2336, 76.892
10.6638, 56, -15.3381, -29.4852, 44.3962, -145.996, -71.2883, 77.1249
10.6718, 56, -15.2572, -29.3761, 44.3105, -146.077, -71.343, 77.358
10.6799, 57, -15.1762, -29.2656, 44.2242, -146.159, -71.3997, 77.5907
10.6872, 57, -15.0954, -29.1537, 44.1369, -146.24, -71.4578, 77.8234
10.6949, 57, -15.0145, -29.0405, 44.0489, -146.322, -71.5166, 78.0559
10.7048, 57, -14.9336, -28.9261, 43.9599, -146.403, -71.5775, 78.2883
10.7118, 57, -14.8527, -28.8104, 43.8701, -146.485, -71.6385, 78.5207
10.7198, 57, -14.7717, -28.6935, 43.7796, -146.567, -71.7016, 78.7528
10.7279, 57, -14.6909, -28.5753, 43.6885, -146.649, -71.7657, 78.9848
10.7358, 57, -14.61, -28.4556, 43.5967, -146.732, -71.8312, 79.2164
10.7439, 57, -14.5294, -28.3347, 43.5041, -146.814, -71.8982, 79.448
10.7522, 57, -14.4487, -28.2127, 43.4108, -146.897, -71.9659, 79.6796
10.7593, 57, -14.3682, -28.0895, 43.3166, -146.979, -72.0357, 79.9105
10.7679, 57, -14.2877, -27.9653, 43.2216, -147.062, -72.106, 80.1412
10.7761, 57, -14.2073, -27.8397, 43.1259, -147.145, -72.1782, 80.3718
10.7843, 57, -14.1268, -27.7129, 43.0296, -147.227, -72.2507, 80.6023
10.7913, 58, -14.0866, -27.649, 42.9812, -147.269, -72.2881, 80.7175
10.7999, 58, -13.9663, -27.4556, 42.8352, -147.393, -72.4007, 81.0621
10.8079, 58, -13.8863, -27.3252, 42.737, -147.476, -72.4777, 81.2912
10.8148, 58, -13.8463, -27.2596, 42.6876, -147.517, -72.5163, 81.4056
10.8239, 58, -13.7268, -27.0607, 42.5382, -147.641, -72.6349, 81.7486
10.832, 58, -13.6472, -26.9264, 42.4379, -147.723, -72.7156, 81.9767
10.8388, 58, -13.6075, -26.8588, 42.3875, -147.765, -72.7564, 82.0907
10.8482, 58, -13.4886, -26.6545, 42.2356, -147.888, -72.8807, 82.4316
10.8548, 58, -13.4489, -26.5859, 42.1846, -147.929, -72.9228, 82.545
10.8643, 58, -13.3301, -26.3785, 42.0309, -148.053, -73.0509, 82.8848
10.8733, 58, -13.2511, -26.2386, 41.9275, -148.135, -73.1377, 83.1106
10.8788, 58, -13.2116, -26.1683, 41.8754, -148.176, -73.1817, 83.2232
10.8884, 58, -13.0937, -25.9558, 41.7185, -148.298, -73.3151, 83.5604
10.8975, 59, -13.0152, -25.8131, 41.6136, -148.379, -73.4052, 83.7846
10.9046, 59, -12.937, -25.6693, 41.5081, -148.46, -73.4969, 84.0083
10.9124, 59, -12.898, -25.5969, 41.4552, -148.501, -73.5897, 84.2314
10.9198, 59, -12.8202, -25.4512, 41.349, -148.581, -73.6365, 84.3426
10.9268, 59, -12.7425, -25.3046, 41.2421, -148.662, -73.731, 84.5647
10.9368, 59, -12.6263, -25.0829, 41.0804, -148.782, -73.875, 84.8968
10.947, 59, -12.549, -24.9338, 40.9722, -148.862, -73.9724, 85.1179
10.953, 59, -12.472, -24.7835, 40.8637, -148.941, -74.0713, 85.3382
10.9588, 59, -12.4335, -24.708, 40.8094, -148.981, -74.121, 85.448
10.9678, 59, -12.3566, -24.5563, 40.7002, -149.06, -74.2214, 85.6671
10.9748, 59, -12.2801, -24.4038, 40.5903, -149.139, -74.323, 85.8852
10.9838, 59, -12.2036, -24.2506, 40.4797, -149.217, -74.4258, 86.1027
10.9918, 59, -12.1275, -24.0962, 40.3688, -149.295, -74.5293, 86.3195
10.9999, 59, -12.0518, -23.9407, 40.2578, -149.372, -74.6343, 86.5356
11.008, 60, -11.9763, -23.7844, 40.1465, -149.449, -74.7404, 86.7508
11.0158, 60, -11.901, -23.6276, 40.035, -149.526, -74.8472, 86.9653
11.0238, 60, -11.826, -23.47, 39.9229, -149.602, -74.9553, 87.179
11.0318, 60, -11.7512, -23.3112, 39.8101, -149.678, -75.0643, 87.3921
11.0408, 60, -11.6768, -23.1514, 39.6971, -149.753, -75.1741, 87.6041
11.0508, 60, -11.5656, -22.9108, 39.5273, -149.865, -75.3413, 87.9207
11.0558, 60, -11.5286, -22.8304, 39.4706, -149.902, -75.3974, 88.0257
11.0648, 60, -11.455, -22.669, 39.3569, -149.976, -75.5106, 88.2351
11.0718, 60, -11.3815, -22.5064, 39.2428, -150.049, -75.6249, 88.444
11.0798, 60, -11.3083, -22.3428, 39.128, -150.121, -75.7396, 88.6521
11.0878, 60, -11.2355, -22.1789, 39.0131, -150.194, -75.8557, 88.859
11.0959, 60, -11.1629, -22.0144, 38.8981, -150.265, -75.9724, 89.065
11.1038, 60, -11.0907, -21.8488, 38.7831, -150.337, -76.0901, 89.27
11.1118, 60, -11.0188, -21.6823, 38.6681, -150.407, -76.2088, 89.4744
11.1198, 61, -10.9473, -21.5152, 38.5526, -150.478, -76.3282, 89.6778
11.1279, 61, -10.876, -21.348, 38.4367, -150.547, -76.4487, 89.8799
11.1358, 61, -10.805, -21.1803, 38.3207, -150.616, -76.5696, 90.0809
11.1453, 61, -10.7346, -21.0114, 38.2048, -150.683, -76.6918, 90.2807
11.1518, 61, -10.6644, -20.8421, 38.0888, -150.751, -76.8149, 90.4794
11.1598, 61, -10.5945, -20.6726, 37.9728, -150.818, -76.9388, 90.6776
11.1678, 61, -10.5248, -20.5029, 37.8563, -150.884, -77.0635, 90.8744
11.1758, 61, -10.4554, -20.3321, 37.7395, -150.95, -77.189, 91.0704
11.1838, 61, -10.3863, -20.1604, 37.6227, -151.015, -77.3154, 91.2649
11.1918, 61, -10.3176, -19.9885, 37.5059, -151.079, -77.4424, 91.4583
11.1998, 61, -10.2493, -19.8167, 37.3893, -151.143, -77.5704, 91.6507
11.2078, 61, -10.1814, -19.6443, 37.2727, -151.206, -77.6987, 91.842
11.2158, 61, -10.114, -19.4709, 37.1558, -151.268, -77.8278, 92.0318
11.2246, 61, -10.0468, -19.2969, 37.0389, -151.33, -77.9575, 92.2207
11.2318, 62, -9.97999, -19.1233, 36.922, -151.391, -78.0876, 92.4079
11.2398, 62, -9.91349, -18.9493, 36.8054, -151.451, -78.2187, 92.5939
11.2479, 62, -9.84743, -18.7747, 36.6889, -151.51, -78.35, 92.7788
11.2559, 62, -9.78186, -18.5996, 36.5723, -151.569, -78.4823, 92.9627
11.2639, 62, -9.71651, -18.4248, 36.4555, -151.627, -78.6146, 93.1451
11.2713, 62, -9.65142, -18.2502, 36.3387, -151.684, -78.7476, 93.3263
11.2799, 62, -9.58655, -18.0749, 36.2221, -151.74, -78.8813, 93.5062
11.2879, 62, -9.52205, -17.8989, 36.1057, -151.796, -79.0155, 93.6847
11.2958, 62, -9.4579, -17.723, 35.9895, -151.851, -79.1505, 93.8624
11.3039, 62, -9.39413, -17.5472, 35.8733, -151.906, -79.2856, 94.0387
11.3129, 62, -9.33082, -17.3707, 35.7571, -151.959, -79.4214, 94.2135
11.3202, 62, -9.26789, -17.1934, 35.6411, -152.012, -79.5574, 94.3867
11.328, 62, -9.20547, -17.016, 35.5255, -152.064, -79.6941, 94.5582
11.3348, 62, -9.1744, -16.9276, 35.4678, -152.09, -79.7625, 94.6435
11.3441, 63, -9.08165, -16.6623, 35.295, -152.166, -79.9689, 94.897
11.3508, 63, -9.05097, -16.5736, 35.2375, -152.191, -80.0379, 94.9809
11.3611, 63, -8.95934, -16.3072, 35.0649, -152.264, -80.2453, 95.2304
11.3673, 63, -8.92898, -16.2187, 35.0075, -152.288, -80.3146, 95.3128
11.3748, 63, -8.86858, -16.042, 34.8929, -152.336, -80.4534, 95.4765
11.385, 63, -8.77856, -15.7762, 34.7217, -152.406, -80.6626, 95.7189
11.3924, 63, -8.7191, -15.5988, 34.608, -152.452, -80.8023, 95.8786
11.4004, 63, -8.65996, -15.4219, 34.4942, -152.497, -80.9423, 96.0369
11.4094, 63, -8.63048, -15.3337, 34.3807, -152.54, -81.0826, 96.1937
11.4157, 63, -8.57178, -15.1566, 34.3241, -152.562, -81.1527, 96.2717
11.4238, 63, -8.51348, -14.979, 34.2112, -152.605, -81.2931, 96.4262
11.4318, 63, -8.45561, -14.8015, 34.0989, -152.647, -81.4338, 96.5789
11.4399, 63, -8.39827, -14.6246, 33.9869, -152.688, -81.5747, 96.7302
11.448, 64, -8.34124, -14.4476, 33.8752, -152.729, -81.7158, 96.8792
11.4558, 64, -8.28462, -14.2701, 33.7635, -152.768, -81.8568, 97.0268
11.4638, 64, -8.22856, -14.0929, 33.6523, -152.807, -81.9981, 97.1725
11.4718, 64, -8.17275, -13.9167, 33.5416, -152.845, -82.1392, 97.3169
11.4797, 64, -8.11729, -13.7409, 33.4314, -152.882, -82.2808, 97.4598
11.4899, 64, -8.03473, -13.477, 33.2669, -152.937, -82.493, 97.6705
11.4957, 64, -8.00738, -13.389, 33.2121, -152.954, -82.5639, 97.7399
11.5038, 64, -7.95293, -13.2139, 33.1027, -152.989, -82.7057, 97.8775
11.5119, 64, -7.8989, -13.0392, 32.9938, -153.023, -82.8476, 98.0131
11.5214, 64, -7.81845, -12.7763, 32.8317, -153.072, -83.0604, 98.2136
11.5277, 64, -7.79187, -12.6887, 32.7779, -153.089, -83.1314, 98.2795
11.5347, 64, -7.73903, -12.514, 32.6708, -153.12, -83.2733, 98.4102
11.5439, 64, -7.68645, -12.3401, 32.564, -153.15, -83.4153, 98.539
11.5551, 65, -7.60844, -12.0788, 32.4042, -153.195, -83.6283, 98.7285
11.5598, 65, -7.58264, -11.9916, 32.3512, -153.21, -83.6994, 98.7908
11.5688, 65, -7.5313, -11.818, 32.2459, -153.238, -83.8412, 98.9138
11.5758, 65, -7.48044, -11.6455, 32.1412, -153.265, -83.9831, 99.0346
11.5837, 65, -7.42992, -11.4732, 32.0372, -153.291, -84.1249, 99.1537
11.5918, 65, -7.3796, -11.3006, 31.9333, -153.317, -84.2666, 99.2709
