rpiRobotics/ARM-21-02-F-19-Robot-Motion-Program/data_performance_abb/curve_1/baseline/100L/realrobot/bisect/run_1realrobot_curve_exe_v103.125_z10.csv
timestamp, cmd_num, J1, J2, J3, J4, J5, J6
0.010439, -1, 11.378, 13.6139, 17.3392, -145.519, -97.923, 142.516
0.012246, -1, 11.378, 13.6139, 17.3392, -145.519, -97.923, 142.516
0.017332, -1, 11.378, 13.6139, 17.3392, -145.519, -97.923, 142.516
0.039938, -1, 11.3779, 13.6139, 17.3393, -145.519, -97.923, 142.516
0.042131, -1, 11.3779, 13.6139, 17.3393, -145.519, -97.923, 142.516
0.043362, -1, 11.3779, 13.6139, 17.3393, -145.519, -97.923, 142.516
0.047198, -1, 11.3779, 13.6139, 17.3393, -145.519, -97.923, 142.516
0.055205, -1, 11.3779, 13.6139, 17.3392, -145.519, -97.923, 142.516
0.064004, -1, 11.3777, 13.6138, 17.3392, -145.519, -97.923, 142.516
0.072272, -1, 11.3762, 13.6138, 17.3392, -145.519, -97.923, 142.516
0.080212, -1, 11.3719, 13.6133, 17.3391, -145.519, -97.923, 142.516
0.088206, -1, 11.3633, 13.6121, 17.3388, -145.519, -97.923, 142.515
0.096282, -1, 11.3493, 13.6094, 17.3381, -145.52, -97.9229, 142.511
0.104211, -1, 11.3277, 13.6047, 17.3372, -145.523, -97.9226, 142.497
0.112217, -1, 11.2955, 13.5971, 17.3364, -145.528, -97.9214, 142.467
0.11923, -1, 11.2513, 13.5862, 17.3361, -145.537, -97.9189, 142.414
0.127196, -1, 11.1956, 13.5723, 17.3369, -145.551, -97.9145, 142.335
0.136618, -1, 11.1284, 13.555, 17.3397, -145.572, -97.9078, 142.221
0.145297, -1, 11.0494, 13.5339, 17.3449, -145.598, -97.8988, 142.073
0.151314, -1, 10.9585, 13.5092, 17.3523, -145.629, -97.8877, 141.891
0.159258, -1, 10.8566, 13.4812, 17.3619, -145.665, -97.8748, 141.679
0.167292, -1, 10.7437, 13.4499, 17.3729, -145.706, -97.8605, 141.443
0.175358, -1, 10.6199, 13.4156, 17.3843, -145.75, -97.8454, 141.188
0.183307, -1, 10.486, 13.3788, 17.3952, -145.795, -97.8298, 140.923
0.191336, -1, 10.3443, 13.34, 17.4056, -145.842, -97.8138, 140.651
0.199372, -1, 10.197, 13.3, 17.4157, -145.889, -97.7974, 140.375
0.207372, -1, 10.0459, 13.2593, 17.4257, -145.937, -97.7806, 140.097
0.215217, -1, 9.89226, 13.218, 17.4357, -145.985, -97.7635, 139.819
0.223292, -1, 9.73693, 13.1767, 17.4457, -146.033, -97.7463, 139.539
0.231251, -1, 9.58148, 13.1354, 17.4557, -146.08, -97.7292, 139.26
0.239453, -1, 9.42662, 13.0942, 17.4655, -146.129, -97.7123, 138.98
0.247378, -1, 9.27205, 13.0531, 17.4755, -146.177, -97.6956, 138.701
0.255426, -1, 9.11797, 13.012, 17.4854, -146.224, -97.6789, 138.421
0.263601, -1, 8.96435, 12.971, 17.4955, -146.273, -97.6621, 138.142
0.271557, -1, 8.81078, 12.93, 17.5056, -146.321, -97.6451, 137.862
0.279611, -1, 8.65757, 12.889, 17.5156, -146.368, -97.6277, 137.582
0.288284, -1, 8.50486, 12.8479, 17.5258, -146.416, -97.6102, 137.302
0.295712, -1, 8.35203, 12.8067, 17.536, -146.465, -97.5928, 137.022
0.3043, -1, 8.1987, 12.7653, 17.5461, -146.512, -97.5757, 136.742
0.311844, -1, 8.045, 12.7238, 17.5563, -146.56, -97.5589, 136.462
0.320377, -1, 7.89072, 12.6822, 17.5664, -146.608, -97.5421, 136.182
0.327746, -1, 7.81338, 12.6614, 17.5714, -146.632, -97.5338, 135.901
0.33622, -1, 7.58091, 12.5989, 17.5866, -146.704, -97.5088, 135.621
0.343187, -1, 7.50336, 12.5782, 17.5917, -146.728, -97.5003, 135.481
0.351243, -1, 7.34815, 12.5367, 17.6018, -146.776, -97.4831, 135.201
0.361209, -1, 7.11548, 12.4745, 17.6172, -146.848, -97.457, 134.78
0.367191, -1, 7.03789, 12.4539, 17.6223, -146.873, -97.4484, 134.64
0.375303, -1, 6.88266, 12.4126, 17.6325, -146.92, -97.4314, 134.36
0.3845, -1, 6.65035, 12.3508, 17.6481, -146.993, -97.4062, 133.94
0.391207, -1, 6.57308, 12.3302, 17.6533, -147.017, -97.3978, 133.799
0.399234, -1, 6.41872, 12.289, 17.6636, -147.065, -97.3811, 133.519
0.40719, -1, 6.26448, 12.2477, 17.674, -147.113, -97.3642, 133.239
0.417607, -1, 6.03301, 12.1855, 17.6893, -147.185, -97.3383, 132.817
0.423233, -1, 5.95574, 12.1649, 17.6944, -147.209, -97.3295, 132.677
0.432797, -1, 5.72369, 12.1025, 17.7097, -147.281, -97.3031, 132.256
0.441529, -1, 5.56875, 12.0608, 17.7199, -147.329, -97.2859, 131.975
0.447194, -1, 5.49122, 12.04, 17.725, -147.353, -97.2774, 131.835
0.456738, -1, 5.33594, 11.9984, 17.7353, -147.401, -97.2605, 131.414
0.465695, -1, 5.18038, 11.9567, 17.7455, -147.45, -97.2438, 131.133
0.472253, -1, 5.02449, 11.9151, 17.7559, -147.498, -97.227, 130.992
0.480256, -1, 4.86861, 11.8735, 17.7663, -147.546, -97.21, 130.711
0.48826, -1, 4.71281, 11.832, 17.7767, -147.594, -97.1927, 130.43
0.49521, -1, 4.55702, 11.7906, 17.7871, -147.642, -97.1752, 130.15
0.635972, -1, 1.83543, 11.0626, 17.9683, -148.487, -96.8759, 125.224
0.637158, -1, 1.83543, 11.0626, 17.9683, -148.487, -96.8759, 125.224
0.63921, -1, 1.7572, 11.0418, 17.9735, -148.511, -96.8672, 125.083
0.640402, -1, 1.7572, 11.0418, 17.9735, -148.511, -96.8672, 125.083
0.64236, -1, 1.7572, 11.0418, 17.9735, -148.511, -96.8672, 124.942
0.644625, -1, 1.67901, 11.021, 17.9788, -148.536, -96.8586, 124.942
0.647366, -1, 1.6009, 11.0001, 17.984, -148.56, -96.8501, 124.801
0.651361, -1, 1.52288, 10.9792, 17.9892, -148.584, -96.8416, 124.661
0.789182, -1, -1.1299, 10.2694, 18.1656, -149.408, -96.5507, 119.857
0.7904, -1, -1.1299, 10.2694, 18.1656, -149.408, -96.5507, 119.857
0.793166, -1, -1.20843, 10.2485, 18.1708, -149.433, -96.5422, 119.715
0.794368, -1, -1.20843, 10.2485, 18.1708, -149.433, -96.5422, 119.715
0.796624, -1, -1.28692, 10.2276, 18.1759, -149.457, -96.5338, 119.574
0.797807, -1, -1.28692, 10.2276, 18.1759, -149.457, -96.5338, 119.574
0.799676, -1, -1.36534, 10.2067, 18.1811, -149.482, -96.5254, 119.432
0.804018, -1, -1.4437, 10.1858, 18.1862, -149.506, -96.5169, 119.291
0.805361, -1, -1.4437, 10.1858, 18.1862, -149.506, -96.5169, 119.291
0.806548, -1, -1.4437, 10.1858, 18.1862, -149.506, -96.5169, 119.291
0.808577, -1, -1.522, 10.1649, 18.1914, -149.53, -96.5085, 119.149
0.809789, -1, -1.522, 10.1649, 18.1914, -149.53, -96.5085, 119.149
0.811694, -1, -1.522, 10.144, 18.1967, -149.554, -96.5001, 119.007
0.814571, -1, -1.60024, 10.144, 18.1967, -149.554, -96.5001, 119.007
0.817495, -1, -1.67837, 10.1231, 18.202, -149.579, -96.4916, 118.866
0.82073, -1, -1.75639, 10.1022, 18.2072, -149.603, -96.483, 118.724
0.822038, -1, -1.75639, 10.1022, 18.2072, -149.603, -96.483, 118.724
0.823819, -1, -1.83427, 10.0813, 18.2124, -149.627, -96.4744, 118.582
0.825326, -1, -1.83427, 10.0813, 18.2124, -149.627, -96.4744, 118.582
0.826525, -1, -1.83427, 10.0813, 18.2124, -149.627, -96.4744, 118.582
0.828554, -1, -1.91204, 10.0604, 18.2176, -149.652, -96.4657, 118.441
0.829769, -1, -1.91204, 10.0604, 18.2176, -149.652, -96.4657, 118.441
0.832175, -1, -1.98972, 10.0395, 18.2228, -149.676, -96.4568, 118.299
0.833549, -1, -1.98972, 10.0395, 18.2228, -149.676, -96.4568, 118.299
0.83484, -1, -1.98972, 10.0395, 18.2228, -149.676, -96.4568, 118.299
0.836821, -1, -2.06733, 10.0186, 18.228, -149.7, -96.448, 118.157
0.838999, -1, -2.06733, 10.0186, 18.228, -149.7, -96.448, 118.157
0.8417, -1, -2.14489, 9.99766, 18.2332, -149.725, -96.4392, 118.016
0.843019, -1, -2.14489, 9.99766, 18.2332, -149.725, -96.4392, 118.016
0.845074, -1, -2.22246, 9.97677, 18.2384, -149.749, -96.4305, 117.874
0.848522, -1, -2.3001, 9.95588, 18.2435, -149.773, -96.4218, 117.732
0.849825, -1, -2.3001, 9.95588, 18.2435, -149.773, -96.4218, 117.732
0.851026, -1, -2.3001, 9.95588, 18.2435, -149.773, -96.4218, 117.732
0.853084, -1, -2.3778, 9.93497, 18.2488, -149.797, -96.4132, 117.59
0.854378, -1, -2.3778, 9.93497, 18.2488, -149.797, -96.4132, 117.59
0.856341, -1, -2.45556, 9.91401, 18.254, -149.822, -96.4046, 117.448
0.857715, -1, -2.45556, 9.91401, 18.254, -149.822, -96.4046, 117.448
0.867176, -1, -2.61129, 9.87204, 18.2644, -149.87, -96.3877, 117.165
0.872347, -1, -2.76726, 9.83013, 18.2747, -149.919, -96.371, 116.881
0.879231, -1, -2.8454, 9.80917, 18.2799, -149.943, -96.3626, 116.739
0.889334, -1, -3.08055, 9.74628, 18.2955, -150.016, -96.3371, 116.314
0.895229, -1, -3.15915, 9.72533, 18.3007, -150.041, -96.3285, 116.172
0.904646, -1, -3.39547, 9.66241, 18.3164, -150.113, -96.3022, 115.746
0.913626, -1, -3.55335, 9.62046, 18.3268, -150.162, -96.2846, 115.462
0.919241, -1, -3.63227, 9.59955, 18.332, -150.187, -96.2759, 115.32
0.92875, -1, -3.86915, 9.53671, 18.3475, -150.259, -96.2502, 114.894
0.937629, -1, -4.02716, 9.49477, 18.3579, -150.308, -96.2332, 114.61
0.943238, -1, -4.10608, 9.47384, 18.3631, -150.333, -96.2248, 114.468
0.952816, -1, -4.26381, 9.41099, 18.3785, -150.406, -96.1992, 114.041
0.961765, -1, -4.42143, 9.39, 18.3837, -150.43, -96.1906, 113.756
0.968199, -1, -4.57866, 9.34804, 18.394, -150.479, -96.173, 113.614
0.976218, -1, -4.73543, 9.30602, 18.4043, -150.528, -96.1553, 113.33
0.984241, -1, -4.8918, 9.26401, 18.4147, -150.577, -96.1377, 113.045
0.991233, -1, -5.04795, 9.22198, 18.4252, -150.626, -96.1204, 112.76
0.999163, -1, -5.20384, 9.17999, 18.4357, -150.674, -96.1034, 112.475
1.00717, -1, -5.35979, 9.13791, 18.4462, -150.723, -96.0865, 112.191
1.01518, -1, -5.51591, 9.09577, 18.4566, -150.772, -96.0697, 111.906
1.02317, -1, -5.67219, 9.05377, 18.4669, -150.821, -96.0527, 111.621
1.03121, -1, -5.82886, 9.01168, 18.4774, -150.87, -96.0354, 111.337
1.03923, -1, -5.98604, 8.96953, 18.4877, -150.919, -96.0179, 111.052
1.04723, -1, -6.14373, 8.92747, 18.498, -150.967, -96.0003, 110.767
1.05517, -1, -6.30197, 8.88537, 18.5083, -151.016, -95.9829, 110.481
1.06324, -1, -6.46037, 8.84331, 18.5185, -151.066, -95.9658, 110.196
1.07117, -1, -6.61882, 8.8013, 18.529, -151.114, -95.9488, 109.911
1.07918, -1, -6.77748, 8.75917, 18.5395, -151.163, -95.9319, 109.626
1.08723, -1, -6.93612, 8.7171, 18.55, -151.213, -95.9149, 109.34
1.09516, -1, -7.09461, 8.67506, 18.5604, -151.261, -95.8976, 109.055
1.10327, -1, -7.2531, 8.63296, 18.5708, -151.31, -95.88, 108.769
1.11124, -1, -7.4112, 8.59076, 18.5812, -151.36, -95.8623, 108.484
1.11916, -1, -7.56898, 8.54848, 18.5917, -151.409, -95.8446, 108.198
1.12731, -1, -7.72643, 8.50626, 18.6021, -151.458, -95.8273, 107.912
1.13516, -1, -7.88347, 8.46406, 18.6125, -151.507, -95.8102, 107.627
1.14317, -1, -8.04024, 8.42177, 18.6229, -151.555, -95.7933, 107.341
1.1526, -1, -8.19678, 8.37947, 18.6333, -151.605, -95.7764, 107.055
1.1592, -1, -8.35342, 8.33717, 18.6438, -151.654, -95.7593, 106.769
1.16735, -1, -8.51032, 8.2948, 18.6544, -151.702, -95.742, 106.483
1.17525, -1, -8.66746, 8.25254, 18.6649, -151.752, -95.7244, 106.197
1.18332, -1, -8.82504, 8.21028, 18.6753, -151.801, -95.7067, 105.91
1.19128, -1, -8.98296, 8.16798, 18.6856, -151.85, -95.6893, 105.624
1.19929, -1, -9.14133, 8.12575, 18.696, -151.899, -95.672, 105.338
1.20738, -1, -9.30011, 8.08356, 18.7064, -151.948, -95.6549, 105.051
1.21529, -1, -9.45912, 8.04126, 18.7168, -151.997, -95.6379, 104.765
1.2232, -1, -9.61833, 7.99903, 18.7273, -152.047, -95.6207, 104.478
1.23128, -1, -9.77754, 7.95686, 18.7376, -152.096, -95.6033, 104.191
1.23922, -1, -9.9369, 7.91458, 18.7482, -152.145, -95.5856, 103.904
1.24739, -1, -10.0963, 7.87225, 18.7588, -152.195, -95.5676, 103.617
1.25542, -1, -10.2554, 7.82985, 18.7693, -152.244, -95.5499, 103.331
1.26341, -1, -10.4142, 7.78739, 18.7799, -152.293, -95.5326, 103.044
1.27159, -1, -10.5728, 7.7449, 18.7903, -152.343, -95.5155, 102.757
1.27954, -1, -10.7312, 7.70248, 18.8006, -152.392, -95.4984, 102.47
1.28769, -1, -10.8891, 7.65994, 18.8111, -152.441, -95.4814, 102.183
1.29698, -1, -11.0468, 7.61742, 18.8215, -152.49, -95.4641, 101.896
1.30434, -1, -11.2042, 7.575, 18.8319, -152.539, -95.4465, 101.608
1.31169, -1, -11.3616, 7.53255, 18.8423, -152.589, -95.4287, 101.321
1.32105, -1, -11.5192, 7.49006, 18.8527, -152.638, -95.4109, 101.034
1.32772, -1, -11.598, 7.46883, 18.858, -152.687, -95.3934, 100.746
1.33622, -1, -11.8351, 7.40523, 18.8739, -152.737, -95.3761, 100.458
1.34463, -1, -11.9144, 7.38404, 18.8791, -152.761, -95.3675, 100.171
1.35115, -1, -12.0731, 7.34166, 18.8897, -152.811, -95.3503, 100.027
1.36021, -1, -12.312, 7.27811, 18.9054, -152.885, -95.3244, 99.595
1.36723, -1, -12.3918, 7.25691, 18.9107, -152.91, -95.3157, 99.4509
1.37515, -1, -12.5517, 7.21451, 18.9212, -152.959, -95.2979, 99.1632
1.38435, -1, -12.7917, 7.15091, 18.937, -153.033, -95.2709, 98.7315
1.3912, -1, -12.8718, 7.12968, 18.9423, -153.058, -95.262, 98.5874
1.40061, -1, -13.1119, 7.06586, 18.9581, -153.132, -95.2358, 98.1553
1.40715, -1, -13.1918, 7.04457, 18.9633, -153.157, -95.2272, 98.0113
1.41668, -1, -13.4311, 6.9807, 18.9791, -153.231, -95.2016, 97.5791
1.42317, -1, -13.5108, 6.95934, 18.9844, -153.256, -95.1931, 97.4348
1.4327, -1, -13.7496, 6.89525, 19.0003, -153.33, -95.1673, 97.0021
1.44071, -1, -13.9084, 6.8526, 19.0107, -153.379, -95.1496, 96.7137
1.44715, -1, -13.9875, 6.83127, 19.0159, -153.404, -95.1407, 96.5694
1.45676, -1, -14.1457, 6.7886, 19.0264, -153.478, -95.1141, 96.1362
1.46466, -1, -14.3038, 6.74602, 19.0369, -153.503, -95.1054, 95.9917
1.47115, -1, -14.4621, 6.70335, 19.0474, -153.552, -95.0882, 95.7029
1.48016, -1, -14.6206, 6.66073, 19.0579, -153.602, -95.0709, 95.4138
1.48827, -1, -14.7795, 6.61822, 19.0684, -153.652, -95.0538, 95.1246
1.49616, -1, -14.9387, 6.57568, 19.0789, -153.701, -95.0365, 94.8354
1.50417, -1, -15.0983, 6.53302, 19.0896, -153.751, -95.019, 94.5463
1.51221, -1, -15.2582, 6.49045, 19.1002, -153.8, -95.0011, 94.2574
1.51917, -1, -15.4185, 6.44791, 19.1109, -153.85, -94.9831, 93.9681
1.52721, -1, -15.5792, 6.40523, 19.1214, -153.9, -94.9653, 93.6789
1.53519, -1, -15.74, 6.36257, 19.1319, -153.949, -94.9479, 93.3898
1.54315, -1, -15.9007, 6.31983, 19.1425, -153.999, -94.9306, 93.1004
1.55127, -1, -16.0615, 6.27699, 19.1531, -154.049, -94.9135, 92.8107
1.55923, -1, -16.2223, 6.23421, 19.1636, -154.098, -94.8964, 92.5211
1.56716, -1, -16.3828, 6.19131, 19.1741, -154.148, -94.879, 92.2316
1.57521, -1, -16.5431, 6.14835, 19.1845, -154.197, -94.8613, 91.9418
1.58314, -1, -16.7031, 6.10545, 19.1951, -154.247, -94.8434, 91.6517
1.59117, -1, -16.8627, 6.06256, 19.2057, -154.297, -94.8256, 91.3615
1.59925, -1, -17.022, 6.01964, 19.2163, -154.347, -94.808, 91.0715
1.60714, -1, -17.1812, 5.97674, 19.2269, -154.396, -94.7906, 90.7813
1.61515, -1, -17.3402, 5.93391, 19.2375, -154.446, -94.7733, 90.491
1.62321, -1, -17.4995, 5.89113, 19.2481, -154.496, -94.756, 90.2009
1.63117, -1, -17.6589, 5.84838, 19.2588, -154.546, -94.7385, 89.9107
1.63943, -1, -17.8183, 5.80565, 19.2694, -154.595, -94.7208, 89.6205
1.64715, -1, -17.9782, 5.76293, 19.2801, -154.646, -94.7027, 89.3299
1.65515, -1, -18.1385, 5.72022, 19.2907, -154.695, -94.6846, 89.0397
1.66354, -1, -18.2992, 5.67746, 19.3013, -154.745, -94.6669, 88.7492
1.67123, -1, -18.4605, 5.63467, 19.312, -154.795, -94.6493, 88.4583
1.67925, -1, -18.622, 5.59178, 19.3227, -154.845, -94.632, 88.1673
1.68777, -1, -18.7836, 5.54886, 19.3333, -154.895, -94.6148, 87.8766
1.69621, -1, -18.9451, 5.50593, 19.3439, -154.945, -94.5973, 87.5856
1.70325, -1, -19.1067, 5.46289, 19.3544, -154.995, -94.5797, 87.2943
1.71189, -1, -19.2682, 5.4198, 19.365, -155.045, -94.5617, 87.003
1.72021, -1, -19.4295, 5.37672, 19.3756, -155.095, -94.5436, 86.7116
1.72717, -1, -19.5905, 5.33356, 19.3861, -155.145, -94.5257, 86.4201
1.73619, -1, -19.7511, 5.29042, 19.3967, -155.195, -94.5082, 86.1285
1.74321, -1, -19.9116, 5.24734, 19.4072, -155.245, -94.4908, 85.837
1.75131, -1, -20.0718, 5.20421, 19.4179, -155.295, -94.4734, 85.5455
1.75946, -1, -20.2317, 5.16119, 19.4288, -155.345, -94.4559, 85.2539
1.76749, -1, -20.3916, 5.11832, 19.4395, -155.395, -94.4383, 84.9622
1.7762, -1, -20.5517, 5.07529, 19.4503, -155.445, -94.4203, 84.6706
1.78387, -1, -20.7118, 5.03236, 19.4609, -155.495, -94.4022, 84.3788
1.79225, -1, -20.8724, 4.98947, 19.4716, -155.545, -94.3843, 84.0868
1.79969, -1, -21.0334, 4.9465, 19.4823, -155.595, -94.3668, 83.7947
1.80828, -1, -21.1946, 4.9035, 19.4929, -155.646, -94.3494, 83.5027
1.81574, -1, -21.3564, 4.86045, 19.5035, -155.696, -94.3322, 83.2108
1.82436, -1, -21.5186, 4.81726, 19.5141, -155.746, -94.315, 82.9184
1.83196, -1, -21.5996, 4.79565, 19.5247, -155.797, -94.2975, 82.6259
1.83979, -1, -21.7619, 4.75251, 19.5301, -155.822, -94.2797, 82.3334
1.84831, -1, -22.0055, 4.68754, 19.5462, -155.896, -94.2618, 82.0408
1.85516, -1, -22.0867, 4.66586, 19.5516, -155.922, -94.2528, 81.8945
1.86425, -1, -22.3303, 4.60087, 19.5676, -155.997, -94.2262, 81.4555
1.87113, -1, -22.4114, 4.57919, 19.5729, -156.022, -94.2175, 81.3092
1.88065, -1, -22.6541, 4.51413, 19.589, -156.098, -94.1915, 80.8701
1.88721, -1, -22.7349, 4.49243, 19.5943, -156.123, -94.1827, 80.7237
1.89646, -1, -22.9767, 4.42745, 19.6103, -156.198, -94.1564, 80.2842
1.90314, -1, -23.0572, 4.40584, 19.6157, -156.223, -94.1474, 80.1378
1.91113, -1, -23.2182, 4.36258, 19.6263, -156.273, -94.1293, 79.8447
1.92062, -1, -23.4596, 4.29774, 19.6426, -156.349, -94.102, 79.4045
1.92915, -1, -23.6205, 4.25453, 19.6534, -156.4, -94.0841, 79.1114
1.93516, -1, -23.7011, 4.23293, 19.6587, -156.425, -94.0752, 78.9648
1.9447, -1, -23.9431, 4.16812, 19.6749, -156.5, -94.0489, 78.5246
1.95283, -1, -24.1049, 4.12478, 19.6855, -156.551, -94.0316, 78.2307
1.9608, -1, -24.186, 4.10312, 19.6908, -156.601, -94.014, 77.9369
1.96814, -1, -24.3485, 4.05975, 19.7016, -156.626, -94.0052, 77.79
1.97618, -1, -24.5113, 4.01634, 19.7122, -156.677, -93.9872, 77.496
1.98313, -1, -24.6744, 3.97283, 19.7228, -156.727, -93.969, 77.2018
1.99117, -1, -24.8376, 3.9293, 19.7334, -156.777, -93.951, 76.9078
1.99916, -1, -25.001, 3.88579, 19.7441, -156.828, -93.9333, 76.6138
2.00714, -1, -25.1643, 3.84222, 19.755, -156.878, -93.9156, 76.3197
2.01517, -1, -25.3274, 3.79867, 19.7659, -156.929, -93.8982, 76.0252
2.02315, -1, -25.4901, 3.7551, 19.7766, -156.979, -93.8806, 75.7311
2.03118, -1, -25.6528, 3.71144, 19.7873, -157.029, -93.8628, 75.4367
2.03914, -1, -25.8153, 3.66792, 19.798, -157.08, -93.8447, 75.1421
2.04714, -1, -25.9775, 3.62452, 19.8087, -157.13, -93.8263, 74.8474
2.05525, -1, -26.1395, 3.58098, 19.8195, -157.181, -93.808, 74.5529
2.06315, -1, -26.3012, 3.53758, 19.8302, -157.232, -93.79, 74.2582
2.07114, -1, -26.4628, 3.49423, 19.841, -157.282, -93.7723, 73.9633
2.07918, -1, -26.6247, 3.45075, 19.8516, -157.333, -93.7547, 73.6681
2.08726, -1, -26.7867, 3.40731, 19.8624, -157.384, -93.7372, 73.3731
2.09788, -1, -26.9492, 3.36381, 19.8733, -157.459, -93.7104, 72.9303
2.10414, -1, -27.1121, 3.32025, 19.8841, -157.485, -93.7013, 72.7825
2.11112, -1, -27.2751, 3.27669, 19.8949, -157.536, -93.683, 72.4875
2.11913, -1, -27.4387, 3.23303, 19.9056, -157.586, -93.6648, 72.1923
2.12721, -1, -27.6026, 3.18925, 19.9164, -157.636, -93.6469, 71.897
2.13516, -1, -27.7665, 3.14558, 19.9271, -157.687, -93.6291, 71.6013
2.14313, -1, -27.9306, 3.1019, 19.9379, -157.738, -93.6115, 71.3058
2.15137, -1, -28.0947, 3.05823, 19.9487, -157.789, -93.5938, 71.0102
2.15915, -1, -28.2588, 3.01449, 19.9595, -157.839, -93.576, 70.7143
2.16717, -1, -28.4229, 2.97074, 19.9702, -157.89, -93.5579, 70.4184
2.17545, -1, -28.5865, 2.92707, 19.9812, -157.941, -93.5395, 70.1226
2.18321, -1, -28.7501, 2.88342, 19.992, -157.992, -93.5211, 69.8267
2.19127, -1, -28.9134, 2.83974, 20.0028, -158.042, -93.503, 69.5303
2.19963, -1, -29.0761, 2.79612, 20.0136, -158.093, -93.4852, 69.234
2.20724, -1, -29.2388, 2.75246, 20.0243, -158.144, -93.4675, 68.9376
2.21513, -1, -29.4016, 2.70882, 20.0351, -158.195, -93.4499, 68.641
2.22393, -1, -29.5644, 2.6652, 20.0458, -158.246, -93.4322, 68.344
2.23221, -1, -29.7274, 2.62147, 20.0566, -158.297, -93.4141, 68.0475
2.23915, -1, -29.8905, 2.57773, 20.0674, -158.348, -93.3958, 67.7509
2.24804, -1, -30.0537, 2.53401, 20.0783, -158.399, -93.3774, 67.4541
2.25621, -1, -30.2174, 2.49012, 20.0892, -158.45, -93.3593, 67.157
2.26336, -1, -30.3815, 2.44621, 20.1001, -158.501, -93.3415, 66.8601
2.27242, -1, -30.546, 2.40232, 20.111, -158.552, -93.3237, 66.5631
2.27948, -1, -30.7109, 2.35833, 20.1217, -158.602, -93.3061, 66.2658
2.28761, -1, -30.8759, 2.31443, 20.1325, -158.654, -93.2882, 65.9685
2.2964, -1, -31.0409, 2.27051, 20.1434, -158.705, -93.2701, 65.6714
2.30366, -1, -31.2058, 2.22648, 20.1542, -158.755, -93.2517, 65.3741
2.31235, -1, -31.3706, 2.18265, 20.165, -158.807, -93.2332, 65.0766
2.3205, -1, -31.5353, 2.13882, 20.1757, -158.858, -93.215, 64.7788
2.3277, -1, -31.6998, 2.0948, 20.1865, -158.909, -93.1971, 64.4812
2.33624, -1, -31.8641, 2.05091, 20.1974, -158.96, -93.1794, 64.1833
2.34311, -1, -31.9461, 2.02897, 20.2029, -158.986, -93.1706, 64.0342
2.35112, -1, -32.11, 1.98503, 20.2138, -159.037, -93.153, 63.7363
2.36017, -1, -32.3556, 1.91916, 20.2303, -159.114, -93.1262, 63.2895
2.36713, -1, -32.4374, 1.89717, 20.2357, -159.139, -93.117, 63.1405
2.37511, -1, -32.6011, 1.85311, 20.2465, -159.19, -93.0987, 62.8423
2.38507, -1, -32.8469, 1.7871, 20.2629, -159.267, -93.0714, 62.395
2.39118, -1, -32.9289, 1.76507, 20.2683, -159.293, -93.0624, 62.2459
2.40045, -1, -33.1756, 1.69884, 20.2847, -159.37, -93.0356, 61.798
2.40718, -1, -33.2581, 1.67675, 20.2901, -159.395, -93.0267, 61.6487
2.41511, -1, -33.4232, 1.63263, 20.3009, -159.446, -93.0089, 61.3503
2.42461, -1, -33.6717, 1.56634, 20.3174, -159.524, -92.9816, 60.9023
2.43359, -1, -33.8373, 1.52219, 20.3283, -159.575, -92.963, 60.6034
2.43911, -1, -33.9201, 1.50011, 20.3338, -159.6, -92.9537, 60.4539
2.44868, -1, -34.1688, 1.43392, 20.35, -159.677, -92.9259, 60.0053
2.45734, -1, -34.2517, 1.38982, 20.3609, -159.729, -92.9077, 59.706
2.46312, -1, -34.4177, 1.36773, 20.3664, -159.754, -92.8987, 59.5562
2.47212, -1, -34.5835, 1.3236, 20.3772, -159.806, -92.881, 59.2568
2.48012, -1, -34.749, 1.27951, 20.3881, -159.857, -92.8633, 58.9577
2.48817, -1, -34.914, 1.23534, 20.399, -159.908, -92.8453, 58.6582
2.49618, -1, -35.0788, 1.1912, 20.4099, -159.96, -92.827, 58.3586
2.50413, -1, -35.2434, 1.14693, 20.4209, -160.011, -92.8084, 58.0588
2.51216, -1, -35.4079, 1.1027, 20.432, -160.063, -92.7899, 57.7592
2.52012, -1, -35.5714, 1.05878, 20.4431, -160.114, -92.7717, 57.4595
2.52815, -1, -35.7328, 1.01519, 20.4544, -160.165, -92.7537, 57.16
2.53616, -1, -35.8909, 0.972393, 20.4659, -160.216, -92.7358, 56.8626
2.54412, -1, -36.0447, 0.930938, 20.4778, -160.267, -92.7182, 56.5694
2.55214, -1, -36.1925, 0.891314, 20.4897, -160.315, -92.7009, 56.2836
2.56017, -1, -36.3317, 0.854166, 20.5016, -160.362, -92.684, 56.0103
2.56813, -1, -36.4606, 0.820086, 20.5127, -160.405, -92.6681, 55.7562
2.57615, -1, -36.5776, 0.789135, 20.5227, -160.444, -92.6536, 55.5268
2.58312, -1, -36.6811, 0.761805, 20.5313, -160.477, -92.6412, 55.328
2.59113, -1, -36.7699, 0.73829, 20.5378, -160.505, -92.6311, 55.1633
2.59916, -1, -36.8443, 0.718519, 20.5419, -160.528, -92.6233, 55.0337
2.60712, -1, -36.9053, 0.702381, 20.544, -160.544, -92.6176, 54.9386
2.61513, -1, -36.9534, 0.689715, 20.5449, -160.556, -92.6139, 54.872
2.62317, -1, -36.9894, 0.680216, 20.5449, -160.563, -92.6115, 54.8289
2.63111, -1, -37.0152, 0.673381, 20.5444, -160.568, -92.6102, 54.8034
2.63914, -1, -37.0323, 0.668971, 20.5439, -160.57, -92.6095, 54.7896
2.6474, -1, -37.0425, 0.666483, 20.5436, -160.572, -92.6092, 54.7828
2.65511, 2, -37.0476, 0.665253, 20.5434, -160.572, -92.6091, 54.7796
2.66317, 2, -37.0487, 0.664696, 20.5434, -160.573, -92.609, 54.7781
2.67126, 2, -37.0484, 0.664458, 20.5434, -160.573, -92.6089, 54.7775
2.6792, 2, -37.048, 0.664349, 20.5433, -160.573, -92.6088, 54.7773
2.68723, 2, -37.048, 0.664291, 20.5433, -160.573, -92.6089, 54.7772
2.69527, 2, -37.0487, 0.66426, 20.5433, -160.573, -92.6089, 54.7772
2.70323, 2, -37.0497, 0.664186, 20.5431, -160.573, -92.609, 54.7773
2.71123, 2, -37.0509, 0.664027, 20.543, -160.573, -92.609, 54.7775
2.71927, 2, -37.0523, 0.663743, 20.5428, -160.573, -92.6091, 54.7776
2.72719, 2, -37.0535, 0.663488, 20.5426, -160.573, -92.6091, 54.7778
2.73516, 2, -37.0545, 0.663278, 20.5424, -160.573, -92.6092, 54.778
2.74324, 2, -37.0553, 0.663134, 20.5422, -160.573, -92.6092, 54.7781
2.75137, 2, -37.0555, 0.663068, 20.542, -160.573, -92.6092, 54.7784
2.75928, 2, -37.0551, 0.663044, 20.5419, -160.573, -92.6092, 54.7786
2.76747, 2, -37.0544, 0.66308, 20.5418, -160.573, -92.6093, 54.7788
2.77542, 2, -37.0535, 0.663124, 20.5417, -160.573, -92.6094, 54.779
2.78347, 2, -37.0522, 0.663185, 20.5417, -160.573, -92.6094, 54.7793
2.79164, 2, -37.0506, 0.663298, 20.5416, -160.573, -92.6094, 54.7795
2.80026, 2, -37.0493, 0.663388, 20.5415, -160.573, -92.6094, 54.7797
2.80766, 2, -37.0483, 0.663429, 20.5415, -160.573, -92.6094, 54.7798
2.81623, 2, -37.0478, 0.663419, 20.5415, -160.573, -92.6094, 54.7799
2.8237, 2, -37.0476, 0.663399, 20.5415, -160.573, -92.6094, 54.7799
2.83228, 2, -37.0478, 0.663325, 20.5414, -160.573, -92.6094, 54.7799
2.83981, 2, -37.0479, 0.663275, 20.5414, -160.573, -92.6094, 54.78
2.84832, 2, -37.0483, 0.663195, 20.5414, -160.573, -92.6095, 54.78
2.85511, 2, -37.0486, 0.663172, 20.5414, -160.573, -92.6095, 54.78
2.86417, 2, -37.0498, 0.663155, 20.5414, -160.573, -92.6095, 54.7801
2.8711, 2, -37.0502, 0.663152, 20.5414, -160.573, -92.6095, 54.7801
2.88021, 2, -37.0513, 0.663192, 20.5413, -160.573, -92.6095, 54.7801
2.88725, 2, -37.0515, 0.663196, 20.5413, -160.573, -92.6095, 54.7801
2.89516, 2, -37.0517, 0.663238, 20.5413, -160.573, -92.6095, 54.7803
2.90312, 2, -37.0518, 0.663255, 20.5413, -160.573, -92.6095, 54.7803
2.9126, 2, -37.0516, 0.663264, 20.5413, -160.573, -92.6096, 54.7804
2.92062, 2, -37.0512, 0.663257, 20.5413, -160.573, -92.6095, 54.7804
2.92862, 2, -37.0507, 0.663253, 20.5413, -160.573, -92.6096, 54.7805
2.93705, 2, -37.0504, 0.663237, 20.5413, -160.573, -92.6096, 54.7805
2.94311, 2, -37.0503, 0.663237, 20.5413, -160.573, -92.6095, 54.7805
2.95112, 2, -37.0502, 0.663196, 20.5413, -160.573, -92.6095, 54.7805
2.96078, 2, -37.0501, 0.663182, 20.5413, -160.573, -92.6096, 54.7806
2.96884, 2, -37.0501, 0.663175, 20.5413, -160.573, -92.6096, 54.7807
2.9767, 2, -37.0501, 0.663172, 20.5412, -160.573, -92.6095, 54.7807
2.98413, 2, -37.0501, 0.663182, 20.5412, -160.572, -92.6095, 54.7808
2.99214, 2, -37.0502, 0.663194, 20.5412, -160.572, -92.6095, 54.7808
2.99912, 2, -37.0504, 0.663217, 20.5412, -160.572, -92.6095, 54.7809
3.00717, 2, -37.0506, 0.663228, 20.5412, -160.573, -92.6096, 54.7809
3.0151, 2, -37.0507, 0.663241, 20.5412, -160.573, -92.6096, 54.7809
3.02311, 2, -37.0508, 0.663251, 20.5412, -160.573, -92.6096, 54.781
3.03125, 2, -37.0508, 0.663256, 20.5412, -160.572, -92.6097, 54.781
3.0391, 2, -37.0507, 0.663251, 20.5412, -160.572, -92.6097, 54.7811
3.04711, 2, -37.0507, 0.663251, 20.5412, -160.572, -92.6097, 54.7812
3.05515, 2, -37.0507, 0.66322, 20.5412, -160.572, -92.6097, 54.7812
3.06315, 2, -37.0507, 0.663193, 20.5412, -160.572, -92.6097, 54.7812
3.07111, 2, -37.0507, 0.663191, 20.5411, -160.572, -92.6097, 54.7813
3.08013, 2, -37.0506, 0.663187, 20.5411, -160.572, -92.6097, 54.7813
3.08815, 2, -37.0506, 0.663178, 20.5411, -160.572, -92.6097, 54.7813
3.0961, 2, -37.0506, 0.663203, 20.5411, -160.572, -92.6098, 54.7813
3.10413, 2, -37.0506, 0.663222, 20.5411, -160.572, -92.6098, 54.7813
3.11216, 2, -37.0506, 0.663219, 20.5411, -160.572, -92.6098, 54.7814
3.1201, 2, -37.0506, 0.663222, 20.5411, -160.572, -92.6098, 54.7815
3.12715, 2, -37.0506, 0.663243, 20.5411, -160.572, -92.6098, 54.7816
3.13519, 2, -37.0505, 0.663252, 20.5411, -160.572, -92.6098, 54.7816
3.14313, 2, -37.0505, 0.663252, 20.5411, -160.572, -92.6098, 54.7817
3.15116, 2, -37.0505, 0.663249, 20.5411, -160.572, -92.6098, 54.7816
3.15911, 2, -37.0505, 0.66325, 20.5411, -160.572, -92.6098, 54.7817
3.16714, 2, -37.0505, 0.663248, 20.5411, -160.572, -92.6098, 54.7817
3.17525, 2, -37.0505, 0.663243, 20.5411, -160.572, -92.6099, 54.7817
3.18318, 2, -37.0505, 0.66324, 20.5411, -160.572, -92.6098, 54.7818
3.19121, 2, -37.0505, 0.663209, 20.541, -160.572, -92.6099, 54.7819
3.19927, 2, -37.0505, 0.663217, 20.541, -160.572, -92.6099, 54.7818
3.20721, 2, -37.0505, 0.66321, 20.541, -160.572, -92.6099, 54.7818
3.21522, 2, -37.0505, 0.663244, 20.541, -160.572, -92.6099, 54.7819
3.22325, 2, -37.0504, 0.663265, 20.541, -160.572, -92.6099, 54.782
3.23117, 2, -37.0504, 0.663263, 20.541, -160.572, -92.6099, 54.782
3.23915, 2, -37.0504, 0.663274, 20.541, -160.572, -92.6099, 54.782
3.24721, 2, -37.0504, 0.663279, 20.541, -160.572, -92.6099, 54.782
3.25521, 2, -37.0504, 0.663269, 20.541, -160.572, -92.6099, 54.7821
3.26331, 2, -37.0504, 0.663276, 20.541, -160.572, -92.6099, 54.782
3.2717, 2, -37.0504, 0.66326, 20.541, -160.572, -92.6099, 54.7821
3.28017, 2, -37.0503, 0.663255, 20.541, -160.572, -92.6099, 54.7821
3.28747, 2, -37.0503, 0.663251, 20.5409, -160.572, -92.6099, 54.7822
3.29588, 2, -37.0503, 0.663263, 20.5409, -160.572, -92.6099, 54.7822
3.30424, 2, -37.0503, 0.663267, 20.5409, -160.572, -92.6099, 54.7822
3.31165, 2, -37.0503, 0.66327, 20.5409, -160.572, -92.6099, 54.7822
3.3203, 2, -37.0503, 0.663258, 20.5409, -160.572, -92.6099, 54.7822
3.32767, 2, -37.0503, 0.663266, 20.5409, -160.572, -92.61, 54.7823
3.33626, 2, -37.0503, 0.663275, 20.5409, -160.572, -92.6099, 54.7823
3.34395, 2, -37.0503, 0.663279, 20.5409, -160.572, -92.6099, 54.7823
3.3522, 2, -37.0503, 0.663281, 20.5409, -160.572, -92.6099, 54.7824
3.3591, 2, -37.0503, 0.663282, 20.5409, -160.572, -92.6099, 54.7824
3.36816, 2, -37.0503, 0.663274, 20.5409, -160.572, -92.6099, 54.7824
3.37508, 2, -37.0503, 0.663277, 20.5409, -160.572, -92.6099, 54.7825
3.38426, 2, -37.0503, 0.663262, 20.5408, -160.572, -92.61, 54.7825
3.39112, 2, -37.0503, 0.663261, 20.5408, -160.572, -92.61, 54.7825
3.39915, 2, -37.0502, 0.663273, 20.5408, -160.572, -92.6099, 54.7825
3.4084, 2, -37.0502, 0.663259, 20.5408, -160.572, -92.6099, 54.7825
3.41512, 2, -37.0502, 0.66326, 20.5408, -160.572, -92.6099, 54.7825
3.42458, 2, -37.0502, 0.663272, 20.5408, -160.572, -92.6099, 54.7825
3.43262, 2, -37.0501, 0.663278, 20.5408, -160.572, -92.6099, 54.7825
3.44105, 2, -37.0502, 0.663281, 20.5408, -160.572, -92.6099, 54.7825
3.44871, 2, -37.0501, 0.663282, 20.5408, -160.572, -92.6099, 54.7825
3.45664, 2, -37.0502, 0.663282, 20.5408, -160.572, -92.6099, 54.7825
3.46488, 2, -37.0502, 0.663283, 20.5408, -160.572, -92.6099, 54.7825
3.47271, 2, -37.0501, 0.663283, 20.5408, -160.572, -92.61, 54.7825
3.48008, 2, -37.0501, 0.663283, 20.5408, -160.572, -92.61, 54.7826
3.48894, 2, -37.05, 0.663283, 20.5408, -160.572, -92.61, 54.7826
3.49507, 2, -37.0501, 0.663283, 20.5408, -160.572, -92.61, 54.7826
3.50309, 2, -37.0501, 0.663283, 20.5408, -160.572, -92.61, 54.7826
3.51114, 2, -37.0501, 0.663276, 20.5407, -160.572, -92.61, 54.7826
3.51908, 2, -37.0501, 0.663275, 20.5407, -160.572, -92.61, 54.7826
3.5271, 2, -37.05, 0.663279, 20.5407, -160.572, -92.61, 54.7826
3.5361, 2, -37.05, 0.663281, 20.5407, -160.572, -92.61, 54.7826
3.54413, 2, -37.05, 0.663282, 20.5407, -160.572, -92.61, 54.7826
3.55208, 2, -37.05, 0.663283, 20.5407, -160.572, -92.61, 54.7827
3.5601, 2, -37.05, 0.663283, 20.5407, -160.572, -92.61, 54.7827
3.56714, 2, -37.05, 0.663283, 20.5407, -160.572, -92.61, 54.7827
3.57509, 2, -37.0499, 0.663283, 20.5407, -160.572, -92.6101, 54.7827
3.58413, 2, -37.0499, 0.663283, 20.5407, -160.572, -92.6101, 54.7827
3.59213, 2, -37.0499, 0.663283, 20.5407, -160.572, -92.61, 54.7827
3.60008, 2, -37.0499, 0.663283, 20.5407, -160.572, -92.6101, 54.7827
3.60809, 2, -37.0499, 0.663283, 20.5407, -160.572, -92.6101, 54.7827
3.61614, 2, -37.0499, 0.663283, 20.5407, -160.572, -92.6101, 54.7828
3.62309, 2, -37.0499, 0.663283, 20.5407, -160.572, -92.6101, 54.7828
3.6321, 2, -37.0498, 0.663283, 20.5407, -160.572, -92.6101, 54.7828
3.63909, 2, -37.0498, 0.663283, 20.5407, -160.572, -92.6101, 54.7828
3.64712, 2, -37.0498, 0.663283, 20.5406, -160.572, -92.6101, 54.7828
3.65721, 2, -37.0498, 0.663283, 20.5406, -160.572, -92.6101, 54.7829
3.66446, 2, -37.0498, 0.663283, 20.5406, -160.572, -92.6101, 54.7829
3.67111, 2, -37.0498, 0.663301, 20.5406, -160.572, -92.6101, 54.7829
3.67923, 2, -37.0498, 0.663291, 20.5406, -160.572, -92.6101, 54.7829
3.68719, 2, -37.0497, 0.663298, 20.5406, -160.572, -92.6101, 54.7829
3.6953, 2, -37.0497, 0.663297, 20.5406, -160.572, -92.6101, 54.7829
3.70323, 2, -37.0497, 0.663289, 20.5406, -160.572, -92.6101, 54.7829
3.7112, 2, -37.0497, 0.663286, 20.5406, -160.572, -92.6101, 54.7829
3.71934, 4, -37.0497, 0.663284, 20.5406, -160.571, -92.6102, 54.7829
3.7272, 4, -37.0497, 0.663284, 20.5406, -160.571, -92.6101, 54.7829
3.73525, 4, -37.0496, 0.663283, 20.5406, -160.571, -92.6101, 54.7829
3.74316, 4, -37.0496, 0.663294, 20.5406, -160.571, -92.6101, 54.7829
3.75125, 4, -37.0496, 0.663325, 20.5406, -160.571, -92.6101, 54.7829
3.75925, 4, -37.0496, 0.663321, 20.5405, -160.571, -92.6101, 54.7829
3.76758, 4, -37.0496, 0.663337, 20.5405, -160.571, -92.6101, 54.7829
3.77537, 4, -37.0495, 0.663344, 20.5405, -160.571, -92.6101, 54.7829
3.78339, 4, -37.0495, 0.663348, 20.5405, -160.571, -92.61, 54.7829
3.79154, 4, -37.0495, 0.66335, 20.5405, -160.571, -92.61, 54.7829
3.79956, 4, -37.0495, 0.663332, 20.5405, -160.571, -92.6101, 54.7829
3.80758, 4, -37.0495, 0.663324, 20.5405, -160.571, -92.6101, 54.7829
3.81621, 4, -37.0495, 0.66332, 20.5405, -160.571, -92.6101, 54.7829
3.82382, 4, -37.0494, 0.663307, 20.5405, -160.571, -92.6101, 54.783
3.84571, 4, -37.0494, 0.663348, 20.5405, -160.571, -92.6101, 54.783
3.84701, 4, -37.0494, 0.663348, 20.5405, -160.571, -92.6101, 54.783
3.84907, 4, -37.0494, 0.663349, 20.5405, -160.571, -92.6102, 54.783
3.8567, 4, -37.0494, 0.663339, 20.5405, -160.571, -92.6101, 54.783
3.8642, 4, -37.0493, 0.663345, 20.5404, -160.571, -92.6101, 54.783
3.87107, 4, -37.0492, 0.663343, 20.5404, -160.571, -92.6101, 54.783
3.88099, 4, -37.0475, 0.662929, 20.5405, -160.571, -92.6102, 54.783
3.88824, 4, -37.0435, 0.661312, 20.541, -160.571, -92.6101, 54.783
3.89507, 4, -37.0404, 0.659838, 20.5415, -160.571, -92.6102, 54.783
3.90523, 4, -37.0279, 0.652718, 20.5453, -160.571, -92.6102, 54.783
3.91111, 4, -37.023, 0.649552, 20.5475, -160.571, -92.6102, 54.783
3.92053, 4, -37.0054, 0.637052, 20.5588, -160.568, -92.6102, 54.7829
3.92928, 5, -36.9907, 0.625846, 20.5701, -160.566, -92.6101, 54.7828
3.93508, 5, -36.9829, 0.619508, 20.577, -160.565, -92.6101, 54.7828
3.94308, 5, -36.9665, 0.605652, 20.5933, -160.561, -92.6099, 54.7827
3.95344, 5, -36.9391, 0.581889, 20.6218, -160.555, -92.6096, 54.7826
3.95906, 5, -36.9287, 0.57286, 20.6322, -160.553, -92.6095, 54.7826
3.96871, 5, -36.893, 0.542795, 20.6652, -160.546, -92.6091, 54.7824
3.97737, 5, -36.8799, 0.532269, 20.6764, -160.544, -92.609, 54.7823
3.98308, 5, -36.8528, 0.510815, 20.6991, -160.539, -92.6087, 54.7822
3.99207, 5, -36.825, 0.48875, 20.722, -160.534, -92.6083, 54.782
4.00008, 5, -36.7968, 0.466512, 20.7449, -160.529, -92.6079, 54.7819
4.00706, 5, -36.7684, 0.444336, 20.768, -160.524, -92.6074, 54.7817
4.01511, 5, -36.7401, 0.421914, 20.7909, -160.518, -92.6068, 54.7815
4.02406, 5, -36.7118, 0.399602, 20.8139, -160.513, -92.6063, 54.7813
4.03113, 5, -36.6837, 0.377339, 20.837, -160.508, -92.6057, 54.7811
4.03908, 5, -36.6558, 0.355049, 20.8601, -160.503, -92.6052, 54.7808
4.04806, 5, -36.6276, 0.333024, 20.8834, -160.497, -92.6045, 54.7807
4.05506, 5, -36.5994, 0.310974, 20.9064, -160.492, -92.6038, 54.7805
4.06356, 5, -36.5712, 0.289009, 20.9295, -160.487, -92.6031, 54.7804
4.07107, 5, -36.543, 0.267068, 20.9527, -160.482, -92.6024, 54.7803
4.07906, 5, -36.5151, 0.244923, 20.9758, -160.477, -92.6018, 54.7802
4.08808, 5, -36.4873, 0.222814, 20.999, -160.472, -92.601, 54.7801
4.09615, 5, -36.4595, 0.20073, 21.022, -160.468, -92.6003, 54.78
4.10306, 5, -36.4316, 0.178473, 21.045, -160.463, -92.5997, 54.7799
4.11208, 5, -36.4031, 0.156336, 21.0679, -160.458, -92.5989, 54.7798
4.12014, 5, -36.3745, 0.134105, 21.091, -160.453, -92.5982, 54.7797
4.12807, 5, -36.3459, 0.111772, 21.114, -160.449, -92.5975, 54.7795
4.13594, 5, -36.3173, 0.0896431, 21.137, -160.444, -92.5968, 54.7792
4.14413, 5, -36.2888, 0.0674603, 21.1599, -160.44, -92.5961, 54.7789
4.15107, 5, -36.2603, 0.0452835, 21.1828, -160.435, -92.5954, 54.7786
4.16008, 5, -36.2316, 0.0232621, 21.2058, -160.43, -92.5946, 54.7783
4.16813, 5, -36.2031, 0.00115904, 21.2287, -160.425, -92.5939, 54.778
4.1751, 5, -36.1745, -0.0207878, 21.2516, -160.42, -92.5932, 54.7776
4.18399, 5, -36.146, -0.042614, 21.2746, -160.416, -92.5925, 54.7772
4.19213, 5, -36.1177, -0.064619, 21.2975, -160.411, -92.5919, 54.7767
4.19922, 5, -36.0892, -0.0864522, 21.3205, -160.406, -92.5912, 54.7763
4.20794, 5, -36.0608, -0.108353, 21.3433, -160.401, -92.5905, 54.7759
4.21614, 5, -36.0325, -0.130405, 21.366, -160.396, -92.5898, 54.7754
4.22312, 5, -36.0039, -0.1523, 21.3888, -160.391, -92.5891, 54.7749
4.23219, 5, -35.9754, -0.174269, 21.4115, -160.385, -92.5885, 54.7745
4.24005, 5, -35.9468, -0.196313, 21.4345, -160.38, -92.5878, 54.7741
4.24715, 5, -35.9179, -0.218194, 21.4572, -160.374, -92.5872, 54.7736
4.25525, 5, -35.8891, -0.240166, 21.4798, -160.369, -92.5865, 54.7731
4.26319, 5, -35.8604, -0.262145, 21.5025, -160.364, -92.5859, 54.7727
4.27135, 5, -35.8316, -0.283897, 21.5251, -160.358, -92.5852, 54.7723
4.28021, 5, -35.8028, -0.305735, 21.5478, -160.353, -92.5845, 54.772
4.28816, 5, -35.774, -0.327554, 21.5704, -160.348, -92.5838, 54.7717
4.29558, 5, -35.7451, -0.349235, 21.593, -160.342, -92.5832, 54.7713
4.30497, 5, -35.7165, -0.371039, 21.6157, -160.337, -92.5825, 54.771
4.31243, 5, -35.6878, -0.392765, 21.6382, -160.332, -92.5818, 54.7708
4.31966, 5, -35.6591, -0.414423, 21.6608, -160.327, -92.5812, 54.7706
4.32895, 5, -35.6305, -0.436184, 21.6832, -160.322, -92.5806, 54.7704
4.33649, 5, -35.6017, -0.457856, 21.7056, -160.317, -92.5799, 54.7703
4.34369, 5, -35.573, -0.479609, 21.728, -160.312, -92.5793, 54.7701
4.353, 5, -35.5442, -0.501428, 21.7505, -160.307, -92.5787, 54.77
4.36071, 5, -35.5154, -0.523074, 21.7729, -160.302, -92.578, 54.7699
4.36811, 5, -35.4866, -0.544771, 21.7952, -160.297, -92.5773, 54.7698
4.37511, 5, -35.472, -0.555641, 21.8063, -160.295, -92.577, 54.7698
4.38312, 5, -35.443, -0.577217, 21.8286, -160.29, -92.5764, 54.7697
4.39105, 5, -35.4141, -0.598742, 21.8508, -160.285, -92.5757, 54.7697
4.4003, 5, -35.3705, -0.631216, 21.8843, -160.278, -92.5748, 54.7696
4.40712, 5, -35.356, -0.641922, 21.8954, -160.275, -92.5744, 54.7696
4.41511, 5, -35.327, -0.663345, 21.9176, -160.27, -92.5738, 54.7696
4.42446, 5, -35.2834, -0.695707, 21.9509, -160.262, -92.5728, 54.7696
4.43119, 5, -35.2689, -0.706425, 21.962, -160.26, -92.5725, 54.7695
4.43905, 5, -35.2399, -0.72786, 21.9842, -160.254, -92.5719, 54.7695
4.4486, 5, -35.1964, -0.76013, 22.0173, -160.246, -92.5709, 54.7696
4.45516, 5, -35.1819, -0.770762, 22.0283, -160.243, -92.5706, 54.7696
4.46306, 5, -35.1528, -0.792068, 22.0503, -160.238, -92.5699, 54.7696
4.47268, 5, -35.1236, -0.824152, 22.0834, -160.229, -92.5689, 54.7696
4.47904, 5, -35.0946, -0.834788, 22.0945, -160.227, -92.5686, 54.7696
4.48915, 5, -35.051, -0.866929, 22.1273, -160.218, -92.5676, 54.7696
4.49519, 5, -35.0364, -0.87765, 22.1382, -160.215, -92.5673, 54.7696
4.5041, 5, -35.0073, -0.898905, 22.1602, -160.21, -92.5666, 54.7697
4.51105, 5, -34.9779, -0.920233, 22.182, -160.204, -92.566, 54.7697
4.52005, 5, -34.9488, -0.941614, 22.2039, -160.199, -92.5653, 54.7697
4.5333, 5, -34.8905, -0.984095, 22.2475, -160.188, -92.564, 54.7698
4.53512, 5, -34.8905, -0.984095, 22.2475, -160.188, -92.564, 54.7698
4.54405, 5, -34.8613, -1.00538, 22.2694, -160.183, -92.5633, 54.7698
4.55525, 5, -34.8174, -1.037, 22.302, -160.176, -92.5624, 54.7698
4.55912, 5, -34.8027, -1.04759, 22.3129, -160.173, -92.5621, 54.7699
4.56711, 5, -34.7734, -1.06878, 22.3347, -160.168, -92.5614, 54.77
4.57511, 5, -34.7442, -1.08985, 22.3562, -160.163, -92.5607, 54.7701
4.5841, 5, -34.7149, -1.111, 22.3778, -160.158, -92.56, 54.7701
4.59213, 5, -34.6856, -1.13221, 22.3995, -160.153, -92.5594, 54.7702
4.60005, 5, -34.6562, -1.15328, 22.4211, -160.148, -92.5587, 54.7703
4.60905, 5, -34.6268, -1.17441, 22.4427, -160.143, -92.5581, 54.7704
4.61607, 5, -34.5974, -1.19548, 22.4642, -160.138, -92.5574, 54.7705
4.62408, 5, -34.568, -1.21657, 22.4857, -160.133, -92.5567, 54.7707
4.63209, 5, -34.5385, -1.23775, 22.5071, -160.127, -92.556, 54.7709
4.64013, 5, -34.509, -1.25879, 22.5286, -160.122, -92.5553, 54.7712
4.64726, 5, -34.4795, -1.27974, 22.55, -160.117, -92.5547, 54.7714
4.65512, 5, -34.4501, -1.3008, 22.5714, -160.111, -92.554, 54.7718
4.66309, 5, -34.4206, -1.32166, 22.5928, -160.106, -92.5534, 54.7722
4.67106, 5, -34.391, -1.34255, 22.6142, -160.1, -92.5526, 54.7728
4.68005, 5, -34.3613, -1.36356, 22.6355, -160.094, -92.5519, 54.7735
4.68807, 5, -34.3317, -1.38442, 22.657, -160.089, -92.5513, 54.7742
4.69608, 5, -34.3022, -1.40524, 22.6782, -160.083, -92.5506, 54.775
4.70407, 5, -34.2726, -1.42617, 22.6994, -160.077, -92.5499, 54.776
4.71119, 5, -34.2431, -1.44701, 22.7207, -160.071, -92.5492, 54.777
4.71917, 5, -34.2134, -1.46782, 22.7418, -160.065, -92.5485, 54.7782
4.72712, 5, -34.1837, -1.48869, 22.7631, -160.06, -92.5478, 54.7794
4.73532, 5, -34.154, -1.50951, 22.7843, -160.054, -92.5471, 54.7807
4.74336, 5, -34.1243, -1.53022, 22.8054, -160.048, -92.5464, 54.782
4.75225, 5, -34.0946, -1.55099, 22.8265, -160.043, -92.5457, 54.7833
4.76006, 5, -34.065, -1.5717, 22.8476, -160.037, -92.545, 54.7847
4.76812, 5, -34.0352, -1.59238, 22.8686, -160.032, -92.5443, 54.7861
4.7754, 5, -34.0055, -1.61316, 22.8898, -160.027, -92.5435, 54.7876
4.78358, 5, -33.9758, -1.63386, 22.9107, -160.021, -92.5428, 54.7891
4.79207, 5, -33.946, -1.65443, 22.9318, -160.016, -92.5421, 54.7906
4.80017, 5, -33.9162, -1.67511, 22.9528, -160.011, -92.5414, 54.792
4.80753, 5, -33.8863, -1.69566, 22.9738, -160.005, -92.5407, 54.7935
4.8162, 5, -33.8564, -1.71621, 22.9948, -160, -92.5399, 54.795
4.82363, 5, -33.8266, -1.7369, 23.0156, -159.995, -92.5392, 54.7966
4.83214, 5, -33.7968, -1.75743, 23.0363, -159.989, -92.5385, 54.7981
4.84068, 5, -33.767, -1.77794, 23.0571, -159.984, -92.5378, 54.7995
4.8508, 5, -33.737, -1.79856, 23.078, -159.978, -92.537, 54.8011
4.85569, 5, -33.722, -1.80884, 23.0885, -159.975, -92.5363, 54.8026
4.8643, 5, -33.6771, -1.83962, 23.1195, -159.967, -92.5356, 54.8042
4.87111, 5, -33.6621, -1.84988, 23.1299, -159.964, -92.5352, 54.805
4.88023, 5, -33.6173, -1.88066, 23.1609, -159.955, -92.5342, 54.8072
4.88706, 5, -33.6024, -1.89089, 23.1712, -159.952, -92.5338, 54.808
4.89638, 5, -33.5573, -1.92151, 23.2022, -159.943, -92.5327, 54.8103
4.90303, 5, -33.5423, -1.93172, 23.2126, -159.94, -92.5323, 54.811
4.91233, 5, -33.4974, -1.96238, 23.2433, -159.931, -92.5312, 54.8135
4.91903, 5, -33.4824, -1.97265, 23.2537, -159.928, -92.5308, 54.8143
4.9288, 5, -33.4374, -2.0035, 23.2846, -159.919, -92.5297, 54.8166
4.93658, 5, -33.4073, -2.02403, 23.3052, -159.913, -92.5288, 54.818
4.94563, 5, -33.3774, -2.04477, 23.326, -159.907, -92.5279, 54.8194
4.95262, 5, -33.3475, -2.06552, 23.3466, -159.902, -92.5268, 54.8206
4.96065, 5, -33.3178, -2.08638, 23.3674, -159.896, -92.5256, 54.8216
4.96945, 5, -33.3029, -2.09694, 23.3884, -159.89, -92.5241, 54.8224
4.97507, 6, -33.273, -2.11815, 23.3989, -159.887, -92.5234, 54.8228
4.98524, 6, -33.2284, -2.15008, 23.4308, -159.877, -92.5207, 54.8233
4.99106, 6, -33.2137, -2.16089, 23.4416, -159.874, -92.5197, 54.8235
5.00113, 6, -33.1694, -2.19357, 23.4738, -159.864, -92.5162, 54.8236
5.0071, 6, -33.1548, -2.20456, 23.4847, -159.861, -92.5149, 54.8236
5.01604, 6, -33.1256, -2.22684, 23.5066, -159.854, -92.5123, 54.8236
5.02305, 6, -33.0963, -2.24927, 23.5286, -159.847, -92.5093, 54.8235
5.03204, 6, -33.0672, -2.27184, 23.5509, -159.84, -92.5061, 54.8232
5.04025, 6, -33.0383, -2.29474, 23.5732, -159.833, -92.5027, 54.8228
5.04783, 6, -33.0094, -2.3177, 23.5957, -159.825, -92.4992, 54.8222
5.05603, 6, -32.9806, -2.34112, 23.6185, -159.817, -92.4954, 54.8214
5.06408, 6, -32.9518, -2.36475, 23.6414, -159.808, -92.4914, 54.8204
5.072, 7, -32.923, -2.38843, 23.6646, -159.799, -92.4873, 54.8194
5.08003, 7, -32.8945, -2.41248, 23.6876, -159.79, -92.4828, 54.8182
5.08805, 7, -32.8662, -2.43662, 23.711, -159.781, -92.4783, 54.8167
5.09603, 7, -32.8378, -2.46106, 23.7345, -159.772, -92.4735, 54.8143
5.10403, 7, -32.8096, -2.48587, 23.7583, -159.763, -92.4685, 54.8112
5.11242, 7, -32.7813, -2.51067, 23.7823, -159.754, -92.4633, 54.8076
5.12003, 7, -32.7532, -2.53587, 23.8063, -159.744, -92.4579, 54.8033
5.12903, 7, -32.7253, -2.56127, 23.8305, -159.735, -92.4523, 54.7987
5.13708, 7, -32.6975, -2.58686, 23.8549, -159.726, -92.4464, 54.7937
5.14322, 7, -32.6698, -2.61282, 23.8795, -159.716, -92.4403, 54.7883
5.15109, 7, -32.6422, -2.6389, 23.9042, -159.706, -92.434, 54.7825
5.16025, 7, -32.6145, -2.6652, 23.9292, -159.696, -92.4274, 54.7764
5.16728, 7, -32.5871, -2.69173, 23.9543, -159.686, -92.4205, 54.77
5.17506, 8, -32.5597, -2.71865, 23.9797, -159.676, -92.4133, 54.7632
5.18308, 8, -32.5324, -2.74568, 24.0052, -159.665, -92.4058, 54.7561
5.19204, 8, -32.5053, -2.77296, 24.0306, -159.653, -92.3978, 54.7487
5.2001, 8, -32.478, -2.80046, 24.0564, -159.642, -92.3896, 54.7411
5.20808, 8, -32.451, -2.82816, 24.0824, -159.63, -92.3809, 54.7331
5.21552, 8, -32.4241, -2.85619, 24.1086, -159.619, -92.3719, 54.7248
5.22315, 8, -32.3972, -2.88431, 24.1349, -159.607, -92.3628, 54.7161
5.2312, 8, -32.3705, -2.91275, 24.1613, -159.596, -92.3534, 54.7072
5.2393, 8, -32.3439, -2.94137, 24.1879, -159.584, -92.344, 54.6979
5.24802, 8, -32.3171, -2.97032, 24.2148, -159.572, -92.3345, 54.6882
5.25609, 8, -32.2907, -2.99941, 24.2418, -159.561, -92.3249, 54.6782
5.26312, 8, -32.2645, -3.02869, 24.269, -159.548, -92.3151, 54.6679
5.27165, 9, -32.2383, -3.05819, 24.2963, -159.536, -92.3053, 54.6572
5.2801, 9, -32.2122, -3.08803, 24.324, -159.523, -92.2953, 54.6462
5.28811, 9, -32.1862, -3.11804, 24.3516, -159.51, -92.2851, 54.6353
5.29605, 9, -32.1601, -3.14829, 24.3793, -159.496, -92.2746, 54.6242
5.30343, 9, -32.1342, -3.17879, 24.4074, -159.483, -92.2636, 54.613
5.31211, 9, -32.1085, -3.20955, 24.4357, -159.469, -92.2523, 54.6016
5.31962, 9, -32.0829, -3.24056, 24.464, -159.456, -92.2405, 54.5902
5.32821, 9, -32.0572, -3.27179, 24.4925, -159.442, -92.2283, 54.5786
5.33578, 9, -32.0317, -3.30329, 24.5212, -159.429, -92.2159, 54.5668
5.34517, 9, -32.0062, -3.33504, 24.5501, -159.415, -92.2034, 54.5547
5.35155, 9, -31.9934, -3.35101, 24.5646, -159.408, -92.1907, 54.5423
5.36003, 9, -31.9555, -3.39914, 24.6083, -159.387, -92.178, 54.5295
5.36707, 9, -31.943, -3.41532, 24.6229, -159.379, -92.1716, 54.5229
5.37501, 10, -31.9179, -3.44793, 24.6525, -159.364, -92.1588, 54.5096
5.38461, 10, -31.8807, -3.49722, 24.697, -159.341, -92.1391, 54.4886
5.39103, 10, -31.8683, -3.51377, 24.7119, -159.334, -92.1324, 54.4814
5.39907, 10, -31.8434, -3.54703, 24.7419, -159.319, -92.1186, 54.4668
5.40977, 10, -31.8063, -3.59744, 24.7873, -159.296, -92.0972, 54.4444
5.41724, 10, -31.7818, -3.63126, 24.8176, -159.281, -92.0822, 54.4295
5.42304, 10, -31.7696, -3.64829, 24.8329, -159.274, -92.0746, 54.422
5.43245, 10, -31.7332, -3.6998, 24.8791, -159.25, -92.0519, 54.3994
5.44218, 10, -31.709, -3.73435, 24.91, -159.234, -92.0368, 54.3843
5.44701, 10, -31.6969, -3.75168, 24.9255, -159.226, -92.0292, 54.3766
5.45657, 10, -31.6607, -3.80404, 24.9725, -159.201, -92.0064, 54.3531
5.46533, 10, -31.6367, -3.83939, 25.004, -159.185, -91.991, 54.337
5.47124, 11, -31.6247, -3.85712, 25.0198, -159.177, -91.9832, 54.3288
5.48055, 11, -31.6007, -3.89269, 25.0514, -159.16, -91.9671, 54.312
5.48802, 11, -31.5769, -3.92847, 25.0834, -159.144, -91.9505, 54.2949
5.49604, 11, -31.5531, -3.96472, 25.1155, -159.127, -91.9335, 54.2773
5.50406, 11, -31.5293, -4.00105, 25.1476, -159.11, -91.9163, 54.2596
5.51393, 11, -31.4941, -4.05607, 25.1963, -159.084, -91.8905, 54.2329
5.52001, 11, -31.4824, -4.07461, 25.2127, -159.075, -91.8819, 54.224
5.52808, 11, -31.4591, -4.11181, 25.2454, -159.057, -91.8646, 54.206
5.53617, 11, -31.4358, -4.14913, 25.2782, -159.039, -91.8472, 54.1879
5.54393, 11, -31.4127, -4.18682, 25.3114, -159.021, -91.8292, 54.1695
5.55207, 11, -31.3895, -4.22481, 25.3447, -159.003, -91.8108, 54.1507
5.56001, 11, -31.3664, -4.26292, 25.378, -158.986, -91.7918, 54.1315
5.56804, 11, -31.3435, -4.30128, 25.4117, -158.967, -91.7726, 54.1115
5.57606, 12, -31.3208, -4.33997, 25.4455, -158.948, -91.7535, 54.0913
5.58401, 12, -31.2981, -4.37885, 25.4794, -158.929, -91.7345, 54.0708
5.59102, 12, -31.2756, -4.41797, 25.5135, -158.91, -91.7154, 54.0504
5.60001, 12, -31.2533, -4.45732, 25.548, -158.891, -91.6962, 54.0299
5.60802, 12, -31.2307, -4.49687, 25.5824, -158.872, -91.6763, 54.0094
5.61759, 12, -31.2082, -4.53665, 25.6171, -158.853, -91.656, 53.9885
5.62407, 12, -31.1861, -4.57676, 25.6521, -158.834, -91.6353, 53.9673
5.6322, 12, -31.164, -4.61706, 25.687, -158.814, -91.6146, 53.9456
5.64018, 12, -31.1419, -4.65758, 25.7221, -158.794, -91.594, 53.9234
5.64701, 12, -31.1199, -4.69836, 25.7576, -158.773, -91.5732, 53.9008
5.65601, 12, -31.0982, -4.7394, 25.7931, -158.753, -91.5523, 53.878
5.66309, 12, -31.0763, -4.78073, 25.8286, -158.733, -91.5307, 53.8554
5.67201, 13, -31.0543, -4.82232, 25.8645, -158.713, -91.5086, 53.8328
5.68043, 13, -31.0326, -4.86416, 25.9005, -158.693, -91.4861, 53.8099
5.68707, 13, -31.0111, -4.90624, 25.9367, -158.672, -91.4637, 53.7867
5.69601, 13, -30.9895, -4.94866, 25.9732, -158.651, -91.4414, 53.7631
5.70537, 13, -30.9681, -4.99132, 26.0097, -158.629, -91.4191, 53.7389
5.71118, 13, -30.947, -5.03419, 26.0464, -158.608, -91.3964, 53.7143
5.71912, 13, -30.9257, -5.07733, 26.0834, -158.587, -91.3731, 53.6898
5.72714, 13, -30.9045, -5.12066, 26.1205, -158.566, -91.3494, 53.6652
5.73534, 13, -30.8834, -5.16424, 26.1577, -158.544, -91.3257, 53.6406
5.74409, 13, -30.8625, -5.20808, 26.1952, -158.522, -91.302, 53.6156
5.75201, 13, -30.8417, -5.25201, 26.2329, -158.5, -91.2782, 53.5902
5.75911, 13, -30.8209, -5.2962, 26.2706, -158.477, -91.254, 53.5642
5.76795, 13, -30.8003, -5.34072, 26.3087, -158.455, -91.2293, 53.5378
5.77526, 14, -30.7799, -5.38535, 26.3468, -158.433, -91.204, 53.5115
5.78326, 14, -30.7594, -5.43023, 26.385, -158.411, -91.1789, 53.4855
5.79225, 14, -30.739, -5.47542, 26.4236, -158.388, -91.1539, 53.4593
5.79954, 14, -30.7186, -5.5209, 26.4622, -158.365, -91.1289, 53.433
5.80807, 14, -30.6984, -5.56667, 26.5009, -158.342, -91.1034, 53.4062
5.8163, 14, -30.6781, -5.61268, 26.5399, -158.318, -91.0773, 53.3786
5.82355, 14, -30.6581, -5.65892, 26.5791, -158.295, -91.0506, 53.3504
5.83227, 14, -30.6381, -5.70549, 26.6183, -158.272, -91.0241, 53.322
5.84051, 14, -30.6183, -5.75232, 26.6579, -158.248, -90.9977, 53.294
5.84786, 14, -30.6083, -5.79937, 26.6976, -158.224, -90.9712, 53.266
5.85607, 14, -30.5787, -5.84663, 26.7374, -158.2, -90.944, 53.2376
5.86438, 14, -30.5689, -5.87037, 26.7574, -158.188, -90.9301, 53.2233
5.87096, 15, -30.5493, -5.918, 26.7976, -158.164, -90.9023, 53.1939
5.88011, 15, -30.52, -5.98973, 26.858, -158.128, -90.8609, 53.1492
5.88704, 15, -30.5104, -6.01374, 26.8784, -158.116, -90.8471, 53.1345
5.89502, 15, -30.4912, -6.06197, 26.9191, -158.091, -90.8195, 53.105
5.90423, 15, -30.4625, -6.1347, 26.9805, -158.053, -90.7766, 53.0601
5.91102, 15, -30.4529, -6.15906, 27.001, -158.04, -90.7621, 53.0449
5.91905, 15, -30.4338, -6.208, 27.0421, -158.015, -90.7334, 53.014
5.92882, 15, -30.4054, -6.28192, 27.1042, -157.977, -90.6903, 52.967
5.93633, 15, -30.396, -6.30672, 27.1458, -157.952, -90.6611, 52.9357
5.94489, 15, -30.3678, -6.3815, 27.1875, -157.925, -90.631, 52.9044
5.95255, 15, -30.3492, -6.4318, 27.2295, -157.899, -90.6008, 52.8728
5.96056, 15, -30.3309, -6.48235, 27.2716, -157.873, -90.5709, 52.8407
5.96898, 16, -30.3125, -6.53316, 27.3139, -157.848, -90.5411, 52.8077
5.97762, 16, -30.2941, -6.58421, 27.3563, -157.822, -90.5107, 52.7749
5.98451, 16, -30.2849, -6.60983, 27.3776, -157.808, -90.4951, 52.7586
5.99204, 16, -30.2665, -6.66125, 27.4205, -157.781, -90.464, 52.7259
6.00001, 16, -30.2484, -6.71279, 27.4634, -157.754, -90.433, 52.6931
6.00699, 16, -30.2303, -6.76452, 27.5064, -157.728, -90.4021, 52.66
6.016, 16, -30.2122, -6.8165, 27.5498, -157.701, -90.3707, 52.626
6.02398, 16, -30.1943, -6.8686, 27.5933, -157.674, -90.3383, 52.5918
6.03414, 16, -30.1677, -6.94732, 27.659, -157.632, -90.29, 52.5413
6.03899, 16, -30.1589, -6.97365, 27.6809, -157.619, -90.274, 52.5243
6.04822, 16, -30.1412, -7.02658, 27.7249, -157.591, -90.2419, 52.49
6.05598, 16, -30.1235, -7.07982, 27.7691, -157.564, -90.2091, 52.455
6.06398, 16, -30.1059, -7.13332, 27.8133, -157.536, -90.1757, 52.4197
6.07099, 17, -30.0884, -7.18722, 27.8577, -157.508, -90.1428, 52.3847
6.07999, 17, -30.0711, -7.24141, 27.9024, -157.479, -90.1098, 52.3498
6.08801, 17, -30.0538, -7.29587, 27.9472, -157.451, -90.0763, 52.3146
6.09606, 17, -30.0367, -7.35059, 27.9922, -157.423, -90.0419, 52.2787
6.10398, 17, -30.0197, -7.40555, 28.0374, -157.394, -90.0079, 52.2423
6.11207, 17, -30.0028, -7.46065, 28.0827, -157.365, -89.9741, 52.2058
6.12103, 17, -29.9859, -7.51588, 28.1283, -157.335, -89.94, 52.1697
6.12814, 17, -29.969, -7.57137, 28.174, -157.306, -89.9049, 52.1333
6.13606, 17, -29.9522, -7.62696, 28.22, -157.277, -89.8699, 52.0962
6.14302, 17, -29.9355, -7.68274, 28.2661, -157.248, -89.8351, 52.0587
6.15198, 17, -29.919, -7.7388, 28.3124, -157.218, -89.8002, 52.0212
6.16006, 17, -29.9024, -7.79509, 28.3589, -157.188, -89.7643, 51.984
6.16824, 18, -29.8861, -7.85164, 28.4055, -157.158, -89.7281, 51.9465
6.175, 18, -29.8699, -7.90859, 28.4523, -157.129, -89.6925, 51.9082
6.18399, 18, -29.8537, -7.96585, 28.4992, -157.099, -89.6568, 51.8693
6.19206, 18, -29.8376, -8.0234, 28.5462, -157.068, -89.6203, 51.8308
6.20003, 18, -29.8214, -8.08121, 28.5935, -157.037, -89.5834, 51.7924
6.2081, 18, -29.8053, -8.13934, 28.641, -157.006, -89.547, 51.7536
6.21547, 18, -29.7893, -8.19762, 28.6885, -156.976, -89.5104, 51.7142
6.22411, 18, -29.7735, -8.25604, 28.7364, -156.945, -89.4727, 51.6743
6.23206, 18, -29.7577, -8.31471, 28.7845, -156.913, -89.4348, 51.6349
6.23966, 18, -29.7419, -8.37342, 28.8326, -156.882, -89.3975, 51.5955
6.24803, 18, -29.7263, -8.43233, 28.8811, -156.851, -89.36, 51.5555
6.25603, 18, -29.7108, -8.49141, 28.9297, -156.82, -89.3215, 51.515
6.26383, 18, -29.6954, -8.55077, 28.9784, -156.787, -89.2831, 51.4744
6.27317, 19, -29.68, -8.61038, 29.0273, -156.755, -89.2449, 51.4343
6.2793, 19, -29.6644, -8.67036, 29.0763, -156.723, -89.2063, 51.394
6.28822, 19, -29.6491, -8.73061, 29.1255, -156.692, -89.1668, 51.353
6.29542, 19, -29.6339, -8.79122, 29.1746, -156.66, -89.1278, 51.3115
6.30341, 19, -29.6188, -8.85212, 29.2241, -156.627, -89.089, 51.2706
6.31218, 19, -29.6038, -8.91329, 29.2737, -156.594, -89.0497, 51.2297
6.31954, 19, -29.5889, -8.97465, 29.3235, -156.562, -89.0098, 51.1881
6.32832, 19, -29.5741, -9.03623, 29.3735, -156.529, -88.9703, 51.1458
6.33611, 19, -29.5594, -9.09798, 29.4237, -156.495, -88.9307, 51.1033
6.34362, 19, -29.5448, -9.15979, 29.4742, -156.462, -88.8903, 51.061
6.35216, 19, -29.5302, -9.22183, 29.5247, -156.429, -88.8498, 51.0184
6.35954, 19, -29.523, -9.25291, 29.5501, -156.412, -88.8297, 50.9751
6.36799, 20, -29.5012, -9.34644, 29.6265, -156.362, -88.7693, 50.9315
6.37603, 20, -29.4868, -9.40917, 29.6776, -156.327, -88.728, 50.8883
6.38299, 20, -29.4796, -9.44063, 29.7032, -156.31, -88.7075, 50.8667
6.3921, 20, -29.4583, -9.53543, 29.7802, -156.26, -88.6463, 50.8009
6.399, 20, -29.4512, -9.56717, 29.8059, -156.243, -88.6256, 50.7786
6.40821, 20, -29.4301, -9.66294, 29.8833, -156.19, -88.5627, 50.7122
6.41498, 20, -29.4232, -9.69497, 29.9092, -156.173, -88.5419, 50.6903
6.42476, 20, -29.4025, -9.79145, 29.9872, -156.121, -88.4795, 50.6236
6.43121, 20, -29.3956, -9.82367, 30.0133, -156.104, -88.4582, 50.6011
6.4413, 20, -29.3751, -9.92072, 30.0918, -156.051, -88.3945, 50.5336
6.44709, 20, -29.3682, -9.95312, 30.1181, -156.033, -88.3735, 50.5114
6.45656, 20, -29.3476, -10.0506, 30.1971, -155.981, -88.3091, 50.444
6.46538, 20, -29.3341, -10.1159, 30.25, -155.945, -88.2659, 50.3982
6.47107, 21, -29.3274, -10.1486, 30.2765, -155.927, -88.2444, 50.3754
6.48063, 21, -29.3138, -10.2471, 30.3563, -155.873, -88.18, 50.3073
6.48951, 21, -29.3005, -10.28, 30.3829, -155.856, -88.158, 50.2845
6.49536, 21, -29.2872, -10.3461, 30.4364, -155.82, -88.1144, 50.2384
6.50405, 21, -29.2739, -10.4125, 30.4898, -155.784, -88.0711, 50.1921
6.51197, 21, -29.2608, -10.479, 30.5435, -155.747, -88.0271, 50.1464
6.51994, 21, -29.2478, -10.5459, 30.5973, -155.711, -87.9826, 50.1005
6.52946, 21, -29.2283, -10.6465, 30.6784, -155.657, -87.9168, 50.0305
6.535, 21, -29.2219, -10.6801, 30.7055, -155.638, -87.8946, 50.0071
6.54405, 21, -29.2089, -10.7475, 30.76, -155.601, -87.8494, 49.9607
6.55204, 21, -29.196, -10.8151, 30.8145, -155.564, -87.8048, 49.9141
6.55996, 21, -29.1831, -10.8829, 30.8692, -155.527, -87.7603, 49.8667
6.56948, 22, -29.1639, -10.985, 30.9516, -155.47, -87.6917, 49.7959
6.57596, 22, -29.1576, -11.0191, 30.9791, -155.451, -87.6692, 49.7724
6.58399, 22, -29.145, -11.0876, 31.0342, -155.414, -87.6243, 49.7252
6.59098, 22, -29.1325, -11.1562, 31.0895, -155.376, -87.5782, 49.6771
6.599, 22, -29.1201, -11.2251, 31.1448, -155.338, -87.532, 49.629
6.60801, 22, -29.1078, -11.2942, 31.2003, -155.299, -87.4865, 49.5813
6.61508, 22, -29.0957, -11.3634, 31.256, -155.262, -87.44, 49.5335
6.62444, 22, -29.0836, -11.4329, 31.3119, -155.223, -87.3934, 49.4848
6.63196, 22, -29.0715, -11.5026, 31.3679, -155.184, -87.3474, 49.4361
6.63999, 22, -29.0596, -11.5725, 31.4242, -155.146, -87.3008, 49.3877
6.64805, 22, -29.0476, -11.6427, 31.4806, -155.107, -87.2537, 49.3392
6.65596, 22, -29.0355, -11.713, 31.537, -155.068, -87.2073, 49.2899
6.66306, 22, -29.0236, -11.7836, 31.5937, -155.028, -87.1602, 49.241
6.67199, 23, -29.0119, -11.8543, 31.6506, -154.989, -87.1124, 49.1923
6.68004, 23, -29.0001, -11.9252, 31.7074, -154.95, -87.0654, 49.1432
6.68797, 23, -28.9884, -11.9963, 31.7644, -154.91, -87.0182, 49.0937
6.69604, 23, -28.9767, -12.0676, 31.8215, -154.87, -86.97, 49.0448
6.70396, 23, -28.9651, -12.139, 31.8788, -154.831, -86.9226, 48.9961
6.71197, 23, -28.9535, -12.2107, 31.9363, -154.791, -86.8747, 48.9466
6.71919, 23, -28.9422, -12.2824, 31.9939, -154.75, -86.8258, 48.8967
6.72803, 23, -28.9309, -12.3544, 32.0517, -154.711, -86.7778, 48.8474
6.73596, 23, -28.9197, -12.4267, 32.1098, -154.671, -86.7294, 48.7979
6.74404, 23, -28.9085, -12.4991, 32.1678, -154.63, -86.6801, 48.7477
6.75196, 23, -28.8974, -12.5717, 32.226, -154.588, -86.6316, 48.6977
6.75996, 23, -28.8862, -12.6445, 32.2844, -154.548, -86.5827, 48.6481
6.76802, 24, -28.875, -12.7175, 32.3429, -154.507, -86.533, 48.598
6.77604, 24, -28.8641, -12.7906, 32.4015, -154.465, -86.4843, 48.5472
6.78396, 24, -28.8531, -12.8639, 32.4601, -154.424, -86.435, 48.4968
6.7928, 24, -28.8422, -12.9374, 32.5189, -154.383, -86.3851, 48.4466
6.79996, 24, -28.8314, -13.0111, 32.5778, -154.341, -86.3359, 48.3957
6.80801, 24, -28.8206, -13.085, 32.637, -154.299, -86.286, 48.3447
6.81701, 24, -28.8098, -13.1591, 32.6962, -154.258, -86.2357, 48.2941
6.82506, 24, -28.7991, -13.2334, 32.7558, -154.216, -86.1862, 48.2434
6.83153, 24, -28.7884, -13.3079, 32.8153, -154.173, -86.1359, 48.1921
6.84058, 24, -28.7778, -13.3825, 32.875, -154.131, -86.0852, 48.1409
6.84808, 24, -28.7672, -13.4572, 32.9348, -154.09, -86.0354, 48.0902
6.85561, 24, -28.7567, -13.5322, 32.9947, -154.047, -85.9846, 48.0392
6.86694, 25, -28.7463, -13.6073, 33.0547, -154.004, -85.9337, 47.9878
6.87217, 25, -28.7359, -13.6826, 33.1149, -153.962, -85.8834, 47.9369
6.87896, 25, -28.7306, -13.7202, 33.145, -153.94, -85.858, 47.9117
6.88895, 25, -28.7151, -13.8336, 33.2356, -153.875, -85.7812, 47.8352
6.89608, 25, -28.7048, -13.9094, 33.2961, -153.832, -85.7305, 47.7838
6.90304, 25, -28.6997, -13.9473, 33.3265, -153.811, -85.7047, 47.7583
6.91331, 25, -28.6844, -14.0614, 33.4176, -153.745, -85.6275, 47.6822
6.91917, 25, -28.6794, -14.0996, 33.4481, -153.723, -85.6021, 47.6565
6.92694, 25, -28.6693, -14.1759, 33.5091, -153.68, -85.5506, 47.605
6.93726, 25, -28.6543, -14.2908, 33.6008, -153.614, -85.4734, 47.5288
6.94302, 25, -28.6493, -14.3291, 33.6315, -153.591, -85.4478, 47.5033
6.95254, 25, -28.6344, -14.4443, 33.7234, -153.526, -85.3695, 47.4259
6.96153, 25, -28.6246, -14.5213, 33.7849, -153.481, -85.3181, 47.3747
6.96693, 26, -28.6197, -14.5598, 33.8156, -153.459, -85.2924, 47.3493
6.97502, 26, -28.61, -14.637, 33.8772, -153.415, -85.2399, 47.2982
6.98554, 26, -28.6002, -14.7144, 33.9699, -153.348, -85.1622, 47.2208
6.99137, 26, -28.5906, -14.7919, 34.0008, -153.325, -85.1361, 47.1953
7.00001, 26, -28.5809, -14.8695, 34.0627, -153.28, -85.0831, 47.1443
7.00799, 26, -28.5712, -14.9472, 34.1249, -153.236, -85.0309, 47.0929
7.01671, 26, -28.5615, -15.0251, 34.187, -153.191, -84.9785, 47.0413
7.02377, 26, -28.5519, -15.1031, 34.2493, -153.145, -84.9254, 46.9905
7.03096, 26, -28.5423, -15.1812, 34.3118, -153.101, -84.873, 46.9397
7.03997, 26, -28.5326, -15.2593, 34.3742, -153.055, -84.8199, 46.8884
7.04802, 26, -28.5231, -15.3377, 34.4368, -153.009, -84.7668, 46.8375
7.05602, 26, -28.5136, -15.4163, 34.4994, -152.964, -84.7143, 46.7874
7.06576, 27, -28.4995, -15.5343, 34.5935, -152.895, -84.6344, 46.7109
7.07194, 27, -28.4947, -15.5737, 34.6249, -152.872, -84.608, 46.6852
7.07997, 27, -28.4852, -15.6527, 34.6878, -152.826, -84.5551, 46.6344
7.09005, 27, -28.4713, -15.7714, 34.7824, -152.756, -84.4746, 46.5582
7.09594, 27, -28.4667, -15.811, 34.8139, -152.733, -84.4483, 46.5325
7.10298, 27, -28.4575, -15.8903, 34.8772, -152.687, -84.395, 46.4813
7.11195, 27, -28.4483, -15.9698, 34.9406, -152.641, -84.3411, 46.4308
7.125, 27, -28.4347, -16.0891, 35.0357, -152.57, -84.2609, 46.3544
7.12789, 27, -28.4301, -16.129, 35.0674, -152.547, -84.2337, 46.3287
7.13594, 27, -28.421, -16.2087, 35.131, -152.501, -84.1799, 46.278
7.14399, 27, -28.4116, -16.2886, 35.1945, -152.453, -84.1266, 46.2277
7.15195, 27, -28.4024, -16.3686, 35.2581, -152.406, -84.0722, 46.177
7.15996, 27, -28.3933, -16.4486, 35.3219, -152.359, -84.0184, 46.1262
7.16796, 28, -28.384, -16.5288, 35.3857, -152.312, -83.9646, 46.0764
7.17603, 28, -28.3747, -16.6091, 35.4498, -152.264, -83.91, 46.0266
7.18394, 28, -28.3656, -16.6895, 35.5138, -152.217, -83.8564, 45.9764
7.19211, 28, -28.3565, -16.77, 35.578, -152.169, -83.8024, 45.9262
7.19904, 28, -28.3474, -16.8506, 35.6422, -152.122, -83.748, 45.8769
7.20798, 28, -28.3383, -16.9312, 35.7064, -152.074, -83.6943, 45.8274
7.21617, 28, -28.3292, -17.0119, 35.7706, -152.025, -83.6396, 45.7775
7.22347, 28, -28.3202, -17.0926, 35.8349, -151.977, -83.5854, 45.7282
7.23113, 28, -28.3113, -17.1735, 35.8994, -151.93, -83.5314, 45.6795
7.23905, 28, -28.3024, -17.2544, 35.9638, -151.88, -83.4766, 45.6305
7.24696, 28, -28.2934, -17.3353, 36.0283, -151.832, -83.4225, 45.5813
7.25594, 28, -28.2845, -17.4165, 36.093, -151.784, -83.3678, 45.5328
7.26418, 29, -28.2756, -17.4976, 36.1576, -151.735, -83.3129, 45.4847
7.27105, 29, -28.2667, -17.579, 36.2225, -151.686, -83.2588, 45.4363
7.2791, 29, -28.2576, -17.6604, 36.2873, -151.638, -83.2037, 45.3878
7.28877, 29, -28.2486, -17.7419, 36.3521, -151.588, -83.149, 45.34
7.29595, 29, -28.2396, -17.8234, 36.417, -151.54, -83.0944, 45.2925
7.30396, 29, -28.2306, -17.9049, 36.4818, -151.491, -83.039, 45.2447
7.31313, 29, -28.2216, -17.9866, 36.5466, -151.441, -82.9846, 45.1967
7.3202, 29, -28.2126, -18.0683, 36.6117, -151.392, -82.9295, 45.1496
7.32755, 29, -28.2037, -18.1501, 36.6767, -151.343, -82.8746, 45.1028
7.33642, 29, -28.1949, -18.2319, 36.7419, -151.293, -82.8201, 45.0558
7.34353, 29, -28.1859, -18.3138, 36.8072, -151.244, -82.7645, 45.0087
7.35206, 29, -28.177, -18.3958, 36.8724, -151.194, -82.7098, 44.9626
7.36232, 29, -28.1681, -18.4777, 36.9377, -151.143, -82.6551, 44.9167
7.3669, 30, -28.1637, -18.5187, 36.9704, -151.119, -82.6273, 44.8938
7.37598, 30, -28.1506, -18.6419, 37.0683, -151.044, -82.5452, 44.8245
7.38299, 30, -28.1462, -18.683, 37.101, -151.018, -82.5177, 44.8017
7.39209, 30, -28.1328, -18.8062, 37.1989, -150.944, -82.4344, 44.7343
7.39902, 30, -28.1284, -18.8474, 37.2316, -150.919, -82.4072, 44.7118
7.40897, 30, -28.1151, -18.971, 37.3296, -150.842, -82.3242, 44.6442
7.41651, 30, -28.1061, -19.0534, 37.3951, -150.793, -82.2692, 44.6001
7.42435, 30, -28.0971, -19.1359, 37.4607, -150.741, -82.214, 44.5564
7.43094, 30, -28.0925, -19.1772, 37.4934, -150.716, -82.186, 44.5345
7.44046, 30, -28.0792, -19.3008, 37.5919, -150.641, -82.1036, 44.4687
7.44841, 30, -28.0702, -19.3832, 37.6574, -150.589, -82.0483, 44.4255
7.4565, 30, -28.0611, -19.4657, 37.723, -150.539, -81.993, 44.3829
7.46454, 31, -28.052, -19.5481, 37.7885, -150.488, -81.9384, 44.3403
7.47254, 31, -28.043, -19.6305, 37.854, -150.436, -81.8827, 44.2976
7.48051, 31, -28.0384, -19.6717, 37.9196, -150.386, -81.8279, 44.2554
7.48892, 31, -28.0247, -19.7955, 37.9853, -150.335, -81.7729, 44.2141
7.49594, 31, -28.0201, -19.8368, 38.018, -150.309, -81.745, 44.1935
7.50394, 31, -28.011, -19.9194, 38.0838, -150.257, -81.6901, 44.1522
7.5138, 31, -27.9975, -20.0433, 38.1823, -150.18, -81.6072, 44.09
7.52368, 31, -27.9884, -20.126, 38.248, -150.128, -81.552, 44.0495
7.52689, 31, -27.9838, -20.1674, 38.2808, -150.103, -81.5247, 44.0294
7.53593, 31, -27.9746, -20.25, 38.3464, -150.051, -81.4693, 43.9895
7.54402, 31, -27.9655, -20.3326, 38.412, -149.999, -81.4139, 43.9495
7.55193, 31, -27.9562, -20.4152, 38.4776, -149.948, -81.359, 43.9096
7.55999, 31, -27.9469, -20.4979, 38.5432, -149.896, -81.3034, 43.8704
7.56791, 32, -27.9375, -20.5806, 38.6088, -149.844, -81.2485, 43.8319
7.57607, 32, -27.9282, -20.6633, 38.6744, -149.792, -81.1935, 43.7938
7.58394, 32, -27.9188, -20.7459, 38.74, -149.74, -81.1384, 43.7556
7.59193, 32, -27.9093, -20.8286, 38.8056, -149.688, -81.0838, 43.7176
7.59993, 32, -27.8998, -20.9112, 38.8711, -149.636, -81.0284, 43.6805
7.60696, 32, -27.8903, -20.9938, 38.9368, -149.584, -80.9734, 43.644
7.61609, 32, -27.8807, -21.0764, 39.0023, -149.532, -80.9188, 43.6079
7.62387, 32, -27.8711, -21.1589, 39.0678, -149.48, -80.8634, 43.5718
7.63199, 32, -27.8614, -21.2414, 39.1333, -149.427, -80.8089, 43.5359
7.64099, 32, -27.8518, -21.3239, 39.1987, -149.374, -80.754, 43.5009
7.64792, 32, -27.8422, -21.4064, 39.2641, -149.322, -80.6988, 43.4667
7.65599, 32, -27.8325, -21.4889, 39.3296, -149.269, -80.6445, 43.433
7.66446, 33, -27.8228, -21.5713, 39.395, -149.217, -80.5894, 43.3995
7.67094, 33, -27.813, -21.6539, 39.4605, -149.164, -80.5345, 43.366
7.67995, 33, -27.8031, -21.7363, 39.5258, -149.111, -80.4802, 43.333
7.68931, 33, -27.7931, -21.8186, 39.5912, -149.059, -80.425, 43.3011
7.69593, 33, -27.783, -21.901, 39.6565, -149.006, -80.3707, 43.2699
7.704, 33, -27.7729, -21.9833, 39.7217, -148.953, -80.3163, 43.239
7.71195, 33, -27.7628, -22.0656, 39.7868, -148.901, -80.2615, 43.2082
7.72067, 33, -27.7526, -22.1478, 39.8519, -148.847, -80.2075, 43.1776
7.72807, 33, -27.7423, -22.2301, 39.917, -148.795, -80.1526, 43.1476
7.73594, 33, -27.7321, -22.3122, 39.982, -148.742, -80.0981, 43.1185
7.74393, 33, -27.7219, -22.3944, 40.047, -148.688, -80.0445, 43.0903
7.75199, 33, -27.7115, -22.4765, 40.1121, -148.636, -79.9896, 43.0624
7.75994, 33, -27.7011, -22.5585, 40.177, -148.582, -79.9357, 43.035
7.76793, 34, -27.6908, -22.6404, 40.242, -148.529, -79.8815, 43.0075
7.77592, 34, -27.6804, -22.7223, 40.3069, -148.476, -79.8266, 42.9803
7.78424, 34, -27.6699, -22.8042, 40.3716, -148.422, -79.7729, 42.9538
7.79129, 34, -27.6593, -22.8859, 40.4363, -148.369, -79.7183, 42.9284
7.79927, 34, -27.6487, -22.9676, 40.5009, -148.316, -79.6639, 42.9038
7.80811, 34, -27.638, -23.0492, 40.5653, -148.262, -79.6101, 42.8798
7.81575, 34, -27.627, -23.1308, 40.6298, -148.21, -79.5552, 42.8562
7.82415, 34, -27.616, -23.2123, 40.6943, -148.156, -79.5014, 42.8328
7.83163, 34, -27.6051, -23.2939, 40.7587, -148.102, -79.4474, 42.8099
7.84004, 34, -27.594, -23.3753, 40.8231, -148.049, -79.3929, 42.7876
7.84811, 34, -27.5828, -23.4567, 40.8873, -147.995, -79.3393, 42.7662
7.85554, 34, -27.5773, -23.5381, 40.9516, -147.942, -79.2848, 42.7457
7.86397, 35, -27.5605, -23.6193, 41.0156, -147.889, -79.2307, 42.726
7.87194, 35, -27.5491, -23.7003, 41.0795, -147.835, -79.1774, 42.707
7.88021, 35, -27.5379, -23.7813, 41.1434, -147.782, -79.123, 42.6888
7.88791, 35, -27.5265, -23.8621, 41.2071, -147.728, -79.0695, 42.6711
7.89611, 35, -27.5151, -23.9428, 41.2709, -147.674, -79.0158, 42.6538
7.90293, 35, -27.5093, -23.9831, 41.3027, -147.648, -78.9886, 42.6453
7.91263, 35, -27.4919, -24.1039, 41.3981, -147.567, -78.9083, 42.6204
7.92112, 35, -27.4801, -24.1843, 41.4617, -147.513, -78.8546, 42.6047
7.92698, 35, -27.4741, -24.2245, 41.4934, -147.487, -78.8275, 42.5971
7.93646, 35, -27.4561, -24.345, 41.5885, -147.406, -78.7477, 42.5757
7.94442, 35, -27.444, -24.4252, 41.6518, -147.353, -78.6938, 42.5625
7.95245, 35, -27.4317, -24.5052, 41.7148, -147.299, -78.6404, 42.5501
7.96271, 36, -27.4193, -24.5853, 41.7777, -147.245, -78.5874, 42.5385
7.96852, 36, -27.4069, -24.6651, 41.8404, -147.192, -78.5338, 42.5276
7.97672, 36, -27.3943, -24.7449, 41.9031, -147.137, -78.4811, 42.5175
7.98454, 36, -27.388, -24.7847, 41.9658, -147.084, -78.4282, 42.5081
7.9931, 36, -27.3691, -24.9041, 42.0283, -147.031, -78.3748, 42.4994
7.99992, 36, -27.3627, -24.9439, 42.0595, -147.004, -78.3486, 42.4953
8.00871, 36, -27.3499, -25.0232, 42.122, -146.95, -78.2962, 42.4876
8.01668, 36, -27.3371, -25.1025, 42.1843, -146.897, -78.2429, 42.4806
8.02298, 36, -27.324, -25.1817, 42.2465, -146.842, -78.1905, 42.4742
8.03196, 36, -27.3107, -25.2606, 42.3086, -146.789, -78.1379, 42.4686
8.03899, 36, -27.2974, -25.3394, 42.3704, -146.736, -78.085, 42.4636
8.04793, 36, -27.284, -25.4182, 42.4321, -146.681, -78.0328, 42.4595
8.05596, 36, -27.2704, -25.4967, 42.4937, -146.628, -77.9803, 42.4561
8.06289, 37, -27.2568, -25.5752, 42.5552, -146.574, -77.9277, 42.4536
8.07191, 37, -27.243, -25.6535, 42.6166, -146.521, -77.8758, 42.4519
8.07991, 37, -27.2291, -25.7317, 42.6778, -146.468, -77.8232, 42.4508
8.08792, 37, -27.2153, -25.8097, 42.739, -146.414, -77.771, 42.4503
8.09598, 37, -27.2014, -25.8876, 42.8, -146.361, -77.7194, 42.4501
8.10391, 37, -27.1873, -25.9653, 42.8609, -146.308, -77.6669, 42.45
8.11191, 37, -27.173, -26.0429, 42.9217, -146.254, -77.6152, 42.4501
8.12012, 37, -27.1586, -26.1203, 42.9823, -146.201, -77.5635, 42.4505
8.12791, 37, -27.144, -26.1975, 43.0427, -146.147, -77.5111, 42.4514
8.13692, 37, -27.1293, -26.2745, 43.103, -146.094, -77.4597, 42.4533
8.14398, 37, -27.1145, -26.3515, 43.163, -146.041, -77.4082, 42.4574
8.15189, 37, -27.0996, -26.4283, 43.2229, -145.988, -77.3561, 42.4627
8.16112, 38, -27.0846, -26.5049, 43.2828, -145.934, -77.305, 42.4693
8.16792, 38, -27.0694, -26.5814, 43.3424, -145.882, -77.2534, 42.4773
8.1759, 38, -27.0542, -26.6578, 43.402, -145.828, -77.2015, 42.4863
8.1853, 38, -27.0388, -26.734, 43.4614, -145.776, -77.1508, 42.4965
8.19195, 38, -27.0234, -26.8099, 43.5206, -145.723, -77.0992, 42.5076
8.19997, 38, -27.0076, -26.8857, 43.5796, -145.67, -77.0477, 42.5197
8.20792, 38, -26.9917, -26.9613, 43.6385, -145.617, -76.9969, 42.5329
8.21674, 38, -26.9757, -27.0367, 43.6972, -145.564, -76.9453, 42.547
8.22392, 38, -26.9595, -27.1118, 43.7558, -145.512, -76.8943, 42.5624
8.23197, 38, -26.9432, -27.1868, 43.8141, -145.46, -76.844, 42.5789
8.23997, 38, -26.9267, -27.2616, 43.8722, -145.407, -76.7928, 42.5965
8.24791, 38, -26.9101, -27.3363, 43.9302, -145.355, -76.7421, 42.6154
8.25592, 38, -26.8936, -27.4108, 43.9879, -145.303, -76.6918, 42.6356
8.26399, 39, -26.8767, -27.4851, 44.0455, -145.25, -76.6405, 42.6568
8.27191, 39, -26.8596, -27.5593, 44.103, -145.198, -76.5902, 42.6786
8.27991, 39, -26.8423, -27.6332, 44.1601, -145.146, -76.5399, 42.7012
8.28797, 39, -26.8248, -27.7068, 44.2172, -145.093, -76.4889, 42.7249
8.29591, 39, -26.8072, -27.7803, 44.2741, -145.042, -76.439, 42.7494
8.30392, 39, -26.7896, -27.8535, 44.3307, -144.99, -76.3886, 42.7753
8.31216, 39, -26.7716, -27.9266, 44.3872, -144.938, -76.3377, 42.8025
8.32084, 39, -26.7536, -27.9995, 44.4434, -144.887, -76.2878, 42.8309
8.32799, 39, -26.7355, -28.0721, 44.4993, -144.835, -76.2374, 42.8599
8.33608, 39, -26.7172, -28.1447, 44.5551, -144.784, -76.1866, 42.8896
8.34345, 39, -26.6988, -28.2169, 44.6107, -144.733, -76.1369, 42.9203
8.35203, 39, -26.68, -28.2889, 44.666, -144.681, -76.0865, 42.9523
8.36023, 40, -26.6611, -28.3608, 44.7213, -144.63, -76.0362, 42.9858
8.36754, 40, -26.6515, -28.3966, 44.7763, -144.58, -75.9869, 43.0205
8.37604, 40, -26.6228, -28.5035, 44.8311, -144.528, -75.9367, 43.0558
8.38397, 40, -26.6033, -28.5743, 44.8857, -144.478, -75.8868, 43.0917
8.392, 40, -26.5836, -28.645, 44.94, -144.428, -75.8375, 43.1289
8.39898, 40, -26.5738, -28.6803, 44.9671, -144.402, -75.8126, 43.148
8.4086, 40, -26.544, -28.7857, 45.0478, -144.328, -75.7377, 43.2074
8.41707, 40, -26.5238, -28.8557, 45.1015, -144.277, -75.6888, 43.2478
8.42418, 40, -26.5033, -28.9255, 45.1547, -144.227, -75.6389, 43.2893
8.43091, 40, -26.493, -28.9603, 45.1812, -144.202, -75.614, 43.3106
8.43912, 40, -26.4724, -29.0298, 45.2341, -144.153, -75.5651, 43.3543
8.44841, 40, -26.4408, -29.1334, 45.3131, -144.078, -75.4908, 43.4218
8.45917, 40, -26.4195, -29.2022, 45.3654, -144.029, -75.4415, 43.4677
8.46293, 41, -26.4088, -29.2364, 45.3915, -144.004, -75.4172, 43.4911
8.47248, 41, -26.3765, -29.3388, 45.4694, -143.931, -75.3434, 43.5638
8.48144, 41, -26.3545, -29.4066, 45.5209, -143.882, -75.2945, 43.6132
8.48691, 41, -26.3434, -29.4405, 45.5466, -143.858, -75.2703, 43.6382
8.4964, 41, -26.3213, -29.5081, 45.5978, -143.809, -75.2213, 43.6892
8.50391, 41, -26.2989, -29.5753, 45.6487, -143.761, -75.1721, 43.7421
8.51107, 41, -26.2763, -29.6423, 45.6993, -143.713, -75.124, 43.7956
8.51989, 41, -26.2535, -29.7091, 45.7496, -143.665, -75.0756, 43.8501
8.52792, 41, -26.2305, -29.7755, 45.7996, -143.617, -75.0268, 43.9064
8.5359, 41, -26.2071, -29.8416, 45.8492, -143.57, -74.9789, 43.964
8.54391, 41, -26.1835, -29.9074, 45.8987, -143.522, -74.9305, 44.0221
8.55199, 41, -26.1599, -29.9729, 45.9479, -143.476, -74.8817, 44.0824
8.56038, 42, -26.1359, -30.0381, 45.9968, -143.429, -74.834, 44.1439
8.56797, 42, -26.1117, -30.1028, 46.0454, -143.382, -74.786, 44.2058
8.57589, 42, -26.0873, -30.1674, 46.0939, -143.336, -74.7375, 44.2695
8.58598, 42, -26.05, -30.2635, 46.1656, -143.267, -74.6661, 44.3674
8.59191, 42, -26.0374, -30.2954, 46.1895, -143.243, -74.642, 44.4005
8.59994, 42, -26.0122, -30.359, 46.2369, -143.198, -74.5935, 44.4684
8.6079, 42, -25.9867, -30.4223, 46.284, -143.153, -74.5459, 44.5369
8.61669, 42, -25.961, -30.4852, 46.3308, -143.107, -74.4983, 44.6064
8.6229, 42, -25.9351, -30.5479, 46.3772, -143.063, -74.45, 44.6781
8.63195, 42, -25.9087, -30.61, 46.4233, -143.019, -74.4027, 44.75
8.6409, 42, -25.882, -30.6719, 46.469, -142.974, -74.3552, 44.8241
8.64789, 42, -25.8552, -30.7333, 46.5144, -142.93, -74.3071, 44.8994
8.6559, 42, -25.8281, -30.7944, 46.5595, -142.887, -74.2599, 44.9756
8.66389, 43, -25.8007, -30.8552, 46.6042, -142.844, -74.213, 45.0542
8.67196, 43, -25.7732, -30.9157, 46.6486, -142.8, -74.1653, 45.1331
8.6799, 43, -25.7453, -30.9758, 46.6926, -142.758, -74.1184, 45.2141
8.68808, 43, -25.7171, -31.0357, 46.7363, -142.716, -74.0715, 45.296
8.69589, 43, -25.6888, -31.0952, 46.7796, -142.673, -74.0238, 45.3792
8.70389, 43, -25.66, -31.1542, 46.8225, -142.632, -73.9771, 45.4639
8.71211, 43, -25.631, -31.2128, 46.8651, -142.591, -73.9307, 45.5494
8.71943, 43, -25.6016, -31.271, 46.9074, -142.55, -73.8834, 45.6368
8.72707, 43, -25.5718, -31.3288, 46.9493, -142.509, -73.8367, 45.7246
8.73603, 43, -25.542, -31.3861, 46.9908, -142.469, -73.7905, 45.8145
8.74389, 43, -25.5119, -31.4429, 47.0318, -142.429, -73.7433, 45.9051
8.75189, 43, -25.4814, -31.4993, 47.0725, -142.389, -73.6967, 45.9976
8.75988, 44, -25.4506, -31.5554, 47.1128, -142.35, -73.6508, 46.0908
8.76796, 44, -25.4192, -31.611, 47.1526, -142.312, -73.6042, 46.1862
8.77589, 44, -25.3875, -31.6664, 47.192, -142.274, -73.5577, 46.2824
8.78456, 44, -25.3556, -31.7213, 47.2311, -142.236, -73.512, 46.3806
8.79189, 44, -25.3235, -31.7759, 47.2696, -142.198, -73.4656, 46.4795
8.79996, 44, -25.291, -31.83, 47.3079, -142.162, -73.4193, 46.5803
8.80889, 44, -25.2582, -31.8837, 47.3456, -142.125, -73.3738, 46.6824
8.82154, 44, -25.2084, -31.9632, 47.4015, -142.071, -73.305, 46.8376
8.82392, 44, -25.1916, -31.9895, 47.42, -142.053, -73.2821, 46.8903
8.83228, 44, -25.1578, -32.0416, 47.4564, -142.018, -73.237, 46.9962
8.83942, 44, -25.1236, -32.093, 47.4924, -141.984, -73.1917, 47.1041
8.84799, 44, -25.089, -32.1441, 47.5281, -141.949, -73.1457, 47.2131
8.8583, 44, -25.0541, -32.1947, 47.5632, -141.915, -73.1006, 47.3238
8.8634, 45, -25.0366, -32.2197, 47.5806, -141.899, -73.056, 47.4359
8.87189, 45, -24.9833, -32.2945, 47.6321, -141.85, -73.0106, 47.5492
8.88075, 45, -24.9472, -32.3437, 47.6657, -141.817, -72.9658, 47.6641
8.88794, 45, -24.9109, -32.3926, 47.6988, -141.786, -72.9215, 47.7805
8.89496, 45, -24.8926, -32.4169, 47.7152, -141.77, -72.8991, 47.8392
8.90487, 45, -24.8372, -32.4888, 47.7637, -141.725, -72.8315, 48.017
8.91235, 45, -24.7997, -32.5361, 47.7953, -141.694, -72.7877, 48.1374
8.92029, 45, -24.7618, -32.5828, 47.8264, -141.664, -72.7434, 48.2592
8.92689, 45, -24.7428, -32.606, 47.8418, -141.65, -72.7211, 48.3207
8.93634, 45, -24.6852, -32.6743, 47.8873, -141.607, -72.6551, 48.5077
8.94289, 45, -24.6658, -32.6967, 47.9022, -141.593, -72.6333, 48.5708
8.95239, 45, -24.6067, -32.7633, 47.9461, -141.552, -72.5669, 48.7617
8.9605, 46, -24.567, -32.8069, 47.9748, -141.525, -72.5235, 48.8908
8.9685, 46, -24.5267, -32.8499, 48.0028, -141.499, -72.4805, 49.0212
8.97646, 46, -24.4861, -32.8923, 48.0302, -141.474, -72.4368, 49.153
8.98499, 46, -24.4451, -32.9341, 48.0571, -141.449, -72.3934, 49.2864
8.99271, 46, -24.4245, -32.9549, 48.0704, -141.437, -72.3508, 49.4213
9.00049, 46, -24.383, -32.996, 48.0965, -141.414, -72.3078, 49.5579
9.00979, 46, -24.3198, -33.0565, 48.1345, -141.379, -72.2645, 49.6961
9.01666, 46, -24.2986, -33.0763, 48.1469, -141.367, -72.2432, 49.7656
9.02394, 46, -24.2559, -33.1156, 48.1712, -141.346, -72.2012, 49.9057
9.03187, 46, -24.2127, -33.1542, 48.1951, -141.325, -72.1587, 50.0473
9.03994, 46, -24.169, -33.192, 48.2182, -141.305, -72.1161, 50.1901
9.04792, 46, -24.1249, -33.2292, 48.2407, -141.285, -72.0745, 50.3341
9.05588, 46, -24.0804, -33.2657, 48.2627, -141.266, -72.0329, 50.4796
9.06388, 47, -24.0355, -33.3014, 48.2841, -141.247, -71.9906, 50.6267
9.07194, 47, -23.99, -33.3364, 48.3049, -141.229, -71.9492, 50.7753
9.07995, 47, -23.9441, -33.3709, 48.325, -141.212, -71.9086, 50.9252
9.08788, 47, -23.8979, -33.4046, 48.3442, -141.196, -71.8675, 51.0768
9.09593, 47, -23.8511, -33.4375, 48.363, -141.181, -71.8263, 51.2294
9.10388, 47, -23.8039, -33.4697, 48.3811, -141.167, -71.7859, 51.3835
9.11205, 47, -23.7563, -33.5014, 48.3986, -141.154, -71.7459, 51.5393
9.11887, 47, -23.7083, -33.5322, 48.4156, -141.141, -71.7052, 51.6965
9.12787, 47, -23.6598, -33.5622, 48.4319, -141.129, -71.6651, 51.8552
9.13693, 47, -23.611, -33.5914, 48.4473, -141.118, -71.626, 52.0152
9.14394, 47, -23.5615, -33.6201, 48.4622, -141.107, -71.5868, 52.1766
9.15187, 47, -23.5115, -33.6477, 48.4763, -141.097, -71.5472, 52.3393
9.15992, 48, -23.4612, -33.6745, 48.4896, -141.087, -71.5086, 52.5034
9.16788, 48, -23.4104, -33.7006, 48.5021, -141.079, -71.4705, 52.6689
9.17594, 48, -23.359, -33.7259, 48.514, -141.072, -71.4321, 52.8359
9.18388, 48, -23.3073, -33.7505, 48.5253, -141.065, -71.3936, 53.0044
9.19196, 48, -23.2552, -33.7741, 48.5359, -141.06, -71.3562, 53.1742
9.19994, 48, -23.2025, -33.797, 48.5457, -141.055, -71.3193, 53.3453
9.20805, 48, -23.1494, -33.8189, 48.5546, -141.051, -71.2821, 53.5177
9.21581, 48, -23.0958, -33.8399, 48.5629, -141.049, -71.245, 53.6916
9.22387, 48, -23.0416, -33.8604, 48.5706, -141.047, -71.2087, 53.8673
9.23187, 48, -22.9871, -33.8798, 48.5774, -141.045, -71.1729, 54.0442
9.24008, 48, -22.932, -33.8981, 48.5835, -141.045, -71.1368, 54.2226
9.24787, 48, -22.8764, -33.9157, 48.5888, -141.045, -71.1009, 54.4023
9.25787, 49, -22.8204, -33.9324, 48.5933, -141.045, -71.066, 54.583
9.26388, 49, -22.764, -33.9479, 48.597, -141.047, -71.0316, 54.7651
9.27194, 49, -22.7071, -33.9625, 48.5997, -141.05, -70.9973, 54.9484
9.27995, 49, -22.6496, -33.9763, 48.6017, -141.053, -70.9628, 55.1334
9.28703, 49, -22.5917, -33.9893, 48.6029, -141.058, -70.9292, 55.3194
9.29509, 49, -22.5333, -34.0012, 48.6034, -141.064, -70.8963, 55.5071
9.30401, 49, -22.4744, -34.0118, 48.6035, -141.071, -70.8637, 55.6956
9.31201, 49, -22.415, -34.0216, 48.6031, -141.08, -70.8308, 55.8856
9.32192, 49, -22.3552, -34.0305, 48.6019, -141.089, -70.7986, 56.0771
9.3282, 49, -22.2948, -34.0384, 48.5999, -141.1, -70.7674, 56.2699
9.3354, 49, -22.234, -34.0454, 48.5971, -141.112, -70.7368, 56.4638
9.34397, 49, -22.1727, -34.0514, 48.5934, -141.125, -70.7063, 56.6592
9.35235, 49, -22.1109, -34.0563, 48.5886, -141.139, -70.6759, 56.8555
9.35948, 50, -22.0487, -34.0599, 48.5829, -141.154, -70.6463, 57.0532
9.36807, 50, -21.9859, -34.0625, 48.5763, -141.169, -70.6176, 57.2523
9.3767, 50, -21.9228, -34.064, 48.5688, -141.186, -70.5895, 57.4527
9.38397, 50, -21.8592, -34.0647, 48.5602, -141.203, -70.5614, 57.6542
9.39191, 50, -21.7949, -34.0646, 48.5507, -141.222, -70.5335, 57.857
9.39892, 50, -21.7626, -34.0643, 48.5457, -141.232, -70.5198, 57.9588
9.40701, 50, -21.6975, -34.0629, 48.535, -141.253, -70.4931, 58.1633
9.41486, 50, -21.6319, -34.0604, 48.5232, -141.275, -70.4673, 58.3694
9.4241, 50, -21.5329, -34.0544, 48.5037, -141.309, -70.4297, 58.6807
9.43087, 50, -21.4996, -34.0519, 48.4967, -141.32, -70.4173, 58.785
9.44035, 50, -21.3993, -34.0422, 48.4743, -141.357, -70.3805, 59.0994
9.4483, 50, -21.3319, -34.0341, 48.458, -141.384, -70.3569, 59.3103
9.45501, 50, -21.298, -34.0296, 48.4495, -141.398, -70.3455, 59.4162
9.46444, 51, -21.1955, -34.0143, 48.4228, -141.44, -70.3125, 59.7359
9.47245, 51, -21.1264, -34.0026, 48.4037, -141.469, -70.2912, 59.9506
9.48106, 51, -21.0569, -33.9896, 48.3836, -141.5, -70.2702, 60.1661
9.48842, 51, -21.0219, -33.9825, 48.3626, -141.532, -70.2497, 60.383
9.49651, 51, -20.9517, -33.9673, 48.3404, -141.565, -70.2296, 60.6011
9.50387, 51, -20.881, -33.9507, 48.329, -141.582, -70.22, 60.7106
9.51558, 51, -20.7743, -33.9239, 48.2934, -141.633, -70.1926, 61.0404
9.51884, 51, -20.7384, -33.9142, 48.2809, -141.651, -70.184, 61.1509
9.52985, 51, -20.6303, -33.8833, 48.2423, -141.707, -70.1594, 61.4837
9.53586, 51, -20.5941, -33.8724, 48.229, -141.725, -70.1515, 61.5952
9.54391, 51, -20.5212, -33.8495, 48.2015, -141.764, -70.1364, 61.8191
9.55186, 51, -20.4479, -33.8252, 48.1727, -141.803, -70.1217, 62.0439
9.5599, 52, -20.3741, -33.7996, 48.143, -141.844, -70.1077, 62.2698
9.56786, 52, -20.3, -33.7725, 48.1124, -141.886, -70.0942, 62.4965
9.57591, 52, -20.2254, -33.7444, 48.0808, -141.929, -70.0817, 62.7244
9.5854, 52, -20.1126, -33.6991, 48.0313, -141.996, -70.0649, 63.0685
9.59191, 52, -20.0749, -33.6833, 48.0143, -142.018, -70.0597, 63.1836
9.59992, 52, -19.999, -33.6506, 47.9796, -142.064, -70.0502, 63.4143
9.60709, 52, -19.9226, -33.6165, 47.9437, -142.111, -70.0416, 63.6457
9.61486, 52, -19.8458, -33.5809, 47.9068, -142.159, -70.034, 63.8783
9.62388, 52, -19.7687, -33.5441, 47.8689, -142.208, -70.0274, 64.1117
9.63186, 52, -19.6912, -33.5059, 47.8299, -142.259, -70.0216, 64.3461
9.64006, 52, -19.6135, -33.4663, 47.7898, -142.31, -70.0168, 64.581
9.64892, 52, -19.5353, -33.4252, 47.7488, -142.362, -70.013, 64.8169
9.65607, 53, -19.4568, -33.3827, 47.7065, -142.416, -70.0101, 65.054
9.66488, 53, -19.3779, -33.3387, 47.6633, -142.47, -70.0081, 65.2917
9.67186, 53, -19.2983, -33.2932, 47.619, -142.525, -70.007, 65.5303
9.68051, 53, -19.2185, -33.2462, 47.5736, -142.582, -70.0066, 65.7693
9.68692, 53, -19.1384, -33.1977, 47.5273, -142.639, -70.0068, 66.0092
9.69587, 53, -19.0578, -33.1477, 47.4797, -142.698, -70.0078, 66.25
9.70501, 53, -18.9771, -33.0962, 47.4312, -142.757, -70.0098, 66.4915
9.71111, 53, -18.8959, -33.0432, 47.3815, -142.818, -70.0128, 66.7338
9.71992, 53, -18.8144, -32.9888, 47.3307, -142.879, -70.017, 66.9766
9.72798, 53, -18.7326, -32.9327, 47.2789, -142.941, -70.0225, 67.2207
9.73585, 53, -18.6503, -32.8751, 47.2259, -143.004, -70.0291, 67.4652
9.74385, 53, -18.5678, -32.816, 47.1718, -143.068, -70.037, 67.7103
9.75373, 53, -18.4849, -32.7554, 47.1167, -143.133, -70.0462, 67.9558
9.75992, 54, -18.4016, -32.6931, 47.0605, -143.199, -70.0567, 68.2019
9.76793, 54, -18.3181, -32.6293, 47.0032, -143.266, -70.0686, 68.4487
9.77586, 54, -18.2343, -32.5639, 46.9448, -143.334, -70.0819, 68.6963
9.78399, 54, -18.1503, -32.497, 46.8854, -143.403, -70.0968, 68.9442
9.79187, 54, -18.066, -32.4286, 46.8249, -143.472, -70.1132, 69.1926
9.79997, 54, -17.9814, -32.3586, 46.7633, -143.543, -70.1307, 69.4418
9.80795, 54, -17.8964, -32.287, 46.7004, -143.614, -70.1492, 69.6917
9.81585, 54, -17.8112, -32.2138, 46.6365, -143.686, -70.1686, 69.9419
9.82392, 54, -17.7257, -32.1389, 46.5716, -143.759, -70.1892, 70.1924
9.83196, 54, -17.6401, -32.0624, 46.5054, -143.833, -70.2113, 70.4435
9.84006, 54, -17.5543, -31.9843, 46.4383, -143.907, -70.235, 70.6951
9.84795, 54, -17.4682, -31.9045, 46.3701, -143.982, -70.2604, 70.9471
9.85598, 55, -17.382, -31.8231, 46.3009, -144.058, -70.2867, 71.1995
9.86404, 55, -17.2956, -31.7401, 46.2306, -144.135, -70.3141, 71.4523
9.87196, 55, -17.2089, -31.6556, 46.1593, -144.213, -70.3428, 71.7059
9.88019, 55, -17.1219, -31.5695, 46.0868, -144.291, -70.3731, 71.9597
9.88843, 55, -17.0347, -31.4817, 46.0132, -144.37, -70.4053, 72.2138
9.89487, 55, -16.991, -31.4372, 45.976, -144.41, -70.4217, 72.3408
9.90407, 55, -16.8597, -31.3014, 45.8625, -144.53, -70.4723, 72.7223
9.91093, 55, -16.8159, -31.2553, 45.8241, -144.571, -70.4897, 72.8498
9.92014, 55, -16.6843, -31.1146, 45.7076, -144.693, -70.5454, 73.2324
9.92688, 55, -16.6404, -31.067, 45.6683, -144.734, -70.5647, 73.3599
9.93492, 55, -16.5526, -30.9705, 45.589, -144.816, -70.6038, 73.6151
9.94429, 55, -16.4205, -30.8225, 45.4679, -144.941, -70.6651, 73.9986
9.9531, 55, -16.3323, -30.7218, 45.3858, -145.025, -70.7083, 74.2544
9.96074, 56, -16.2439, -30.6194, 45.3026, -145.109, -70.7521, 74.5103
9.96847, 56, -16.1553, -30.5153, 45.2182, -145.194, -70.7974, 74.7661
9.9776, 56, -16.0667, -30.4097, 45.1329, -145.28, -70.845, 75.0222
9.98541, 56, -15.9778, -30.3026, 45.0467, -145.366, -70.8935, 75.2787
9.99085, 56, -15.9335, -30.2484, 45.0032, -145.409, -70.9182, 75.4069
10.0023, 56, -15.8006, -30.0836, 44.8714, -145.539, -70.9956, 75.7914
10.0068, 56, -15.7563, -30.0278, 44.8269, -145.583, -71.0219, 75.9197
10.0169, 56, -15.6232, -29.8579, 44.6919, -145.714, -71.103, 76.3049
10.0238, 56, -15.5787, -29.8005, 44.6464, -145.758, -71.1312, 76.4332
10.0319, 56, -15.4897, -29.6845, 44.5545, -145.846, -71.188, 76.6896
10.0399, 56, -15.4005, -29.567, 44.4615, -145.935, -71.2464, 76.9458
10.0478, 56, -15.3114, -29.448, 44.3678, -146.024, -71.3066, 77.202
10.056, 57, -15.2223, -29.3274, 44.2733, -146.113, -71.3675, 77.4581
10.063, 57, -15.1332, -29.2051, 44.1778, -146.202, -71.431, 77.7142
10.0719, 57, -15.0442, -29.0812, 44.0813, -146.292, -71.4951, 77.9699
10.0789, 57, -14.9554, -28.9557, 43.9838, -146.381, -71.5614, 78.2256
10.0879, 57, -14.8664, -28.8288, 43.8851, -146.472, -71.6285, 78.4814
10.0958, 57, -14.7774, -28.7003, 43.7856, -146.562, -71.6975, 78.7367
10.1029, 57, -14.6885, -28.5703, 43.6853, -146.652, -71.7681, 78.9918
10.1119, 57, -14.5996, -28.4386, 43.5843, -146.743, -71.8404, 79.2466
10.1199, 57, -14.5108, -28.3054, 43.4824, -146.834, -71.914, 79.5013
10.1279, 57, -14.4221, -28.1708, 43.3795, -146.924, -71.9893, 79.7558
10.1369, 57, -14.3336, -28.0349, 43.2755, -147.015, -72.0661, 80.0099
10.1439, 57, -14.2451, -27.8976, 43.1706, -147.106, -72.1447, 80.2635
10.1529, 57, -14.1566, -27.7586, 43.0648, -147.197, -72.2243, 80.5171
10.1588, 58, -14.0683, -27.6182, 42.9585, -147.288, -72.3057, 80.7704
10.1678, 58, -13.9801, -27.4763, 42.8514, -147.379, -72.3884, 81.023
10.1766, 58, -13.8919, -27.3332, 42.7435, -147.47, -72.4727, 81.2751
10.1847, 58, -13.804, -27.1887, 42.6348, -147.561, -72.5584, 81.5267
10.1918, 58, -13.7163, -27.0424, 42.5249, -147.652, -72.6459, 81.7781
10.2007, 58, -13.6288, -26.8945, 42.4144, -147.743, -72.7349, 82.0288
10.2078, 58, -13.5416, -26.7452, 42.3032, -147.833, -72.8252, 82.279
10.2158, 58, -13.4544, -26.5948, 42.1914, -147.924, -72.9175, 82.5286
10.2239, 58, -13.3673, -26.4432, 42.079, -148.014, -73.0111, 82.7779
10.2318, 58, -13.2804, -26.2899, 41.9656, -148.104, -73.1059, 83.0266
10.2399, 58, -13.1936, -26.1352, 41.8514, -148.194, -73.2025, 83.2746
10.248, 58, -13.107, -25.9794, 41.7363, -148.284, -73.3003, 83.5217
10.2558, 59, -13.0207, -25.8226, 41.6208, -148.373, -73.3993, 83.7683
10.2638, 59, -12.9346, -25.6646, 41.5047, -148.463, -73.5002, 84.0144
10.2757, 59, -12.8489, -25.505, 41.3882, -148.552, -73.6539, 84.3821
10.2801, 59, -12.7634, -25.3441, 41.271, -148.64, -73.7059, 84.5043
10.2881, 59, -12.6781, -25.182, 41.1528, -148.729, -73.8109, 84.7482
10.2959, 59, -12.593, -25.0191, 41.034, -148.817, -73.9173, 84.9916
10.3039, 59, -12.5081, -24.8548, 40.9147, -148.904, -74.0252, 85.2343
10.3119, 59, -12.4234, -24.6888, 40.795, -148.991, -74.1346, 85.4761
10.3199, 59, -12.339, -24.5218, 40.6748, -149.078, -74.2452, 85.7169
10.3279, 59, -12.2548, -24.3541, 40.5539, -149.165, -74.3573, 85.9568
10.3359, 59, -12.171, -24.1854, 40.4322, -149.25, -74.4708, 86.1961
10.3439, 59, -12.0875, -24.0152, 40.3102, -149.336, -74.5853, 86.4342
10.352, 59, -12.0044, -23.8435, 40.1877, -149.421, -74.7015, 86.6713
10.3594, 60, -11.9216, -23.6712, 40.065, -149.505, -74.8186, 86.9074
10.368, 60, -11.839, -23.4983, 39.9419, -149.589, -74.9372, 87.1427
10.3761, 60, -11.7565, -23.3241, 39.8182, -149.673, -75.057, 87.3772
10.3843, 60, -11.6746, -23.1484, 39.6941, -149.755, -75.1779, 87.6105
10.3908, 60, -11.6337, -23.0601, 39.6318, -149.796, -75.239, 87.7268
10.3999, 60, -11.5116, -22.7952, 39.4445, -149.919, -75.4236, 88.0739
10.4069, 60, -11.471, -22.7067, 39.3819, -149.959, -75.4859, 88.1892
10.416, 60, -11.35, -22.4389, 39.1936, -150.08, -75.6745, 88.5337
10.4228, 60, -11.3098, -22.349, 39.1306, -150.12, -75.7378, 88.648
10.4309, 60, -11.2299, -22.1687, 39.0044, -150.2, -75.8655, 88.8757
10.4403, 60, -11.1104, -21.8973, 38.8145, -150.318, -76.0586, 89.2147
10.4468, 60, -11.0708, -21.8063, 38.7511, -150.357, -76.1237, 89.3273
10.4549, 61, -10.9918, -21.623, 38.6242, -150.434, -76.2545, 89.5517
10.4644, 61, -10.874, -21.347, 38.4334, -150.549, -76.4527, 89.8857
10.4735, 61, -10.7958, -21.1628, 38.3061, -150.624, -76.586, 90.1066
10.4836, 61, -10.7182, -20.9774, 38.1786, -150.699, -76.7205, 90.3262
10.4868, 61, -10.6795, -20.8842, 38.1147, -150.736, -76.7881, 90.4355
10.4982, 61, -10.5643, -20.6043, 37.9228, -150.846, -76.9926, 90.762
10.5028, 61, -10.5261, -20.511, 37.8587, -150.883, -77.0614, 90.8701
10.513, 61, -10.4119, -20.2294, 37.6663, -150.991, -77.2688, 91.1925
10.5199, 61, -10.374, -20.135, 37.6022, -151.026, -77.3385, 91.2991
10.5279, 61, -10.2986, -19.9459, 37.4737, -151.097, -77.4784, 91.5116
10.5358, 61, -10.2236, -19.757, 37.3452, -151.167, -77.6193, 91.7229
10.5438, 61, -10.1491, -19.5675, 37.2166, -151.236, -77.7607, 91.9327
10.5521, 62, -10.075, -19.3768, 37.0881, -151.304, -77.9031, 92.1409
10.5599, 62, -10.0014, -19.1857, 36.9598, -151.371, -78.0461, 92.3474
10.5679, 62, -9.92807, -18.9946, 36.8315, -151.438, -78.1901, 92.5523
10.576, 62, -9.85524, -18.8029, 36.7031, -151.503, -78.3345, 92.7559
10.583, 62, -9.783, -18.6103, 36.5748, -151.567, -78.4799, 92.9582
10.5919, 62, -9.71116, -18.4178, 36.4463, -151.632, -78.6254, 93.1589
10.6, 62, -9.63969, -18.2257, 36.3181, -151.694, -78.7719, 93.3581
10.6079, 62, -9.56848, -18.0331, 36.1899, -151.756, -78.919, 93.5556
10.6158, 62, -9.49769, -17.8397, 36.0619, -151.817, -79.067, 93.7516
10.624, 62, -9.42733, -17.6465, 35.934, -151.877, -79.2155, 93.9462
10.6308, 62, -9.35744, -17.453, 35.8061, -151.937, -79.3645, 94.1394
10.6399, 62, -9.28807, -17.2588, 35.6786, -151.995, -79.5141, 94.3306
10.6488, 62, -9.21928, -17.0638, 35.5514, -152.053, -79.6642, 94.5199
10.6559, 63, -9.15095, -16.869, 35.4243, -152.109, -79.8149, 94.7074
10.6638, 63, -9.08299, -16.6745, 35.2975, -152.164, -79.9662, 94.8932
10.6725, 63, -9.01552, -16.4793, 35.1709, -152.219, -80.118, 95.0773
10.6788, 63, -8.94835, -16.2839, 35.0445, -152.272, -80.2703, 95.2595
10.6878, 63, -8.8817, -16.0892, 34.9186, -152.325, -80.4229, 95.4401
10.6968, 63, -8.81553, -15.8946, 34.7928, -152.377, -80.5761, 95.6187
10.704, 63, -8.74986, -15.6994, 34.6674, -152.427, -80.7296, 95.7952
10.711, 63, -8.68471, -15.5043, 34.5422, -152.477, -80.8835, 95.9701
10.7199, 63, -8.61999, -15.3099, 34.4174, -152.526, -81.0378, 96.1433
10.7269, 63, -8.55567, -15.1155, 34.293, -152.574, -81.192, 96.3146
10.7358, 63, -8.4917, -14.9205, 34.169, -152.621, -81.3465, 96.4839
10.7439, 63, -8.42829, -14.7256, 34.0455, -152.667, -81.5014, 96.6512
10.7521, 64, -8.36535, -14.5311, 33.9224, -152.711, -81.6566, 96.8162
10.759, 64, -8.30276, -14.3363, 33.7996, -152.756, -81.8116, 96.9792
10.7697, 64, -8.24076, -14.1411, 33.6773, -152.799, -81.967, 97.1403
10.7749, 64, -8.17929, -13.9466, 33.5555, -152.84, -82.1221, 97.2994
10.7839, 64, -8.11826, -13.7531, 33.4341, -152.881, -82.2779, 97.4568
10.7918, 64, -8.05765, -13.5597, 33.3133, -152.922, -82.4335, 97.6119
10.8, 64, -7.99747, -13.3663, 33.1928, -152.96, -82.5895, 97.7647
10.8078, 64, -7.9378, -13.1738, 33.0728, -152.998, -82.7454, 97.9155
10.8159, 64, -7.87847, -12.9817, 32.9534, -153.035, -82.9015, 98.064
10.8242, 64, -7.81954, -12.7892, 32.8345, -153.072, -83.0575, 98.2108
10.8319, 64, -7.7612, -12.5967, 32.7162, -153.107, -83.2137, 98.3555
10.84, 64, -7.70333, -12.4051, 32.5985, -153.14, -83.3699, 98.4977
10.8482, 64, -7.6459, -12.2141, 32.4812, -153.174, -83.526, 98.6378
10.8554, 65, -7.58887, -12.0229, 32.3646, -153.206, -83.6822, 98.7754
10.8639, 65, -7.53226, -11.8318, 32.2486, -153.237, -83.8384, 98.9109
10.8725, 65, -7.47627, -11.6417, 32.1333, -153.267, -83.9943, 99.0437
10.8801, 65, -7.4207, -11.452, 32.0187, -153.295, -84.1503, 99.1743
10.8878, 65, -7.36546, -11.2622, 31.9046, -153.324, -84.3061, 99.3025
10.8966, 65, -7.31076, -11.073, 31.791, -153.351, -84.4619, 99.4282
10.9039, 65, -7.25649, -10.8849, 31.678, -153.378, -84.6176, 99.552
10.9119, 65, -7.20264, -10.6975, 31.5657, -153.403, -84.773, 99.6733
10.9204, 65, -7.14932, -10.5099, 31.4543, -153.427, -84.9284, 99.792
10.9285, 65, -7.09636, -10.3229, 31.3435, -153.45, -85.0836, 99.9084
10.9361, 65, -7.04375, -10.137, 31.2333, -153.473, -85.2386, 100.022
10.9429, 65, -7.01761, -10.0442, 31.1784, -153.484, -85.3158, 100.078
10.9523, 66, -6.93977, -9.76576, 31.0146, -153.515, -85.5476, 100.242
10.9604, 66, -6.88836, -9.58095, 30.9064, -153.535, -85.7017, 100.348
10.9684, 66, -6.83754, -9.39756, 30.7991, -153.553, -85.8558, 100.451
10.9767, 66, -6.78716, -9.21481, 30.6926, -153.57, -86.0095, 100.552
10.9844, 66, -6.73713, -9.03218, 30.5865, -153.587, -86.1631, 100.65
10.9924, 66, -6.6876, -8.85038, 30.481, -153.603, -86.3162, 100.745
11.0006, 66, -6.6384, -8.66983, 30.3762, -153.618, -86.469, 100.838
11.0083, 66, -6.61388, -8.57974, 30.3241, -153.625, -86.5452, 100.884
11.0166, 66, -6.5652, -8.3996, 30.2207, -153.639, -86.7738, 101.016
11.0262, 66, -6.51706, -8.13019, 30.0672, -153.658, -86.926, 101.101
11.0308, 66, -6.46929, -8.04103, 30.0163, -153.664, -87.0019, 101.142
11.0399, 66, -6.42182, -7.86354, 29.915, -153.675, -87.1534, 101.222
11.0479, 66, -6.37483, -7.68624, 29.8141, -153.685, -87.3046, 101.3
11.0548, 67, -6.32831, -7.50936, 29.7142, -153.693, -87.4555, 101.374
11.0653, 67, -6.25904, -7.24636, 29.5662, -153.705, -87.6815, 101.481
11.0709, 67, -6.23614, -7.15926, 29.5173, -153.708, -87.7567, 101.515
11.0799, 67, -6.19071, -6.9853, 29.42, -153.714, -87.9066, 101.581
11.0878, 67, -6.14559, -6.81163, 29.3233, -153.719, -88.0564, 101.643
11.0948, 67, -6.10081, -6.63902, 29.227, -153.724, -88.2054, 101.704
11.1039, 67, -6.05648, -6.46781, 29.1314, -153.727, -88.3543, 101.761
11.1118, 67, -6.01261, -6.29726, 29.0369, -153.73, -88.5027, 101.815
11.12, 67, -5.96907, -6.12692, 28.9435, -153.733, -88.6508, 101.867
11.1278, 67, -5.92596, -5.95735, 28.8508, -153.734, -88.7984, 101.916
11.1374, 67, -5.88323, -5.78905, 28.7589, -153.735, -88.9457, 101.982
11.1438, 67, -5.84073, -5.62152, 28.6675, -153.735, -89.0921, 102.003
11.1528, 68, -5.79849, -5.45425, 28.5767, -153.735, -89.2383, 102.042
11.1599, 68, -5.7567, -5.28759, 28.4867, -153.734, -89.384, 102.078
11.1679, 68, -5.71517, -5.12233, 28.3977, -153.733, -89.5294, 102.111
11.1758, 68, -5.67391, -4.95841, 28.3096, -153.73, -89.6743, 102.14
11.1838, 68, -5.63298, -4.79507, 28.2223, -153.726, -89.8188, 102.166
11.1919, 68, -5.59257, -4.63237, 28.1355, -153.722, -89.9629, 102.189
11.1999, 68, -5.55247, -4.47082, 28.0495, -153.716, -90.1068, 102.208
11.2078, 68, -5.51255, -4.3105, 27.9641, -153.71, -90.2502, 102.225
11.2159, 68, -5.47298, -4.15095, 27.8795, -153.703, -90.3934, 102.239
11.2238, 68, -5.43387, -3.99182, 27.7958, -153.695, -90.536, 102.249
11.2319, 68, -5.39509, -3.83343, 27.7129, -153.686, -90.6784, 102.256
11.2399, 68, -5.35649, -3.67617, 27.6309, -153.677, -90.8204, 102.26
11.2478, 68, -5.3182, -3.52003, 27.5496, -153.666, -90.962, 102.261
11.2558, 69, -5.28031, -3.36456, 27.4691, -153.655, -91.1032, 102.261
11.2639, 69, -5.24272, -3.20958, 27.3894, -153.643, -91.2441, 102.258
11.2725, 69, -5.20531, -3.05567, 27.3103, -153.63, -91.3846, 102.249
11.2799, 69, -5.16818, -2.90295, 27.2319, -153.616, -91.5245, 102.237
11.2883, 69, -5.13134, -2.75135, 27.1543, -153.601, -91.6639, 102.221
11.2958, 69, -5.09478, -2.60034, 27.0774, -153.586, -91.803, 102.201
11.3038, 69, -5.05843, -2.45018, 27.0013, -153.57, -91.9415, 102.178
11.3126, 69, -5.02227, -2.30112, 26.9261, -153.554, -92.0796, 102.152
11.3199, 69, -4.98654, -2.15316, 26.8515, -153.538, -92.2174, 102.121
11.3278, 69, -4.95102, -2.00617, 26.7777, -153.52, -92.3545, 102.086
11.3379, 69, -4.91573, -1.85992, 26.7046, -153.502, -92.4913, 102.048
11.3437, 69, -4.88052, -1.71434, 26.6321, -153.483, -92.6273, 102.006
11.352, 70, -4.84565, -1.56973, 26.5604, -153.464, -92.7634, 101.961
11.36, 70, -4.81112, -1.42617, 26.4895, -153.443, -92.8988, 101.911
11.3679, 70, -4.77677, -1.28366, 26.4194, -153.423, -93.034, 101.857
11.376, 70, -4.74262, -1.14188, 26.35, -153.402, -93.1686, 101.801
11.3838, 70, -4.7086, -1.00091, 26.2813, -153.381, -93.303, 101.74
11.3918, 70, -4.67496, -0.860958, 26.2133, -153.359, -93.4368, 101.675
11.4, 70, -4.64151, -0.722133, 26.1461, -153.336, -93.5703, 101.607
11.4078, 70, -4.60823, -0.584509, 26.0794, -153.312, -93.7035, 101.536
11.4159, 70, -4.575, -0.447816, 26.0134, -153.289, -93.8363, 101.46
11.424, 70, -4.54194, -0.311923, 25.9481, -153.265, -93.9687, 101.381
11.4308, 70, -4.52551, -0.244341, 25.9157, -153.253, -94.0347, 101.34
11.4426, 70, -4.47643, -0.0430709, 25.8194, -153.216, -94.2324, 101.213
11.4482, 70, -4.44388, 0.0898148, 25.7562, -153.191, -94.3636, 101.122
11.4562, 71, -4.41137, 0.221652, 25.6938, -153.164, -94.4946, 101.029
11.4628, 71, -4.39519, 0.287315, 25.6628, -153.151, -94.5599, 100.981
11.4724, 71, -4.34694, 0.483024, 25.571, -153.112, -94.755, 100.831
11.4804, 71, -4.31495, 0.612376, 25.5106, -153.085, -94.8845, 100.726
11.4884, 71, -4.28304, 0.740647, 25.4509, -153.058, -95.0136, 100.618
11.4964, 71, -4.26709, 0.867757, 25.3918, -153.029, -95.1424, 100.506
11.5044, 71, -4.23531, 0.930935, 25.3625, -153.015, -95.2706, 100.39
11.5124, 71, -4.20375, 1.05657, 25.3044, -152.987, -95.3986, 100.271
11.5199, 71, -4.17232, 1.18125, 25.247, -152.959, -95.4623, 100.21
11.5269, 71, -4.14102, 1.30487, 25.1901, -152.931, -95.5895, 100.086
11.5359, 71, -4.10962, 1.42739, 25.1339, -152.901, -95.7163, 99.9581
11.5438, 71, -4.07825, 1.54876, 25.0785, -152.871, -95.8423, 99.8264
11.5509, 72, -4.047, 1.66896, 25.0237, -152.842, -95.9683, 99.6911
11.56, 72, -4.01581, 1.78822, 24.9696, -152.813, -96.0932, 99.5522
11.5668, 72, -3.98478, 1.90654, 24.9162, -152.783, -96.218, 99.4096
11.5758, 72, -3.95367, 2.02387, 24.8634, -152.752, -96.3422, 99.2633
11.5837, 72, -3.92253, 2.14014, 24.8112, -152.722, -96.4659, 99.1137
11.5919, 72, -3.89148, 2.25533, 24.7596, -152.692, -96.5894, 98.9604
11.5999, 72, -3.86038, 2.36932, 24.7086, -152.662, -96.7119, 98.8036
11.6078, 72, -3.82926, 2.48217, 24.6584, -152.631, -96.8342, 98.6433
