rpiRobotics/ARM-21-02-F-19-Robot-Motion-Program/data_performance_abb/curve_1/baseline/100L/realrobot/bisect/run_3realrobot_curve_exe_v103.125_z10.csv
timestamp, cmd_num, J1, J2, J3, J4, J5, J6
0.000363, -1, 11.3779, 13.6138, 17.3392, -145.519, -97.923, 142.516
0.004693, -1, 11.3779, 13.6138, 17.3392, -145.519, -97.923, 142.516
0.008395, -1, 11.3779, 13.6138, 17.3392, -145.519, -97.923, 142.516
0.02999, -1, 11.3779, 13.6137, 17.3393, -145.519, -97.923, 142.516
0.033268, -1, 11.378, 13.6137, 17.3393, -145.519, -97.923, 142.516
0.034505, -1, 11.378, 13.6137, 17.3393, -145.519, -97.923, 142.516
0.039744, -1, 11.378, 13.6137, 17.3393, -145.519, -97.9229, 142.516
0.048249, -1, 11.3777, 13.6137, 17.3393, -145.519, -97.9229, 142.516
0.055843, -1, 11.3771, 13.6137, 17.3393, -145.519, -97.9229, 142.516
0.064691, -1, 11.3719, 13.6132, 17.3391, -145.519, -97.9229, 142.516
0.07123, -1, 11.3681, 13.6127, 17.339, -145.519, -97.9229, 142.516
0.0803, -1, 11.3492, 13.6094, 17.338, -145.52, -97.9229, 142.511
0.087194, -1, 11.3396, 13.6074, 17.3376, -145.521, -97.9227, 142.506
0.096469, -1, 11.2954, 13.5972, 17.3364, -145.528, -97.9213, 142.467
0.10335, -1, 11.2748, 13.5921, 17.3361, -145.532, -97.9202, 142.444
0.111334, -1, 11.2249, 13.5797, 17.3363, -145.544, -97.9168, 142.379
0.119195, -1, 11.1635, 13.5643, 17.338, -145.561, -97.9113, 142.283
0.128745, -1, 11.0495, 13.5341, 17.3449, -145.598, -97.8986, 142.074
0.13675, -1, 10.9587, 13.5094, 17.3523, -145.629, -97.8874, 141.892
0.144719, -1, 10.8567, 13.4814, 17.362, -145.666, -97.8745, 141.68
0.152919, -1, 10.7439, 13.4501, 17.3729, -145.707, -97.8603, 141.443
0.160766, -1, 10.6201, 13.4158, 17.3843, -145.75, -97.8452, 141.189
0.16878, -1, 10.5543, 13.3977, 17.3952, -145.795, -97.8296, 140.923
0.176943, -1, 10.3445, 13.3402, 17.4056, -145.842, -97.8135, 140.651
0.183183, -1, 10.2714, 13.3203, 17.4107, -145.866, -97.8054, 140.513
0.191241, -1, 10.1219, 13.28, 17.4207, -145.913, -97.7888, 140.236
0.199946, -1, 9.9695, 13.2389, 17.4307, -145.961, -97.7719, 139.958
0.208179, -1, 9.81482, 13.1976, 17.4407, -146.009, -97.7546, 139.679
0.216283, -1, 9.65923, 13.1562, 17.4508, -146.056, -97.7375, 139.399
0.224194, -1, 9.50407, 13.115, 17.4606, -146.104, -97.7205, 139.12
0.232178, -1, 9.34936, 13.0739, 17.4705, -146.153, -97.7038, 138.84
0.240336, -1, 9.19503, 13.0328, 17.4804, -146.2, -97.687, 138.561
0.248306, -1, 9.04124, 12.9918, 17.4904, -146.248, -97.6703, 138.281
0.255247, -1, 8.88764, 12.9507, 17.5005, -146.297, -97.6534, 138.001
0.26318, -1, 8.7342, 12.9098, 17.5106, -146.344, -97.6363, 137.722
0.271202, -1, 8.58128, 12.8687, 17.5206, -146.392, -97.6188, 137.442
0.279251, -1, 8.42862, 12.8276, 17.5308, -146.441, -97.6012, 137.161
0.287179, -1, 8.27559, 12.7863, 17.541, -146.488, -97.584, 136.881
0.295185, -1, 8.1221, 12.7448, 17.5511, -146.536, -97.567, 136.602
0.303247, -1, 7.96817, 12.7032, 17.5613, -146.585, -97.5503, 136.321
0.311189, -1, 7.81355, 12.6616, 17.5714, -146.632, -97.5337, 136.041
0.31919, -1, 7.65856, 12.62, 17.5815, -146.68, -97.517, 135.761
0.327273, -1, 7.50347, 12.5784, 17.5917, -146.728, -97.5001, 135.481
0.335203, -1, 7.34827, 12.537, 17.6018, -146.776, -97.483, 135.201
0.34318, -1, 7.19312, 12.4955, 17.612, -146.824, -97.4656, 134.92
0.352175, -1, 7.03791, 12.4541, 17.6223, -146.872, -97.4483, 134.64
0.359188, -1, 6.88269, 12.4128, 17.6326, -146.92, -97.4313, 134.36
0.367257, -1, 6.72778, 12.3716, 17.6429, -146.968, -97.4144, 134.08
0.375215, -1, 6.57316, 12.3304, 17.6533, -147.017, -97.3977, 133.799
0.383325, -1, 6.41871, 12.2892, 17.6636, -147.065, -97.381, 133.519
0.391356, -1, 6.2645, 12.2478, 17.674, -147.112, -97.3641, 133.238
0.399287, -1, 6.11027, 12.2064, 17.6842, -147.161, -97.347, 132.958
0.407288, -1, 5.95584, 12.165, 17.6944, -147.209, -97.3294, 132.677
0.415358, -1, 5.80119, 12.1235, 17.7047, -147.257, -97.3118, 132.396
0.424242, -1, 5.64636, 12.0818, 17.7149, -147.305, -97.2944, 132.116
0.431196, -1, 5.49131, 12.0402, 17.7251, -147.353, -97.2773, 131.835
0.43946, -1, 5.33606, 11.9986, 17.7353, -147.401, -97.2604, 131.554
0.447207, -1, 5.18056, 11.9569, 17.7456, -147.45, -97.2437, 131.273
0.455263, -1, 5.02466, 11.9153, 17.756, -147.498, -97.2269, 130.992
0.463396, -1, 4.86871, 11.8737, 17.7664, -147.546, -97.2099, 130.711
0.471373, -1, 4.71289, 11.8322, 17.7768, -147.594, -97.1926, 130.43
0.479515, -1, 4.55706, 11.7907, 17.7872, -147.642, -97.1751, 130.149
0.488033, -1, 4.40138, 11.7493, 17.7975, -147.691, -97.1577, 129.869
0.496285, -1, 4.24598, 11.7079, 17.8079, -147.739, -97.1406, 129.588
0.503734, -1, 4.09083, 11.6665, 17.8182, -147.787, -97.1237, 129.306
0.512329, -1, 3.9361, 11.6251, 17.8285, -147.835, -97.1068, 129.025
0.519705, -1, 3.78171, 11.5837, 17.8388, -147.884, -97.09, 128.744
0.528274, -1, 3.62727, 11.5421, 17.8491, -147.932, -97.073, 128.463
0.536135, -1, 3.47271, 11.5005, 17.8594, -147.98, -97.0559, 128.181
0.544279, -1, 3.31794, 11.4589, 17.8699, -148.029, -97.0384, 127.9
0.551991, -1, 3.16296, 11.4172, 17.8802, -148.077, -97.0209, 127.619
0.560348, -1, 3.00766, 11.3755, 17.8906, -148.125, -97.0035, 127.337
0.567175, -1, 2.92993, 11.3546, 17.8958, -148.149, -96.995, 127.196
0.576266, -1, 2.69634, 11.292, 17.9112, -148.222, -96.9697, 126.774
0.583167, -1, 2.61829, 11.2711, 17.9164, -148.245, -96.9613, 126.633
0.59229, -1, 2.38389, 11.2086, 17.932, -148.318, -96.9362, 126.21
0.599218, -1, 2.30559, 11.1878, 17.9372, -148.342, -96.9278, 126.069
0.608563, -1, 2.07045, 11.1252, 17.9529, -148.415, -96.902, 125.647
0.615171, -1, 1.99207, 11.1044, 17.958, -148.439, -96.8933, 125.506
0.624675, -1, 1.75721, 11.042, 17.9736, -148.511, -96.8671, 125.083
0.762969, -1, -0.894012, 10.3322, 18.1503, -149.336, -96.5763, 120.281
0.764172, -1, -0.894012, 10.3322, 18.1503, -149.336, -96.5763, 120.281
0.766196, -1, -0.972685, 10.3113, 18.1554, -149.36, -96.5677, 120.14
0.767444, -1, -0.972685, 10.3113, 18.1554, -149.36, -96.5677, 120.14
0.768763, -1, -0.972685, 10.3113, 18.1554, -149.36, -96.5677, 120.14
0.770855, -1, -1.05131, 10.2905, 18.1605, -149.384, -96.5591, 119.998
0.772127, -1, -1.05131, 10.2905, 18.1605, -149.384, -96.5591, 119.998
0.775344, -1, -1.1299, 10.2696, 18.1657, -149.408, -96.5506, 119.857
0.916811, -1, -3.86919, 9.5368, 18.3477, -150.259, -96.2502, 114.894
0.918711, -1, -3.86919, 9.5368, 18.3528, -150.284, -96.2417, 114.752
0.920262, -1, -3.94819, 9.51578, 18.3528, -150.284, -96.2417, 114.752
0.921527, -1, -3.94819, 9.51578, 18.3528, -150.284, -96.2417, 114.752
0.925214, -1, -4.02715, 9.49479, 18.358, -150.308, -96.2332, 114.61
0.9272, -1, -4.10607, 9.47384, 18.3632, -150.333, -96.2248, 114.468
0.928636, -1, -4.10607, 9.47384, 18.3632, -150.333, -96.2248, 114.468
0.9363, -1, -4.26387, 9.43193, 18.3735, -150.381, -96.2077, 114.183
0.937588, -1, -4.26387, 9.43193, 18.3735, -150.381, -96.2077, 114.183
0.939621, -1, -4.34273, 9.41094, 18.3787, -150.406, -96.1992, 114.041
0.940822, -1, -4.34273, 9.41094, 18.3787, -150.406, -96.1992, 114.041
0.942121, -1, -4.34273, 9.41094, 18.3787, -150.406, -96.1992, 114.041
0.944203, -1, -4.42149, 9.38993, 18.3838, -150.43, -96.1906, 113.899
0.945573, -1, -4.42149, 9.38993, 18.3838, -150.43, -96.1906, 113.899
0.948994, -1, -4.5001, 9.36895, 18.389, -150.455, -96.1818, 113.756
0.952037, -1, -4.5786, 9.34797, 18.3941, -150.479, -96.1731, 113.614
0.953299, -1, -4.5786, 9.34797, 18.3941, -150.479, -96.1731, 113.614
0.955097, -1, -4.65702, 9.32697, 18.3993, -150.504, -96.1643, 113.472
0.956589, -1, -4.65702, 9.32697, 18.3993, -150.504, -96.1643, 113.472
0.957837, -1, -4.65702, 9.32697, 18.3993, -150.504, -96.1643, 113.472
0.959855, -1, -4.73534, 9.30598, 18.4045, -150.528, -96.1554, 113.33
0.961057, -1, -4.73534, 9.30598, 18.4045, -150.528, -96.1554, 113.33
0.9641, -1, -4.81358, 9.28499, 18.4096, -150.552, -96.1465, 113.187
0.965456, -1, -4.81358, 9.28499, 18.4096, -150.552, -96.1465, 113.187
0.967279, -1, -4.89174, 9.26397, 18.4149, -150.577, -96.1377, 113.045
0.968726, -1, -4.89174, 9.26397, 18.4149, -150.577, -96.1377, 113.045
0.969925, -1, -4.89174, 9.26397, 18.4149, -150.577, -96.1377, 113.045
0.972747, -1, -4.96983, 9.24294, 18.4201, -150.601, -96.1291, 112.902
0.973945, -1, -4.96983, 9.24294, 18.4201, -150.601, -96.1291, 112.902
0.976013, -1, -5.04786, 9.22194, 18.4254, -150.626, -96.1205, 112.76
0.977593, -1, -5.04786, 9.22194, 18.4254, -150.626, -96.1205, 112.76
0.979519, -1, -5.12579, 9.20094, 18.4306, -150.65, -96.1119, 112.618
0.98094, -1, -5.12579, 9.20094, 18.4306, -150.65, -96.1119, 112.618
0.982156, -1, -5.12579, 9.20094, 18.4306, -150.65, -96.1119, 112.618
0.984204, -1, -5.2037, 9.17993, 18.4359, -150.674, -96.1034, 112.475
0.985419, -1, -5.2037, 9.17993, 18.4359, -150.674, -96.1034, 112.475
0.987293, -1, -5.2037, 9.17993, 18.4359, -150.674, -96.0949, 112.333
0.991486, -1, -5.35972, 9.13784, 18.4464, -150.723, -96.0865, 112.191
0.999659, -1, -5.51588, 9.09568, 18.4568, -150.772, -96.0697, 111.906
1.00826, -1, -5.67217, 9.05367, 18.4671, -150.821, -96.0526, 111.621
1.01575, -1, -5.82893, 9.01153, 18.4775, -150.87, -96.0353, 111.337
1.02431, -1, -5.98611, 8.96936, 18.4879, -150.919, -96.0179, 111.052
1.0317, -1, -6.14382, 8.92726, 18.4981, -150.967, -96.0002, 110.767
1.04026, -1, -6.30202, 8.88513, 18.5085, -151.016, -95.9828, 110.481
1.04776, -1, -6.38122, 8.84307, 18.5187, -151.066, -95.9657, 110.196
1.05635, -1, -6.61893, 8.80104, 18.5292, -151.114, -95.9487, 109.911
1.06387, -1, -6.69825, 8.77998, 18.5344, -151.139, -95.9401, 109.626
1.07228, -1, -6.93624, 8.71683, 18.5502, -151.213, -95.9147, 109.34
1.07915, -1, -7.01548, 8.69583, 18.5554, -151.237, -95.9061, 109.197
1.08828, -1, -7.25315, 8.63273, 18.571, -151.31, -95.8799, 108.769
1.09515, -1, -7.33226, 8.61168, 18.5762, -151.335, -95.871, 108.626
1.10436, -1, -7.56903, 8.54832, 18.5919, -151.408, -95.8444, 108.198
1.11115, -1, -7.64781, 8.52719, 18.5971, -151.433, -95.8358, 108.055
1.12051, -1, -7.88348, 8.46389, 18.6127, -151.507, -95.8101, 107.626
1.12721, -1, -7.96186, 8.44276, 18.6179, -151.531, -95.8016, 107.483
1.13677, -1, -8.19681, 8.37929, 18.6335, -151.605, -95.7762, 107.055
1.14471, -1, -8.35343, 8.33701, 18.644, -151.654, -95.7591, 106.769
1.15268, -1, -8.51033, 8.29464, 18.6545, -151.702, -95.7417, 106.483
1.16079, -1, -8.66755, 8.25239, 18.665, -151.752, -95.7241, 106.197
1.16874, -1, -8.82507, 8.21013, 18.6754, -151.801, -95.7064, 105.91
1.17677, -1, -8.90398, 8.16781, 18.6857, -151.85, -95.689, 105.624
1.18495, -1, -9.06215, 8.14667, 18.6909, -151.874, -95.6718, 105.338
1.19215, -1, -9.22073, 8.10449, 18.7013, -151.924, -95.6632, 105.194
1.20016, -1, -9.37962, 8.06226, 18.7117, -151.973, -95.6461, 104.908
1.2082, -1, -9.53876, 8.01994, 18.7221, -152.022, -95.629, 104.621
1.2162, -1, -9.69794, 7.97779, 18.7326, -152.072, -95.6117, 104.334
1.22418, -1, -9.85724, 7.93563, 18.743, -152.12, -95.5941, 104.047
1.23217, -1, -10.0166, 7.89334, 18.7536, -152.17, -95.5762, 103.761
1.24014, -1, -10.1759, 7.85102, 18.7641, -152.219, -95.5584, 103.474
1.2482, -1, -10.3349, 7.80862, 18.7747, -152.268, -95.5409, 103.187
1.25619, -1, -10.4935, 7.76614, 18.7852, -152.318, -95.5237, 102.9
1.26416, -1, -10.652, 7.72373, 18.7955, -152.367, -95.5067, 102.613
1.2722, -1, -10.8101, 7.68132, 18.806, -152.416, -95.4896, 102.326
1.28016, -1, -10.9679, 7.63881, 18.8164, -152.466, -95.4725, 102.039
1.28814, -1, -11.1255, 7.59637, 18.8268, -152.515, -95.4552, 101.752
1.29514, -1, -11.2829, 7.55395, 18.8372, -152.564, -95.4376, 101.465
1.30315, -1, -11.4403, 7.51155, 18.8477, -152.614, -95.4198, 101.177
1.31122, -1, -11.598, 7.46911, 18.8581, -152.663, -95.4021, 100.89
1.31915, -1, -11.7559, 7.42674, 18.8687, -152.712, -95.3848, 100.602
1.32715, -1, -11.9144, 7.3844, 18.8793, -152.762, -95.3677, 100.314
1.33524, -1, -12.0731, 7.34207, 18.8899, -152.811, -95.3505, 100.027
1.34316, -1, -12.2323, 7.29975, 18.9003, -152.86, -95.3333, 99.739
1.35117, -1, -12.3919, 7.25738, 18.9108, -152.91, -95.3159, 99.4509
1.35986, -1, -12.5518, 7.21502, 18.9214, -152.959, -95.2982, 99.1631
1.36819, -1, -12.7118, 7.17267, 18.9319, -153.008, -95.2802, 98.8752
1.37517, -1, -12.8718, 7.13028, 18.9424, -153.058, -95.2624, 98.5873
1.38413, -1, -13.0319, 7.08776, 18.9529, -153.108, -95.2448, 98.2993
1.39124, -1, -13.1918, 7.04522, 18.9634, -153.157, -95.2275, 98.0113
1.39926, -1, -13.3515, 7.00267, 18.974, -153.207, -95.2104, 97.7232
1.40845, -1, -13.5108, 6.96001, 18.9846, -153.256, -95.1933, 97.4347
1.41524, -1, -13.67, 6.91729, 18.9951, -153.305, -95.1761, 97.1461
1.42332, -1, -13.829, 6.87466, 19.0057, -153.355, -95.1585, 96.8577
1.43172, -1, -13.9875, 6.83199, 19.0161, -153.404, -95.1408, 96.5692
1.44016, -1, -14.1457, 6.78933, 19.0266, -153.453, -95.1229, 96.2804
1.44724, -1, -14.3039, 6.74671, 19.0371, -153.503, -95.1054, 95.9914
1.45696, -1, -14.4622, 6.70404, 19.0475, -153.552, -95.088, 95.7027
1.46415, -1, -14.6206, 6.66141, 19.058, -153.602, -95.0708, 95.4137
1.47133, -1, -14.7795, 6.61889, 19.0685, -153.652, -95.0537, 95.1245
1.48092, -1, -14.9387, 6.57634, 19.079, -153.701, -95.0365, 94.8353
1.48814, -1, -15.0982, 6.53368, 19.0898, -153.75, -95.0189, 94.5462
1.49559, -1, -15.2583, 6.49109, 19.1004, -153.8, -95.0011, 94.2572
1.50524, -1, -15.4185, 6.44853, 19.111, -153.85, -94.983, 93.968
1.51165, -1, -15.5792, 6.40581, 19.1216, -153.9, -94.9652, 93.6787
1.5203, -1, -15.74, 6.36311, 19.132, -153.949, -94.9478, 93.3896
1.52848, -1, -15.9007, 6.32036, 19.1427, -153.999, -94.9305, 93.1002
1.53573, -1, -16.0614, 6.27749, 19.1533, -154.049, -94.9133, 92.8105
1.5443, -1, -16.2222, 6.23467, 19.1637, -154.098, -94.8961, 92.5209
1.55264, -1, -16.3025, 6.21322, 19.169, -154.148, -94.8788, 92.2314
1.55997, -1, -16.5431, 6.14875, 19.1847, -154.198, -94.8612, 91.9416
1.56821, -1, -16.7031, 6.10586, 19.1952, -154.247, -94.8433, 91.6515
1.57514, -1, -16.783, 6.0844, 19.2005, -154.272, -94.8343, 91.5064
1.58318, -1, -16.9424, 6.04146, 19.2111, -154.322, -94.8166, 91.2164
1.59227, -1, -17.1812, 5.97708, 19.227, -154.396, -94.7904, 90.7812
1.59913, -1, -17.2607, 5.95565, 19.2323, -154.421, -94.7817, 90.6361
1.60719, -1, -17.4198, 5.91285, 19.2428, -154.471, -94.7645, 90.3458
1.61655, -1, -17.6589, 5.8487, 19.2589, -154.546, -94.7383, 89.9107
1.62317, -1, -17.7386, 5.82732, 19.2642, -154.57, -94.7295, 89.7656
1.63119, -1, -17.8982, 5.78454, 19.2748, -154.621, -94.7115, 89.4753
1.63913, -1, -18.0583, 5.74178, 19.2855, -154.671, -94.6934, 89.1848
1.65043, -1, -18.2993, 5.67768, 19.3013, -154.745, -94.6666, 88.7492
1.65513, -1, -18.3798, 5.6563, 19.3067, -154.77, -94.6578, 88.6038
1.66471, -1, -18.6219, 5.59197, 19.3227, -154.845, -94.6319, 88.1674
1.6735, -1, -18.7026, 5.54905, 19.3334, -154.895, -94.6146, 87.8765
1.67914, -1, -18.8642, 5.52758, 19.3387, -154.92, -94.606, 87.731
1.68812, -1, -19.0259, 5.48459, 19.3492, -154.97, -94.5885, 87.4399
1.69618, -1, -19.1873, 5.44149, 19.3597, -155.02, -94.5707, 87.1486
1.70312, -1, -19.3488, 5.3984, 19.3703, -155.07, -94.5525, 86.8573
1.71114, -1, -19.5099, 5.3553, 19.3809, -155.12, -94.5345, 86.5658
1.71919, -1, -19.6708, 5.31207, 19.3914, -155.169, -94.5169, 86.2742
1.72714, -1, -19.8314, 5.269, 19.402, -155.22, -94.4993, 85.9826
1.7352, -1, -19.9918, 5.22589, 19.4126, -155.269, -94.482, 85.6911
1.74314, -1, -20.1518, 5.18279, 19.4234, -155.319, -94.4646, 85.3998
1.75114, -1, -20.3117, 5.13986, 19.4342, -155.37, -94.4471, 85.108
1.75919, -1, -20.4717, 5.09693, 19.4449, -155.42, -94.4293, 84.8163
1.76713, -1, -20.6318, 5.0539, 19.4556, -155.47, -94.4113, 84.5247
1.77514, -1, -20.792, 5.011, 19.4663, -155.52, -94.3933, 84.2327
1.78319, -1, -20.9528, 4.9681, 19.4769, -155.57, -94.3755, 83.9406
1.79118, -1, -21.1138, 4.92507, 19.4875, -155.62, -94.3581, 83.6485
1.79913, -1, -21.2754, 4.88207, 19.4981, -155.671, -94.3408, 83.3567
1.80723, -1, -21.4374, 4.83892, 19.5088, -155.721, -94.3237, 83.0645
1.81513, -1, -21.5996, 4.79569, 19.5194, -155.771, -94.3064, 82.772
1.82313, -1, -21.7618, 4.75251, 19.5301, -155.822, -94.2888, 82.4796
1.83119, -1, -21.9242, 4.70924, 19.5408, -155.871, -94.2709, 82.187
1.83914, -1, -22.0866, 4.66587, 19.5516, -155.922, -94.253, 81.8944
1.84716, -1, -22.2491, 4.62254, 19.5623, -155.972, -94.2352, 81.6017
1.8552, -1, -22.4114, 4.57919, 19.5729, -156.022, -94.2177, 81.3092
1.86312, -1, -22.5733, 4.53582, 19.5836, -156.073, -94.2002, 81.0166
1.87133, -1, -22.7349, 4.49243, 19.5943, -156.123, -94.1828, 80.7238
1.87914, -1, -22.8962, 4.44905, 19.605, -156.173, -94.1654, 80.4306
1.88717, -1, -23.0573, 4.40581, 19.6157, -156.223, -94.1476, 80.1378
1.89549, -1, -23.2183, 4.36256, 19.6263, -156.274, -94.1294, 79.8448
1.90321, -1, -23.3792, 4.31932, 19.6372, -156.324, -94.1111, 79.5514
1.91123, -1, -23.54, 4.27613, 19.6481, -156.375, -94.093, 79.258
1.91964, -1, -23.7011, 4.23291, 19.6588, -156.425, -94.0753, 78.9648
1.92723, -1, -23.8624, 4.18972, 19.6696, -156.475, -94.0577, 78.6713
1.93514, -1, -24.024, 4.14644, 19.6802, -156.526, -94.0403, 78.3776
1.9439, -1, -24.186, 4.1031, 19.6909, -156.576, -94.0229, 78.0837
1.9522, -1, -24.3485, 4.05973, 19.7016, -156.626, -94.0052, 77.79
1.9592, -1, -24.5113, 4.01633, 19.7122, -156.677, -93.9872, 77.4958
1.96805, -1, -24.6743, 3.9728, 19.7228, -156.727, -93.9691, 77.2016
1.97624, -1, -24.8376, 3.92925, 19.7335, -156.777, -93.9511, 76.9077
1.98335, -1, -25.001, 3.88573, 19.7442, -156.828, -93.9333, 76.6138
1.99231, -1, -25.1643, 3.84216, 19.755, -156.878, -93.9157, 76.3196
1.99945, -1, -25.3274, 3.79859, 19.7659, -156.929, -93.8981, 76.0252
2.00762, -1, -25.4902, 3.75499, 19.7766, -156.979, -93.8806, 75.731
2.01649, -1, -25.6528, 3.71133, 19.7873, -157.029, -93.8628, 75.4367
2.02364, -1, -25.8152, 3.66781, 19.798, -157.08, -93.8448, 75.142
2.03222, -1, -25.9775, 3.62439, 19.8087, -157.13, -93.8264, 74.8473
2.04051, -1, -26.1395, 3.58086, 19.8195, -157.181, -93.8081, 74.5529
2.04775, -1, -26.3012, 3.53747, 19.8302, -157.232, -93.7901, 74.2583
2.05627, -1, -26.4629, 3.49412, 19.8409, -157.282, -93.7723, 73.9633
2.0646, -1, -26.5438, 3.47239, 19.8463, -157.307, -93.7635, 73.6681
2.07111, -1, -26.7057, 3.42893, 19.857, -157.358, -93.7459, 73.5207
2.08015, -1, -26.9493, 3.3637, 19.8732, -157.434, -93.7194, 73.078
2.08946, -1, -27.112, 3.32008, 19.884, -157.485, -93.7013, 72.7826
2.09516, -1, -27.1936, 3.29829, 19.8895, -157.51, -93.6922, 72.635
2.10435, -1, -27.4387, 3.23282, 19.9055, -157.586, -93.6648, 72.1923
2.11111, -1, -27.5206, 3.21092, 19.9108, -157.611, -93.6558, 72.0447
2.12046, -1, -27.7665, 3.14532, 19.9271, -157.687, -93.629, 71.6012
2.12715, -1, -27.8486, 3.12349, 19.9324, -157.713, -93.6202, 71.4534
2.13748, -1, -28.0947, 3.05793, 19.9486, -157.789, -93.5937, 71.0102
2.14317, -1, -28.1767, 3.03606, 19.954, -157.814, -93.5848, 70.8623
2.15273, -1, -28.4227, 2.97046, 19.9701, -157.89, -93.5578, 70.4182
2.16155, -1, -28.5865, 2.92678, 19.981, -157.941, -93.5394, 70.1225
2.16718, -1, -28.6683, 2.90496, 19.9864, -157.966, -93.5302, 69.9746
2.17688, -1, -28.9133, 2.83945, 20.0027, -158.042, -93.5029, 69.5302
2.18558, -1, -28.9948, 2.81764, 20.008, -158.068, -93.494, 69.2339
2.19117, -1, -29.1575, 2.77402, 20.0187, -158.119, -93.4763, 69.0858
2.20015, -1, -29.3202, 2.73038, 20.0295, -158.169, -93.4587, 68.7891
2.20812, -1, -29.483, 2.68677, 20.0403, -158.221, -93.441, 68.4924
2.21517, -1, -29.6458, 2.64305, 20.0511, -158.272, -93.4231, 68.1956
2.22312, -1, -29.8089, 2.59928, 20.0618, -158.322, -93.4049, 67.899
2.23112, -1, -29.9721, 2.55557, 20.0726, -158.374, -93.3865, 67.6025
2.23923, -1, -30.1355, 2.51177, 20.0835, -158.424, -93.3683, 67.3055
2.24711, -1, -30.2994, 2.46781, 20.0945, -158.475, -93.3503, 67.0085
2.2561, -1, -30.4637, 2.4239, 20.1054, -158.526, -93.3326, 66.7117
2.2631, -1, -30.6284, 2.37997, 20.1162, -158.577, -93.3148, 66.4145
2.2711, -1, -30.7934, 2.33599, 20.1269, -158.628, -93.2972, 66.1172
2.2801, -1, -30.9584, 2.2921, 20.1377, -158.679, -93.2792, 65.8199
2.2871, -1, -31.1233, 2.2481, 20.1486, -158.73, -93.2609, 65.5228
2.29515, -1, -31.2882, 2.20418, 20.1594, -158.781, -93.2425, 65.2255
2.30317, -1, -31.4529, 2.1604, 20.1701, -158.832, -93.2241, 64.9277
2.31111, -1, -31.6176, 2.11645, 20.1809, -158.883, -93.206, 64.63
2.31912, -1, -31.782, 2.07251, 20.1917, -158.934, -93.1882, 64.3322
2.32718, -1, -31.9461, 2.02867, 20.2027, -158.986, -93.1707, 64.0342
2.3351, -1, -32.11, 1.98475, 20.2136, -159.036, -93.153, 63.7363
2.3431, -1, -32.2737, 1.94084, 20.2246, -159.088, -93.1352, 63.4385
2.35119, -1, -32.4373, 1.89691, 20.2355, -159.139, -93.117, 63.1406
2.35912, -1, -32.601, 1.85287, 20.2463, -159.19, -93.0986, 62.8425
2.36714, -1, -32.7649, 1.80885, 20.2573, -159.242, -93.0803, 62.5441
2.37515, -1, -32.929, 1.7648, 20.2681, -159.293, -93.0623, 62.2461
2.38316, -1, -33.0933, 1.72064, 20.279, -159.344, -93.0444, 61.9476
2.39116, -1, -33.2581, 1.67646, 20.2899, -159.395, -93.0266, 61.6489
2.39925, -1, -33.4232, 1.63232, 20.3007, -159.446, -93.0088, 61.3503
2.40725, -1, -33.5887, 1.58812, 20.3117, -159.498, -92.9906, 61.0517
2.41521, -1, -33.7544, 1.54392, 20.3226, -159.549, -92.9723, 60.7531
2.4233, -1, -33.9201, 1.49978, 20.3335, -159.6, -92.9536, 60.454
2.43124, -1, -34.0859, 1.45562, 20.3444, -159.652, -92.935, 60.155
2.43911, -1, -34.2518, 1.41152, 20.3553, -159.703, -92.9167, 59.8558
2.44715, -1, -34.4177, 1.36738, 20.3662, -159.754, -92.8988, 59.5563
2.45518, -1, -34.5835, 1.32324, 20.3771, -159.806, -92.881, 59.2568
2.46318, -1, -34.7489, 1.27914, 20.3879, -159.857, -92.8632, 58.9576
2.47231, -1, -34.9139, 1.23499, 20.3988, -159.908, -92.8452, 58.6583
2.47936, -1, -35.0788, 1.19085, 20.4097, -159.96, -92.8269, 58.3586
2.48763, -1, -35.2434, 1.14661, 20.4208, -160.011, -92.8084, 58.0588
2.49551, -1, -35.4079, 1.10238, 20.4318, -160.063, -92.7899, 57.7593
2.50353, -1, -35.5715, 1.05843, 20.443, -160.114, -92.7718, 57.4595
2.512, -1, -35.7328, 1.01487, 20.4543, -160.165, -92.7538, 57.1601
2.52024, -1, -35.891, 0.972036, 20.4658, -160.216, -92.736, 56.8627
2.52766, -1, -36.0447, 0.930558, 20.4777, -160.267, -92.7184, 56.5695
2.53622, -1, -36.1924, 0.890947, 20.4896, -160.315, -92.701, 56.2837
2.54376, -1, -36.3317, 0.853797, 20.5014, -160.362, -92.6842, 56.0104
2.55226, -1, -36.4606, 0.819699, 20.5126, -160.405, -92.6681, 55.7562
2.55972, -1, -36.5207, 0.788729, 20.5226, -160.444, -92.6537, 55.5269
2.56832, -1, -36.6811, 0.761409, 20.5311, -160.477, -92.6413, 55.328
2.57572, -1, -36.7273, 0.749205, 20.5346, -160.492, -92.6359, 55.2412
2.58417, -1, -36.8442, 0.71817, 20.5418, -160.528, -92.6233, 55.0338
2.5911, -1, -36.8763, 0.709665, 20.543, -160.537, -92.6203, 54.9821
2.60024, -1, -36.9533, 0.689426, 20.5447, -160.556, -92.614, 54.8719
2.60712, -1, -36.9728, 0.684314, 20.5448, -160.56, -92.6126, 54.8478
2.6151, -1, -37.0035, 0.676235, 20.5445, -160.566, -92.6108, 54.8144
2.62312, -1, -37.0248, 0.670688, 20.544, -160.569, -92.6098, 54.7952
2.63248, -1, -37.0424, 0.666294, 20.5435, -160.572, -92.6092, 54.7827
2.64062, 2, -37.0475, 0.665098, 20.5433, -160.572, -92.6091, 54.7796
2.64859, 2, -37.0486, 0.664546, 20.5433, -160.573, -92.609, 54.7782
2.65701, 2, -37.0483, 0.66432, 20.5432, -160.573, -92.609, 54.7776
2.66309, 2, -37.0481, 0.664256, 20.5432, -160.573, -92.609, 54.7774
2.67267, 2, -37.048, 0.664183, 20.5432, -160.573, -92.609, 54.7772
2.68097, 2, -37.0486, 0.664137, 20.5432, -160.573, -92.609, 54.7773
2.6871, 2, -37.0492, 0.664124, 20.5431, -160.573, -92.609, 54.7773
2.69609, 2, -37.0502, 0.664013, 20.543, -160.573, -92.609, 54.7774
2.70412, 2, -37.0515, 0.663802, 20.5428, -160.573, -92.609, 54.7775
2.71212, 2, -37.0528, 0.663534, 20.5426, -160.573, -92.6091, 54.7777
2.7201, 2, -37.054, 0.663314, 20.5424, -160.573, -92.6092, 54.7778
2.72811, 2, -37.0549, 0.663137, 20.5422, -160.573, -92.6092, 54.778
2.73624, 2, -37.0554, 0.663046, 20.5421, -160.573, -92.6092, 54.7782
2.74314, 2, -37.0554, 0.662971, 20.5419, -160.573, -92.6092, 54.7784
2.75113, 2, -37.0548, 0.662988, 20.5418, -160.573, -92.6092, 54.7787
2.75909, 2, -37.0539, 0.663074, 20.5417, -160.573, -92.6093, 54.7789
2.76712, 2, -37.0529, 0.663137, 20.5417, -160.573, -92.6093, 54.7791
2.77611, 2, -37.0513, 0.663222, 20.5416, -160.573, -92.6093, 54.7794
2.78412, 2, -37.0499, 0.663341, 20.5415, -160.573, -92.6094, 54.7796
2.7921, 2, -37.0487, 0.663407, 20.5415, -160.573, -92.6094, 54.7797
2.80013, 2, -37.0479, 0.663427, 20.5415, -160.573, -92.6094, 54.7798
2.80812, 2, -37.0476, 0.66338, 20.5414, -160.573, -92.6094, 54.7798
2.81608, 2, -37.0476, 0.663327, 20.5414, -160.573, -92.6095, 54.7799
2.82509, 2, -37.0478, 0.663247, 20.5414, -160.573, -92.6095, 54.78
2.83211, 2, -37.0481, 0.663181, 20.5413, -160.573, -92.6095, 54.78
2.83912, 2, -37.0485, 0.66315, 20.5413, -160.573, -92.6095, 54.7801
2.84713, 2, -37.0493, 0.663136, 20.5413, -160.573, -92.6094, 54.7801
2.85518, 2, -37.0502, 0.663137, 20.5413, -160.573, -92.6095, 54.7801
2.86312, 2, -37.0509, 0.663143, 20.5413, -160.573, -92.6095, 54.7801
2.87114, 2, -37.0515, 0.663168, 20.5413, -160.573, -92.6095, 54.7802
2.87909, 2, -37.0517, 0.663206, 20.5413, -160.573, -92.6095, 54.7802
2.88714, 2, -37.0517, 0.66323, 20.5413, -160.573, -92.6096, 54.7803
2.89521, 2, -37.0517, 0.663239, 20.5413, -160.573, -92.6095, 54.7803
2.90319, 2, -37.0514, 0.663246, 20.5413, -160.573, -92.6095, 54.7804
2.91123, 2, -37.051, 0.663228, 20.5413, -160.573, -92.6095, 54.7804
2.91923, 2, -37.0506, 0.663215, 20.5413, -160.573, -92.6095, 54.7805
2.9272, 2, -37.0504, 0.663198, 20.5413, -160.573, -92.6095, 54.7805
2.93524, 2, -37.0502, 0.663163, 20.5413, -160.573, -92.6095, 54.7806
2.94324, 2, -37.0501, 0.663142, 20.5413, -160.573, -92.6095, 54.7806
2.9511, 2, -37.0501, 0.663133, 20.5412, -160.573, -92.6096, 54.7807
2.95915, 2, -37.0501, 0.663128, 20.5412, -160.573, -92.6096, 54.7807
2.96724, 2, -37.0502, 0.663126, 20.5412, -160.573, -92.6096, 54.7808
2.9752, 2, -37.0503, 0.663156, 20.5412, -160.572, -92.6096, 54.7808
2.98327, 2, -37.0504, 0.663171, 20.5412, -160.572, -92.6097, 54.7809
2.9917, 2, -37.0506, 0.663181, 20.5412, -160.573, -92.6097, 54.781
3.00013, 2, -37.0508, 0.663193, 20.5412, -160.573, -92.6097, 54.7811
3.00747, 2, -37.0508, 0.663217, 20.5412, -160.573, -92.6096, 54.7811
3.01591, 2, -37.0508, 0.66321, 20.5412, -160.572, -92.6096, 54.7811
3.0242, 2, -37.0508, 0.663183, 20.5411, -160.572, -92.6097, 54.7812
3.03163, 2, -37.0508, 0.663194, 20.5412, -160.572, -92.6097, 54.7812
3.04022, 2, -37.0508, 0.663174, 20.5411, -160.572, -92.6097, 54.7812
3.04766, 2, -37.0507, 0.663159, 20.5411, -160.572, -92.6097, 54.7813
3.05619, 2, -37.0507, 0.663148, 20.5411, -160.572, -92.6097, 54.7813
3.06393, 2, -37.0507, 0.663152, 20.5411, -160.572, -92.6098, 54.7813
3.07227, 2, -37.0506, 0.66315, 20.5411, -160.572, -92.6098, 54.7814
3.07912, 2, -37.0506, 0.663149, 20.5411, -160.572, -92.6098, 54.7814
3.08815, 2, -37.0506, 0.663182, 20.5411, -160.572, -92.6098, 54.7814
3.09509, 2, -37.0506, 0.663189, 20.5411, -160.572, -92.6098, 54.7815
3.10421, 2, -37.0506, 0.663222, 20.5411, -160.572, -92.6098, 54.7815
3.11111, 2, -37.0506, 0.663227, 20.5411, -160.572, -92.6098, 54.7815
3.11908, 2, -37.0506, 0.663222, 20.5411, -160.572, -92.6098, 54.7816
3.1284, 2, -37.0506, 0.663207, 20.5411, -160.572, -92.6098, 54.7816
3.13515, 2, -37.0506, 0.663195, 20.5411, -160.572, -92.6098, 54.7816
3.14307, 2, -37.0506, 0.663192, 20.541, -160.572, -92.6099, 54.7817
3.15259, 2, -37.0506, 0.6632, 20.541, -160.572, -92.6099, 54.7818
3.16101, 2, -37.0506, 0.663184, 20.541, -160.572, -92.6098, 54.7818
3.16866, 2, -37.0506, 0.663164, 20.541, -160.572, -92.6098, 54.7818
3.17671, 2, -37.0506, 0.663167, 20.541, -160.572, -92.6099, 54.7818
3.18492, 2, -37.0506, 0.663168, 20.541, -160.572, -92.6098, 54.7819
3.19266, 2, -37.0506, 0.66318, 20.541, -160.572, -92.6098, 54.7819
3.20008, 2, -37.0506, 0.663193, 20.541, -160.572, -92.6098, 54.7819
3.20893, 2, -37.0506, 0.663224, 20.541, -160.572, -92.6099, 54.782
3.21609, 2, -37.0505, 0.663228, 20.541, -160.572, -92.6099, 54.782
3.22407, 2, -37.0505, 0.663246, 20.541, -160.572, -92.6099, 54.782
3.23209, 2, -37.0505, 0.663241, 20.541, -160.572, -92.6099, 54.7821
3.24015, 2, -37.0505, 0.663239, 20.541, -160.572, -92.6099, 54.7821
3.24807, 2, -37.0505, 0.663251, 20.541, -160.572, -92.6098, 54.7821
3.25609, 2, -37.0505, 0.663244, 20.541, -160.572, -92.6099, 54.7821
3.26307, 2, -37.0505, 0.66324, 20.5409, -160.572, -92.6098, 54.7821
3.27207, 2, -37.0505, 0.66321, 20.5409, -160.572, -92.6099, 54.7822
3.2801, 2, -37.0505, 0.663206, 20.5409, -160.572, -92.6099, 54.7822
3.28707, 2, -37.0505, 0.663216, 20.5409, -160.572, -92.6099, 54.7822
3.29609, 2, -37.0505, 0.663217, 20.5409, -160.572, -92.6099, 54.7822
3.3041, 2, -37.0504, 0.663221, 20.5409, -160.572, -92.6099, 54.7823
3.3121, 2, -37.0504, 0.66323, 20.5409, -160.572, -92.6099, 54.7823
3.32008, 2, -37.0504, 0.663234, 20.5409, -160.572, -92.6099, 54.7823
3.3281, 2, -37.0504, 0.663236, 20.5409, -160.572, -92.6099, 54.7824
3.3361, 2, -37.0504, 0.663237, 20.5409, -160.572, -92.6099, 54.7824
3.3431, 2, -37.0504, 0.663237, 20.5409, -160.572, -92.6099, 54.7824
3.35111, 2, -37.0504, 0.663237, 20.5409, -160.572, -92.6099, 54.7824
3.35909, 2, -37.0504, 0.66325, 20.5408, -160.572, -92.6099, 54.7825
3.36711, 2, -37.0504, 0.663232, 20.5408, -160.572, -92.6099, 54.7825
3.37512, 2, -37.0504, 0.663235, 20.5408, -160.572, -92.61, 54.7825
3.38307, 2, -37.0503, 0.663241, 20.5408, -160.572, -92.6099, 54.7825
3.39113, 2, -37.0503, 0.663239, 20.5408, -160.572, -92.6099, 54.7824
3.39918, 2, -37.0503, 0.66322, 20.5408, -160.572, -92.6099, 54.7825
3.40717, 2, -37.0503, 0.663242, 20.5408, -160.572, -92.6099, 54.7825
3.41522, 2, -37.0503, 0.66324, 20.5408, -160.572, -92.6099, 54.7825
3.42321, 2, -37.0503, 0.663258, 20.5408, -160.572, -92.6099, 54.7825
3.43117, 2, -37.0503, 0.663272, 20.5408, -160.572, -92.6099, 54.7825
3.43922, 2, -37.0502, 0.663265, 20.5408, -160.572, -92.61, 54.7825
3.44718, 2, -37.0502, 0.663268, 20.5408, -160.572, -92.61, 54.7826
3.4551, 2, -37.0502, 0.663259, 20.5408, -160.572, -92.61, 54.7826
3.46314, 2, -37.0502, 0.663241, 20.5408, -160.572, -92.61, 54.7826
3.47119, 2, -37.0502, 0.663264, 20.5408, -160.572, -92.61, 54.7826
3.47922, 2, -37.0502, 0.663255, 20.5408, -160.572, -92.6099, 54.7826
3.48743, 2, -37.0502, 0.663234, 20.5408, -160.572, -92.6099, 54.7826
3.49538, 2, -37.0502, 0.663241, 20.5407, -160.572, -92.61, 54.7826
3.50348, 2, -37.0501, 0.663247, 20.5407, -160.572, -92.61, 54.7826
3.51149, 2, -37.0501, 0.663266, 20.5407, -160.572, -92.61, 54.7826
3.51953, 2, -37.0501, 0.663275, 20.5407, -160.572, -92.6101, 54.7826
3.52819, 2, -37.0501, 0.663272, 20.5407, -160.572, -92.61, 54.7827
3.5358, 2, -37.05, 0.663273, 20.5407, -160.572, -92.61, 54.7827
3.54419, 2, -37.05, 0.663278, 20.5407, -160.572, -92.61, 54.7827
3.55168, 2, -37.05, 0.663281, 20.5407, -160.572, -92.6101, 54.7827
3.56018, 2, -37.0499, 0.663282, 20.5407, -160.572, -92.6101, 54.7827
3.56769, 2, -37.0499, 0.663275, 20.5407, -160.572, -92.6101, 54.7827
3.57621, 2, -37.0499, 0.663277, 20.5407, -160.572, -92.61, 54.7827
3.5831, 2, -37.0499, 0.663272, 20.5407, -160.572, -92.61, 54.7827
3.59213, 2, -37.0499, 0.663276, 20.5407, -160.572, -92.6101, 54.7828
3.59906, 2, -37.0499, 0.663278, 20.5407, -160.572, -92.61, 54.7827
3.60822, 2, -37.0499, 0.663273, 20.5406, -160.572, -92.6101, 54.7828
3.61509, 2, -37.0499, 0.663276, 20.5406, -160.572, -92.6101, 54.7828
3.62466, 2, -37.0499, 0.663281, 20.5406, -160.572, -92.61, 54.7828
3.63258, 2, -37.0498, 0.663275, 20.5406, -160.572, -92.6101, 54.7829
3.6409, 2, -37.0498, 0.663274, 20.5406, -160.572, -92.6101, 54.7829
3.64701, 2, -37.0498, 0.663277, 20.5406, -160.572, -92.6101, 54.7828
3.65664, 2, -37.0497, 0.663281, 20.5406, -160.572, -92.6102, 54.7828
3.66463, 2, -37.0497, 0.663282, 20.5406, -160.572, -92.6101, 54.7828
3.67264, 2, -37.0497, 0.663283, 20.5406, -160.572, -92.6101, 54.7829
3.68129, 2, -37.0497, 0.663283, 20.5406, -160.572, -92.6102, 54.7829
3.68719, 2, -37.0497, 0.663283, 20.5406, -160.572, -92.6101, 54.7829
3.69666, 2, -37.0497, 0.663283, 20.5406, -160.572, -92.6101, 54.7829
3.70407, 4, -37.0497, 0.663283, 20.5406, -160.572, -92.6101, 54.7829
3.71205, 4, -37.0497, 0.663283, 20.5406, -160.572, -92.6101, 54.7829
3.72011, 4, -37.0497, 0.663283, 20.5406, -160.571, -92.6101, 54.7829
3.72804, 4, -37.0496, 0.663283, 20.5406, -160.572, -92.6102, 54.7829
3.73605, 4, -37.0496, 0.663283, 20.5405, -160.572, -92.6102, 54.7829
3.74414, 4, -37.0496, 0.663283, 20.5405, -160.572, -92.6102, 54.7829
3.75205, 4, -37.0496, 0.663283, 20.5405, -160.571, -92.6101, 54.7829
3.76006, 4, -37.0496, 0.663294, 20.5405, -160.571, -92.6102, 54.7829
3.7681, 4, -37.0496, 0.663306, 20.5406, -160.571, -92.6102, 54.7829
3.77606, 4, -37.0495, 0.663301, 20.5405, -160.571, -92.6101, 54.7829
3.78312, 4, -37.0495, 0.663302, 20.5405, -160.571, -92.6101, 54.7829
3.79212, 4, -37.0494, 0.663299, 20.5405, -160.571, -92.6101, 54.7829
3.80008, 4, -37.0495, 0.66329, 20.5405, -160.571, -92.6101, 54.7829
3.8082, 4, -37.0494, 0.663286, 20.5405, -160.571, -92.6101, 54.7829
3.83291, 4, -37.0494, 0.663314, 20.5405, -160.571, -92.6101, 54.783
3.83506, 4, -37.0494, 0.663304, 20.5405, -160.571, -92.6101, 54.783
3.83627, 4, -37.0494, 0.663304, 20.5405, -160.571, -92.6101, 54.783
3.84003, 4, -37.0494, 0.663297, 20.5405, -160.571, -92.6102, 54.783
3.84805, 4, -37.0493, 0.6633, 20.5405, -160.571, -92.6101, 54.7829
3.85506, 4, -37.0493, 0.663317, 20.5405, -160.571, -92.6101, 54.7829
3.86404, 4, -37.0485, 0.663188, 20.5405, -160.571, -92.6101, 54.783
3.87112, 4, -37.0459, 0.662328, 20.5407, -160.571, -92.6102, 54.783
3.87905, 4, -37.0404, 0.65984, 20.5415, -160.571, -92.6102, 54.7829
3.88805, 4, -37.0324, 0.6555, 20.5435, -160.571, -92.6102, 54.7829
3.89606, 4, -37.0228, 0.649547, 20.5475, -160.571, -92.6102, 54.7829
3.90524, 4, -37.0117, 0.641795, 20.5543, -160.569, -92.6102, 54.7829
3.91122, 5, -36.9981, 0.631733, 20.564, -160.567, -92.6101, 54.7829
3.91917, 5, -36.9827, 0.619505, 20.5771, -160.565, -92.61, 54.7828
3.92718, 5, -36.9663, 0.605643, 20.5933, -160.561, -92.6098, 54.7827
3.93521, 5, -36.9486, 0.590311, 20.6119, -160.557, -92.6097, 54.7826
3.94311, 5, -36.9285, 0.572883, 20.6323, -160.553, -92.6095, 54.7825
3.95109, 5, -36.9054, 0.553157, 20.6542, -160.548, -92.6093, 54.7825
3.95913, 5, -36.8798, 0.532281, 20.6765, -160.544, -92.6091, 54.7823
3.96711, 5, -36.8527, 0.510809, 20.6992, -160.539, -92.6088, 54.7822
3.97518, 5, -36.8249, 0.48874, 20.7221, -160.534, -92.6084, 54.782
3.98322, 5, -36.7967, 0.466555, 20.745, -160.529, -92.608, 54.7818
3.9913, 5, -36.7683, 0.44437, 20.7681, -160.524, -92.6075, 54.7816
3.99932, 5, -36.7401, 0.421972, 20.7911, -160.518, -92.607, 54.7814
4.00749, 5, -36.7118, 0.399648, 20.8141, -160.513, -92.6065, 54.7812
4.01548, 5, -36.6837, 0.377408, 20.8371, -160.508, -92.6059, 54.781
4.0235, 5, -36.6557, 0.355161, 20.8602, -160.503, -92.6053, 54.7807
4.03161, 5, -36.6276, 0.333129, 20.8835, -160.497, -92.6046, 54.7804
4.04019, 5, -36.5994, 0.311078, 20.9065, -160.492, -92.6039, 54.7803
4.04763, 5, -36.5711, 0.28913, 20.9297, -160.487, -92.6033, 54.7802
4.05706, 5, -36.543, 0.267196, 20.9528, -160.482, -92.6025, 54.7801
4.06368, 5, -36.529, 0.256141, 20.9759, -160.477, -92.6019, 54.78
4.07214, 5, -36.4872, 0.222972, 20.9992, -160.472, -92.6012, 54.7799
4.07904, 5, -36.4734, 0.211949, 21.0107, -160.47, -92.6008, 54.7798
4.08808, 5, -36.4315, 0.178643, 21.0451, -160.463, -92.5998, 54.7797
4.09508, 5, -36.4173, 0.167567, 21.0566, -160.461, -92.5994, 54.7796
4.10419, 5, -36.3744, 0.134282, 21.0912, -160.453, -92.5982, 54.7794
4.11106, 5, -36.3602, 0.123103, 21.1027, -160.451, -92.5979, 54.7793
4.12028, 5, -36.3172, 0.0898521, 21.1371, -160.444, -92.5969, 54.7791
4.12705, 5, -36.303, 0.0788028, 21.1486, -160.442, -92.5965, 54.779
4.13648, 5, -36.2603, 0.0455088, 21.183, -160.435, -92.5955, 54.7786
4.14445, 5, -36.2316, 0.0235246, 21.206, -160.43, -92.5948, 54.7782
4.15105, 5, -36.2173, 0.0125079, 21.2175, -160.428, -92.5944, 54.7781
4.16063, 5, -36.1745, -0.020524, 21.2518, -160.421, -92.5934, 54.7776
4.16866, 5, -36.146, -0.042373, 21.2748, -160.416, -92.5926, 54.7772
4.17663, 5, -36.1176, -0.0643786, 21.2977, -160.411, -92.5919, 54.7768
4.18467, 5, -36.0892, -0.0862205, 21.3207, -160.406, -92.5912, 54.7764
4.19281, 5, -36.075, -0.10811, 21.3435, -160.401, -92.5905, 54.776
4.20061, 5, -36.0467, -0.119142, 21.3548, -160.398, -92.5902, 54.7755
4.20806, 5, -36.0183, -0.141155, 21.3776, -160.393, -92.5895, 54.7753
4.21603, 5, -35.9897, -0.162998, 21.4003, -160.388, -92.5888, 54.7748
4.22602, 5, -35.9469, -0.196039, 21.4346, -160.38, -92.5879, 54.7741
4.23104, 5, -35.9324, -0.20698, 21.446, -160.377, -92.5875, 54.7739
4.24003, 5, -35.9036, -0.228826, 21.4686, -160.372, -92.5868, 54.7735
4.24815, 5, -35.8749, -0.25087, 21.4912, -160.366, -92.5862, 54.7731
4.25604, 5, -35.8461, -0.272699, 21.5139, -160.361, -92.5855, 54.7727
4.26408, 5, -35.8172, -0.294434, 21.5365, -160.356, -92.5848, 54.7723
4.27208, 5, -35.7884, -0.3163, 21.5592, -160.35, -92.5841, 54.772
4.27904, 5, -35.7595, -0.338034, 21.5818, -160.345, -92.5835, 54.7717
4.28803, 5, -35.7307, -0.359773, 21.6044, -160.34, -92.5828, 54.7714
4.29841, 5, -35.6877, -0.392442, 21.6383, -160.332, -92.5819, 54.771
4.30303, 5, -35.6734, -0.403271, 21.6496, -160.33, -92.5816, 54.7709
4.31203, 5, -35.6448, -0.424971, 21.6721, -160.325, -92.5809, 54.7707
4.32011, 5, -35.6161, -0.446716, 21.6945, -160.32, -92.5803, 54.7705
4.32964, 5, -35.5873, -0.46839, 21.7169, -160.315, -92.5796, 54.7703
4.33603, 5, -35.5587, -0.4902, 21.7393, -160.31, -92.579, 54.7702
4.34411, 5, -35.5299, -0.511944, 21.7618, -160.305, -92.5783, 54.7701
4.35203, 5, -35.5011, -0.533579, 21.7841, -160.3, -92.5776, 54.7699
4.35911, 5, -35.4721, -0.555286, 21.8064, -160.295, -92.577, 54.7699
4.36705, 5, -35.4431, -0.576859, 21.8287, -160.29, -92.5764, 54.7698
4.37611, 5, -35.4141, -0.598416, 21.8509, -160.285, -92.5757, 54.7698
4.38411, 5, -35.3851, -0.620101, 21.8732, -160.28, -92.5751, 54.7697
4.39203, 5, -35.3561, -0.641603, 21.8955, -160.275, -92.5745, 54.7698
4.40003, 5, -35.3271, -0.663043, 21.9176, -160.27, -92.5738, 54.7697
4.40809, 5, -35.2979, -0.684638, 21.9399, -160.265, -92.5731, 54.7697
4.41514, 5, -35.2688, -0.706118, 21.9621, -160.26, -92.5725, 54.7697
4.42321, 5, -35.2398, -0.727556, 21.9843, -160.254, -92.5718, 54.7697
4.43114, 5, -35.2108, -0.749118, 22.0063, -160.249, -92.5711, 54.7697
4.43914, 5, -35.1819, -0.770479, 22.0283, -160.243, -92.5705, 54.7697
4.44721, 5, -35.1527, -0.79179, 22.0504, -160.238, -92.5699, 54.7697
4.4551, 5, -35.1236, -0.813204, 22.0724, -160.232, -92.5693, 54.7697
4.46313, 5, -35.0946, -0.834486, 22.0946, -160.227, -92.5686, 54.7698
4.47109, 5, -35.0655, -0.855898, 22.1165, -160.221, -92.5679, 54.7698
4.4792, 5, -35.0364, -0.877417, 22.1384, -160.215, -92.5673, 54.7698
4.48727, 5, -35.0073, -0.898706, 22.1603, -160.21, -92.5666, 54.7698
4.49532, 5, -34.9779, -0.920025, 22.1821, -160.204, -92.566, 54.7699
4.50355, 5, -34.9488, -0.94142, 22.2041, -160.199, -92.5653, 54.7699
4.51181, 5, -34.9197, -0.962642, 22.2259, -160.193, -92.5647, 54.77
4.52013, 5, -34.8905, -0.98396, 22.2477, -160.188, -92.564, 54.77
4.52752, 5, -34.8613, -1.00527, 22.2696, -160.183, -92.5634, 54.7701
4.53631, 5, -34.8321, -1.02635, 22.2913, -160.178, -92.5627, 54.7701
4.54447, 5, -34.8026, -1.04748, 22.3131, -160.173, -92.5621, 54.7701
4.5518, 5, -34.7733, -1.06868, 22.3349, -160.168, -92.5614, 54.7702
4.56022, 5, -34.7441, -1.08979, 22.3564, -160.163, -92.5607, 54.7703
4.56762, 5, -34.7295, -1.10034, 22.3672, -160.16, -92.5601, 54.7703
4.57604, 5, -34.6856, -1.13218, 22.3997, -160.153, -92.5594, 54.7704
4.58303, 5, -34.6709, -1.14273, 22.4105, -160.15, -92.559, 54.7704
4.59206, 5, -34.6268, -1.17443, 22.4429, -160.143, -92.5581, 54.7705
4.59907, 5, -34.6121, -1.185, 22.4537, -160.14, -92.5578, 54.7706
4.60821, 5, -34.568, -1.21662, 22.4858, -160.133, -92.5567, 54.7708
4.61503, 5, -34.5533, -1.22723, 22.4965, -160.13, -92.5564, 54.7709
4.62431, 5, -34.509, -1.25887, 22.5288, -160.122, -92.5554, 54.7712
4.63117, 5, -34.4942, -1.26934, 22.5395, -160.119, -92.555, 54.7714
4.64042, 5, -34.4648, -1.30092, 22.5716, -160.111, -92.554, 54.7719
4.64716, 5, -34.4353, -1.31139, 22.5823, -160.108, -92.5536, 54.7721
4.65655, 5, -34.391, -1.34267, 22.6144, -160.1, -92.5527, 54.7729
4.66459, 5, -34.3613, -1.36367, 22.6358, -160.094, -92.552, 54.7736
4.67263, 5, -34.3316, -1.38451, 22.6572, -160.089, -92.5513, 54.7743
4.68061, 5, -34.3021, -1.40532, 22.6783, -160.083, -92.5505, 54.7751
4.68868, 5, -34.2725, -1.42624, 22.6996, -160.077, -92.5498, 54.776
4.69688, 5, -34.2577, -1.43667, 22.7102, -160.074, -92.5491, 54.7771
4.70496, 5, -34.2134, -1.4679, 22.742, -160.065, -92.5485, 54.7782
4.71203, 5, -34.1985, -1.47835, 22.7526, -160.062, -92.5481, 54.7788
4.72002, 5, -34.1687, -1.49919, 22.7739, -160.057, -92.5474, 54.78
4.72965, 5, -34.1243, -1.53033, 22.8055, -160.048, -92.5463, 54.782
4.73715, 5, -34.1094, -1.55113, 22.8267, -160.043, -92.5457, 54.7833
4.74299, 5, -34.0798, -1.56149, 22.8372, -160.04, -92.5454, 54.7839
4.75209, 5, -34.0501, -1.58214, 22.8582, -160.035, -92.5446, 54.7853
4.76002, 5, -34.0203, -1.60289, 22.8793, -160.029, -92.5439, 54.7867
4.76808, 5, -33.9907, -1.62365, 22.9003, -160.024, -92.5431, 54.7882
4.77602, 5, -33.9609, -1.64421, 22.9213, -160.019, -92.5424, 54.7897
4.78402, 5, -33.9312, -1.66485, 22.9424, -160.013, -92.5417, 54.7911
4.79201, 5, -33.9013, -1.68547, 22.9634, -160.008, -92.541, 54.7927
4.80007, 5, -33.8713, -1.70595, 22.9844, -160.003, -92.5403, 54.7942
4.80805, 5, -33.8415, -1.72657, 23.0053, -159.997, -92.5396, 54.7957
4.81608, 5, -33.8117, -1.74722, 23.026, -159.992, -92.5389, 54.7972
4.82401, 5, -33.7819, -1.76772, 23.0468, -159.987, -92.5382, 54.7987
4.83392, 5, -33.752, -1.78828, 23.0676, -159.978, -92.5371, 54.8009
4.84086, 5, -33.722, -1.80884, 23.0885, -159.975, -92.5367, 54.8017
4.84802, 5, -33.692, -1.82938, 23.1092, -159.97, -92.5359, 54.8033
4.85602, 5, -33.6622, -1.8499, 23.1299, -159.964, -92.5352, 54.8048
4.8641, 5, -33.6323, -1.87041, 23.1506, -159.958, -92.5345, 54.8064
4.87201, 5, -33.6025, -1.89089, 23.1712, -159.952, -92.5338, 54.8079
4.88083, 5, -33.5724, -1.9113, 23.1918, -159.946, -92.5331, 54.8095
4.88703, 5, -33.5424, -1.9317, 23.2126, -159.94, -92.5323, 54.811
4.89601, 5, -33.5125, -1.9521, 23.2331, -159.934, -92.5316, 54.8126
4.90337, 5, -33.4825, -1.97259, 23.2537, -159.928, -92.5308, 54.8142
4.91132, 5, -33.4525, -1.99315, 23.2743, -159.922, -92.5301, 54.8157
4.92002, 5, -33.4224, -2.01366, 23.2949, -159.916, -92.5292, 54.8172
4.92808, 5, -33.3923, -2.03425, 23.3157, -159.91, -92.5284, 54.8187
4.93601, 5, -33.3625, -2.05504, 23.3364, -159.905, -92.5274, 54.82
4.94401, 5, -33.3327, -2.0758, 23.357, -159.899, -92.5263, 54.8211
4.95213, 5, -33.3029, -2.09683, 23.3779, -159.893, -92.525, 54.822
4.95929, 6, -33.2731, -2.11806, 23.3989, -159.887, -92.5234, 54.8227
4.96712, 6, -33.2433, -2.13927, 23.4202, -159.881, -92.5216, 54.8231
4.97505, 6, -33.2138, -2.1608, 23.4417, -159.874, -92.5196, 54.8234
4.98501, 6, -33.1843, -2.18254, 23.4631, -159.868, -92.5174, 54.8235
4.99208, 6, -33.1549, -2.20445, 23.4848, -159.861, -92.5149, 54.8235
5.00003, 6, -33.1257, -2.22674, 23.5067, -159.854, -92.5123, 54.8235
5.00901, 6, -33.0963, -2.24912, 23.5287, -159.847, -92.5093, 54.8234
5.01601, 6, -33.0672, -2.27171, 23.551, -159.84, -92.5061, 54.8232
5.02405, 6, -33.0383, -2.29462, 23.5734, -159.832, -92.5028, 54.8228
5.03259, 6, -33.0094, -2.31759, 23.596, -159.825, -92.4991, 54.8222
5.04011, 6, -32.9807, -2.34097, 23.6187, -159.817, -92.4954, 54.8215
5.04767, 6, -32.9518, -2.36461, 23.6417, -159.808, -92.4914, 54.8204
5.0565, 6, -32.923, -2.38826, 23.6648, -159.799, -92.4872, 54.8194
5.06359, 7, -32.9088, -2.41233, 23.6879, -159.79, -92.4828, 54.8182
5.07207, 7, -32.8662, -2.43647, 23.7113, -159.781, -92.4782, 54.8166
5.08061, 7, -32.852, -2.46089, 23.7349, -159.772, -92.4734, 54.8143
5.0881, 7, -32.8096, -2.4857, 23.7587, -159.763, -92.4685, 54.8111
5.09503, 7, -32.7955, -2.4981, 23.7707, -159.758, -92.4659, 54.8094
5.10496, 7, -32.7532, -2.5357, 23.8067, -159.744, -92.4579, 54.8032
5.11213, 7, -32.7254, -2.56109, 23.8309, -159.735, -92.4523, 54.7985
5.11911, 7, -32.7114, -2.57384, 23.8431, -159.73, -92.4494, 54.7961
5.12928, 7, -32.6698, -2.61269, 23.8799, -159.716, -92.4403, 54.7881
5.13645, 7, -32.6421, -2.63874, 23.9047, -159.706, -92.434, 54.7824
5.143, 7, -32.6283, -2.65187, 23.9171, -159.701, -92.4307, 54.7793
5.15334, 7, -32.5871, -2.69162, 23.9547, -159.686, -92.4205, 54.7698
5.15931, 8, -32.5734, -2.70503, 23.9674, -159.681, -92.4169, 54.7665
5.16856, 8, -32.5325, -2.74557, 24.0056, -159.664, -92.4058, 54.756
5.17755, 8, -32.5053, -2.77285, 24.0311, -159.653, -92.3979, 54.7486
5.18459, 8, -32.478, -2.80033, 24.0568, -159.642, -92.3895, 54.741
5.1926, 8, -32.4645, -2.81413, 24.0829, -159.63, -92.3809, 54.733
5.20142, 8, -32.4375, -2.84204, 24.096, -159.624, -92.3719, 54.7247
5.20711, 8, -32.4106, -2.87012, 24.1222, -159.613, -92.3674, 54.7204
5.216, 8, -32.3838, -2.89837, 24.1486, -159.601, -92.3581, 54.7117
5.22413, 8, -32.3572, -2.92693, 24.1751, -159.59, -92.3488, 54.7026
5.23117, 8, -32.3305, -2.95567, 24.2019, -159.578, -92.3392, 54.6932
5.24001, 8, -32.3039, -2.98473, 24.2288, -159.566, -92.3297, 54.6834
5.24805, 8, -32.2776, -3.0139, 24.2559, -159.554, -92.3201, 54.6732
5.25601, 8, -32.2514, -3.04329, 24.2832, -159.542, -92.3103, 54.6626
5.26308, 9, -32.2252, -3.07294, 24.3107, -159.529, -92.3003, 54.6519
5.27346, 9, -32.1862, -3.11792, 24.3521, -159.51, -92.2851, 54.6353
5.27908, 9, -32.1731, -3.133, 24.3659, -159.503, -92.2798, 54.6297
5.28705, 9, -32.1471, -3.16343, 24.3938, -159.489, -92.2691, 54.6186
5.2981, 9, -32.1085, -3.20942, 24.4361, -159.469, -92.2523, 54.6017
5.30306, 9, -32.0957, -3.2249, 24.4503, -159.463, -92.2465, 54.596
5.31207, 9, -32.0701, -3.25598, 24.4786, -159.449, -92.2345, 54.5844
5.32006, 9, -32.0445, -3.28736, 24.5072, -159.436, -92.2221, 54.5728
5.33159, 9, -32.0063, -3.33488, 24.5504, -159.415, -92.2033, 54.5546
5.336, 9, -31.9935, -3.35086, 24.5649, -159.408, -92.197, 54.5484
5.34501, 9, -31.9682, -3.38291, 24.594, -159.394, -92.1844, 54.5358
5.35207, 9, -31.9431, -3.41519, 24.6232, -159.379, -92.1716, 54.5229
5.36001, 10, -31.9181, -3.44779, 24.6528, -159.364, -92.1587, 54.5094
5.36803, 10, -31.8932, -3.48065, 24.6824, -159.349, -92.1457, 54.4956
5.37599, 10, -31.8684, -3.51372, 24.7122, -159.334, -92.1323, 54.4814
5.38399, 10, -31.8435, -3.54698, 24.7422, -159.319, -92.1186, 54.4666
5.392, 10, -31.8188, -3.58057, 24.7724, -159.304, -92.1044, 54.4518
5.40007, 10, -31.7943, -3.6143, 24.8027, -159.289, -92.0898, 54.4369
5.408, 10, -31.7698, -3.64828, 24.8331, -159.274, -92.0746, 54.4219
5.41599, 10, -31.7455, -3.68252, 24.8638, -159.258, -92.0595, 54.4069
5.42422, 10, -31.7213, -3.71709, 24.8947, -159.243, -92.0444, 54.3918
5.43304, 10, -31.6971, -3.75172, 24.9256, -159.226, -92.0292, 54.3764
5.44, 10, -31.6729, -3.78659, 24.9568, -159.21, -92.0141, 54.3609
5.44806, 10, -31.6489, -3.82176, 24.9883, -159.193, -91.9987, 54.345
5.45625, 11, -31.6248, -3.85718, 25.0197, -159.177, -91.9831, 54.3287
5.46309, 11, -31.6008, -3.8928, 25.0513, -159.161, -91.9671, 54.3119
5.4717, 11, -31.577, -3.9286, 25.0832, -159.144, -91.9505, 54.2946
5.48009, 11, -31.5532, -3.9648, 25.1152, -159.128, -91.9335, 54.2769
5.48805, 11, -31.5295, -4.00116, 25.1473, -159.111, -91.9163, 54.259
5.49672, 11, -31.5059, -4.03776, 25.1796, -159.093, -91.8991, 54.2411
5.504, 11, -31.4825, -4.07473, 25.2122, -159.075, -91.8819, 54.2233
5.51206, 11, -31.4591, -4.11192, 25.2449, -159.057, -91.8646, 54.2053
5.52045, 11, -31.4358, -4.14921, 25.2778, -159.039, -91.8471, 54.1872
5.5298, 11, -31.4127, -4.18689, 25.311, -159.021, -91.8292, 54.1687
5.5355, 11, -31.3895, -4.22486, 25.3442, -159.004, -91.8108, 54.1499
5.54414, 11, -31.3663, -4.26299, 25.3776, -158.986, -91.7918, 54.1306
5.5524, 11, -31.3434, -4.30133, 25.4112, -158.967, -91.7726, 54.1107
5.55955, 12, -31.3207, -4.33999, 25.4451, -158.949, -91.7535, 54.0903
5.56999, 12, -31.298, -4.37888, 25.479, -158.929, -91.7345, 54.0699
5.57683, 12, -31.2755, -4.41796, 25.5131, -158.91, -91.7154, 54.0495
5.58399, 12, -31.2532, -4.45731, 25.5475, -158.891, -91.6961, 54.0291
5.59103, 12, -31.2419, -4.47706, 25.5648, -158.882, -91.6863, 54.0189
5.599, 12, -31.2194, -4.51667, 25.5993, -158.863, -91.6662, 53.9983
5.60699, 12, -31.1971, -4.55655, 25.6341, -158.843, -91.6457, 53.9774
5.61628, 12, -31.1639, -4.61691, 25.6866, -158.814, -91.6145, 53.9451
5.62314, 12, -31.1528, -4.63714, 25.7041, -158.804, -91.6042, 53.9341
5.63096, 12, -31.1308, -4.67775, 25.7394, -158.783, -91.5835, 53.9116
5.64044, 12, -31.0981, -4.73919, 25.7926, -158.753, -91.5522, 53.8777
5.64698, 12, -31.0872, -4.75984, 25.8104, -158.743, -91.5415, 53.8664
5.65651, 13, -31.0542, -4.82214, 25.864, -158.713, -91.5085, 53.8326
5.66477, 13, -31.0325, -4.86396, 25.9001, -158.693, -91.486, 53.8099
5.67252, 13, -31.011, -4.90605, 25.9363, -158.672, -91.4636, 53.7867
5.68064, 13, -30.9894, -4.94847, 25.9727, -158.651, -91.4414, 53.7632
5.68863, 13, -30.9681, -4.9911, 26.0093, -158.629, -91.419, 53.7391
5.69668, 13, -30.9575, -5.01248, 26.0276, -158.608, -91.3963, 53.7145
5.70472, 13, -30.9363, -5.0555, 26.0829, -158.587, -91.3731, 53.69
5.71198, 13, -30.9151, -5.0987, 26.1015, -158.576, -91.3612, 53.6779
5.72091, 13, -30.8939, -5.16393, 26.1572, -158.544, -91.3255, 53.6409
5.72695, 13, -30.873, -5.18582, 26.1759, -158.533, -91.3137, 53.6286
5.73598, 13, -30.8521, -5.22968, 26.2135, -158.511, -91.2899, 53.6035
5.74403, 13, -30.8312, -5.27368, 26.2512, -158.488, -91.2661, 53.5777
5.75196, 13, -30.8105, -5.31806, 26.2891, -158.466, -91.2418, 53.5515
5.75904, 14, -30.7901, -5.36264, 26.3273, -158.444, -91.2168, 53.525
5.76737, 14, -30.7696, -5.40735, 26.3654, -158.422, -91.1915, 53.4988
5.77501, 14, -30.7491, -5.45242, 26.4038, -158.4, -91.1665, 53.4729
5.78398, 14, -30.7287, -5.49775, 26.4424, -158.377, -91.1414, 53.4466
5.79235, 14, -30.7084, -5.54337, 26.4811, -158.353, -91.1163, 53.42
5.80004, 14, -30.6881, -5.58933, 26.5199, -158.33, -91.0906, 53.3927
5.80704, 14, -30.668, -5.63542, 26.5591, -158.307, -91.0641, 53.3647
5.81774, 14, -30.648, -5.70515, 26.618, -158.272, -91.0243, 53.3225
5.8231, 14, -30.6281, -5.72855, 26.6378, -158.26, -91.011, 53.3084
5.83412, 14, -30.5984, -5.79908, 26.6973, -158.224, -90.9712, 53.2662
5.83897, 14, -30.5885, -5.82267, 26.7172, -158.212, -90.9578, 53.2521
5.84699, 14, -30.5688, -5.87007, 26.7572, -158.188, -90.9302, 53.2234
5.85594, 15, -30.5493, -5.9177, 26.7974, -158.164, -90.9023, 53.194
5.86664, 15, -30.52, -5.98947, 26.8579, -158.128, -90.8608, 53.1494
5.87206, 15, -30.5103, -6.01346, 26.8782, -158.115, -90.8471, 53.1346
5.88006, 15, -30.4911, -6.06174, 26.919, -158.091, -90.8195, 53.1049
5.88713, 15, -30.472, -6.11021, 26.9598, -158.065, -90.7911, 53.0751
5.89501, 15, -30.4528, -6.15891, 27.0009, -158.04, -90.7622, 53.0448
5.90399, 15, -30.4337, -6.20787, 27.042, -158.015, -90.7335, 53.0139
5.91204, 15, -30.4147, -6.25712, 27.0834, -157.99, -90.7047, 52.9825
5.92019, 15, -30.3959, -6.30669, 27.1249, -157.964, -90.6758, 52.9511
5.92798, 15, -30.3771, -6.35651, 27.1665, -157.938, -90.6461, 52.9198
5.93604, 15, -30.3585, -6.40664, 27.2084, -157.912, -90.6159, 52.8884
5.94398, 15, -30.34, -6.4571, 27.2504, -157.886, -90.5859, 52.8566
5.95198, 15, -30.3217, -6.5078, 27.2926, -157.86, -90.556, 52.8241
5.96011, 16, -30.3034, -6.55872, 27.335, -157.834, -90.526, 52.7912
5.96799, 16, -30.2849, -6.6099, 27.3775, -157.808, -90.4952, 52.7586
5.97604, 16, -30.2665, -6.66132, 27.4204, -157.781, -90.464, 52.726
5.98397, 16, -30.2484, -6.71286, 27.4633, -157.754, -90.4331, 52.6932
5.9921, 16, -30.2303, -6.76462, 27.5063, -157.727, -90.4021, 52.6599
6.00005, 16, -30.2121, -6.81666, 27.5497, -157.701, -90.3708, 52.626
6.0073, 16, -30.1942, -6.8688, 27.5932, -157.674, -90.3384, 52.5919
6.01582, 16, -30.1765, -6.92124, 27.6369, -157.646, -90.3061, 52.5582
6.02896, 16, -30.15, -7.00035, 27.7027, -157.605, -90.258, 52.5072
6.03201, 16, -30.1411, -7.0269, 27.7247, -157.591, -90.242, 52.49
6.0402, 16, -30.1234, -7.08019, 27.7689, -157.564, -90.2091, 52.4551
6.0475, 16, -30.1058, -7.13371, 27.8131, -157.536, -90.1758, 52.4199
6.05607, 17, -30.0883, -7.18764, 27.8575, -157.508, -90.1427, 52.385
6.06408, 17, -30.071, -7.24183, 27.9022, -157.479, -90.1097, 52.3502
6.0716, 17, -30.0537, -7.29627, 27.947, -157.451, -90.0762, 52.315
6.08021, 17, -30.0367, -7.35097, 27.992, -157.423, -90.0419, 52.2791
6.08798, 17, -30.0197, -7.40592, 28.0371, -157.394, -90.0078, 52.2427
6.09607, 17, -30.0028, -7.461, 28.0825, -157.365, -89.974, 52.2062
6.103, 17, -29.9944, -7.48858, 28.1053, -157.35, -89.957, 52.188
6.11261, 17, -29.969, -7.57171, 28.1738, -157.306, -89.9048, 52.1335
6.12114, 17, -29.9522, -7.62732, 28.2198, -157.278, -89.8698, 52.0965
6.12701, 17, -29.9439, -7.65519, 28.2428, -157.263, -89.8524, 52.0778
6.13497, 17, -29.9273, -7.71111, 28.2891, -157.234, -89.8176, 52.0402
6.14435, 17, -29.9025, -7.79555, 28.3587, -157.188, -89.7642, 51.9842
6.15316, 17, -29.886, -7.85214, 28.4053, -157.158, -89.728, 51.9466
6.15897, 18, -29.8779, -7.88058, 28.4287, -157.144, -89.7102, 51.9275
6.16854, 18, -29.8536, -7.96637, 28.4989, -157.099, -89.6567, 51.8693
6.17744, 18, -29.8375, -8.02395, 28.546, -157.068, -89.6201, 51.8309
6.18301, 18, -29.8294, -8.05279, 28.5696, -157.052, -89.6016, 51.8117
6.19255, 18, -29.8052, -8.1398, 28.6408, -157.006, -89.5469, 51.7535
6.20148, 18, -29.7892, -8.19806, 28.6884, -156.976, -89.5103, 51.7139
6.20866, 18, -29.7813, -8.2272, 28.7362, -156.945, -89.4726, 51.6739
6.21683, 18, -29.7655, -8.28574, 28.7603, -156.913, -89.4347, 51.6344
6.22308, 18, -29.7497, -8.34437, 28.8083, -156.898, -89.4161, 51.6147
6.23301, 18, -29.7263, -8.43262, 28.8809, -156.851, -89.36, 51.5549
6.24002, 18, -29.7186, -8.46213, 28.9051, -156.835, -89.3409, 51.5348
6.24796, 18, -29.7031, -8.52138, 28.9538, -156.804, -89.3023, 51.4941
6.25493, 19, -29.6876, -8.58084, 29.0027, -156.771, -89.2641, 51.4538
6.26402, 19, -29.6722, -8.64065, 29.0516, -156.739, -89.2259, 51.4135
6.27196, 19, -29.6567, -8.70079, 29.1007, -156.708, -89.1868, 51.3729
6.28008, 19, -29.6415, -8.7612, 29.1499, -156.676, -89.1475, 51.3317
6.28797, 19, -29.6262, -8.82197, 29.1992, -156.643, -89.1085, 51.2906
6.296, 19, -29.6112, -8.88301, 29.2487, -156.61, -89.0696, 51.2496
6.30297, 19, -29.5962, -8.94427, 29.2985, -156.578, -89.0298, 51.2085
6.3121, 19, -29.5814, -9.00567, 29.3484, -156.545, -88.9901, 51.1666
6.31987, 19, -29.5666, -9.06731, 29.3984, -156.512, -88.9506, 51.1241
6.32805, 19, -29.552, -9.12904, 29.4488, -156.479, -88.9106, 51.0819
6.33596, 19, -29.5375, -9.19094, 29.4992, -156.445, -88.87, 51.0397
6.34497, 19, -29.5229, -9.25307, 29.5499, -156.412, -88.8297, 50.997
6.35197, 19, -29.5083, -9.31533, 29.6007, -156.379, -88.7896, 50.9535
6.36006, 20, -29.4939, -9.37789, 29.6518, -156.345, -88.7487, 50.9102
6.36802, 20, -29.4795, -9.44079, 29.7029, -156.31, -88.7074, 50.8671
6.37598, 20, -29.4653, -9.50395, 29.7541, -156.277, -88.6667, 50.8235
6.38434, 20, -29.4512, -9.56738, 29.8055, -156.243, -88.6255, 50.7791
6.39196, 20, -29.437, -9.63118, 29.857, -156.208, -88.5835, 50.7348
6.40004, 20, -29.4231, -9.69519, 29.9087, -156.173, -88.5418, 50.6909
6.40895, 20, -29.4092, -9.7595, 29.9607, -156.139, -88.5005, 50.6467
6.41836, 20, -29.3954, -9.82393, 30.0128, -156.104, -88.4368, 50.5789
6.42396, 20, -29.3818, -9.88861, 30.0651, -156.069, -88.4156, 50.5564
6.43204, 20, -29.3681, -9.9534, 30.1176, -156.033, -88.3734, 50.5118
6.43913, 20, -29.3544, -10.0184, 30.1702, -155.998, -88.3308, 50.467
6.44711, 20, -29.3408, -10.0835, 30.2231, -155.963, -88.2873, 50.4216
6.45503, 21, -29.3273, -10.1489, 30.2762, -155.927, -88.2444, 50.3758
6.46496, 21, -29.3138, -10.2144, 30.3294, -155.891, -88.2017, 50.3304
6.47295, 21, -29.3005, -10.2802, 30.3826, -155.856, -88.1579, 50.2848
6.48002, 21, -29.2872, -10.3463, 30.436, -155.82, -88.1144, 50.2387
6.48803, 21, -29.2739, -10.4127, 30.4895, -155.784, -88.0712, 50.1923
6.49602, 21, -29.2608, -10.4792, 30.5431, -155.747, -88.0271, 50.1466
6.50396, 21, -29.2478, -10.5461, 30.597, -155.711, -87.9825, 50.1007
6.51211, 21, -29.2348, -10.6131, 30.651, -155.675, -87.9387, 50.0541
6.52407, 21, -29.2154, -10.714, 30.7324, -155.619, -87.8718, 49.9838
6.5274, 21, -29.209, -10.7477, 30.7597, -155.6, -87.8493, 49.9606
6.53601, 21, -29.196, -10.8152, 30.8142, -155.564, -87.8047, 49.914
6.54406, 21, -29.1831, -10.883, 30.8689, -155.527, -87.7602, 49.8666
6.55233, 22, -29.1704, -10.951, 30.9238, -155.489, -87.7144, 49.8191
6.55976, 22, -29.1576, -11.0192, 30.9789, -155.451, -87.669, 49.7721
6.56812, 22, -29.1451, -11.0876, 31.034, -155.414, -87.6241, 49.725
6.57559, 22, -29.1388, -11.1219, 31.0893, -155.376, -87.5781, 49.677
6.58414, 22, -29.1201, -11.225, 31.1446, -155.338, -87.532, 49.6287
6.59095, 22, -29.1139, -11.2596, 31.1723, -155.318, -87.5092, 49.6049
6.60005, 22, -29.0957, -11.3634, 31.2557, -155.262, -87.44, 49.5333
6.60712, 22, -29.0896, -11.3981, 31.2837, -155.243, -87.4165, 49.5091
6.61496, 22, -29.0775, -11.4677, 31.3396, -155.204, -87.3703, 49.4603
6.62491, 22, -29.0595, -11.5725, 31.424, -155.146, -87.3008, 49.388
6.63263, 22, -29.0475, -11.6427, 31.4803, -155.107, -87.2536, 49.3396
6.64029, 22, -29.0355, -11.713, 31.5368, -155.068, -87.2072, 49.2903
6.64701, 22, -29.0296, -11.7482, 31.5651, -155.048, -87.1839, 49.2657
6.65497, 23, -29.0178, -11.8188, 31.6219, -155.009, -87.1362, 49.217
6.66449, 23, -29.0002, -11.925, 31.7071, -154.95, -87.0655, 49.1437
6.67344, 23, -28.9885, -11.9961, 31.7642, -154.911, -87.0182, 49.0942
6.67933, 23, -28.9827, -12.0317, 31.7927, -154.89, -86.994, 49.0696
6.68695, 23, -28.971, -12.103, 31.8499, -154.851, -86.9462, 49.0209
6.69737, 23, -28.9593, -12.2103, 31.9361, -154.791, -86.8748, 48.9468
6.70458, 23, -28.9479, -12.2462, 31.9649, -154.771, -86.8503, 48.8969
6.71176, 23, -28.9365, -12.3181, 32.0226, -154.731, -86.8019, 48.8722
6.71894, 23, -28.9252, -12.3902, 32.0806, -154.691, -86.7539, 48.8229
6.72926, 23, -28.9085, -12.4988, 32.1677, -154.63, -86.6803, 48.7479
6.73495, 23, -28.903, -12.5351, 32.1968, -154.609, -86.6559, 48.7229
6.74394, 23, -28.8919, -12.6078, 32.2552, -154.568, -86.6074, 48.673
6.75383, 24, -28.8751, -12.7172, 32.3429, -154.507, -86.5331, 48.5981
6.76003, 24, -28.8696, -12.7538, 32.3721, -154.486, -86.5087, 48.5727
6.76799, 24, -28.8587, -12.8269, 32.4309, -154.445, -86.4599, 48.522
6.77594, 24, -28.8477, -12.9003, 32.4896, -154.404, -86.4101, 48.4719
6.78296, 24, -28.8368, -12.9739, 32.5485, -154.362, -86.3605, 48.4214
6.79194, 24, -28.8261, -13.0476, 32.6076, -154.32, -86.3112, 48.3703
6.80002, 24, -28.8153, -13.1216, 32.6669, -154.279, -86.2608, 48.3194
6.81094, 24, -28.7991, -13.2329, 32.7561, -154.216, -86.1862, 48.2437
6.816, 24, -28.7937, -13.2701, 32.7859, -154.195, -86.1613, 48.2181
6.82394, 24, -28.7832, -13.3447, 32.8455, -154.152, -86.1106, 48.1667
6.832, 24, -28.7726, -13.4194, 32.9053, -154.111, -86.0604, 48.1159
6.84094, 24, -28.7621, -13.4943, 32.9652, -154.068, -86.0103, 48.0651
6.84794, 24, -28.7516, -13.5693, 33.0252, -154.025, -85.9591, 48.0138
6.85896, 25, -28.736, -13.6821, 33.1154, -153.962, -85.8835, 47.9374
6.86401, 25, -28.7307, -13.7198, 33.1455, -153.94, -85.8581, 47.9122
6.87194, 25, -28.7203, -13.7953, 33.2058, -153.896, -85.8067, 47.8613
6.88009, 25, -28.71, -13.871, 33.2663, -153.853, -85.756, 47.8099
6.88797, 25, -28.6998, -13.9469, 33.3269, -153.811, -85.7047, 47.7588
6.89606, 25, -28.6896, -14.0229, 33.3876, -153.767, -85.6531, 47.7082
6.9041, 25, -28.6795, -14.0991, 33.4486, -153.723, -85.6021, 47.657
6.91191, 25, -28.6694, -14.1754, 33.5096, -153.68, -85.5506, 47.6055
6.92007, 25, -28.6594, -14.252, 33.5707, -153.636, -85.4989, 47.5547
6.92794, 25, -28.6493, -14.3287, 33.6319, -153.591, -85.4478, 47.5038
6.93594, 25, -28.6394, -14.4055, 33.6932, -153.548, -85.3957, 47.4521
6.94401, 25, -28.6296, -14.4825, 33.7546, -153.504, -85.3438, 47.4006
6.95191, 26, -28.6198, -14.5596, 33.8161, -153.459, -85.2924, 47.3496
6.96007, 26, -28.61, -14.6368, 33.8776, -153.415, -85.2399, 47.2983
6.96793, 26, -28.6003, -14.7141, 33.9393, -153.371, -85.1879, 47.2465
6.97646, 26, -28.5906, -14.7917, 34.0011, -153.325, -85.136, 47.1955
6.98297, 26, -28.581, -14.8693, 34.0631, -153.28, -85.0831, 47.1444
6.99195, 26, -28.5712, -14.9471, 34.1252, -153.236, -85.0309, 47.0929
7.00106, 26, -28.5615, -15.025, 34.1874, -153.191, -84.9784, 47.0413
7.01207, 26, -28.5471, -15.1421, 34.2809, -153.123, -84.8992, 46.9653
7.01594, 26, -28.5423, -15.1811, 34.3122, -153.101, -84.873, 46.9398
7.02419, 26, -28.5327, -15.2593, 34.3745, -153.055, -84.8199, 46.8885
7.03134, 26, -28.5231, -15.3377, 34.4371, -153.009, -84.7668, 46.8376
7.03945, 26, -28.5137, -15.4163, 34.4997, -152.964, -84.7143, 46.7873
7.05034, 27, -28.5043, -15.4949, 34.5624, -152.918, -84.6609, 46.7366
7.05548, 27, -28.4948, -15.5737, 34.6252, -152.872, -84.6079, 46.6853
7.0641, 27, -28.4853, -15.6527, 34.6881, -152.826, -84.5551, 46.6346
7.07252, 27, -28.4761, -15.7318, 34.7511, -152.78, -84.5012, 46.584
7.08011, 27, -28.4668, -15.8111, 34.8143, -152.733, -84.4481, 46.5328
7.08758, 27, -28.4622, -15.8507, 34.8459, -152.71, -84.3948, 46.4818
7.09669, 27, -28.4484, -15.9698, 34.9409, -152.641, -84.3409, 46.4313
7.10427, 27, -28.4393, -16.0494, 35.0043, -152.594, -84.2878, 46.3806
7.11208, 27, -28.4302, -16.1291, 35.0677, -152.547, -84.2337, 46.3292
7.11895, 27, -28.4256, -16.1689, 35.0995, -152.524, -84.2066, 46.3036
7.1283, 27, -28.4117, -16.2887, 35.1947, -152.453, -84.1265, 46.2281
7.13494, 27, -28.4071, -16.3287, 35.2265, -152.429, -84.0994, 46.2029
7.14422, 27, -28.3933, -16.4488, 35.3221, -152.359, -84.0184, 46.1266
7.15122, 28, -28.3887, -16.4889, 35.354, -152.335, -83.9916, 46.1015
7.16048, 28, -28.3747, -16.6093, 35.4499, -152.264, -83.9101, 46.0267
7.16839, 28, -28.3656, -16.6897, 35.514, -152.217, -83.8565, 45.9763
7.17655, 28, -28.3565, -16.7702, 35.5781, -152.169, -83.8024, 45.9261
7.18448, 28, -28.3474, -16.8508, 35.6424, -152.122, -83.7481, 45.8767
7.19254, 28, -28.3383, -16.9315, 35.7065, -152.074, -83.6943, 45.8272
7.20083, 28, -28.3293, -17.0122, 35.7708, -152.025, -83.6395, 45.7773
7.20768, 28, -28.3248, -17.0525, 35.8029, -152.001, -83.6123, 45.7525
7.215, 28, -28.3158, -17.1333, 35.8672, -151.954, -83.5585, 45.7034
7.22497, 28, -28.3024, -17.2547, 35.9638, -151.88, -83.4765, 45.63
7.23198, 28, -28.2979, -17.2952, 35.996, -151.856, -83.4494, 45.6053
7.23999, 28, -28.289, -17.3763, 36.0606, -151.809, -83.3954, 45.5563
7.2495, 28, -28.2757, -17.4981, 36.1576, -151.735, -83.313, 45.484
7.25593, 29, -28.2713, -17.5388, 36.1899, -151.711, -83.286, 45.4598
7.26398, 29, -28.2623, -17.6202, 36.2548, -151.662, -83.2313, 45.4111
7.27192, 29, -28.2532, -17.7016, 36.3196, -151.613, -83.1761, 45.3629
7.27894, 29, -28.2442, -17.7831, 36.3843, -151.564, -83.1217, 45.3154
7.28792, 29, -28.2353, -17.8646, 36.4492, -151.516, -83.0665, 45.268
7.29593, 29, -28.2263, -17.9462, 36.5139, -151.466, -83.0116, 45.22
7.30416, 29, -28.2172, -18.0278, 36.5789, -151.416, -82.9571, 45.1725
7.31192, 29, -28.2083, -18.1096, 36.6439, -151.368, -82.9017, 45.1257
7.31999, 29, -28.1994, -18.1913, 36.709, -151.318, -82.8472, 45.079
7.32799, 29, -28.1905, -18.2732, 36.7743, -151.268, -82.7922, 45.0319
7.33592, 29, -28.1816, -18.3552, 36.8395, -151.219, -82.737, 44.9854
7.34393, 29, -28.1726, -18.4371, 36.9048, -151.169, -82.6826, 44.9396
7.35494, 30, -28.1594, -18.5602, 37.0027, -151.094, -82.5996, 44.8707
7.36005, 30, -28.1551, -18.6012, 37.0353, -151.069, -82.5724, 44.8475
7.36898, 30, -28.1462, -18.6834, 37.1006, -151.018, -82.5176, 44.8018
7.37693, 30, -28.1373, -18.7655, 37.1659, -150.968, -82.4619, 44.7567
7.38395, 30, -28.1284, -18.8477, 37.2313, -150.918, -82.4072, 44.7118
7.39194, 30, -28.1195, -18.9301, 37.2967, -150.867, -82.352, 44.6667
7.40023, 30, -28.1105, -19.0124, 37.3621, -150.817, -82.2965, 44.622
7.40748, 30, -28.1015, -19.0948, 37.4276, -150.767, -82.2417, 44.5781
7.415, 30, -28.0924, -19.1774, 37.4931, -150.716, -82.186, 44.5344
7.42393, 30, -28.0835, -19.2599, 37.5587, -150.666, -82.1309, 44.4906
7.43199, 30, -28.0746, -19.3422, 37.6243, -150.615, -82.076, 44.4467
7.43998, 30, -28.0656, -19.4248, 37.6899, -150.564, -82.0205, 44.4039
7.44793, 30, -28.0564, -19.5072, 37.7554, -150.514, -81.9658, 44.3613
7.45599, 31, -28.0474, -19.5896, 37.821, -150.462, -81.9105, 44.3186
7.46392, 31, -28.0384, -19.6721, 37.8865, -150.411, -81.8552, 44.2759
7.47352, 31, -28.0292, -19.7546, 37.9521, -150.361, -81.8005, 44.2343
7.47903, 31, -28.02, -19.8371, 38.0178, -150.309, -81.745, 44.193
7.48697, 31, -28.0109, -19.9197, 38.0835, -150.257, -81.69, 44.1518
7.49594, 31, -28.002, -20.0023, 38.1492, -150.207, -81.6351, 44.1104
7.50702, 31, -27.9929, -20.0849, 38.2149, -150.128, -81.552, 44.0491
7.51199, 31, -27.9837, -20.1676, 38.2806, -150.103, -81.5246, 44.029
7.51998, 31, -27.9745, -20.2501, 38.3462, -150.052, -81.4692, 43.9891
7.52793, 31, -27.9654, -20.3327, 38.4118, -149.999, -81.4139, 43.9492
7.53603, 31, -27.9562, -20.4154, 38.4774, -149.948, -81.3591, 43.9093
7.544, 31, -27.9468, -20.498, 38.543, -149.896, -81.3035, 43.8702
7.55188, 32, -27.9374, -20.5807, 38.6086, -149.844, -81.2486, 43.8318
7.56015, 32, -27.9281, -20.6634, 38.6742, -149.792, -81.1937, 43.7936
7.56747, 32, -27.9187, -20.7461, 38.7398, -149.74, -81.1385, 43.7554
7.57792, 32, -27.9092, -20.8287, 38.8054, -149.688, -81.0839, 43.7174
7.58398, 32, -27.8997, -20.9114, 38.871, -149.636, -81.0284, 43.6804
7.59192, 32, -27.8901, -20.9941, 38.9366, -149.584, -80.9734, 43.6441
7.60021, 32, -27.8806, -21.0766, 39.0022, -149.531, -80.9189, 43.608
7.60697, 32, -27.8758, -21.1179, 39.035, -149.506, -80.8912, 43.59
7.61604, 32, -27.8612, -21.2417, 39.1332, -149.426, -80.8089, 43.5362
7.6231, 32, -27.8564, -21.2829, 39.1659, -149.4, -80.7817, 43.5187
7.63097, 32, -27.8468, -21.3655, 39.2313, -149.348, -80.7262, 43.4843
7.64019, 32, -27.8324, -21.4891, 39.3295, -149.269, -80.6445, 43.4335
7.64694, 32, -27.8275, -21.5304, 39.3622, -149.243, -80.6171, 43.4168
7.65497, 33, -27.8178, -21.6128, 39.4277, -149.191, -80.5619, 43.3832
7.66439, 33, -27.803, -21.7364, 39.5258, -149.111, -80.4802, 43.3335
7.67129, 33, -27.798, -21.7776, 39.5584, -149.085, -80.4526, 43.3175
7.67892, 33, -27.7879, -21.86, 39.6238, -149.032, -80.3977, 43.286
7.68846, 33, -27.7728, -21.9835, 39.7216, -148.953, -80.3163, 43.2395
7.69698, 33, -27.7627, -22.0657, 39.7867, -148.901, -80.2614, 43.2086
7.70978, 33, -27.7474, -22.1891, 39.8843, -148.821, -80.1802, 43.1627
7.71185, 33, -27.7474, -22.1891, 39.8843, -148.821, -80.1802, 43.1627
7.72139, 33, -27.7372, -22.2713, 39.9494, -148.768, -80.1252, 43.1186
7.72691, 33, -27.7269, -22.3534, 40.0144, -148.715, -80.0714, 43.1043
7.73598, 33, -27.7166, -22.4355, 40.0794, -148.662, -80.017, 43.0761
7.74391, 33, -27.7062, -22.5175, 40.1444, -148.609, -79.9625, 43.0485
7.75196, 34, -27.6959, -22.5995, 40.2093, -148.555, -79.9089, 43.0211
7.75996, 34, -27.6856, -22.6814, 40.2743, -148.503, -79.8539, 42.9937
7.7716, 34, -27.6699, -22.8041, 40.3714, -148.422, -79.773, 42.9538
7.77491, 34, -27.6646, -22.845, 40.4038, -148.396, -79.7458, 42.941
7.78391, 34, -27.654, -22.9267, 40.4684, -148.343, -79.691, 42.916
7.79198, 34, -27.6434, -23.0083, 40.5329, -148.289, -79.6371, 42.8917
7.80013, 34, -27.6325, -23.09, 40.5974, -148.236, -79.5826, 42.868
7.80791, 34, -27.6215, -23.1716, 40.6618, -148.183, -79.528, 42.8446
7.81599, 34, -27.6106, -23.253, 40.7263, -148.129, -79.4746, 42.8215
7.82391, 34, -27.5995, -23.3345, 40.7906, -148.076, -79.42, 42.799
7.8319, 34, -27.5884, -23.4159, 40.8549, -148.022, -79.366, 42.7769
7.84003, 34, -27.5773, -23.4972, 40.9192, -147.969, -79.3122, 42.7558
7.84813, 35, -27.5661, -23.5785, 40.9833, -147.916, -79.2576, 42.7359
7.85592, 35, -27.5548, -23.6596, 41.0472, -147.862, -79.2042, 42.7165
7.86397, 35, -27.5435, -23.7406, 41.1111, -147.808, -79.1502, 42.6978
7.87191, 35, -27.5322, -23.8215, 41.1749, -147.755, -79.0961, 42.6799
7.88002, 35, -27.5207, -23.9023, 41.2386, -147.701, -79.0429, 42.6623
7.88792, 35, -27.5092, -23.9829, 41.3023, -147.648, -78.9887, 42.6453
7.89597, 35, -27.4977, -24.0635, 41.3658, -147.594, -78.9349, 42.6285
7.90398, 35, -27.4859, -24.1439, 41.4295, -147.54, -78.8816, 42.6124
7.9119, 35, -27.474, -24.2243, 41.4929, -147.487, -78.8276, 42.5971
7.92021, 35, -27.4621, -24.3046, 41.5563, -147.433, -78.7743, 42.5827
7.92788, 35, -27.45, -24.3848, 41.6197, -147.379, -78.7208, 42.5691
7.93591, 35, -27.4378, -24.4649, 41.6828, -147.326, -78.6669, 42.5563
7.94398, 35, -27.4255, -24.5449, 41.7457, -147.271, -78.614, 42.5443
7.9519, 36, -27.4131, -24.6249, 41.8086, -147.218, -78.5606, 42.5331
7.95999, 36, -27.4005, -24.7047, 41.8713, -147.165, -78.5074, 42.5227
7.96954, 36, -27.3878, -24.7844, 41.934, -147.11, -78.4548, 42.513
7.97507, 36, -27.3753, -24.864, 41.9966, -147.058, -78.4015, 42.5039
7.98397, 36, -27.3626, -24.9435, 42.0591, -147.003, -78.3487, 42.4955
7.99192, 36, -27.3498, -25.0229, 42.1215, -146.95, -78.2962, 42.4878
8.00072, 36, -27.337, -25.1022, 42.1839, -146.897, -78.243, 42.4807
8.00797, 36, -27.3239, -25.1814, 42.2461, -146.842, -78.1905, 42.4745
8.0159, 36, -27.3106, -25.2603, 42.3082, -146.789, -78.138, 42.4687
8.0239, 36, -27.2973, -25.3391, 42.37, -146.736, -78.085, 42.4639
8.03197, 36, -27.2839, -25.4179, 42.4318, -146.681, -78.0328, 42.4597
8.04, 36, -27.2703, -25.4965, 42.4933, -146.628, -77.9803, 42.4563
8.04784, 37, -27.2566, -25.5749, 42.5548, -146.574, -77.9278, 42.4538
8.05607, 37, -27.2428, -25.6532, 42.6162, -146.521, -77.8758, 42.452
8.064, 37, -27.229, -25.7314, 42.6775, -146.468, -77.8232, 42.451
8.07147, 37, -27.2151, -25.8095, 42.7386, -146.414, -77.7711, 42.4504
8.08008, 37, -27.2012, -25.8874, 42.7996, -146.361, -77.7194, 42.4502
8.08756, 37, -27.1942, -25.9651, 42.8605, -146.308, -77.6669, 42.4502
8.09591, 37, -27.1729, -26.0428, 42.9212, -146.254, -77.6152, 42.4503
8.104, 37, -27.1584, -26.1202, 42.9819, -146.201, -77.5635, 42.4506
8.11193, 37, -27.1438, -26.1974, 43.0422, -146.147, -77.5112, 42.4515
8.12107, 37, -27.129, -26.2744, 43.1025, -146.094, -77.4597, 42.4533
8.12814, 37, -27.1142, -26.3514, 43.1626, -146.041, -77.4082, 42.4573
8.13498, 37, -27.1068, -26.3898, 43.1925, -146.015, -77.382, 42.4598
8.14497, 37, -27.0842, -26.5048, 43.2824, -145.935, -77.305, 42.4693
8.1523, 38, -27.0691, -26.5813, 43.3421, -145.882, -77.2534, 42.4773
8.1589, 38, -27.0615, -26.6195, 43.3719, -145.855, -77.2273, 42.4816
8.16933, 38, -27.0385, -26.7339, 43.461, -145.776, -77.1508, 42.4963
8.17496, 38, -27.0308, -26.7719, 43.4906, -145.75, -77.1251, 42.5018
8.18447, 38, -27.0073, -26.8856, 43.5793, -145.669, -77.0477, 42.5196
8.19323, 38, -26.9913, -26.9612, 43.6383, -145.617, -76.997, 42.5328
8.1989, 38, -26.9834, -26.9989, 43.6676, -145.591, -76.9713, 42.5397
8.20848, 38, -26.9673, -27.0741, 43.7262, -145.512, -76.8945, 42.5623
8.21666, 38, -26.9511, -27.1491, 43.8138, -145.46, -76.844, 42.5787
8.22304, 38, -26.9348, -27.224, 43.8429, -145.433, -76.8184, 42.5874
8.23189, 38, -26.9182, -27.2987, 43.901, -145.38, -76.7673, 42.6057
8.24002, 38, -26.9016, -27.3732, 43.9589, -145.329, -76.7171, 42.6251
8.24792, 39, -26.8848, -27.4477, 44.0166, -145.276, -76.6661, 42.6458
8.25589, 39, -26.868, -27.5219, 44.0742, -145.224, -76.6151, 42.6674
8.26548, 39, -26.8421, -27.6329, 44.16, -145.146, -76.5399, 42.7011
8.27197, 39, -26.8333, -27.6698, 44.1886, -145.12, -76.5143, 42.7128
8.28002, 39, -26.8158, -27.7434, 44.2456, -145.068, -76.4638, 42.7368
8.28789, 39, -26.7982, -27.8168, 44.3024, -145.016, -76.4139, 42.762
8.29591, 39, -26.7805, -27.89, 44.359, -144.964, -76.363, 42.7885
8.3039, 39, -26.7625, -27.963, 44.4153, -144.913, -76.3126, 42.8164
8.31194, 39, -26.7445, -28.0357, 44.4714, -144.861, -76.2628, 42.8451
8.32011, 39, -26.7263, -28.1084, 44.5273, -144.809, -76.2119, 42.8744
8.32697, 39, -26.708, -28.1808, 44.583, -144.758, -76.1617, 42.9046
8.33595, 39, -26.6894, -28.2528, 44.6385, -144.707, -76.1119, 42.9359
8.3439, 39, -26.6704, -28.3247, 44.6938, -144.656, -76.0611, 42.9687
8.35188, 40, -26.6515, -28.3964, 44.7489, -144.605, -76.0114, 43.0029
8.36002, 40, -26.6324, -28.4678, 44.8038, -144.554, -75.9619, 43.0379
8.37092, 40, -26.6032, -28.5743, 44.8857, -144.478, -75.8869, 43.0917
8.37595, 40, -26.5934, -28.6097, 44.913, -144.453, -75.8622, 43.1101
8.38389, 40, -26.5738, -28.6803, 44.9672, -144.402, -75.8126, 43.1479
8.3919, 40, -26.554, -28.7506, 45.0212, -144.352, -75.7623, 43.1873
8.40001, 40, -26.5339, -28.8207, 45.0749, -144.303, -75.7132, 43.2274
8.40795, 40, -26.5135, -28.8906, 45.1284, -144.252, -75.6638, 43.2684
8.41604, 40, -26.493, -28.9603, 45.1815, -144.202, -75.6139, 43.3105
8.42355, 40, -26.4724, -29.0297, 45.2344, -144.153, -75.565, 43.3543
8.43188, 40, -26.4514, -29.0988, 45.2871, -144.102, -75.5157, 43.3991
8.44001, 40, -26.4302, -29.1676, 45.3396, -144.053, -75.466, 43.4445
8.44786, 41, -26.4088, -29.2362, 45.3918, -144.004, -75.4172, 43.491
8.4559, 41, -26.3874, -29.3046, 45.4438, -143.955, -75.3682, 43.5393
8.46398, 41, -26.3655, -29.3726, 45.4955, -143.906, -75.3187, 43.5885
8.47189, 41, -26.3434, -29.4404, 45.5469, -143.858, -75.2702, 43.6382
8.47994, 41, -26.3213, -29.5079, 45.5981, -143.809, -75.2214, 43.6894
8.48788, 41, -26.299, -29.5752, 45.649, -143.761, -75.1721, 43.7424
8.49589, 41, -26.2764, -29.6422, 45.6996, -143.713, -75.124, 43.7959
8.50396, 41, -26.2535, -29.7089, 45.7499, -143.665, -75.0756, 43.8506
8.51214, 41, -26.2305, -29.7754, 45.7998, -143.617, -75.0268, 43.9069
8.52329, 41, -26.2072, -29.8744, 45.8742, -143.546, -74.9548, 43.9935
8.52722, 41, -26.1836, -29.9072, 45.8989, -143.522, -74.9305, 44.0229
8.53537, 41, -26.1599, -29.9727, 45.9481, -143.476, -74.8817, 44.0831
8.54419, 41, -26.136, -30.0378, 45.997, -143.429, -74.834, 44.1446
8.5514, 42, -26.1118, -30.1025, 46.0456, -143.382, -74.786, 44.2065
8.5615, 42, -26.0874, -30.1671, 46.0941, -143.336, -74.7375, 44.2702
8.56851, 42, -26.0625, -30.2313, 46.142, -143.29, -74.69, 44.3353
8.57621, 42, -26.0375, -30.2952, 46.1897, -143.243, -74.642, 44.4009
8.58349, 42, -26.0249, -30.327, 46.2371, -143.198, -74.5935, 44.4687
8.5929, 42, -25.9868, -30.4221, 46.2843, -143.153, -74.546, 44.5372
8.59994, 42, -25.9611, -30.485, 46.331, -143.107, -74.4983, 44.6067
8.60693, 42, -25.9482, -30.5164, 46.3542, -143.085, -74.4741, 44.6424
8.61713, 42, -25.9089, -30.6098, 46.4234, -143.019, -74.4027, 44.7503
8.62397, 42, -25.8821, -30.6717, 46.4691, -142.974, -74.3552, 44.8244
8.6321, 42, -25.8553, -30.7331, 46.5144, -142.93, -74.3071, 44.8996
8.63896, 42, -25.8418, -30.7637, 46.537, -142.908, -74.2834, 44.9374
8.6482, 43, -25.8008, -30.8549, 46.6043, -142.844, -74.213, 45.0543
8.65488, 43, -25.7871, -30.8853, 46.6265, -142.822, -74.1891, 45.0937
8.66546, 43, -25.7454, -30.9756, 46.6927, -142.758, -74.1184, 45.2142
8.67094, 43, -25.7313, -31.0055, 46.7146, -142.737, -74.0951, 45.2552
8.68041, 43, -25.6888, -31.0949, 46.7797, -142.673, -74.024, 45.3791
8.68925, 43, -25.6601, -31.154, 46.8226, -142.632, -73.9772, 45.4638
8.6949, 43, -25.6456, -31.1833, 46.8439, -142.612, -73.954, 45.5062
8.70448, 43, -25.6017, -31.2707, 46.9075, -142.55, -73.8834, 45.6366
8.71293, 43, -25.5719, -31.3285, 46.9494, -142.509, -73.8367, 45.7245
8.71886, 43, -25.557, -31.3572, 46.9703, -142.489, -73.8136, 45.7693
8.7279, 43, -25.5271, -31.4142, 47.0115, -142.449, -73.7669, 45.8593
8.73593, 43, -25.4968, -31.4709, 47.0524, -142.409, -73.7198, 45.9509
8.74394, 43, -25.4661, -31.5271, 47.0929, -142.37, -73.6737, 46.0437
8.75187, 44, -25.4349, -31.5829, 47.1329, -142.331, -73.6276, 46.138
8.75988, 44, -25.4033, -31.6385, 47.1725, -142.293, -73.5808, 46.2337
8.76787, 44, -25.3716, -31.6936, 47.2118, -142.255, -73.5348, 46.331
8.77588, 44, -25.3396, -31.7485, 47.2506, -142.217, -73.4889, 46.4294
8.78426, 44, -25.3074, -31.8028, 47.289, -142.18, -73.4423, 46.5294
8.79188, 44, -25.2747, -31.8568, 47.3269, -142.144, -73.3965, 46.6305
8.79989, 44, -25.2417, -31.9102, 47.3644, -142.107, -73.3511, 46.7335
8.80977, 44, -25.1916, -31.9893, 47.42, -142.053, -73.282, 46.8898
8.81509, 44, -25.1748, -32.0155, 47.4383, -142.036, -73.2593, 46.9427
8.82295, 44, -25.1408, -32.0672, 47.4745, -142.001, -73.2143, 47.0496
8.83199, 44, -25.1064, -32.1185, 47.5103, -141.966, -73.1686, 47.158
8.83987, 44, -25.0717, -32.1694, 47.5457, -141.932, -73.123, 47.268
8.84694, 45, -25.0367, -32.2197, 47.5805, -141.899, -73.0783, 47.3793
8.85863, 45, -24.9834, -32.2945, 47.632, -141.85, -73.0105, 47.5489
8.86393, 45, -24.9654, -32.3191, 47.6489, -141.834, -72.988, 47.6061
8.87187, 45, -24.9291, -32.3681, 47.6821, -141.801, -72.9436, 47.7217
8.87986, 45, -24.8926, -32.4168, 47.715, -141.77, -72.8991, 47.839
8.88787, 45, -24.8558, -32.4648, 47.7475, -141.74, -72.8538, 47.9571
8.8959, 45, -24.8186, -32.5124, 47.7794, -141.71, -72.8096, 48.0768
8.90394, 45, -24.7808, -32.5594, 47.8106, -141.679, -72.7657, 48.198
8.912, 45, -24.7429, -32.6058, 47.8416, -141.65, -72.7211, 48.3204
8.91987, 45, -24.7045, -32.6516, 47.8721, -141.621, -72.677, 48.4448
8.92793, 45, -24.6657, -32.6966, 47.902, -141.593, -72.6334, 48.5706
8.93588, 45, -24.6265, -32.7411, 47.9313, -141.566, -72.5892, 48.6975
8.94408, 46, -24.5869, -32.785, 47.9603, -141.538, -72.5451, 48.8259
8.95193, 46, -24.5468, -32.8283, 47.9887, -141.512, -72.5021, 48.9557
8.95993, 46, -24.5065, -32.871, 48.0164, -141.486, -72.4587, 49.0868
8.96792, 46, -24.4656, -32.9132, 48.0435, -141.461, -72.4149, 49.2194
8.97594, 46, -24.4244, -32.9548, 48.0702, -141.437, -72.3722, 49.3536
8.98393, 46, -24.3829, -32.996, 48.0964, -141.414, -72.3294, 49.4897
8.99187, 46, -24.341, -33.0364, 48.1218, -141.39, -72.286, 49.627
8.99986, 46, -24.2985, -33.0762, 48.1467, -141.367, -72.2432, 49.7658
9.00809, 46, -24.2558, -33.1155, 48.171, -141.346, -72.2012, 49.9059
9.01715, 46, -24.2127, -33.154, 48.1949, -141.325, -72.1588, 50.0475
9.02386, 46, -24.1689, -33.1918, 48.218, -141.305, -72.1162, 50.1902
9.03193, 46, -24.1249, -33.229, 48.2405, -141.285, -72.0746, 50.3343
9.04007, 46, -24.0805, -33.2655, 48.2626, -141.266, -72.033, 50.4798
9.04743, 47, -24.0355, -33.3012, 48.2839, -141.247, -71.9907, 50.627
9.05597, 47, -23.99, -33.3363, 48.3048, -141.229, -71.9493, 50.7757
9.06435, 47, -23.9441, -33.3708, 48.3248, -141.212, -71.9087, 50.9256
9.07149, 47, -23.8979, -33.4044, 48.3441, -141.196, -71.8675, 51.0771
9.07997, 47, -23.8511, -33.4373, 48.3628, -141.181, -71.8262, 51.2297
9.08829, 47, -23.8275, -33.4535, 48.372, -141.167, -71.786, 51.3838
9.0954, 47, -23.7801, -33.4855, 48.3897, -141.16, -71.766, 51.4615
9.10455, 47, -23.7083, -33.5319, 48.4154, -141.141, -71.7052, 51.6966
9.11284, 47, -23.6598, -33.562, 48.4317, -141.129, -71.6652, 51.8553
9.11993, 47, -23.6109, -33.5912, 48.4472, -141.118, -71.626, 52.0153
9.12689, 47, -23.5863, -33.6056, 48.4546, -141.112, -71.6065, 52.0958
9.13608, 47, -23.5115, -33.6475, 48.4761, -141.097, -71.5473, 52.3395
9.14311, 48, -23.4864, -33.661, 48.4829, -141.092, -71.5279, 52.4213
9.15409, 48, -23.4104, -33.7005, 48.5019, -141.079, -71.4705, 52.669
9.16026, 48, -23.359, -33.7258, 48.5138, -141.072, -71.4322, 52.8359
9.16834, 48, -23.3073, -33.7504, 48.525, -141.065, -71.3936, 53.0045
9.17633, 48, -23.2552, -33.774, 48.5356, -141.06, -71.3562, 53.1742
9.18287, 48, -23.229, -33.7855, 48.5407, -141.057, -71.3378, 53.2596
9.19246, 48, -23.1495, -33.8188, 48.5544, -141.051, -71.2822, 53.518
9.20048, 48, -23.0959, -33.8398, 48.5627, -141.048, -71.2451, 53.6918
9.20869, 48, -23.0417, -33.8603, 48.5703, -141.047, -71.2088, 53.8674
9.21724, 48, -23.0145, -33.8701, 48.5738, -141.046, -71.173, 54.0442
9.22286, 48, -22.9597, -33.8889, 48.5802, -141.045, -71.155, 54.1332
9.23295, 48, -22.8765, -33.9156, 48.5885, -141.045, -71.1009, 54.4021
9.23987, 48, -22.8485, -33.9241, 48.5908, -141.045, -71.0833, 54.4924
9.24686, 49, -22.7924, -33.9402, 48.5949, -141.046, -71.0488, 54.6739
9.25592, 49, -22.7356, -33.9553, 48.5981, -141.048, -71.0145, 54.8566
9.26386, 49, -22.6785, -33.9694, 48.6005, -141.051, -70.9799, 55.0407
9.27087, 49, -22.6208, -33.9829, 48.6021, -141.056, -70.9459, 55.2262
9.27986, 49, -22.5626, -33.9954, 48.6029, -141.061, -70.9127, 55.4129
9.28785, 49, -22.504, -34.0066, 48.6032, -141.068, -70.88, 55.601
9.29488, 49, -22.4449, -34.0167, 48.6031, -141.075, -70.8472, 55.7901
9.30404, 49, -22.3852, -34.0261, 48.6024, -141.084, -70.8145, 55.9808
9.31177, 49, -22.3251, -34.0345, 48.6009, -141.094, -70.7829, 56.173
9.31897, 49, -22.2645, -34.0419, 48.5986, -141.106, -70.7521, 56.3664
9.32686, 49, -22.2035, -34.0485, 48.5955, -141.118, -70.7216, 56.5609
9.33586, 49, -22.1419, -34.054, 48.5914, -141.132, -70.6911, 56.7568
9.34309, 50, -22.0799, -34.0582, 48.5862, -141.146, -70.661, 56.9537
9.35187, 50, -22.0175, -34.0613, 48.5801, -141.161, -70.6319, 57.1521
9.35987, 50, -21.9545, -34.0634, 48.5731, -141.177, -70.6035, 57.3519
9.36994, 50, -21.8592, -34.0647, 48.5607, -141.203, -70.5614, 57.6539
9.37632, 50, -21.8272, -34.0648, 48.5561, -141.212, -70.5474, 57.7552
9.38386, 50, -21.7627, -34.0644, 48.5464, -141.232, -70.5197, 57.9585
9.39185, 50, -21.6976, -34.063, 48.5357, -141.253, -70.493, 58.1631
9.40095, 50, -21.6319, -34.0605, 48.524, -141.275, -70.4672, 58.3693
9.40866, 50, -21.566, -34.0569, 48.5112, -141.297, -70.4422, 58.5766
9.41511, 50, -21.4996, -34.0522, 48.4975, -141.32, -70.4173, 58.785
9.4229, 50, -21.4329, -34.0461, 48.4829, -141.345, -70.3925, 58.9944
9.43185, 50, -21.3657, -34.0387, 48.4672, -141.37, -70.3685, 59.2049
9.43986, 50, -21.298, -34.0301, 48.4505, -141.398, -70.3455, 59.4165
9.45032, 51, -21.2298, -34.0202, 48.4328, -141.426, -70.3124, 59.7362
9.45586, 51, -21.161, -34.0091, 48.4143, -141.455, -70.3017, 59.8434
9.46392, 51, -21.0917, -33.9969, 48.3947, -141.484, -70.2806, 60.0585
9.47187, 51, -21.022, -33.9832, 48.3741, -141.516, -70.2599, 60.2746
9.47997, 51, -20.9517, -33.968, 48.3525, -141.548, -70.2395, 60.4921
9.48786, 51, -20.881, -33.9515, 48.33, -141.582, -70.22, 60.7109
9.49586, 51, -20.81, -33.934, 48.3065, -141.616, -70.2014, 60.9304
9.50403, 51, -20.7385, -33.9151, 48.2819, -141.651, -70.184, 61.1511
9.51581, 51, -20.6303, -33.8842, 48.2433, -141.706, -70.1593, 61.4839
9.51992, 51, -20.5941, -33.8734, 48.2299, -141.725, -70.1516, 61.5953
9.52785, 51, -20.5212, -33.8505, 48.2025, -141.764, -70.1364, 61.8192
9.53586, 51, -20.448, -33.8262, 48.1737, -141.803, -70.1218, 62.0441
9.54395, 52, -20.3742, -33.8007, 48.144, -141.844, -70.1077, 62.27
9.55198, 52, -20.3001, -33.7736, 48.1134, -141.886, -70.0943, 62.4967
9.55994, 52, -20.2254, -33.7455, 48.0817, -141.929, -70.0817, 62.7246
9.56796, 52, -20.1503, -33.7156, 48.049, -141.973, -70.0703, 62.9538
9.57594, 52, -20.0749, -33.6843, 48.0152, -142.018, -70.0598, 63.1836
9.58396, 52, -19.999, -33.6516, 47.9805, -142.064, -70.0503, 63.4144
9.59202, 52, -19.9226, -33.6176, 47.9446, -142.111, -70.0417, 63.6458
9.60014, 52, -19.8459, -33.582, 47.9078, -142.159, -70.0341, 63.8784
9.60838, 52, -19.7687, -33.5451, 47.8699, -142.208, -70.0274, 64.1118
9.61485, 52, -19.73, -33.5261, 47.8505, -142.233, -70.0244, 64.2288
9.6229, 52, -19.6524, -33.4872, 47.8109, -142.284, -70.0191, 64.4636
9.63223, 52, -19.5353, -33.4261, 47.7497, -142.362, -70.013, 64.817
9.63885, 52, -19.4961, -33.405, 47.7287, -142.389, -70.0114, 64.9353
9.64844, 53, -19.3778, -33.3394, 47.6642, -142.47, -70.0081, 65.2917
9.65619, 53, -19.2983, -33.2939, 47.6199, -142.525, -70.007, 65.5303
9.6629, 53, -19.2584, -33.2706, 47.5974, -142.554, -70.0067, 65.6498
9.67086, 53, -19.1785, -33.2227, 47.5515, -142.61, -70.0067, 65.8891
9.68048, 53, -19.0578, -33.1483, 47.4805, -142.698, -70.0078, 66.2501
9.68918, 53, -18.977, -33.0967, 47.4319, -142.757, -70.0098, 66.4917
9.69492, 53, -18.9365, -33.0704, 47.4072, -142.787, -70.0111, 66.6127
9.70577, 53, -18.8143, -32.9892, 47.3314, -142.879, -70.017, 66.9768
9.71327, 53, -18.7735, -32.9613, 47.2795, -142.941, -70.0224, 67.2207
9.71891, 53, -18.6914, -32.9045, 47.2531, -142.972, -70.0256, 67.3429
9.72889, 53, -18.5678, -32.8163, 47.1723, -143.068, -70.037, 67.7104
9.73587, 53, -18.5264, -32.7862, 47.1449, -143.101, -70.0414, 67.8331
9.74288, 54, -18.4433, -32.7247, 47.0891, -143.166, -70.0513, 68.0788
9.75194, 54, -18.3599, -32.6616, 47.0322, -143.232, -70.0625, 68.3254
9.75984, 54, -18.2762, -32.597, 46.9744, -143.3, -70.0751, 68.5724
9.76789, 54, -18.1923, -32.5309, 46.9154, -143.368, -70.0892, 68.8202
9.77748, 54, -18.066, -32.4288, 46.8249, -143.472, -70.1132, 69.1925
9.78384, 54, -18.0237, -32.394, 46.7942, -143.507, -70.1218, 69.317
9.79084, 54, -17.939, -32.3231, 46.732, -143.578, -70.1398, 69.5668
9.79984, 54, -17.8538, -32.2507, 46.6685, -143.65, -70.1587, 69.8167
9.80785, 54, -17.7685, -32.1766, 46.6041, -143.722, -70.1787, 70.067
9.81597, 54, -17.6829, -32.1009, 46.5385, -143.795, -70.2, 70.3178
9.82383, 54, -17.5972, -32.0237, 46.4718, -143.87, -70.2228, 70.5692
9.83189, 54, -17.5113, -31.9446, 46.4042, -143.944, -70.2474, 70.8211
9.83985, 54, -17.4252, -31.8641, 46.3354, -144.02, -70.2733, 71.0733
9.84799, 55, -17.3389, -31.782, 46.2657, -144.097, -70.3002, 71.3258
9.85566, 55, -17.2523, -31.6982, 46.1949, -144.174, -70.3282, 71.5791
9.86384, 55, -17.1655, -31.6129, 46.123, -144.252, -70.3576, 71.8328
9.87191, 55, -17.0784, -31.5259, 46.05, -144.33, -70.389, 72.0868
9.87983, 55, -16.991, -31.4374, 45.9758, -144.41, -70.4217, 72.341
9.88784, 55, -16.9035, -31.3472, 45.9005, -144.49, -70.4552, 72.595
9.89584, 55, -16.8159, -31.2555, 45.824, -144.571, -70.4898, 72.8498
9.90387, 55, -16.7282, -31.1621, 45.7465, -144.652, -70.5264, 73.1048
9.91191, 55, -16.6405, -31.0672, 45.6681, -144.734, -70.5647, 73.3599
9.91984, 55, -16.5527, -30.9707, 45.5887, -144.816, -70.6038, 73.6151
9.92783, 55, -16.4646, -30.8725, 45.5082, -144.899, -70.6442, 73.8707
9.9359, 55, -16.3765, -30.7726, 45.4267, -144.983, -70.6866, 74.1265
9.94397, 56, -16.2881, -30.671, 45.3441, -145.067, -70.7302, 74.3823
9.95298, 56, -16.1996, -30.5678, 45.2603, -145.152, -70.7745, 74.6382
9.95895, 56, -16.111, -30.463, 45.1754, -145.237, -70.8211, 74.8942
9.96836, 56, -16.0222, -30.3565, 45.0897, -145.323, -70.8694, 75.1507
9.97485, 56, -15.9335, -30.2486, 45.003, -145.409, -70.9183, 75.407
9.9839, 56, -15.8449, -30.1392, 44.9154, -145.496, -70.9696, 75.6634
9.9926, 56, -15.7563, -30.028, 44.8267, -145.583, -71.0221, 75.9199
9.99983, 56, -15.6676, -29.9151, 44.737, -145.67, -71.0755, 76.1766
10.0078, 56, -15.5787, -29.8007, 44.6462, -145.758, -71.1314, 76.4333
10.016, 56, -15.4897, -29.6847, 44.5544, -145.846, -71.1882, 76.6897
10.0238, 56, -15.4005, -29.5671, 44.4614, -145.935, -71.2465, 76.946
10.0318, 56, -15.3114, -29.4482, 44.3677, -146.024, -71.3067, 77.2021
10.0421, 57, -15.2223, -29.3275, 44.2732, -146.113, -71.3675, 77.4582
10.0477, 57, -15.1332, -29.2052, 44.1777, -146.202, -71.4311, 77.7143
10.056, 57, -15.0443, -29.0812, 44.0812, -146.292, -71.4951, 77.97
10.0639, 57, -14.9554, -28.9558, 43.9837, -146.382, -71.5614, 78.2256
10.0714, 57, -14.8665, -28.8288, 43.8851, -146.472, -71.6284, 78.4814
10.0799, 57, -14.7775, -28.7004, 43.7855, -146.562, -71.6975, 78.7366
10.0879, 57, -14.6885, -28.5703, 43.6852, -146.652, -71.7681, 78.9917
10.096, 57, -14.5996, -28.4386, 43.5842, -146.743, -71.8404, 79.2465
10.1038, 57, -14.5108, -28.3054, 43.4823, -146.834, -71.914, 79.5012
10.1126, 57, -14.4222, -28.1707, 43.3794, -146.924, -71.9893, 79.7558
10.1199, 57, -14.3336, -28.0349, 43.2755, -147.015, -72.0661, 80.0099
10.1279, 57, -14.2452, -27.8975, 43.1705, -147.106, -72.1447, 80.2635
10.1367, 57, -14.1567, -27.7585, 43.0647, -147.197, -72.2242, 80.5171
10.1444, 58, -14.0683, -27.618, 42.9584, -147.288, -72.3057, 80.7704
10.1526, 58, -13.98, -27.4761, 42.8513, -147.379, -72.3884, 81.023
10.1588, 58, -13.9359, -27.4047, 42.7975, -147.425, -72.4304, 81.1492
10.1683, 58, -13.8039, -27.1885, 42.6347, -147.561, -72.5584, 81.5266
10.1748, 58, -13.76, -27.1155, 42.5799, -147.606, -72.602, 81.6524
10.1851, 58, -13.6287, -26.8942, 42.4143, -147.743, -72.7349, 82.0289
10.1909, 58, -13.5851, -26.8197, 42.3587, -147.788, -72.7798, 82.1541
10.2004, 58, -13.4544, -26.5945, 42.1913, -147.924, -72.9174, 82.5287
10.2084, 58, -13.3673, -26.4428, 42.0788, -148.014, -73.0111, 82.778
10.2165, 58, -13.2805, -26.2895, 41.9655, -148.104, -73.1059, 83.0266
10.2244, 58, -13.237, -26.2123, 41.9085, -148.15, -73.2025, 83.2746
10.2318, 58, -13.1502, -26.0569, 41.7938, -148.239, -73.2513, 83.3983
10.2407, 58, -13.0638, -25.9005, 41.6784, -148.329, -73.3497, 83.7682
10.247, 59, -12.9776, -25.7432, 41.5627, -148.418, -73.4497, 83.8914
10.2558, 59, -12.8917, -25.5844, 41.4464, -148.507, -73.5511, 84.1371
10.2649, 59, -12.7634, -25.3434, 41.2708, -148.64, -73.7058, 84.5043
10.2718, 59, -12.7208, -25.2625, 41.2118, -148.684, -73.7583, 84.6262
10.2798, 59, -12.6356, -25.1001, 41.0933, -148.773, -73.8639, 84.8699
10.2892, 59, -12.5081, -24.8542, 40.9145, -148.904, -74.0251, 85.2343
10.2949, 59, -12.4658, -24.7714, 40.8547, -148.948, -74.0797, 85.3554
10.3039, 59, -12.3812, -24.6049, 40.7348, -149.035, -74.1897, 85.5967
10.3119, 59, -12.2969, -24.4375, 40.6143, -149.122, -74.301, 85.8369
10.3199, 59, -12.2129, -24.2694, 40.493, -149.208, -74.4139, 86.0765
10.3279, 59, -12.1292, -24.1, 40.3711, -149.293, -74.5278, 86.3152
10.3387, 59, -12.0044, -23.8431, 40.1876, -149.421, -74.7015, 86.6713
10.344, 60, -11.963, -23.757, 40.1264, -149.463, -74.7599, 86.7894
10.3518, 60, -11.8803, -23.5844, 40.0036, -149.547, -74.8778, 87.0251
10.3608, 60, -11.7977, -23.411, 39.8802, -149.631, -74.9972, 87.2601
10.3678, 60, -11.7155, -23.236, 39.7563, -149.714, -75.1173, 87.494
10.3768, 60, -11.6336, -23.0599, 39.6319, -149.796, -75.239, 87.7268
10.3839, 60, -11.5521, -22.8834, 39.5071, -149.878, -75.3619, 87.9584
10.3918, 60, -11.471, -22.7066, 39.382, -149.959, -75.4859, 88.1892
10.3998, 60, -11.3902, -22.5285, 39.2566, -150.04, -75.6115, 88.419
10.4079, 60, -11.3098, -22.349, 39.1307, -150.12, -75.7378, 88.6479
10.4158, 60, -11.2299, -22.1688, 39.0046, -150.2, -75.8655, 88.8754
10.4238, 60, -11.1502, -21.9881, 38.878, -150.278, -75.9939, 89.1017
10.4319, 60, -11.0708, -21.8063, 38.7513, -150.357, -76.1237, 89.3271
10.44, 61, -10.9918, -21.623, 38.6244, -150.434, -76.2545, 89.5514
10.4476, 61, -10.9132, -21.4391, 38.4972, -150.511, -76.3864, 89.7745
10.4558, 61, -10.8348, -21.2551, 38.3699, -150.587, -76.5192, 89.9962
10.4638, 61, -10.7569, -21.0704, 38.2425, -150.662, -76.653, 90.2163
10.4719, 61, -10.6795, -20.8844, 38.1148, -150.736, -76.7881, 90.4353
10.4799, 61, -10.6026, -20.6978, 37.987, -150.81, -76.9241, 90.6534
10.4879, 61, -10.5261, -20.5112, 37.8589, -150.883, -77.0614, 90.87
10.4959, 61, -10.45, -20.3239, 37.7306, -150.955, -77.1995, 91.0854
10.5038, 61, -10.374, -20.1353, 37.6023, -151.026, -77.3385, 91.2992
10.5119, 61, -10.2986, -19.9462, 37.4738, -151.097, -77.4785, 91.5116
10.5198, 61, -10.2237, -19.7573, 37.3453, -151.167, -77.6193, 91.7228
10.5278, 61, -10.1491, -19.5678, 37.2167, -151.236, -77.7608, 91.9325
10.538, 62, -10.0751, -19.3772, 37.0883, -151.304, -77.9032, 92.1407
10.5436, 62, -10.0014, -19.1861, 36.9599, -151.371, -78.0462, 92.3474
10.5519, 62, -9.92816, -18.995, 36.8316, -151.438, -78.1901, 92.5523
10.5602, 62, -9.85542, -18.8032, 36.7032, -151.503, -78.3345, 92.7558
10.5674, 62, -9.78315, -18.6107, 36.5749, -151.567, -78.48, 92.9582
10.5759, 62, -9.71128, -18.4181, 36.4464, -151.632, -78.6255, 93.1589
10.5843, 62, -9.63978, -18.226, 36.3182, -151.694, -78.772, 93.3581
10.5917, 62, -9.56855, -18.0334, 36.19, -151.756, -78.9191, 93.5556
10.5996, 62, -9.53312, -17.9368, 36.1259, -151.787, -79.067, 93.7516
10.6084, 62, -9.42741, -17.6467, 35.934, -151.877, -79.2155, 93.9464
10.6159, 62, -9.35754, -17.4533, 35.8062, -151.937, -79.3645, 94.1394
10.6238, 62, -9.2882, -17.259, 35.6786, -151.995, -79.514, 94.3306
10.6328, 62, -9.21938, -17.0639, 35.5514, -152.053, -79.6642, 94.5199
10.64, 63, -9.151, -16.8692, 35.4243, -152.109, -79.8149, 94.7074
10.6468, 63, -9.11693, -16.7719, 35.3609, -152.137, -79.8905, 94.8005
10.6571, 63, -9.01546, -16.4795, 35.1709, -152.219, -80.118, 95.0773
10.6642, 63, -8.94826, -16.2841, 35.0446, -152.273, -80.2703, 95.2597
10.6708, 63, -8.91486, -16.1867, 34.9815, -152.299, -80.3465, 95.3501
10.681, 63, -8.81552, -15.8946, 34.7928, -152.377, -80.5761, 95.6189
10.687, 63, -8.78265, -15.7971, 34.7301, -152.402, -80.6529, 95.7073
10.6969, 63, -8.68483, -15.5043, 34.5422, -152.478, -80.8835, 95.9703
10.7044, 63, -8.62005, -15.31, 34.4174, -152.526, -81.0377, 96.1435
10.7124, 63, -8.55572, -15.1156, 34.293, -152.574, -81.192, 96.3148
10.7206, 63, -8.4917, -14.9206, 34.169, -152.621, -81.3465, 96.4841
10.7283, 63, -8.45987, -14.8231, 34.1072, -152.644, -81.424, 96.5681
10.7358, 63, -8.39669, -14.6284, 33.9839, -152.689, -81.5789, 96.7343
10.7439, 64, -8.33393, -14.4339, 33.861, -152.734, -81.7341, 96.8982
10.7518, 64, -8.27168, -14.2387, 33.7384, -152.777, -81.8893, 97.0602
10.7608, 64, -8.17927, -13.9466, 33.5555, -152.84, -82.1222, 97.2996
10.7678, 64, -8.14865, -13.8498, 33.4947, -152.861, -82.2, 97.3785
10.7758, 64, -8.08787, -13.6564, 33.3737, -152.901, -82.3557, 97.5346
10.7855, 64, -7.9974, -13.3664, 33.1929, -152.96, -82.5895, 97.7647
10.7933, 64, -7.96748, -13.1738, 33.0729, -152.998, -82.7455, 97.9155
10.7998, 64, -7.90801, -13.0777, 33.0131, -153.017, -82.8235, 97.99
10.8078, 64, -7.84891, -12.8854, 32.8939, -153.054, -82.9795, 98.1377
10.8148, 64, -7.79033, -12.693, 32.7754, -153.089, -83.1356, 98.2832
10.8238, 64, -7.73221, -12.5008, 32.6574, -153.124, -83.2918, 98.4267
10.8319, 64, -7.67454, -12.3097, 32.5399, -153.157, -83.4479, 98.5679
10.8388, 65, -7.61731, -12.1186, 32.4229, -153.19, -83.6041, 98.7068
10.8478, 65, -7.56046, -11.9273, 32.3065, -153.222, -83.7604, 98.8433
10.8604, 65, -7.47627, -11.6418, 32.1333, -153.267, -83.9944, 99.0437
10.8628, 65, -7.44843, -11.547, 32.076, -153.281, -84.0724, 99.1092
10.8719, 65, -7.39299, -11.3573, 31.9617, -153.31, -84.2283, 99.2387
10.8799, 65, -7.33802, -11.1677, 31.8478, -153.338, -84.384, 99.3656
10.889, 65, -7.28354, -10.979, 31.7344, -153.365, -84.5398, 99.4905
10.8949, 65, -7.2295, -10.7914, 31.6217, -153.39, -84.6953, 99.6128
10.9038, 65, -7.17592, -10.604, 31.5099, -153.415, -84.8507, 99.7329
10.9118, 65, -7.12278, -10.4167, 31.3988, -153.438, -85.0059, 99.8507
10.9199, 65, -7.06999, -10.2303, 31.2884, -153.462, -85.161, 99.9656
10.9278, 65, -7.01761, -10.0447, 31.1784, -153.484, -85.3157, 100.078
10.9359, 65, -6.9657, -9.85918, 31.069, -153.505, -85.4704, 100.188
10.9439, 66, -6.91404, -9.67384, 30.9604, -153.525, -85.6246, 100.295
10.9518, 66, -6.86291, -9.48979, 30.8526, -153.544, -85.7789, 100.4
10.9599, 66, -6.81234, -9.30701, 30.7458, -153.562, -85.9327, 100.501
10.9678, 66, -6.76203, -9.12447, 30.6395, -153.578, -86.0864, 100.601
10.9758, 66, -6.71225, -8.94216, 30.5337, -153.595, -86.2397, 100.698
10.9845, 66, -6.66292, -8.76101, 30.4285, -153.61, -86.3927, 100.792
10.9957, 66, -6.58947, -8.49075, 30.2723, -153.632, -86.6216, 100.928
10.9998, 66, -6.56519, -8.4007, 30.2207, -153.639, -86.6978, 100.973
11.0079, 66, -6.51706, -8.22092, 30.1182, -153.652, -86.8499, 101.058
11.0158, 66, -6.46925, -8.04228, 30.0163, -153.664, -87.0019, 101.142
11.0238, 66, -6.42175, -7.86478, 29.9149, -153.675, -87.1534, 101.222
11.0319, 66, -6.37477, -7.68753, 29.8141, -153.684, -87.3046, 101.3
11.0398, 67, -6.32828, -7.51061, 29.7141, -153.693, -87.4556, 101.374
11.0479, 67, -6.28208, -7.33488, 29.6152, -153.701, -87.6063, 101.446
11.0578, 67, -6.23618, -7.16052, 29.5171, -153.708, -87.7567, 101.515
11.0634, 67, -6.19073, -6.98659, 29.4199, -153.714, -87.9067, 101.581
11.0719, 67, -6.14558, -6.81287, 29.3232, -153.719, -88.0564, 101.643
11.0799, 67, -6.10079, -6.64021, 29.2269, -153.724, -88.2054, 101.704
11.088, 67, -6.05651, -6.46901, 29.1313, -153.727, -88.3543, 101.761
11.0959, 67, -6.0126, -6.29845, 29.0368, -153.73, -88.5027, 101.815
11.1039, 67, -5.96906, -6.12809, 28.9433, -153.733, -88.6508, 101.867
11.1121, 67, -5.92593, -5.95851, 28.8507, -153.734, -88.7984, 101.916
11.1199, 67, -5.88315, -5.79019, 28.7587, -153.735, -88.9456, 101.961
11.1278, 67, -5.84068, -5.62252, 28.6673, -153.735, -89.092, 102.002
11.136, 67, -5.79848, -5.45511, 28.5765, -153.735, -89.2383, 102.041
11.1428, 68, -5.77754, -5.37163, 28.5314, -153.735, -89.3113, 102.06
11.152, 68, -5.71519, -5.12306, 28.3974, -153.733, -89.5293, 102.111
11.1588, 68, -5.69456, -5.04091, 28.3533, -153.731, -89.6019, 102.126
11.1681, 68, -5.63306, -4.79561, 28.2221, -153.726, -89.8187, 102.166
11.1748, 68, -5.61281, -4.71407, 28.1786, -153.724, -89.8909, 102.177
11.1843, 68, -5.55255, -4.47112, 28.0493, -153.716, -90.1067, 102.208
11.1923, 68, -5.51263, -4.31071, 27.9639, -153.71, -90.2502, 102.225
11.2003, 68, -5.47304, -4.1511, 27.8794, -153.703, -90.3933, 102.238
11.2092, 68, -5.43394, -3.99199, 27.7957, -153.695, -90.536, 102.249
11.2149, 68, -5.41453, -3.91266, 27.7542, -153.691, -90.6072, 102.253
11.2244, 68, -5.37583, -3.67624, 27.6308, -153.677, -90.8204, 102.259
11.2332, 68, -5.33739, -3.59804, 27.5901, -153.672, -90.8912, 102.26
11.2389, 69, -5.29929, -3.44222, 27.5092, -153.661, -91.0327, 102.261
11.2489, 69, -5.24279, -3.20957, 27.3892, -153.643, -91.2441, 102.258
11.2559, 69, -5.22404, -3.13247, 27.3496, -153.637, -91.3144, 102.254
11.2653, 69, -5.18671, -2.97912, 27.2318, -153.616, -91.5245, 102.237
11.2708, 69, -5.14978, -2.82695, 27.1929, -153.609, -91.5944, 102.23
11.2802, 69, -5.11309, -2.67561, 27.1156, -153.594, -91.7335, 102.212
11.2879, 69, -5.07666, -2.52501, 27.0391, -153.578, -91.8723, 102.191
11.2958, 69, -5.04039, -2.37533, 26.9634, -153.562, -92.0106, 102.166
11.3052, 69, -4.98665, -2.1529, 26.8513, -153.538, -92.2174, 102.122
11.3109, 69, -4.96888, -2.0793, 26.8143, -153.529, -92.2859, 102.105
11.3198, 69, -4.93351, -1.93273, 26.7409, -153.512, -92.423, 102.068
11.3306, 69, -4.88058, -1.71411, 26.6319, -153.484, -92.6273, 102.006
11.336, 70, -4.86308, -1.64169, 26.596, -153.474, -92.6954, 101.984
11.3438, 70, -4.82837, -1.49756, 26.5246, -153.454, -92.8312, 101.937
11.3518, 70, -4.7939, -1.35452, 26.4541, -153.434, -92.9664, 101.885
11.3599, 70, -4.75965, -1.21243, 26.3843, -153.413, -93.1014, 101.83
11.3688, 70, -4.72551, -1.071, 26.3153, -153.392, -93.2358, 101.771
11.3758, 70, -4.69164, -0.930555, 26.2469, -153.37, -93.37, 101.708
11.3839, 70, -4.65809, -0.791153, 26.1793, -153.348, -93.5035, 101.642
11.3918, 70, -4.62476, -0.652946, 26.1123, -153.324, -93.637, 101.572
11.3998, 70, -4.59157, -0.515835, 26.046, -153.3, -93.77, 101.498
11.4078, 70, -4.5584, -0.379546, 25.9804, -153.277, -93.9026, 101.421
11.4158, 70, -4.52549, -0.244059, 25.9154, -153.253, -94.0348, 101.341
11.4238, 70, -4.49274, -0.109628, 25.851, -153.229, -94.1666, 101.256
11.432, 70, -4.46014, 0.0238044, 25.7875, -153.203, -94.298, 101.168
11.44, 71, -4.4276, 0.156125, 25.7247, -153.177, -94.4292, 101.076
11.4478, 71, -4.39518, 0.2876, 25.6626, -153.151, -94.5598, 100.981
11.4558, 71, -4.36298, 0.41831, 25.6012, -153.125, -94.69, 100.882
11.4638, 71, -4.33095, 0.548075, 25.5405, -153.098, -94.8198, 100.779
11.4718, 71, -4.29902, 0.676926, 25.4804, -153.071, -94.949, 100.673
11.4798, 71, -4.26707, 0.804603, 25.421, -153.043, -95.0781, 100.562
11.4879, 71, -4.23525, 0.931175, 25.3623, -153.015, -95.2064, 100.449
11.4958, 71, -4.20366, 1.05678, 25.3041, -152.987, -95.3346, 100.331
11.5038, 71, -4.17225, 1.18145, 25.2467, -152.959, -95.4623, 100.21
11.5119, 71, -4.14092, 1.30507, 25.1898, -152.93, -95.5895, 100.086
11.5198, 71, -4.10952, 1.42755, 25.1337, -152.901, -95.7163, 99.9582
11.5278, 71, -4.07817, 1.54898, 25.0782, -152.871, -95.8423, 99.8266
11.5358, 72, -4.04698, 1.66917, 25.0233, -152.842, -95.9682, 99.6913
11.5438, 72, -4.01575, 1.78845, 24.9693, -152.812, -96.0932, 99.5523
11.552, 72, -3.98471, 1.90678, 24.9158, -152.783, -96.218, 99.4096
11.5617, 72, -3.95362, 2.02414, 24.863, -152.752, -96.3422, 99.2634
11.5677, 72, -3.92244, 2.14047, 24.8108, -152.722, -96.4659, 99.1137
11.5759, 72, -3.89141, 2.25562, 24.7593, -152.692, -96.5894, 98.9605
11.5848, 72, -3.86038, 2.36959, 24.7083, -152.662, -96.7119, 98.8038
11.592, 72, -3.82931, 2.48243, 24.658, -152.631, -96.8342, 98.6436
11.5999, 72, -3.79819, 2.59428, 24.6083, -152.6, -96.9556, 98.4798
11.6084, 72, -3.76697, 2.70505, 24.5593, -152.569, -97.0767, 98.3124
