rpiRobotics/ARM-21-02-F-19-Robot-Motion-Program/data_performance_abb/curve_1/baseline/100L/realrobot/bisect/run_4realrobot_curve_exe_v150_z10.csv
timestamp, cmd_num, J1, J2, J3, J4, J5, J6
0.000457, -1, 11.3779, 13.614, 17.3393, -145.519, -97.9229, 142.516
0.004215, -1, 11.3779, 13.614, 17.3393, -145.519, -97.9229, 142.516
0.007986, -1, 11.378, 13.614, 17.3393, -145.519, -97.9229, 142.516
0.03437, -1, 11.3779, 13.614, 17.3393, -145.519, -97.9229, 142.517
0.036578, -1, 11.3779, 13.614, 17.3393, -145.519, -97.9229, 142.516
0.037804, -1, 11.3779, 13.614, 17.3393, -145.519, -97.9229, 142.516
0.039889, -1, 11.3779, 13.614, 17.3393, -145.519, -97.9229, 142.516
0.048521, -1, 11.3777, 13.614, 17.3393, -145.519, -97.9229, 142.517
0.056021, -1, 11.3763, 13.6139, 17.3393, -145.519, -97.9229, 142.516
0.064615, -1, 11.3746, 13.6137, 17.3392, -145.519, -97.9229, 142.516
0.071952, -1, 11.3681, 13.6128, 17.339, -145.519, -97.923, 142.516
0.079409, -1, 11.3569, 13.6109, 17.3385, -145.52, -97.9228, 142.514
0.087398, -1, 11.3394, 13.6072, 17.3376, -145.521, -97.9227, 142.504
0.095368, -1, 11.3126, 13.601, 17.3367, -145.525, -97.922, 142.482
0.103378, -1, 11.2743, 13.5917, 17.3361, -145.532, -97.9201, 142.441
0.111453, -1, 11.2243, 13.5791, 17.3362, -145.544, -97.9166, 142.375
0.119369, -1, 11.1627, 13.5636, 17.338, -145.561, -97.9111, 142.279
0.127382, -1, 11.0896, 13.5443, 17.342, -145.584, -97.9032, 142.148
0.136819, -1, 10.9575, 13.5083, 17.3524, -145.629, -97.8873, 141.888
0.143376, -1, 10.9078, 13.4947, 17.357, -145.647, -97.881, 141.785
0.151388, -1, 10.8003, 13.4649, 17.3675, -145.686, -97.8673, 141.56
0.160974, -1, 10.6187, 13.4145, 17.3844, -145.75, -97.845, 141.184
0.168985, -1, 10.4849, 13.3776, 17.3953, -145.795, -97.8294, 140.919
0.17714, -1, 10.3432, 13.3388, 17.4058, -145.842, -97.8135, 140.647
0.18348, -1, 10.2702, 13.3189, 17.4109, -145.866, -97.8053, 140.509
0.193201, -1, 10.1207, 13.2785, 17.426, -145.937, -97.7803, 140.094
0.199395, -1, 9.96836, 13.2375, 17.431, -145.961, -97.7717, 139.955
0.207427, -1, 9.8138, 13.1963, 17.441, -146.009, -97.7545, 139.676
0.215359, -1, 9.65831, 13.1549, 17.451, -146.057, -97.7373, 139.396
0.224372, -1, 9.50316, 13.1137, 17.4609, -146.104, -97.7203, 139.117
0.231437, -1, 9.34846, 13.0725, 17.4708, -146.153, -97.7036, 138.838
0.239445, -1, 9.19408, 13.0314, 17.4807, -146.201, -97.6869, 138.558
0.247679, -1, 9.04023, 12.9904, 17.4907, -146.249, -97.6702, 138.279
0.256479, -1, 8.88662, 12.9494, 17.5008, -146.297, -97.6533, 137.999
0.26336, -1, 8.7332, 12.9084, 17.5109, -146.345, -97.6362, 137.72
0.272249, -1, 8.58026, 12.8673, 17.5209, -146.392, -97.6188, 137.44
0.279359, -1, 8.42747, 12.8262, 17.5311, -146.441, -97.6012, 137.16
0.287368, -1, 8.27444, 12.7849, 17.5413, -146.488, -97.584, 136.88
0.295443, -1, 8.121, 12.7435, 17.5514, -146.536, -97.567, 136.6
0.30336, -1, 7.96705, 12.7019, 17.5616, -146.585, -97.5503, 136.32
0.311389, -1, 7.81251, 12.6604, 17.5716, -146.632, -97.5337, 136.04
0.320154, -1, 7.65764, 12.6187, 17.5817, -146.68, -97.517, 135.76
0.327368, -1, 7.5026, 12.5772, 17.592, -146.728, -97.5001, 135.48
0.335361, -1, 7.34743, 12.5357, 17.6021, -146.776, -97.483, 135.2
0.344177, -1, 7.19235, 12.4943, 17.6123, -146.824, -97.4656, 134.919
0.351422, -1, 7.0372, 12.4529, 17.6226, -146.873, -97.4484, 134.639
0.359363, -1, 6.882, 12.4117, 17.6328, -146.921, -97.4314, 134.359
0.368178, -1, 6.72708, 12.3705, 17.6432, -146.968, -97.4145, 134.079
0.375364, -1, 6.57247, 12.3293, 17.6535, -147.017, -97.3977, 133.799
0.383364, -1, 6.41809, 12.2881, 17.6639, -147.065, -97.381, 133.518
0.392204, -1, 6.26386, 12.2468, 17.6742, -147.113, -97.3641, 133.238
0.399431, -1, 6.10964, 12.2054, 17.6844, -147.161, -97.3469, 132.957
0.407477, -1, 5.95517, 12.164, 17.6946, -147.209, -97.3294, 132.676
0.416995, -1, 5.80049, 12.1225, 17.7049, -147.257, -97.3117, 132.396
0.424357, -1, 5.64569, 12.0809, 17.7151, -147.305, -97.2944, 132.115
0.431547, -1, 5.49064, 12.0393, 17.7253, -147.353, -97.2773, 131.835
0.439425, -1, 5.33538, 11.9977, 17.7355, -147.401, -97.2604, 131.554
0.447373, -1, 5.17983, 11.9561, 17.7458, -147.45, -97.2437, 131.273
0.455457, -1, 5.02399, 11.9145, 17.7562, -147.498, -97.2268, 130.992
0.463393, -1, 4.86808, 11.8729, 17.7666, -147.546, -97.2098, 130.711
0.471401, -1, 4.71229, 11.8314, 17.777, -147.594, -97.1926, 130.43
0.479608, -1, 4.55659, 11.79, 17.7873, -147.642, -97.1751, 130.149
0.487589, -1, 4.4009, 11.7486, 17.7976, -147.69, -97.1577, 129.869
0.495632, -1, 4.24543, 11.7072, 17.808, -147.739, -97.1406, 129.588
0.503772, -1, 4.09034, 11.6658, 17.8183, -147.787, -97.1237, 129.306
0.51172, -1, 3.9357, 11.6244, 17.8286, -147.835, -97.1067, 129.025
0.51982, -1, 3.78134, 11.583, 17.8389, -147.884, -97.09, 128.744
0.527994, -1, 3.62691, 11.5415, 17.8491, -147.932, -97.073, 128.463
0.53588, -1, 3.47235, 11.4999, 17.8594, -147.98, -97.0559, 128.181
0.543895, -1, 3.31763, 11.4583, 17.8699, -148.029, -97.0384, 127.9
0.552549, -1, 3.16256, 11.4167, 17.8803, -148.077, -97.0208, 127.619
0.559943, -1, 3.08495, 11.3749, 17.8907, -148.125, -97.0035, 127.337
0.568422, -1, 2.85181, 11.3332, 17.901, -148.173, -96.9865, 127.055
0.576144, -1, 2.77397, 11.3124, 17.9061, -148.198, -96.9697, 126.774
0.583347, -1, 2.61806, 11.2707, 17.9164, -148.245, -96.9613, 126.633
0.591382, -1, 2.46175, 11.2289, 17.9269, -148.294, -96.9446, 126.351
0.599395, -1, 2.3052, 11.1873, 17.9372, -148.342, -96.9278, 126.07
0.607353, -1, 2.14849, 11.1456, 17.9476, -148.39, -96.9107, 125.788
0.615358, -1, 1.99167, 11.1039, 17.958, -148.439, -96.8934, 125.506
0.623354, -1, 1.83515, 11.0623, 17.9684, -148.488, -96.8759, 125.225
0.762823, -1, -0.894197, 10.3319, 18.1502, -149.336, -96.5762, 120.281
0.764143, -1, -0.894197, 10.3319, 18.1502, -149.336, -96.5762, 120.281
0.76614, -1, -0.972879, 10.3111, 18.1554, -149.36, -96.5676, 120.14
0.767391, -1, -0.972879, 10.3111, 18.1554, -149.36, -96.5676, 120.14
0.768589, -1, -0.972879, 10.3111, 18.1554, -149.36, -96.5676, 120.14
0.770626, -1, -1.05151, 10.2902, 18.1605, -149.384, -96.5591, 119.999
0.771869, -1, -1.05151, 10.2902, 18.1605, -149.384, -96.5591, 119.999
0.774486, -1, -1.13008, 10.2693, 18.1657, -149.408, -96.5506, 119.857
0.913502, -1, -3.79036, 9.55768, 18.3425, -150.235, -96.2587, 115.036
0.915679, -1, -3.86935, 9.53671, 18.3476, -150.259, -96.2502, 114.894
0.916895, -1, -3.86935, 9.53671, 18.3476, -150.259, -96.2502, 114.894
0.918968, -1, -3.86935, 9.53671, 18.3476, -150.284, -96.2417, 114.752
0.920457, -1, -3.94833, 9.51571, 18.3528, -150.284, -96.2417, 114.752
0.921835, -1, -3.94833, 9.51571, 18.3528, -150.284, -96.2417, 114.752
0.925372, -1, -4.02729, 9.49473, 18.358, -150.308, -96.2332, 114.61
0.931091, -1, -4.18514, 9.45286, 18.3683, -150.357, -96.2163, 114.326
0.932464, -1, -4.18514, 9.45286, 18.3683, -150.357, -96.2163, 114.326
0.933731, -1, -4.18514, 9.45286, 18.3683, -150.357, -96.2163, 114.326
0.935691, -1, -4.26402, 9.43192, 18.3735, -150.381, -96.2077, 114.183
0.936977, -1, -4.26402, 9.43192, 18.3735, -150.381, -96.2077, 114.183
0.938167, -1, -4.26402, 9.43192, 18.3735, -150.381, -96.2077, 114.183
0.940356, -1, -4.34286, 9.41095, 18.3786, -150.406, -96.1992, 114.041
0.94157, -1, -4.34286, 9.41095, 18.3786, -150.406, -96.1992, 114.041
0.943772, -1, -4.42156, 9.38995, 18.3838, -150.43, -96.1906, 113.899
0.944999, -1, -4.42156, 9.38995, 18.3838, -150.43, -96.1906, 113.899
0.946287, -1, -4.42156, 9.38995, 18.3838, -150.43, -96.1906, 113.899
0.949749, -1, -4.50015, 9.36897, 18.389, -150.455, -96.1819, 113.756
0.95183, -1, -4.57869, 9.34799, 18.3941, -150.479, -96.1731, 113.614
0.953074, -1, -4.57869, 9.34799, 18.3941, -150.479, -96.1731, 113.614
0.954335, -1, -4.57869, 9.34799, 18.3941, -150.479, -96.1731, 113.614
0.958264, -1, -4.65714, 9.32698, 18.3993, -150.504, -96.1642, 113.472
0.960437, -1, -4.73546, 9.30599, 18.4044, -150.528, -96.1553, 113.33
0.961644, -1, -4.73546, 9.30599, 18.4044, -150.528, -96.1553, 113.33
0.963664, -1, -4.81368, 9.285, 18.4096, -150.552, -96.1464, 113.187
0.964924, -1, -4.81368, 9.285, 18.4096, -150.552, -96.1464, 113.187
0.966193, -1, -4.81368, 9.285, 18.4096, -150.552, -96.1464, 113.187
0.968332, -1, -4.89184, 9.26399, 18.4149, -150.577, -96.1377, 113.045
0.969637, -1, -4.89184, 9.26399, 18.4149, -150.577, -96.1377, 113.045
0.972701, -1, -4.96993, 9.24296, 18.4201, -150.601, -96.129, 112.903
0.97389, -1, -4.96993, 9.24296, 18.4201, -150.601, -96.129, 112.903
0.976022, -1, -5.04795, 9.22194, 18.4254, -150.626, -96.1204, 112.76
0.97723, -1, -5.04795, 9.22194, 18.4254, -150.626, -96.1204, 112.76
0.978482, -1, -5.04795, 9.22194, 18.4254, -150.626, -96.1204, 112.76
0.980517, -1, -5.12589, 9.20095, 18.4306, -150.65, -96.1118, 112.618
0.983581, -1, -5.20381, 9.17994, 18.4359, -150.674, -96.1033, 112.476
0.991705, -1, -5.35982, 9.13784, 18.4464, -150.723, -96.0865, 112.191
0.999736, -1, -5.51598, 9.09569, 18.4568, -150.772, -96.0697, 111.906
1.00765, -1, -5.67228, 9.05367, 18.4671, -150.821, -96.0527, 111.622
1.01607, -1, -5.82898, 9.01155, 18.4775, -150.87, -96.0354, 111.337
1.02446, -1, -5.98614, 8.96939, 18.4879, -150.919, -96.0179, 111.052
1.03185, -1, -6.1439, 8.92729, 18.4982, -150.967, -96.0002, 110.767
1.04043, -1, -6.30215, 8.88517, 18.5085, -151.016, -95.9829, 110.482
1.04793, -1, -6.46055, 8.84312, 18.5188, -151.065, -95.9658, 110.197
1.0559, -1, -6.61899, 8.8011, 18.5292, -151.114, -95.9488, 109.911
1.06445, -1, -6.77769, 8.75895, 18.5398, -151.163, -95.9318, 109.626
1.07191, -1, -6.85704, 8.73793, 18.545, -151.188, -95.9234, 109.34
1.07993, -1, -7.01552, 8.69593, 18.5555, -151.237, -95.9063, 109.055
1.08839, -1, -7.25322, 8.63278, 18.571, -151.31, -95.8799, 108.769
1.09535, -1, -7.33231, 8.61172, 18.5762, -151.335, -95.871, 108.626
1.10333, -1, -7.49014, 8.56951, 18.5867, -151.384, -95.8533, 108.341
1.11287, -1, -7.72655, 8.50614, 18.6023, -151.458, -95.8272, 107.912
1.1194, -1, -7.80515, 8.48506, 18.6076, -151.482, -95.8186, 107.77
1.12736, -1, -7.96196, 8.44284, 18.618, -151.531, -95.8017, 107.484
1.13682, -1, -8.19689, 8.37936, 18.6335, -151.605, -95.7762, 107.055
1.14478, -1, -8.35356, 8.33705, 18.644, -151.654, -95.7591, 106.769
1.15284, -1, -8.51042, 8.29467, 18.6546, -151.702, -95.7418, 106.483
1.16123, -1, -8.6676, 8.25239, 18.6651, -151.752, -95.7242, 106.197
1.16734, -1, -8.74634, 8.23127, 18.6703, -151.777, -95.7153, 106.053
1.1769, -1, -8.98304, 8.16781, 18.6858, -151.85, -95.6891, 105.624
1.18506, -1, -9.14145, 8.12558, 18.6962, -151.899, -95.6718, 105.338
1.19138, -1, -9.22079, 8.10448, 18.7014, -151.924, -95.6632, 105.195
1.20088, -1, -9.37969, 8.06223, 18.7118, -151.973, -95.6462, 104.908
1.20837, -1, -9.5388, 8.01995, 18.7223, -152.022, -95.629, 104.621
1.21534, -1, -9.69801, 7.97779, 18.7327, -152.072, -95.6118, 104.334
1.22339, -1, -9.85728, 7.93566, 18.7431, -152.12, -95.5942, 104.048
1.23133, -1, -10.0166, 7.89334, 18.7537, -152.17, -95.5763, 103.761
1.24033, -1, -10.1759, 7.85101, 18.7643, -152.219, -95.5585, 103.474
1.24739, -1, -10.3349, 7.80862, 18.7748, -152.268, -95.5409, 103.187
1.25533, -1, -10.4936, 7.76614, 18.7853, -152.318, -95.5236, 102.9
1.26342, -1, -10.6521, 7.72375, 18.7957, -152.367, -95.5066, 102.613
1.27132, -1, -10.8102, 7.6813, 18.8061, -152.416, -95.4896, 102.326
1.2794, -1, -10.9679, 7.63876, 18.8166, -152.465, -95.4725, 102.039
1.2874, -1, -11.1255, 7.59628, 18.8269, -152.515, -95.4552, 101.752
1.29532, -1, -11.2829, 7.55385, 18.8374, -152.564, -95.4374, 101.465
1.30333, -1, -11.4403, 7.51142, 18.8478, -152.614, -95.4197, 101.177
1.31142, -1, -11.598, 7.46895, 18.8583, -152.663, -95.4021, 100.89
1.31941, -1, -11.7559, 7.42657, 18.8689, -152.712, -95.3847, 100.602
1.32733, -1, -11.9143, 7.3842, 18.8794, -152.761, -95.3675, 100.314
1.3354, -1, -12.0731, 7.34186, 18.89, -152.811, -95.3503, 100.027
1.34332, -1, -12.2323, 7.29951, 18.9005, -152.86, -95.3331, 99.7391
1.35133, -1, -12.3919, 7.25712, 18.911, -152.91, -95.3157, 99.4512
1.36011, -1, -12.5517, 7.21473, 18.9215, -152.959, -95.298, 99.1635
1.36841, -1, -12.7117, 7.17234, 18.932, -153.008, -95.28, 98.8757
1.37532, -1, -12.8718, 7.12994, 18.9425, -153.058, -95.2622, 98.5879
1.3842, -1, -13.0319, 7.08742, 18.9531, -153.107, -95.2447, 98.2997
1.39133, -1, -13.1918, 7.04483, 18.9636, -153.157, -95.2273, 98.0116
1.39942, -1, -13.3514, 7.00227, 18.9741, -153.207, -95.2102, 97.7236
1.40834, -1, -13.5107, 6.9596, 18.9847, -153.256, -95.1932, 97.4354
1.41542, -1, -13.67, 6.91686, 18.9953, -153.305, -95.176, 97.1466
1.42345, -1, -13.829, 6.87421, 19.0058, -153.355, -95.1585, 96.8581
1.43253, -1, -13.9875, 6.83155, 19.0162, -153.404, -95.1408, 96.5697
1.43949, -1, -14.1457, 6.78888, 19.0267, -153.453, -95.123, 96.2809
1.44749, -1, -14.3039, 6.7463, 19.0372, -153.503, -95.1054, 95.992
1.45594, -1, -14.4621, 6.70361, 19.0477, -153.552, -95.0881, 95.703
1.46336, -1, -14.6206, 6.66102, 19.0582, -153.602, -95.0709, 95.4138
1.47142, -1, -14.7795, 6.61852, 19.0687, -153.652, -95.0538, 95.1246
1.48106, -1, -14.9387, 6.57597, 19.0792, -153.701, -95.0366, 94.8355
1.48834, -1, -15.0982, 6.53333, 19.0899, -153.751, -95.019, 94.5465
1.49561, -1, -15.2582, 6.49077, 19.1006, -153.8, -95.0012, 94.2574
1.50514, -1, -15.4185, 6.44822, 19.1112, -153.85, -94.9831, 93.9681
1.51164, -1, -15.5791, 6.40555, 19.1217, -153.9, -94.9653, 93.6788
1.51983, -1, -15.7399, 6.36284, 19.1322, -153.949, -94.9479, 93.3895
1.52934, -1, -15.9006, 6.3201, 19.1428, -153.999, -94.9306, 93.1002
1.53584, -1, -16.0613, 6.27728, 19.1534, -154.049, -94.9135, 92.8105
1.54444, -1, -16.2221, 6.2345, 19.1638, -154.098, -94.8963, 92.5207
1.55343, -1, -16.3827, 6.19161, 19.1743, -154.148, -94.879, 92.2313
1.55998, -1, -16.543, 6.14867, 19.1848, -154.198, -94.8613, 91.9416
1.56851, -1, -16.703, 6.10576, 19.1953, -154.247, -94.8433, 91.6515
1.57665, -1, -16.7829, 6.08433, 19.2006, -154.272, -94.8344, 91.5065
1.58336, -1, -16.9423, 6.04141, 19.2112, -154.322, -94.8167, 91.2165
1.59244, -1, -17.1812, 5.97706, 19.2271, -154.396, -94.7905, 90.7812
1.59939, -1, -17.2607, 5.95564, 19.2324, -154.421, -94.7818, 90.6361
1.60736, -1, -17.4198, 5.91282, 19.2429, -154.471, -94.7646, 90.3459
1.61656, -1, -17.6589, 5.84869, 19.259, -154.546, -94.7384, 89.9107
1.62331, -1, -17.7387, 5.82731, 19.2643, -154.57, -94.7296, 89.7655
1.63136, -1, -17.8982, 5.78453, 19.2749, -154.621, -94.7116, 89.4751
1.63937, -1, -18.0583, 5.74184, 19.2855, -154.671, -94.6935, 89.1846
1.64733, -1, -18.2188, 5.69911, 19.2961, -154.72, -94.6755, 88.8942
1.65539, -1, -18.3798, 5.65635, 19.3068, -154.77, -94.658, 88.6036
1.66492, -1, -18.6219, 5.592, 19.3228, -154.845, -94.632, 88.1672
1.67453, -1, -18.7835, 5.54909, 19.3335, -154.895, -94.6147, 87.8765
1.67938, -1, -18.8643, 5.52763, 19.3388, -154.92, -94.606, 87.7311
1.6889, -1, -19.0259, 5.4631, 19.3545, -154.995, -94.5797, 87.2942
1.69543, -1, -19.1874, 5.44152, 19.3598, -155.02, -94.5707, 87.1485
1.70331, -1, -19.3488, 5.39846, 19.3704, -155.07, -94.5526, 86.8573
1.71231, -1, -19.51, 5.35537, 19.3809, -155.12, -94.5346, 86.5658
1.72032, -1, -19.6708, 5.31219, 19.3915, -155.17, -94.5169, 86.2742
1.72831, -1, -19.8314, 5.26912, 19.402, -155.22, -94.4993, 85.9827
1.73632, -1, -19.9918, 5.22604, 19.4126, -155.27, -94.4819, 85.6912
1.74331, -1, -20.1518, 5.18291, 19.4234, -155.32, -94.4646, 85.3998
1.75131, -1, -20.3116, 5.14002, 19.4342, -155.37, -94.4472, 85.1081
1.75943, -1, -20.4716, 5.09711, 19.445, -155.42, -94.4294, 84.8164
1.76732, -1, -20.6317, 5.05408, 19.4557, -155.47, -94.4113, 84.5247
1.77533, -1, -20.792, 5.01117, 19.4663, -155.52, -94.3933, 84.2329
1.78337, -1, -20.9528, 4.96828, 19.4769, -155.57, -94.3756, 83.9408
1.79131, -1, -21.1139, 4.92523, 19.4875, -155.62, -94.3581, 83.6487
1.79937, -1, -21.2755, 4.88221, 19.4981, -155.671, -94.3409, 83.3568
1.80737, -1, -21.4374, 4.83908, 19.5087, -155.721, -94.3237, 83.0646
1.81534, -1, -21.5996, 4.79585, 19.5193, -155.771, -94.3064, 82.7721
1.82334, -1, -21.7619, 4.75271, 19.53, -155.822, -94.2888, 82.4797
1.83137, -1, -21.9243, 4.70943, 19.5408, -155.871, -94.271, 82.1872
1.83936, -1, -22.0866, 4.66606, 19.5515, -155.922, -94.253, 81.8946
1.84732, -1, -22.2491, 4.62273, 19.5622, -155.972, -94.2351, 81.6019
1.85538, -1, -22.4114, 4.57936, 19.5728, -156.022, -94.2176, 81.3093
1.86336, -1, -22.5733, 4.53599, 19.5835, -156.073, -94.2002, 81.0166
1.87133, -1, -22.7349, 4.49258, 19.5942, -156.123, -94.1828, 80.7239
1.87941, -1, -22.8963, 4.44922, 19.6048, -156.173, -94.1654, 80.4308
1.88731, -1, -23.0573, 4.40597, 19.6156, -156.223, -94.1475, 80.138
1.89554, -1, -23.2183, 4.36273, 19.6262, -156.273, -94.1294, 79.8449
1.90335, -1, -23.3793, 4.31951, 19.6369, -156.324, -94.1111, 79.5516
1.91139, -1, -23.5401, 4.27631, 19.6478, -156.374, -94.093, 79.2583
1.91978, -1, -23.7012, 4.23309, 19.6586, -156.425, -94.0752, 78.9651
1.92839, -1, -23.8624, 4.18991, 19.6693, -156.475, -94.0577, 78.6717
1.93544, -1, -24.0239, 4.14664, 19.68, -156.526, -94.0402, 78.3781
1.94389, -1, -24.186, 4.10328, 19.6906, -156.576, -94.0229, 78.0841
1.95131, -1, -24.3485, 4.05989, 19.7014, -156.626, -94.0052, 77.7903
1.95936, -1, -24.5113, 4.01648, 19.712, -156.677, -93.9872, 77.4962
1.96818, -1, -24.6743, 3.97297, 19.7226, -156.727, -93.969, 77.202
1.97538, -1, -24.8376, 3.92941, 19.7332, -156.777, -93.951, 76.908
1.98365, -1, -25.001, 3.88586, 19.7439, -156.828, -93.9333, 76.6139
1.99231, -1, -25.1643, 3.8423, 19.7548, -156.878, -93.9157, 76.3198
1.99958, -1, -25.3274, 3.79876, 19.7656, -156.929, -93.8982, 76.0253
2.00763, -1, -25.4901, 3.75517, 19.7764, -156.979, -93.8807, 75.7312
2.0165, -1, -25.6528, 3.71149, 19.7871, -157.029, -93.8629, 75.4369
2.02369, -1, -25.8153, 3.66797, 19.7977, -157.08, -93.8447, 75.1422
2.03217, -1, -25.9776, 3.62456, 19.8085, -157.13, -93.8263, 74.8476
2.04075, -1, -26.1396, 3.581, 19.8192, -157.181, -93.808, 74.553
2.04786, -1, -26.3013, 3.53761, 19.83, -157.232, -93.7901, 74.2584
2.05642, -1, -26.4629, 3.49426, 19.8407, -157.282, -93.7723, 73.9634
2.06471, -1, -26.6247, 3.45083, 19.8514, -157.333, -93.7547, 73.6682
2.07188, -1, -26.7056, 3.42911, 19.8567, -157.384, -93.7371, 73.3733
2.08048, -1, -26.9492, 3.36388, 19.873, -157.434, -93.7193, 73.0781
2.08733, -1, -27.0306, 3.34209, 19.8784, -157.459, -93.7103, 72.9305
2.09532, -1, -27.1935, 3.29853, 19.8893, -157.51, -93.6921, 72.6352
2.10331, -1, -27.3568, 3.25493, 19.9, -157.561, -93.6738, 72.34
2.11136, -1, -27.5205, 3.21117, 19.9107, -157.611, -93.6557, 72.0447
2.11932, -1, -27.6844, 3.16741, 19.9215, -157.662, -93.6379, 71.7492
2.12729, -1, -27.8484, 3.12376, 19.9322, -157.712, -93.6201, 71.4537
2.13532, -1, -28.0126, 3.08005, 19.943, -157.763, -93.6025, 71.1582
2.14332, -1, -28.1766, 3.03636, 19.9538, -157.814, -93.5848, 70.8624
2.15281, -1, -28.4228, 2.97075, 19.9699, -157.89, -93.5577, 70.4185
2.16167, -1, -28.5866, 2.9271, 19.9809, -157.941, -93.5393, 70.1228
2.16739, -1, -28.6684, 2.90529, 19.9863, -157.966, -93.5301, 69.9748
2.1753, -1, -28.8318, 2.86162, 19.9971, -158.017, -93.5119, 69.6786
2.18331, -1, -28.9948, 2.81798, 20.0079, -158.068, -93.494, 69.382
2.19132, -1, -29.1574, 2.77438, 20.0186, -158.119, -93.4763, 69.0857
2.20096, -1, -29.3201, 2.73078, 20.0294, -158.195, -93.4499, 68.6408
2.20733, -1, -29.4829, 2.68716, 20.0402, -158.221, -93.441, 68.4924
2.21632, -1, -29.6458, 2.64346, 20.0509, -158.272, -93.4231, 68.1956
2.22432, -1, -29.8088, 2.5997, 20.0618, -158.322, -93.4049, 67.899
2.23141, -1, -29.972, 2.55597, 20.0725, -158.374, -93.3865, 67.6024
2.23933, -1, -30.1355, 2.51216, 20.0834, -158.424, -93.3683, 67.3054
2.24731, -1, -30.2994, 2.46821, 20.0943, -158.475, -93.3503, 67.0084
2.25531, -1, -30.4636, 2.42427, 20.1052, -158.526, -93.3326, 66.7116
2.2633, -1, -30.6284, 2.3803, 20.116, -158.577, -93.3149, 66.4145
2.27131, -1, -30.7933, 2.33629, 20.1268, -158.628, -93.2973, 66.1172
2.27933, -1, -30.9584, 2.29241, 20.1376, -158.679, -93.2793, 65.82
2.28729, -1, -31.1233, 2.2484, 20.1484, -158.73, -93.2609, 65.5227
2.29529, -1, -31.2883, 2.20443, 20.1592, -158.781, -93.2424, 65.2254
2.30336, -1, -31.4531, 2.16062, 20.17, -158.833, -93.2241, 64.9276
2.31129, -1, -31.6176, 2.11668, 20.1807, -158.883, -93.206, 64.63
2.3193, -1, -31.782, 2.07271, 20.1915, -158.935, -93.1881, 64.3322
2.32737, -1, -31.9461, 2.02888, 20.2025, -158.986, -93.1706, 64.0343
2.33528, -1, -32.11, 1.98498, 20.2134, -159.037, -93.153, 63.7364
2.34329, -1, -32.2737, 1.94103, 20.2244, -159.088, -93.1351, 63.4385
2.35135, -1, -32.4373, 1.89711, 20.2352, -159.139, -93.117, 63.1406
2.35929, -1, -32.6011, 1.85307, 20.2461, -159.19, -93.0986, 62.8424
2.36734, -1, -32.765, 1.80906, 20.2571, -159.242, -93.0804, 62.5442
2.37536, -1, -32.9289, 1.76503, 20.268, -159.293, -93.0622, 62.246
2.38329, -1, -33.0933, 1.72088, 20.2789, -159.344, -93.0444, 61.9475
2.39129, -1, -33.258, 1.6767, 20.2897, -159.395, -93.0266, 61.6489
2.39937, -1, -33.4232, 1.63255, 20.3005, -159.446, -93.0087, 61.3504
2.40734, -1, -33.5888, 1.58834, 20.3115, -159.498, -92.9906, 61.0518
2.41539, -1, -33.7545, 1.54416, 20.3225, -159.549, -92.9723, 60.7529
2.42344, -1, -33.9201, 1.49999, 20.3334, -159.6, -92.9536, 60.4538
2.43139, -1, -34.086, 1.45583, 20.3443, -159.652, -92.935, 60.1548
2.43943, -1, -34.2518, 1.41176, 20.3551, -159.703, -92.9167, 59.8557
2.44745, -1, -34.4177, 1.36761, 20.3661, -159.754, -92.8987, 59.5562
2.45529, -1, -34.5835, 1.32348, 20.3769, -159.806, -92.881, 59.2567
2.46329, -1, -34.749, 1.27939, 20.3878, -159.857, -92.8632, 58.9576
2.47236, -1, -34.914, 1.2352, 20.3987, -159.908, -92.8452, 58.6582
2.47943, -1, -35.0788, 1.19111, 20.4096, -159.96, -92.8269, 58.3586
2.48743, -1, -35.2434, 1.14689, 20.4206, -160.011, -92.8084, 58.0588
2.49555, -1, -35.4078, 1.10268, 20.4317, -160.063, -92.7899, 57.7592
2.50357, -1, -35.5713, 1.05871, 20.4428, -160.114, -92.7717, 57.4594
2.51198, -1, -35.7327, 1.01513, 20.4541, -160.165, -92.7537, 57.16
2.52029, -1, -35.8909, 0.972296, 20.4657, -160.216, -92.7359, 56.8627
2.52771, -1, -36.0447, 0.930795, 20.4775, -160.267, -92.7183, 56.5694
2.53638, -1, -36.1925, 0.891169, 20.4895, -160.315, -92.701, 56.2836
2.54392, -1, -36.3317, 0.854031, 20.5013, -160.362, -92.6842, 56.0103
2.55244, -1, -36.4606, 0.819927, 20.5125, -160.405, -92.6681, 55.7561
2.55988, -1, -36.5776, 0.788963, 20.5225, -160.444, -92.6537, 55.5268
2.5684, -1, -36.6811, 0.761635, 20.531, -160.477, -92.6413, 55.3279
2.57588, -1, -36.7274, 0.749417, 20.5346, -160.505, -92.6311, 55.1632
2.58383, -1, -36.8088, 0.727747, 20.5399, -160.517, -92.6269, 55.0941
2.59234, -1, -36.9053, 0.702194, 20.5438, -160.544, -92.6177, 54.9385
2.59932, -1, -36.931, 0.695452, 20.5444, -160.551, -92.6156, 54.902
2.60733, -1, -36.9728, 0.684422, 20.5448, -160.56, -92.6126, 54.8476
2.61531, -1, -37.0036, 0.676315, 20.5445, -160.566, -92.6108, 54.8142
2.62456, -1, -37.0324, 0.66881, 20.5438, -160.57, -92.6095, 54.7894
2.63128, -1, -37.0382, 0.667374, 20.5436, -160.571, -92.6093, 54.7854
2.64063, 2, -37.0475, 0.665112, 20.5434, -160.572, -92.609, 54.7795
2.64727, 2, -37.0485, 0.664785, 20.5433, -160.572, -92.609, 54.7787
2.65713, 2, -37.0484, 0.664332, 20.5433, -160.573, -92.6089, 54.7775
2.66338, 2, -37.0482, 0.664263, 20.5432, -160.573, -92.6089, 54.7773
2.67286, 2, -37.048, 0.664173, 20.5432, -160.573, -92.609, 54.7771
2.68125, 2, -37.0487, 0.66414, 20.5432, -160.573, -92.609, 54.7771
2.68734, 2, -37.0492, 0.664122, 20.5431, -160.573, -92.609, 54.7771
2.69689, 2, -37.0509, 0.663927, 20.5429, -160.573, -92.609, 54.7774
2.70527, 2, -37.0522, 0.663696, 20.5427, -160.573, -92.609, 54.7776
2.71133, 2, -37.0528, 0.663574, 20.5426, -160.573, -92.6091, 54.7776
2.72107, 2, -37.054, 0.663337, 20.5425, -160.573, -92.6092, 54.7779
2.72728, 2, -37.055, 0.663124, 20.5423, -160.573, -92.6092, 54.778
2.73533, 2, -37.0554, 0.663007, 20.5421, -160.573, -92.6092, 54.7782
2.74327, 2, -37.0554, 0.662968, 20.5419, -160.573, -92.6092, 54.7785
2.75128, 2, -37.0548, 0.662965, 20.5418, -160.573, -92.6092, 54.7787
2.75936, 2, -37.0539, 0.663021, 20.5417, -160.573, -92.6093, 54.7789
2.76727, 2, -37.0529, 0.663096, 20.5417, -160.573, -92.6093, 54.7791
2.77535, 2, -37.0513, 0.663196, 20.5416, -160.573, -92.6094, 54.7793
2.78333, 2, -37.0499, 0.663318, 20.5416, -160.573, -92.6094, 54.7795
2.79127, 2, -37.0487, 0.663389, 20.5415, -160.573, -92.6095, 54.7797
2.79929, 2, -37.048, 0.66343, 20.5415, -160.573, -92.6094, 54.7798
2.80734, 2, -37.0477, 0.663412, 20.5415, -160.573, -92.6095, 54.7798
2.81527, 2, -37.0477, 0.663349, 20.5415, -160.573, -92.6095, 54.7799
2.82329, 2, -37.0479, 0.663257, 20.5414, -160.573, -92.6094, 54.7799
2.83136, 2, -37.0482, 0.663185, 20.5414, -160.573, -92.6095, 54.78
2.83928, 2, -37.0486, 0.663152, 20.5414, -160.573, -92.6095, 54.78
2.84727, 2, -37.0494, 0.663137, 20.5414, -160.573, -92.6095, 54.7801
2.85535, 2, -37.0502, 0.66313, 20.5414, -160.573, -92.6095, 54.7801
2.86327, 2, -37.0509, 0.663127, 20.5414, -160.573, -92.6095, 54.7802
2.87132, 2, -37.0514, 0.663133, 20.5413, -160.573, -92.6095, 54.7802
2.87935, 2, -37.0516, 0.663164, 20.5413, -160.573, -92.6095, 54.7803
2.88727, 2, -37.0517, 0.663204, 20.5413, -160.573, -92.6095, 54.7803
2.89528, 2, -37.0517, 0.663229, 20.5413, -160.573, -92.6095, 54.7803
2.90337, 2, -37.0513, 0.663251, 20.5413, -160.573, -92.6095, 54.7804
2.91142, 2, -37.0509, 0.663233, 20.5413, -160.573, -92.6096, 54.7804
2.91939, 2, -37.0506, 0.663199, 20.5413, -160.573, -92.6095, 54.7804
2.92743, 2, -37.0504, 0.663183, 20.5413, -160.572, -92.6095, 54.7805
2.93537, 2, -37.0502, 0.663169, 20.5413, -160.572, -92.6096, 54.7805
2.94342, 2, -37.0501, 0.663145, 20.5413, -160.572, -92.6096, 54.7806
2.95145, 2, -37.05, 0.663134, 20.5412, -160.572, -92.6096, 54.7806
2.95929, 2, -37.05, 0.663129, 20.5412, -160.572, -92.6096, 54.7807
2.9673, 2, -37.0501, 0.663126, 20.5412, -160.573, -92.6096, 54.7808
2.97561, 2, -37.0502, 0.663133, 20.5412, -160.573, -92.6096, 54.7808
2.9833, 2, -37.0503, 0.663153, 20.5412, -160.572, -92.6097, 54.7809
2.99141, 2, -37.0506, 0.663191, 20.5412, -160.573, -92.6097, 54.7809
2.99981, 2, -37.0507, 0.663216, 20.5412, -160.572, -92.6097, 54.7809
3.00752, 2, -37.0507, 0.663217, 20.5412, -160.572, -92.6097, 54.781
3.01582, 2, -37.0507, 0.663202, 20.5412, -160.572, -92.6097, 54.781
3.0243, 2, -37.0507, 0.663221, 20.5412, -160.572, -92.6098, 54.7811
3.03166, 2, -37.0507, 0.663219, 20.5412, -160.572, -92.6097, 54.7811
3.04036, 2, -37.0507, 0.663173, 20.5412, -160.572, -92.6098, 54.7812
3.04817, 2, -37.0507, 0.663147, 20.5412, -160.572, -92.6098, 54.7813
3.0558, 2, -37.0506, 0.663135, 20.5412, -160.572, -92.6098, 54.7813
3.06439, 2, -37.0506, 0.663129, 20.5411, -160.572, -92.6097, 54.7813
3.0719, 2, -37.0506, 0.663146, 20.5411, -160.572, -92.6097, 54.7814
3.08045, 2, -37.0506, 0.663159, 20.5411, -160.572, -92.6098, 54.7815
3.0881, 2, -37.0506, 0.663183, 20.5411, -160.572, -92.6097, 54.7815
3.09611, 2, -37.0506, 0.66319, 20.5411, -160.572, -92.6098, 54.7815
3.10326, 2, -37.0506, 0.663197, 20.5411, -160.572, -92.6098, 54.7816
3.11234, 2, -37.0505, 0.663225, 20.5411, -160.572, -92.6098, 54.7816
3.11932, 2, -37.0505, 0.663229, 20.5411, -160.572, -92.6098, 54.7816
3.12854, 2, -37.0505, 0.663235, 20.5411, -160.572, -92.6098, 54.7817
3.13525, 2, -37.0505, 0.663225, 20.5411, -160.572, -92.6098, 54.7817
3.14331, 2, -37.0505, 0.663224, 20.5411, -160.572, -92.6098, 54.7816
3.15126, 2, -37.0505, 0.663221, 20.5411, -160.572, -92.6098, 54.7817
3.16111, 2, -37.0505, 0.663197, 20.5411, -160.572, -92.6098, 54.7817
3.16732, 2, -37.0505, 0.663192, 20.5411, -160.572, -92.6098, 54.7818
3.17684, 2, -37.0505, 0.663173, 20.541, -160.572, -92.6098, 54.7818
3.18518, 2, -37.0505, 0.663171, 20.541, -160.572, -92.6098, 54.7819
3.19132, 2, -37.0504, 0.663182, 20.541, -160.572, -92.6098, 54.7819
3.20088, 2, -37.0504, 0.663208, 20.541, -160.572, -92.6099, 54.782
3.20919, 2, -37.0504, 0.663213, 20.541, -160.572, -92.6098, 54.782
3.21532, 2, -37.0504, 0.66321, 20.541, -160.572, -92.6098, 54.782
3.22433, 2, -37.0504, 0.663232, 20.541, -160.572, -92.6099, 54.782
3.23315, 2, -37.0504, 0.66324, 20.541, -160.572, -92.6099, 54.782
3.23933, 2, -37.0504, 0.663239, 20.541, -160.572, -92.6099, 54.782
3.24725, 2, -37.0504, 0.663245, 20.541, -160.572, -92.6099, 54.782
3.25525, 2, -37.0503, 0.663258, 20.541, -160.572, -92.6099, 54.7821
3.26332, 2, -37.0503, 0.663236, 20.541, -160.572, -92.6099, 54.7821
3.27125, 2, -37.0503, 0.6632, 20.541, -160.572, -92.6099, 54.7822
3.27926, 2, -37.0503, 0.663195, 20.5409, -160.572, -92.6099, 54.7823
3.28732, 2, -37.0503, 0.6632, 20.5409, -160.572, -92.6099, 54.7822
3.29525, 2, -37.0503, 0.663209, 20.5409, -160.572, -92.6099, 54.7823
3.30325, 2, -37.0503, 0.663217, 20.5409, -160.572, -92.61, 54.7823
3.31131, 2, -37.0503, 0.663228, 20.5409, -160.572, -92.61, 54.7823
3.31927, 2, -37.0503, 0.663233, 20.5409, -160.572, -92.61, 54.7824
3.32727, 2, -37.0502, 0.663236, 20.5409, -160.572, -92.6099, 54.7824
3.33533, 2, -37.0503, 0.663237, 20.5409, -160.572, -92.6099, 54.7824
3.34335, 2, -37.0503, 0.663237, 20.5409, -160.572, -92.6099, 54.7824
3.35125, 2, -37.0502, 0.663237, 20.5409, -160.572, -92.6099, 54.7824
3.35933, 2, -37.0503, 0.663238, 20.5409, -160.572, -92.6099, 54.7824
3.36725, 2, -37.0502, 0.663238, 20.5409, -160.572, -92.61, 54.7824
3.3753, 2, -37.0502, 0.663238, 20.5409, -160.572, -92.61, 54.7824
3.38332, 2, -37.0502, 0.663238, 20.5408, -160.572, -92.6099, 54.7824
3.39125, 2, -37.0502, 0.663238, 20.5408, -160.572, -92.61, 54.7825
3.39927, 2, -37.0501, 0.66325, 20.5408, -160.572, -92.61, 54.7825
3.40735, 2, -37.0501, 0.663243, 20.5408, -160.572, -92.6099, 54.7824
3.41532, 2, -37.0502, 0.66324, 20.5408, -160.572, -92.6099, 54.7825
3.42334, 2, -37.0502, 0.663239, 20.5408, -160.572, -92.61, 54.7825
3.43141, 2, -37.0501, 0.663245, 20.5408, -160.572, -92.61, 54.7826
3.43936, 2, -37.0501, 0.663246, 20.5408, -160.572, -92.61, 54.7826
3.44738, 2, -37.0501, 0.663242, 20.5408, -160.572, -92.6099, 54.7826
3.45542, 2, -37.0501, 0.663259, 20.5408, -160.572, -92.61, 54.7826
3.46326, 2, -37.0501, 0.66326, 20.5408, -160.572, -92.61, 54.7826
3.47128, 2, -37.0501, 0.663272, 20.5408, -160.572, -92.61, 54.7825
3.47938, 2, -37.0501, 0.663258, 20.5408, -160.572, -92.61, 54.7825
3.4873, 2, -37.0501, 0.663259, 20.5408, -160.572, -92.6101, 54.7825
3.49538, 2, -37.0501, 0.66326, 20.5408, -160.572, -92.61, 54.7826
3.50358, 2, -37.0501, 0.66326, 20.5408, -160.572, -92.61, 54.7826
3.51149, 2, -37.05, 0.663248, 20.5408, -160.572, -92.6101, 54.7826
3.51956, 2, -37.05, 0.663242, 20.5407, -160.572, -92.6101, 54.7826
3.52776, 2, -37.05, 0.663247, 20.5407, -160.572, -92.6101, 54.7826
3.53638, 2, -37.05, 0.663267, 20.5407, -160.572, -92.61, 54.7826
3.54378, 2, -37.05, 0.663275, 20.5407, -160.572, -92.61, 54.7826
3.55236, 2, -37.05, 0.663279, 20.5407, -160.572, -92.6101, 54.7826
3.5598, 2, -37.0499, 0.663281, 20.5407, -160.572, -92.6101, 54.7827
3.56836, 2, -37.0499, 0.663282, 20.5407, -160.572, -92.6101, 54.7827
3.57591, 2, -37.0499, 0.663283, 20.5407, -160.572, -92.6101, 54.7827
3.58444, 2, -37.0499, 0.663283, 20.5407, -160.572, -92.6101, 54.7827
3.59198, 2, -37.0499, 0.663283, 20.5407, -160.572, -92.6101, 54.7828
3.59931, 2, -37.0499, 0.663283, 20.5407, -160.572, -92.6101, 54.7828
3.60837, 2, -37.0499, 0.663283, 20.5407, -160.572, -92.6101, 54.7828
3.61526, 2, -37.0498, 0.663283, 20.5407, -160.572, -92.6101, 54.7828
3.62445, 2, -37.0498, 0.663283, 20.5407, -160.572, -92.6101, 54.7828
3.63124, 2, -37.0498, 0.663283, 20.5407, -160.572, -92.6101, 54.7828
3.64078, 2, -37.0498, 0.663283, 20.5407, -160.572, -92.6101, 54.7828
3.64864, 2, -37.0497, 0.663283, 20.5407, -160.572, -92.6101, 54.7828
3.65524, 2, -37.0498, 0.663283, 20.5407, -160.572, -92.6101, 54.7828
3.66476, 2, -37.0498, 0.663295, 20.5407, -160.572, -92.6101, 54.7828
3.67282, 2, -37.0497, 0.663289, 20.5406, -160.572, -92.6101, 54.7827
3.68124, 2, -37.0497, 0.663286, 20.5406, -160.572, -92.6101, 54.7828
3.68724, 2, -37.0496, 0.663285, 20.5406, -160.572, -92.6101, 54.7828
3.6953, 2, -37.0496, 0.663284, 20.5406, -160.571, -92.6101, 54.7828
3.70512, 4, -37.0496, 0.663271, 20.5406, -160.571, -92.6101, 54.7829
3.71128, 4, -37.0496, 0.663275, 20.5406, -160.571, -92.6101, 54.7829
3.72027, 4, -37.0497, 0.663279, 20.5406, -160.571, -92.6101, 54.7829
3.7283, 4, -37.0496, 0.663281, 20.5406, -160.571, -92.6101, 54.7829
3.73624, 4, -37.0496, 0.663293, 20.5406, -160.571, -92.6101, 54.7829
3.74425, 4, -37.0496, 0.663306, 20.5406, -160.571, -92.6101, 54.7829
3.75123, 4, -37.0496, 0.663301, 20.5406, -160.571, -92.6102, 54.7829
3.75925, 4, -37.0495, 0.66331, 20.5405, -160.571, -92.6101, 54.7829
3.76729, 4, -37.0495, 0.663306, 20.5405, -160.571, -92.6101, 54.7829
3.77523, 4, -37.0495, 0.663319, 20.5405, -160.571, -92.6101, 54.7829
3.78326, 4, -37.0495, 0.663311, 20.5405, -160.571, -92.6101, 54.7829
3.7913, 4, -37.0495, 0.663332, 20.5405, -160.571, -92.6101, 54.7829
3.79925, 4, -37.0495, 0.663331, 20.5405, -160.571, -92.6102, 54.7829
3.80739, 4, -37.0495, 0.663334, 20.5405, -160.571, -92.6101, 54.7829
3.83241, 4, -37.0494, 0.663343, 20.5405, -160.571, -92.6101, 54.7829
3.83442, 4, -37.0494, 0.663346, 20.5405, -160.571, -92.6101, 54.7829
3.83573, 4, -37.0494, 0.663346, 20.5405, -160.571, -92.6101, 54.7829
3.83926, 4, -37.0494, 0.663347, 20.5405, -160.571, -92.6101, 54.7829
3.84731, 4, -37.0494, 0.663331, 20.5405, -160.571, -92.6101, 54.7829
3.85523, 4, -37.0491, 0.663294, 20.5405, -160.571, -92.6102, 54.7829
3.86425, 4, -37.0476, 0.662904, 20.5405, -160.571, -92.6102, 54.783
3.87134, 4, -37.0434, 0.661181, 20.541, -160.571, -92.6102, 54.7829
3.87929, 4, -37.0356, 0.657091, 20.5426, -160.571, -92.6102, 54.7829
3.88723, 4, -37.0247, 0.650395, 20.5462, -160.571, -92.6102, 54.7829
3.89544, 4, -37.0113, 0.64111, 20.5529, -160.57, -92.6102, 54.7829
3.90335, 5, -36.9948, 0.629032, 20.5634, -160.568, -92.6102, 54.7829
3.91136, 5, -36.975, 0.61378, 20.5785, -160.565, -92.6101, 54.7828
3.91964, 5, -36.9523, 0.595876, 20.5984, -160.56, -92.6099, 54.7827
3.92733, 5, -36.9278, 0.575648, 20.6223, -160.555, -92.6097, 54.7825
3.93557, 5, -36.9012, 0.552509, 20.6497, -160.55, -92.6094, 54.7825
3.94434, 5, -36.8708, 0.526524, 20.6795, -160.543, -92.6089, 54.7823
3.95134, 5, -36.8366, 0.497875, 20.7111, -160.537, -92.6084, 54.7821
3.9594, 5, -36.7992, 0.4674, 20.7438, -160.529, -92.6079, 54.7819
3.96812, 5, -36.7596, 0.435935, 20.777, -160.522, -92.6072, 54.7817
3.97624, 5, -36.7189, 0.403928, 20.8102, -160.514, -92.6065, 54.7814
3.98333, 5, -36.6779, 0.371689, 20.8436, -160.507, -92.6057, 54.7812
3.99217, 5, -36.6365, 0.339306, 20.8771, -160.499, -92.6049, 54.7809
3.99938, 5, -36.5953, 0.306973, 20.9104, -160.492, -92.6041, 54.7807
4.0075, 5, -36.554, 0.274679, 20.9438, -160.484, -92.6032, 54.7806
4.01653, 5, -36.513, 0.242363, 20.9773, -160.477, -92.6023, 54.7805
4.02355, 5, -36.4722, 0.210212, 21.0108, -160.47, -92.6014, 54.7805
4.03172, 5, -36.4312, 0.178231, 21.0442, -160.463, -92.6005, 54.7803
4.0405, 5, -36.39, 0.14638, 21.0776, -160.456, -92.5995, 54.7802
4.04777, 5, -36.3489, 0.114461, 21.1109, -160.449, -92.5985, 54.78
4.05722, 5, -36.3081, 0.0826395, 21.1442, -160.442, -92.5976, 54.7799
4.0647, 5, -36.2673, 0.0507505, 21.1773, -160.436, -92.5966, 54.7797
4.07184, 5, -36.2265, 0.0188733, 21.2107, -160.429, -92.5956, 54.7794
4.08041, 5, -36.1855, -0.0131419, 21.2439, -160.422, -92.5946, 54.7791
4.08859, 5, -36.1649, -0.0291392, 21.2605, -160.418, -92.5941, 54.779
4.09527, 5, -36.1235, -0.0611137, 21.2935, -160.411, -92.5931, 54.7786
4.10435, 5, -36.0608, -0.109041, 21.3432, -160.4, -92.5916, 54.7781
4.11126, 5, -36.0399, -0.125066, 21.3597, -160.396, -92.5911, 54.7779
4.12032, 5, -35.9771, -0.172971, 21.4091, -160.385, -92.5897, 54.7772
4.12722, 5, -35.9562, -0.188912, 21.4257, -160.381, -92.5891, 54.777
4.13522, 5, -35.9142, -0.220685, 21.4587, -160.374, -92.5882, 54.7766
4.14451, 5, -35.8514, -0.268306, 21.5079, -160.362, -92.5867, 54.7759
4.15124, 5, -35.8305, -0.284095, 21.5243, -160.358, -92.5862, 54.7757
4.15927, 5, -35.7886, -0.315708, 21.5573, -160.35, -92.5852, 54.7753
4.16723, 5, -35.7467, -0.347262, 21.5901, -160.343, -92.5843, 54.775
4.17783, 5, -35.6843, -0.394589, 21.6392, -160.332, -92.5829, 54.7744
4.18327, 5, -35.6636, -0.410331, 21.6556, -160.328, -92.5824, 54.7743
4.19284, 5, -35.6011, -0.457603, 21.7044, -160.317, -92.5809, 54.7738
4.20178, 5, -35.5594, -0.48921, 21.737, -160.31, -92.5799, 54.7736
4.20727, 5, -35.5386, -0.504999, 21.7533, -160.306, -92.5795, 54.7735
4.217, 5, -35.4968, -0.536475, 21.7858, -160.299, -92.5781, 54.7733
4.22323, 5, -35.4547, -0.56796, 21.8181, -160.292, -92.5776, 54.7733
4.23224, 5, -35.4125, -0.59943, 21.8504, -160.284, -92.5767, 54.7731
4.24024, 5, -35.3703, -0.630919, 21.8828, -160.277, -92.5756, 54.7731
4.24843, 5, -35.3279, -0.662257, 21.915, -160.269, -92.5747, 54.773
4.25596, 5, -35.2854, -0.69361, 21.9472, -160.262, -92.5738, 54.773
4.26422, 5, -35.243, -0.724887, 21.9795, -160.254, -92.5727, 54.773
4.27226, 5, -35.2007, -0.756092, 22.0116, -160.246, -92.5718, 54.773
4.27928, 5, -35.1582, -0.787099, 22.0436, -160.239, -92.5708, 54.773
4.28723, 5, -35.1158, -0.818095, 22.0757, -160.231, -92.5699, 54.773
4.29844, 5, -35.0736, -0.84911, 22.1237, -160.218, -92.5684, 54.773
4.30473, 5, -35.0314, -0.880207, 22.1396, -160.214, -92.5679, 54.773
4.31128, 5, -34.9892, -0.911124, 22.1714, -160.206, -92.567, 54.773
4.31921, 5, -34.9468, -0.942095, 22.2033, -160.199, -92.566, 54.773
4.32986, 5, -34.8833, -0.988565, 22.251, -160.187, -92.5646, 54.7731
4.33623, 5, -34.8621, -1.00405, 22.2668, -160.183, -92.5641, 54.7731
4.34332, 5, -34.8194, -1.03487, 22.2985, -160.176, -92.5631, 54.7731
4.35136, 5, -34.7767, -1.06571, 22.3302, -160.168, -92.5621, 54.7732
4.36041, 5, -34.7341, -1.09655, 22.3616, -160.161, -92.5611, 54.7732
4.36722, 5, -34.6913, -1.12744, 22.393, -160.154, -92.5601, 54.7733
4.37522, 5, -34.6484, -1.1582, 22.4246, -160.146, -92.5591, 54.7734
4.38334, 5, -34.6056, -1.18884, 22.456, -160.139, -92.5581, 54.7734
4.39127, 5, -34.5628, -1.21952, 22.4871, -160.131, -92.5571, 54.7736
4.39931, 5, -34.5199, -1.25021, 22.5184, -160.123, -92.5562, 54.7737
4.40725, 5, -34.4769, -1.28077, 22.5498, -160.116, -92.5552, 54.7739
4.41526, 5, -34.434, -1.31128, 22.5809, -160.108, -92.5541, 54.7741
4.42363, 5, -34.3911, -1.34176, 22.6119, -160.1, -92.5531, 54.7745
4.43228, 5, -34.3481, -1.37231, 22.6431, -160.092, -92.5521, 54.775
4.43932, 5, -34.3052, -1.4027, 22.6742, -160.083, -92.5511, 54.7755
4.44775, 5, -34.2622, -1.43312, 22.705, -160.075, -92.5501, 54.7763
4.45532, 5, -34.2191, -1.46346, 22.7359, -160.067, -92.549, 54.7772
4.46322, 5, -34.176, -1.49379, 22.7669, -160.058, -92.548, 54.7783
4.47183, 5, -34.1328, -1.524, 22.7978, -160.05, -92.5469, 54.7795
4.48028, 5, -34.0896, -1.5542, 22.8285, -160.042, -92.5459, 54.781
4.48725, 5, -34.0464, -1.58429, 22.8592, -160.034, -92.5449, 54.7826
4.49614, 5, -34.0031, -1.61443, 22.89, -160.026, -92.5438, 54.7843
4.50338, 5, -33.9597, -1.64445, 22.9206, -160.018, -92.5428, 54.786
4.51228, 5, -33.9163, -1.67446, 22.9511, -160.011, -92.5418, 54.7879
4.51981, 5, -33.8728, -1.70435, 22.9817, -160.003, -92.5407, 54.7899
4.52852, 5, -33.8293, -1.73433, 23.0122, -159.995, -92.5396, 54.792
4.53645, 5, -33.7859, -1.7642, 23.0424, -159.987, -92.5385, 54.794
4.54483, 5, -33.7423, -1.7941, 23.0728, -159.979, -92.5375, 54.7962
4.55231, 5, -33.6987, -1.824, 23.1031, -159.971, -92.5364, 54.7983
4.56057, 5, -33.6553, -1.85386, 23.1333, -159.962, -92.5353, 54.8005
4.56777, 5, -33.6118, -1.88367, 23.1633, -159.954, -92.5342, 54.8027
4.57718, 5, -33.5682, -1.91343, 23.1934, -159.945, -92.533, 54.8051
4.58384, 5, -33.5463, -1.94328, 23.2236, -159.937, -92.5319, 54.8074
4.5932, 5, -33.481, -1.97329, 23.2536, -159.928, -92.5308, 54.8096
4.59923, 5, -33.4592, -1.98833, 23.2686, -159.924, -92.5302, 54.8107
4.6083, 5, -33.3939, -2.03357, 23.3139, -159.911, -92.5282, 54.8138
4.61524, 5, -33.3723, -2.04875, 23.3291, -159.906, -92.5274, 54.8147
4.62439, 6, -33.3075, -2.0947, 23.3746, -159.893, -92.5246, 54.8169
4.63121, 6, -33.2859, -2.11019, 23.39, -159.889, -92.5234, 54.8175
4.64047, 6, -33.2212, -2.157, 23.4367, -159.875, -92.5194, 54.8184
4.65095, 6, -33.1783, -2.18869, 23.468, -159.865, -92.5161, 54.8187
4.65521, 6, -33.157, -2.20472, 23.4838, -159.861, -92.5142, 54.8188
4.6647, 6, -33.093, -2.25347, 23.5319, -159.845, -92.5081, 54.8186
4.67122, 6, -33.0718, -2.2699, 23.5481, -159.84, -92.5058, 54.8184
4.67929, 6, -33.0297, -2.30311, 23.5807, -159.829, -92.5008, 54.8178
4.68879, 6, -32.9667, -2.35404, 23.6304, -159.811, -92.4926, 54.8162
4.69759, 7, -32.9249, -2.38852, 23.664, -159.799, -92.4865, 54.8148
4.70327, 7, -32.9041, -2.40593, 23.6808, -159.792, -92.4833, 54.8141
4.71285, 7, -32.8628, -2.44107, 23.732, -159.773, -92.4731, 54.8099
4.72302, 7, -32.8011, -2.49487, 23.7667, -159.759, -92.4658, 54.8057
4.72722, 7, -32.7806, -2.51303, 23.7841, -159.753, -92.4619, 54.8032
4.7352, 7, -32.7398, -2.54972, 23.8191, -159.739, -92.4539, 54.7975
4.74323, 7, -32.6993, -2.58694, 23.8546, -159.725, -92.4454, 54.791
4.75126, 7, -32.6591, -2.62472, 23.8905, -159.711, -92.4365, 54.7837
4.75921, 7, -32.6188, -2.66282, 23.9267, -159.697, -92.427, 54.7756
4.76822, 8, -32.5789, -2.70151, 23.9633, -159.682, -92.4169, 54.7668
4.77622, 8, -32.5392, -2.74078, 24.0003, -159.666, -92.4061, 54.7573
4.78427, 8, -32.4996, -2.78047, 24.0375, -159.65, -92.3947, 54.7472
4.79142, 8, -32.4601, -2.82059, 24.0752, -159.633, -92.3825, 54.7363
4.80027, 8, -32.4209, -2.86127, 24.1133, -159.616, -92.3697, 54.7247
4.8082, 8, -32.382, -2.90244, 24.1517, -159.6, -92.3564, 54.7124
4.81523, 8, -32.3432, -2.94407, 24.1903, -159.583, -92.3429, 54.6994
4.82326, 8, -32.3045, -2.98619, 24.2296, -159.566, -92.3291, 54.6856
4.83117, 9, -32.2662, -3.02877, 24.2691, -159.548, -92.315, 54.6711
4.83939, 9, -32.2281, -3.07181, 24.3089, -159.529, -92.3005, 54.6559
4.84811, 9, -32.1902, -3.11537, 24.3491, -159.51, -92.2855, 54.6401
4.85525, 9, -32.1523, -3.1594, 24.3896, -159.491, -92.27, 54.624
4.86321, 9, -32.1147, -3.2039, 24.4306, -159.472, -92.2537, 54.6076
4.87126, 9, -32.0774, -3.24894, 24.4718, -159.452, -92.2366, 54.5908
4.87921, 9, -32.0402, -3.29453, 24.5134, -159.432, -92.2188, 54.5735
4.8886, 9, -32.0032, -3.34063, 24.5553, -159.412, -92.2008, 54.5557
4.89626, 9, -31.9663, -3.38723, 24.5976, -159.392, -92.1825, 54.5374
4.90347, 10, -31.9298, -3.43443, 24.6403, -159.37, -92.1639, 54.5182
4.91125, 10, -31.8934, -3.48215, 24.6834, -159.348, -92.1448, 54.4982
4.91942, 10, -31.8572, -3.53038, 24.7267, -159.326, -92.1251, 54.4774
4.92735, 10, -31.8211, -3.57915, 24.7706, -159.305, -92.1046, 54.4558
4.9353, 10, -31.7854, -3.62836, 24.8147, -159.283, -92.0832, 54.4341
4.94335, 10, -31.7499, -3.67811, 24.8591, -159.26, -92.0614, 54.4121
4.95136, 10, -31.7146, -3.72831, 24.9041, -159.237, -92.0395, 54.3899
4.95931, 10, -31.6793, -3.77889, 24.9493, -159.213, -92.0174, 54.3673
4.96821, 11, -31.6444, -3.83006, 24.995, -159.189, -91.995, 54.3439
4.9752, 11, -31.6097, -3.88169, 25.0409, -159.166, -91.9719, 54.3197
4.98354, 11, -31.5751, -3.93376, 25.0873, -159.142, -91.9478, 54.2947
4.99239, 11, -31.5406, -3.98637, 25.134, -159.117, -91.9231, 54.269
4.99934, 11, -31.5062, -4.03952, 25.181, -159.092, -91.8982, 54.243
5.00739, 11, -31.4722, -4.0933, 25.2284, -159.066, -91.8731, 54.217
5.01629, 11, -31.4383, -4.14751, 25.2762, -159.04, -91.8477, 54.1904
5.02352, 11, -31.4046, -4.2024, 25.3243, -159.014, -91.8213, 54.1632
5.0319, 11, -31.371, -4.25786, 25.3728, -158.988, -91.794, 54.1352
5.0422, 12, -31.3377, -4.31378, 25.4217, -158.961, -91.7664, 54.1061
5.04829, 12, -31.3045, -4.37033, 25.471, -158.933, -91.7387, 54.0766
5.05583, 12, -31.2716, -4.42738, 25.5205, -158.906, -91.7108, 54.0469
5.06452, 12, -31.2389, -4.48486, 25.5706, -158.878, -91.6823, 54.017
5.0723, 12, -31.2063, -4.54277, 25.621, -158.85, -91.6528, 53.9865
5.08001, 12, -31.1741, -4.60116, 25.6717, -158.822, -91.6228, 53.9553
5.0878, 12, -31.1581, -4.63053, 25.6972, -158.807, -91.5929, 53.923
5.0962, 12, -31.1102, -4.71925, 25.7743, -158.763, -91.5625, 53.8903
5.10321, 13, -31.0943, -4.74909, 25.8002, -158.748, -91.5471, 53.874
5.11259, 13, -31.0467, -4.83939, 25.8783, -158.704, -91.499, 53.8244
5.12304, 13, -31.0154, -4.90033, 25.9309, -158.675, -91.4666, 53.7905
5.12714, 13, -30.9998, -4.93104, 25.9573, -158.659, -91.4504, 53.7733
5.13527, 13, -30.9687, -4.99287, 26.0104, -158.628, -91.4179, 53.7381
5.14451, 13, -30.9223, -5.08673, 26.0909, -158.582, -91.3675, 53.6844
5.1512, 13, -30.9069, -5.1183, 26.1179, -158.567, -91.3503, 53.6666
5.16066, 13, -30.861, -5.21381, 26.1993, -158.519, -91.2986, 53.6121
5.16718, 13, -30.8458, -5.24587, 26.2267, -158.503, -91.2813, 53.5936
5.17768, 14, -30.8006, -5.34285, 26.3093, -158.454, -91.2281, 53.5365
5.18494, 14, -30.7707, -5.40799, 26.3648, -158.422, -91.1915, 53.4984
5.19502, 14, -30.7409, -5.47358, 26.4207, -158.389, -91.1552, 53.4603
5.20135, 14, -30.7113, -5.53971, 26.4769, -158.355, -91.1186, 53.4213
5.20794, 14, -30.6966, -5.57298, 26.5052, -158.338, -91.1, 53.4014
5.21519, 14, -30.6674, -5.63975, 26.562, -158.304, -91.0616, 53.3609
5.22419, 14, -30.6384, -5.70719, 26.6192, -158.271, -91.0231, 53.3202
5.23372, 14, -30.5951, -5.80946, 26.7057, -158.218, -90.9652, 53.2588
5.23924, 14, -30.5807, -5.84382, 26.7348, -158.201, -90.9454, 53.238
5.2473, 15, -30.5523, -5.91298, 26.7931, -158.166, -90.905, 53.1957
5.25621, 15, -30.524, -5.98264, 26.8518, -158.131, -90.865, 53.1527
5.26641, 15, -30.4958, -6.05287, 26.9405, -158.077, -90.8043, 53.0883
5.27119, 15, -30.4679, -6.12363, 26.9703, -158.058, -90.7835, 53.0664
5.27924, 15, -30.4399, -6.19479, 27.03, -158.022, -90.7415, 53.022
5.28723, 15, -30.4122, -6.26647, 27.0901, -157.985, -90.6998, 52.9767
5.29518, 15, -30.3848, -6.33861, 27.1506, -157.948, -90.6572, 52.9314
5.3033, 15, -30.3576, -6.41131, 27.2114, -157.91, -90.6134, 52.8857
5.31119, 16, -30.3306, -6.48456, 27.2727, -157.872, -90.5701, 52.839
5.31925, 16, -30.3038, -6.55832, 27.3343, -157.835, -90.5265, 52.7915
5.32717, 16, -30.277, -6.63264, 27.3964, -157.796, -90.4814, 52.7443
5.33537, 16, -30.2506, -6.70754, 27.4588, -157.757, -90.4364, 52.6966
5.3433, 16, -30.2244, -6.783, 27.5215, -157.718, -90.3914, 52.6479
5.35118, 16, -30.1982, -6.85896, 27.5847, -157.679, -90.3448, 52.5984
5.3592, 16, -30.1724, -6.93541, 27.6482, -157.639, -90.2981, 52.5492
5.36731, 16, -30.1467, -7.01235, 27.7119, -157.598, -90.2516, 52.4995
5.37518, 16, -30.1209, -7.08983, 27.7761, -157.559, -90.2038, 52.4486
5.38349, 17, -30.0954, -7.16789, 27.8407, -157.518, -90.1556, 52.3977
5.39118, 17, -30.0702, -7.2464, 27.9056, -157.476, -90.1077, 52.3468
5.39918, 17, -30.0451, -7.32548, 27.9709, -157.435, -90.0584, 52.2951
5.40732, 17, -30.0202, -7.40507, 28.0365, -157.394, -90.0087, 52.2423
5.41616, 17, -29.9955, -7.48514, 28.1026, -157.351, -89.9596, 52.1896
5.42338, 17, -29.9708, -7.56575, 28.1691, -157.309, -89.9089, 52.1367
5.43173, 17, -29.9464, -7.64685, 28.236, -157.267, -89.8582, 52.0827
5.43937, 17, -29.9222, -7.72849, 28.3032, -157.224, -89.8074, 52.0283
5.44728, 18, -29.8983, -7.81063, 28.3707, -157.18, -89.7551, 51.974
5.45634, 18, -29.8746, -7.89326, 28.4386, -157.137, -89.7031, 51.9186
5.46496, 18, -29.8511, -7.97645, 28.5068, -157.093, -89.651, 51.8625
5.4722, 18, -29.8276, -8.0601, 28.5753, -157.048, -89.5975, 51.8065
5.48004, 18, -29.8042, -8.14424, 28.6443, -157.004, -89.5445, 51.75
5.48826, 18, -29.7811, -8.22887, 28.7137, -156.959, -89.4906, 51.6925
5.49599, 18, -29.7582, -8.31409, 28.7835, -156.913, -89.4357, 51.6351
5.50537, 18, -29.7353, -8.39969, 28.8537, -156.868, -89.3814, 51.5774
5.51147, 18, -29.7127, -8.48583, 28.9242, -156.822, -89.3259, 51.5186
5.52028, 19, -29.6902, -8.57252, 28.995, -156.775, -89.2702, 51.4599
5.52749, 19, -29.6677, -8.6597, 29.0661, -156.729, -89.2143, 51.4011
5.53643, 19, -29.6454, -8.74738, 29.1376, -156.683, -89.1572, 51.3413
5.54369, 19, -29.6234, -8.83559, 29.2095, -156.635, -89.1006, 51.2815
5.55227, 19, -29.6016, -8.92427, 29.2817, -156.588, -89.0433, 51.2219
5.55975, 19, -29.5799, -9.01338, 29.3543, -156.541, -88.9855, 51.161
5.56835, 19, -29.5585, -9.10303, 29.4273, -156.492, -88.9278, 51.0996
5.57573, 19, -29.5372, -9.19324, 29.5006, -156.444, -88.8689, 51.0384
5.58516, 20, -29.5161, -9.28386, 29.5744, -156.395, -88.8104, 50.9759
5.59177, 20, -29.5055, -9.32937, 29.6114, -156.371, -88.7809, 50.9131
5.60019, 20, -29.4742, -9.46676, 29.7229, -156.296, -88.6913, 50.8502
5.60874, 20, -29.4639, -9.51273, 29.7602, -156.272, -88.6616, 50.7862
5.61624, 20, -29.4332, -9.65139, 29.8725, -156.196, -88.5707, 50.722
5.6233, 20, -29.423, -9.69789, 29.9101, -156.171, -88.5405, 50.6901
5.63323, 20, -29.3928, -9.83799, 30.0237, -156.096, -88.4488, 50.5926
5.63922, 20, -29.3829, -9.88498, 30.0617, -156.07, -88.4179, 50.5599
5.6485, 20, -29.3531, -10.0267, 30.1765, -155.993, -88.3251, 50.4622
5.65522, 21, -29.3431, -10.0741, 30.2149, -155.968, -88.2937, 50.4291
5.66321, 21, -29.3234, -10.1695, 30.292, -155.916, -88.2314, 50.3627
5.67261, 21, -29.2944, -10.3132, 30.408, -155.838, -88.1366, 50.2632
5.6811, 21, -29.2751, -10.4095, 30.4857, -155.785, -88.0735, 50.196
5.68861, 21, -29.2655, -10.4578, 30.5639, -155.732, -88.0091, 50.1291
5.69518, 21, -29.2465, -10.5548, 30.6031, -155.706, -87.9771, 50.0955
5.7049, 21, -29.2183, -10.7011, 30.7212, -155.626, -87.8805, 49.9935
5.71279, 21, -29.1996, -10.7992, 30.8005, -155.572, -87.8154, 49.9257
5.72014, 22, -29.1903, -10.8485, 30.8403, -155.545, -87.7831, 49.8914
5.72906, 22, -29.1717, -10.9473, 30.9601, -155.463, -87.6842, 49.7883
5.73876, 22, -29.1442, -11.0963, 31.0402, -155.409, -87.6186, 49.7196
5.74419, 22, -29.1352, -11.1462, 31.0804, -155.381, -87.5851, 49.6846
5.75192, 22, -29.1171, -11.2463, 31.1609, -155.325, -87.5183, 49.6148
5.75918, 22, -29.0991, -11.3469, 31.2417, -155.27, -87.4513, 49.5454
5.76716, 22, -29.0814, -11.4479, 31.323, -155.214, -87.3838, 49.4746
5.77762, 22, -29.055, -11.6004, 31.4456, -155.13, -87.2823, 49.3693
5.78327, 22, -29.0463, -11.6515, 31.4866, -155.102, -87.2482, 49.3339
5.79121, 23, -29.0288, -11.7539, 31.569, -155.044, -87.1803, 49.2624
5.79916, 23, -29.0117, -11.8567, 31.6517, -154.988, -87.1112, 49.1917
5.80732, 23, -28.9947, -11.9598, 31.7344, -154.931, -87.0428, 49.12
5.81617, 23, -28.9779, -12.0633, 31.8174, -154.872, -86.9732, 49.0485
5.82418, 23, -28.9611, -12.1673, 31.9007, -154.815, -86.9039, 48.9771
5.83224, 23, -28.9444, -12.2716, 31.9844, -154.756, -86.8336, 48.9045
5.84018, 23, -28.9279, -12.3765, 32.0685, -154.698, -86.7635, 48.8327
5.84817, 23, -28.9116, -12.4818, 32.1529, -154.639, -86.6926, 48.7602
5.85517, 23, -28.8954, -12.5873, 32.2376, -154.579, -86.6218, 48.6875
5.86329, 24, -28.8791, -12.6933, 32.3226, -154.52, -86.5502, 48.6152
5.87116, 24, -28.863, -12.7995, 32.4077, -154.46, -86.479, 48.5416
5.8793, 24, -28.847, -12.9063, 32.493, -154.4, -86.407, 48.4687
5.88815, 24, -28.8311, -13.0134, 32.5787, -154.34, -86.335, 48.3949
5.89517, 24, -28.8154, -13.1211, 32.6647, -154.279, -86.2623, 48.3208
5.90321, 24, -28.7997, -13.2292, 32.7511, -154.218, -86.1899, 48.2473
5.91123, 24, -28.7843, -13.3374, 32.8378, -154.156, -86.1168, 48.1728
5.91922, 24, -28.7691, -13.446, 32.9249, -154.095, -86.0438, 48.0988
5.92727, 25, -28.7539, -13.555, 33.0121, -154.033, -85.9699, 48.0246
5.93525, 25, -28.7388, -13.6644, 33.0994, -153.971, -85.8965, 47.9501
5.94337, 25, -28.7236, -13.7741, 33.187, -153.909, -85.8223, 47.8763
5.9521, 25, -28.7086, -13.8843, 33.2749, -153.846, -85.7483, 47.8015
5.95971, 25, -28.6936, -13.9947, 33.3632, -153.783, -85.6734, 47.7273
5.96734, 25, -28.6787, -14.1053, 33.4518, -153.719, -85.599, 47.6529
5.97598, 25, -28.6641, -14.2163, 33.5407, -153.656, -85.524, 47.5784
5.98418, 25, -28.6494, -14.3276, 33.6298, -153.592, -85.449, 47.5043
5.99129, 25, -28.6349, -14.4393, 33.719, -153.528, -85.3734, 47.4292
6.00033, 26, -28.6206, -14.5513, 33.8082, -153.463, -85.2983, 47.3549
6.00732, 26, -28.6064, -14.6637, 33.8978, -153.399, -85.2224, 47.2802
6.01542, 26, -28.5924, -14.7764, 33.9877, -153.334, -85.1466, 47.2054
6.02378, 26, -28.5783, -14.8892, 34.0779, -153.269, -85.0701, 47.1312
6.03245, 26, -28.5641, -15.0022, 34.1684, -153.203, -84.9941, 47.0563
6.03953, 26, -28.5502, -15.1157, 34.2592, -153.137, -84.9173, 46.9822
6.0489, 26, -28.5362, -15.2293, 34.35, -153.072, -84.8406, 46.9078
6.05626, 26, -28.5224, -15.3432, 34.4409, -153.005, -84.7635, 46.8337
6.06378, 27, -28.5086, -15.4575, 34.532, -152.939, -84.6868, 46.7603
6.07328, 27, -28.4949, -15.5718, 34.6234, -152.872, -84.6094, 46.6858
6.07989, 27, -28.4812, -15.6865, 34.715, -152.805, -84.532, 46.6123
6.08871, 27, -28.4676, -15.8015, 34.8068, -152.738, -84.4544, 46.5382
6.09677, 27, -28.4609, -15.8591, 34.8529, -152.704, -84.4157, 46.501
6.10422, 27, -28.4407, -16.0326, 34.9912, -152.602, -84.2988, 46.391
6.11124, 27, -28.434, -16.0906, 35.0373, -152.568, -84.2598, 46.3538
6.11915, 27, -28.4206, -16.2067, 35.1295, -152.5, -84.1815, 46.2799
6.12834, 27, -28.4005, -16.381, 35.2682, -152.398, -84.064, 46.1698
6.13515, 28, -28.3939, -16.4393, 35.3146, -152.363, -84.0248, 46.133
6.1432, 28, -28.3807, -16.5559, 35.4075, -152.294, -83.9463, 46.0604
6.15314, 28, -28.3609, -16.7313, 35.5475, -152.191, -83.8287, 45.9509
6.16052, 28, -28.3477, -16.8485, 35.641, -152.122, -83.7496, 45.8789
6.16721, 28, -28.3411, -16.9071, 35.6876, -152.087, -83.7103, 45.843
6.17515, 28, -28.3278, -17.0244, 35.781, -152.017, -83.6312, 45.7705
6.18479, 28, -28.3082, -17.2005, 35.9214, -151.912, -83.5129, 45.6635
6.19495, 28, -28.2951, -17.3182, 36.0151, -151.841, -83.4337, 45.592
6.20074, 29, -28.2821, -17.4362, 36.1092, -151.771, -83.3543, 45.5213
6.20876, 29, -28.269, -17.5545, 36.2035, -151.7, -83.275, 45.451
6.21676, 29, -28.2624, -17.6138, 36.2507, -151.629, -83.1953, 45.3805
6.2266, 29, -28.2427, -17.7916, 36.3921, -151.558, -83.1157, 45.3112
6.23114, 29, -28.2362, -17.8508, 36.4392, -151.522, -83.0757, 45.2765
6.24016, 29, -28.2232, -17.9695, 36.5335, -151.45, -82.996, 45.2067
6.24823, 29, -28.2103, -18.0884, 36.6279, -151.379, -82.9162, 45.1383
6.25516, 29, -28.1974, -18.2074, 36.7227, -151.307, -82.8364, 45.0699
6.26321, 29, -28.1845, -18.3267, 36.8176, -151.235, -82.7562, 45.0017
6.27114, 30, -28.1715, -18.446, 36.9127, -151.162, -82.6767, 44.9348
6.27917, 30, -28.1587, -18.5652, 37.0078, -151.09, -82.5965, 44.8677
6.28716, 30, -28.1459, -18.6846, 37.1026, -151.017, -82.5166, 44.801
6.29541, 30, -28.1329, -18.804, 37.1975, -150.944, -82.4363, 44.7356
6.30426, 30, -28.1199, -18.9236, 37.2925, -150.87, -82.3564, 44.6699
6.31216, 30, -28.1068, -19.0435, 37.3877, -150.797, -82.276, 44.6053
6.32015, 30, -28.0936, -19.1636, 37.4831, -150.724, -82.1956, 44.5416
6.32822, 30, -28.0805, -19.2835, 37.5786, -150.65, -82.1154, 44.4777
6.33611, 31, -28.0674, -19.4033, 37.674, -150.576, -82.0351, 44.4148
6.34422, 31, -28.0543, -19.5233, 37.7691, -150.502, -81.9549, 44.3528
6.35223, 31, -28.0412, -19.6433, 37.8643, -150.428, -81.8745, 44.2908
6.36017, 31, -28.0281, -19.7634, 37.9596, -150.354, -81.7946, 44.23
6.36838, 31, -28.0148, -19.8835, 38.0552, -150.279, -81.7142, 44.17
6.37696, 31, -28.0017, -20.0035, 38.1509, -150.204, -81.634, 44.1098
6.38321, 31, -27.9885, -20.1235, 38.2466, -150.129, -81.5536, 44.0508
6.39173, 31, -27.9751, -20.2435, 38.3422, -150.054, -81.4735, 43.9927
6.39915, 31, -27.9617, -20.3637, 38.4375, -149.979, -81.3932, 43.9345
6.40716, 32, -27.948, -20.484, 38.5327, -149.903, -81.3128, 43.8774
6.41618, 32, -27.9343, -20.6044, 38.6281, -149.828, -81.2329, 43.8215
6.42409, 32, -27.9206, -20.7248, 38.7235, -149.752, -81.1528, 43.766
6.43219, 32, -27.9069, -20.845, 38.8191, -149.677, -81.073, 43.711
6.44, 32, -27.8931, -20.9652, 38.9147, -149.601, -80.9927, 43.6577
6.44815, 32, -27.8793, -21.0854, 39.01, -149.525, -80.9131, 43.6049
6.45571, 32, -27.8653, -21.2055, 39.1052, -149.449, -80.8329, 43.5526
6.46525, 32, -27.8513, -21.3257, 39.2002, -149.372, -80.7531, 43.5016
6.47216, 32, -27.8373, -21.4456, 39.2953, -149.296, -80.6732, 43.452
6.47975, 33, -27.8231, -21.5654, 39.3906, -149.22, -80.5937, 43.403
6.48917, 33, -27.8088, -21.6852, 39.4858, -149.143, -80.514, 43.3545
6.497, 33, -27.7943, -21.8049, 39.5811, -149.066, -80.4342, 43.3077
6.50325, 33, -27.7795, -21.9247, 39.6761, -148.989, -80.3551, 43.2621
6.51127, 33, -27.7648, -22.0444, 39.7708, -148.913, -80.2757, 43.2171
6.51941, 33, -27.75, -22.1641, 39.8653, -148.836, -80.1965, 43.1727
6.52746, 33, -27.7351, -22.2836, 39.9599, -148.759, -80.1172, 43.1299
6.53547, 33, -27.7201, -22.403, 40.0545, -148.681, -80.0384, 43.0885
6.54424, 34, -27.705, -22.5224, 40.1491, -148.604, -79.9594, 43.0481
6.55164, 34, -27.6899, -22.6416, 40.2436, -148.527, -79.8804, 43.0082
6.56026, 34, -27.6748, -22.7608, 40.3379, -148.45, -79.8014, 42.9692
6.57162, 34, -27.6595, -22.8799, 40.4319, -148.334, -79.6831, 42.9141
6.57571, 34, -27.644, -22.9985, 40.5257, -148.295, -79.6437, 42.8964
6.5843, 34, -27.6282, -23.117, 40.6194, -148.217, -79.5646, 42.8618
6.59258, 34, -27.6203, -23.2353, 40.7132, -148.139, -79.4861, 42.8279
6.59966, 34, -27.6042, -23.2945, 40.76, -148.1, -79.4467, 42.8113
6.60817, 34, -27.5799, -23.4721, 40.9006, -147.984, -79.3289, 42.7638
6.6151, 35, -27.5718, -23.5312, 40.9473, -147.945, -79.2894, 42.749
6.62315, 35, -27.5553, -23.6494, 41.0404, -147.867, -79.2111, 42.7203
6.63224, 35, -27.5305, -23.8259, 41.1795, -147.75, -79.0935, 42.68
6.6393, 35, -27.5222, -23.8847, 41.2258, -147.711, -79.0546, 42.6671
6.64934, 35, -27.4971, -24.0606, 41.3646, -147.594, -78.9372, 42.6299
6.65518, 35, -27.4886, -24.1192, 41.4108, -147.555, -78.8984, 42.6181
6.66462, 35, -27.4626, -24.2946, 41.5495, -147.438, -78.7814, 42.5854
6.67113, 35, -27.4538, -24.353, 41.5956, -147.399, -78.7426, 42.5753
6.68063, 36, -27.4273, -24.5274, 41.7332, -147.282, -78.6259, 42.5477
6.68716, 36, -27.4184, -24.5854, 41.7789, -147.243, -78.5873, 42.5393
6.69672, 36, -27.391, -24.7592, 41.9157, -147.126, -78.4712, 42.5165
6.7056, 36, -27.3726, -24.875, 42.0067, -147.048, -78.3938, 42.5032
6.71131, 36, -27.3633, -24.9329, 42.0522, -147.009, -78.3554, 42.4971
6.71993, 36, -27.3446, -25.0486, 42.143, -146.931, -78.2787, 42.486
6.72717, 36, -27.3257, -25.164, 42.2337, -146.853, -78.2019, 42.4766
6.73619, 36, -27.3064, -25.2789, 42.3239, -146.775, -78.1253, 42.4686
6.74414, 36, -27.2869, -25.3935, 42.4137, -146.697, -78.0487, 42.4621
6.75218, 37, -27.2674, -25.5079, 42.5031, -146.619, -77.9724, 42.4574
6.75933, 37, -27.2476, -25.6219, 42.5925, -146.541, -77.8963, 42.4543
6.76799, 37, -27.2275, -25.7357, 42.6816, -146.463, -77.82, 42.4527
6.77514, 37, -27.2072, -25.849, 42.7706, -146.385, -77.7444, 42.452
6.78321, 37, -27.1867, -25.9619, 42.8594, -146.308, -77.6686, 42.4518
6.79113, 37, -27.1659, -26.0745, 42.9478, -146.23, -77.5933, 42.4524
6.7992, 37, -27.1447, -26.1867, 43.0357, -146.153, -77.5175, 42.4549
6.80807, 37, -27.1232, -26.2987, 43.1232, -146.075, -77.4425, 42.4604
6.81535, 38, -27.1017, -26.4106, 43.2104, -145.998, -77.3671, 42.4682
6.82314, 38, -27.0798, -26.5222, 43.2974, -145.921, -77.2924, 42.4783
6.83218, 38, -27.0576, -26.6334, 43.3841, -145.844, -77.2171, 42.4906
6.8401, 38, -27.0352, -26.7442, 43.4705, -145.767, -77.1429, 42.5049
6.84714, 38, -27.0125, -26.8546, 43.5566, -145.69, -77.0678, 42.5213
6.85591, 38, -26.9895, -26.9647, 43.6423, -145.613, -76.9936, 42.5397
6.86422, 38, -26.9661, -27.0742, 43.7274, -145.536, -76.919, 42.5603
6.87214, 38, -26.9425, -27.1834, 43.8122, -145.46, -76.8453, 42.5835
6.88104, 38, -26.9186, -27.2922, 43.8967, -145.384, -76.7712, 42.609
6.88813, 39, -26.8944, -27.4004, 43.9808, -145.308, -76.6976, 42.6369
6.8952, 39, -26.8698, -27.5082, 44.0646, -145.232, -76.6235, 42.667
6.90314, 39, -26.8447, -27.6156, 44.1481, -145.156, -76.5504, 42.6987
6.91151, 39, -26.8193, -27.7227, 44.2312, -145.08, -76.4767, 42.7327
6.9202, 39, -26.7937, -27.8295, 44.3137, -145.005, -76.4037, 42.7689
6.9272, 39, -26.7678, -27.936, 44.3958, -144.929, -76.3301, 42.808
6.93615, 39, -26.7415, -28.042, 44.4773, -144.855, -76.2572, 42.849
6.94323, 39, -26.715, -28.1475, 44.5585, -144.78, -76.1839, 42.8918
6.95124, 39, -26.6879, -28.2524, 44.6392, -144.705, -76.1111, 42.9369
6.96017, 40, -26.6604, -28.3568, 44.7196, -144.631, -76.0381, 42.985
6.96729, 40, -26.6327, -28.4608, 44.7995, -144.557, -75.9659, 43.0352
6.9752, 40, -26.6046, -28.5641, 44.8791, -144.483, -75.8931, 43.0871
6.98345, 40, -26.576, -28.667, 44.9582, -144.41, -75.821, 43.1414
6.99219, 40, -26.5471, -28.7693, 45.0366, -144.337, -75.7485, 43.1986
6.99918, 40, -26.5176, -28.8709, 45.1144, -144.264, -75.6769, 43.2575
7.00728, 40, -26.4877, -28.972, 45.1918, -144.192, -75.6047, 43.319
7.01544, 40, -26.4576, -29.0726, 45.2687, -144.119, -75.5332, 43.3835
7.02337, 41, -26.4268, -29.1728, 45.345, -144.048, -75.461, 43.4495
7.03186, 41, -26.3957, -29.2725, 45.4208, -143.976, -75.3901, 43.5182
7.0405, 41, -26.364, -29.3718, 45.4961, -143.905, -75.3184, 43.5898
7.04829, 41, -26.3319, -29.4705, 45.5709, -143.834, -75.2476, 43.6629
7.05569, 41, -26.2995, -29.5686, 45.6451, -143.764, -75.1762, 43.7394
7.06428, 41, -26.2666, -29.6661, 45.7185, -143.694, -75.1059, 43.8177
7.07251, 41, -26.2333, -29.7628, 45.7914, -143.625, -75.035, 43.8989
7.07972, 41, -26.1994, -29.8588, 45.8636, -143.556, -74.9649, 43.983
7.08823, 41, -26.1649, -29.9542, 45.9354, -143.487, -74.8941, 44.0692
7.09668, 42, -26.1301, -30.0489, 46.0066, -143.419, -74.8244, 44.1588
7.104, 42, -26.1125, -30.096, 46.0772, -143.351, -74.7542, 44.2499
7.11113, 42, -26.0768, -30.1898, 46.1122, -143.318, -74.7193, 44.297
7.12017, 42, -26.0222, -30.3292, 46.2165, -143.218, -74.6145, 44.4411
7.12713, 42, -26.0037, -30.3753, 46.2509, -143.185, -74.5796, 44.4907
7.13626, 42, -25.9478, -30.5126, 46.3529, -143.086, -74.4755, 44.6428
7.14312, 42, -25.9288, -30.5579, 46.3865, -143.054, -74.4408, 44.6951
7.15238, 42, -25.8709, -30.6931, 46.4863, -142.957, -74.3369, 44.8555
7.15915, 43, -25.8514, -30.7378, 46.5193, -142.925, -74.3022, 44.9105
7.16858, 43, -25.7918, -30.8708, 46.6171, -142.831, -74.1992, 45.0798
7.17528, 43, -25.7716, -30.9148, 46.6494, -142.8, -74.1645, 45.1376
7.18537, 43, -25.7309, -31.0455, 46.745, -142.708, -74.062, 45.3154
7.19114, 43, -25.6896, -31.0886, 46.7765, -142.677, -74.0274, 45.376
7.20072, 43, -25.6267, -31.2167, 46.8698, -142.587, -73.9256, 45.562
7.20965, 43, -25.5838, -31.3011, 46.9311, -142.527, -73.8571, 45.6892
7.21672, 43, -25.5402, -31.3847, 46.9915, -142.469, -73.7896, 45.8193
7.22492, 43, -25.5181, -31.4261, 47.0214, -142.44, -73.7213, 45.952
7.23119, 44, -25.4736, -31.5083, 47.0805, -142.382, -73.6878, 46.0194
7.23912, 44, -25.4284, -31.5896, 47.1388, -142.326, -73.6204, 46.1565
7.24827, 44, -25.3825, -31.67, 47.1961, -142.27, -73.5529, 46.2965
7.25527, 44, -25.3361, -31.7496, 47.2527, -142.215, -73.486, 46.4394
7.2654, 44, -25.2651, -31.8673, 47.3358, -142.135, -73.3857, 46.6597
7.27191, 44, -25.241, -31.906, 47.3631, -142.108, -73.3525, 46.7344
7.27911, 44, -25.1924, -31.9827, 47.417, -142.056, -73.2857, 46.8861
7.28726, 44, -25.1431, -32.0584, 47.4699, -142.006, -73.2197, 47.0411
7.29788, 45, -25.0676, -32.1699, 47.5474, -141.931, -73.1203, 47.2793
7.30412, 45, -25.0421, -32.2066, 47.5728, -141.907, -73.0877, 47.3602
7.31111, 45, -24.9906, -32.2792, 47.6228, -141.859, -73.0221, 47.5243
7.31912, 45, -24.9383, -32.3506, 47.6718, -141.812, -72.9568, 47.6915
7.32726, 45, -24.8852, -32.4211, 47.7197, -141.766, -72.892, 47.8617
7.33612, 45, -24.8313, -32.4903, 47.7666, -141.722, -72.8269, 48.0346
7.34496, 45, -24.7765, -32.5586, 47.8122, -141.678, -72.7628, 48.2109
7.35112, 45, -24.721, -32.6257, 47.8569, -141.636, -72.6981, 48.3902
7.35913, 45, -24.6647, -32.6915, 47.9006, -141.595, -72.6345, 48.5726
7.36718, 46, -24.6075, -32.7563, 47.9431, -141.555, -72.5703, 48.7578
7.37529, 46, -24.5495, -32.8197, 47.9845, -141.516, -72.5073, 48.946
7.38317, 46, -24.4906, -32.8817, 48.0247, -141.479, -72.4441, 49.137
7.39112, 46, -24.4309, -32.9425, 48.0638, -141.444, -72.3813, 49.3313
7.39912, 46, -24.3704, -33.0019, 48.1018, -141.409, -72.3188, 49.5289
7.40718, 46, -24.309, -33.06, 48.1384, -141.376, -72.2562, 49.7296
7.41531, 46, -24.2468, -33.1169, 48.1738, -141.344, -72.195, 49.9332
7.42327, 46, -24.1837, -33.1723, 48.2081, -141.314, -72.133, 50.1397
7.43121, 46, -24.1196, -33.2265, 48.241, -141.285, -72.0723, 50.349
7.43945, 47, -24.0547, -33.2792, 48.2726, -141.258, -72.0114, 50.5613
7.44736, 47, -23.9887, -33.3306, 48.303, -141.232, -71.951, 50.7768
7.45609, 47, -23.9219, -33.3806, 48.3318, -141.207, -71.8916, 50.9953
7.46328, 47, -23.8541, -33.4289, 48.3593, -141.185, -71.8316, 51.2167
7.47127, 47, -23.7853, -33.4757, 48.3855, -141.165, -71.7731, 51.4411
7.47912, 47, -23.7156, -33.5208, 48.4103, -141.146, -71.7142, 51.6689
7.48719, 47, -23.645, -33.5643, 48.4337, -141.128, -71.6562, 51.8995
7.49516, 47, -23.5734, -33.6061, 48.4557, -141.112, -71.5991, 52.1333
7.5032, 48, -23.5009, -33.6463, 48.4764, -141.098, -71.5418, 52.3699
7.51131, 48, -23.4274, -33.6848, 48.4953, -141.085, -71.4859, 52.6094
7.51961, 48, -23.3529, -33.7217, 48.5128, -141.074, -71.43, 52.8519
7.52833, 48, -23.2775, -33.7569, 48.529, -141.065, -71.3748, 53.0976
7.53547, 48, -23.2011, -33.7904, 48.5435, -141.058, -71.3208, 53.346
7.54351, 48, -23.1237, -33.822, 48.5562, -141.053, -71.2667, 53.5973
7.55229, 48, -23.0452, -33.8519, 48.5676, -141.049, -71.2136, 53.8521
7.55963, 48, -22.9657, -33.88, 48.5774, -141.048, -71.1615, 54.1097
7.56821, 48, -22.8853, -33.906, 48.5855, -141.047, -71.1092, 54.3701
7.5765, 49, -22.8038, -33.9301, 48.592, -141.048, -71.0584, 54.633
7.58369, 49, -22.7212, -33.952, 48.5968, -141.052, -71.0084, 54.8987
7.5924, 49, -22.6377, -33.9721, 48.5998, -141.058, -70.9585, 55.1675
7.60102, 49, -22.5532, -33.9903, 48.6013, -141.065, -70.9102, 55.439
7.6083, 49, -22.4677, -34.0061, 48.6015, -141.076, -70.8626, 55.7132
7.61512, 49, -22.4246, -34.0131, 48.6011, -141.082, -70.8387, 55.8514
7.62416, 49, -22.2936, -34.0313, 48.5971, -141.103, -70.7695, 56.2704
7.6311, 49, -22.2495, -34.0363, 48.595, -141.112, -70.7472, 56.4114
7.64102, 50, -22.1153, -34.0485, 48.5857, -141.14, -70.6807, 56.8381
7.64832, 50, -22.0247, -34.0538, 48.5771, -141.162, -70.638, 57.1259
7.65516, 50, -21.9791, -34.0555, 48.5721, -141.173, -70.6171, 57.2709
7.66703, 50, -21.8407, -34.0578, 48.5538, -141.21, -70.5556, 57.7098
7.67124, 50, -21.7939, -34.0576, 48.5469, -141.224, -70.5354, 57.8574
7.67907, 50, -21.6996, -34.0554, 48.5316, -141.254, -70.4964, 58.1545
7.6894, 50, -21.556, -34.0476, 48.5047, -141.302, -70.4408, 58.6053
7.69507, 50, -21.5077, -34.0437, 48.4947, -141.319, -70.4227, 58.7567
7.70317, 50, -21.4103, -34.034, 48.4734, -141.354, -70.3869, 59.0613
7.71349, 51, -21.2626, -34.0147, 48.4373, -141.413, -70.3365, 59.5227
7.71926, 51, -21.2129, -34.0072, 48.4242, -141.434, -70.3205, 59.6777
7.72715, 51, -21.1128, -33.9903, 48.3965, -141.476, -70.2895, 59.9896
7.7367, 51, -21.0117, -33.9704, 48.3667, -141.521, -70.2592, 60.3038
7.74416, 51, -20.9095, -33.9478, 48.335, -141.569, -70.2303, 60.6207
7.7521, 51, -20.8061, -33.9225, 48.3012, -141.618, -70.2034, 60.9398
7.76016, 51, -20.7017, -33.8943, 48.2652, -141.671, -70.1783, 61.2608
7.76817, 51, -20.5965, -33.8635, 48.2271, -141.725, -70.1548, 61.5842
7.77608, 52, -20.4904, -33.8296, 48.1868, -141.781, -70.1329, 61.9101
7.78412, 52, -20.3835, -33.7929, 48.1444, -141.84, -70.1123, 62.238
7.7913, 52, -20.2757, -33.7536, 48.0999, -141.901, -70.0931, 62.5681
7.80013, 52, -20.1669, -33.7113, 48.0531, -141.964, -70.0758, 62.9006
7.80714, 52, -20.0571, -33.6659, 48.0042, -142.03, -70.0605, 63.2348
7.81513, 52, -19.9464, -33.6177, 47.953, -142.098, -70.0472, 63.5706
7.82316, 52, -19.8348, -33.5665, 47.8996, -142.168, -70.036, 63.9087
7.83111, 52, -19.7223, -33.5122, 47.8439, -142.24, -70.0267, 64.2486
7.84013, 52, -19.6092, -33.4549, 47.7861, -142.314, -70.0194, 64.5901
7.84812, 53, -19.4955, -33.3946, 47.7261, -142.39, -70.0141, 64.9338
7.85513, 53, -19.3809, -33.3312, 47.6637, -142.469, -70.0109, 65.2793
7.86415, 53, -19.2654, -33.2646, 47.5992, -142.55, -70.0094, 65.6261
7.87128, 53, -19.1492, -33.195, 47.5324, -142.633, -70.0095, 65.9745
7.8801, 53, -19.0321, -33.1222, 47.4633, -142.718, -70.0113, 66.3248
7.88787, 53, -18.9143, -33.0463, 47.3919, -142.806, -70.0156, 66.6768
7.89614, 53, -18.7957, -32.9672, 47.3181, -142.895, -70.0221, 67.0302
7.90313, 53, -18.6766, -32.8847, 47.2421, -142.986, -70.031, 67.3853
7.91344, 54, -18.5567, -32.799, 47.1636, -143.079, -70.0426, 67.7415
7.91929, 54, -18.436, -32.71, 47.0828, -143.174, -70.0567, 68.0988
7.92715, 54, -18.3147, -32.6177, 46.9999, -143.271, -70.0736, 68.4577
7.9352, 54, -18.1926, -32.5221, 46.9148, -143.37, -70.0935, 68.8177
7.94343, 54, -18.0701, -32.4234, 46.8273, -143.471, -70.1164, 69.1789
7.95216, 54, -17.9469, -32.3212, 46.7375, -143.574, -70.1415, 69.5416
7.9592, 54, -17.8232, -32.2156, 46.6454, -143.678, -70.169, 69.9051
7.96727, 54, -17.6991, -32.1066, 46.5508, -143.784, -70.199, 70.2693
7.97527, 54, -17.5745, -31.9942, 46.4538, -143.892, -70.2323, 70.635
7.98313, 55, -17.4493, -31.8784, 46.3547, -144.001, -70.2689, 71.0017
7.99148, 55, -17.3237, -31.7594, 46.2535, -144.112, -70.3076, 71.369
8.00016, 55, -17.1977, -31.6369, 46.1501, -144.225, -70.3489, 71.7377
8.00799, 55, -17.0711, -31.5109, 46.0443, -144.339, -70.394, 72.1066
8.01611, 55, -16.9442, -31.3812, 45.9361, -144.455, -70.4416, 72.4759
8.02326, 55, -16.8169, -31.2481, 45.8253, -144.572, -70.4913, 72.8463
8.03232, 55, -16.6892, -31.1118, 45.7124, -144.69, -70.5453, 73.217
8.03944, 55, -16.5613, -30.9723, 45.5975, -144.81, -70.6016, 73.5882
8.04752, 55, -16.4332, -30.8292, 45.4804, -144.931, -70.6608, 73.96
8.05638, 56, -16.305, -30.6826, 45.3611, -145.053, -70.7236, 74.332
8.06391, 56, -16.1766, -30.5326, 45.2395, -145.176, -70.7885, 74.704
8.07169, 56, -16.0478, -30.3793, 45.1154, -145.3, -70.8576, 75.0766
8.08031, 56, -15.9189, -30.2229, 44.9893, -145.425, -70.9291, 75.4494
8.0877, 56, -15.79, -30.0631, 44.8612, -145.551, -71.0043, 75.8222
8.0962, 56, -15.6609, -29.8994, 44.7311, -145.679, -71.0822, 76.1956
8.10373, 56, -15.5963, -29.8163, 44.6652, -145.743, -71.1637, 76.5686
8.11213, 56, -15.4021, -29.5624, 44.4643, -145.935, -71.2482, 76.9412
8.1191, 57, -15.3373, -29.4764, 44.3963, -146, -71.2915, 77.1275
8.12849, 57, -15.143, -29.2127, 44.1891, -146.194, -71.4265, 77.6862
8.13523, 57, -15.0783, -29.1229, 44.119, -146.259, -71.4731, 77.8722
8.14538, 57, -14.9489, -28.8491, 43.906, -146.455, -71.6176, 78.4302
8.15109, 57, -14.8196, -28.7567, 43.834, -146.521, -71.6675, 78.6159
8.16038, 57, -14.6257, -28.4748, 43.6154, -146.718, -71.8222, 79.172
8.16715, 57, -14.561, -28.3789, 43.5416, -146.784, -71.8753, 79.3573
8.1751, 57, -14.4319, -28.1844, 43.3923, -146.916, -71.984, 79.7276
8.18457, 57, -14.2387, -27.8877, 43.1648, -147.114, -72.1533, 80.2814
8.19108, 58, -14.1744, -27.7874, 43.0881, -147.18, -72.2111, 80.466
8.19914, 58, -14.0459, -27.5838, 42.9337, -147.313, -72.3295, 80.8342
8.20907, 58, -13.8538, -27.273, 42.6986, -147.511, -72.5129, 81.384
8.21523, 58, -13.79, -27.1682, 42.6193, -147.577, -72.5757, 81.567
8.22493, 58, -13.6625, -26.9562, 42.4593, -147.775, -72.7691, 82.1143
8.23191, 58, -13.5353, -26.7406, 42.2981, -147.841, -72.8351, 82.2961
8.23909, 58, -13.4086, -26.5224, 42.1355, -147.972, -72.9698, 82.6591
8.24814, 58, -13.2823, -26.3011, 41.9709, -148.103, -73.1072, 83.0209
8.25764, 59, -13.0934, -25.9626, 41.7211, -148.299, -73.3195, 83.5606
8.26318, 59, -13.0306, -25.8484, 41.6374, -148.364, -73.3916, 83.74
8.2711, 59, -12.9054, -25.6184, 41.4691, -148.494, -73.5384, 84.0979
8.27909, 59, -12.7808, -25.3854, 41.299, -148.623, -73.6881, 84.454
8.29346, 59, -12.5951, -25.0314, 40.9546, -148.879, -73.9967, 85.1623
8.29503, 59, -12.5334, -24.9123, 40.9546, -148.879, -73.9967, 85.1623
8.30408, 59, -12.4105, -24.6718, 40.7811, -149.006, -74.1556, 85.5139
8.31417, 59, -12.2267, -24.3068, 40.5174, -149.194, -74.3992, 86.0375
8.31914, 59, -12.1657, -24.1843, 40.4289, -149.257, -74.4819, 86.2112
8.32708, 60, -12.0442, -23.9369, 40.2517, -149.381, -74.6492, 86.5572
8.33622, 60, -11.9236, -23.6871, 40.0737, -149.503, -74.8193, 86.9008
8.34321, 60, -11.8035, -23.4352, 39.8941, -149.625, -74.9921, 87.2431
8.35109, 60, -11.6842, -23.1802, 39.7136, -149.746, -75.1674, 87.5829
8.36008, 60, -11.5657, -22.9232, 39.533, -149.865, -75.3454, 87.9204
8.36817, 60, -11.4477, -22.6651, 39.3516, -149.983, -75.526, 88.2559
8.37712, 60, -11.3304, -22.4049, 39.1686, -150.1, -75.7091, 88.5894
8.3862, 60, -11.1558, -22.0119, 38.8933, -150.273, -75.9881, 89.0848
8.39129, 61, -11.098, -21.88, 38.8014, -150.33, -76.0822, 89.2488
8.39908, 61, -10.9831, -21.6141, 38.6167, -150.442, -76.2722, 89.5753
8.40897, 61, -10.869, -21.347, 38.4312, -150.553, -76.4645, 89.8989
8.41636, 61, -10.7557, -21.0784, 38.246, -150.663, -76.659, 90.2196
8.42309, 61, -10.6433, -20.8079, 38.0608, -150.771, -76.8558, 90.5377
8.43208, 61, -10.5317, -20.5366, 37.8745, -150.877, -77.0547, 90.8533
8.43936, 61, -10.4209, -20.2633, 37.6879, -150.982, -77.2556, 91.1658
8.44717, 61, -10.3109, -19.9882, 37.5016, -151.085, -77.4585, 91.4756
8.45518, 61, -10.2019, -19.7126, 37.3148, -151.186, -77.6632, 91.7826
8.46351, 62, -10.0939, -19.4356, 37.1275, -151.286, -77.8695, 92.0863
8.47127, 62, -9.98683, -19.1577, 36.9409, -151.383, -78.0775, 92.3866
8.47944, 62, -9.88055, -18.8789, 36.7548, -151.479, -78.2871, 92.684
8.48805, 62, -9.7753, -18.5986, 36.5681, -151.574, -78.4982, 92.9784
8.49517, 62, -9.67113, -18.3183, 36.3811, -151.666, -78.7104, 93.2696
8.50311, 62, -9.56774, -18.0378, 36.1949, -151.756, -78.9243, 93.5571
8.51122, 62, -9.465, -17.7569, 36.0088, -151.844, -79.1395, 93.8418
8.51924, 62, -9.36317, -17.4757, 35.8224, -151.931, -79.3559, 94.1231
8.52768, 62, -9.26233, -17.1933, 35.637, -152.016, -79.5736, 94.4006
8.53617, 63, -9.16248, -16.9106, 35.4526, -152.098, -79.7925, 94.6743
8.54338, 63, -9.06362, -16.6276, 35.268, -152.179, -80.0125, 94.9442
8.55386, 63, -8.9656, -16.3441, 35.0834, -152.257, -80.2335, 95.2106
8.5603, 63, -8.86858, -16.0609, 34.9001, -152.334, -80.4554, 95.4732
8.56758, 63, -8.77251, -15.777, 34.7177, -152.408, -80.6784, 95.7317
8.5764, 63, -8.67745, -15.493, 34.5354, -152.481, -80.9019, 95.9864
8.5836, 63, -8.58345, -15.2099, 34.354, -152.552, -81.126, 96.2373
8.5922, 63, -8.49035, -14.9267, 34.174, -152.62, -81.3506, 96.4839
8.60046, 64, -8.39838, -14.6441, 33.9945, -152.686, -81.5758, 96.7262
8.60794, 64, -8.35283, -14.3611, 33.8152, -152.751, -81.8014, 96.9642
8.61506, 64, -8.26254, -14.2193, 33.726, -152.782, -81.9143, 97.0817
8.62412, 64, -8.12889, -13.7956, 33.461, -152.873, -82.2534, 97.4279
8.63107, 64, -8.08472, -13.6548, 33.3731, -152.902, -82.3666, 97.541
8.64016, 64, -7.95324, -13.2336, 33.1097, -152.987, -82.7067, 97.8736
8.64715, 64, -7.90991, -13.0938, 33.0226, -153.014, -82.8201, 97.9822
8.6563, 64, -7.7813, -12.6742, 32.7639, -153.093, -83.1605, 98.3014
8.66311, 64, -7.73886, -12.5348, 32.678, -153.118, -83.2741, 98.4056
8.67107, 65, -7.65487, -12.257, 32.5066, -153.166, -83.5012, 98.6104
8.68088, 65, -7.53076, -11.8413, 32.2527, -153.235, -83.8419, 98.9085
8.6871, 65, -7.48994, -11.7033, 32.1689, -153.257, -83.9552, 99.0053
8.69511, 65, -7.40912, -11.4277, 32.0019, -153.299, -84.1821, 99.1952
8.70469, 65, -7.28965, -11.015, 31.7531, -153.359, -84.5218, 99.4707
8.71362, 65, -7.21128, -10.7419, 31.5897, -153.396, -84.748, 99.6484
8.71913, 65, -7.17241, -10.6056, 31.5086, -153.414, -84.8609, 99.7352
8.72878, 65, -7.0952, -10.3338, 31.347, -153.465, -85.1992, 99.9879
8.73749, 66, -7.01911, -10.0635, 31.1865, -153.497, -85.4242, 100.149
8.74306, 66, -6.94384, -9.79365, 31.0279, -153.511, -85.5363, 100.228
8.75291, 66, -6.86935, -9.5254, 30.8709, -153.539, -85.8726, 100.456
8.76194, 66, -6.7593, -9.12633, 30.6376, -153.578, -86.0962, 100.602
8.76805, 66, -6.72296, -8.99391, 30.5605, -153.589, -86.2076, 100.672
8.77607, 66, -6.65096, -8.73077, 30.4077, -153.612, -86.4302, 100.809
8.78415, 66, -6.57973, -8.46904, 30.2567, -153.633, -86.6521, 100.94
8.79106, 66, -6.5094, -8.20816, 30.1071, -153.651, -86.8735, 101.065
8.8015, 66, -6.40564, -7.82052, 29.8853, -153.676, -87.2043, 101.242
8.80805, 67, -6.37149, -7.69198, 29.8122, -153.683, -87.3142, 101.298
8.81512, 67, -6.30384, -7.43583, 29.6673, -153.695, -87.5337, 101.405
8.82306, 67, -6.23705, -7.18177, 29.5241, -153.706, -87.7525, 101.507
8.83279, 67, -6.17106, -6.92894, 29.3824, -153.714, -87.9706, 101.601
8.83906, 67, -6.10593, -6.67729, 29.2422, -153.721, -88.1877, 101.691
8.84708, 67, -6.04158, -6.42804, 29.1037, -153.727, -88.4041, 101.773
8.85605, 67, -5.97798, -6.18052, 28.967, -153.73, -88.6196, 101.85
8.86413, 67, -5.91514, -5.93445, 28.8318, -153.732, -88.8343, 101.92
8.87465, 68, -5.82231, -5.56905, 28.6321, -153.733, -89.1544, 102.013
8.88016, 68, -5.79179, -5.44777, 28.5663, -153.733, -89.2607, 102.04
8.88805, 68, -5.73118, -5.20614, 28.4359, -153.731, -89.4725, 102.091
8.89514, 68, -5.67107, -4.9669, 28.3073, -153.726, -89.6834, 102.134
8.90329, 68, -5.6117, -4.72976, 28.1803, -153.72, -89.8936, 102.171
8.91211, 68, -5.55304, -4.49427, 28.0549, -153.713, -90.103, 102.2
8.92012, 68, -5.49496, -4.26116, 27.9311, -153.704, -90.3116, 102.224
8.92707, 68, -5.43766, -4.03, 27.8088, -153.692, -90.5194, 102.24
8.93606, 68, -5.38112, -3.80015, 27.6882, -153.68, -90.7265, 102.25
8.94413, 69, -5.32517, -3.57234, 27.5693, -153.665, -90.9327, 102.253
8.95195, 69, -5.26996, -3.34688, 27.452, -153.649, -91.1381, 102.252
8.96002, 69, -5.2153, -3.12284, 27.3364, -153.631, -91.3426, 102.241
8.96804, 69, -5.16122, -2.90054, 27.2223, -153.611, -91.5462, 102.223
8.97591, 69, -5.10783, -2.68049, 27.1097, -153.59, -91.7487, 102.197
8.98413, 69, -5.05491, -2.46196, 26.9987, -153.568, -91.9504, 102.164
8.99107, 69, -5.00251, -2.24476, 26.8893, -153.544, -92.1512, 102.124
9.0013, 69, -4.9508, -2.03018, 26.7816, -153.52, -92.351, 102.075
9.00826, 70, -4.89959, -1.81792, 26.6755, -153.493, -92.5497, 102.018
9.01602, 70, -4.84872, -1.60698, 26.5708, -153.465, -92.7478, 101.954
9.02405, 70, -4.79832, -1.39798, 26.4675, -153.436, -92.9449, 101.882
9.03228, 70, -4.74828, -1.19135, 26.3658, -153.406, -93.1412, 101.802
9.04112, 70, -4.69854, -0.98632, 26.2657, -153.375, -93.3366, 101.714
9.04778, 70, -4.64938, -0.78285, 26.1673, -153.342, -93.5311, 101.618
9.05631, 70, -4.60071, -0.58196, 26.0704, -153.308, -93.7249, 101.515
9.06356, 70, -4.55233, -0.383609, 25.9749, -153.274, -93.9179, 101.404
9.07215, 70, -4.50443, -0.186939, 25.8805, -153.239, -94.11, 101.285
9.08048, 71, -4.45702, 0.00791772, 25.7875, -153.203, -94.3014, 101.158
9.08764, 71, -4.40984, 0.200132, 25.6962, -153.165, -94.4918, 101.023
9.09618, 71, -4.36294, 0.39018, 25.6066, -153.127, -94.6814, 100.881
9.10389, 71, -4.31638, 0.578803, 25.5185, -153.088, -94.8701, 100.731
9.11169, 71, -4.29315, 0.67252, 25.475, -153.048, -95.0579, 100.572
9.12009, 71, -4.22367, 0.949854, 25.3462, -153.007, -95.2447, 100.406
9.12788, 71, -4.20063, 1.04102, 25.304, -152.987, -95.3378, 100.233
9.13619, 71, -4.13182, 1.31221, 25.1791, -152.924, -95.6156, 100.052
9.1431, 71, -4.10893, 1.40168, 25.1382, -152.903, -95.7077, 99.9584
9.15128, 72, -4.06331, 1.57844, 25.0578, -152.86, -95.8911, 99.7657
9.16038, 72, -4.01786, 1.83913, 24.9397, -152.796, -96.1643, 99.4621
9.16716, 72, -3.9725, 1.92515, 24.9011, -152.774, -96.2549, 99.3572
9.17505, 72, -3.92709, 2.09567, 24.8246, -152.729, -96.4352, 99.1418
9.18446, 72, -3.8591, 2.34633, 24.7124, -152.664, -96.7038, 98.8046
9.19112, 72, -3.83644, 2.42854, 24.6756, -152.642, -96.7926, 98.6885
9.20059, 72, -3.7684, 2.67223, 24.5675, -152.574, -97.0575, 98.3289
9.2086, 72, -3.72323, 2.83184, 24.4971, -152.53, -97.2326, 98.0803
9.21748, 73, -3.67807, 2.98866, 24.428, -152.485, -97.4067, 97.8248
9.22319, 73, -3.65545, 3.06602, 24.394, -152.463, -97.4932, 97.6943
9.23185, 73, -3.61011, 3.21904, 24.327, -152.418, -97.6652, 97.428
9.23906, 73, -3.56475, 3.36977, 24.2615, -152.375, -97.8357, 97.1546
9.24886, 73, -3.51927, 3.51785, 24.1972, -152.33, -98.0049, 96.7321
9.25611, 73, -3.47352, 3.66316, 24.1343, -152.286, -98.1726, 96.5879
9.26409, 73, -3.42759, 3.80538, 24.0727, -152.243, -98.3388, 96.2945
9.27205, 73, -3.38147, 3.94467, 24.0123, -152.2, -98.5034, 95.9946
9.2801, 73, -3.33501, 4.08114, 23.9533, -152.157, -98.666, 95.6886
9.28806, 74, -3.28829, 4.2148, 23.8956, -152.115, -98.8269, 95.3766
9.29622, 74, -3.2414, 4.34529, 23.8392, -152.074, -98.9857, 95.0588
9.3039, 74, -3.19426, 4.4726, 23.7844, -152.033, -99.1427, 94.7357
9.31106, 74, -3.14669, 4.59663, 23.7308, -151.993, -99.2973, 94.4072
9.32005, 74, -3.09893, 4.71754, 23.6787, -151.954, -99.4501, 94.0734
9.3281, 74, -3.05093, 4.83533, 23.628, -151.916, -99.6001, 93.7342
9.33505, 74, -3.00247, 4.9498, 23.5788, -151.877, -99.7481, 93.3901
9.34554, 74, -2.9537, 5.06092, 23.531, -151.823, -99.9649, 92.865
9.352, 75, -2.90471, 5.16857, 23.4846, -151.806, -100.036, 92.6879
9.35911, 75, -2.85533, 5.27249, 23.4397, -151.772, -100.176, 92.3309
9.36962, 75, -2.80559, 5.37272, 23.3961, -151.738, -100.313, 91.97
9.3752, 75, -2.75567, 5.46918, 23.3541, -151.706, -100.447, 91.6048
9.38364, 75, -2.70536, 5.56179, 23.3136, -151.675, -100.579, 91.2363
9.39283, 75, -2.65449, 5.65048, 23.2746, -151.646, -100.707, 90.8643
9.39907, 75, -2.6033, 5.73507, 23.2372, -151.617, -100.832, 90.4893
9.40804, 75, -2.55173, 5.81556, 23.2014, -151.589, -100.953, 90.1116
9.41883, 76, -2.47343, 5.92841, 23.1505, -151.551, -101.129, 89.5407
9.42417, 76, -2.44718, 5.9639, 23.1345, -151.539, -101.186, 89.3493
9.43107, 76, -2.39436, 6.03155, 23.1035, -151.516, -101.296, 88.9652
9.44003, 76, -2.34123, 6.09486, 23.0742, -151.495, -101.403, 88.5792
9.44819, 76, -2.2878, 6.15368, 23.0467, -151.475, -101.506, 88.1917
9.45514, 76, -2.23399, 6.208, 23.0209, -151.456, -101.604, 87.8031
9.46314, 76, -2.17971, 6.25765, 22.997, -151.438, -101.698, 87.4131
9.47183, 76, -2.12519, 6.3025, 22.9749, -151.422, -101.788, 87.022
9.48011, 76, -2.07029, 6.34259, 22.9544, -151.408, -101.874, 86.6303
9.48723, 77, -2.015, 6.37783, 22.936, -151.395, -101.954, 86.2383
9.49632, 77, -1.95948, 6.40785, 22.9195, -151.384, -102.03, 85.8465
9.50979, 77, -1.8756, 6.44355, 22.8982, -151.37, -102.135, 85.2602
9.51252, 77, -1.84754, 6.45293, 22.8922, -151.366, -102.167, 85.0648
9.52, 77, -1.79122, 6.4675, 22.8816, -151.358, -102.227, 84.6748
9.52807, 77, -1.7345, 6.47667, 22.8731, -151.353, -102.283, 84.2854
9.53611, 77, -1.67756, 6.48079, 22.8667, -151.349, -102.333, 83.8966
9.54716, 77, -1.62043, 6.47997, 22.8624, -151.346, -102.377, 83.3167
9.55141, 77, -1.56306, 6.47375, 22.8601, -151.344, -102.416, 83.124
9.56023, 78, -1.5056, 6.46211, 22.8596, -151.343, -102.45, 82.7395
9.56761, 78, -1.44782, 6.44487, 22.8613, -151.343, -102.478, 82.3571
9.57637, 78, -1.38996, 6.42166, 22.8653, -151.344, -102.499, 81.9767
9.58483, 78, -1.33205, 6.39284, 22.8716, -151.346, -102.515, 81.5984
9.59224, 78, -1.27392, 6.35847, 22.8802, -151.35, -102.525, 81.2228
9.59962, 78, -1.21578, 6.31818, 22.8915, -151.355, -102.529, 80.8496
9.60814, 78, -1.15754, 6.27196, 22.905, -151.361, -102.528, 80.4787
9.61557, 78, -1.12832, 6.24671, 22.9127, -151.365, -102.525, 80.2943
9.62448, 79, -1.04062, 6.16185, 22.94, -151.378, -102.506, 79.7451
9.63105, 79, -1.01135, 6.13051, 22.9503, -151.382, -102.497, 79.5634
9.64009, 79, -0.92332, 6.02732, 22.9853, -151.398, -102.459, 79.0233
9.64724, 79, -0.893988, 5.98982, 22.9984, -151.404, -102.443, 78.8449
9.65784, 79, -0.805909, 5.86839, 23.0414, -151.423, -102.385, 78.3138
9.66432, 79, -0.747156, 5.77985, 23.0736, -151.437, -102.338, 77.964
9.67106, 79, -0.717821, 5.73331, 23.0908, -151.444, -102.312, 77.7903
9.67908, 79, -0.659139, 5.63562, 23.1273, -151.46, -102.254, 77.4453
9.6885, 79, -0.571148, 5.47753, 23.1873, -151.485, -102.157, 76.9345
9.69547, 80, -0.541829, 5.42165, 23.2088, -151.493, -102.12, 76.7661
9.70459, 80, -0.453974, 5.24478, 23.2778, -151.52, -102.001, 76.2661
9.71262, 80, -0.395493, 5.11918, 23.3274, -151.538, -101.914, 75.9372
9.72376, 80, -0.337034, 4.9874, 23.3801, -151.556, -101.819, 75.6122
9.72887, 80, -0.278697, 4.84929, 23.436, -151.576, -101.718, 75.2907
9.73508, 80, -0.249568, 4.77784, 23.4651, -151.586, -101.664, 75.1313
9.74505, 80, -0.16205, 4.55419, 23.5571, -151.617, -101.494, 74.6588
9.75103, 80, -0.132962, 4.47667, 23.5894, -151.628, -101.434, 74.5033
9.76006, 80, -0.0747688, 4.31726, 23.6564, -151.649, -101.308, 74.1949
9.76715, 81, -0.0165237, 4.15161, 23.7265, -151.67, -101.176, 73.8899
9.77618, 81, 0.0416307, 3.97937, 23.7997, -151.691, -101.037, 73.5885
9.78311, 81, 0.0997397, 3.80085, 23.8763, -151.713, -100.891, 73.2909
9.79211, 81, 0.157797, 3.61705, 23.9563, -151.735, -100.737, 72.9968
9.80003, 81, 0.215555, 3.42789, 24.0397, -151.758, -100.577, 72.7065
9.80807, 81, 0.273255, 3.23205, 24.1267, -151.781, -100.41, 72.4201
9.81503, 81, 0.33079, 3.02962, 24.2173, -151.803, -100.236, 72.1374
9.82402, 81, 0.3882, 2.82199, 24.3113, -151.826, -100.055, 71.8582
9.8321, 82, 0.445727, 2.60877, 24.4086, -151.848, -99.868, 71.5823
9.83903, 82, 0.503151, 2.38895, 24.5092, -151.87, -99.6738, 71.3101
9.84802, 82, 0.560471, 2.163, 24.6134, -151.893, -99.4731, 71.0412
9.85505, 82, 0.617913, 1.93147, 24.7214, -151.916, -99.2658, 70.7755
9.86402, 82, 0.675122, 1.69327, 24.8331, -151.938, -99.0519, 70.5135
9.87511, 82, 0.760766, 1.32463, 25.0077, -151.971, -98.7184, 70.1271
9.8839, 82, 0.817931, 1.07155, 25.1283, -151.993, -98.4882, 69.8738
9.88804, 82, 0.846496, 0.942624, 25.1899, -152.003, -98.3706, 69.7482
9.89602, 82, 0.903667, 0.680899, 25.3158, -152.025, -98.1309, 69.4995
9.90409, 83, 0.960962, 0.413863, 25.4454, -152.047, -97.8851, 69.2539
9.91203, 83, 1.01827, 0.140344, 25.5791, -152.068, -97.6334, 69.0116
9.92002, 83, 1.07562, -0.138283, 25.7163, -152.088, -97.3755, 68.7722
9.92822, 83, 1.13298, -0.421948, 25.8568, -152.108, -97.1114, 68.536
9.93602, 83, 1.1902, -0.710771, 26.0011, -152.127, -96.8409, 68.3029
9.9441, 83, 1.24753, -1.0041, 26.149, -152.146, -96.5647, 68.073
9.95211, 83, 1.30491, -1.30319, 26.3005, -152.164, -96.2828, 67.8464
9.96001, 83, 1.3624, -1.60738, 26.4554, -152.183, -95.9951, 67.6229
9.96725, 84, 1.41991, -1.91683, 26.614, -152.2, -95.702, 67.4022
9.97512, 84, 1.47754, -2.23124, 26.7765, -152.218, -95.4035, 67.1846
9.98313, 84, 1.5354, -2.54999, 26.9426, -152.234, -95.0993, 66.9702
9.99125, 84, 1.59341, -2.87387, 27.1115, -152.249, -94.7897, 66.7594
10.0002, 84, 1.65145, -3.20205, 27.2839, -152.264, -94.4745, 66.5515
10.008, 84, 1.70968, -3.53517, 27.4608, -152.278, -94.1544, 66.3466
10.016, 84, 1.76805, -3.87197, 27.6415, -152.292, -93.8293, 66.1447
10.0241, 84, 1.8266, -4.21331, 27.8248, -152.304, -93.4995, 65.9457
10.0312, 84, 1.88532, -4.55903, 28.011, -152.317, -93.1652, 65.7497
10.0393, 85, 1.94422, -4.90918, 28.2011, -152.328, -92.8262, 65.5569
10.0476, 85, 2.00345, -5.26279, 28.3945, -152.339, -92.4827, 65.3672
10.0562, 85, 2.06298, -5.61988, 28.5905, -152.349, -92.1351, 65.1806
10.0636, 85, 2.1226, -5.98024, 28.7904, -152.358, -91.7833, 64.9974
10.077, 85, 2.21238, -6.5266, 29.0971, -152.369, -91.2479, 64.7287
10.08, 85, 2.24242, -6.71, 29.2005, -152.372, -91.0676, 64.6409
10.0902, 85, 2.30272, -7.0791, 29.4097, -152.378, -90.7045, 64.4676
10.0962, 85, 2.36319, -7.45139, 29.6222, -152.383, -90.3376, 64.2973
10.1038, 86, 2.42397, -7.82717, 29.8367, -152.386, -89.9675, 64.1303
10.1122, 86, 2.48515, -8.20552, 30.0537, -152.389, -89.5941, 63.9669
10.1196, 86, 2.51592, -8.3955, 30.1635, -152.39, -89.4062, 63.8865
10.1285, 86, 2.6087, -8.96936, 30.4968, -152.391, -88.8379, 63.6512
10.1365, 86, 2.67104, -9.35478, 30.722, -152.391, -88.4559, 63.4995
10.1431, 86, 2.70228, -9.54812, 30.8358, -152.391, -88.2638, 63.4249
10.1522, 86, 2.79624, -10.1303, 31.1801, -152.389, -87.6838, 63.2073
10.1591, 86, 2.82764, -10.3252, 31.2957, -152.387, -87.4893, 63.1367
10.1683, 86, 2.92208, -10.9124, 31.647, -152.381, -86.9027, 62.9302
10.1768, 87, 2.98547, -11.305, 31.8833, -152.376, -86.5091, 62.7977
10.1845, 87, 3.0491, -11.6988, 32.1215, -152.368, -86.1136, 62.6695
10.1932, 87, 3.11325, -12.0938, 32.3618, -152.359, -85.7166, 62.5462
10.199, 87, 3.14551, -12.2919, 32.4823, -152.354, -85.5174, 62.4865
10.2072, 87, 3.21023, -12.6879, 32.7249, -152.343, -85.1182, 62.3704
10.2172, 87, 3.30771, -13.2833, 33.0926, -152.323, -84.5168, 62.2053
10.2231, 87, 3.34025, -13.482, 33.2156, -152.316, -84.3157, 62.1527
10.231, 87, 3.40556, -13.8801, 33.4628, -152.3, -83.9128, 62.0509
10.2406, 87, 3.47119, -14.2779, 33.7112, -152.283, -83.509, 61.9077
10.2494, 88, 3.53692, -14.676, 33.9604, -152.264, -83.1044, 61.8624
10.2552, 88, 3.60286, -15.0738, 34.2115, -152.245, -82.6991, 61.7765
10.2639, 88, 3.6692, -15.4715, 34.4636, -152.223, -82.2934, 61.6957
10.272, 88, 3.73584, -15.8679, 34.7162, -152.2, -81.8871, 61.6216
10.28, 88, 3.80242, -16.2638, 34.9701, -152.174, -81.4809, 61.5532
10.2881, 88, 3.86908, -16.6593, 35.2241, -152.147, -81.0742, 61.4902
10.296, 88, 3.93597, -17.0541, 35.4792, -152.119, -80.6675, 61.434
10.304, 88, 4.00295, -17.4479, 35.735, -152.09, -80.2612, 61.3839
10.3135, 89, 4.10362, -18.0368, 36.1191, -152.042, -79.6513, 61.3196
10.32, 89, 4.13719, -18.2328, 36.2476, -152.024, -79.4481, 61.3017
10.3285, 89, 4.20461, -18.6232, 36.5043, -151.989, -79.0416, 61.2712
10.3351, 89, 4.2721, -19.0127, 36.7612, -151.952, -78.6352, 61.2486
10.344, 89, 4.3396, -19.401, 37.0183, -151.912, -78.2297, 61.2336
10.3554, 89, 4.4409, -19.9808, 37.4035, -151.849, -77.6229, 61.224
10.359, 89, 4.47464, -20.1729, 37.5323, -151.827, -77.4208, 61.2236
10.3681, 89, 4.54211, -20.5561, 37.7896, -151.783, -77.0173, 61.2287
10.377, 89, 4.60951, -20.9373, 38.0466, -151.735, -76.6144, 61.2422
10.3842, 90, 4.67698, -21.3171, 38.3039, -151.686, -76.2114, 61.2634
10.3912, 90, 4.74434, -21.6945, 38.5606, -151.635, -75.8091, 61.2932
10.4, 90, 4.81159, -22.0705, 38.8174, -151.581, -75.4075, 61.332
10.4081, 90, 4.87882, -22.4444, 39.0738, -151.527, -75.0068, 61.3794
10.4151, 90, 4.94606, -22.8171, 39.3294, -151.469, -74.6068, 61.4355
10.4241, 90, 5.01338, -23.1874, 39.5853, -151.409, -74.2077, 61.5018
10.432, 90, 5.08062, -23.5562, 39.8404, -151.348, -73.8092, 61.5775
10.4391, 90, 5.14783, -23.9227, 40.0951, -151.283, -73.4113, 61.6624
10.4481, 91, 5.21486, -24.2871, 40.3496, -151.217, -73.0141, 61.758
10.4562, 91, 5.28166, -24.6485, 40.6029, -151.148, -72.6176, 61.863
10.4631, 91, 5.34828, -25.0079, 40.8561, -151.077, -72.2216, 61.9783
10.472, 91, 5.41459, -25.3648, 41.1086, -151.003, -71.8262, 62.1037
10.4833, 91, 5.51408, -25.8971, 41.4863, -150.889, -71.2342, 62.3123
10.4883, 91, 5.54729, -26.0732, 41.6121, -150.85, -71.0374, 62.3871
10.496, 91, 5.61388, -26.424, 41.8625, -150.77, -70.6441, 62.5454
10.5031, 91, 5.68039, -26.7724, 42.1122, -150.687, -70.2513, 62.7153
10.511, 91, 5.74699, -27.1189, 42.3613, -150.603, -69.8592, 62.8968
10.5191, 92, 5.81361, -27.4627, 42.6089, -150.516, -69.4674, 63.09
10.5272, 92, 5.88005, -27.804, 42.8562, -150.427, -69.0757, 63.2949
10.536, 92, 5.94664, -28.1438, 43.1028, -150.336, -68.6842, 63.5119
10.544, 92, 6.01335, -28.4814, 43.3484, -150.243, -68.2929, 63.7409
10.552, 92, 6.08025, -28.8167, 43.5934, -150.148, -67.9018, 63.9828
10.5602, 92, 6.14728, -29.1487, 43.8368, -150.051, -67.5111, 64.2372
10.5685, 92, 6.21448, -29.4788, 44.079, -149.953, -67.1205, 64.5043
10.5755, 92, 6.28213, -29.8062, 44.3207, -149.854, -66.7302, 64.7845
10.5844, 93, 6.35008, -30.1312, 44.5607, -149.753, -66.34, 65.0787
10.5916, 93, 6.41851, -30.4532, 44.7998, -149.65, -65.9497, 65.387
10.6005, 93, 6.48747, -30.7724, 45.0378, -149.546, -65.5595, 65.71
10.6076, 93, 6.52228, -31.0899, 45.2738, -149.441, -65.1692, 66.0483
10.6175, 93, 6.62796, -31.4048, 45.5087, -149.335, -64.779, 66.4019
10.6236, 93, 6.6635, -31.5614, 45.6255, -149.281, -64.3886, 66.7702
10.634, 93, 6.77135, -32.0261, 45.9728, -149.121, -63.9983, 67.1532
10.6407, 93, 6.84425, -32.3321, 46.203, -149.015, -63.6075, 67.5506
10.6482, 93, 6.91828, -32.6354, 46.4313, -148.909, -63.2167, 67.9622
10.6551, 94, 6.95568, -32.7856, 46.5445, -148.856, -63.0212, 68.1738
10.663, 94, 7.03135, -33.0836, 46.7696, -148.752, -62.6304, 68.609
10.6723, 94, 7.1477, -33.5238, 47.1028, -148.596, -62.0445, 69.2932
10.6791, 94, 7.18735, -33.6687, 47.2121, -148.545, -61.8493, 69.53
10.6889, 94, 7.309, -34.099, 47.5374, -148.394, -61.2639, 70.2647
10.6972, 94, 7.39227, -34.3808, 47.7513, -148.296, -60.8736, 70.7751
10.703, 94, 7.43463, -34.5204, 47.8569, -148.248, -60.6788, 71.0361
10.7126, 94, 7.56468, -34.9325, 48.1701, -148.109, -60.0943, 71.8422
10.7206, 95, 7.65379, -35.2007, 48.3749, -148.021, -59.7056, 72.3978
10.7286, 95, 7.74496, -35.4643, 48.5748, -147.938, -59.3185, 72.9699
10.7374, 95, 7.79144, -35.5942, 48.6734, -147.86, -58.9328, 73.5587
10.743, 95, 7.88622, -35.8503, 48.8679, -147.823, -58.7406, 73.8598
10.7538, 95, 8.03363, -36.2259, 49.1509, -147.718, -58.1666, 74.787
10.7613, 95, 8.13496, -36.4684, 49.3335, -147.655, -57.786, 75.4262
10.7681, 95, 8.18654, -36.587, 49.4234, -147.627, -57.5963, 75.7515
10.776, 95, 8.29174, -36.82, 49.6001, -147.573, -57.2186, 76.4127
10.7841, 95, 8.39955, -37.0465, 49.7713, -147.527, -56.8435, 77.087
10.792, 96, 8.50985, -37.2653, 49.9368, -147.489, -56.4711, 77.7757
10.8, 96, 8.62251, -37.4764, 50.0968, -147.458, -56.1029, 78.4775
10.8094, 96, 8.79673, -37.7798, 50.3242, -147.429, -55.5601, 79.5554
10.8151, 96, 8.85634, -37.8771, 50.3963, -147.423, -55.3819, 79.9223
10.824, 96, 8.97774, -38.0656, 50.5357, -147.417, -55.0294, 80.6657
10.8345, 96, 9.16418, -38.3325, 50.7321, -147.425, -54.5102, 81.8019
10.839, 96, 9.22751, -38.417, 50.7943, -147.432, -54.3397, 82.187
10.848, 96, 9.35585, -38.5785, 50.9136, -147.454, -54.003, 82.9642
10.8562, 97, 9.48587, -38.7297, 51.0256, -147.486, -53.6727, 83.7495
10.863, 97, 9.61716, -38.8703, 51.1298, -147.526, -53.3497, 84.5452
10.872, 97, 9.75007, -39.0009, 51.2253, -147.577, -53.0354, 85.3481
10.881, 97, 9.88499, -39.1221, 51.3118, -147.639, -52.7313, 86.1565
10.8909, 97, 10.0905, -39.2845, 51.4248, -147.749, -52.295, 87.3843
10.896, 97, 10.1596, -39.333, 51.4581, -147.791, -52.1547, 87.7956
10.904, 97, 10.2986, -39.421, 51.5183, -147.88, -51.8812, 88.6225
10.912, 97, 10.4381, -39.4969, 51.5702, -147.978, -51.6172, 89.456
10.92, 97, 10.5774, -39.5605, 51.6136, -148.084, -51.3631, 90.2898
10.928, 98, 10.7161, -39.6115, 51.648, -148.198, -51.1196, 91.1262
10.9351, 98, 10.8541, -39.6498, 51.673, -148.32, -50.8885, 91.9641
10.944, 98, 10.9914, -39.6763, 51.6885, -148.45, -50.6714, 92.7998
10.952, 98, 11.1286, -39.6918, 51.6939, -148.588, -50.4689, 93.6357
10.96, 98, 11.2651, -39.6957, 51.6893, -148.731, -50.2814, 94.4684
10.9681, 98, 11.4004, -39.6869, 51.675, -148.881, -50.1079, 95.2971
10.9751, 98, 11.534, -39.6651, 51.6514, -149.035, -49.948, 96.1244
10.984, 98, 11.6658, -39.6304, 51.619, -149.194, -49.8015, 96.9459
10.9921, 98, 11.7952, -39.5824, 51.5774, -149.357, -49.6686, 97.7635
10.999, 99, 11.9219, -39.5211, 51.5265, -149.523, -49.5501, 98.5757
11.0071, 99, 12.0461, -39.447, 51.466, -149.692, -49.4471, 99.378
11.0158, 99, 12.1681, -39.3608, 51.3955, -149.863, -49.3611, 100.173
11.024, 99, 12.2874, -39.2631, 51.315, -150.036, -49.2914, 100.958
11.0333, 99, 12.4034, -39.1529, 51.2246, -150.21, -49.2388, 101.733
11.04, 99, 12.5158, -39.0296, 51.1248, -150.384, -49.2023, 102.499
11.0481, 99, 12.6245, -38.8937, 51.0163, -150.558, -49.1808, 103.254
11.0553, 99, 12.7293, -38.7452, 50.8994, -150.73, -49.1734, 103.997
11.0635, 100, 12.8301, -38.5846, 50.7737, -150.902, -49.1806, 104.731
11.0721, 100, 12.9269, -38.4127, 50.6392, -151.071, -49.2036, 105.452
11.0801, 100, 13.02, -38.2299, 50.4958, -151.238, -49.2426, 106.159
11.0876, 100, 13.1094, -38.0358, 50.3439, -151.402, -49.2998, 106.855
11.0962, 100, 13.1947, -37.83, 50.1838, -151.563, -49.3728, 107.535
11.1036, 100, 13.2753, -37.6136, 50.0155, -151.72, -49.4622, 108.2
11.113, 100, 13.3511, -37.386, 49.8388, -151.874, -49.5667, 108.853
11.12, 100, 13.4225, -37.1466, 49.6546, -152.022, -49.6861, 109.492
11.1278, 100, 13.4565, -37.0229, 49.5598, -152.095, -49.7511, 110.117
11.1361, 101, 13.5515, -36.6352, 49.2633, -152.305, -49.9682, 110.729
11.143, 101, 13.581, -36.5002, 49.1602, -152.373, -50.0479, 111.029
11.1521, 101, 13.6633, -36.0814, 48.8405, -152.567, -50.3101, 111.908
11.159, 101, 13.6887, -35.9371, 48.7302, -152.629, -50.4051, 112.194
11.1683, 101, 13.7586, -35.4895, 48.3875, -152.806, -50.712, 113.028
11.175, 101, 13.7797, -35.3357, 48.27, -152.863, -50.8213, 113.299
11.1843, 101, 13.8362, -34.8581, 47.908, -153.022, -51.1686, 114.091
11.191, 101, 13.853, -34.6943, 47.7838, -153.072, -51.2907, 114.348
11.2005, 102, 13.8966, -34.1878, 47.4032, -153.214, -51.6752, 115.099
11.2085, 102, 13.9206, -33.8389, 47.1413, -153.3, -51.9473, 115.583
11.2173, 102, 13.9408, -33.4811, 46.8738, -153.38, -52.2321, 116.054
11.223, 102, 13.9496, -33.2998, 46.7379, -153.418, -52.3793, 116.284
11.2334, 102, 13.9708, -32.7447, 46.3207, -153.522, -52.8401, 116.952
11.239, 102, 13.9762, -32.5557, 46.1791, -153.553, -52.9996, 117.169
11.248, 102, 13.9842, -32.1714, 45.8918, -153.613, -53.3265, 117.593
11.256, 102, 13.9889, -31.7796, 45.6001, -153.666, -53.6637, 118.005
11.263, 102, 13.9902, -31.3805, 45.3037, -153.713, -54.0101, 118.405
11.2734, 103, 13.9861, -30.7688, 44.8512, -153.774, -54.547, 118.984
11.279, 103, 13.9831, -30.5613, 44.6984, -153.792, -54.7306, 119.171
11.288, 103, 13.9749, -30.1421, 44.3897, -153.822, -55.1053, 119.536
11.296, 103, 13.9644, -29.7175, 44.0771, -153.847, -55.4894, 119.89
11.304, 103, 13.9516, -29.2873, 43.7601, -153.866, -55.8833, 120.233
11.312, 103, 13.9362, -28.851, 43.4401, -153.881, -56.2856, 120.565
11.32, 103, 13.9184, -28.409, 43.1169, -153.89, -56.6954, 120.887
11.328, 103, 13.8982, -27.9622, 42.7916, -153.895, -57.1115, 121.2
11.336, 104, 13.8758, -27.5099, 42.464, -153.897, -57.5334, 121.503
11.344, 104, 13.8511, -27.0527, 42.135, -153.894, -57.9614, 121.797
11.352, 104, 13.8243, -26.5916, 41.8032, -153.886, -58.3953, 122.082
11.36, 104, 13.7961, -26.1274, 41.4696, -153.873, -58.8355, 122.356
11.368, 104, 13.7668, -25.6605, 41.134, -153.856, -59.282, 122.621
11.376, 104, 13.7361, -25.1914, 40.798, -153.835, -59.734, 122.877
11.385, 104, 13.7044, -24.7199, 40.4603, -153.81, -60.19, 123.125
11.392, 104, 13.6721, -24.2464, 40.122, -153.782, -60.6489, 123.368
11.4, 104, 13.6389, -23.7711, 39.7834, -153.751, -61.1099, 123.605
11.4081, 104, 13.605, -23.2945, 39.446, -153.717, -61.5719, 123.84
11.416, 104, 13.5705, -22.8175, 39.1092, -153.682, -62.0347, 124.073
11.424, 104, 13.5356, -22.3401, 38.7738, -153.645, -62.4974, 124.304
11.4321, 104, 13.5005, -21.8632, 38.4391, -153.605, -62.9597, 124.533
11.44, 104, 13.4655, -21.3874, 38.106, -153.564, -63.4222, 124.762
11.448, 104, 13.4305, -20.9121, 37.774, -153.521, -63.8839, 124.99
11.4551, 104, 13.3954, -20.4379, 37.4436, -153.477, -64.3448, 125.217
11.4631, 104, 13.3606, -19.9643, 37.1142, -153.43, -64.8054, 125.442
11.4719, 104, 13.326, -19.4912, 36.7869, -153.383, -65.2654, 125.667
11.48, 104, 13.2914, -19.0192, 36.4604, -153.334, -65.7249, 125.891
11.488, 104, 13.2568, -18.5476, 36.1357, -153.283, -66.1838, 126.115
11.496, 104, 13.2223, -18.0768, 35.8124, -153.231, -66.6427, 126.338
11.5041, 104, 13.1879, -17.6071, 35.4912, -153.177, -67.1008, 126.56
11.512, 104, 13.1536, -17.1382, 35.1709, -153.122, -67.5578, 126.781
11.52, 104, 13.1194, -16.6702, 34.8521, -153.065, -68.0141, 127.002
11.528, 104, 13.0853, -16.2034, 34.5345, -153.006, -68.4695, 127.223
11.536, 104, 13.0517, -15.7377, 34.2192, -152.947, -68.9247, 127.443
11.544, 104, 13.0183, -15.273, 33.9052, -152.885, -69.3793, 127.662
11.552, 104, 12.9852, -14.8092, 33.593, -152.823, -69.8333, 127.881
11.56, 104, 12.9523, -14.3459, 33.2821, -152.759, -70.2868, 128.099
11.5689, 104, 12.9198, -13.8833, 32.973, -152.693, -70.7392, 128.317
11.576, 104, 12.8873, -13.4216, 32.6657, -152.627, -71.1903, 128.535
11.5836, 104, 12.8548, -12.961, 32.3598, -152.558, -71.6409, 128.752
11.5928, 104, 12.8226, -12.5016, 32.056, -152.489, -72.0909, 128.969
11.6001, 104, 12.7904, -12.0433, 31.7536, -152.418, -72.5401, 129.186
11.6076, 104, 12.7584, -11.5865, 31.4533, -152.346, -72.9884, 129.402
11.6218, 104, 12.7113, -10.9026, 31.0052, -152.235, -73.6595, 129.727
11.6247, 104, 12.6957, -10.6751, 30.857, -152.197, -73.8828, 129.835
11.632, 104, 12.6646, -10.2213, 30.5618, -152.121, -74.3286, 130.051
