rpiRobotics/ARM-21-02-F-19-Robot-Motion-Program/data_performance_abb/curve_1/baseline/100L/realrobot/bisect/run_0realrobot_curve_exe_v112.5_z10.csv
timestamp, cmd_num, J1, J2, J3, J4, J5, J6
0.000492, -1, 11.3784, 13.6123, 17.3401, -145.519, -97.9231, 142.516
0.004116, -1, 11.3784, 13.6123, 17.3401, -145.519, -97.923, 142.516
0.008133, -1, 11.3784, 13.6123, 17.3401, -145.519, -97.923, 142.516
0.029223, -1, 11.3784, 13.6123, 17.3401, -145.519, -97.9231, 142.516
0.032103, -1, 11.3784, 13.6123, 17.3401, -145.519, -97.9231, 142.516
0.033467, -1, 11.3784, 13.6123, 17.3401, -145.519, -97.9231, 142.516
0.040126, -1, 11.3784, 13.6123, 17.3401, -145.519, -97.9231, 142.516
0.046742, -1, 11.3784, 13.6123, 17.3401, -145.519, -97.9231, 142.516
0.056271, -1, 11.3766, 13.6122, 17.3401, -145.519, -97.9231, 142.516
0.064818, -1, 11.3723, 13.6116, 17.34, -145.519, -97.9231, 142.516
0.072369, -1, 11.3637, 13.6102, 17.3397, -145.519, -97.923, 142.515
0.080322, -1, 11.3497, 13.6074, 17.3391, -145.52, -97.923, 142.51
0.089068, -1, 11.3281, 13.6025, 17.3384, -145.522, -97.9227, 142.495
0.094772, -1, 11.3134, 13.599, 17.338, -145.524, -97.9224, 142.482
0.104352, -1, 11.2751, 13.5896, 17.3375, -145.531, -97.9194, 142.412
0.112323, -1, 11.2251, 13.577, 17.3376, -145.542, -97.9175, 142.376
0.119748, -1, 11.1635, 13.5614, 17.3393, -145.559, -97.912, 142.28
0.127752, -1, 11.0904, 13.542, 17.3432, -145.582, -97.9043, 142.149
0.135877, -1, 11.0055, 13.5188, 17.3495, -145.611, -97.8942, 141.984
0.143731, -1, 10.9088, 13.4922, 17.358, -145.645, -97.8822, 141.786
0.151808, -1, 10.8014, 13.4623, 17.3684, -145.683, -97.8685, 141.561
0.159794, -1, 10.6829, 13.4293, 17.3797, -145.726, -97.8539, 141.314
0.167741, -1, 10.5538, 13.3935, 17.3908, -145.77, -97.8384, 141.054
0.175801, -1, 10.4158, 13.3555, 17.4015, -145.816, -97.8225, 140.785
0.183792, -1, 10.2709, 13.3158, 17.4117, -145.864, -97.8064, 140.51
0.19173, -1, 10.1214, 13.2753, 17.4217, -145.911, -97.7898, 140.233
0.199789, -1, 9.96899, 13.2342, 17.4317, -145.959, -97.7728, 139.955
0.207894, -1, 9.81435, 13.1928, 17.4418, -146.007, -97.7556, 139.676
0.21579, -1, 9.65882, 13.1513, 17.4518, -146.055, -97.7383, 139.397
0.223855, -1, 9.50368, 13.11, 17.4617, -146.103, -97.7213, 139.118
0.231822, -1, 9.34897, 13.0688, 17.4716, -146.151, -97.7045, 138.838
0.241647, -1, 9.19456, 13.0276, 17.4815, -146.199, -97.6878, 138.419
0.247944, -1, 9.0407, 12.9865, 17.4915, -146.247, -97.671, 138.279
0.256782, -1, 8.8871, 12.9455, 17.5016, -146.296, -97.6541, 138
0.263725, -1, 8.73372, 12.9045, 17.5117, -146.343, -97.6369, 137.72
0.27251, -1, 8.58079, 12.8633, 17.5217, -146.391, -97.6195, 137.44
0.278738, -1, 8.42809, 12.8221, 17.5319, -146.44, -97.6019, 137.16
0.287733, -1, 8.27506, 12.7808, 17.542, -146.487, -97.5846, 136.88
0.295865, -1, 8.12158, 12.7393, 17.5522, -146.535, -97.5676, 136.6
0.303766, -1, 7.96763, 12.6978, 17.5624, -146.584, -97.5507, 136.32
0.311727, -1, 7.81309, 12.6562, 17.5725, -146.631, -97.5342, 136.04
0.320607, -1, 7.6582, 12.6146, 17.5826, -146.679, -97.5175, 135.76
0.32684, -1, 7.50314, 12.573, 17.5928, -146.728, -97.5006, 135.48
0.335832, -1, 7.34791, 12.5316, 17.6029, -146.775, -97.4835, 135.199
0.344538, -1, 7.19278, 12.4902, 17.6132, -146.823, -97.466, 134.919
0.35173, -1, 7.0376, 12.4488, 17.6235, -146.872, -97.4486, 134.639
0.359742, -1, 6.88237, 12.4076, 17.6337, -146.92, -97.4316, 134.359
0.368563, -1, 6.72743, 12.3664, 17.6441, -146.968, -97.4147, 134.079
0.375783, -1, 6.57282, 12.3252, 17.6545, -147.016, -97.398, 133.798
0.383736, -1, 6.41839, 12.2841, 17.6648, -147.064, -97.3812, 133.518
0.392505, -1, 6.26412, 12.2428, 17.6751, -147.112, -97.3643, 133.238
0.399761, -1, 6.10992, 12.2015, 17.6854, -147.161, -97.3472, 132.957
0.407729, -1, 5.95548, 12.1602, 17.6956, -147.209, -97.3297, 132.676
0.417207, -1, 5.80083, 12.1186, 17.7059, -147.256, -97.312, 132.396
0.423731, -1, 5.64598, 12.0771, 17.7161, -147.305, -97.2946, 132.115
0.431833, -1, 5.49099, 12.0355, 17.7263, -147.353, -97.2775, 131.834
0.439825, -1, 5.3358, 11.9939, 17.7366, -147.401, -97.2606, 131.553
0.447818, -1, 5.18024, 11.9523, 17.7468, -147.449, -97.2438, 131.273
0.455942, -1, 5.02434, 11.9107, 17.7573, -147.497, -97.2271, 130.992
0.463829, -1, 4.8685, 11.8692, 17.7677, -147.545, -97.2101, 130.711
0.471868, -1, 4.71269, 11.8277, 17.7781, -147.594, -97.1927, 130.43
0.479922, -1, 4.55689, 11.7864, 17.7884, -147.642, -97.1752, 130.149
0.617766, -1, 1.91372, 11.0801, 17.9645, -148.463, -96.8847, 125.365
0.619017, -1, 1.91372, 11.0801, 17.9645, -148.463, -96.8847, 125.365
0.621753, -1, 1.83545, 11.0594, 17.9696, -148.487, -96.876, 125.224
0.622954, -1, 1.83545, 11.0594, 17.9696, -148.487, -96.876, 125.224
0.624982, -1, 1.75721, 11.0386, 17.9749, -148.511, -96.8673, 125.083
0.626255, -1, 1.75721, 11.0386, 17.9749, -148.511, -96.8673, 125.083
0.62757, -1, 1.75721, 11.0386, 17.9749, -148.511, -96.8673, 125.083
0.6308, -1, 1.679, 11.0178, 17.9801, -148.535, -96.8586, 124.942
0.767898, -1, -0.972564, 10.3085, 18.1565, -149.36, -96.5677, 120.14
0.76979, -1, -0.972564, 10.2876, 18.1616, -149.384, -96.5592, 119.998
0.771147, -1, -1.05118, 10.2876, 18.1616, -149.384, -96.5592, 119.998
0.772334, -1, -1.05118, 10.2876, 18.1616, -149.384, -96.5592, 119.998
0.774588, -1, -1.12974, 10.2667, 18.1668, -149.408, -96.5507, 119.857
0.775932, -1, -1.12974, 10.2667, 18.1668, -149.408, -96.5507, 119.857
0.780099, -1, -1.12974, 10.2667, 18.1719, -149.433, -96.5422, 119.715
0.786047, -1, -1.36526, 10.2041, 18.1822, -149.482, -96.5254, 119.432
0.787508, -1, -1.36526, 10.2041, 18.1822, -149.482, -96.5254, 119.432
0.788771, -1, -1.36526, 10.2041, 18.1822, -149.482, -96.5254, 119.432
0.790741, -1, -1.44358, 10.1832, 18.1874, -149.506, -96.517, 119.29
0.792015, -1, -1.44358, 10.1832, 18.1874, -149.506, -96.517, 119.29
0.793824, -1, -1.44358, 10.1832, 18.1874, -149.506, -96.517, 119.149
0.795276, -1, -1.52187, 10.1624, 18.1926, -149.53, -96.5086, 119.149
0.796574, -1, -1.52187, 10.1624, 18.1926, -149.53, -96.5086, 119.149
0.799003, -1, -1.60009, 10.1415, 18.1979, -149.554, -96.5001, 119.007
0.800228, -1, -1.60009, 10.1415, 18.1979, -149.554, -96.5001, 119.007
0.802871, -1, -1.67822, 10.1206, 18.2032, -149.579, -96.4916, 118.866
0.804999, -1, -1.67822, 10.1206, 18.2032, -149.579, -96.4916, 118.866
0.807037, -1, -1.75626, 10.0997, 18.2084, -149.603, -96.483, 118.724
0.808289, -1, -1.75626, 10.0997, 18.2084, -149.603, -96.483, 118.724
0.810209, -1, -1.83413, 10.0788, 18.2135, -149.627, -96.4744, 118.582
0.812702, -1, -1.83413, 10.0788, 18.2135, -149.627, -96.4744, 118.582
0.814696, -1, -1.91186, 10.0579, 18.2188, -149.652, -96.4656, 118.44
0.816062, -1, -1.91186, 10.0579, 18.2188, -149.652, -96.4656, 118.44
0.81725, -1, -1.91186, 10.0579, 18.2188, -149.652, -96.4656, 118.44
0.819294, -1, -1.98957, 10.037, 18.224, -149.676, -96.4568, 118.299
0.820571, -1, -1.98957, 10.037, 18.224, -149.676, -96.4568, 118.299
0.822734, -1, -2.06724, 10.0161, 18.2292, -149.7, -96.448, 118.157
0.823968, -1, -2.06724, 10.0161, 18.2292, -149.7, -96.448, 118.157
0.828513, -1, -2.14482, 9.9952, 18.2343, -149.725, -96.4392, 118.015
0.830571, -1, -2.22238, 9.97432, 18.2395, -149.749, -96.4304, 117.874
0.831845, -1, -2.22238, 9.97432, 18.2395, -149.749, -96.4304, 117.874
0.83302, -1, -2.22238, 9.97432, 18.2395, -149.749, -96.4304, 117.874
0.83503, -1, -2.29996, 9.95344, 18.2447, -149.773, -96.4217, 117.732
0.836351, -1, -2.29996, 9.95344, 18.2447, -149.773, -96.4217, 117.732
0.839791, -1, -2.37761, 9.93253, 18.2499, -149.797, -96.4132, 117.59
0.847708, -1, -2.53319, 9.8906, 18.2603, -149.846, -96.3961, 117.306
0.855843, -1, -2.68907, 9.84874, 18.2707, -149.895, -96.3793, 117.023
0.863775, -1, -2.84531, 9.80685, 18.281, -149.943, -96.3625, 116.739
0.871737, -1, -3.00196, 9.76497, 18.2914, -149.992, -96.3456, 116.455
0.879726, -1, -3.15901, 9.72311, 18.3018, -150.041, -96.3284, 116.172
0.887776, -1, -3.31647, 9.68118, 18.3123, -150.089, -96.3109, 115.888
0.895762, -1, -3.47434, 9.63921, 18.3227, -150.137, -96.2933, 115.604
0.90373, -1, -3.63218, 9.59739, 18.3331, -150.187, -96.2759, 115.32
0.911779, -1, -3.79003, 9.55559, 18.3435, -150.235, -96.2587, 115.036
0.919742, -1, -3.94805, 9.51363, 18.3538, -150.284, -96.2417, 114.751
0.92771, -1, -4.10594, 9.47175, 18.3642, -150.333, -96.2248, 114.467
0.935867, -1, -4.26371, 9.42989, 18.3744, -150.381, -96.2078, 114.183
0.943794, -1, -4.42133, 9.38795, 18.3847, -150.43, -96.1906, 113.899
0.951802, -1, -4.5785, 9.34602, 18.3951, -150.479, -96.1731, 113.614
0.959881, -1, -4.73523, 9.30405, 18.4054, -150.528, -96.1554, 113.329
0.967815, -1, -4.89164, 9.26208, 18.4158, -150.577, -96.1377, 113.045
0.9759, -1, -5.04772, 9.22009, 18.4263, -150.626, -96.1205, 112.76
0.98389, -1, -5.20356, 9.17811, 18.4368, -150.674, -96.1034, 112.475
0.991708, -1, -5.35958, 9.13605, 18.4473, -150.723, -96.0865, 112.191
0.999759, -1, -5.51572, 9.09396, 18.4577, -150.772, -96.0698, 111.906
1.0078, -1, -5.67206, 9.05197, 18.468, -150.821, -96.0528, 111.621
1.01613, -1, -5.8288, 9.00985, 18.4784, -150.87, -96.0355, 111.336
1.02271, -1, -5.90732, 8.98878, 18.4836, -150.894, -96.0267, 111.194
1.0319, -1, -6.14364, 8.92563, 18.499, -150.967, -96.0004, 110.766
1.04025, -1, -6.30185, 8.88352, 18.5093, -151.016, -95.9829, 110.481
1.04671, -1, -6.38103, 8.86248, 18.5145, -151.041, -95.9744, 110.339
1.05608, -1, -6.61877, 8.79946, 18.53, -151.114, -95.9489, 109.911
1.0627, -1, -6.69806, 8.77841, 18.5353, -151.139, -95.9404, 109.768
1.07226, -1, -6.93607, 8.71532, 18.551, -151.212, -95.9149, 109.34
1.08025, -1, -7.09459, 8.6733, 18.5615, -151.261, -95.8976, 109.054
1.08839, -1, -7.25296, 8.63123, 18.5718, -151.31, -95.8801, 108.769
1.0963, -1, -7.41096, 8.58909, 18.5822, -151.36, -95.8623, 108.483
1.10431, -1, -7.48986, 8.56797, 18.5875, -151.408, -95.8446, 108.197
1.11255, -1, -7.64749, 8.52573, 18.5979, -151.433, -95.8272, 107.912
1.1197, -1, -7.80478, 8.48355, 18.6083, -151.482, -95.8187, 107.769
1.1277, -1, -7.96163, 8.44136, 18.6187, -151.531, -95.8017, 107.483
1.13576, -1, -8.11826, 8.39909, 18.6291, -151.58, -95.7848, 107.198
1.14374, -1, -8.27486, 8.35683, 18.6395, -151.629, -95.7678, 106.912
1.1517, -1, -8.43161, 8.31452, 18.6501, -151.678, -95.7506, 106.626
1.1597, -1, -8.58861, 8.2722, 18.6606, -151.727, -95.7331, 106.34
1.1677, -1, -8.746, 8.22998, 18.671, -151.777, -95.7154, 106.053
1.17575, -1, -8.90374, 8.18771, 18.6813, -151.825, -95.6978, 105.767
1.18371, -1, -9.06186, 8.14541, 18.6917, -151.874, -95.6805, 105.481
1.19172, -1, -9.22048, 8.10321, 18.7021, -151.924, -95.6633, 105.194
1.19974, -1, -9.3794, 8.06099, 18.7125, -151.973, -95.6462, 104.908
1.20772, -1, -9.53852, 8.01873, 18.723, -152.022, -95.6291, 104.621
1.2157, -1, -9.69769, 7.97659, 18.7334, -152.072, -95.6118, 104.334
1.22376, -1, -9.85693, 7.93445, 18.7438, -152.12, -95.5942, 104.047
1.23172, -1, -10.0163, 7.89215, 18.7543, -152.17, -95.5763, 103.76
1.23972, -1, -10.1756, 7.84982, 18.7649, -152.219, -95.5585, 103.474
1.24775, -1, -10.3346, 7.80743, 18.7754, -152.268, -95.541, 103.187
1.25676, -1, -10.4932, 7.76497, 18.7859, -152.318, -95.5238, 102.9
1.26376, -1, -10.6517, 7.72256, 18.7963, -152.367, -95.5067, 102.613
1.27177, -1, -10.8098, 7.68014, 18.8067, -152.416, -95.4897, 102.326
1.2797, -1, -10.9675, 7.63762, 18.8172, -152.465, -95.4725, 102.039
1.28777, -1, -11.125, 7.59512, 18.8275, -152.515, -95.4552, 101.752
1.29569, -1, -11.2825, 7.55269, 18.838, -152.564, -95.4375, 101.464
1.30369, -1, -11.44, 7.51028, 18.8484, -152.614, -95.4197, 101.177
1.3118, -1, -11.5976, 7.46783, 18.8589, -152.663, -95.4021, 100.89
1.31968, -1, -11.7556, 7.42546, 18.8694, -152.712, -95.3847, 100.602
1.32772, -1, -11.914, 7.3831, 18.88, -152.761, -95.3676, 100.314
1.33577, -1, -12.0728, 7.34075, 18.8905, -152.811, -95.3504, 100.027
1.34369, -1, -12.232, 7.29843, 18.901, -152.86, -95.3332, 99.7389
1.35173, -1, -12.3916, 7.25605, 18.9115, -152.91, -95.3158, 99.4509
1.36001, -1, -12.5515, 7.21367, 18.922, -152.959, -95.298, 99.1631
1.3677, -1, -12.7114, 7.1713, 18.9325, -153.008, -95.2801, 98.8754
1.37571, -1, -12.8715, 7.12889, 18.9431, -153.058, -95.2622, 98.5875
1.38448, -1, -13.0316, 7.08637, 18.9536, -153.107, -95.2447, 98.2993
1.39169, -1, -13.1915, 7.04384, 18.9641, -153.157, -95.2274, 98.0114
1.39969, -1, -13.3511, 7.00129, 18.9746, -153.207, -95.2103, 97.7233
1.40854, -1, -13.5104, 6.95863, 18.9852, -153.256, -95.1932, 97.435
1.4157, -1, -13.6696, 6.9159, 18.9957, -153.305, -95.176, 97.1463
1.42372, -1, -13.8287, 6.87324, 19.0062, -153.355, -95.1586, 96.8579
1.43274, -1, -13.9872, 6.83054, 19.0167, -153.404, -95.1408, 96.5694
1.43974, -1, -14.1454, 6.78791, 19.0272, -153.453, -95.123, 96.2806
1.44783, -1, -14.3036, 6.74532, 19.0377, -153.503, -95.1055, 95.9916
1.45677, -1, -14.4619, 6.70267, 19.0481, -153.552, -95.0882, 95.7026
1.46379, -1, -14.6204, 6.66008, 19.0586, -153.602, -95.071, 95.4136
1.47186, -1, -14.7792, 6.61759, 19.0691, -153.652, -95.0539, 95.1245
1.48027, -1, -14.9385, 6.57505, 19.0796, -153.701, -95.0367, 94.8353
1.48739, -1, -15.0182, 6.55372, 19.0903, -153.751, -95.0191, 94.5462
1.49576, -1, -15.258, 6.48987, 19.1009, -153.8, -95.0013, 94.2571
1.5052, -1, -15.4183, 6.44733, 19.1115, -153.85, -94.9832, 93.968
1.51073, -1, -15.4985, 6.42598, 19.1168, -153.874, -94.9743, 93.8233
1.51982, -1, -15.7397, 6.36197, 19.1326, -153.949, -94.948, 93.3894
1.52944, -1, -15.9004, 6.31927, 19.1432, -153.999, -94.9307, 93.1
1.5359, -1, -16.0611, 6.27645, 19.1538, -154.049, -94.9136, 92.8103
1.54411, -1, -16.2218, 6.2337, 19.1642, -154.098, -94.8964, 92.5207
1.55068, -1, -16.3022, 6.21227, 19.1695, -154.123, -94.8878, 92.376
1.5601, -1, -16.5428, 6.14783, 19.1851, -154.197, -94.8614, 91.9415
1.56674, -1, -16.6229, 6.12637, 19.1904, -154.222, -94.8524, 91.7964
1.57779, -1, -16.8624, 6.06202, 19.2063, -154.297, -94.8256, 91.3612
1.58426, -1, -17.0217, 6.0191, 19.2168, -154.347, -94.808, 91.0713
1.59227, -1, -17.1808, 5.97624, 19.2275, -154.396, -94.7906, 90.7812
1.60179, -1, -17.2604, 5.93341, 19.238, -154.446, -94.7732, 90.4909
1.60839, -1, -17.4992, 5.89065, 19.2486, -154.496, -94.7559, 90.2008
1.61567, -1, -17.5789, 5.86928, 19.254, -154.521, -94.7471, 90.0557
1.62368, -1, -17.7384, 5.82658, 19.2646, -154.57, -94.7295, 89.7654
1.63173, -1, -17.898, 5.78385, 19.2752, -154.62, -94.7115, 89.4751
1.63968, -1, -18.0581, 5.74113, 19.2859, -154.67, -94.6934, 89.1846
1.64772, -1, -18.2185, 5.69841, 19.2964, -154.72, -94.6755, 88.8942
1.65573, -1, -18.3795, 5.65567, 19.3071, -154.77, -94.6577, 88.6035
1.66372, -1, -18.5409, 5.61279, 19.3179, -154.82, -94.6404, 88.3126
1.67168, -1, -18.7024, 5.56988, 19.3285, -154.87, -94.6232, 88.0219
1.67973, -1, -18.864, 5.52693, 19.3391, -154.92, -94.6058, 87.7311
1.68766, -1, -19.0256, 5.48395, 19.3496, -154.97, -94.5884, 87.4402
1.69568, -1, -19.1871, 5.44082, 19.3601, -155.02, -94.5706, 87.1488
1.70369, -1, -19.3486, 5.39774, 19.3707, -155.07, -94.5525, 86.8575
1.71171, -1, -19.5097, 5.35463, 19.3812, -155.12, -94.5346, 86.5662
1.71974, -1, -19.6704, 5.31145, 19.3918, -155.169, -94.5168, 86.2747
1.72768, -1, -19.831, 5.26837, 19.4023, -155.22, -94.4993, 85.9829
1.73722, -1, -19.9915, 5.22525, 19.4129, -155.27, -94.482, 85.5458
1.74371, -1, -20.1515, 5.18217, 19.4237, -155.32, -94.4647, 85.4001
1.75272, -1, -20.3113, 5.13928, 19.4345, -155.37, -94.4471, 85.1083
1.75976, -1, -20.4714, 5.09638, 19.4453, -155.42, -94.4294, 84.8165
1.76767, -1, -20.6314, 5.05338, 19.4559, -155.47, -94.4114, 84.5249
1.77568, -1, -20.7918, 5.01048, 19.4666, -155.52, -94.3934, 84.233
1.78376, -1, -20.9526, 4.96762, 19.4772, -155.57, -94.3757, 83.9408
1.79167, -1, -21.1137, 4.92459, 19.4878, -155.62, -94.3583, 83.6488
1.79968, -1, -21.2752, 4.8816, 19.4984, -155.671, -94.3409, 83.3568
1.80774, -1, -21.4372, 4.83846, 19.509, -155.721, -94.3238, 83.0647
1.81571, -1, -21.5993, 4.79525, 19.5196, -155.771, -94.3066, 82.7722
1.8237, -1, -21.7615, 4.75209, 19.5303, -155.821, -94.289, 82.4797
1.83174, -1, -21.9239, 4.70881, 19.541, -155.871, -94.2712, 82.1872
1.83967, -1, -22.0863, 4.66542, 19.5518, -155.922, -94.2532, 81.8945
1.84768, -1, -22.2487, 4.62212, 19.5625, -155.972, -94.2354, 81.6018
1.85574, -1, -22.4111, 4.57876, 19.5731, -156.022, -94.2179, 81.3093
1.86369, -1, -22.573, 4.5354, 19.5838, -156.073, -94.2004, 81.0166
1.87169, -1, -22.7347, 4.49203, 19.5944, -156.123, -94.1831, 80.7239
1.87977, -1, -22.896, 4.44871, 19.605, -156.172, -94.1656, 80.4308
1.88768, -1, -23.0571, 4.40546, 19.6158, -156.223, -94.1478, 80.138
1.89568, -1, -23.2181, 4.36221, 19.6264, -156.273, -94.1296, 79.8449
1.90375, -1, -23.379, 4.31896, 19.6372, -156.324, -94.1113, 79.5515
1.9117, -1, -23.5399, 4.27575, 19.648, -156.374, -94.0933, 79.2582
1.91984, -1, -23.7009, 4.23253, 19.6588, -156.424, -94.0754, 78.965
1.92769, -1, -23.8622, 4.18934, 19.6695, -156.475, -94.0578, 78.6714
1.9357, -1, -24.0237, 4.14609, 19.6802, -156.526, -94.0404, 78.3778
1.94399, -1, -24.1857, 4.10274, 19.6909, -156.576, -94.0229, 78.0839
1.95176, -1, -24.3482, 4.0594, 19.7016, -156.626, -94.0052, 77.7901
1.95983, -1, -24.511, 4.01602, 19.7122, -156.677, -93.9873, 77.496
1.96816, -1, -24.674, 3.9725, 19.7228, -156.727, -93.9691, 77.2018
1.97527, -1, -24.8374, 3.92895, 19.7334, -156.777, -93.951, 76.9079
1.98383, -1, -25.0008, 3.88543, 19.7441, -156.828, -93.9333, 76.614
1.99239, -1, -25.1641, 3.84188, 19.755, -156.878, -93.9156, 76.3198
1.99976, -1, -25.3271, 3.79837, 19.7658, -156.929, -93.8981, 76.0254
2.0077, -1, -25.4898, 3.75478, 19.7766, -156.979, -93.8806, 75.7312
2.01658, -1, -25.6526, 3.71113, 19.7873, -157.029, -93.8627, 75.437
2.02378, -1, -25.8151, 3.66762, 19.7979, -157.08, -93.8446, 75.1424
2.03202, -1, -25.9773, 3.62424, 19.8086, -157.13, -93.8263, 74.8476
2.03877, -1, -26.0584, 3.60248, 19.814, -157.155, -93.8171, 74.7004
2.048, -1, -26.301, 3.53735, 19.8301, -157.232, -93.7899, 74.2585
2.05614, -1, -26.4626, 3.494, 19.8409, -157.282, -93.7722, 73.9636
2.06267, -1, -26.5435, 3.47228, 19.8462, -157.307, -93.7634, 73.816
2.07072, -1, -26.7054, 3.42883, 19.8569, -157.358, -93.7458, 73.521
2.08063, -1, -26.949, 3.36361, 19.8732, -157.434, -93.7193, 73.0783
2.08906, -1, -27.1117, 3.32006, 19.884, -157.485, -93.7012, 72.7829
2.09466, -1, -27.1932, 3.2983, 19.8894, -157.51, -93.6921, 72.6354
2.10439, -1, -27.3565, 3.25475, 19.9054, -157.586, -93.6647, 72.1927
2.11306, -1, -27.5202, 3.21104, 19.9108, -157.636, -93.6467, 71.8974
2.11866, -1, -27.6842, 3.16731, 19.9216, -157.662, -93.6378, 71.7495
2.12766, -1, -27.8482, 3.12368, 19.9323, -157.712, -93.6201, 71.4539
2.1357, -1, -28.0123, 3.07997, 19.9431, -157.763, -93.6024, 71.1584
2.14268, -1, -28.1764, 3.03627, 19.9539, -157.814, -93.5847, 70.8626
2.1517, -1, -28.3405, 2.99255, 19.9646, -157.864, -93.5668, 70.5667
2.15969, -1, -28.5045, 2.94884, 19.9754, -157.915, -93.5485, 70.2707
2.16673, -1, -28.6681, 2.90519, 19.9863, -157.966, -93.5301, 69.9749
2.17566, -1, -28.8315, 2.86154, 19.9971, -158.017, -93.5118, 69.6788
2.1837, -1, -28.9945, 2.81789, 20.0079, -158.068, -93.494, 69.3823
2.19066, -1, -29.1571, 2.77426, 20.0186, -158.119, -93.4763, 69.086
2.19966, -1, -29.3199, 2.73065, 20.0294, -158.169, -93.4587, 68.7894
2.20769, -1, -29.4826, 2.68703, 20.0402, -158.221, -93.4411, 68.4927
2.21469, -1, -29.6455, 2.64334, 20.0509, -158.272, -93.4232, 68.196
2.22366, -1, -29.8085, 2.59959, 20.0617, -158.322, -93.405, 67.8994
2.2317, -1, -29.9717, 2.55586, 20.0724, -158.374, -93.3865, 67.6027
2.23969, -1, -30.1351, 2.51206, 20.0833, -158.424, -93.3683, 67.3057
2.24768, -1, -30.299, 2.46813, 20.0943, -158.475, -93.3503, 67.0087
2.25671, -1, -30.4633, 2.42423, 20.1052, -158.526, -93.3326, 66.7119
2.26266, -1, -30.6281, 2.38029, 20.116, -158.577, -93.3149, 66.4149
2.27167, -1, -30.7931, 2.33632, 20.1267, -158.628, -93.2972, 66.1175
2.27969, -1, -30.9581, 2.29243, 20.1375, -158.679, -93.2793, 65.8203
2.28769, -1, -31.1231, 2.24841, 20.1484, -158.73, -93.2609, 65.5229
2.29566, -1, -31.288, 2.20446, 20.1592, -158.781, -93.2424, 65.2256
2.30369, -1, -31.4527, 2.16063, 20.1699, -158.832, -93.2241, 64.9279
2.31167, -1, -31.6173, 2.11668, 20.1806, -158.883, -93.206, 64.6303
2.31969, -1, -31.7817, 2.07271, 20.1915, -158.935, -93.1883, 64.3324
2.32772, -1, -31.9458, 2.02884, 20.2025, -158.986, -93.1707, 64.0345
2.33566, -1, -32.1097, 1.98486, 20.2134, -159.037, -93.153, 63.7366
2.34366, -1, -32.2734, 1.94093, 20.2244, -159.088, -93.1353, 63.4389
2.35175, -1, -32.4369, 1.89698, 20.2352, -159.139, -93.1171, 63.1411
2.35966, -1, -32.6007, 1.85291, 20.2461, -159.19, -93.0987, 62.8428
2.36766, -1, -32.7646, 1.8089, 20.2571, -159.242, -93.0804, 62.5445
2.37572, -1, -32.9286, 1.76484, 20.2679, -159.293, -93.0623, 62.2464
2.38369, -1, -33.093, 1.72065, 20.2788, -159.344, -93.0444, 61.9478
2.39167, -1, -33.2578, 1.67649, 20.2897, -159.395, -93.0266, 61.6492
2.39973, -1, -33.4229, 1.63234, 20.3006, -159.446, -93.0087, 61.3507
2.40766, -1, -33.5884, 1.58814, 20.3115, -159.498, -92.9907, 61.0521
2.41569, -1, -33.7541, 1.54397, 20.3225, -159.549, -92.9723, 60.7534
2.42373, -1, -33.9198, 1.49982, 20.3334, -159.6, -92.9535, 60.4543
2.43169, -1, -34.0857, 1.45564, 20.3443, -159.652, -92.935, 60.1553
2.4397, -1, -34.2516, 1.41157, 20.3551, -159.703, -92.9167, 59.8562
2.4478, -1, -34.4175, 1.36743, 20.3661, -159.754, -92.8987, 59.5567
2.45575, -1, -34.5833, 1.32328, 20.377, -159.806, -92.881, 59.2573
2.46376, -1, -34.7487, 1.27919, 20.3878, -159.857, -92.8632, 58.958
2.47231, -1, -34.9137, 1.23502, 20.3987, -159.908, -92.8452, 58.6587
2.47977, -1, -35.0785, 1.19089, 20.4096, -159.96, -92.827, 58.359
2.4878, -1, -35.2431, 1.14666, 20.4206, -160.011, -92.8084, 58.0593
2.49584, -1, -35.4076, 1.10245, 20.4316, -160.063, -92.7899, 57.7597
2.50368, -1, -35.5711, 1.05849, 20.4428, -160.114, -92.7717, 57.4599
2.5117, -1, -35.7325, 1.01492, 20.4541, -160.165, -92.7537, 57.1604
2.51979, -1, -35.8906, 0.972106, 20.4656, -160.216, -92.736, 56.8631
2.52779, -1, -36.0444, 0.93063, 20.4775, -160.267, -92.7184, 56.5699
2.53619, -1, -36.1922, 0.891, 20.4894, -160.315, -92.701, 56.2841
2.54265, -1, -36.2631, 0.872058, 20.4954, -160.339, -92.6926, 56.1455
2.55202, -1, -36.4604, 0.819783, 20.5125, -160.405, -92.6682, 55.7565
2.5587, -1, -36.5206, 0.803896, 20.5176, -160.425, -92.6608, 55.6385
2.56818, -1, -36.681, 0.761477, 20.5309, -160.477, -92.6414, 55.3282
2.57619, -1, -36.7697, 0.738001, 20.5375, -160.505, -92.6312, 55.1635
2.58422, -1, -36.8441, 0.718227, 20.5416, -160.528, -92.6234, 55.0338
2.59231, -1, -36.9052, 0.702114, 20.5438, -160.544, -92.6178, 54.9386
2.60049, -1, -36.9533, 0.689471, 20.5447, -160.556, -92.6139, 54.8719
2.60827, -1, -36.9893, 0.679937, 20.5447, -160.563, -92.6117, 54.8289
2.6163, -1, -37.0034, 0.6762, 20.5445, -160.568, -92.6103, 54.8034
2.62365, -1, -37.0247, 0.670631, 20.544, -160.569, -92.6099, 54.7953
2.63166, -1, -37.0381, 0.667293, 20.5437, -160.571, -92.6094, 54.7855
2.63967, 2, -37.0456, 0.66554, 20.5435, -160.572, -92.6091, 54.7809
2.64765, 2, -37.0484, 0.664723, 20.5434, -160.572, -92.609, 54.7788
2.6557, 2, -37.0486, 0.664397, 20.5434, -160.573, -92.609, 54.7778
2.66371, 2, -37.0481, 0.664247, 20.5433, -160.573, -92.609, 54.7774
2.67165, 2, -37.0479, 0.664191, 20.5433, -160.573, -92.609, 54.7772
2.67965, 2, -37.0483, 0.664127, 20.5433, -160.573, -92.6091, 54.7772
2.6877, 2, -37.0492, 0.6641, 20.5433, -160.573, -92.609, 54.7772
2.69565, 2, -37.0502, 0.663995, 20.5432, -160.573, -92.6091, 54.7773
2.70364, 2, -37.0516, 0.663794, 20.543, -160.573, -92.6091, 54.7775
2.71171, 2, -37.0529, 0.66356, 20.5428, -160.573, -92.6091, 54.7777
2.71969, 2, -37.054, 0.663319, 20.5426, -160.573, -92.6092, 54.7779
2.72765, 2, -37.055, 0.663104, 20.5424, -160.573, -92.6092, 54.7781
2.73571, 2, -37.0554, 0.663, 20.5422, -160.573, -92.6092, 54.7783
2.74365, 2, -37.0554, 0.662957, 20.5421, -160.573, -92.6092, 54.7785
2.75359, 2, -37.0544, 0.662977, 20.5419, -160.573, -92.6093, 54.7788
2.75971, 2, -37.054, 0.663024, 20.5419, -160.573, -92.6093, 54.7789
2.76869, 2, -37.053, 0.663097, 20.5418, -160.573, -92.6093, 54.7792
2.77565, 2, -37.0514, 0.663204, 20.5417, -160.573, -92.6094, 54.7794
2.78372, 2, -37.0499, 0.663332, 20.5417, -160.573, -92.6094, 54.7796
2.79166, 2, -37.0488, 0.663374, 20.5416, -160.573, -92.6094, 54.7797
2.79965, 2, -37.048, 0.663386, 20.5416, -160.573, -92.6094, 54.7798
2.80771, 2, -37.0477, 0.663372, 20.5416, -160.573, -92.6094, 54.7798
2.81564, 2, -37.0477, 0.663331, 20.5416, -160.573, -92.6095, 54.78
2.82368, 2, -37.0479, 0.663249, 20.5415, -160.573, -92.6095, 54.78
2.83172, 2, -37.0481, 0.663182, 20.5415, -160.573, -92.6096, 54.78
2.83965, 2, -37.0486, 0.663151, 20.5415, -160.573, -92.6096, 54.78
2.84765, 2, -37.0494, 0.663137, 20.5415, -160.573, -92.6096, 54.7801
2.85571, 2, -37.0502, 0.66313, 20.5415, -160.573, -92.6096, 54.7801
2.86364, 2, -37.051, 0.663127, 20.5415, -160.573, -92.6095, 54.7802
2.87166, 2, -37.0515, 0.663145, 20.5415, -160.573, -92.6095, 54.7802
2.87977, 2, -37.0517, 0.663177, 20.5415, -160.573, -92.6095, 54.7803
2.88767, 2, -37.0518, 0.663202, 20.5415, -160.573, -92.6096, 54.7802
2.89563, 2, -37.0517, 0.663229, 20.5415, -160.573, -92.6096, 54.7803
2.90371, 2, -37.0514, 0.663239, 20.5415, -160.573, -92.6096, 54.7804
2.91165, 2, -37.051, 0.663238, 20.5415, -160.573, -92.6096, 54.7805
2.91967, 2, -37.0507, 0.663208, 20.5415, -160.573, -92.6096, 54.7805
2.92771, 2, -37.0504, 0.66318, 20.5414, -160.573, -92.6096, 54.7806
2.93567, 2, -37.0502, 0.66315, 20.5414, -160.573, -92.6097, 54.7806
2.94369, 2, -37.0501, 0.663156, 20.5414, -160.572, -92.6097, 54.7806
2.9518, 2, -37.0501, 0.663151, 20.5414, -160.572, -92.6097, 54.7807
2.95974, 2, -37.0501, 0.663142, 20.5414, -160.573, -92.6097, 54.7808
2.96775, 2, -37.0501, 0.663132, 20.5413, -160.573, -92.6097, 54.7808
2.97581, 2, -37.0502, 0.663148, 20.5413, -160.573, -92.6097, 54.7809
2.98376, 2, -37.0504, 0.663171, 20.5413, -160.573, -92.6096, 54.7809
2.99179, 2, -37.0507, 0.663207, 20.5413, -160.573, -92.6097, 54.781
2.99987, 2, -37.0508, 0.663213, 20.5413, -160.572, -92.6097, 54.7811
3.00767, 2, -37.0509, 0.6632, 20.5413, -160.573, -92.6097, 54.7811
3.01568, 2, -37.0509, 0.663221, 20.5413, -160.572, -92.6097, 54.7812
3.02382, 2, -37.0508, 0.663219, 20.5413, -160.572, -92.6097, 54.7812
3.03174, 2, -37.0508, 0.663192, 20.5413, -160.572, -92.6097, 54.7812
3.04015, 2, -37.0508, 0.66318, 20.5413, -160.572, -92.6097, 54.7813
3.04822, 2, -37.0508, 0.663162, 20.5413, -160.572, -92.6097, 54.7813
3.05466, 2, -37.0507, 0.663157, 20.5413, -160.572, -92.6097, 54.7813
3.06434, 2, -37.0506, 0.66315, 20.5413, -160.572, -92.6097, 54.7814
3.07218, 2, -37.0506, 0.663149, 20.5412, -160.572, -92.6098, 54.7815
3.08016, 2, -37.0506, 0.66316, 20.5412, -160.572, -92.6097, 54.7815
3.08848, 2, -37.0506, 0.663195, 20.5412, -160.572, -92.6098, 54.7815
3.09646, 2, -37.0506, 0.663218, 20.5412, -160.572, -92.6098, 54.7815
3.10422, 2, -37.0506, 0.663229, 20.5412, -160.572, -92.6098, 54.7816
3.11242, 2, -37.0506, 0.663234, 20.5412, -160.572, -92.6098, 54.7816
3.12039, 2, -37.0506, 0.663224, 20.5412, -160.572, -92.6098, 54.7817
3.12763, 2, -37.0506, 0.663224, 20.5412, -160.572, -92.6098, 54.7817
3.13649, 2, -37.0506, 0.663222, 20.5412, -160.572, -92.6098, 54.7817
3.14368, 2, -37.0505, 0.663216, 20.5412, -160.572, -92.6098, 54.7817
3.15164, 2, -37.0505, 0.663228, 20.5412, -160.572, -92.6098, 54.7818
3.15975, 2, -37.0505, 0.663204, 20.5412, -160.572, -92.6098, 54.7818
3.16768, 2, -37.0505, 0.663215, 20.5412, -160.572, -92.6098, 54.7818
3.17563, 2, -37.0505, 0.663198, 20.5412, -160.572, -92.6098, 54.7819
3.18364, 2, -37.0505, 0.663194, 20.5412, -160.572, -92.6099, 54.782
3.19168, 2, -37.0505, 0.663199, 20.5411, -160.572, -92.6099, 54.782
3.19964, 2, -37.0505, 0.663202, 20.5411, -160.572, -92.6099, 54.782
3.20763, 2, -37.0505, 0.663221, 20.5412, -160.572, -92.6099, 54.782
3.21569, 2, -37.0505, 0.66323, 20.5411, -160.572, -92.6099, 54.782
3.22366, 2, -37.0505, 0.663234, 20.5411, -160.572, -92.6099, 54.7821
3.23163, 2, -37.0504, 0.663236, 20.5411, -160.572, -92.6099, 54.782
3.2397, 2, -37.0505, 0.663249, 20.5411, -160.572, -92.6099, 54.782
3.24763, 2, -37.0504, 0.663243, 20.5411, -160.572, -92.6099, 54.7821
3.25751, 2, -37.0505, 0.663239, 20.5411, -160.572, -92.6099, 54.7821
3.26369, 2, -37.0505, 0.663228, 20.5411, -160.572, -92.6099, 54.7821
3.27269, 2, -37.0504, 0.663226, 20.5411, -160.572, -92.6099, 54.7821
3.27964, 2, -37.0504, 0.663232, 20.5411, -160.572, -92.6099, 54.7822
3.28769, 2, -37.0504, 0.663236, 20.5411, -160.572, -92.6099, 54.7822
3.29563, 2, -37.0504, 0.663242, 20.541, -160.572, -92.6099, 54.7823
3.30363, 2, -37.0504, 0.66324, 20.5411, -160.572, -92.61, 54.7824
3.3117, 2, -37.0504, 0.663239, 20.5411, -160.572, -92.6099, 54.7824
3.31963, 2, -37.0503, 0.663238, 20.541, -160.572, -92.6099, 54.7824
3.32766, 2, -37.0504, 0.66325, 20.541, -160.572, -92.6099, 54.7823
3.33573, 2, -37.0504, 0.663251, 20.541, -160.572, -92.6099, 54.7824
3.34363, 2, -37.0503, 0.663256, 20.541, -160.572, -92.6099, 54.7824
3.35163, 2, -37.0504, 0.663271, 20.541, -160.572, -92.6099, 54.7824
3.3597, 2, -37.0504, 0.663258, 20.541, -160.572, -92.6099, 54.7825
3.36763, 2, -37.0503, 0.663254, 20.541, -160.572, -92.6099, 54.7824
3.37562, 2, -37.0503, 0.66325, 20.541, -160.572, -92.61, 54.7824
3.3837, 2, -37.0503, 0.663225, 20.541, -160.572, -92.61, 54.7824
3.39165, 2, -37.0503, 0.663244, 20.541, -160.572, -92.61, 54.7824
3.39964, 2, -37.0503, 0.663253, 20.5409, -160.572, -92.6099, 54.7824
3.40769, 2, -37.0503, 0.663252, 20.5409, -160.572, -92.6099, 54.7825
3.41563, 2, -37.0502, 0.663249, 20.5409, -160.572, -92.61, 54.7825
3.42365, 2, -37.0502, 0.66325, 20.541, -160.572, -92.61, 54.7825
3.43169, 2, -37.0502, 0.663248, 20.541, -160.572, -92.61, 54.7825
3.43967, 2, -37.0502, 0.663262, 20.541, -160.572, -92.6099, 54.7826
3.44766, 2, -37.0502, 0.663261, 20.541, -160.572, -92.61, 54.7825
3.45578, 2, -37.0502, 0.663261, 20.5409, -160.572, -92.61, 54.7825
3.46372, 2, -37.0502, 0.663265, 20.5409, -160.572, -92.61, 54.7826
3.47172, 2, -37.0501, 0.66327, 20.5409, -160.572, -92.61, 54.7826
3.4798, 2, -37.0501, 0.663257, 20.5409, -160.572, -92.61, 54.7826
3.48773, 2, -37.0501, 0.663247, 20.5409, -160.572, -92.61, 54.7826
3.49576, 2, -37.0502, 0.663242, 20.5409, -160.572, -92.61, 54.7826
3.50375, 2, -37.0501, 0.66324, 20.5409, -160.572, -92.61, 54.7826
3.51166, 2, -37.0501, 0.663251, 20.5409, -160.572, -92.6099, 54.7826
3.51967, 2, -37.0501, 0.663256, 20.5409, -160.572, -92.6099, 54.7826
3.52802, 2, -37.0501, 0.663258, 20.5409, -160.572, -92.6099, 54.7827
3.53575, 2, -37.0501, 0.663259, 20.5408, -160.572, -92.61, 54.7827
3.54383, 2, -37.05, 0.66326, 20.5408, -160.572, -92.61, 54.7828
3.55202, 2, -37.05, 0.66326, 20.5408, -160.572, -92.6101, 54.7828
3.55865, 2, -37.05, 0.66326, 20.5408, -160.572, -92.6101, 54.7828
3.56799, 2, -37.05, 0.663255, 20.5408, -160.572, -92.6101, 54.7827
3.57622, 2, -37.0499, 0.663251, 20.5408, -160.572, -92.6101, 54.7828
3.58425, 2, -37.0499, 0.663251, 20.5408, -160.572, -92.6101, 54.7827
3.59217, 2, -37.0499, 0.663268, 20.5408, -160.572, -92.6101, 54.7827
3.60039, 2, -37.0499, 0.663276, 20.5408, -160.572, -92.6101, 54.7828
3.6082, 2, -37.0499, 0.66326, 20.5408, -160.572, -92.6101, 54.7828
3.61617, 2, -37.0499, 0.663253, 20.5408, -160.572, -92.61, 54.7828
3.62437, 2, -37.0499, 0.663252, 20.5408, -160.572, -92.6101, 54.7828
3.63161, 2, -37.0499, 0.663269, 20.5408, -160.572, -92.6101, 54.7828
3.64038, 2, -37.0499, 0.663276, 20.5408, -160.572, -92.61, 54.7828
3.64768, 2, -37.0499, 0.66328, 20.5408, -160.572, -92.6101, 54.7828
3.65566, 2, -37.0498, 0.663269, 20.5407, -160.572, -92.6101, 54.7828
3.66365, 2, -37.0498, 0.663277, 20.5407, -160.572, -92.6101, 54.7828
3.67161, 2, -37.0498, 0.66328, 20.5407, -160.572, -92.6101, 54.7828
3.67968, 2, -37.0497, 0.663282, 20.5407, -160.572, -92.6101, 54.7828
3.68766, 2, -37.0497, 0.663282, 20.5407, -160.572, -92.6101, 54.7829
3.69561, 2, -37.0497, 0.663283, 20.5407, -160.572, -92.6101, 54.7829
3.70363, 2, -37.0497, 0.663283, 20.5407, -160.572, -92.6101, 54.7829
3.71161, 2, -37.0497, 0.663283, 20.5407, -160.572, -92.6101, 54.7829
3.71962, 2, -37.0497, 0.663283, 20.5407, -160.572, -92.6101, 54.7829
3.72768, 4, -37.0497, 0.663294, 20.5407, -160.572, -92.6101, 54.7829
3.73561, 4, -37.0496, 0.663295, 20.5407, -160.571, -92.6101, 54.7829
3.74361, 4, -37.0496, 0.663289, 20.5407, -160.572, -92.6101, 54.7829
3.75168, 4, -37.0496, 0.663286, 20.5407, -160.572, -92.6101, 54.7829
3.76121, 4, -37.0496, 0.663313, 20.5407, -160.572, -92.6101, 54.7829
3.76761, 4, -37.0495, 0.663304, 20.5407, -160.572, -92.6102, 54.7829
3.7757, 4, -37.0495, 0.663311, 20.5407, -160.571, -92.6102, 54.7829
3.78362, 4, -37.0495, 0.663314, 20.5406, -160.571, -92.6102, 54.7828
3.79161, 4, -37.0494, 0.663327, 20.5407, -160.571, -92.6102, 54.7829
3.79969, 4, -37.0494, 0.663321, 20.5406, -160.571, -92.6102, 54.7829
3.80761, 4, -37.0494, 0.663308, 20.5406, -160.571, -92.6102, 54.7829
3.81561, 4, -37.0494, 0.663313, 20.5406, -160.571, -92.6101, 54.783
3.82367, 4, -37.0493, 0.663297, 20.5406, -160.571, -92.6101, 54.7829
3.84923, 4, -37.0492, 0.663317, 20.5406, -160.571, -92.6101, 54.7829
3.85572, 4, -37.0492, 0.663336, 20.5406, -160.571, -92.6101, 54.7829
3.85695, 4, -37.0492, 0.663336, 20.5406, -160.571, -92.6101, 54.7829
3.85897, 4, -37.0492, 0.66334, 20.5406, -160.571, -92.6101, 54.7829
3.86367, 4, -37.0492, 0.663344, 20.5406, -160.571, -92.6101, 54.7829
3.87161, 4, -37.0492, 0.66336, 20.5406, -160.571, -92.6101, 54.7829
3.87968, 4, -37.0489, 0.663318, 20.5406, -160.571, -92.6101, 54.7829
3.8876, 4, -37.0475, 0.662922, 20.5406, -160.571, -92.6102, 54.783
3.89563, 4, -37.0434, 0.661237, 20.541, -160.571, -92.6102, 54.7829
3.90361, 4, -37.0362, 0.657531, 20.5424, -160.571, -92.6102, 54.7829
3.91161, 4, -37.027, 0.651941, 20.5454, -160.571, -92.6102, 54.7829
3.91968, 4, -37.0161, 0.644601, 20.5509, -160.57, -92.6102, 54.7829
3.92783, 4, -37.0029, 0.635014, 20.5596, -160.568, -92.6102, 54.7829
3.93569, 5, -36.9872, 0.622944, 20.5717, -160.566, -92.6101, 54.7829
3.94365, 5, -36.9698, 0.608847, 20.5876, -160.562, -92.61, 54.7828
3.95173, 5, -36.9512, 0.59321, 20.6065, -160.558, -92.6098, 54.7826
3.9597, 5, -36.9308, 0.575583, 20.6276, -160.554, -92.6096, 54.7825
3.96771, 5, -36.9075, 0.555321, 20.6506, -160.549, -92.6093, 54.7824
3.97582, 5, -36.8808, 0.533245, 20.6746, -160.544, -92.609, 54.7823
3.98372, 5, -36.852, 0.510203, 20.6992, -160.539, -92.6087, 54.7822
3.99173, 5, -36.8221, 0.486334, 20.7241, -160.533, -92.6083, 54.782
3.99982, 5, -36.7915, 0.462233, 20.7491, -160.528, -92.6078, 54.7819
4.00761, 5, -36.7606, 0.43801, 20.7743, -160.522, -92.6072, 54.7817
4.01581, 5, -36.7296, 0.413604, 20.7992, -160.516, -92.6067, 54.7814
4.02371, 5, -36.6986, 0.389246, 20.8242, -160.511, -92.6061, 54.7812
4.03168, 5, -36.668, 0.364835, 20.8494, -160.505, -92.6054, 54.7811
4.03984, 5, -36.6376, 0.340629, 20.8747, -160.499, -92.6047, 54.7809
4.04659, 5, -36.6223, 0.328571, 20.8873, -160.496, -92.6043, 54.7808
4.05588, 5, -36.5762, 0.292472, 20.925, -160.488, -92.6033, 54.7807
4.06437, 5, -36.5453, 0.268579, 20.9503, -160.483, -92.6026, 54.7806
4.07202, 5, -36.5145, 0.244519, 20.9755, -160.477, -92.6019, 54.7805
4.07864, 5, -36.4992, 0.232502, 20.9881, -160.475, -92.6015, 54.7805
4.08828, 5, -36.4536, 0.196556, 21.0259, -160.467, -92.6004, 54.7803
4.09617, 5, -36.4233, 0.172455, 21.0509, -160.462, -92.5996, 54.7802
4.10433, 5, -36.3927, 0.148419, 21.0761, -160.456, -92.5988, 54.78
4.11246, 5, -36.3619, 0.124211, 21.1012, -160.451, -92.5981, 54.7798
4.12019, 5, -36.3464, 0.112075, 21.1137, -160.446, -92.5973, 54.7797
4.12816, 5, -36.3152, 0.0879241, 21.1387, -160.444, -92.597, 54.7795
4.13566, 5, -36.284, 0.0637004, 21.1637, -160.438, -92.5962, 54.7793
4.1436, 5, -36.2528, 0.0394606, 21.1887, -160.433, -92.5954, 54.7789
4.1516, 5, -36.2214, 0.0153499, 21.2138, -160.428, -92.5947, 54.7786
4.15967, 5, -36.1903, -0.00880446, 21.2387, -160.423, -92.594, 54.7782
4.16769, 5, -36.1592, -0.0327699, 21.2637, -160.418, -92.5932, 54.7778
4.1756, 5, -36.1281, -0.0566796, 21.2886, -160.412, -92.5924, 54.7773
4.1836, 5, -36.0969, -0.0805072, 21.3137, -160.407, -92.5917, 54.7769
4.19177, 5, -36.0656, -0.104273, 21.3386, -160.402, -92.5909, 54.7764
4.19964, 5, -36.0346, -0.128199, 21.3634, -160.396, -92.5902, 54.7759
4.2076, 5, -36.0035, -0.151992, 21.3882, -160.39, -92.5894, 54.7754
4.2156, 5, -35.9726, -0.175817, 21.413, -160.385, -92.5887, 54.7749
4.22368, 5, -35.9417, -0.199754, 21.4379, -160.379, -92.5879, 54.7744
4.23164, 5, -35.9105, -0.22358, 21.4627, -160.373, -92.5872, 54.774
4.2396, 5, -35.8793, -0.247563, 21.4874, -160.367, -92.5865, 54.7736
4.24765, 5, -35.8479, -0.271462, 21.5121, -160.361, -92.5857, 54.7731
4.25814, 5, -35.8164, -0.295242, 21.5368, -160.355, -92.585, 54.7728
4.26266, 5, -35.785, -0.319182, 21.5615, -160.35, -92.5843, 54.7725
4.27168, 5, -35.7534, -0.343012, 21.5861, -160.344, -92.5835, 54.7721
4.28064, 5, -35.722, -0.366812, 21.6108, -160.338, -92.5829, 54.7718
4.28669, 5, -35.6907, -0.390616, 21.6354, -160.333, -92.5822, 54.7716
4.29566, 5, -35.6592, -0.414235, 21.6601, -160.327, -92.5814, 54.7714
4.30359, 5, -35.6278, -0.437919, 21.6845, -160.322, -92.5807, 54.7711
4.31165, 5, -35.5962, -0.461499, 21.7089, -160.316, -92.58, 54.771
4.31962, 5, -35.5648, -0.485206, 21.7333, -160.311, -92.5793, 54.7708
4.32759, 5, -35.5336, -0.50893, 21.7578, -160.305, -92.5786, 54.7707
4.33564, 5, -35.5023, -0.532437, 21.7823, -160.3, -92.5779, 54.7706
4.34362, 5, -35.4709, -0.556087, 21.8066, -160.295, -92.5772, 54.7705
4.35165, 5, -35.4393, -0.579659, 21.8308, -160.289, -92.5764, 54.7704
4.35961, 5, -35.4078, -0.603255, 21.8551, -160.284, -92.5757, 54.7703
4.36762, 5, -35.3762, -0.626965, 21.8794, -160.278, -92.575, 54.7702
4.37562, 5, -35.3445, -0.650445, 21.9036, -160.273, -92.5743, 54.7702
4.38476, 5, -35.3127, -0.673981, 21.9279, -160.267, -92.5736, 54.7702
4.39162, 5, -35.2809, -0.697555, 21.952, -160.262, -92.5729, 54.7702
4.39968, 5, -35.2492, -0.720981, 21.9763, -160.256, -92.5722, 54.7702
4.4076, 5, -35.2174, -0.744477, 22.0005, -160.25, -92.5715, 54.7702
4.41969, 5, -35.1698, -0.779389, 22.0364, -160.241, -92.5704, 54.7702
4.42362, 5, -35.1538, -0.791028, 22.0485, -160.238, -92.5701, 54.7702
4.43159, 5, -35.122, -0.814351, 22.0725, -160.232, -92.5694, 54.7702
4.43966, 5, -35.0904, -0.837537, 22.0967, -160.226, -92.5687, 54.7701
4.44763, 5, -35.0587, -0.860914, 22.1206, -160.22, -92.5679, 54.7703
4.45566, 5, -35.0271, -0.884292, 22.1445, -160.214, -92.5672, 54.7703
4.46451, 5, -34.9953, -0.907463, 22.1684, -160.208, -92.5665, 54.7703
4.47169, 5, -34.9634, -0.930807, 22.1922, -160.202, -92.5658, 54.7703
4.47969, 5, -34.9317, -0.95409, 22.2161, -160.196, -92.5651, 54.7703
4.48777, 5, -34.8999, -0.977286, 22.2398, -160.19, -92.5643, 54.7703
4.49576, 5, -34.868, -1.0006, 22.2636, -160.184, -92.5636, 54.7704
4.50373, 5, -34.836, -1.02368, 22.2874, -160.179, -92.5629, 54.7705
4.51175, 5, -34.8039, -1.04674, 22.311, -160.173, -92.5622, 54.7705
4.51963, 5, -34.772, -1.06987, 22.3348, -160.168, -92.5615, 54.7706
4.52769, 5, -34.7399, -1.09286, 22.3583, -160.162, -92.5607, 54.7707
4.53574, 5, -34.7079, -1.11597, 22.3818, -160.157, -92.56, 54.7707
4.54374, 5, -34.6759, -1.13905, 22.4055, -160.151, -92.5594, 54.7708
4.55194, 5, -34.6438, -1.16202, 22.4291, -160.146, -92.5586, 54.7708
4.56081, 5, -34.6118, -1.18508, 22.4526, -160.14, -92.5579, 54.7709
4.56799, 5, -34.5798, -1.20803, 22.476, -160.135, -92.557, 54.7711
4.57611, 5, -34.5477, -1.23105, 22.4994, -160.129, -92.5563, 54.7713
4.58559, 5, -34.5155, -1.25411, 22.5227, -160.123, -92.5555, 54.7715
4.59214, 5, -34.4833, -1.27699, 22.5462, -160.117, -92.5548, 54.7718
4.6002, 5, -34.4512, -1.29995, 22.5695, -160.111, -92.5541, 54.7721
4.60819, 5, -34.4191, -1.3228, 22.5928, -160.105, -92.5534, 54.7725
4.61616, 5, -34.403, -1.34562, 22.6161, -160.099, -92.5526, 54.773
4.62428, 5, -34.3707, -1.36856, 22.6394, -160.093, -92.5519, 54.7737
4.63236, 5, -34.3383, -1.37995, 22.6511, -160.087, -92.5512, 54.7744
4.63962, 5, -34.306, -1.40262, 22.6743, -160.084, -92.5508, 54.7748
4.64758, 5, -34.2738, -1.42545, 22.6974, -160.077, -92.5499, 54.7757
4.65558, 5, -34.2415, -1.44817, 22.7206, -160.071, -92.5492, 54.7767
4.66364, 5, -34.2091, -1.47082, 22.7437, -160.065, -92.5485, 54.7778
4.67163, 5, -34.1767, -1.49358, 22.767, -160.058, -92.5477, 54.7791
4.6796, 5, -34.1444, -1.51619, 22.79, -160.052, -92.5469, 54.7805
4.68656, 5, -34.112, -1.53882, 22.813, -160.046, -92.5462, 54.7818
4.69558, 5, -34.0797, -1.56143, 22.8361, -160.04, -92.5454, 54.7833
4.70359, 5, -34.0473, -1.58397, 22.8591, -160.034, -92.5446, 54.7847
4.71163, 5, -34.0148, -1.60666, 22.8821, -160.028, -92.5438, 54.7863
4.71958, 5, -33.9824, -1.62925, 22.905, -160.023, -92.5431, 54.7878
4.7276, 5, -33.95, -1.65167, 22.928, -160.017, -92.5423, 54.7894
4.73568, 5, -33.9175, -1.67426, 22.951, -160.011, -92.5415, 54.791
4.74358, 5, -33.8849, -1.69669, 22.9739, -160.005, -92.5406, 54.7927
4.75174, 5, -33.8523, -1.71907, 22.9968, -159.999, -92.5399, 54.7943
4.76039, 5, -33.8199, -1.74162, 23.0194, -159.993, -92.5391, 54.796
4.76759, 5, -33.7872, -1.76393, 23.0422, -159.987, -92.5383, 54.7976
4.77662, 5, -33.7546, -1.78631, 23.0649, -159.981, -92.5375, 54.7993
4.78358, 5, -33.7219, -1.80877, 23.0877, -159.975, -92.5368, 54.801
4.79158, 5, -33.6891, -1.83104, 23.1104, -159.969, -92.5359, 54.8027
4.80037, 5, -33.6566, -1.85345, 23.133, -159.963, -92.5351, 54.8043
4.80757, 5, -33.624, -1.87579, 23.1556, -159.956, -92.5343, 54.806
4.81558, 5, -33.5913, -1.89802, 23.1781, -159.95, -92.5335, 54.8078
4.82458, 5, -33.5586, -1.92036, 23.2006, -159.943, -92.5327, 54.8095
4.83241, 5, -33.5258, -1.94256, 23.2232, -159.937, -92.5319, 54.8112
4.83963, 5, -33.4931, -1.96492, 23.2457, -159.93, -92.5311, 54.813
4.85016, 5, -33.4441, -1.99856, 23.2796, -159.921, -92.5298, 54.8155
4.85558, 5, -33.4277, -2.00974, 23.2908, -159.917, -92.5293, 54.8163
4.86364, 5, -33.395, -2.0323, 23.3134, -159.911, -92.5284, 54.8179
4.87157, 5, -33.3624, -2.05497, 23.3361, -159.904, -92.5274, 54.8194
4.87958, 5, -33.3298, -2.07765, 23.3587, -159.898, -92.526, 54.8205
4.88764, 5, -33.2974, -2.10068, 23.3816, -159.891, -92.5245, 54.8214
4.8956, 6, -33.2648, -2.12378, 23.4047, -159.885, -92.5228, 54.8222
4.90364, 6, -33.2324, -2.14699, 23.428, -159.878, -92.5208, 54.8226
4.91164, 6, -33.2003, -2.17065, 23.4515, -159.871, -92.5185, 54.8228
4.91958, 6, -33.1681, -2.19442, 23.475, -159.864, -92.516, 54.823
4.93195, 6, -33.1362, -2.21852, 23.4989, -159.853, -92.5116, 54.8229
4.93565, 6, -33.1042, -2.24296, 23.5229, -159.849, -92.5099, 54.8228
4.94357, 6, -33.0723, -2.26751, 23.5472, -159.841, -92.5065, 54.8225
4.95173, 6, -33.0408, -2.29244, 23.5716, -159.833, -92.5029, 54.822
4.95965, 6, -33.0093, -2.31755, 23.5962, -159.824, -92.499, 54.8214
4.96773, 6, -32.9779, -2.34307, 23.6211, -159.816, -92.4948, 54.8205
4.97603, 6, -32.9465, -2.3689, 23.6462, -159.806, -92.4904, 54.8195
4.98374, 7, -32.9151, -2.3948, 23.6715, -159.797, -92.4858, 54.8184
4.99168, 7, -32.8841, -2.42114, 23.6967, -159.787, -92.481, 54.8169
5, 7, -32.8532, -2.4476, 23.7223, -159.777, -92.4759, 54.8147
5.00778, 7, -32.8223, -2.47452, 23.7482, -159.767, -92.4706, 54.8117
5.01561, 7, -32.7916, -2.50162, 23.7743, -159.757, -92.4649, 54.808
5.02469, 7, -32.7608, -2.52894, 23.8004, -159.747, -92.4591, 54.8037
5.03232, 7, -32.7303, -2.55665, 23.8268, -159.737, -92.453, 54.7988
5.04053, 7, -32.7, -2.58459, 23.8534, -159.726, -92.4466, 54.7935
5.04777, 7, -32.6697, -2.61287, 23.8803, -159.716, -92.44, 54.7877
5.05585, 7, -32.6395, -2.64134, 23.9072, -159.705, -92.4331, 54.7815
5.0648, 7, -32.6094, -2.67006, 23.9344, -159.694, -92.4258, 54.7749
5.07196, 7, -32.5795, -2.6991, 23.9619, -159.683, -92.4183, 54.768
5.08035, 8, -32.5496, -2.72857, 23.9897, -159.671, -92.4103, 54.7606
5.08886, 8, -32.5199, -2.75819, 24.0175, -159.659, -92.4019, 54.7529
5.09646, 8, -32.4903, -2.78807, 24.0454, -159.647, -92.3931, 54.7447
5.10422, 8, -32.4607, -2.81817, 24.0737, -159.634, -92.3838, 54.7363
5.113, 8, -32.4313, -2.84869, 24.1022, -159.622, -92.3742, 54.7274
5.12019, 8, -32.4021, -2.87935, 24.1309, -159.609, -92.3642, 54.7181
5.12838, 8, -32.3875, -2.8948, 24.1597, -159.597, -92.3541, 54.7086
5.13557, 8, -32.3584, -2.92593, 24.1742, -159.59, -92.349, 54.7036
5.1443, 8, -32.3293, -2.95733, 24.2034, -159.578, -92.3387, 54.6933
5.15161, 8, -32.3003, -2.98905, 24.2328, -159.565, -92.3283, 54.6826
5.15957, 8, -32.2716, -3.02096, 24.2623, -159.551, -92.3177, 54.6715
5.16757, 9, -32.243, -3.05307, 24.2922, -159.538, -92.307, 54.66
5.17564, 9, -32.2145, -3.08556, 24.3222, -159.524, -92.2961, 54.6481
5.18359, 9, -32.1861, -3.11826, 24.3524, -159.509, -92.2849, 54.6361
5.1917, 9, -32.1576, -3.15127, 24.3827, -159.495, -92.2733, 54.624
5.20102, 9, -32.1294, -3.2013, 24.4287, -159.473, -92.2552, 54.6056
5.21106, 9, -32.0874, -3.23506, 24.4596, -159.458, -92.2424, 54.5931
5.21707, 9, -32.0595, -3.26909, 24.4905, -159.443, -92.2292, 54.5804
5.22356, 9, -32.0456, -3.28625, 24.5062, -159.436, -92.2225, 54.5739
5.23157, 9, -32.0178, -3.32076, 24.5376, -159.421, -92.2089, 54.5608
5.2404, 9, -31.9899, -3.35554, 24.5692, -159.406, -92.1952, 54.5473
5.24756, 9, -31.9624, -3.39058, 24.6009, -159.39, -92.1813, 54.5334
5.25555, 10, -31.9351, -3.42588, 24.633, -159.374, -92.1674, 54.5191
5.26437, 10, -31.9078, -3.46158, 24.6652, -159.358, -92.1532, 54.5042
5.27156, 10, -31.8806, -3.49748, 24.6976, -159.341, -92.1388, 54.4889
5.27957, 10, -31.8536, -3.53363, 24.7302, -159.325, -92.124, 54.4731
5.28858, 10, -31.8265, -3.57013, 24.7631, -159.309, -92.1086, 54.4569
5.29638, 10, -31.7997, -3.60688, 24.7961, -159.292, -92.0928, 54.4406
5.30362, 10, -31.773, -3.64388, 24.8292, -159.276, -92.0764, 54.4244
5.31546, 10, -31.7332, -3.70002, 24.8795, -159.25, -92.0517, 54.3997
5.31956, 10, -31.7199, -3.71888, 24.8964, -159.242, -92.0435, 54.3915
5.32756, 10, -31.6935, -3.75671, 24.9302, -159.224, -92.0269, 54.3747
5.33563, 10, -31.6672, -3.7948, 24.9642, -159.206, -92.0103, 54.3576
5.34359, 10, -31.6411, -3.83333, 24.9986, -159.188, -91.9935, 54.3401
5.35164, 11, -31.615, -3.87202, 25.0329, -159.17, -91.9763, 54.3221
5.35956, 11, -31.5889, -3.91096, 25.0676, -159.152, -91.9585, 54.3035
5.36772, 11, -31.5629, -3.95025, 25.1026, -159.134, -91.9401, 54.2844
5.37562, 11, -31.5368, -3.98986, 25.1376, -159.116, -91.9215, 54.2651
5.38355, 11, -31.511, -4.02975, 25.1728, -159.097, -91.9027, 54.2456
5.39162, 11, -31.4855, -4.06992, 25.2084, -159.077, -91.884, 54.2261
5.39955, 11, -31.46, -4.11048, 25.2441, -159.058, -91.8651, 54.2064
5.4076, 11, -31.4347, -4.15123, 25.28, -159.038, -91.846, 54.1865
5.41563, 11, -31.4095, -4.19236, 25.3162, -159.019, -91.8264, 54.1663
5.42356, 11, -31.3841, -4.23381, 25.3525, -158.999, -91.8062, 54.1457
5.4317, 11, -31.3589, -4.27548, 25.389, -158.98, -91.7854, 54.1243
5.43956, 12, -31.334, -4.31745, 25.4258, -158.96, -91.7645, 54.1024
5.44756, 12, -31.3092, -4.35974, 25.4628, -158.939, -91.7437, 54.0801
5.45582, 12, -31.2846, -4.40231, 25.4999, -158.918, -91.7229, 54.0578
5.46446, 12, -31.2603, -4.44517, 25.5373, -158.897, -91.7019, 54.0355
5.47235, 12, -31.2359, -4.48826, 25.575, -158.876, -91.6804, 54.013
5.47999, 12, -31.2113, -4.53158, 25.6127, -158.855, -91.6584, 53.9904
5.48766, 12, -31.187, -4.57525, 25.6508, -158.834, -91.6359, 53.9673
5.49566, 12, -31.1628, -4.61915, 25.6889, -158.813, -91.6133, 53.9436
5.50373, 12, -31.1386, -4.66331, 25.7273, -158.79, -91.5909, 53.9194
5.5116, 12, -31.1147, -4.70782, 25.766, -158.768, -91.5682, 53.8947
5.5196, 12, -31.0909, -4.75266, 25.8048, -158.746, -91.5452, 53.87
5.52766, 12, -31.0671, -4.7978, 25.8437, -158.724, -91.5214, 53.8455
5.53565, 13, -31.0433, -4.84324, 25.8829, -158.703, -91.497, 53.8206
5.54365, 13, -31.0198, -4.88894, 25.9223, -158.68, -91.4725, 53.7954
5.55185, 13, -30.9963, -4.93507, 25.962, -158.657, -91.4482, 53.7699
5.56017, 13, -30.9729, -4.9815, 26.0018, -158.634, -91.4239, 53.7437
5.56878, 13, -30.9496, -5.02822, 26.0418, -158.611, -91.3992, 53.717
5.57606, 13, -30.9265, -5.07524, 26.0821, -158.588, -91.3739, 53.6903
5.58437, 13, -30.9034, -5.12251, 26.1226, -158.565, -91.348, 53.6637
5.59208, 13, -30.8804, -5.17008, 26.1632, -158.541, -91.3221, 53.6368
5.60009, 13, -30.8577, -5.21788, 26.2041, -158.517, -91.2962, 53.6095
5.60902, 13, -30.835, -5.26586, 26.2452, -158.492, -91.2701, 53.5817
5.61615, 13, -30.8123, -5.31424, 26.2865, -158.468, -91.2437, 53.5532
5.62416, 14, -30.8011, -5.36281, 26.328, -158.444, -91.2164, 53.5244
5.63211, 14, -30.7788, -5.38716, 26.3488, -158.432, -91.2026, 53.4959
5.63955, 14, -30.7564, -5.43613, 26.3905, -158.408, -91.1752, 53.4817
5.6482, 14, -30.7341, -5.48543, 26.4326, -158.383, -91.1479, 53.4531
5.65554, 14, -30.712, -5.53512, 26.4748, -158.357, -91.1205, 53.4243
5.66372, 14, -30.69, -5.58517, 26.5171, -158.332, -91.0925, 53.3946
5.67159, 14, -30.6681, -5.63542, 26.5598, -158.306, -91.0637, 53.3643
5.67958, 14, -30.6462, -5.68613, 26.6026, -158.281, -91.0347, 53.3335
5.68752, 14, -30.6246, -5.73714, 26.6456, -158.255, -91.0059, 53.3029
5.69559, 14, -30.6028, -5.78844, 26.6889, -158.229, -90.977, 53.2723
5.70355, 14, -30.5812, -5.84005, 26.7322, -158.203, -90.9475, 53.2413
5.71197, 15, -30.5599, -5.8919, 26.776, -158.176, -90.9172, 53.2099
5.71954, 15, -30.5387, -5.94405, 26.8198, -158.15, -90.8869, 53.1777
5.72754, 15, -30.5174, -5.99633, 26.8639, -158.124, -90.8569, 53.1452
5.73577, 15, -30.4964, -6.0489, 26.9083, -158.097, -90.8268, 53.113
5.74353, 15, -30.4756, -6.10175, 26.9528, -158.069, -90.796, 53.0805
5.75154, 15, -30.4546, -6.1548, 26.9976, -158.042, -90.7646, 53.0475
5.76119, 15, -30.4337, -6.20813, 27.0424, -158.015, -90.7177, 52.9969
5.76755, 15, -30.413, -6.26184, 27.0876, -157.987, -90.702, 52.9797
5.77562, 15, -30.3925, -6.3159, 27.1329, -157.959, -90.6703, 52.9457
5.78356, 15, -30.3721, -6.37025, 27.1784, -157.931, -90.6377, 52.9115
5.79156, 15, -30.3518, -6.42506, 27.2241, -157.902, -90.6049, 52.877
5.79958, 15, -30.3316, -6.48019, 27.2701, -157.874, -90.5722, 52.8419
5.80761, 16, -30.3116, -6.53568, 27.3162, -157.846, -90.5397, 52.806
5.81557, 16, -30.2914, -6.59141, 27.3625, -157.817, -90.5065, 52.7702
5.82355, 16, -30.2714, -6.64748, 27.4091, -157.788, -90.4724, 52.7347
5.83174, 16, -30.2516, -6.70379, 27.4558, -157.759, -90.4386, 52.6989
5.84297, 16, -30.222, -6.78862, 27.5264, -157.715, -90.3878, 52.6442
5.84759, 16, -30.2122, -6.81704, 27.55, -157.701, -90.3705, 52.6256
5.85655, 16, -30.1926, -6.87398, 27.5974, -157.671, -90.3353, 52.5883
5.86356, 16, -30.1732, -6.93116, 27.6452, -157.641, -90.3, 52.5514
5.87157, 16, -30.154, -6.98864, 27.693, -157.611, -90.2651, 52.5143
5.88035, 16, -30.1347, -7.04648, 27.7411, -157.581, -90.2298, 52.4766
5.88755, 16, -30.1154, -7.10461, 27.7893, -157.551, -90.1936, 52.4383
5.89558, 17, -30.0963, -7.16318, 27.8377, -157.52, -90.1574, 52.4
5.90439, 17, -30.0774, -7.2221, 27.8863, -157.489, -90.1215, 52.362
5.91154, 17, -30.0586, -7.28136, 27.9351, -157.458, -90.0852, 52.3238
5.91957, 17, -30.0398, -7.34098, 27.9842, -157.427, -90.0479, 52.2849
5.92855, 17, -30.0212, -7.40095, 28.0333, -157.396, -90.0106, 52.2452
5.9373, 17, -30.0028, -7.46114, 28.0828, -157.365, -89.9738, 52.2055
5.94355, 17, -29.9843, -7.52149, 28.1325, -157.332, -89.9365, 52.166
5.95349, 17, -29.9659, -7.58212, 28.1823, -157.301, -89.8981, 52.1262
5.95962, 17, -29.9476, -7.64292, 28.2325, -157.269, -89.86, 52.0857
5.96768, 17, -29.9295, -7.70396, 28.2829, -157.237, -89.8222, 52.0448
5.97567, 17, -29.9114, -7.76524, 28.3335, -157.204, -89.7835, 52.0041
5.98368, 17, -29.8934, -7.82674, 28.3842, -157.172, -89.744, 51.9632
5.99167, 18, -29.8756, -7.88862, 28.4352, -157.139, -89.7051, 51.9218
5.99964, 18, -29.8579, -7.95085, 28.4862, -157.107, -89.6662, 51.8796
6.0077, 18, -29.8403, -8.01346, 28.5375, -157.073, -89.6265, 51.8375
6.01567, 18, -29.8227, -8.07637, 28.589, -157.039, -89.5862, 51.7956
6.0236, 18, -29.8051, -8.13972, 28.6408, -157.006, -89.5466, 51.7533
6.03193, 18, -29.7877, -8.20327, 28.6927, -156.973, -89.5065, 51.71
6.04056, 18, -29.7704, -8.26716, 28.7449, -156.939, -89.4653, 51.6665
6.05171, 18, -29.7445, -8.36339, 28.8235, -156.887, -89.4039, 51.602
6.05576, 18, -29.736, -8.39556, 28.8498, -156.87, -89.3836, 51.5803
6.06382, 18, -29.719, -8.46006, 28.9027, -156.836, -89.3423, 51.5365
6.07282, 18, -29.7021, -8.52479, 28.9558, -156.802, -89.3003, 51.492
6.08041, 19, -29.6854, -8.58973, 29.009, -156.766, -89.2587, 51.448
6.08805, 19, -29.6685, -8.65504, 29.0624, -156.732, -89.2168, 51.404
6.09692, 19, -29.6517, -8.72062, 29.1161, -156.697, -89.174, 51.3595
6.10438, 19, -29.6351, -8.78654, 29.1698, -156.662, -89.1313, 51.3145
6.11223, 19, -29.6187, -8.85283, 29.2238, -156.626, -89.0889, 51.2698
6.121, 19, -29.6023, -8.91948, 29.278, -156.591, -89.0459, 51.2251
6.12815, 19, -29.5941, -8.98641, 29.3324, -156.555, -89.0024, 51.1797
6.13696, 19, -29.5779, -9.01999, 29.3596, -156.537, -88.9809, 51.1335
6.14434, 19, -29.5619, -9.08736, 29.4143, -156.501, -88.9378, 51.1104
6.15157, 19, -29.5459, -9.15493, 29.4693, -156.464, -88.8938, 51.0644
6.15952, 19, -29.5301, -9.2228, 29.5244, -156.428, -88.8495, 51.018
6.16754, 19, -29.5141, -9.29081, 29.5798, -156.392, -88.8059, 50.9707
6.17555, 20, -29.4983, -9.35909, 29.6354, -156.355, -88.7616, 50.9234
6.18357, 20, -29.4826, -9.42767, 29.6912, -156.317, -88.7165, 50.8763
6.19157, 20, -29.4671, -9.49648, 29.7471, -156.281, -88.672, 50.8289
6.19968, 20, -29.4517, -9.56549, 29.8032, -156.244, -88.627, 50.7805
6.20767, 20, -29.4363, -9.63496, 29.8594, -156.206, -88.5812, 50.7323
6.21558, 20, -29.4211, -9.70468, 29.9159, -156.168, -88.5358, 50.6843
6.22358, 20, -29.406, -9.77476, 29.9727, -156.13, -88.4905, 50.6358
6.23154, 20, -29.3911, -9.84506, 30.0296, -156.092, -88.4441, 50.5866
6.23953, 20, -29.3762, -9.91569, 30.0868, -156.054, -88.3979, 50.5378
6.24758, 20, -29.3612, -9.98661, 30.1441, -156.015, -88.3518, 50.4891
6.25554, 20, -29.3463, -10.0576, 30.2017, -155.977, -88.3046, 50.4398
6.26454, 21, -29.3315, -10.1291, 30.2594, -155.938, -88.2575, 50.3898
6.27166, 21, -29.3167, -10.2007, 30.3174, -155.899, -88.2109, 50.3403
6.28056, 21, -29.3021, -10.2724, 30.3755, -155.86, -88.1634, 50.2907
6.28753, 21, -29.2876, -10.3445, 30.4338, -155.821, -88.1158, 50.2405
6.2957, 21, -29.2731, -10.4168, 30.4922, -155.781, -88.0687, 50.19
6.30437, 21, -29.2588, -10.4893, 30.5508, -155.742, -88.0205, 50.1401
6.31156, 21, -29.2447, -10.5622, 30.6096, -155.702, -87.9721, 50.0899
6.32173, 21, -29.2235, -10.6719, 30.6982, -155.642, -87.9001, 50.0133
6.32759, 21, -29.2165, -10.7086, 30.7278, -155.622, -87.8756, 49.9879
6.3356, 21, -29.2024, -10.7822, 30.7873, -155.582, -87.8266, 49.9373
6.34352, 21, -29.1883, -10.8561, 30.8469, -155.542, -87.7781, 49.886
6.35182, 22, -29.1743, -10.9303, 30.9067, -155.501, -87.7286, 49.8342
6.35954, 22, -29.1605, -11.0046, 30.9667, -155.459, -87.6788, 49.7828
6.36753, 22, -29.1467, -11.0793, 31.0268, -155.419, -87.6298, 49.7314
6.37725, 22, -29.1331, -11.1541, 31.087, -155.378, -87.5797, 49.6789
6.38352, 22, -29.1194, -11.2292, 31.1475, -155.335, -87.5295, 49.6265
6.39153, 22, -29.106, -11.3046, 31.208, -155.294, -87.4797, 49.5744
6.39953, 22, -29.0927, -11.3801, 31.2688, -155.253, -87.4288, 49.522
6.40752, 22, -29.0795, -11.4559, 31.3298, -155.211, -87.3782, 49.4688
6.41559, 22, -29.0664, -11.532, 31.3911, -155.168, -87.3281, 49.4161
6.42354, 22, -29.0533, -11.6083, 31.4526, -155.126, -87.2768, 49.3634
6.43152, 22, -29.0403, -11.685, 31.5142, -155.084, -87.2259, 49.3102
6.43959, 22, -29.0273, -11.7618, 31.576, -155.04, -87.175, 49.2566
6.44752, 23, -29.0144, -11.839, 31.6379, -154.998, -87.1229, 49.2036
6.45561, 23, -29.0016, -11.9163, 31.6999, -154.955, -87.0716, 49.1502
6.46357, 23, -28.9889, -11.9938, 31.7621, -154.912, -87.0201, 49.0961
6.47185, 23, -28.9762, -12.0716, 31.8245, -154.868, -86.9676, 49.0427
6.47965, 23, -28.9635, -12.1496, 31.8871, -154.825, -86.9159, 48.9893
6.48762, 23, -28.9509, -12.2278, 31.9498, -154.781, -86.8633, 48.9351
6.4957, 23, -28.9385, -12.3062, 32.0127, -154.737, -86.8101, 48.8809
6.50403, 23, -28.9262, -12.3849, 32.0758, -154.694, -86.7579, 48.8272
6.51152, 23, -28.9139, -12.4638, 32.1392, -154.65, -86.7044, 48.7729
6.51973, 23, -28.9017, -12.5428, 32.2027, -154.605, -86.6511, 48.7181
6.52842, 23, -28.8895, -12.6222, 32.2664, -154.56, -86.5981, 48.6638
6.53556, 24, -28.8774, -12.7017, 32.3302, -154.516, -86.5439, 48.6092
6.54367, 24, -28.8653, -12.7815, 32.394, -154.47, -86.4906, 48.5539
6.55238, 24, -28.8535, -12.8614, 32.4581, -154.425, -86.437, 48.4989
6.55972, 24, -28.8416, -12.9417, 32.5222, -154.381, -86.3826, 48.4442
6.56822, 24, -28.8298, -13.0221, 32.5866, -154.335, -86.3289, 48.3885
6.57676, 24, -28.8181, -13.1028, 32.6512, -154.289, -86.2742, 48.3329
6.58393, 24, -28.8063, -13.1837, 32.716, -154.244, -86.2196, 48.2778
6.59286, 24, -28.7947, -13.2649, 32.7809, -154.198, -86.1655, 48.2222
6.60002, 24, -28.7832, -13.3462, 32.846, -154.152, -86.1102, 48.1661
6.60811, 24, -28.7716, -13.4277, 32.9112, -154.106, -86.0555, 48.1107
6.61706, 24, -28.7601, -13.5094, 32.9766, -154.06, -86.0004, 48.0552
6.62409, 24, -28.7487, -13.5913, 33.042, -154.013, -85.9447, 47.9991
6.63212, 25, -28.743, -13.6323, 33.1077, -153.967, -85.89, 47.9435
6.64088, 25, -28.7315, -13.7144, 33.1405, -153.943, -85.8623, 47.9159
6.64756, 25, -28.7201, -13.7968, 33.2063, -153.896, -85.8063, 47.8604
6.65555, 25, -28.7088, -13.8794, 33.2723, -153.849, -85.7511, 47.8043
6.66366, 25, -28.6978, -13.9622, 33.3384, -153.802, -85.6951, 47.7487
6.67297, 25, -28.6867, -14.0867, 33.4379, -153.73, -85.6112, 47.6653
6.67956, 25, -28.6757, -14.1283, 33.4712, -153.707, -85.5833, 47.6372
6.68867, 25, -28.6594, -14.2534, 33.5711, -153.636, -85.4987, 47.5536
6.69551, 25, -28.6539, -14.2952, 33.6045, -153.611, -85.4708, 47.5259
6.70351, 25, -28.643, -14.3788, 33.6714, -153.563, -85.4143, 47.4699
6.71304, 25, -28.6269, -14.5047, 33.7718, -153.491, -85.3294, 47.3857
6.71948, 26, -28.6215, -14.5468, 33.8053, -153.467, -85.3014, 47.3579
6.72904, 26, -28.6055, -14.6732, 33.9061, -153.394, -85.2158, 47.2738
6.73709, 26, -28.5949, -14.7576, 33.9735, -153.345, -85.1593, 47.2177
6.74427, 26, -28.5896, -14.7999, 34.0072, -153.321, -85.1307, 47.1898
6.75157, 26, -28.5789, -14.8846, 34.0749, -153.272, -85.0732, 47.1342
6.7621, 26, -28.5629, -15.0118, 34.1766, -153.199, -84.9877, 47.0499
6.76758, 26, -28.5577, -15.0543, 34.2106, -153.174, -84.9587, 47.0221
6.77656, 26, -28.5473, -15.1394, 34.2787, -153.125, -84.9012, 46.9668
6.78351, 26, -28.5368, -15.2246, 34.3468, -153.075, -84.8437, 46.911
6.79158, 26, -28.5264, -15.31, 34.4149, -153.025, -84.7856, 46.8552
6.79951, 26, -28.5161, -15.3956, 34.4832, -152.976, -84.7283, 46.8003
6.80851, 26, -28.5058, -15.4813, 34.5516, -152.926, -84.6703, 46.745
6.81553, 27, -28.4955, -15.5672, 34.6201, -152.875, -84.6124, 46.6892
6.8235, 27, -28.4852, -15.6533, 34.6888, -152.826, -84.5545, 46.6339
6.83151, 27, -28.4751, -15.7396, 34.7575, -152.775, -84.4959, 46.5787
6.83963, 27, -28.465, -15.826, 34.8264, -152.724, -84.4382, 46.5228
6.84758, 27, -28.4548, -15.9125, 34.8954, -152.674, -84.3796, 46.4673
6.85554, 27, -28.4448, -15.9992, 34.9645, -152.623, -84.3211, 46.4123
6.86351, 27, -28.4348, -16.086, 35.0336, -152.572, -84.2629, 46.3567
6.87157, 27, -28.4248, -16.173, 35.1028, -152.521, -84.2038, 46.301
6.8795, 27, -28.4147, -16.26, 35.1721, -152.47, -84.1456, 46.246
6.88753, 27, -28.4047, -16.3472, 35.2414, -152.418, -84.0866, 46.1908
6.89557, 27, -28.3948, -16.4344, 35.311, -152.367, -84.0277, 46.1353
6.9035, 28, -28.3848, -16.5219, 35.3806, -152.315, -83.9691, 46.0808
6.91151, 28, -28.3748, -16.6095, 35.4504, -152.264, -83.9096, 46.0265
6.91963, 28, -28.3648, -16.6972, 35.5203, -152.212, -83.8512, 45.9715
6.92753, 28, -28.3549, -16.785, 35.5903, -152.16, -83.792, 45.917
6.93565, 28, -28.345, -16.8729, 35.6603, -152.108, -83.733, 45.8631
6.94356, 28, -28.335, -16.9609, 35.7303, -152.056, -83.6741, 45.809
6.95151, 28, -28.3251, -17.049, 35.8004, -152.003, -83.6144, 45.7547
6.95974, 28, -28.3153, -17.1372, 35.8705, -151.951, -83.5558, 45.7012
6.96759, 28, -28.3056, -17.2255, 35.9408, -151.898, -83.4961, 45.648
6.97561, 28, -28.2957, -17.3138, 36.0112, -151.845, -83.4369, 45.5942
6.98403, 28, -28.286, -17.4023, 36.0816, -151.793, -83.3776, 45.541
6.99157, 29, -28.2764, -17.4909, 36.1522, -151.739, -83.3176, 45.4884
6.99961, 29, -28.2666, -17.5796, 36.2229, -151.686, -83.2585, 45.4355
7.00804, 29, -28.2568, -17.6684, 36.2937, -151.633, -83.1983, 45.3826
7.01551, 29, -28.247, -17.7574, 36.3644, -151.579, -83.1388, 45.3306
7.02358, 29, -28.2373, -17.8463, 36.4351, -151.526, -83.0787, 45.2786
7.03291, 29, -28.2276, -17.9352, 36.5058, -151.472, -83.0188, 45.2264
7.04075, 29, -28.2177, -18.0244, 36.5766, -151.418, -82.9593, 45.1744
7.0485, 29, -28.2079, -18.1136, 36.6476, -151.365, -82.899, 45.1233
7.05567, 29, -28.1982, -18.2028, 36.7186, -151.31, -82.8395, 45.0721
7.06408, 29, -28.1884, -18.2922, 36.7898, -151.256, -82.7792, 45.0207
7.07179, 29, -28.1786, -18.3816, 36.8611, -151.203, -82.7193, 44.9703
7.07996, 29, -28.1689, -18.4711, 36.9324, -151.147, -82.6598, 44.9203
7.08795, 30, -28.1593, -18.5605, 37.0036, -151.093, -82.5993, 44.8701
7.09603, 30, -28.1498, -18.6501, 37.0747, -151.039, -82.5398, 44.8198
7.10445, 30, -28.1401, -18.7397, 37.1459, -150.984, -82.4791, 44.7706
7.11315, 30, -28.1305, -18.8293, 37.2172, -150.929, -82.4193, 44.7216
7.12005, 30, -28.1208, -18.9191, 37.2886, -150.874, -82.3592, 44.6724
7.12909, 30, -28.111, -19.009, 37.3599, -150.819, -82.2988, 44.6236
7.13649, 30, -28.1012, -19.0989, 37.4314, -150.764, -82.2389, 44.5759
7.1442, 30, -28.0962, -19.1439, 37.4671, -150.709, -82.1782, 44.5281
7.15152, 30, -28.0864, -19.234, 37.5387, -150.681, -82.1482, 44.5042
7.15949, 30, -28.0767, -19.3239, 37.6102, -150.626, -82.0885, 44.4564
7.16754, 30, -28.0668, -19.4138, 37.6817, -150.57, -82.0279, 44.4096
7.17545, 31, -28.0569, -19.5038, 37.7532, -150.515, -81.9681, 44.3631
7.18353, 31, -28.0471, -19.5937, 37.8247, -150.459, -81.9076, 44.3165
7.19156, 31, -28.0372, -19.6836, 37.8962, -150.403, -81.8474, 44.2701
7.19949, 31, -28.0272, -19.7737, 37.9677, -150.348, -81.7876, 44.2248
7.20905, 31, -28.0171, -19.8637, 38.0752, -150.264, -81.6972, 44.1572
7.2155, 31, -28.0072, -19.9538, 38.1111, -150.236, -81.6673, 44.1346
7.22351, 31, -27.9974, -20.0439, 38.1828, -150.18, -81.6068, 44.0894
7.23449, 31, -27.9825, -20.1791, 38.2903, -150.095, -81.5168, 44.0233
7.23949, 31, -27.9775, -20.2241, 38.3261, -150.067, -81.4866, 44.0016
7.24756, 31, -27.9675, -20.3142, 38.3975, -150.01, -81.4261, 43.958
7.25549, 31, -27.9574, -20.4045, 38.469, -149.954, -81.3662, 43.9143
7.26355, 31, -27.9472, -20.4947, 38.5406, -149.898, -81.3055, 43.8717
7.27155, 32, -27.937, -20.5849, 38.6121, -149.841, -81.2458, 43.8297
7.28053, 32, -27.9268, -20.6751, 38.6837, -149.785, -81.1857, 43.7882
7.2875, 32, -27.9165, -20.7653, 38.7552, -149.728, -81.1256, 43.7466
7.29555, 32, -27.9061, -20.8554, 38.8268, -149.671, -81.0659, 43.7053
7.30366, 32, -27.8958, -20.9455, 38.8984, -149.614, -81.0054, 43.6653
7.31149, 32, -27.8854, -21.0356, 38.97, -149.557, -80.9459, 43.6258
7.31958, 32, -27.8749, -21.1257, 39.0415, -149.5, -80.8857, 43.5865
7.32753, 32, -27.8643, -21.2157, 39.1128, -149.443, -80.8258, 43.5473
7.33554, 32, -27.8538, -21.3059, 39.1842, -149.386, -80.7661, 43.5089
7.34351, 32, -27.8433, -21.3959, 39.2556, -149.329, -80.7057, 43.4716
7.35151, 32, -27.8327, -21.4859, 39.3269, -149.271, -80.6465, 43.4348
7.35957, 33, -27.822, -21.5758, 39.3984, -149.214, -80.5864, 43.3982
7.36749, 33, -27.8114, -21.6658, 39.4697, -149.156, -80.5268, 43.3617
7.37551, 33, -27.8006, -21.7557, 39.5411, -149.099, -80.4672, 43.3261
7.38355, 33, -27.7896, -21.8456, 39.6124, -149.042, -80.4072, 43.2916
7.39149, 33, -27.7785, -21.9354, 39.6836, -148.983, -80.3483, 43.2576
7.39967, 33, -27.7675, -22.0253, 39.7547, -148.926, -80.2884, 43.224
7.40838, 33, -27.7565, -22.1151, 39.8257, -148.868, -80.2292, 43.1905
7.4155, 33, -27.7453, -22.2048, 39.8968, -148.811, -80.1699, 43.1574
7.42351, 33, -27.7342, -22.2944, 39.9678, -148.753, -80.1102, 43.1255
7.43149, 33, -27.7229, -22.384, 40.0387, -148.695, -80.0516, 43.0944
7.43961, 33, -27.7116, -22.4736, 40.1097, -148.638, -79.9919, 43.064
7.44771, 34, -27.7003, -22.563, 40.1806, -148.579, -79.933, 43.0339
7.45555, 34, -27.689, -22.6524, 40.2515, -148.521, -79.8736, 43.0039
7.46373, 34, -27.6777, -22.7418, 40.3223, -148.463, -79.814, 42.9743
7.47177, 34, -27.6662, -22.8311, 40.3929, -148.405, -79.7553, 42.946
7.48071, 34, -27.6546, -22.9202, 40.4634, -148.347, -79.6956, 42.9184
7.48786, 34, -27.6429, -23.0092, 40.5338, -148.289, -79.6368, 42.8918
7.49607, 34, -27.6311, -23.0982, 40.6041, -148.23, -79.5773, 42.8658
7.50363, 34, -27.6192, -23.1871, 40.6745, -148.172, -79.5181, 42.8402
7.51154, 34, -27.6073, -23.2759, 40.7448, -148.114, -79.4595, 42.815
7.52038, 34, -27.5952, -23.3648, 40.8151, -148.056, -79.3999, 42.7905
7.52755, 34, -27.583, -23.4535, 40.8853, -147.997, -79.3414, 42.7669
7.53553, 34, -27.5708, -23.5423, 40.9554, -147.939, -79.2821, 42.7444
7.5445, 35, -27.5585, -23.6308, 41.0252, -147.881, -79.2232, 42.723
7.5516, 35, -27.5462, -23.7192, 41.0949, -147.822, -79.1647, 42.7023
7.55973, 35, -27.5338, -23.8074, 41.1645, -147.764, -79.1056, 42.6825
7.56878, 35, -27.5214, -23.8956, 41.2341, -147.705, -79.0475, 42.6632
7.57669, 35, -27.5089, -23.9835, 41.3036, -147.647, -78.9883, 42.6445
7.58422, 35, -27.4962, -24.0714, 41.3729, -147.588, -78.9298, 42.6263
7.59192, 35, -27.4834, -24.1591, 41.4423, -147.529, -78.8716, 42.6088
7.60084, 35, -27.4703, -24.2468, 41.5115, -147.472, -78.8127, 42.5923
7.60801, 35, -27.4572, -24.3344, 41.5807, -147.412, -78.7548, 42.5768
7.61609, 35, -27.4441, -24.4218, 41.6496, -147.354, -78.696, 42.5623
7.625, 35, -27.4307, -24.509, 41.7184, -147.296, -78.6379, 42.5488
7.63198, 36, -27.424, -24.5527, 41.7527, -147.266, -78.58, 42.5362
7.64009, 36, -27.4105, -24.6399, 41.8552, -147.179, -78.5217, 42.5246
7.64878, 36, -27.3967, -24.7269, 41.8894, -147.149, -78.4929, 42.5192
7.65552, 36, -27.3829, -24.8138, 41.9578, -147.091, -78.4352, 42.5089
7.6636, 36, -27.3692, -24.9007, 42.026, -147.033, -78.377, 42.4993
7.67365, 36, -27.3553, -24.9875, 42.1281, -146.944, -78.291, 42.4866
7.67948, 36, -27.3412, -25.074, 42.1621, -146.916, -78.262, 42.4827
7.68753, 36, -27.3271, -25.1604, 42.23, -146.857, -78.2045, 42.4757
7.69549, 36, -27.3127, -25.2466, 42.2977, -146.798, -78.1473, 42.4694
7.70358, 36, -27.2982, -25.3325, 42.3651, -146.74, -78.0894, 42.464
7.71147, 36, -27.2836, -25.4184, 42.4324, -146.681, -78.0325, 42.4595
7.71953, 36, -27.2689, -25.504, 42.4995, -146.623, -77.9752, 42.456
7.72753, 37, -27.254, -25.5895, 42.5666, -146.564, -77.918, 42.4533
7.73549, 37, -27.2388, -25.6749, 42.6335, -146.506, -77.8612, 42.4517
7.74377, 37, -27.2237, -25.7602, 42.7002, -146.448, -77.8037, 42.4508
7.75145, 37, -27.2086, -25.8453, 42.7668, -146.389, -77.7472, 42.4503
7.76194, 37, -27.1933, -25.9726, 42.8664, -146.302, -77.6618, 42.4502
7.76748, 37, -27.1779, -26.0149, 42.8996, -146.273, -77.6336, 42.4503
7.77549, 37, -27.1621, -26.0994, 42.9657, -146.215, -77.5772, 42.4507
7.78447, 37, -27.1462, -26.1837, 43.0317, -146.157, -77.5202, 42.4518
7.79147, 37, -27.1302, -26.2678, 43.0974, -146.098, -77.4641, 42.4546
7.79954, 37, -27.1141, -26.3517, 43.1629, -146.041, -77.4078, 42.4595
7.80747, 37, -27.0979, -26.4354, 43.2282, -145.982, -77.3511, 42.4656
7.81558, 38, -27.0814, -26.5191, 43.2935, -145.924, -77.2953, 42.4733
7.82355, 38, -27.0648, -26.6025, 43.3586, -145.867, -77.2387, 42.4824
7.83149, 38, -27.0482, -26.6857, 43.4235, -145.808, -77.1827, 42.4926
7.83967, 38, -27.0314, -26.7687, 43.4882, -145.751, -77.1271, 42.5041
7.84851, 38, -27.0144, -26.8515, 43.5527, -145.693, -77.0706, 42.5167
7.8555, 38, -26.997, -26.934, 43.6171, -145.636, -77.015, 42.5305
7.86457, 38, -26.9795, -27.0164, 43.6811, -145.578, -76.959, 42.5455
7.87147, 38, -26.9619, -27.0984, 43.745, -145.52, -76.9031, 42.5617
7.87954, 38, -26.9442, -27.1802, 43.8087, -145.464, -76.8482, 42.5793
7.88748, 38, -26.9263, -27.2619, 43.8722, -145.406, -76.7924, 42.5983
7.89548, 38, -26.9082, -27.3432, 43.9355, -145.349, -76.7372, 42.6189
7.90382, 39, -26.89, -27.4244, 43.9985, -145.292, -76.6821, 42.6409
7.91146, 39, -26.8717, -27.5054, 44.0613, -145.235, -76.6263, 42.6639
7.91947, 39, -26.853, -27.5862, 44.1239, -145.179, -76.5717, 42.6879
7.92754, 39, -26.834, -27.6666, 44.1862, -145.121, -76.5164, 42.7128
7.93549, 39, -26.8149, -27.7469, 44.2485, -145.065, -76.4613, 42.739
7.94427, 39, -26.7957, -27.827, 44.3104, -145.008, -76.4068, 42.7665
7.95154, 39, -26.7762, -27.9068, 44.372, -144.951, -76.3512, 42.7956
7.9595, 39, -26.7566, -27.9864, 44.4334, -144.896, -76.2966, 42.8261
7.96755, 39, -26.7369, -28.0657, 44.4945, -144.839, -76.2418, 42.8576
7.97558, 39, -26.717, -28.1448, 44.5553, -144.783, -76.1864, 42.8898
7.98362, 39, -26.6968, -28.2236, 44.616, -144.728, -76.1321, 42.9234
7.99165, 39, -26.6763, -28.302, 44.6764, -144.671, -76.077, 42.9586
7.9996, 40, -26.6557, -28.3803, 44.7367, -144.616, -76.0224, 42.9955
8.00757, 40, -26.6349, -28.4582, 44.7966, -144.561, -75.9685, 43.0334
8.01565, 40, -26.6138, -28.5357, 44.8563, -144.505, -75.9136, 43.0722
8.02365, 40, -26.5924, -28.6129, 44.9158, -144.451, -75.8597, 43.1121
8.03171, 40, -26.5709, -28.6899, 44.9749, -144.395, -75.8054, 43.1536
8.03986, 40, -26.5493, -28.7666, 45.0337, -144.341, -75.7509, 43.1968
8.04756, 40, -26.5273, -28.843, 45.0923, -144.286, -75.6974, 43.2408
8.05644, 40, -26.5049, -28.9191, 45.1504, -144.231, -75.6431, 43.2859
8.06379, 40, -26.4825, -28.995, 45.2083, -144.177, -75.5891, 43.3327
8.0717, 40, -26.4598, -29.0706, 45.2659, -144.122, -75.5358, 43.3813
8.08083, 40, -26.4368, -29.1458, 45.3232, -144.068, -75.4814, 43.4305
8.08795, 40, -26.4135, -29.2206, 45.3802, -144.015, -75.4279, 43.4809
8.09591, 41, -26.3901, -29.2953, 45.437, -143.961, -75.3746, 43.5332
8.10478, 41, -26.3663, -29.3695, 45.4934, -143.908, -75.3207, 43.5869
8.11237, 41, -26.3422, -29.4435, 45.5495, -143.855, -75.2677, 43.6412
8.12003, 41, -26.3181, -29.5171, 45.6053, -143.802, -75.2143, 43.6971
8.12895, 41, -26.2937, -29.5904, 45.6608, -143.75, -75.161, 43.755
8.13607, 41, -26.2814, -29.6634, 45.7159, -143.697, -75.1085, 43.8136
8.14399, 41, -26.2565, -29.6998, 45.7433, -143.671, -75.082, 43.8738
8.15218, 41, -26.2314, -29.7723, 45.7979, -143.619, -75.0287, 43.9361
8.15949, 41, -26.2059, -29.8444, 45.852, -143.567, -74.9764, 43.9675
8.16748, 41, -26.1801, -29.916, 45.906, -143.515, -74.9235, 44.0312
8.1755, 41, -26.1543, -29.9875, 45.9597, -143.465, -74.8705, 44.0972
8.18346, 42, -26.1281, -30.0584, 46.0129, -143.413, -74.8186, 44.1643
8.19147, 42, -26.1016, -30.129, 46.066, -143.362, -74.7657, 44.2324
8.19953, 42, -26.0748, -30.1993, 46.1186, -143.313, -74.7133, 44.3029
8.20761, 42, -26.0476, -30.2692, 46.1708, -143.262, -74.6614, 44.3741
8.21548, 42, -26.0201, -30.3386, 46.2227, -143.212, -74.6085, 44.4473
8.22534, 42, -25.9785, -30.4422, 46.2998, -143.138, -74.5306, 44.5596
8.23149, 42, -25.9645, -30.4765, 46.3252, -143.113, -74.5046, 44.5976
8.23948, 42, -25.9361, -30.5449, 46.3759, -143.064, -74.452, 44.6758
8.24745, 42, -25.9074, -30.6128, 46.4263, -143.016, -74.4003, 44.7544
8.2555, 42, -25.8783, -30.6802, 46.4761, -142.968, -74.3484, 44.8354
8.26348, 42, -25.849, -30.7473, 46.5255, -142.92, -74.2961, 44.9177
8.27143, 43, -25.8193, -30.8138, 46.5746, -142.873, -74.2449, 45.0016
8.28046, 43, -25.7894, -30.88, 46.6233, -142.826, -74.1931, 45.0875
8.28749, 43, -25.7592, -30.9459, 46.6716, -142.779, -74.1414, 45.1744
8.29647, 43, -25.7286, -31.0112, 46.7194, -142.733, -74.0905, 45.2635
8.30363, 43, -25.6978, -31.0762, 46.7668, -142.687, -74.0387, 45.3533
8.31229, 43, -25.6666, -31.1408, 46.8137, -142.641, -73.9873, 45.4454
8.31947, 43, -25.6349, -31.2048, 46.8603, -142.597, -73.9368, 45.5384
8.32853, 43, -25.6029, -31.2683, 46.9064, -142.552, -73.8853, 45.6336
8.33548, 43, -25.5704, -31.3314, 46.9521, -142.507, -73.8343, 45.7294
8.34352, 43, -25.5377, -31.3939, 46.9973, -142.464, -73.7837, 45.8275
8.35146, 43, -25.5047, -31.4558, 47.042, -142.42, -73.7324, 45.9266
8.35945, 43, -25.4714, -31.5172, 47.0863, -142.377, -73.6818, 46.0277
8.36755, 44, -25.4376, -31.5782, 47.13, -142.335, -73.6316, 46.1304
8.37546, 44, -25.4032, -31.6387, 47.1732, -142.293, -73.5806, 46.2348
8.3845, 44, -25.3686, -31.6988, 47.216, -142.251, -73.5304, 46.341
8.39153, 44, -25.3336, -31.7584, 47.2583, -142.21, -73.4801, 46.4485
8.39945, 44, -25.2983, -31.8175, 47.3001, -142.17, -73.4294, 46.558
8.40932, 44, -25.2625, -31.8762, 47.3413, -142.13, -73.3797, 46.669
8.41552, 44, -25.2262, -31.9342, 47.382, -142.09, -73.3299, 46.7816
8.42346, 44, -25.1897, -31.9917, 47.4223, -142.051, -73.2797, 46.8958
8.43146, 44, -25.1529, -32.0485, 47.462, -142.014, -73.2305, 47.0116
8.43951, 44, -25.1155, -32.1046, 47.5012, -141.976, -73.1808, 47.1295
8.44755, 44, -25.0777, -32.1602, 47.5399, -141.938, -73.131, 47.2491
8.45546, 45, -25.0396, -32.2151, 47.578, -141.902, -73.0822, 47.3705
8.46352, 45, -25.001, -32.2695, 47.6156, -141.866, -73.0331, 47.4935
8.47151, 45, -24.9618, -32.3233, 47.6526, -141.831, -72.9837, 47.6182
8.4797, 45, -24.9221, -32.3766, 47.6888, -141.796, -72.9354, 47.7446
8.48765, 45, -24.8822, -32.4294, 47.7247, -141.762, -72.8865, 47.8727
8.49584, 45, -24.8419, -32.4816, 47.7599, -141.729, -72.8374, 48.0022
8.50364, 45, -24.8009, -32.5333, 47.7944, -141.696, -72.7895, 48.1335
8.51193, 45, -24.7597, -32.5842, 47.8283, -141.663, -72.7411, 48.2664
8.51951, 45, -24.718, -32.6345, 47.8618, -141.631, -72.6926, 48.4013
8.5276, 45, -24.6759, -32.684, 47.8945, -141.601, -72.6451, 48.538
8.53642, 45, -24.6331, -32.7327, 47.9267, -141.571, -72.597, 48.6762
8.5435, 45, -24.59, -32.7807, 47.9583, -141.541, -72.5489, 48.8162
8.55159, 46, -24.5464, -32.828, 47.9892, -141.512, -72.5019, 48.9578
8.56038, 46, -24.5022, -32.8744, 48.0194, -141.484, -72.4545, 49.1008
8.56765, 46, -24.4576, -32.9202, 48.0489, -141.457, -72.4069, 49.2457
8.57651, 46, -24.4127, -32.9654, 48.078, -141.431, -72.3603, 49.3926
8.58518, 46, -24.3672, -33.0099, 48.1062, -141.405, -72.3134, 49.5413
8.59186, 46, -24.3211, -33.0536, 48.1337, -141.38, -72.2662, 49.6919
8.59992, 46, -24.2747, -33.0967, 48.1606, -141.356, -72.22, 49.844
8.60806, 46, -24.2278, -33.1392, 48.1868, -141.332, -72.174, 49.9977
8.61597, 46, -24.1803, -33.1808, 48.2122, -141.31, -72.1274, 50.153
8.62403, 46, -24.1322, -33.2216, 48.2369, -141.289, -72.0818, 50.3098
8.63209, 46, -24.0838, -33.2615, 48.2609, -141.268, -72.0365, 50.4684
8.63996, 47, -24.0594, -33.2811, 48.2727, -141.257, -71.9905, 50.6288
8.64801, 47, -24.01, -33.3198, 48.2957, -141.237, -71.9678, 50.791
8.65608, 47, -23.9602, -33.3576, 48.3179, -141.218, -71.9232, 50.8726
8.66347, 47, -23.9099, -33.3945, 48.3392, -141.201, -71.8786, 51.0373
8.67161, 47, -23.8589, -33.4305, 48.3598, -141.184, -71.8336, 51.2036
8.68096, 47, -23.8075, -33.483, 48.3893, -141.161, -71.7676, 51.4561
8.68746, 47, -23.7556, -33.5001, 48.3988, -141.154, -71.7457, 51.5413
8.69545, 47, -23.7031, -33.5336, 48.4173, -141.14, -71.7014, 51.7128
8.70352, 47, -23.6501, -33.5662, 48.4348, -141.127, -71.658, 51.886
8.71147, 47, -23.5966, -33.5979, 48.4516, -141.115, -71.6152, 52.0609
8.71945, 47, -23.5425, -33.6289, 48.4675, -141.103, -71.5723, 52.2376
8.72748, 48, -23.4878, -33.6588, 48.4826, -141.093, -71.5295, 52.4156
8.73701, 48, -23.4049, -33.7018, 48.5034, -141.079, -71.4669, 52.6858
8.74345, 48, -23.3769, -33.7157, 48.5099, -141.075, -71.4461, 52.7768
8.7515, 48, -23.3207, -33.7428, 48.5224, -141.067, -71.404, 52.9601
8.75943, 48, -23.2639, -33.7687, 48.5341, -141.061, -71.3628, 53.1451
8.77006, 48, -23.1776, -33.8058, 48.5499, -141.054, -71.3024, 53.4256
8.7792, 48, -23.1194, -33.8291, 48.5593, -141.05, -71.2617, 53.6144
8.78343, 48, -23.09, -33.8405, 48.5637, -141.049, -71.2416, 53.7096
8.7935, 48, -23.0011, -33.8732, 48.5757, -141.046, -71.1828, 53.9979
8.79948, 48, -22.9712, -33.8835, 48.5792, -141.046, -71.1633, 54.0948
8.80747, 48, -22.911, -33.9032, 48.5855, -141.045, -71.1238, 54.2899
8.81544, 48, -22.8502, -33.9221, 48.5909, -141.045, -71.085, 54.4863
8.82352, 49, -22.7889, -33.9398, 48.5954, -141.047, -71.0473, 54.6842
8.83147, 49, -22.7269, -33.9562, 48.5988, -141.049, -71.0098, 54.8836
8.83945, 49, -22.6645, -33.9715, 48.6012, -141.053, -70.9721, 55.0848
8.8476, 49, -22.6014, -33.9859, 48.6027, -141.058, -70.9353, 55.2874
8.85543, 49, -22.5378, -33.999, 48.6034, -141.064, -70.8993, 55.4917
8.86345, 49, -22.4736, -34.0107, 48.6035, -141.072, -70.8637, 55.6973
8.87147, 49, -22.4087, -34.0212, 48.6029, -141.081, -70.8278, 55.9046
8.87951, 49, -22.3434, -34.0307, 48.6014, -141.092, -70.793, 56.1137
8.88744, 49, -22.2774, -34.0391, 48.5989, -141.104, -70.7591, 56.3243
8.89543, 49, -22.2108, -34.0463, 48.5954, -141.117, -70.7258, 56.5363
8.90352, 49, -22.1437, -34.0524, 48.5908, -141.132, -70.6924, 56.75
8.91143, 50, -22.0761, -34.0571, 48.585, -141.147, -70.6597, 56.9648
8.91943, 50, -22.0079, -34.0605, 48.5781, -141.164, -70.6281, 57.1814
8.9276, 50, -21.9392, -34.0625, 48.5702, -141.181, -70.5971, 57.3997
8.93543, 50, -21.87, -34.0634, 48.561, -141.2, -70.5666, 57.6193
8.9436, 50, -21.8, -34.0635, 48.5508, -141.221, -70.5359, 57.8405
8.95243, 50, -21.7293, -34.0625, 48.5397, -141.243, -70.5063, 58.0628
8.95944, 50, -21.6579, -34.0603, 48.5273, -141.266, -70.4778, 58.2871
8.96767, 50, -21.5861, -34.0567, 48.5137, -141.29, -70.4501, 58.5127
8.9755, 50, -21.5138, -34.0517, 48.499, -141.315, -70.423, 58.7397
8.98353, 50, -21.441, -34.0451, 48.4832, -141.342, -70.396, 58.9679
8.99195, 50, -21.3678, -34.0371, 48.4662, -141.37, -70.3698, 59.1975
8.99958, 50, -21.2939, -34.0276, 48.4479, -141.399, -70.3446, 59.4285
9.00755, 51, -21.2195, -34.0167, 48.4286, -141.43, -70.3204, 59.6608
9.01596, 51, -21.1444, -34.0044, 48.4081, -141.462, -70.297, 59.8946
9.02454, 51, -21.0687, -33.9907, 48.3863, -141.495, -70.2741, 60.1294
9.03144, 51, -20.9924, -33.9751, 48.3635, -141.529, -70.2517, 60.3658
9.04053, 51, -20.9155, -33.9578, 48.3395, -141.565, -70.2298, 60.6036
9.04806, 51, -20.8382, -33.9392, 48.3144, -141.602, -70.2093, 60.8429
9.0555, 51, -20.7602, -33.919, 48.288, -141.64, -70.1897, 61.0832
9.06362, 51, -20.6818, -33.8972, 48.2604, -141.68, -70.1713, 61.3245
9.07172, 51, -20.603, -33.8739, 48.2317, -141.721, -70.1538, 61.5673
9.07975, 51, -20.5236, -33.849, 48.2019, -141.762, -70.1373, 61.8115
9.08791, 51, -20.4437, -33.8225, 48.1706, -141.806, -70.1213, 62.0569
9.09599, 52, -20.3633, -33.7946, 48.1381, -141.851, -70.1061, 62.3033
9.10388, 52, -20.2822, -33.7648, 48.1046, -141.896, -70.0917, 62.5507
9.1127, 52, -20.2006, -33.7336, 48.0697, -141.944, -70.0783, 62.7999
9.12098, 52, -20.1185, -33.7006, 48.0335, -141.992, -70.0662, 63.0501
9.128, 52, -20.036, -33.6658, 47.9963, -142.042, -70.0552, 63.3013
9.137, 52, -19.953, -33.6295, 47.9578, -142.092, -70.0454, 63.5534
9.14431, 52, -19.9113, -33.6106, 47.938, -142.145, -70.0367, 63.8065
9.1528, 52, -19.8275, -33.5716, 47.8976, -142.171, -70.0291, 64.0608
9.15945, 52, -19.7432, -33.5309, 47.8559, -142.225, -70.0258, 64.1884
9.16744, 52, -19.6586, -33.4886, 47.813, -142.281, -70.0199, 64.4444
9.17549, 52, -19.5735, -33.4445, 47.7689, -142.337, -70.0152, 64.7011
9.18361, 53, -19.4881, -33.3988, 47.7234, -142.395, -70.0116, 64.9591
9.19147, 53, -19.4021, -33.3514, 47.6766, -142.453, -70.0091, 65.2182
9.19943, 53, -19.3156, -33.3022, 47.6287, -142.514, -70.0077, 65.4781
9.20747, 53, -19.2286, -33.2513, 47.5794, -142.575, -70.0071, 65.7388
9.21924, 53, -19.0973, -33.1716, 47.5031, -142.669, -70.0077, 66.1316
9.22337, 53, -19.0533, -33.1441, 47.477, -142.702, -70.0084, 66.2631
9.23147, 53, -18.9652, -33.0879, 47.4239, -142.766, -70.0108, 66.5266
9.24249, 53, -18.8321, -33, 47.3417, -142.866, -70.0168, 66.9234
9.24745, 53, -18.7875, -32.9698, 47.3137, -142.899, -70.0195, 67.0563
9.257, 53, -18.6533, -32.8763, 47.2276, -143.002, -70.0297, 67.4563
9.26602, 53, -18.5632, -32.8117, 47.1686, -143.072, -70.0383, 67.7236
9.27321, 53, -18.518, -32.7788, 47.1386, -143.108, -70.0485, 67.9915
9.27945, 54, -18.4273, -32.7114, 47.0776, -143.179, -70.0542, 68.1257
9.28844, 54, -18.3362, -32.6422, 47.0154, -143.252, -70.0667, 68.3948
9.29546, 54, -18.2449, -32.5712, 46.9519, -143.326, -70.081, 68.6645
9.30344, 54, -18.1532, -32.4984, 46.8872, -143.401, -70.097, 68.935
9.31155, 54, -18.0613, -32.4238, 46.8211, -143.476, -70.1148, 69.206
9.31942, 54, -17.969, -32.3472, 46.7537, -143.553, -70.1339, 69.478
9.32747, 54, -17.8763, -32.2688, 46.685, -143.631, -70.1542, 69.7507
9.33549, 54, -17.7833, -32.1885, 46.6149, -143.71, -70.1757, 70.0237
9.34354, 54, -17.69, -32.1061, 46.5435, -143.79, -70.1988, 70.2972
9.35142, 54, -17.5964, -32.0218, 46.4709, -143.871, -70.2236, 70.5714
9.35943, 54, -17.5026, -31.9355, 46.397, -143.953, -70.2505, 70.8463
9.36742, 55, -17.4085, -31.8474, 46.322, -144.035, -70.2789, 71.1216
9.37546, 55, -17.3142, -31.7573, 46.2457, -144.119, -70.3084, 71.3971
9.38344, 55, -17.2199, -31.6654, 46.1681, -144.203, -70.3394, 71.6735
9.39147, 55, -17.1251, -31.5716, 46.0892, -144.289, -70.3722, 71.9505
9.39941, 55, -17.03, -31.4758, 46.009, -144.375, -70.4072, 72.2274
9.40758, 55, -16.9346, -31.3781, 45.9274, -144.462, -70.4433, 72.5047
9.41546, 55, -16.839, -31.2785, 45.8444, -144.55, -70.4806, 72.7825
9.42341, 55, -16.7433, -31.177, 45.7602, -144.638, -70.52, 73.0606
9.43142, 55, -16.6476, -31.0737, 45.6748, -144.727, -70.5617, 73.3389
9.43941, 55, -16.5517, -30.9686, 45.5883, -144.817, -70.6043, 73.6173
9.44748, 55, -16.4557, -30.8615, 45.5005, -144.908, -70.6484, 73.8962
9.45542, 55, -16.3596, -30.7523, 45.4115, -144.999, -70.695, 74.1752
9.46349, 56, -16.2632, -30.6412, 45.3211, -145.091, -70.7426, 74.4543
9.47146, 56, -16.1667, -30.528, 45.2293, -145.184, -70.7916, 74.7334
9.47966, 56, -16.07, -30.413, 45.1363, -145.277, -70.8436, 75.0128
9.48839, 56, -15.9732, -30.2961, 45.0423, -145.371, -70.8965, 75.2924
9.49553, 56, -15.8764, -30.1773, 44.9471, -145.465, -70.9513, 75.5721
9.50404, 56, -15.7797, -30.0567, 44.8509, -145.56, -71.0084, 75.8516
9.51248, 56, -15.683, -29.934, 44.7534, -145.655, -71.0663, 76.1318
9.51952, 56, -15.5861, -29.8094, 44.6545, -145.751, -71.127, 76.4118
9.52831, 56, -15.489, -29.6829, 44.5543, -145.847, -71.1889, 76.6915
9.53543, 56, -15.3918, -29.5547, 44.4528, -145.944, -71.2527, 76.9709
9.54348, 56, -15.2945, -29.4247, 44.3504, -146.041, -71.3184, 77.2505
9.55237, 57, -15.1973, -29.2927, 44.2471, -146.138, -71.3854, 77.5299
9.55951, 57, -15.1001, -29.1588, 44.1426, -146.236, -71.4551, 77.809
9.56759, 57, -15.003, -29.0229, 44.037, -146.333, -71.5258, 78.0879
9.57672, 57, -14.906, -28.8852, 43.93, -146.432, -71.5988, 78.3669
9.5854, 57, -14.8091, -28.7458, 43.8218, -146.53, -71.673, 78.6457
9.5919, 57, -14.7122, -28.6044, 43.7126, -146.628, -71.7499, 78.924
9.60236, 57, -14.6152, -28.461, 43.6026, -146.727, -71.8281, 79.202
9.60875, 57, -14.5183, -28.3158, 43.4916, -146.826, -71.9084, 79.4797
9.61593, 57, -14.4215, -28.169, 43.3795, -146.925, -71.9905, 79.7573
9.6245, 57, -14.3248, -28.0206, 43.2661, -147.025, -72.0744, 80.0344
9.63293, 57, -14.2282, -27.8705, 43.1515, -147.124, -72.1602, 80.3111
9.64023, 58, -14.1317, -27.7184, 43.0359, -147.223, -72.2472, 80.5877
9.64813, 58, -14.0835, -27.5647, 42.9195, -147.322, -72.3367, 80.8639
9.65539, 58, -13.9873, -27.4872, 42.861, -147.372, -72.3819, 81.0017
9.66342, 58, -13.8912, -27.3313, 42.7434, -147.471, -72.4738, 81.2766
9.67149, 58, -13.7953, -27.1738, 42.6247, -147.57, -72.5675, 81.5511
9.68209, 58, -13.6519, -26.9334, 42.4446, -147.719, -72.7117, 81.9622
9.68854, 58, -13.5566, -26.7709, 42.3233, -147.818, -72.81, 82.2354
9.69545, 58, -13.5091, -26.6892, 42.2625, -147.867, -72.8599, 82.3716
9.70549, 58, -13.3666, -26.4419, 42.0786, -148.015, -73.0122, 82.7798
9.71146, 58, -13.3192, -26.3586, 42.0169, -148.064, -73.0638, 82.9156
9.71946, 58, -13.2245, -26.1903, 41.8927, -148.163, -73.1683, 83.1863
9.72893, 58, -13.0828, -25.9352, 41.7048, -148.309, -73.3284, 83.591
9.73693, 59, -12.9887, -25.764, 41.5785, -148.407, -73.4371, 83.8598
9.74493, 59, -12.8949, -25.5912, 41.4515, -148.504, -73.5477, 84.1279
9.75302, 59, -12.8015, -25.4164, 41.3239, -148.601, -73.6598, 84.3952
9.7594, 59, -12.7549, -25.3285, 41.2598, -148.649, -73.7166, 84.5284
9.76746, 59, -12.662, -25.1518, 41.1309, -148.745, -73.8315, 84.7943
9.77735, 59, -12.523, -24.885, 40.9363, -148.889, -74.0068, 85.1921
9.78416, 59, -12.4767, -24.7951, 40.871, -148.937, -74.0662, 85.3241
9.7924, 59, -12.3844, -24.6138, 40.74, -149.032, -74.186, 85.5873
9.8024, 59, -12.2465, -24.3398, 40.5422, -149.173, -74.3689, 85.98
9.80739, 59, -12.2007, -24.2481, 40.4759, -149.22, -74.4308, 86.1106
9.81547, 59, -12.1095, -24.0636, 40.3432, -149.313, -74.5552, 86.3707
9.82335, 60, -12.0187, -23.8771, 40.2098, -149.406, -74.6816, 86.6297
9.83143, 60, -11.9284, -23.6891, 40.0759, -149.498, -74.8093, 86.8875
9.83951, 60, -11.8384, -23.5006, 39.9414, -149.59, -74.9385, 87.1441
9.84756, 60, -11.7487, -23.3109, 39.8064, -149.681, -75.0693, 87.3999
9.85638, 60, -11.6592, -23.1195, 39.671, -149.771, -75.2013, 87.6542
9.8644, 60, -11.5701, -22.927, 39.5352, -149.86, -75.3353, 87.9072
9.87242, 60, -11.4814, -22.7342, 39.3987, -149.949, -75.4703, 88.159
9.88043, 60, -11.3931, -22.5406, 39.2618, -150.037, -75.6071, 88.4098
9.88742, 60, -11.3054, -22.3455, 39.1243, -150.124, -75.7448, 88.6594
9.8962, 60, -11.2182, -22.1493, 38.9867, -150.211, -75.8842, 88.9075
9.90339, 60, -11.1315, -21.9523, 38.8488, -150.297, -76.0246, 89.1543
9.91143, 60, -11.0452, -21.7538, 38.7105, -150.382, -76.1665, 89.3999
9.9202, 61, -10.9592, -21.5537, 38.5719, -150.466, -76.3096, 89.6441
9.9274, 61, -10.8736, -21.3529, 38.433, -150.549, -76.454, 89.8868
9.93541, 61, -10.7884, -21.1518, 38.2941, -150.632, -76.5994, 90.1276
9.94443, 61, -10.7037, -20.9493, 38.155, -150.713, -76.7464, 90.367
9.95323, 61, -10.6195, -20.7458, 38.0155, -150.794, -76.8945, 90.6052
9.95945, 61, -10.5359, -20.5419, 37.8758, -150.873, -77.0441, 90.8418
9.96928, 61, -10.4527, -20.3372, 37.736, -150.952, -77.1945, 91.0768
9.97543, 61, -10.37, -20.1313, 37.5961, -151.03, -77.3462, 91.3099
9.98354, 61, -10.2878, -19.9248, 37.4559, -151.107, -77.4988, 91.5416
9.99149, 61, -10.2061, -19.7184, 37.3158, -151.183, -77.6526, 91.7718
9.99952, 61, -10.125, -19.511, 37.1755, -151.258, -77.8073, 92.0002
10.0076, 62, -10.0444, -19.3026, 37.0354, -151.332, -77.9629, 92.2267
10.0155, 62, -9.96419, -19.094, 36.8955, -151.404, -78.1193, 92.4512
10.0235, 62, -9.88451, -18.885, 36.7554, -151.477, -78.2765, 92.674
10.0316, 62, -9.80553, -18.6749, 36.6153, -151.547, -78.4348, 92.8952
10.0394, 62, -9.72711, -18.4646, 36.4753, -151.617, -78.5934, 93.1147
10.0478, 62, -9.64915, -18.2547, 36.3354, -151.686, -78.7532, 93.3322
10.0555, 62, -9.57149, -18.0443, 36.1955, -151.754, -78.9137, 93.5477
10.0675, 62, -9.45574, -17.7276, 35.9861, -151.853, -79.1559, 93.868
10.0716, 62, -9.41744, -17.6222, 35.9163, -151.886, -79.2369, 93.9738
10.0796, 62, -9.34128, -17.411, 35.7769, -151.95, -79.3997, 94.1841
10.0887, 62, -9.26564, -17.1988, 35.638, -152.014, -79.563, 94.392
10.0958, 62, -9.19074, -16.9861, 35.4993, -152.076, -79.7271, 94.5977
10.1039, 63, -9.11634, -16.7737, 35.3608, -152.137, -79.8917, 94.8012
10.1128, 63, -9.04256, -16.5611, 35.2225, -152.197, -80.057, 95.0029
10.1202, 63, -8.96916, -16.3479, 35.0845, -152.256, -80.223, 95.2025
10.128, 63, -8.89636, -16.1351, 34.9471, -152.314, -80.3894, 95.3998
10.137, 63, -8.82414, -15.9226, 34.8098, -152.37, -80.5564, 95.5951
10.144, 63, -8.75239, -15.7096, 34.6729, -152.425, -80.7239, 95.7878
10.152, 63, -8.71677, -15.603, 34.6046, -152.48, -80.8916, 95.9787
10.1594, 63, -8.64595, -15.3905, 34.4682, -152.507, -80.9757, 96.0734
10.1675, 63, -8.57567, -15.1785, 34.3324, -152.559, -81.144, 96.261
10.1754, 63, -8.50581, -14.9661, 34.1971, -152.611, -81.3124, 96.4462
10.1834, 63, -8.43654, -14.7536, 34.0622, -152.661, -81.4814, 96.6291
10.1913, 64, -8.36785, -14.5415, 33.9278, -152.709, -81.6505, 96.8093
10.1994, 64, -8.29959, -14.3291, 33.7939, -152.758, -81.8197, 96.9871
10.2074, 64, -8.23199, -14.1162, 33.6606, -152.804, -81.9893, 97.1625
10.2156, 64, -8.16488, -13.9042, 33.5277, -152.849, -82.1586, 97.3356
10.2234, 64, -8.09837, -13.6931, 33.3955, -152.894, -82.3285, 97.5066
10.233, 64, -7.99963, -13.3765, 33.1981, -152.959, -82.5835, 97.7581
10.2394, 64, -7.96699, -13.2713, 33.1327, -152.979, -82.6685, 97.8407
10.2474, 64, -7.90225, -13.0615, 33.0022, -153.02, -82.8388, 98.0038
10.2574, 64, -7.80586, -12.7467, 32.8075, -153.079, -83.0941, 98.2439
10.2634, 64, -7.77404, -12.6418, 32.743, -153.099, -83.1792, 98.3228
10.273, 64, -7.67938, -12.3283, 32.5503, -153.154, -83.4348, 98.5552
10.2793, 65, -7.6481, -12.2242, 32.4865, -153.172, -83.5199, 98.6312
10.2884, 65, -7.58589, -12.0157, 32.3593, -153.207, -83.6903, 98.7814
10.2954, 65, -7.52422, -11.8075, 32.2329, -153.241, -83.8606, 98.9289
10.3044, 65, -7.46319, -11.6003, 32.1072, -153.273, -84.0308, 99.0734
10.3116, 65, -7.40265, -11.3933, 31.9822, -153.304, -84.2009, 99.215
10.3232, 65, -7.31277, -11.0833, 31.796, -153.35, -84.4558, 99.4223
10.3274, 65, -7.28306, -10.9805, 31.7343, -153.364, -84.5408, 99.4902
10.3364, 65, -7.22407, -10.7758, 31.6116, -153.392, -84.7103, 99.6237
10.3434, 65, -7.16572, -10.5714, 31.4897, -153.419, -84.8798, 99.7541
10.3514, 65, -7.10782, -10.3672, 31.3685, -153.445, -85.0491, 99.8818
10.3602, 65, -7.05045, -10.1642, 31.2482, -153.47, -85.2182, 100.006
10.3674, 65, -6.9936, -9.96192, 31.1285, -153.493, -85.387, 100.128
10.3754, 66, -6.93717, -9.75963, 31.0097, -153.516, -85.5554, 100.246
10.3842, 66, -6.88119, -9.5582, 30.8918, -153.537, -85.7236, 100.361
10.3914, 66, -6.82578, -9.35837, 30.7747, -153.557, -85.8916, 100.474
10.3994, 66, -6.77092, -9.15933, 30.6586, -153.575, -86.0593, 100.583
10.4084, 66, -6.71652, -8.96069, 30.5432, -153.593, -86.2266, 100.688
10.4172, 66, -6.66263, -8.76314, 30.4285, -153.61, -86.3937, 100.792
10.4234, 66, -6.60915, -8.56664, 30.3148, -153.626, -86.56, 100.891
10.4344, 66, -6.52995, -8.2726, 30.146, -153.648, -86.8093, 101.035
10.4395, 66, -6.5038, -8.17485, 30.0902, -153.655, -86.8923, 101.081
10.4474, 66, -6.45173, -7.9804, 29.9793, -153.668, -87.0579, 101.171
10.4556, 66, -6.40015, -7.78717, 29.869, -153.679, -87.2231, 101.257
10.4633, 67, -6.34913, -7.59427, 29.7596, -153.689, -87.3878, 101.34
10.4714, 67, -6.29851, -7.40202, 29.6511, -153.698, -87.5524, 101.419
10.4796, 67, -6.24836, -7.21131, 29.5437, -153.706, -87.7166, 101.495
10.4876, 67, -6.19882, -7.02161, 29.4373, -153.713, -87.8803, 101.568
10.4955, 67, -6.14958, -6.83227, 29.3319, -153.719, -88.0436, 101.637
10.5038, 67, -6.1008, -6.64376, 29.227, -153.724, -88.2063, 101.703
10.5149, 67, -6.02844, -6.36399, 29.0712, -153.729, -88.4496, 101.795
10.5204, 67, -6.00452, -6.27113, 29.0198, -153.731, -88.5304, 101.824
10.5274, 67, -5.95701, -6.08568, 28.9179, -153.733, -88.6918, 101.879
10.5354, 67, -5.91005, -5.90104, 28.817, -153.734, -88.8527, 101.931
10.5435, 67, -5.86357, -5.71789, 28.7171, -153.734, -89.013, 101.979
10.5514, 67, -5.8174, -5.53543, 28.6179, -153.735, -89.1726, 102.023
10.5595, 68, -5.77166, -5.35327, 28.5194, -153.734, -89.3319, 102.064
10.5677, 68, -5.72624, -5.17214, 28.4217, -153.733, -89.4905, 102.101
10.5756, 68, -5.68114, -4.99278, 28.3252, -153.73, -89.6487, 102.133
10.5841, 68, -5.63638, -4.81468, 28.2299, -153.726, -89.8064, 102.162
10.5917, 68, -5.59219, -4.6371, 28.1354, -153.721, -89.9637, 102.187
10.5999, 68, -5.54845, -4.46055, 28.0417, -153.715, -90.1206, 102.209
10.6085, 68, -5.50502, -4.28576, 27.9488, -153.708, -90.277, 102.226
10.616, 68, -5.46201, -4.11195, 27.8565, -153.7, -90.4331, 102.24
10.6239, 68, -5.41948, -3.9386, 27.7653, -153.691, -90.5886, 102.25
10.6325, 68, -5.37723, -3.76605, 27.6753, -153.681, -90.7438, 102.257
10.6401, 68, -5.33527, -3.59513, 27.5863, -153.67, -90.8984, 102.259
10.6479, 69, -5.31442, -3.5102, 27.5422, -153.659, -91.0527, 102.26
10.6559, 69, -5.273, -3.34079, 27.4546, -153.652, -91.1297, 102.259
10.6644, 69, -5.21158, -3.08776, 27.3244, -153.632, -91.3598, 102.249
10.6714, 69, -5.19126, -3.00405, 27.2814, -153.624, -91.4362, 102.243
10.6801, 69, -5.15099, -2.83789, 27.1962, -153.609, -91.5887, 102.228
10.6889, 69, -5.11104, -2.59052, 27.0702, -153.584, -91.8163, 102.198
10.6954, 69, -5.07129, -2.50842, 27.0287, -153.576, -91.8919, 102.185
10.7034, 69, -5.0317, -2.34498, 26.9463, -153.558, -92.0427, 102.158
10.7114, 69, -4.99259, -2.1831, 26.8648, -153.54, -92.193, 102.125
10.7194, 69, -4.95375, -2.02262, 26.784, -153.522, -92.3427, 102.088
10.7274, 69, -4.91528, -1.86301, 26.7042, -153.502, -92.492, 102.046
10.7356, 70, -4.87693, -1.70409, 26.6252, -153.482, -92.6404, 102
10.7434, 70, -4.83893, -1.5464, 26.5471, -153.46, -92.7889, 101.95
10.7538, 70, -4.78249, -1.31241, 26.4316, -153.427, -93.0102, 101.866
10.7594, 70, -4.76381, -1.23489, 26.3936, -153.416, -93.0838, 101.836
10.769, 70, -4.70792, -1.00354, 26.2807, -153.381, -93.3038, 101.739
10.778, 70, -4.67113, -0.85072, 26.2066, -153.357, -93.4498, 101.668
10.7842, 70, -4.65286, -0.774856, 26.1699, -153.344, -93.5226, 101.631
10.7924, 70, -4.61654, -0.624159, 26.097, -153.319, -93.6681, 101.555
10.8014, 70, -4.56228, -0.400299, 25.9891, -153.28, -93.8853, 101.431
10.8074, 70, -4.54428, -0.326152, 25.9535, -153.267, -93.9575, 101.387
10.8154, 70, -4.50851, -0.178712, 25.8828, -153.241, -94.1014, 101.297
10.8234, 70, -4.4729, -0.0325851, 25.8131, -153.214, -94.2451, 101.203
10.8324, 71, -4.43737, 0.112197, 25.7442, -153.186, -94.3883, 101.104
10.8404, 71, -4.40197, 0.255801, 25.6763, -153.157, -94.5309, 101.002
10.8474, 71, -4.36677, 0.398548, 25.6092, -153.129, -94.673, 100.894
10.8555, 71, -4.3318, 0.540256, 25.5429, -153.1, -94.8147, 100.782
10.8633, 71, -4.29696, 0.680827, 25.4773, -153.07, -94.9557, 100.666
10.8714, 71, -4.26211, 0.820061, 25.4126, -153.04, -95.0964, 100.545
10.8793, 71, -4.22744, 0.957958, 25.3486, -153.009, -95.2363, 100.421
10.8875, 71, -4.19292, 1.09475, 25.2855, -152.978, -95.376, 100.291
10.8954, 71, -4.15861, 1.23055, 25.2231, -152.947, -95.515, 100.158
10.9034, 71, -4.12439, 1.36498, 25.1614, -152.916, -95.6536, 100.021
10.9114, 71, -4.09013, 1.49808, 25.1006, -152.883, -95.7913, 99.8788
10.9193, 72, -4.05607, 1.62971, 25.0405, -152.851, -95.9288, 99.7327
10.9274, 72, -4.02208, 1.76016, 24.9813, -152.819, -96.0653, 99.5822
10.9354, 72, -3.98824, 1.88951, 24.9229, -152.787, -96.2016, 99.4271
10.9434, 72, -3.95432, 2.01759, 24.8652, -152.754, -96.3373, 99.2679
10.9515, 72, -3.92038, 2.14441, 24.8083, -152.72, -96.4722, 99.1046
10.9596, 72, -3.88651, 2.26986, 24.7521, -152.687, -96.6067, 98.937
10.9674, 72, -3.85255, 2.39396, 24.6965, -152.655, -96.7403, 98.7652
10.9754, 72, -3.81866, 2.51666, 24.6419, -152.621, -96.8735, 98.5893
10.9834, 72, -3.78468, 2.63825, 24.588, -152.587, -97.0057, 98.409
10.9915, 72, -3.75074, 2.7586, 24.5347, -152.554, -97.1376, 98.2247
10.9995, 72, -3.71699, 2.87747, 24.4823, -152.521, -97.2686, 98.0366
11.0075, 72, -3.68323, 2.99484, 24.4306, -152.487, -97.3992, 97.8447
11.0156, 73, -3.64935, 3.11073, 24.3796, -152.453, -97.5288, 97.6486
11.0235, 73, -3.61539, 3.22517, 24.3296, -152.42, -97.6578, 97.4486
11.0314, 73, -3.58149, 3.3382, 24.2802, -152.387, -97.786, 97.2445
11.0395, 73, -3.54756, 3.44982, 24.2316, -152.354, -97.9132, 97.0366
11.0477, 73, -3.5135, 3.55994, 24.1837, -152.321, -98.0399, 96.8252
11.0563, 73, -3.47922, 3.66848, 24.1365, -152.288, -98.1656, 96.6097
11.0635, 73, -3.44478, 3.77534, 24.0902, -152.255, -98.2906, 96.3904
11.0715, 73, -3.41024, 3.88056, 24.0444, -152.223, -98.4146, 96.1672
11.0799, 73, -3.37561, 3.98421, 23.9996, -152.191, -98.5378, 95.9405
11.0876, 73, -3.34075, 4.08634, 23.9554, -152.158, -98.6597, 95.7107
11.0958, 73, -3.30565, 4.18687, 23.912, -152.127, -98.7806, 95.4775
11.1038, 74, -3.27058, 4.28574, 23.8694, -152.096, -98.9005, 95.2408
11.1125, 74, -3.23544, 4.38295, 23.8274, -152.065, -99.0191, 95.0012
11.1203, 74, -3.20018, 4.47838, 23.7864, -152.034, -99.1369, 94.7585
11.1292, 74, -3.16466, 4.57203, 23.7461, -152.004, -99.2531, 94.5128
11.1359, 74, -3.12903, 4.66387, 23.7065, -151.974, -99.3683, 94.2642
11.1449, 74, -3.09336, 4.75394, 23.6679, -151.945, -99.4825, 94.0124
11.1519, 74, -3.07545, 4.79831, 23.6489, -151.931, -99.5948, 93.7574
11.161, 74, -3.02139, 4.92852, 23.5929, -151.888, -99.7063, 93.4999
11.1695, 74, -2.98495, 5.01292, 23.5566, -151.86, -99.8161, 93.2395
11.1754, 74, -2.96671, 5.05439, 23.5387, -151.846, -99.8703, 93.1084
11.1834, 74, -2.93013, 5.13589, 23.5035, -151.819, -99.9783, 92.8441
11.1936, 75, -2.87486, 5.25431, 23.4524, -151.781, -100.137, 92.4437
11.1994, 75, -2.85627, 5.29276, 23.4358, -151.768, -100.189, 92.3092
11.2073, 75, -2.81888, 5.36812, 23.403, -151.742, -100.292, 92.0386
11.2153, 75, -2.78149, 5.44132, 23.3711, -151.718, -100.394, 91.7655
11.2259, 75, -2.72495, 5.54718, 23.325, -151.683, -100.543, 91.3523
11.2336, 75, -2.68686, 5.615, 23.2952, -151.66, -100.64, 91.0745
11.2394, 75, -2.66772, 5.64809, 23.2806, -151.649, -100.688, 90.9348
11.2503, 75, -2.61012, 5.74399, 23.2384, -151.617, -100.829, 90.5128
11.2554, 75, -2.59084, 5.77484, 23.2248, -151.606, -100.875, 90.3713
11.265, 75, -2.53249, 5.86393, 23.1852, -151.576, -101.01, 89.9448
11.274, 75, -2.5129, 5.92041, 23.1598, -151.557, -101.098, 89.659
11.2809, 75, -2.47365, 5.94776, 23.1475, -151.539, -101.184, 89.3718
11.289, 76, -2.43428, 6.00062, 23.1237, -151.522, -101.268, 89.0839
11.2953, 76, -2.39465, 6.05101, 23.1008, -151.513, -101.308, 88.9395
11.3034, 76, -2.35481, 6.09889, 23.0787, -151.497, -101.389, 88.6502
11.3124, 76, -2.3148, 6.14415, 23.0576, -151.482, -101.467, 88.3598
11.3205, 76, -2.27465, 6.18681, 23.0375, -151.467, -101.543, 88.0688
11.3273, 76, -2.23413, 6.22694, 23.0183, -151.453, -101.616, 87.777
11.3353, 76, -2.1934, 6.26436, 23.0003, -151.44, -101.687, 87.4844
11.3434, 76, -2.15257, 6.29903, 22.9834, -151.427, -101.755, 87.191
11.3514, 76, -2.11155, 6.33117, 22.9673, -151.416, -101.821, 86.8971
11.3593, 76, -2.07025, 6.36057, 22.9523, -151.405, -101.885, 86.6031
11.3676, 76, -2.02865, 6.38734, 22.9384, -151.395, -101.945, 86.3088
11.3753, 77, -1.98695, 6.41113, 22.9255, -151.387, -102.004, 86.0146
11.3833, 77, -1.9451, 6.43222, 22.9136, -151.379, -102.059, 85.721
11.3924, 77, -1.90304, 6.45075, 22.9028, -151.372, -102.112, 85.4277
11.4002, 77, -1.86086, 6.46612, 22.8934, -151.365, -102.162, 85.1346
11.4073, 77, -1.8186, 6.47819, 22.8851, -151.36, -102.208, 84.8417
11.4192, 77, -1.75483, 6.49119, 22.8746, -151.353, -102.273, 84.4034
11.4234, 77, -1.73345, 6.49413, 22.8718, -151.351, -102.293, 84.2573
11.4313, 77, -1.69073, 6.49771, 22.8669, -151.348, -102.33, 83.9657
11.4394, 77, -1.64801, 6.49845, 22.8631, -151.345, -102.365, 83.6746
11.4473, 77, -1.60508, 6.49636, 22.8605, -151.344, -102.396, 83.3847
11.4554, 77, -1.562, 6.49106, 22.859, -151.343, -102.425, 83.0954
11.4634, 77, -1.51889, 6.48245, 22.8585, -151.342, -102.451, 82.8069
11.4715, 78, -1.47565, 6.47094, 22.8589, -151.342, -102.473, 82.5194
11.4794, 78, -1.43215, 6.45652, 22.8607, -151.342, -102.492, 82.2333
11.4874, 78, -1.38862, 6.43875, 22.8637, -151.342, -102.507, 81.9482
11.4955, 78, -1.3451, 6.41753, 22.8682, -151.344, -102.519, 81.6644
11.5034, 78, -1.30151, 6.39331, 22.8739, -151.346, -102.528, 81.382
11.5115, 78, -1.25771, 6.36584, 22.8811, -151.349, -102.533, 81.1011
11.5195, 78, -1.21386, 6.33492, 22.8897, -151.353, -102.536, 80.8214
11.5275, 78, -1.17005, 6.30052, 22.8997, -151.358, -102.535, 80.543
11.5353, 78, -1.1261, 6.26281, 22.911, -151.363, -102.531, 80.2664
11.5438, 78, -1.08208, 6.22174, 22.9239, -151.37, -102.524, 79.9913
11.5514, 78, -1.03816, 6.17711, 22.9383, -151.376, -102.513, 79.7175
11.5594, 79, -0.994133, 6.12909, 22.9539, -151.384, -102.498, 79.4453
11.5685, 79, -0.949924, 6.07767, 22.9712, -151.392, -102.48, 79.1749
11.5772, 79, -0.905842, 6.02273, 22.9901, -151.4, -102.458, 78.9064
11.5836, 79, -0.861829, 5.96438, 23.0104, -151.409, -102.431, 78.6396
11.5935, 79, -0.817713, 5.90273, 23.0322, -151.419, -102.401, 78.3745
11.5998, 79, -0.773551, 5.83779, 23.0557, -151.429, -102.367, 78.1114
