rpiRobotics/ARM-21-02-F-19-Robot-Motion-Program/data_performance_abb/curve_1/baseline/100L/realrobot/bisect/run_1realrobot_curve_exe_v93.75_z10.csv
timestamp, cmd_num, J1, J2, J3, J4, J5, J6
0.009802, -1, 11.3781, 13.614, 17.3392, -145.519, -97.9229, 142.516
0.011706, -1, 11.3781, 13.614, 17.3392, -145.519, -97.9229, 142.516
0.015405, -1, 11.3781, 13.614, 17.3392, -145.519, -97.9229, 142.516
0.017955, -1, 11.3781, 13.614, 17.3392, -145.519, -97.9229, 142.516
0.03989, -1, 11.3781, 13.6139, 17.3392, -145.519, -97.9229, 142.516
0.041754, -1, 11.3781, 13.6139, 17.3392, -145.519, -97.9229, 142.516
0.044778, -1, 11.3781, 13.6139, 17.3392, -145.519, -97.9229, 142.516
0.047103, -1, 11.3781, 13.6139, 17.3392, -145.519, -97.9229, 142.516
0.055166, -1, 11.378, 13.6139, 17.3392, -145.519, -97.9229, 142.516
0.063969, -1, 11.3773, 13.6139, 17.3392, -145.519, -97.9229, 142.516
0.07224, -1, 11.3747, 13.6136, 17.3391, -145.519, -97.9229, 142.516
0.08017, -1, 11.3683, 13.6127, 17.3389, -145.519, -97.923, 142.516
0.088153, -1, 11.3572, 13.6108, 17.3385, -145.52, -97.9229, 142.514
0.095155, -1, 11.3398, 13.6071, 17.3377, -145.521, -97.9227, 142.505
0.103218, -1, 11.3131, 13.6009, 17.3369, -145.525, -97.922, 142.484
0.113181, -1, 11.275, 13.5915, 17.3363, -145.532, -97.9203, 142.443
0.120181, -1, 11.225, 13.579, 17.3364, -145.544, -97.9169, 142.378
0.127198, -1, 11.1635, 13.5634, 17.3381, -145.561, -97.9114, 142.282
0.135329, -1, 11.0905, 13.5442, 17.3421, -145.584, -97.9036, 142.151
0.143179, -1, 11.0056, 13.5211, 17.3484, -145.613, -97.8935, 141.986
0.151232, -1, 10.909, 13.4946, 17.357, -145.647, -97.8813, 141.788
0.159603, -1, 10.8017, 13.4649, 17.3674, -145.686, -97.8677, 141.563
0.167253, -1, 10.6833, 13.432, 17.3786, -145.728, -97.8531, 141.317
0.175301, -1, 10.5543, 13.3963, 17.3898, -145.773, -97.8377, 141.056
0.183717, -1, 10.4163, 13.3584, 17.4004, -145.818, -97.8219, 140.787
0.191323, -1, 10.2714, 13.3189, 17.4106, -145.866, -97.8057, 140.512
0.19931, -1, 10.122, 13.2785, 17.4207, -145.913, -97.7891, 140.236
0.208817, -1, 9.96951, 13.2375, 17.4307, -145.961, -97.7721, 139.957
0.216197, -1, 9.81485, 13.1962, 17.4407, -146.009, -97.7549, 139.678
0.223226, -1, 9.65929, 13.1548, 17.4507, -146.057, -97.7377, 139.399
0.232804, -1, 9.50409, 13.1136, 17.4606, -146.104, -97.7206, 139.12
0.240218, -1, 9.34941, 13.0724, 17.4705, -146.153, -97.7039, 138.84
0.247517, -1, 9.19506, 13.0313, 17.4804, -146.201, -97.6871, 138.561
0.257582, -1, 9.04123, 12.9903, 17.4904, -146.248, -97.6704, 138.281
0.264153, -1, 8.88768, 12.9493, 17.5005, -146.297, -97.6536, 138.001
0.271556, -1, 8.73425, 12.9084, 17.5105, -146.345, -97.6364, 137.721
0.280422, -1, 8.58132, 12.8673, 17.5206, -146.392, -97.6189, 137.441
0.287769, -1, 8.42859, 12.8261, 17.5308, -146.441, -97.6014, 137.161
0.296349, -1, 8.27563, 12.7848, 17.5409, -146.488, -97.5841, 136.881
0.304484, -1, 8.12213, 12.7433, 17.5511, -146.536, -97.5672, 136.601
0.311813, -1, 7.96813, 12.7018, 17.5613, -146.585, -97.5504, 136.321
0.320327, -1, 7.81357, 12.6602, 17.5713, -146.632, -97.5337, 136.041
0.327143, -1, 7.73611, 12.6394, 17.5764, -146.656, -97.5254, 135.901
0.335197, -1, 7.58111, 12.5978, 17.5866, -146.704, -97.5087, 135.621
0.344247, -1, 7.34837, 12.5356, 17.6017, -146.776, -97.4831, 135.201
0.351185, -1, 7.27077, 12.5149, 17.6068, -146.8, -97.4744, 135.06
0.36027, -1, 7.03809, 12.4528, 17.6223, -146.872, -97.4484, 134.64
0.367149, -1, 6.96044, 12.4321, 17.6274, -146.897, -97.4398, 134.5
0.37645, -1, 6.72784, 12.3704, 17.6429, -146.968, -97.4145, 134.08
0.383192, -1, 6.65046, 12.3497, 17.6481, -146.993, -97.4061, 133.94
0.392654, -1, 6.41876, 12.288, 17.6636, -147.065, -97.381, 133.519
0.400761, -1, 6.26449, 12.2467, 17.674, -147.113, -97.3641, 133.239
0.407204, -1, 6.18737, 12.2259, 17.6791, -147.137, -97.3555, 133.098
0.416786, -1, 5.95574, 12.1639, 17.6944, -147.209, -97.3294, 132.677
0.424735, -1, 5.80112, 12.1223, 17.7047, -147.257, -97.3118, 132.397
0.431151, -1, 5.72375, 12.1015, 17.7098, -147.281, -97.303, 132.256
0.440776, -1, 5.5688, 12.0391, 17.7251, -147.353, -97.2773, 131.835
0.448934, -1, 5.41363, 12.0183, 17.7302, -147.377, -97.2689, 131.554
0.456935, -1, 5.25824, 11.9767, 17.7405, -147.426, -97.2438, 131.273
0.464181, -1, 5.10261, 11.935, 17.7508, -147.474, -97.2354, 131.133
0.472136, -1, 4.94668, 11.8935, 17.7613, -147.521, -97.2184, 130.852
0.480193, -1, 4.7908, 11.8519, 17.7717, -147.57, -97.2013, 130.571
0.488142, -1, 4.63504, 11.8105, 17.7821, -147.618, -97.1839, 130.29
0.496165, -1, 4.4793, 11.7691, 17.7924, -147.666, -97.1664, 130.009
0.5042, -1, 4.32369, 11.7277, 17.8027, -147.715, -97.1491, 129.728
0.645139, -1, 1.67909, 11.0206, 17.9789, -148.56, -96.8501, 124.801
0.64717, -1, 1.52299, 10.9788, 17.9894, -148.584, -96.8416, 124.66
0.648454, -1, 1.52299, 10.9788, 17.9894, -148.584, -96.8416, 124.66
0.649641, -1, 1.52299, 10.9788, 17.9894, -148.584, -96.8416, 124.66
0.651704, -1, 1.44498, 10.958, 17.9946, -148.609, -96.8331, 124.519
0.652948, -1, 1.44498, 10.958, 17.9946, -148.609, -96.8331, 124.519
0.654912, -1, 1.36697, 10.9373, 17.9998, -148.633, -96.8247, 124.378
0.657246, -1, 1.36697, 10.9373, 17.9998, -148.633, -96.8247, 124.378
0.792215, -1, -1.28684, 10.2274, 18.1761, -149.457, -96.5336, 119.574
0.793455, -1, -1.28684, 10.2274, 18.1761, -149.457, -96.5336, 119.574
0.794714, -1, -1.28684, 10.2274, 18.1761, -149.457, -96.5336, 119.574
0.796673, -1, -1.36528, 10.2065, 18.1812, -149.482, -96.5252, 119.432
0.797976, -1, -1.36528, 10.2065, 18.1812, -149.482, -96.5252, 119.432
0.79977, -1, -1.44362, 10.1856, 18.1864, -149.506, -96.5168, 119.291
0.80124, -1, -1.44362, 10.1856, 18.1864, -149.506, -96.5168, 119.291
0.804323, -1, -1.5219, 10.1647, 18.1916, -149.53, -96.5084, 119.149
0.805641, -1, -1.5219, 10.1647, 18.1916, -149.53, -96.5084, 119.149
0.807503, -1, -1.5219, 10.1647, 18.1916, -149.53, -96.5084, 119.149
0.809042, -1, -1.60012, 10.1438, 18.1969, -149.554, -96.5, 119.007
0.810311, -1, -1.60012, 10.1438, 18.1969, -149.554, -96.5, 119.007
0.813175, -1, -1.67823, 10.1229, 18.2021, -149.579, -96.4915, 118.866
0.815886, -1, -1.75623, 10.102, 18.2073, -149.603, -96.4829, 118.724
0.817228, -1, -1.75623, 10.102, 18.2073, -149.603, -96.4829, 118.724
0.821161, -1, -1.83409, 10.0811, 18.2125, -149.627, -96.4743, 118.582
0.822363, -1, -1.83409, 10.0811, 18.2125, -149.627, -96.4743, 118.582
0.824418, -1, -1.91184, 10.0602, 18.2177, -149.652, -96.4655, 118.441
0.825702, -1, -1.91184, 10.0602, 18.2177, -149.652, -96.4655, 118.441
0.826969, -1, -1.91184, 10.0602, 18.2177, -149.652, -96.4655, 118.441
0.828988, -1, -1.98954, 10.0393, 18.2229, -149.676, -96.4567, 118.299
0.830258, -1, -1.98954, 10.0393, 18.2229, -149.676, -96.4567, 118.299
0.834118, -1, -2.06715, 10.0183, 18.2282, -149.7, -96.4479, 118.157
0.836976, -1, -2.14471, 9.99744, 18.2333, -149.725, -96.439, 118.015
0.8391, -1, -2.14471, 9.99744, 18.2333, -149.725, -96.439, 118.015
0.841134, -1, -2.22228, 9.97655, 18.2385, -149.749, -96.4303, 117.874
0.842445, -1, -2.22228, 9.97655, 18.2385, -149.749, -96.4303, 117.874
0.844255, -1, -2.29989, 9.95568, 18.2437, -149.773, -96.4216, 117.732
0.845737, -1, -2.29989, 9.95568, 18.2437, -149.773, -96.4216, 117.732
0.84693, -1, -2.29989, 9.95568, 18.2437, -149.773, -96.4216, 117.732
0.849845, -1, -2.37758, 9.93475, 18.2489, -149.797, -96.413, 117.59
0.851118, -1, -2.37758, 9.93475, 18.2489, -149.797, -96.413, 117.59
0.853129, -1, -2.45538, 9.91377, 18.2541, -149.821, -96.4045, 117.448
0.854435, -1, -2.45538, 9.91377, 18.2541, -149.821, -96.4045, 117.448
0.856309, -1, -2.53325, 9.89278, 18.2594, -149.846, -96.396, 117.306
0.857737, -1, -2.53325, 9.89278, 18.2594, -149.846, -96.396, 117.306
0.863251, -1, -2.61115, 9.87182, 18.2645, -149.87, -96.3876, 117.165
0.872373, -1, -2.84531, 9.80899, 18.2801, -149.943, -96.3625, 116.739
0.879122, -1, -2.92359, 9.78804, 18.2853, -149.967, -96.354, 116.598
0.887136, -1, -3.08044, 9.74613, 18.2956, -150.016, -96.337, 116.314
0.896522, -1, -3.31657, 9.68326, 18.3113, -150.089, -96.3108, 115.888
0.904611, -1, -3.47444, 9.64129, 18.3218, -150.137, -96.2933, 115.604
0.912822, -1, -3.63229, 9.59941, 18.3322, -150.187, -96.2758, 115.32
0.920664, -1, -3.79015, 9.55758, 18.3425, -150.235, -96.2586, 115.036
0.928685, -1, -3.94812, 9.51562, 18.3529, -150.284, -96.2417, 114.752
0.936815, -1, -4.10601, 9.47373, 18.3632, -150.333, -96.2248, 114.468
0.943092, -1, -4.1849, 9.45277, 18.3684, -150.357, -96.2163, 114.325
0.952697, -1, -4.34267, 9.41085, 18.3787, -150.406, -96.1992, 113.899
0.960852, -1, -4.50002, 9.36889, 18.389, -150.455, -96.1731, 113.614
0.968154, -1, -4.65699, 9.3269, 18.3993, -150.504, -96.1642, 113.472
0.976117, -1, -4.81353, 9.28491, 18.4097, -150.552, -96.1465, 113.187
0.984183, -1, -4.96977, 9.24284, 18.4201, -150.601, -96.129, 112.903
0.992121, -1, -5.12568, 9.20084, 18.4306, -150.65, -96.112, 112.618
1.00011, -1, -5.28157, 9.15881, 18.4411, -150.698, -96.095, 112.333
1.00814, -1, -5.4377, 9.11666, 18.4516, -150.748, -96.0782, 112.049
1.01612, -1, -5.59394, 9.07459, 18.4619, -150.796, -96.0613, 111.764
1.02413, -1, -5.7504, 9.03255, 18.4723, -150.845, -96.0441, 111.479
1.03213, -1, -5.90734, 8.99043, 18.4827, -150.894, -96.0267, 111.194
1.04017, -1, -6.06478, 8.9483, 18.493, -150.943, -96.0091, 110.909
1.04812, -1, -6.2228, 8.90622, 18.5033, -150.992, -95.9915, 110.624
1.05613, -1, -6.38112, 8.86413, 18.5136, -151.041, -95.9743, 110.339
1.06312, -1, -6.53954, 8.82213, 18.5239, -151.09, -95.9572, 110.054
1.07113, -1, -6.6981, 8.78001, 18.5344, -151.139, -95.9402, 109.768
1.07995, -1, -6.85681, 8.73795, 18.5449, -151.188, -95.9232, 109.483
1.08818, -1, -7.01532, 8.6959, 18.5554, -151.237, -95.9061, 109.197
1.09612, -1, -7.1738, 8.65381, 18.5658, -151.286, -95.8887, 108.912
1.10393, -1, -7.33209, 8.61168, 18.5762, -151.335, -95.871, 108.626
1.11219, -1, -7.48995, 8.56942, 18.5866, -151.384, -95.8533, 108.341
1.11914, -1, -7.64762, 8.52716, 18.5971, -151.433, -95.8358, 108.055
1.12797, -1, -7.80494, 8.48494, 18.6075, -151.482, -95.8186, 107.769
1.13622, -1, -7.96181, 8.44269, 18.6179, -151.531, -95.8016, 107.484
1.1433, -1, -8.11845, 8.40038, 18.6283, -151.58, -95.7847, 107.198
1.15252, -1, -8.27508, 8.35809, 18.6387, -151.629, -95.7677, 106.912
1.1592, -1, -8.43176, 8.31577, 18.6493, -151.678, -95.7505, 106.626
1.1675, -1, -8.58877, 8.27343, 18.6598, -151.727, -95.733, 106.34
1.17521, -1, -8.74615, 8.23118, 18.6702, -151.777, -95.7152, 106.053
1.18413, -1, -8.90383, 8.18892, 18.6806, -151.825, -95.6977, 105.767
1.19177, -1, -9.06192, 8.14665, 18.6909, -151.874, -95.6804, 105.481
1.2009, -1, -9.22058, 8.10444, 18.7014, -151.924, -95.6632, 105.194
1.20811, -1, -9.37952, 8.0622, 18.7118, -151.973, -95.6461, 104.908
1.21586, -1, -9.53867, 8.01992, 18.7222, -152.022, -95.629, 104.621
1.22491, -1, -9.69786, 7.97775, 18.7326, -152.072, -95.6117, 104.334
1.23213, -1, -9.85708, 7.93559, 18.743, -152.12, -95.5942, 104.047
1.24005, -1, -10.0164, 7.89329, 18.7537, -152.17, -95.5763, 103.76
1.24896, -1, -10.1757, 7.85094, 18.7642, -152.219, -95.5584, 103.474
1.25612, -1, -10.3347, 7.8085, 18.7748, -152.268, -95.5408, 103.187
1.26424, -1, -10.4934, 7.76602, 18.7853, -152.318, -95.5236, 102.9
1.27163, -1, -10.6519, 7.72358, 18.7956, -152.367, -95.5066, 102.613
1.27961, -1, -10.8099, 7.68112, 18.8061, -152.416, -95.4896, 102.326
1.28845, -1, -10.9678, 7.63857, 18.8165, -152.465, -95.4724, 102.039
1.29571, -1, -11.1253, 7.59609, 18.8269, -152.515, -95.4551, 101.752
1.30373, -1, -11.2828, 7.55366, 18.8373, -152.564, -95.4374, 101.464
1.31261, -1, -11.4403, 7.51124, 18.8478, -152.614, -95.4196, 101.177
1.32074, -1, -11.5191, 7.46878, 18.8582, -152.663, -95.402, 100.89
1.32825, -1, -11.7559, 7.4264, 18.8688, -152.712, -95.3847, 100.602
1.3351, -1, -11.835, 7.40521, 18.8741, -152.736, -95.3761, 100.458
1.3431, -1, -11.9935, 7.36282, 18.8846, -152.786, -95.3589, 100.171
1.35115, -1, -12.1525, 7.32049, 18.8952, -152.835, -95.3417, 99.883
1.36099, -1, -12.3917, 7.25692, 18.9109, -152.91, -95.3157, 99.451
1.36979, -1, -12.5515, 7.21454, 18.9214, -152.959, -95.298, 99.1633
1.37631, -1, -12.7115, 7.17217, 18.9319, -153.008, -95.28, 98.8756
1.38311, -1, -12.7915, 7.15096, 18.9372, -153.033, -95.2711, 98.7317
1.39401, -1, -13.0317, 7.0872, 18.953, -153.107, -95.2447, 98.2994
1.39916, -1, -13.1117, 7.06592, 18.9582, -153.132, -95.2361, 98.1554
1.40866, -1, -13.3513, 7.00208, 18.974, -153.207, -95.2104, 97.7234
1.4184, -1, -13.5106, 6.95943, 18.9846, -153.256, -95.1934, 97.4351
1.4231, -1, -13.5902, 6.93806, 18.9899, -153.28, -95.1848, 97.2908
1.43267, -1, -13.8289, 6.87406, 19.0057, -153.355, -95.1587, 96.8579
1.44156, -1, -13.9874, 6.8314, 19.0161, -153.404, -95.141, 96.5693
1.44711, -1, -14.0665, 6.81006, 19.0213, -153.429, -95.132, 96.4249
1.45663, -1, -14.2247, 6.76746, 19.0319, -153.478, -95.1143, 96.1361
1.46415, -1, -14.3829, 6.72483, 19.0423, -153.528, -95.0969, 95.8471
1.4711, -1, -14.5413, 6.6822, 19.0528, -153.577, -95.0797, 95.5583
1.4801, -1, -14.6999, 6.63968, 19.0633, -153.627, -95.0624, 95.2691
1.48814, -1, -14.859, 6.59717, 19.0738, -153.676, -95.0453, 94.9797
1.4951, -1, -15.0184, 6.55455, 19.0845, -153.726, -95.0278, 94.6908
1.50311, -1, -15.1781, 6.51199, 19.0952, -153.776, -95.0102, 94.4019
1.51117, -1, -15.3383, 6.46948, 19.1058, -153.825, -94.9921, 94.1128
1.51911, -1, -15.4987, 6.42684, 19.1164, -153.874, -94.9741, 93.8233
1.52714, -1, -15.6594, 6.38418, 19.1269, -153.925, -94.9566, 93.5342
1.53518, -1, -15.8202, 6.34147, 19.1374, -153.974, -94.9392, 93.245
1.5431, -1, -15.9809, 6.29864, 19.1481, -154.024, -94.922, 92.9555
1.55117, -1, -16.1416, 6.25582, 19.1586, -154.074, -94.9048, 92.6657
1.55911, -1, -16.3024, 6.21301, 19.169, -154.123, -94.8876, 92.3763
1.5671, -1, -16.4629, 6.17008, 19.1795, -154.173, -94.8701, 92.0866
1.57516, -1, -16.623, 6.12713, 19.19, -154.223, -94.8523, 91.7967
1.5831, -1, -16.7828, 6.08424, 19.2006, -154.272, -94.8343, 91.5066
1.59113, -1, -16.9423, 6.04129, 19.2112, -154.322, -94.8166, 91.2166
1.59917, -1, -17.1015, 5.99839, 19.2218, -154.372, -94.7991, 90.9265
1.6071, -1, -17.2605, 5.95553, 19.2323, -154.421, -94.7817, 90.6362
1.6151, -1, -17.4197, 5.91275, 19.2429, -154.471, -94.7644, 90.346
1.62411, -1, -17.579, 5.87, 19.2536, -154.521, -94.747, 90.056
1.63113, -1, -17.7385, 5.82728, 19.2642, -154.57, -94.7294, 89.7657
1.6391, -1, -17.8981, 5.78453, 19.2749, -154.621, -94.7115, 89.4752
1.64719, -1, -18.0582, 5.74182, 19.2855, -154.671, -94.6934, 89.1848
1.65515, -1, -18.2187, 5.69911, 19.296, -154.72, -94.6755, 88.8945
1.66325, -1, -18.3796, 5.65634, 19.3067, -154.77, -94.6579, 88.6039
1.67119, -1, -18.541, 5.61346, 19.3174, -154.82, -94.6405, 88.3129
1.6792, -1, -18.7025, 5.57054, 19.328, -154.87, -94.6233, 88.0221
1.68737, -1, -18.8641, 5.52763, 19.3387, -154.92, -94.606, 87.7313
1.69525, -1, -19.0257, 5.48462, 19.3492, -154.97, -94.5884, 87.4402
1.70324, -1, -19.1872, 5.44153, 19.3597, -155.02, -94.5707, 87.1488
1.71127, -1, -19.3487, 5.39848, 19.3703, -155.07, -94.5526, 86.8575
1.71917, -1, -19.5098, 5.35538, 19.3808, -155.12, -94.5346, 86.566
1.72713, -1, -19.6707, 5.31219, 19.3914, -155.169, -94.5169, 86.2744
1.73522, -1, -19.8313, 5.26912, 19.4019, -155.22, -94.4993, 85.9827
1.7432, -1, -19.9917, 5.22604, 19.4125, -155.27, -94.482, 85.6913
1.7514, -1, -20.1517, 5.18295, 19.4233, -155.32, -94.4646, 85.3998
1.76024, -1, -20.3115, 5.14006, 19.4341, -155.37, -94.4472, 85.1081
1.76741, -1, -20.4716, 5.09713, 19.4448, -155.42, -94.4294, 84.8163
1.77555, -1, -20.6316, 5.05411, 19.4555, -155.47, -94.4114, 84.5247
1.78437, -1, -20.7919, 5.0112, 19.4661, -155.52, -94.3933, 84.2329
1.79159, -1, -20.9527, 4.96834, 19.4768, -155.57, -94.3755, 83.9407
1.7997, -1, -21.1138, 4.9253, 19.4874, -155.62, -94.3582, 83.6486
1.80865, -1, -21.2753, 4.88229, 19.498, -155.671, -94.341, 83.3567
1.81572, -1, -21.4373, 4.83919, 19.5086, -155.721, -94.3238, 83.0646
1.8242, -1, -21.5995, 4.79594, 19.5192, -155.771, -94.3065, 82.7722
1.83251, -1, -21.6806, 4.77436, 19.5246, -155.797, -94.2978, 82.4796
1.83909, -1, -21.8428, 4.73117, 19.5353, -155.846, -94.28, 82.3334
1.84817, -1, -22.0865, 4.66611, 19.5514, -155.922, -94.2531, 81.8944
1.85511, -1, -22.1677, 4.64445, 19.5568, -155.947, -94.2441, 81.7481
1.86312, -1, -22.3301, 4.60113, 19.5674, -155.997, -94.2264, 81.4555
1.87224, -1, -22.5731, 4.53608, 19.5835, -156.073, -94.2003, 81.0166
1.87909, -1, -22.654, 4.51438, 19.5888, -156.098, -94.1916, 80.8703
1.88714, -1, -22.8155, 4.47101, 19.5995, -156.148, -94.1741, 80.5772
1.8965, -1, -23.0573, 4.40608, 19.6155, -156.223, -94.1475, 80.1379
1.90309, -1, -23.1378, 4.38445, 19.6208, -156.248, -94.1385, 79.9914
1.91114, -1, -23.2987, 4.34119, 19.6315, -156.298, -94.1202, 79.6982
1.92071, -1, -23.5401, 4.27636, 19.6478, -156.374, -94.0931, 79.2581
1.92951, -1, -23.7011, 4.23313, 19.6586, -156.425, -94.0753, 78.9649
1.93516, -1, -23.7817, 4.21152, 19.664, -156.45, -94.0665, 78.8182
1.94472, -1, -24.0239, 4.14666, 19.68, -156.526, -94.0403, 78.3778
1.95351, -1, -24.1049, 4.12497, 19.6853, -156.551, -94.0229, 78.0839
1.95915, -1, -24.2671, 4.08163, 19.696, -156.601, -94.014, 77.9371
1.96883, -1, -24.4297, 4.03826, 19.7067, -156.652, -93.9872, 77.4961
1.97613, -1, -24.5926, 3.9948, 19.7173, -156.702, -93.9781, 77.3491
1.98317, -1, -24.7558, 3.95124, 19.7279, -156.752, -93.96, 77.055
1.99109, -1, -24.9192, 3.9077, 19.7385, -156.803, -93.9421, 76.761
1.99909, -1, -25.0826, 3.86415, 19.7493, -156.853, -93.9244, 76.4669
2.0082, -1, -25.2458, 3.82057, 19.7602, -156.903, -93.9069, 76.1726
2.01609, -1, -25.4087, 3.77701, 19.771, -156.954, -93.8894, 75.8783
2.02409, -1, -25.5715, 3.73337, 19.7818, -157.004, -93.8717, 75.5841
2.03112, -1, -25.7341, 3.68973, 19.7924, -157.054, -93.8539, 75.2897
2.03911, -1, -25.8964, 3.64629, 19.8031, -157.105, -93.8356, 74.9949
2.04794, -1, -26.0585, 3.6028, 19.8138, -157.155, -93.8171, 74.7003
2.05508, -1, -26.2204, 3.55931, 19.8246, -157.206, -93.799, 74.4058
2.06309, -1, -26.3819, 3.51597, 19.8353, -157.257, -93.7812, 74.111
2.07211, -1, -26.5436, 3.47255, 19.846, -157.307, -93.7635, 73.8159
2.07908, -1, -26.7055, 3.42911, 19.8567, -157.358, -93.7459, 73.5209
2.08708, -1, -26.8678, 3.38568, 19.8675, -157.409, -93.7283, 73.2258
2.09941, -1, -27.1119, 3.32035, 19.8838, -157.485, -93.7013, 72.7828
2.10308, -1, -27.1934, 3.29856, 19.8892, -157.51, -93.6921, 72.6353
2.11208, -1, -27.3567, 3.25498, 19.9, -157.561, -93.6739, 72.3401
2.12015, -1, -27.5204, 3.21125, 19.9106, -157.611, -93.6558, 72.0449
2.12708, -1, -27.6843, 3.16752, 19.9214, -157.662, -93.6379, 71.7493
2.13517, -1, -27.8484, 3.12387, 19.9322, -157.712, -93.6202, 71.4537
2.14308, -1, -28.0125, 3.08016, 19.943, -157.763, -93.6025, 71.1583
2.15111, -1, -28.1766, 3.03645, 19.9538, -157.814, -93.5848, 70.8625
2.15919, -1, -28.3407, 2.99271, 19.9645, -157.864, -93.5669, 70.5665
2.16718, -1, -28.5047, 2.94898, 19.9754, -157.915, -93.5486, 70.2705
2.17518, -1, -28.6683, 2.90532, 19.9863, -157.966, -93.5301, 69.9747
2.18325, -1, -28.8317, 2.86166, 19.9971, -158.017, -93.5119, 69.6785
2.19119, -1, -28.9947, 2.81801, 20.0079, -158.068, -93.494, 69.382
2.19922, -1, -29.1574, 2.77437, 20.0186, -158.119, -93.4763, 69.0858
2.20731, -1, -29.3201, 2.73075, 20.0294, -158.169, -93.4588, 68.7893
2.21509, -1, -29.4828, 2.68714, 20.0402, -158.221, -93.4411, 68.4925
2.22312, -1, -29.6456, 2.64343, 20.0509, -158.272, -93.4232, 68.1957
2.23118, -1, -29.8088, 2.59969, 20.0618, -158.322, -93.405, 67.8991
2.23933, -1, -29.9719, 2.55598, 20.0725, -158.374, -93.3866, 67.6026
2.24735, -1, -30.1353, 2.51217, 20.0834, -158.424, -93.3684, 67.3056
2.25526, -1, -30.2993, 2.4682, 20.0944, -158.475, -93.3504, 67.0087
2.26341, -1, -30.4636, 2.42428, 20.1053, -158.526, -93.3327, 66.7118
2.2715, -1, -30.6283, 2.38032, 20.1161, -158.577, -93.3149, 66.4147
2.27948, -1, -30.7933, 2.33635, 20.1268, -158.628, -93.2973, 66.1174
2.2877, -1, -30.9582, 2.29247, 20.1376, -158.679, -93.2793, 65.8202
2.29617, -1, -31.1232, 2.24845, 20.1485, -158.73, -93.261, 65.523
2.30365, -1, -31.2882, 2.20449, 20.1593, -158.781, -93.2425, 65.2257
2.31221, -1, -31.4529, 2.16067, 20.1701, -158.832, -93.2241, 64.9279
2.31976, -1, -31.6175, 2.1167, 20.1808, -158.883, -93.206, 64.6302
2.32829, -1, -31.782, 2.07272, 20.1916, -158.935, -93.1882, 64.3325
2.33581, -1, -31.8641, 2.05079, 20.1971, -158.96, -93.1794, 64.1835
2.34409, -1, -32.1099, 1.98495, 20.2136, -159.036, -93.1531, 63.7365
2.35107, -1, -32.1918, 1.96297, 20.2191, -159.062, -93.1441, 63.5876
2.36013, -1, -32.4372, 1.89709, 20.2354, -159.139, -93.1171, 63.1408
2.36715, -1, -32.519, 1.87506, 20.2408, -159.165, -93.1079, 62.9917
2.37511, -1, -32.6829, 1.831, 20.2518, -159.216, -93.0895, 62.6934
2.38449, -1, -32.9288, 1.76497, 20.2681, -159.293, -93.0622, 62.2461
2.39111, -1, -33.0109, 1.74288, 20.2736, -159.318, -93.0534, 62.0969
2.40047, -1, -33.2579, 1.67663, 20.2899, -159.395, -93.0266, 61.6488
2.40708, -1, -33.3404, 1.65456, 20.2953, -159.421, -93.0177, 61.4996
2.41654, -1, -33.5886, 1.58829, 20.3117, -159.498, -92.9907, 61.0518
2.42308, -1, -33.6715, 1.5662, 20.3172, -159.524, -92.9815, 60.9025
2.43303, -1, -33.9201, 1.49991, 20.3336, -159.6, -92.9536, 60.454
2.44064, -1, -34.0859, 1.45576, 20.3444, -159.651, -92.935, 60.1551
2.44872, -1, -34.2517, 1.41166, 20.3553, -159.703, -92.9167, 59.856
2.4567, -1, -34.3347, 1.38961, 20.3607, -159.729, -92.8988, 59.5565
2.46408, -1, -34.5006, 1.34543, 20.3717, -159.78, -92.8898, 59.4067
2.47266, -1, -34.6662, 1.30131, 20.3825, -159.832, -92.872, 59.1074
2.4801, -1, -34.8314, 1.2572, 20.3934, -159.883, -92.8542, 58.8082
2.48816, -1, -34.9963, 1.21303, 20.4042, -159.934, -92.8361, 58.5087
2.49607, -1, -35.161, 1.16885, 20.4152, -159.986, -92.8176, 58.209
2.50408, -1, -35.3255, 1.12459, 20.4263, -160.037, -92.799, 57.9094
2.51212, -1, -35.4897, 1.08046, 20.4374, -160.089, -92.7807, 57.6096
2.52007, -1, -35.6522, 1.03674, 20.4486, -160.14, -92.7626, 57.3099
2.52713, -1, -35.8122, 0.993471, 20.46, -160.191, -92.7447, 57.0112
2.53509, -1, -35.9683, 0.951275, 20.4717, -160.242, -92.7271, 56.7155
2.5431, -1, -36.1194, 0.910668, 20.4836, -160.291, -92.7096, 56.4255
2.55113, -1, -36.2632, 0.872175, 20.4956, -160.339, -92.6925, 56.1452
2.5591, -1, -36.3975, 0.836508, 20.5072, -160.384, -92.6759, 55.8806
2.56707, -1, -36.5207, 0.803959, 20.5178, -160.425, -92.6606, 55.6383
2.57513, -1, -36.6312, 0.774701, 20.5271, -160.461, -92.6472, 55.4234
2.58307, -1, -36.7273, 0.749317, 20.5346, -160.492, -92.6359, 55.2413
2.5911, -1, -36.8087, 0.727666, 20.54, -160.517, -92.627, 55.0942
2.59914, -1, -36.8763, 0.709734, 20.5431, -160.537, -92.6203, 54.9819
2.60706, -1, -36.9308, 0.695386, 20.5445, -160.551, -92.6156, 54.9019
2.61506, -1, -36.9727, 0.684376, 20.5449, -160.56, -92.6126, 54.8476
2.62403, -1, -37.0035, 0.676278, 20.5446, -160.566, -92.6108, 54.8142
2.63213, -1, -37.0247, 0.670702, 20.5441, -160.569, -92.6098, 54.7952
2.6391, -1, -37.0381, 0.667363, 20.5437, -160.571, -92.6093, 54.7854
2.6471, 2, -37.0456, 0.665621, 20.5435, -160.572, -92.6091, 54.7808
2.65509, 2, -37.0484, 0.66479, 20.5434, -160.572, -92.609, 54.7786
2.66311, 2, -37.0486, 0.664446, 20.5433, -160.573, -92.609, 54.7777
2.67121, 2, -37.0482, 0.664282, 20.5433, -160.573, -92.6089, 54.7774
2.67918, 2, -37.048, 0.664218, 20.5433, -160.573, -92.6089, 54.7772
2.68717, 2, -37.0483, 0.664185, 20.5433, -160.573, -92.609, 54.7771
2.69523, 2, -37.0492, 0.664124, 20.5432, -160.573, -92.609, 54.7773
2.7032, 2, -37.0502, 0.664032, 20.5431, -160.573, -92.6091, 54.7774
2.7112, 2, -37.0515, 0.663811, 20.5429, -160.573, -92.6091, 54.7775
2.71921, 2, -37.0528, 0.663538, 20.5427, -160.573, -92.6091, 54.7777
2.72709, 2, -37.0539, 0.663308, 20.5425, -160.573, -92.6092, 54.7779
2.73511, 2, -37.0549, 0.663118, 20.5424, -160.573, -92.6092, 54.7781
2.74331, 2, -37.0554, 0.663024, 20.5422, -160.573, -92.6092, 54.7783
2.75123, 2, -37.0553, 0.66298, 20.542, -160.573, -92.6092, 54.7785
2.7597, 2, -37.0548, 0.66299, 20.5419, -160.573, -92.6093, 54.7787
2.76811, 2, -37.0539, 0.663058, 20.5418, -160.573, -92.6093, 54.7789
2.77545, 2, -37.0528, 0.663129, 20.5418, -160.573, -92.6093, 54.7791
2.78372, 2, -37.0513, 0.663226, 20.5417, -160.573, -92.6093, 54.7794
2.79214, 2, -37.0499, 0.663358, 20.5416, -160.573, -92.6094, 54.7796
2.79958, 2, -37.0488, 0.663415, 20.5416, -160.573, -92.6094, 54.7797
2.80825, 2, -37.048, 0.663467, 20.5415, -160.573, -92.6095, 54.7799
2.81566, 2, -37.0477, 0.663436, 20.5415, -160.573, -92.6095, 54.7799
2.82424, 2, -37.0477, 0.663395, 20.5415, -160.573, -92.6094, 54.7799
2.83191, 2, -37.0479, 0.663334, 20.5415, -160.573, -92.6094, 54.78
2.84007, 2, -37.0482, 0.663253, 20.5415, -160.573, -92.6095, 54.78
2.84705, 2, -37.0483, 0.663219, 20.5414, -160.573, -92.6095, 54.7801
2.85609, 2, -37.0494, 0.663161, 20.5414, -160.573, -92.6095, 54.7801
2.8631, 2, -37.0498, 0.663164, 20.5414, -160.573, -92.6095, 54.7801
2.87225, 2, -37.051, 0.66316, 20.5414, -160.573, -92.6095, 54.7802
2.8791, 2, -37.0512, 0.663163, 20.5414, -160.573, -92.6095, 54.7802
2.8871, 2, -37.0516, 0.663178, 20.5414, -160.573, -92.6095, 54.7803
2.89641, 2, -37.0517, 0.663231, 20.5414, -160.573, -92.6096, 54.7804
2.90305, 2, -37.0517, 0.663233, 20.5414, -160.573, -92.6096, 54.7804
2.91251, 2, -37.0514, 0.663252, 20.5414, -160.573, -92.6096, 54.7804
2.91907, 2, -37.0512, 0.663262, 20.5414, -160.573, -92.6096, 54.7804
2.92914, 2, -37.0507, 0.663249, 20.5413, -160.573, -92.6095, 54.7805
2.93511, 2, -37.0505, 0.663245, 20.5413, -160.573, -92.6095, 54.7805
2.94466, 2, -37.0502, 0.663222, 20.5413, -160.573, -92.6096, 54.7806
2.9529, 2, -37.0502, 0.663201, 20.5413, -160.573, -92.6096, 54.7807
2.9606, 2, -37.0501, 0.663191, 20.5413, -160.573, -92.6096, 54.7807
2.9688, 2, -37.0501, 0.663179, 20.5413, -160.573, -92.6096, 54.7807
2.97697, 2, -37.0502, 0.663161, 20.5412, -160.573, -92.6096, 54.7808
2.98409, 2, -37.0502, 0.663175, 20.5412, -160.573, -92.6096, 54.7808
2.99212, 2, -37.0503, 0.663209, 20.5412, -160.573, -92.6096, 54.7809
3.00005, 2, -37.0505, 0.663206, 20.5413, -160.573, -92.6096, 54.781
3.00812, 2, -37.0507, 0.66323, 20.5413, -160.572, -92.6096, 54.781
3.0161, 2, -37.0508, 0.663239, 20.5412, -160.573, -92.6096, 54.7811
3.02406, 2, -37.0509, 0.663238, 20.5412, -160.572, -92.6097, 54.7811
3.03111, 2, -37.0509, 0.663238, 20.5412, -160.572, -92.6096, 54.7811
3.04011, 2, -37.0508, 0.663238, 20.5412, -160.572, -92.6096, 54.7812
3.04809, 2, -37.0508, 0.663227, 20.5412, -160.572, -92.6097, 54.7812
3.05513, 2, -37.0508, 0.663196, 20.5412, -160.572, -92.6097, 54.7812
3.06305, 2, -37.0507, 0.663182, 20.5412, -160.572, -92.6098, 54.7813
3.07105, 2, -37.0507, 0.663175, 20.5412, -160.572, -92.6097, 54.7814
3.08006, 2, -37.0507, 0.663172, 20.5412, -160.572, -92.6097, 54.7814
3.08815, 2, -37.0507, 0.663182, 20.5412, -160.572, -92.6098, 54.7814
3.09606, 2, -37.0507, 0.663194, 20.5412, -160.572, -92.6098, 54.7814
3.10405, 2, -37.0507, 0.663217, 20.5412, -160.572, -92.6098, 54.7815
3.1121, 2, -37.0507, 0.663228, 20.5412, -160.572, -92.6098, 54.7815
3.12004, 2, -37.0507, 0.663246, 20.5411, -160.572, -92.6098, 54.7815
3.12808, 2, -37.0507, 0.663241, 20.5411, -160.572, -92.6098, 54.7816
3.13505, 2, -37.0507, 0.663259, 20.5411, -160.572, -92.6098, 54.7816
3.14307, 2, -37.0506, 0.663252, 20.5411, -160.572, -92.6098, 54.7816
3.15112, 2, -37.0507, 0.663244, 20.5411, -160.572, -92.6098, 54.7817
3.1591, 2, -37.0506, 0.663241, 20.5411, -160.572, -92.6098, 54.7817
3.1671, 2, -37.0506, 0.663239, 20.5411, -160.572, -92.6098, 54.7817
3.1752, 2, -37.0506, 0.66322, 20.5411, -160.572, -92.6098, 54.7818
3.18314, 2, -37.0506, 0.663219, 20.5411, -160.572, -92.6098, 54.7818
3.19115, 2, -37.0506, 0.663221, 20.5411, -160.572, -92.6098, 54.7818
3.19923, 2, -37.0506, 0.66323, 20.541, -160.572, -92.6098, 54.7819
3.20719, 2, -37.0506, 0.663242, 20.541, -160.572, -92.6099, 54.7819
3.21518, 2, -37.0506, 0.663244, 20.541, -160.572, -92.6099, 54.7819
3.22312, 2, -37.0505, 0.66326, 20.5411, -160.572, -92.6099, 54.782
3.23108, 2, -37.0505, 0.663253, 20.5411, -160.572, -92.6098, 54.782
3.23918, 2, -37.0505, 0.663264, 20.5411, -160.572, -92.6098, 54.782
3.24727, 2, -37.0505, 0.663274, 20.541, -160.572, -92.6098, 54.7821
3.25536, 2, -37.0505, 0.663272, 20.541, -160.572, -92.6099, 54.7821
3.26326, 2, -37.0505, 0.663266, 20.541, -160.572, -92.6099, 54.7821
3.27149, 2, -37.0505, 0.66325, 20.541, -160.572, -92.6099, 54.7822
3.27944, 2, -37.0505, 0.663244, 20.541, -160.572, -92.6099, 54.7822
3.28745, 2, -37.0505, 0.66324, 20.541, -160.572, -92.6099, 54.7822
3.29566, 2, -37.0504, 0.663239, 20.541, -160.572, -92.6099, 54.7822
3.30422, 2, -37.0504, 0.663251, 20.541, -160.572, -92.6099, 54.7823
3.3116, 2, -37.0504, 0.663251, 20.541, -160.572, -92.6099, 54.7823
3.32017, 2, -37.0504, 0.663256, 20.541, -160.572, -92.6099, 54.7823
3.32766, 2, -37.0504, 0.663263, 20.541, -160.572, -92.6099, 54.7823
3.33621, 2, -37.0504, 0.663257, 20.541, -160.572, -92.6099, 54.7824
3.34375, 2, -37.0504, 0.663258, 20.541, -160.572, -92.6099, 54.7824
3.35232, 2, -37.0504, 0.66326, 20.541, -160.572, -92.6099, 54.7824
3.35905, 2, -37.0504, 0.66326, 20.541, -160.572, -92.6099, 54.7824
3.36818, 2, -37.0503, 0.663257, 20.541, -160.572, -92.6099, 54.7824
3.37506, 2, -37.0503, 0.663258, 20.541, -160.572, -92.6099, 54.7824
3.3842, 2, -37.0503, 0.66326, 20.5409, -160.572, -92.6099, 54.7825
3.39109, 2, -37.0503, 0.66326, 20.5409, -160.572, -92.6099, 54.7825
3.40068, 2, -37.0503, 0.663256, 20.5409, -160.572, -92.6099, 54.7825
3.40844, 2, -37.0503, 0.663253, 20.5409, -160.572, -92.6099, 54.7825
3.41656, 2, -37.0502, 0.66325, 20.5409, -160.572, -92.61, 54.7825
3.4249, 2, -37.0502, 0.663243, 20.5409, -160.572, -92.6099, 54.7825
3.4326, 2, -37.0502, 0.663248, 20.5409, -160.572, -92.6099, 54.7826
3.44064, 2, -37.0502, 0.663259, 20.5408, -160.572, -92.61, 54.7826
3.44889, 2, -37.0502, 0.663267, 20.5408, -160.572, -92.61, 54.7826
3.45661, 2, -37.0502, 0.663272, 20.5408, -160.572, -92.61, 54.7826
3.46468, 2, -37.0502, 0.663278, 20.5408, -160.572, -92.61, 54.7826
3.47265, 2, -37.0502, 0.663281, 20.5408, -160.572, -92.61, 54.7826
3.48006, 2, -37.0502, 0.663275, 20.5408, -160.572, -92.61, 54.7826
3.48815, 2, -37.0501, 0.663262, 20.5408, -160.572, -92.61, 54.7826
3.49608, 2, -37.0501, 0.663261, 20.5408, -160.572, -92.61, 54.7826
3.50404, 2, -37.0501, 0.663253, 20.5408, -160.572, -92.61, 54.7826
3.51203, 2, -37.0501, 0.663257, 20.5408, -160.572, -92.61, 54.7826
3.52008, 2, -37.0501, 0.663247, 20.5408, -160.572, -92.61, 54.7826
3.52807, 2, -37.05, 0.663261, 20.5408, -160.572, -92.61, 54.7827
3.53603, 2, -37.05, 0.663273, 20.5408, -160.572, -92.61, 54.7827
3.54409, 2, -37.05, 0.663278, 20.5408, -160.572, -92.61, 54.7827
3.55203, 2, -37.05, 0.663281, 20.5408, -160.572, -92.61, 54.7827
3.56003, 2, -37.05, 0.663282, 20.5408, -160.572, -92.61, 54.7827
3.56813, 2, -37.0499, 0.663301, 20.5408, -160.572, -92.61, 54.7828
3.57602, 2, -37.0499, 0.663291, 20.5408, -160.572, -92.61, 54.7828
3.58406, 2, -37.0499, 0.663287, 20.5408, -160.572, -92.61, 54.7828
3.59209, 2, -37.0499, 0.663285, 20.5408, -160.572, -92.61, 54.7828
3.60005, 2, -37.0499, 0.663284, 20.5407, -160.572, -92.61, 54.7828
3.60807, 2, -37.0499, 0.663283, 20.5407, -160.572, -92.61, 54.7828
3.61703, 2, -37.0499, 0.663283, 20.5407, -160.572, -92.61, 54.7828
3.62404, 2, -37.0499, 0.663301, 20.5407, -160.572, -92.61, 54.7828
3.63203, 2, -37.0499, 0.663291, 20.5407, -160.572, -92.6101, 54.7828
3.64009, 2, -37.0498, 0.663275, 20.5407, -160.572, -92.61, 54.7829
3.64826, 2, -37.0498, 0.663279, 20.5407, -160.572, -92.6101, 54.7829
3.65517, 2, -37.0498, 0.663281, 20.5407, -160.572, -92.6101, 54.7829
3.6641, 2, -37.0498, 0.663293, 20.5407, -160.572, -92.6101, 54.7829
3.67203, 2, -37.0497, 0.663295, 20.5407, -160.572, -92.6101, 54.7828
3.68003, 2, -37.0497, 0.663288, 20.5407, -160.572, -92.6101, 54.7829
3.68814, 2, -37.0497, 0.663296, 20.5407, -160.572, -92.6101, 54.7829
3.69513, 2, -37.0497, 0.663297, 20.5407, -160.572, -92.6101, 54.7829
3.70319, 2, -37.0497, 0.663289, 20.5407, -160.572, -92.6101, 54.7829
3.71138, 2, -37.0497, 0.663304, 20.5407, -160.572, -92.61, 54.7829
3.71914, 4, -37.0496, 0.663293, 20.5407, -160.572, -92.61, 54.7829
3.72711, 4, -37.0496, 0.663287, 20.5406, -160.572, -92.61, 54.7829
3.73514, 4, -37.0496, 0.663303, 20.5406, -160.572, -92.6101, 54.7829
3.74307, 4, -37.0495, 0.663292, 20.5406, -160.572, -92.6101, 54.7829
3.75119, 4, -37.0495, 0.663306, 20.5406, -160.572, -92.6101, 54.7829
3.75929, 4, -37.0495, 0.663293, 20.5406, -160.571, -92.6101, 54.7829
3.76725, 4, -37.0495, 0.663288, 20.5406, -160.571, -92.6102, 54.7829
3.7754, 4, -37.0495, 0.663314, 20.5406, -160.572, -92.6101, 54.7829
3.78344, 4, -37.0494, 0.663323, 20.5406, -160.571, -92.6101, 54.783
3.79206, 4, -37.0494, 0.663331, 20.5406, -160.571, -92.6101, 54.7829
3.79961, 4, -37.0494, 0.663331, 20.5406, -160.571, -92.6101, 54.7829
3.80821, 4, -37.0494, 0.663334, 20.5406, -160.571, -92.6101, 54.7829
3.81594, 4, -37.0494, 0.663325, 20.5406, -160.571, -92.6101, 54.783
3.8419, 4, -37.0493, 0.663327, 20.5405, -160.571, -92.6102, 54.7829
3.84392, 4, -37.0493, 0.663335, 20.5405, -160.571, -92.6102, 54.783
3.84532, 4, -37.0493, 0.663335, 20.5405, -160.571, -92.6102, 54.783
3.8476, 4, -37.0493, 0.663335, 20.5405, -160.571, -92.6102, 54.783
3.85613, 4, -37.0492, 0.663358, 20.5405, -160.571, -92.6101, 54.7829
3.8631, 4, -37.0492, 0.663363, 20.5405, -160.571, -92.6102, 54.7829
3.87208, 4, -37.0484, 0.663213, 20.5406, -160.571, -92.6102, 54.7829
3.87908, 4, -37.0475, 0.662932, 20.5406, -160.571, -92.6101, 54.7829
3.88825, 4, -37.0406, 0.659948, 20.5415, -160.571, -92.6102, 54.7829
3.89507, 4, -37.037, 0.658129, 20.5423, -160.571, -92.6102, 54.7829
3.90446, 4, -37.0243, 0.650441, 20.5471, -160.571, -92.6102, 54.7829
3.91102, 4, -37.0194, 0.647152, 20.5498, -160.57, -92.6102, 54.7829
3.9208, 4, -37.0015, 0.634051, 20.5624, -160.567, -92.6102, 54.7829
3.92702, 5, -36.9946, 0.628672, 20.568, -160.566, -92.6101, 54.7828
3.93658, 5, -36.9726, 0.610095, 20.5891, -160.562, -92.6099, 54.7827
3.94313, 5, -36.9648, 0.603209, 20.5974, -160.56, -92.6098, 54.7827
3.95268, 5, -36.9381, 0.579982, 20.6247, -160.554, -92.6096, 54.7825
3.9606, 5, -36.9278, 0.571211, 20.6345, -160.55, -92.6094, 54.7825
3.96867, 5, -36.9055, 0.552458, 20.6651, -160.546, -92.6092, 54.7824
3.97602, 5, -36.8813, 0.533039, 20.6753, -160.544, -92.609, 54.7823
3.98409, 5, -36.8561, 0.513333, 20.6959, -160.539, -92.6088, 54.7822
3.9921, 5, -36.8306, 0.493145, 20.7168, -160.535, -92.6084, 54.7821
4.00003, 5, -36.8049, 0.472822, 20.7376, -160.53, -92.608, 54.7819
4.00808, 5, -36.7791, 0.452696, 20.7585, -160.525, -92.6076, 54.7817
4.01606, 5, -36.7535, 0.432399, 20.7795, -160.521, -92.6071, 54.7816
4.02401, 5, -36.7279, 0.412098, 20.8004, -160.516, -92.6066, 54.7814
4.03202, 5, -36.7024, 0.392001, 20.8215, -160.511, -92.6061, 54.7812
4.04006, 5, -36.6768, 0.371843, 20.8425, -160.506, -92.6055, 54.781
4.04812, 5, -36.6513, 0.35177, 20.8635, -160.502, -92.6049, 54.7809
4.05602, 5, -36.6257, 0.331867, 20.8846, -160.497, -92.6043, 54.7808
4.06406, 5, -36.6001, 0.311875, 20.9056, -160.492, -92.6037, 54.7807
4.07202, 5, -36.5747, 0.291885, 20.9267, -160.488, -92.603, 54.7805
4.08001, 5, -36.5493, 0.271914, 20.9478, -160.483, -92.6024, 54.7804
4.08701, 5, -36.5239, 0.25174, 20.9689, -160.479, -92.6017, 54.7804
4.09502, 5, -36.4986, 0.231485, 20.99, -160.474, -92.6011, 54.7803
4.10403, 5, -36.473, 0.211339, 21.0109, -160.47, -92.6005, 54.7802
4.11202, 5, -36.4472, 0.191119, 21.0317, -160.465, -92.5998, 54.7801
4.12001, 5, -36.4213, 0.170853, 21.0527, -160.461, -92.5992, 54.7799
4.12812, 5, -36.3953, 0.150715, 21.0736, -160.457, -92.5985, 54.7798
4.13501, 5, -36.3693, 0.130515, 21.0947, -160.453, -92.5978, 54.7796
4.14407, 5, -36.3434, 0.110249, 21.1157, -160.448, -92.5972, 54.7793
4.15102, 5, -36.3176, 0.0902226, 21.1365, -160.444, -92.5965, 54.7791
4.16004, 5, -36.2917, 0.0702441, 21.1574, -160.44, -92.5959, 54.7787
4.16725, 5, -36.2659, 0.0501188, 21.1783, -160.436, -92.5952, 54.7784
4.17509, 5, -36.2399, 0.0301944, 21.1992, -160.432, -92.5946, 54.778
4.1831, 5, -36.2139, 0.0102452, 21.2202, -160.427, -92.594, 54.7776
4.19203, 5, -36.1882, -0.00987242, 21.241, -160.423, -92.5934, 54.7772
4.20008, 5, -36.1625, -0.0298242, 21.2619, -160.419, -92.5927, 54.7768
4.20805, 5, -36.1368, -0.0497419, 21.2828, -160.414, -92.5921, 54.7763
4.21561, 5, -36.111, -0.0698241, 21.3036, -160.41, -92.5915, 54.7758
4.22408, 5, -36.085, -0.0897964, 21.3245, -160.405, -92.5909, 54.7752
4.23202, 5, -36.0589, -0.109774, 21.3451, -160.401, -92.5902, 54.7747
4.24001, 5, -36.0329, -0.129882, 21.3659, -160.396, -92.5896, 54.7742
4.24813, 5, -36.0069, -0.149907, 21.3866, -160.391, -92.5889, 54.7737
4.25517, 5, -35.9808, -0.169804, 21.4072, -160.386, -92.5883, 54.7733
4.26401, 5, -35.9548, -0.189818, 21.4281, -160.382, -92.5877, 54.7729
4.2721, 5, -35.9286, -0.209735, 21.4488, -160.377, -92.5871, 54.7724
4.27948, 5, -35.9024, -0.229486, 21.4694, -160.372, -92.5865, 54.772
4.28813, 5, -35.8764, -0.249421, 21.4902, -160.367, -92.586, 54.7717
4.29552, 5, -35.8503, -0.269318, 21.5107, -160.362, -92.5854, 54.7713
4.30409, 5, -35.8242, -0.28897, 21.5313, -160.357, -92.5848, 54.771
4.31236, 5, -35.7982, -0.308806, 21.5521, -160.352, -92.5841, 54.7707
4.31977, 5, -35.7721, -0.328682, 21.5726, -160.347, -92.5835, 54.7703
4.32857, 5, -35.7459, -0.348402, 21.5932, -160.343, -92.5829, 54.7701
4.3356, 5, -35.733, -0.368253, 21.6138, -160.338, -92.5824, 54.7699
4.34401, 5, -35.694, -0.388166, 21.6343, -160.333, -92.5818, 54.7697
4.35259, 5, -35.6809, -0.398031, 21.6549, -160.329, -92.5812, 54.7695
4.36061, 5, -35.6417, -0.427666, 21.6753, -160.324, -92.5806, 54.7694
4.367, 5, -35.6285, -0.437611, 21.6855, -160.322, -92.5803, 54.7693
4.3769, 5, -35.589, -0.467173, 21.7161, -160.315, -92.5794, 54.7691
4.38425, 5, -35.5628, -0.486962, 21.7365, -160.311, -92.5788, 54.769
4.39103, 5, -35.5497, -0.496883, 21.7467, -160.308, -92.5785, 54.7689
4.40113, 5, -35.5104, -0.526376, 21.7772, -160.302, -92.5776, 54.7689
4.40705, 5, -35.4973, -0.536175, 21.7874, -160.299, -92.5774, 54.7688
4.41676, 5, -35.4579, -0.565702, 21.8178, -160.293, -92.5765, 54.7687
4.42538, 5, -35.4316, -0.58527, 21.838, -160.288, -92.576, 54.7687
4.43104, 5, -35.4185, -0.595022, 21.8481, -160.286, -92.5757, 54.7687
4.44065, 5, -35.3791, -0.624575, 21.8786, -160.279, -92.5747, 54.7687
4.44946, 5, -35.3528, -0.644154, 21.8987, -160.275, -92.5741, 54.7687
4.45506, 5, -35.3397, -0.653877, 21.9088, -160.272, -92.5738, 54.7687
4.4648, 5, -35.3133, -0.683315, 21.9392, -160.265, -92.573, 54.7687
4.47342, 5, -35.2868, -0.693154, 21.9492, -160.263, -92.5727, 54.7687
4.4791, 5, -35.2604, -0.712647, 21.9694, -160.258, -92.5721, 54.7686
4.4881, 5, -35.2339, -0.732191, 21.9896, -160.253, -92.5715, 54.7686
4.49603, 5, -35.2074, -0.751849, 22.0096, -160.248, -92.5709, 54.7686
4.50309, 5, -35.181, -0.77124, 22.0295, -160.243, -92.5704, 54.7686
4.51205, 5, -35.1545, -0.790569, 22.0496, -160.238, -92.5697, 54.7686
4.52, 5, -35.1279, -0.810086, 22.0696, -160.233, -92.5692, 54.7686
4.52699, 5, -35.1015, -0.829402, 22.0896, -160.228, -92.5686, 54.7686
4.535, 5, -35.0751, -0.848752, 22.1097, -160.223, -92.568, 54.7686
4.544, 5, -35.0486, -0.868295, 22.1296, -160.218, -92.5675, 54.7687
4.55099, 5, -35.0223, -0.887743, 22.1495, -160.213, -92.5668, 54.7687
4.55903, 5, -34.9958, -0.907077, 22.1693, -160.208, -92.5662, 54.7688
4.56804, 5, -34.9692, -0.926528, 22.1891, -160.203, -92.5656, 54.7689
4.57499, 5, -34.9429, -0.945953, 22.209, -160.198, -92.5651, 54.7689
4.58399, 5, -34.9165, -0.965244, 22.2288, -160.193, -92.5645, 54.7688
4.59201, 5, -34.8899, -0.9846, 22.2486, -160.188, -92.5639, 54.7689
4.60161, 5, -34.8634, -1.00403, 22.2685, -160.184, -92.5633, 54.7689
4.60807, 5, -34.8367, -1.02322, 22.2882, -160.179, -92.5627, 54.769
4.6167, 5, -34.8098, -1.04236, 22.308, -160.174, -92.5621, 54.7691
4.62604, 5, -34.7832, -1.07128, 22.3376, -160.167, -92.5612, 54.7691
4.632, 5, -34.7566, -1.08086, 22.3474, -160.165, -92.5609, 54.7691
4.6408, 5, -34.7299, -1.09998, 22.367, -160.161, -92.5603, 54.7692
4.64699, 5, -34.7034, -1.11931, 22.3867, -160.156, -92.5597, 54.7693
4.65599, 5, -34.6766, -1.13855, 22.4063, -160.152, -92.5591, 54.7694
4.66857, 5, -34.6363, -1.16727, 22.4358, -160.145, -92.5582, 54.7696
4.672, 5, -34.623, -1.17691, 22.4456, -160.142, -92.5579, 54.7696
4.68006, 5, -34.5963, -1.19608, 22.4651, -160.138, -92.5573, 54.7699
4.68805, 5, -34.5696, -1.21522, 22.4846, -160.133, -92.5567, 54.7701
4.69515, 5, -34.543, -1.23447, 22.5041, -160.128, -92.5561, 54.7704
4.70311, 5, -34.5162, -1.25366, 22.5235, -160.124, -92.5555, 54.7707
4.71109, 5, -34.4894, -1.27267, 22.543, -160.119, -92.5549, 54.771
4.72019, 5, -34.4627, -1.29169, 22.5624, -160.114, -92.5543, 54.7715
4.72703, 5, -34.4358, -1.31076, 22.5819, -160.109, -92.5536, 54.7721
4.73502, 5, -34.409, -1.32969, 22.6014, -160.104, -92.553, 54.7726
4.74314, 5, -34.3821, -1.34865, 22.6208, -160.099, -92.5524, 54.7734
4.75107, 5, -34.355, -1.36774, 22.6402, -160.093, -92.5518, 54.7741
4.75913, 5, -34.328, -1.38672, 22.6596, -160.088, -92.5511, 54.7749
4.76723, 5, -34.3012, -1.40559, 22.6789, -160.083, -92.5505, 54.7759
4.7753, 5, -34.2744, -1.42466, 22.6982, -160.077, -92.5498, 54.7769
4.78339, 5, -34.2475, -1.4437, 22.7175, -160.072, -92.5492, 54.778
4.7915, 5, -34.2206, -1.46255, 22.7367, -160.067, -92.5486, 54.7792
4.80011, 5, -34.1934, -1.48152, 22.756, -160.061, -92.548, 54.7804
4.80751, 5, -34.1664, -1.50056, 22.7753, -160.056, -92.5473, 54.7816
4.81629, 5, -34.1396, -1.51936, 22.7945, -160.051, -92.5467, 54.7828
4.8245, 5, -34.1127, -1.53815, 22.8138, -160.046, -92.5461, 54.784
4.83155, 5, -34.0859, -1.5571, 22.8329, -160.041, -92.5454, 54.7852
4.84009, 5, -34.059, -1.5758, 22.852, -160.036, -92.5448, 54.7866
4.84821, 5, -34.0319, -1.59455, 22.8712, -160.031, -92.5442, 54.7879
4.85499, 5, -34.0184, -1.60403, 22.8808, -160.029, -92.5439, 54.7886
4.86518, 5, -33.9778, -1.63224, 22.9094, -160.022, -92.5429, 54.7907
4.87103, 5, -33.9642, -1.64154, 22.9191, -160.019, -92.5426, 54.7913
4.88019, 5, -33.9236, -1.66969, 22.9478, -160.012, -92.5416, 54.7932
4.88699, 5, -33.9101, -1.6791, 22.9572, -160.01, -92.5413, 54.7939
4.89621, 5, -33.8692, -1.70706, 22.9859, -160.002, -92.5402, 54.7959
4.90299, 5, -33.8557, -1.71641, 22.9954, -160, -92.5399, 54.7966
4.91243, 5, -33.8151, -1.74467, 23.0237, -159.993, -92.5389, 54.7986
4.9204, 5, -33.7879, -1.76327, 23.0426, -159.988, -92.5382, 54.7999
4.92696, 5, -33.7743, -1.77255, 23.0521, -159.985, -92.5379, 54.8006
4.93649, 5, -33.7335, -1.80062, 23.0804, -159.978, -92.537, 54.8026
4.94461, 5, -33.7062, -1.81932, 23.0993, -159.972, -92.5363, 54.804
4.95261, 5, -33.6791, -1.83788, 23.1182, -159.967, -92.5357, 54.8053
4.96056, 5, -33.6656, -1.85662, 23.1371, -159.962, -92.535, 54.8067
4.96942, 5, -33.625, -1.87532, 23.1559, -159.957, -92.5343, 54.8081
4.97498, 5, -33.6114, -1.88457, 23.1652, -159.954, -92.534, 54.8087
4.98593, 5, -33.5705, -1.91233, 23.1932, -159.946, -92.533, 54.8108
4.99199, 5, -33.5568, -1.9217, 23.2026, -159.943, -92.5327, 54.8115
5.00005, 5, -33.5296, -1.94027, 23.2214, -159.937, -92.532, 54.8129
5.00799, 5, -33.5022, -1.95874, 23.24, -159.932, -92.5313, 54.8143
5.01596, 5, -33.4749, -1.97745, 23.2588, -159.927, -92.5307, 54.8157
5.02398, 5, -33.4477, -1.99618, 23.2775, -159.921, -92.53, 54.817
5.03202, 5, -33.4203, -2.01474, 23.2962, -159.916, -92.5293, 54.8184
5.03998, 5, -33.3929, -2.03349, 23.315, -159.91, -92.5285, 54.8197
5.04797, 5, -33.3657, -2.05237, 23.3338, -159.905, -92.5276, 54.8209
5.05603, 5, -33.3385, -2.07113, 23.3525, -159.9, -92.5266, 54.822
5.06413, 5, -33.3114, -2.09015, 23.3715, -159.895, -92.5255, 54.8229
5.07097, 5, -33.2844, -2.10938, 23.3906, -159.889, -92.5242, 54.8235
5.07998, 6, -33.2572, -2.12854, 23.4097, -159.883, -92.5226, 54.824
5.08798, 6, -33.2302, -2.1479, 23.4291, -159.878, -92.5209, 54.8243
5.09614, 6, -33.2035, -2.16758, 23.4486, -159.872, -92.5191, 54.8244
5.10399, 6, -33.1768, -2.18732, 23.4682, -159.866, -92.517, 54.8245
5.11303, 6, -33.1501, -2.20728, 23.488, -159.86, -92.5147, 54.8245
5.11997, 6, -33.1235, -2.22757, 23.5078, -159.854, -92.5122, 54.8245
5.12804, 6, -33.0969, -2.24794, 23.5278, -159.848, -92.5095, 54.8244
5.13498, 6, -33.0705, -2.26843, 23.548, -159.841, -92.5066, 54.8241
5.14398, 6, -33.0441, -2.28924, 23.5683, -159.834, -92.5036, 54.8238
5.15204, 6, -33.0179, -2.31013, 23.5888, -159.827, -92.5004, 54.8233
5.16005, 6, -32.9917, -2.33128, 23.6095, -159.82, -92.497, 54.8227
5.16706, 6, -32.9655, -2.35274, 23.6302, -159.812, -92.4935, 54.8219
5.17603, 6, -32.9392, -2.37423, 23.6512, -159.805, -92.4898, 54.8208
5.18411, 7, -32.9132, -2.39589, 23.6721, -159.797, -92.4859, 54.8199
5.19278, 7, -32.8873, -2.41782, 23.6932, -159.788, -92.4819, 54.8188
5.19997, 7, -32.8615, -2.43977, 23.7145, -159.78, -92.4777, 54.8171
5.20805, 7, -32.8358, -2.46203, 23.7359, -159.772, -92.4733, 54.8148
5.21509, 7, -32.8101, -2.48457, 23.7576, -159.763, -92.4688, 54.8118
5.2241, 7, -32.7844, -2.50717, 23.7793, -159.755, -92.4641, 54.8084
5.23358, 7, -32.7588, -2.53001, 23.8011, -159.746, -92.4593, 54.8046
5.23997, 7, -32.7334, -2.5531, 23.8231, -159.738, -92.4542, 54.8004
5.24804, 7, -32.7081, -2.57634, 23.8452, -159.729, -92.4489, 54.7957
5.25505, 7, -32.6829, -2.59986, 23.8674, -159.721, -92.4435, 54.7908
5.26327, 7, -32.6578, -2.62348, 23.8899, -159.712, -92.4378, 54.7856
5.27201, 7, -32.6326, -2.64733, 23.9124, -159.703, -92.432, 54.7801
5.27999, 7, -32.6076, -2.67131, 23.9351, -159.694, -92.426, 54.7743
5.29116, 7, -32.5826, -2.69547, 23.958, -159.685, -92.4196, 54.7652
5.2962, 8, -32.5577, -2.72004, 23.9811, -159.675, -92.413, 54.7621
5.30343, 8, -32.5329, -2.74462, 24.0042, -159.665, -92.4061, 54.7556
5.31158, 8, -32.5082, -2.76936, 24.0273, -159.655, -92.3989, 54.7487
5.32045, 8, -32.4835, -2.79442, 24.0507, -159.644, -92.3914, 54.7418
5.32756, 8, -32.4588, -2.81948, 24.0743, -159.634, -92.3837, 54.7345
5.33956, 8, -32.4343, -2.8449, 24.1101, -159.618, -92.3714, 54.7232
5.34441, 8, -32.4099, -2.87046, 24.1219, -159.613, -92.3672, 54.7192
5.35097, 8, -32.3977, -2.88326, 24.1338, -159.608, -92.363, 54.7152
5.36, 8, -32.3614, -2.92209, 24.1699, -159.592, -92.3502, 54.7031
5.36887, 8, -32.3372, -2.94823, 24.1942, -159.581, -92.3416, 54.6945
5.37601, 8, -32.313, -2.97464, 24.2187, -159.571, -92.333, 54.6857
5.38309, 8, -32.3009, -2.98782, 24.231, -159.565, -92.3286, 54.6811
5.39094, 8, -32.2771, -3.01434, 24.2556, -159.554, -92.3198, 54.6718
5.40019, 8, -32.2413, -3.05455, 24.2928, -159.537, -92.3065, 54.6574
5.40697, 9, -32.2294, -3.06801, 24.3053, -159.532, -92.302, 54.6525
5.41633, 9, -32.1939, -3.10892, 24.343, -159.514, -92.2882, 54.6376
5.42301, 9, -32.1821, -3.1226, 24.3556, -159.508, -92.2835, 54.6326
5.43279, 9, -32.1465, -3.16398, 24.3936, -159.489, -92.269, 54.6175
5.44054, 9, -32.1232, -3.19179, 24.4192, -159.477, -92.259, 54.6072
5.44853, 9, -32.0998, -3.21989, 24.4449, -159.465, -92.2485, 54.5969
5.45662, 9, -32.0764, -3.24808, 24.4707, -159.453, -92.2376, 54.5866
5.46458, 9, -32.0531, -3.27655, 24.4966, -159.44, -92.2265, 54.576
5.47253, 9, -32.0416, -3.29087, 24.5096, -159.434, -92.2151, 54.5653
5.47998, 9, -32.0184, -3.31956, 24.5358, -159.422, -92.2094, 54.5598
5.48801, 9, -31.9951, -3.34855, 24.5621, -159.409, -92.1979, 54.5486
5.49497, 9, -31.9721, -3.37764, 24.5886, -159.396, -92.1865, 54.5373
5.50413, 9, -31.9494, -3.40696, 24.6151, -159.383, -92.1749, 54.5256
5.51423, 9, -31.9266, -3.43649, 24.6555, -159.363, -92.1574, 54.5074
5.51896, 10, -31.9039, -3.46629, 24.6689, -159.356, -92.1515, 54.5012
5.52797, 10, -31.8814, -3.49618, 24.6958, -159.342, -92.1395, 54.4884
5.53604, 10, -31.8587, -3.52631, 24.723, -159.328, -92.1273, 54.4752
5.54296, 10, -31.8361, -3.55662, 24.7504, -159.315, -92.1146, 54.4618
5.55415, 10, -31.8026, -3.60257, 24.7917, -159.294, -92.095, 54.4414
5.55902, 10, -31.7915, -3.61792, 24.8054, -159.288, -92.0881, 54.4347
5.56699, 10, -31.7692, -3.64882, 24.8332, -159.274, -92.0744, 54.4212
5.57596, 10, -31.7471, -3.67991, 24.8611, -159.26, -92.0605, 54.4076
5.5863, 10, -31.7142, -3.72702, 24.9032, -159.238, -92.0399, 54.3871
5.59099, 10, -31.7031, -3.74273, 24.9173, -159.231, -92.033, 54.3802
5.59998, 10, -31.6811, -3.77435, 24.9456, -159.216, -92.0192, 54.3662
5.61049, 10, -31.6482, -3.82226, 24.9886, -159.193, -91.9984, 54.3446
5.61598, 10, -31.6373, -3.83838, 25.0029, -159.186, -91.9914, 54.3373
5.62493, 11, -31.6154, -3.87061, 25.0315, -159.171, -91.9771, 54.3224
5.63195, 11, -31.5937, -3.9031, 25.0604, -159.156, -91.9624, 54.307
5.63996, 11, -31.5721, -3.93576, 25.0895, -159.141, -91.9472, 54.2912
5.64802, 11, -31.5505, -3.96876, 25.1187, -159.126, -91.9316, 54.275
5.65603, 11, -31.5289, -4.00184, 25.1479, -159.11, -91.9159, 54.259
5.66395, 11, -31.5074, -4.03516, 25.1773, -159.094, -91.9003, 54.2428
5.67199, 11, -31.4862, -4.06869, 25.207, -159.078, -91.8847, 54.2266
5.68002, 11, -31.4648, -4.10249, 25.2367, -159.062, -91.8689, 54.2103
5.68795, 11, -31.4436, -4.13639, 25.2665, -159.045, -91.8532, 54.194
5.69597, 11, -31.4226, -4.17051, 25.2966, -159.029, -91.8371, 54.1773
5.70402, 11, -31.4016, -4.20493, 25.3269, -159.013, -91.8207, 54.1604
5.71196, 11, -31.3805, -4.23951, 25.3572, -158.997, -91.8037, 54.1431
5.71995, 11, -31.3595, -4.27423, 25.3876, -158.98, -91.7863, 54.1256
5.72824, 11, -31.3388, -4.30912, 25.4183, -158.964, -91.7688, 54.1073
5.73678, 12, -31.3181, -4.34433, 25.4491, -158.946, -91.7514, 54.0889
5.74395, 12, -31.2974, -4.37973, 25.48, -158.929, -91.7341, 54.0702
5.75201, 12, -31.277, -4.41526, 25.5109, -158.912, -91.7168, 54.0517
5.75996, 12, -31.2567, -4.45106, 25.5422, -158.894, -91.6993, 54.0332
5.76717, 12, -31.2363, -4.48703, 25.5736, -158.877, -91.6815, 54.0146
5.77608, 12, -31.2159, -4.52311, 25.605, -158.86, -91.6632, 53.9959
5.78388, 12, -31.1957, -4.55946, 25.6367, -158.842, -91.6445, 53.9768
5.79195, 12, -31.1755, -4.59605, 25.6685, -158.824, -91.6255, 53.9575
5.80081, 12, -31.1553, -4.63273, 25.7004, -158.806, -91.6068, 53.9376
5.80818, 12, -31.1353, -4.66961, 25.7324, -158.788, -91.588, 53.9172
5.81554, 12, -31.1154, -4.70677, 25.7646, -158.769, -91.5691, 53.8968
5.82509, 12, -31.0956, -4.74407, 25.7969, -158.751, -91.55, 53.8762
5.8329, 12, -31.0756, -4.78164, 25.8293, -158.732, -91.5305, 53.8557
5.84011, 12, -31.0557, -4.81947, 25.8619, -158.714, -91.5104, 53.8352
5.84758, 13, -31.0458, -4.83845, 25.8783, -158.696, -91.4899, 53.8145
5.85597, 13, -31.0163, -4.8956, 25.9275, -158.677, -91.4694, 53.7935
5.863, 13, -31.0065, -4.91483, 25.944, -158.668, -91.4593, 53.7828
5.87457, 13, -30.9772, -4.97281, 25.9938, -158.639, -91.4288, 53.7502
5.8789, 13, -30.9675, -4.99219, 26.0104, -158.629, -91.4187, 53.7391
5.88807, 13, -30.9387, -5.0507, 26.0605, -158.6, -91.3877, 53.7053
5.89499, 13, -30.929, -5.07032, 26.0773, -158.59, -91.3771, 53.6942
5.90434, 13, -30.9001, -5.12933, 26.128, -158.561, -91.3447, 53.6608
5.91096, 13, -30.8906, -5.1491, 26.1449, -158.552, -91.3339, 53.6495
5.92041, 13, -30.862, -5.20882, 26.1959, -158.522, -91.3015, 53.6154
5.92695, 13, -30.8525, -5.22877, 26.213, -158.512, -91.2907, 53.604
5.93499, 13, -30.8335, -5.26876, 26.2473, -158.491, -91.269, 53.5805
5.94452, 13, -30.8053, -5.32936, 26.2991, -158.461, -91.2359, 53.5446
5.95355, 14, -30.7868, -5.36988, 26.3338, -158.441, -91.213, 53.5206
5.95918, 14, -30.7775, -5.3902, 26.3511, -158.431, -91.2015, 53.5086
5.9686, 14, -30.7495, -5.45163, 26.4033, -158.4, -91.1672, 53.4731
5.97494, 14, -30.7402, -5.4722, 26.4209, -158.39, -91.1558, 53.4613
5.98495, 14, -30.7124, -5.53426, 26.4736, -158.358, -91.1217, 53.4253
5.99094, 14, -30.7032, -5.55509, 26.4912, -158.348, -91.1102, 53.413
6.00158, 14, -30.6756, -5.61787, 26.5444, -158.316, -91.0746, 53.3754
6.00805, 14, -30.6665, -5.63886, 26.5622, -158.305, -91.0625, 53.3625
6.01594, 14, -30.6484, -5.68106, 26.5979, -158.284, -91.0383, 53.3367
6.02399, 14, -30.6304, -5.72353, 26.6338, -158.263, -91.0142, 53.311
6.03095, 14, -30.6124, -5.76611, 26.6698, -158.242, -90.9902, 53.2855
6.03994, 14, -30.5943, -5.80892, 26.7058, -158.219, -90.966, 53.2599
6.04809, 14, -30.5764, -5.85194, 26.7421, -158.197, -90.9412, 53.234
6.05498, 14, -30.5585, -5.89512, 26.7786, -158.175, -90.9159, 53.2077
6.06405, 15, -30.5408, -5.93844, 26.8151, -158.154, -90.8906, 53.1808
6.07194, 15, -30.5231, -5.98193, 26.8518, -158.132, -90.8655, 53.1534
6.08, 15, -30.5056, -6.02557, 26.8887, -158.11, -90.8405, 53.1265
6.08795, 15, -30.4882, -6.06945, 26.9258, -158.087, -90.8153, 53.0996
6.0965, 15, -30.4708, -6.11357, 26.9629, -158.064, -90.7895, 53.0725
6.10295, 15, -30.4534, -6.15785, 27.0003, -158.041, -90.7631, 53.0451
6.11194, 15, -30.4359, -6.20234, 27.0376, -158.018, -90.737, 53.0173
6.12095, 15, -30.4187, -6.2471, 27.0751, -157.995, -90.7108, 52.9888
6.12794, 15, -30.4016, -6.29212, 27.1129, -157.972, -90.6846, 52.9602
6.13694, 15, -30.3845, -6.33731, 27.1506, -157.949, -90.6579, 52.9319
6.14406, 15, -30.3675, -6.38275, 27.1885, -157.925, -90.6305, 52.9034
6.15193, 15, -30.3507, -6.42853, 27.2267, -157.901, -90.603, 52.8747
6.15902, 15, -30.3339, -6.47446, 27.265, -157.878, -90.5758, 52.8456
6.1691, 15, -30.3173, -6.52059, 27.3034, -157.854, -90.5486, 52.8158
6.17612, 16, -30.3005, -6.56694, 27.342, -157.831, -90.5213, 52.7859
6.18311, 16, -30.2837, -6.61343, 27.3807, -157.807, -90.4931, 52.7562
6.19276, 16, -30.267, -6.66018, 27.4197, -157.782, -90.4647, 52.7267
6.201, 16, -30.2505, -6.70703, 27.4587, -157.757, -90.4366, 52.697
6.20794, 16, -30.2341, -6.75396, 27.4978, -157.733, -90.4085, 52.6669
6.22032, 16, -30.2095, -6.82489, 27.557, -157.697, -90.3657, 52.6207
6.22311, 16, -30.2013, -6.84857, 27.5768, -157.685, -90.351, 52.6052
6.23205, 16, -30.1852, -6.89607, 27.6164, -157.66, -90.3215, 52.5743
6.23994, 16, -30.169, -6.94388, 27.6563, -157.634, -90.2923, 52.5437
6.24794, 16, -30.1529, -6.99188, 27.6962, -157.609, -90.2631, 52.5129
6.25601, 16, -30.1368, -7.04016, 27.7362, -157.584, -90.2338, 52.4817
6.26394, 16, -30.1207, -7.08869, 27.7765, -157.559, -90.2038, 52.4498
6.2721, 16, -30.1047, -7.13741, 27.8166, -157.534, -90.1735, 52.4176
6.27927, 16, -30.0888, -7.18644, 27.8571, -157.509, -90.1435, 52.3859
6.28796, 17, -30.0731, -7.23569, 27.8977, -157.482, -90.1135, 52.3542
6.29601, 17, -30.0574, -7.28511, 27.9384, -157.457, -90.0832, 52.3223
6.30399, 17, -30.0418, -7.33473, 27.9793, -157.431, -90.0521, 52.29
6.31202, 17, -30.0263, -7.38458, 28.0203, -157.405, -90.0208, 52.2569
6.32004, 17, -30.0109, -7.43456, 28.0614, -157.379, -89.99, 52.2235
6.32754, 17, -29.9956, -7.48458, 28.1029, -157.353, -89.9592, 52.1905
6.3361, 17, -29.9802, -7.53486, 28.1443, -157.326, -89.9279, 52.1575
6.34368, 17, -29.9725, -7.58526, 28.1859, -157.299, -89.8959, 52.1242
6.35193, 17, -29.9496, -7.63581, 28.2278, -157.273, -89.8642, 52.0904
6.36007, 17, -29.9345, -7.68653, 28.2698, -157.247, -89.8326, 52.0562
6.3688, 17, -29.9194, -7.73751, 28.3119, -157.219, -89.8008, 52.0222
6.37599, 17, -29.9044, -7.7888, 28.3541, -157.192, -89.7683, 51.9882
6.38408, 17, -29.8894, -7.84025, 28.3964, -157.165, -89.7353, 51.9542
6.39107, 18, -29.882, -7.86607, 28.4176, -157.151, -89.7191, 51.937
6.4007, 18, -29.8599, -7.94404, 28.4814, -157.111, -89.6706, 51.8844
6.40827, 18, -29.8453, -7.99627, 28.5241, -157.083, -89.6377, 51.8491
6.41494, 18, -29.8379, -8.02247, 28.5455, -157.069, -89.621, 51.8316
6.42297, 18, -29.8232, -8.07497, 28.5885, -157.04, -89.5875, 51.7966
6.43243, 18, -29.8013, -8.15414, 28.6532, -156.999, -89.5378, 51.7436
6.44224, 18, -29.7868, -8.20701, 28.6965, -156.971, -89.5044, 51.7075
6.44692, 18, -29.7796, -8.23347, 28.7182, -156.957, -89.4873, 51.6894
6.45651, 18, -29.7581, -8.31326, 28.7838, -156.914, -89.4355, 51.6354
6.46536, 18, -29.7437, -8.3665, 28.8275, -156.886, -89.4016, 51.5996
6.47263, 18, -29.7295, -8.42, 28.8715, -156.857, -89.3677, 51.5636
6.48044, 18, -29.7225, -8.44681, 28.8936, -156.843, -89.3504, 51.5453
6.48792, 18, -29.7084, -8.50061, 28.9377, -156.815, -89.3153, 51.5084
6.49801, 18, -29.6873, -8.58181, 29.0043, -156.771, -89.2632, 51.4533
6.50293, 19, -29.6803, -8.60898, 29.0265, -156.756, -89.2458, 51.4351
6.51196, 19, -29.6662, -8.66362, 29.071, -156.727, -89.2109, 51.3985
6.52112, 19, -29.6453, -8.746, 29.138, -156.684, -89.1572, 51.3428
6.52692, 19, -29.6384, -8.77357, 29.1603, -156.67, -89.1395, 51.324
6.53592, 19, -29.6246, -8.82889, 29.2052, -156.64, -89.1042, 51.2866
6.546, 19, -29.6041, -8.91222, 29.2729, -156.595, -89.0508, 51.2309
6.55192, 19, -29.5973, -8.94004, 29.2955, -156.58, -89.0326, 51.2122
6.55994, 19, -29.5837, -8.99574, 29.3409, -156.551, -88.9966, 51.1741
6.56802, 19, -29.5703, -9.05166, 29.3863, -156.521, -88.9607, 51.1354
6.57592, 19, -29.557, -9.10763, 29.4321, -156.49, -88.9247, 51.0968
6.58392, 19, -29.5437, -9.16371, 29.4779, -156.46, -88.8878, 51.0585
6.5911, 19, -29.5305, -9.22005, 29.5238, -156.43, -88.8509, 51.0198
6.60077, 19, -29.5173, -9.27662, 29.57, -156.4, -88.8145, 50.9805
6.60791, 19, -29.504, -9.33334, 29.6163, -156.369, -88.778, 50.9408
6.61599, 20, -29.4909, -9.39038, 29.6627, -156.338, -88.7405, 50.9016
6.62498, 20, -29.4779, -9.44772, 29.7091, -156.307, -88.7032, 50.8623
6.63193, 20, -29.4649, -9.50531, 29.7557, -156.276, -88.6661, 50.8225
6.63994, 20, -29.4521, -9.56308, 29.8023, -156.245, -88.6287, 50.7821
6.64798, 20, -29.4393, -9.62115, 29.8491, -156.214, -88.5905, 50.7416
6.65592, 20, -29.4265, -9.67935, 29.8961, -156.182, -88.5525, 50.7016
6.66393, 20, -29.4139, -9.73767, 29.9433, -156.15, -88.5148, 50.6614
6.67199, 20, -29.4014, -9.79616, 29.9906, -156.119, -88.4768, 50.6208
6.67996, 20, -29.3889, -9.85466, 30.038, -156.088, -88.4379, 50.5796
6.68792, 20, -29.3764, -9.91335, 30.0857, -156.055, -88.3995, 50.5388
6.69599, 20, -29.364, -9.97214, 30.1335, -156.023, -88.3611, 50.4983
6.70392, 20, -29.3515, -10.0312, 30.1813, -155.991, -88.3221, 50.4575
6.71208, 20, -29.3392, -10.0903, 30.2294, -155.96, -88.2826, 50.4161
6.72089, 21, -29.327, -10.1498, 30.2776, -155.927, -88.2435, 50.3745
6.72792, 21, -29.3147, -10.2095, 30.3259, -155.894, -88.2047, 50.3332
6.736, 21, -29.3025, -10.2695, 30.3741, -155.861, -88.1651, 50.2918
6.74402, 21, -29.2904, -10.3297, 30.4227, -155.829, -88.1253, 50.2501
6.75192, 21, -29.2783, -10.3901, 30.4712, -155.797, -88.086, 50.2079
6.76155, 21, -29.2663, -10.4506, 30.5198, -155.763, -88.0465, 50.1663
6.76778, 21, -29.2545, -10.5112, 30.5687, -155.73, -88.0059, 50.1248
6.77598, 21, -29.2427, -10.5721, 30.6178, -155.697, -87.9657, 50.0828
6.78392, 21, -29.2309, -10.6329, 30.667, -155.664, -87.9259, 50.0403
6.79214, 21, -29.2192, -10.6939, 30.7162, -155.63, -87.8855, 49.9977
6.79936, 21, -29.2074, -10.7551, 30.7658, -155.596, -87.8444, 49.9556
6.80817, 21, -29.1955, -10.8163, 30.8154, -155.563, -87.8039, 49.9133
6.81627, 21, -29.1838, -10.8778, 30.8651, -155.53, -87.7634, 49.8704
6.82401, 21, -29.1722, -10.9396, 30.915, -155.495, -87.7219, 49.8272
6.83237, 22, -29.1606, -11.0016, 30.965, -155.461, -87.6806, 49.7845
6.8395, 22, -29.1492, -11.0638, 31.0151, -155.427, -87.6398, 49.7418
6.84805, 22, -29.1378, -11.1262, 31.0652, -155.393, -87.5984, 49.6986
6.85987, 22, -29.1264, -11.1888, 31.1406, -155.34, -87.5354, 49.6328
6.86392, 22, -29.1151, -11.2516, 31.1658, -155.323, -87.5146, 49.6112
6.87213, 22, -29.1041, -11.3145, 31.2163, -155.288, -87.473, 49.5679
6.8789, 22, -29.0986, -11.346, 31.2416, -155.271, -87.4519, 49.5461
6.88691, 22, -29.0876, -11.409, 31.2924, -155.237, -87.4092, 49.5022
6.89605, 22, -29.0711, -11.504, 31.3688, -155.184, -87.3464, 49.4357
6.90296, 22, -29.0657, -11.5357, 31.3943, -155.166, -87.3254, 49.4138
6.91094, 22, -29.0548, -11.5991, 31.4455, -155.131, -87.2827, 49.3699
6.9203, 22, -29.0384, -11.6948, 31.5225, -155.078, -87.2191, 49.3031
6.92696, 22, -29.033, -11.7268, 31.5482, -155.06, -87.198, 49.2806
6.93685, 22, -29.0169, -11.8231, 31.6256, -155.006, -87.1332, 49.2141
6.94447, 23, -29.0062, -11.8876, 31.6772, -154.971, -87.0901, 49.1698
6.95245, 23, -28.9955, -11.9522, 31.7289, -154.935, -87.0476, 49.1249
6.96055, 23, -28.9849, -12.0169, 31.7808, -154.899, -87.0042, 49.0797
6.96855, 23, -28.9743, -12.0818, 31.8327, -154.863, -86.9604, 49.0353
6.9766, 23, -28.969, -12.1468, 31.8848, -154.827, -86.9174, 48.9909
6.98442, 23, -28.9584, -12.1793, 31.9109, -154.809, -86.8958, 48.9685
6.99196, 23, -28.948, -12.2445, 31.9633, -154.772, -86.8515, 48.9231
6.99991, 23, -28.9378, -12.3098, 32.0157, -154.735, -86.8073, 48.8778
7.00794, 23, -28.9276, -12.3753, 32.0683, -154.699, -86.7638, 48.8331
7.016, 23, -28.9174, -12.441, 32.121, -154.663, -86.7194, 48.788
7.0239, 23, -28.9073, -12.5068, 32.1738, -154.625, -86.6747, 48.7422
7.03201, 23, -28.8972, -12.5728, 32.2268, -154.588, -86.6306, 48.6966
7.04269, 23, -28.882, -12.6722, 32.3065, -154.533, -86.5635, 48.6288
7.04786, 24, -28.877, -12.7054, 32.333, -154.514, -86.5409, 48.606
7.05572, 24, -28.8669, -12.7719, 32.3862, -154.476, -86.4965, 48.56
7.06291, 24, -28.857, -12.8385, 32.4396, -154.438, -86.4521, 48.5139
7.0719, 24, -28.847, -12.9052, 32.493, -154.401, -86.4066, 48.4683
7.0821, 24, -28.8322, -13.0056, 32.5733, -154.344, -86.3393, 48.3993
7.0869, 24, -28.8273, -13.0391, 32.6002, -154.325, -86.3169, 48.376
7.09591, 24, -28.8175, -13.1064, 32.6541, -154.287, -86.2712, 48.3296
7.10298, 24, -28.8077, -13.1738, 32.708, -154.25, -86.2256, 48.2836
7.11197, 24, -28.7978, -13.2414, 32.7621, -154.211, -86.1805, 48.2376
7.12099, 24, -28.7882, -13.3091, 32.8162, -154.173, -86.1348, 48.1909
7.12697, 24, -28.7786, -13.3769, 32.8705, -154.134, -86.0887, 48.1443
7.13603, 24, -28.769, -13.4449, 32.9249, -154.096, -86.0434, 48.0983
7.14391, 24, -28.7595, -13.513, 32.9794, -154.057, -85.9975, 48.0521
7.15197, 24, -28.7502, -13.5812, 33.0339, -154.018, -85.9509, 48.0053
7.16007, 25, -28.7408, -13.6496, 33.0886, -153.98, -85.9053, 47.9589
7.16735, 25, -28.7313, -13.718, 33.1433, -153.941, -85.8594, 47.9131
7.17499, 25, -28.7218, -13.7866, 33.1981, -153.902, -85.8125, 47.867
7.18393, 25, -28.7124, -13.8553, 33.2531, -153.862, -85.7664, 47.8202
7.19196, 25, -28.703, -13.9243, 33.3082, -153.824, -85.7202, 47.7735
7.1999, 25, -28.6937, -13.9933, 33.3634, -153.784, -85.673, 47.7274
7.20797, 25, -28.6844, -14.0626, 33.4187, -153.744, -85.6265, 47.6812
7.21591, 25, -28.6752, -14.132, 33.4741, -153.705, -85.5802, 47.6344
7.22391, 25, -28.666, -14.2015, 33.5295, -153.665, -85.533, 47.5878
7.23191, 25, -28.6569, -14.2711, 33.5851, -153.625, -85.4862, 47.5417
7.2399, 25, -28.6477, -14.3408, 33.6409, -153.585, -85.4398, 47.4953
7.24796, 25, -28.6387, -14.4106, 33.6966, -153.545, -85.3922, 47.4484
7.25606, 25, -28.6298, -14.4805, 33.7524, -153.505, -85.345, 47.4015
7.26388, 25, -28.6209, -14.5505, 33.8083, -153.464, -85.2984, 47.3551
7.27197, 26, -28.612, -14.6207, 33.8642, -153.424, -85.2508, 47.3087
7.2799, 26, -28.6032, -14.691, 33.9203, -153.384, -85.2033, 47.2617
7.2879, 26, -28.5945, -14.7615, 33.9765, -153.343, -85.1563, 47.2149
7.29599, 26, -28.5858, -14.8321, 34.0328, -153.302, -85.1084, 47.1686
7.30411, 26, -28.5769, -14.9027, 34.0893, -153.262, -85.0604, 47.1223
7.31134, 26, -28.568, -14.9735, 34.1457, -153.221, -85.0133, 47.0753
7.3198, 26, -28.5592, -15.0443, 34.2023, -153.18, -84.9652, 47.0286
7.3288, 26, -28.5504, -15.1152, 34.259, -153.139, -84.917, 46.9826
7.336, 26, -28.5416, -15.1863, 34.3158, -153.098, -84.8695, 46.9364
7.344, 26, -28.5328, -15.2573, 34.3726, -153.057, -84.8212, 46.8898
7.35352, 26, -28.5241, -15.3285, 34.4296, -153.015, -84.7728, 46.8435
7.36172, 26, -28.5155, -15.3999, 34.4865, -152.974, -84.7252, 46.7979
7.36815, 26, -28.507, -15.4713, 34.5435, -152.932, -84.6769, 46.752
7.3749, 26, -28.5027, -15.5071, 34.572, -152.911, -84.6525, 46.7288
7.38295, 27, -28.4941, -15.5788, 34.6292, -152.869, -84.6045, 46.682
7.3921, 27, -28.4812, -15.6866, 34.715, -152.807, -84.532, 46.6129
7.3989, 27, -28.4771, -15.7226, 34.7437, -152.786, -84.5074, 46.5899
7.40816, 27, -28.4645, -15.8306, 34.8298, -152.722, -84.435, 46.52
7.41499, 27, -28.4603, -15.8667, 34.8586, -152.701, -84.4108, 46.4966
7.42496, 27, -28.4478, -15.975, 34.9451, -152.638, -84.3373, 46.4276
7.43231, 27, -28.4395, -16.0472, 35.0027, -152.595, -84.2891, 46.3815
7.43889, 27, -28.4354, -16.0834, 35.0315, -152.574, -84.2647, 46.3582
7.44924, 27, -28.4228, -16.1921, 35.1182, -152.51, -84.1909, 46.2883
7.45495, 27, -28.4186, -16.2284, 35.147, -152.489, -84.1666, 46.2654
7.46544, 27, -28.4059, -16.3374, 35.2337, -152.424, -84.0934, 46.1966
7.47091, 27, -28.4017, -16.3737, 35.2627, -152.403, -84.0686, 46.1735
7.48068, 27, -28.3934, -16.4831, 35.3496, -152.339, -83.9954, 46.1044
7.48686, 28, -28.385, -16.5196, 35.3787, -152.317, -83.9709, 46.0818
7.49701, 28, -28.3724, -16.6292, 35.4659, -152.253, -83.8966, 46.0139
7.50296, 28, -28.3683, -16.6657, 35.495, -152.232, -83.8722, 45.991
7.51195, 28, -28.3601, -16.7388, 35.5533, -152.188, -83.8236, 45.9451
7.51992, 28, -28.3518, -16.8121, 35.6116, -152.144, -83.7739, 45.9
7.52789, 28, -28.3436, -16.8853, 35.67, -152.102, -83.725, 45.8552
7.53589, 28, -28.3353, -16.9586, 35.7283, -152.058, -83.676, 45.8102
7.54289, 28, -28.327, -17.0321, 35.7868, -152.014, -83.6261, 45.7649
7.5519, 28, -28.3188, -17.1055, 35.8452, -151.97, -83.577, 45.7201
7.55989, 28, -28.3107, -17.1791, 35.9037, -151.927, -83.5279, 45.6758
7.56794, 28, -28.3026, -17.2527, 35.9623, -151.882, -83.4779, 45.6314
7.57605, 28, -28.2944, -17.3264, 36.0209, -151.838, -83.4288, 45.5866
7.58375, 28, -28.2864, -17.4001, 36.0797, -151.794, -83.3793, 45.5423
7.59189, 28, -28.2784, -17.474, 36.1385, -151.75, -83.3291, 45.4985
7.5999, 29, -28.2702, -17.5479, 36.1973, -151.705, -83.2799, 45.4548
7.6097, 29, -28.262, -17.6219, 36.2563, -151.661, -83.2302, 45.3885
7.61589, 29, -28.2538, -17.696, 36.3152, -151.617, -83.1799, 45.3667
7.62596, 29, -28.2415, -17.8071, 36.4036, -151.55, -83.1057, 45.302
7.63198, 29, -28.2374, -17.8442, 36.4331, -151.528, -83.0805, 45.2805
7.63993, 29, -28.2292, -17.9183, 36.4921, -151.483, -83.0302, 45.2369
7.64788, 29, -28.221, -17.9926, 36.5511, -151.438, -82.9808, 45.1932
7.65489, 29, -28.2129, -18.0668, 36.6102, -151.393, -82.9308, 45.1504
7.66388, 29, -28.2048, -18.1412, 36.6694, -151.349, -82.8806, 45.108
7.6719, 29, -28.1967, -18.2155, 36.7286, -151.303, -82.8311, 45.0653
7.68001, 29, -28.1886, -18.2899, 36.788, -151.258, -82.7809, 45.0224
7.68793, 29, -28.1805, -18.3644, 36.8473, -151.214, -82.7308, 44.9801
7.69589, 29, -28.1724, -18.4389, 36.9066, -151.168, -82.6814, 44.9384
7.70404, 29, -28.1644, -18.5136, 36.966, -151.122, -82.6311, 44.8966
7.71289, 30, -28.1564, -18.5881, 37.0252, -151.077, -82.581, 44.8545
7.71998, 30, -28.1483, -18.6629, 37.0846, -151.031, -82.5315, 44.8126
7.72789, 30, -28.1403, -18.7376, 37.1439, -150.986, -82.4809, 44.7716
7.73588, 30, -28.1323, -18.8122, 37.2033, -150.94, -82.4307, 44.7308
7.74394, 30, -28.1243, -18.8871, 37.2627, -150.894, -82.3811, 44.6899
7.75201, 30, -28.1162, -18.9619, 37.3222, -150.848, -82.3305, 44.6488
7.75988, 30, -28.1081, -19.0368, 37.3817, -150.803, -82.2803, 44.6085
7.76789, 30, -28.0998, -19.1117, 37.4413, -150.757, -82.2305, 44.5687
7.77595, 30, -28.0916, -19.1867, 37.5008, -150.71, -82.1797, 44.5291
7.78389, 30, -28.0834, -19.2617, 37.5605, -150.665, -82.1296, 44.4893
7.79204, 30, -28.0753, -19.3366, 37.6201, -150.619, -82.0798, 44.4495
7.80002, 30, -28.067, -19.4116, 37.6796, -150.572, -82.0293, 44.4106
7.80864, 30, -28.0588, -19.4865, 37.7392, -150.526, -81.9795, 44.3719
7.8162, 31, -28.0506, -19.5614, 37.7988, -150.48, -81.9296, 44.3332
7.82345, 31, -28.0424, -19.6364, 37.8583, -150.433, -81.8789, 44.2944
7.83202, 31, -28.0342, -19.7112, 37.918, -150.387, -81.8291, 44.256
7.84043, 31, -28.0259, -19.7863, 37.9776, -150.341, -81.7792, 44.2184
7.84808, 31, -28.0176, -19.8613, 38.0373, -150.294, -81.7286, 44.1809
7.85602, 31, -28.0093, -19.9364, 38.097, -150.247, -81.6789, 44.1436
7.86428, 31, -28.0011, -20.0115, 38.1567, -150.201, -81.6288, 44.1058
7.87093, 31, -27.997, -20.049, 38.1866, -150.177, -81.6034, 44.087
7.87993, 31, -27.9845, -20.1617, 38.2762, -150.106, -81.5284, 44.0319
7.88873, 31, -27.9762, -20.2368, 38.3358, -150.06, -81.4782, 43.9956
7.89612, 31, -27.9679, -20.3118, 38.3954, -150.012, -81.4277, 43.9592
7.90293, 31, -27.9638, -20.3494, 38.4253, -149.989, -81.4028, 43.941
7.91216, 31, -27.9512, -20.462, 38.5148, -149.919, -81.3275, 43.8868
7.91891, 31, -27.9469, -20.4996, 38.5446, -149.895, -81.3022, 43.8692
7.9291, 32, -27.9341, -20.6123, 38.6341, -149.824, -81.2275, 43.8167
7.93629, 32, -27.9256, -20.6874, 38.6936, -149.778, -81.1773, 43.7822
7.94294, 32, -27.9213, -20.725, 38.7234, -149.754, -81.1521, 43.7648
7.95254, 32, -27.9084, -20.8378, 38.8129, -149.682, -81.0777, 43.7129
7.96041, 32, -27.8997, -20.913, 38.8725, -149.636, -81.0272, 43.6792
7.96848, 32, -27.8911, -20.9881, 38.9322, -149.587, -80.9771, 43.6462
7.97648, 32, -27.8868, -21.0256, 38.9918, -149.54, -80.9277, 43.6134
7.98442, 32, -27.8781, -21.1007, 39.0216, -149.517, -80.9027, 43.5806
7.9925, 32, -27.8693, -21.1757, 39.0812, -149.445, -80.8275, 43.548
7.99987, 32, -27.8605, -21.2507, 39.1407, -149.421, -80.8028, 43.5318
8.00789, 32, -27.8518, -21.3257, 39.2001, -149.374, -80.7528, 43.5001
8.01592, 32, -27.843, -21.4007, 39.2596, -149.326, -80.7025, 43.4691
8.02406, 32, -27.8342, -21.4758, 39.3191, -149.278, -80.6532, 43.4384
8.03093, 32, -27.8253, -21.5507, 39.3786, -149.23, -80.6033, 43.408
8.03987, 33, -27.8165, -21.6258, 39.438, -149.183, -80.5532, 43.3775
8.04787, 33, -27.8076, -21.7008, 39.4974, -149.134, -80.5039, 43.3472
8.05592, 33, -27.7986, -21.7756, 39.5568, -149.087, -80.4539, 43.3177
8.06387, 33, -27.7894, -21.8505, 39.6162, -149.039, -80.4039, 43.289
8.07194, 33, -27.7801, -21.9253, 39.6755, -148.99, -80.3548, 43.2607
8.07987, 33, -27.7709, -22.0001, 39.7348, -148.943, -80.3051, 43.2325
8.08793, 33, -27.7617, -22.0748, 39.7941, -148.895, -80.2553, 43.2046
8.09587, 33, -27.7523, -22.1496, 39.8532, -148.846, -80.2063, 43.1766
8.10388, 33, -27.743, -22.2244, 39.9124, -148.799, -80.1565, 43.1493
8.11201, 33, -27.7337, -22.2991, 39.9716, -148.751, -80.1068, 43.1227
8.11986, 33, -27.7244, -22.3738, 40.0307, -148.702, -80.058, 43.0969
8.12892, 33, -27.715, -22.4485, 40.0898, -148.654, -80.0084, 43.0716
8.13592, 33, -27.7056, -22.5231, 40.1489, -148.606, -79.959, 43.0466
8.14408, 34, -27.6962, -22.5977, 40.2079, -148.557, -79.9102, 43.0217
8.15221, 34, -27.6868, -22.6721, 40.267, -148.509, -79.8603, 42.9969
8.15987, 34, -27.6773, -22.7466, 40.3259, -148.461, -79.8108, 42.9724
8.16788, 34, -27.6677, -22.821, 40.3847, -148.412, -79.762, 42.9487
8.17586, 34, -27.6581, -22.8952, 40.4436, -148.364, -79.7121, 42.9257
8.18387, 34, -27.6486, -22.9696, 40.5022, -148.315, -79.6627, 42.9033
8.19453, 34, -27.6388, -23.0438, 40.5609, -148.266, -79.6137, 42.8815
8.19988, 34, -27.6289, -23.1181, 40.6195, -148.218, -79.5638, 42.8601
8.20793, 34, -27.6189, -23.1922, 40.6781, -148.169, -79.5147, 42.8389
8.21587, 34, -27.609, -23.2663, 40.7367, -148.12, -79.4659, 42.8179
8.22487, 34, -27.5989, -23.3404, 40.7952, -148.073, -79.4161, 42.7973
8.232, 34, -27.5888, -23.4143, 40.8537, -148.024, -79.3671, 42.7773
8.23986, 34, -27.5787, -23.4883, 40.9121, -147.975, -79.3183, 42.7581
8.24973, 34, -27.5685, -23.5622, 40.9704, -147.927, -79.2686, 42.7398
8.25594, 35, -27.5583, -23.6359, 41.0286, -147.878, -79.2197, 42.7221
8.26387, 35, -27.548, -23.7096, 41.0868, -147.829, -79.1712, 42.7049
8.27192, 35, -27.5378, -23.7832, 41.1448, -147.781, -79.1216, 42.6883
8.27999, 35, -27.5275, -23.8567, 41.2028, -147.732, -79.073, 42.6721
8.28786, 35, -27.517, -23.9301, 41.2607, -147.683, -79.0244, 42.6563
8.29524, 35, -27.5065, -24.0034, 41.3185, -147.635, -78.9749, 42.6409
8.30387, 35, -27.4959, -24.0766, 41.3763, -147.585, -78.9263, 42.6257
8.312, 35, -27.4853, -24.1497, 41.4342, -147.536, -78.8779, 42.6111
8.31995, 35, -27.4745, -24.2228, 41.4918, -147.488, -78.8287, 42.5972
8.32822, 35, -27.4636, -24.2959, 41.5495, -147.439, -78.7801, 42.584
8.33574, 35, -27.4527, -24.3689, 41.6071, -147.39, -78.7318, 42.5714
8.34418, 35, -27.4416, -24.4418, 41.6645, -147.342, -78.6827, 42.5595
8.35215, 35, -27.4304, -24.5145, 41.7218, -147.293, -78.6343, 42.5483
8.35953, 35, -27.4248, -24.5509, 41.7789, -147.244, -78.5862, 42.5378
8.36806, 36, -27.4078, -24.66, 41.836, -147.196, -78.5375, 42.5278
8.37589, 36, -27.3964, -24.7324, 41.893, -147.146, -78.4895, 42.5187
8.38403, 36, -27.3849, -24.8048, 41.95, -147.098, -78.4415, 42.51
8.392, 36, -27.3735, -24.8772, 42.0068, -147.049, -78.3929, 42.502
8.40005, 36, -27.362, -24.9494, 42.0637, -147, -78.345, 42.4944
8.40686, 36, -27.3562, -24.9855, 42.0921, -146.975, -78.3212, 42.4908
8.41623, 36, -27.3386, -25.0936, 42.1771, -146.903, -78.249, 42.4808
8.4229, 36, -27.3327, -25.1296, 42.2054, -146.879, -78.225, 42.4777
8.43259, 36, -27.3146, -25.2375, 42.2901, -146.805, -78.1538, 42.4695
8.4404, 36, -27.3025, -25.3092, 42.3464, -146.757, -78.1054, 42.4647
8.44916, 36, -27.2904, -25.381, 42.4025, -146.707, -78.0576, 42.4607
8.45492, 36, -27.2843, -25.4168, 42.4306, -146.683, -78.034, 42.4589
8.46483, 36, -27.2658, -25.5238, 42.5146, -146.611, -77.9623, 42.4544
8.47316, 36, -27.2596, -25.5595, 42.5426, -146.586, -77.9384, 42.4533
8.48069, 37, -27.2408, -25.6662, 42.6264, -146.513, -77.8676, 42.4509
8.48857, 37, -27.2282, -25.7372, 42.682, -146.464, -77.8197, 42.45
8.49585, 37, -27.2219, -25.7727, 42.7098, -146.44, -77.7958, 42.4498
8.50293, 37, -27.2093, -25.8436, 42.7654, -146.391, -77.7488, 42.4495
8.5141, 37, -27.1902, -25.9497, 42.8485, -146.319, -77.6778, 42.4493
8.51886, 37, -27.1838, -25.985, 42.8762, -146.294, -77.654, 42.4493
8.52789, 37, -27.1708, -26.0555, 42.9315, -146.245, -77.6072, 42.4495
8.53587, 37, -27.1575, -26.1259, 42.9865, -146.198, -77.5601, 42.4498
8.54591, 37, -27.1376, -26.2311, 43.0689, -146.124, -77.4889, 42.4512
8.5519, 37, -27.1309, -26.2661, 43.0963, -146.1, -77.4656, 42.4522
8.55984, 37, -27.1174, -26.3361, 43.1509, -146.053, -77.419, 42.4556
8.56699, 37, -27.1039, -26.4058, 43.2054, -146.004, -77.3715, 42.4602
8.57491, 37, -27.0902, -26.4756, 43.2599, -145.955, -77.3248, 42.466
8.58387, 38, -27.0764, -26.5452, 43.3142, -145.907, -77.2784, 42.4728
8.59191, 38, -27.0627, -26.6146, 43.3684, -145.859, -77.231, 42.4807
8.59995, 38, -27.0488, -26.684, 43.4225, -145.81, -77.1842, 42.4893
8.60792, 38, -27.0348, -26.7531, 43.4764, -145.763, -77.1381, 42.499
8.61487, 38, -27.0206, -26.8222, 43.5302, -145.715, -77.091, 42.5095
8.62385, 38, -27.0063, -26.891, 43.5839, -145.666, -77.0443, 42.5208
8.63198, 38, -26.9918, -26.9596, 43.6374, -145.619, -76.9982, 42.5329
8.64093, 38, -26.9773, -27.0281, 43.6908, -145.571, -76.9513, 42.5459
8.64789, 38, -26.9626, -27.0964, 43.7441, -145.522, -76.9046, 42.5597
8.65591, 38, -26.9478, -27.1646, 43.7971, -145.475, -76.859, 42.5746
8.66386, 38, -26.9329, -27.2326, 43.85, -145.427, -76.8127, 42.5903
8.67193, 38, -26.9178, -27.3005, 43.9028, -145.379, -76.7662, 42.6071
8.67991, 38, -26.9027, -27.3684, 43.9554, -145.333, -76.7206, 42.6249
8.68799, 38, -26.8875, -27.4361, 44.0078, -145.285, -76.6744, 42.6438
8.69649, 39, -26.8722, -27.5036, 44.0601, -145.237, -76.6278, 42.6633
8.70386, 39, -26.8567, -27.5711, 44.1123, -145.19, -76.5823, 42.6832
8.71193, 39, -26.8409, -27.6382, 44.1642, -145.143, -76.5366, 42.7039
8.71991, 39, -26.825, -27.7051, 44.216, -145.095, -76.4902, 42.7254
8.72785, 39, -26.809, -27.7718, 44.2678, -145.048, -76.4447, 42.7475
8.73746, 39, -26.7929, -27.8384, 44.3193, -145.001, -76.3991, 42.7708
8.74337, 39, -26.7767, -27.9048, 44.3707, -144.953, -76.3526, 42.7952
8.75088, 39, -26.7603, -27.9712, 44.4219, -144.907, -76.307, 42.8206
8.75892, 39, -26.744, -28.0372, 44.4728, -144.86, -76.2617, 42.8467
8.76786, 39, -26.7275, -28.1033, 44.5235, -144.813, -76.2154, 42.8732
8.77591, 39, -26.7108, -28.1692, 44.5741, -144.767, -76.1697, 42.9005
8.78385, 39, -26.694, -28.2349, 44.6246, -144.72, -76.1245, 42.9287
8.79527, 39, -26.6682, -28.3331, 44.7, -144.65, -76.0554, 42.973
8.79916, 39, -26.6595, -28.3657, 44.7251, -144.627, -76.0328, 42.9885
8.80733, 40, -26.6422, -28.4306, 44.7751, -144.581, -75.9879, 43.0201
8.8153, 40, -26.6247, -28.4953, 44.8248, -144.534, -75.9424, 43.052
8.82393, 40, -26.607, -28.5598, 44.8744, -144.489, -75.8968, 43.0845
8.83199, 40, -26.5892, -28.624, 44.9238, -144.443, -75.8521, 43.118
8.83946, 40, -26.5714, -28.6881, 44.9731, -144.397, -75.8068, 43.1525
8.84802, 40, -26.5535, -28.752, 45.0221, -144.352, -75.7611, 43.1883
8.85595, 40, -26.5353, -28.8157, 45.0709, -144.306, -75.7164, 43.2248
8.86398, 40, -26.5167, -28.8794, 45.1195, -144.26, -75.6718, 43.2619
8.87209, 40, -26.498, -28.9428, 45.1678, -144.215, -75.6264, 43.2998
8.8799, 40, -26.4793, -29.006, 45.2159, -144.17, -75.5816, 43.3391
8.88866, 40, -26.4604, -29.0691, 45.2639, -144.124, -75.5371, 43.3797
8.896, 40, -26.4412, -29.1318, 45.3117, -144.079, -75.4919, 43.4206
8.90285, 40, -26.4316, -29.1631, 45.3355, -144.057, -75.4693, 43.4412
8.91333, 41, -26.4025, -29.2565, 45.4067, -143.99, -75.4028, 43.5049
8.92299, 41, -26.3829, -29.3185, 45.4539, -143.945, -75.358, 43.5491
8.92826, 41, -26.363, -29.3801, 45.5008, -143.901, -75.3131, 43.5939
8.93486, 41, -26.353, -29.4109, 45.5242, -143.879, -75.291, 43.6164
8.94429, 41, -26.3228, -29.5031, 45.5942, -143.812, -75.2248, 43.6854
8.95084, 41, -26.3127, -29.5337, 45.6173, -143.79, -75.2023, 43.7092
8.961, 41, -26.2819, -29.6254, 45.6865, -143.725, -75.1361, 43.7819
8.96844, 41, -26.2613, -29.6862, 45.7323, -143.681, -75.0923, 43.8312
8.97664, 41, -26.2405, -29.7467, 45.7779, -143.638, -75.0479, 43.8816
8.98525, 41, -26.2194, -29.807, 45.8231, -143.595, -75.004, 43.9336
8.99084, 41, -26.2088, -29.8371, 45.8457, -143.573, -74.9822, 43.9599
9.00093, 41, -26.1766, -29.9267, 45.9132, -143.508, -74.9161, 44.0395
9.00867, 41, -26.1659, -29.9564, 45.9356, -143.487, -74.8939, 44.0948
9.01691, 41, -26.1332, -30.0451, 46.0023, -143.424, -74.8287, 44.1507
9.0238, 42, -26.1222, -30.0746, 46.0245, -143.402, -74.807, 44.1787
9.03188, 42, -26.1001, -30.1333, 46.0686, -143.36, -74.763, 44.2357
9.03995, 42, -26.0778, -30.1919, 46.1124, -143.318, -74.7192, 44.2944
9.04784, 42, -26.0552, -30.2502, 46.1559, -143.276, -74.676, 44.3536
9.05804, 42, -26.0209, -30.3372, 46.2208, -143.213, -74.61, 44.4444
9.06388, 42, -26.0095, -30.3661, 46.2422, -143.193, -74.5881, 44.4756
9.07184, 42, -25.9864, -30.4238, 46.285, -143.152, -74.545, 44.5379
9.07983, 42, -25.963, -30.481, 46.3275, -143.111, -74.5016, 44.6009
9.08791, 42, -25.9395, -30.538, 46.3696, -143.07, -74.4576, 44.6659
9.09583, 42, -25.9156, -30.5945, 46.4117, -143.03, -74.4145, 44.7312
9.10383, 42, -25.8913, -30.6508, 46.4533, -142.989, -74.3715, 44.7978
9.11473, 42, -25.8548, -30.7345, 46.5153, -142.929, -74.306, 44.9003
9.11982, 42, -25.8425, -30.7623, 46.5359, -142.91, -74.2845, 44.9346
9.12791, 42, -25.8178, -30.8177, 46.5767, -142.871, -74.242, 45.0049
9.13692, 43, -25.793, -30.8728, 46.6173, -142.831, -74.199, 45.0766
9.14383, 43, -25.768, -30.9278, 46.6576, -142.792, -74.1556, 45.1485
9.15195, 43, -25.7426, -30.9825, 46.6975, -142.754, -74.1131, 45.2226
9.15989, 43, -25.7169, -31.0369, 46.7372, -142.715, -74.0706, 45.2971
9.16784, 43, -25.6911, -31.091, 46.7767, -142.677, -74.0272, 45.3726
9.17583, 43, -25.6649, -31.1448, 46.8157, -142.639, -73.9845, 45.4496
9.18384, 43, -25.6385, -31.1981, 46.8545, -142.602, -73.9425, 45.5269
9.19183, 43, -25.6121, -31.2511, 46.8931, -142.564, -73.8997, 45.6062
9.19993, 43, -25.5852, -31.3037, 46.9313, -142.527, -73.8568, 45.6857
9.20785, 43, -25.5582, -31.3558, 46.9693, -142.49, -73.8148, 45.7667
9.21583, 43, -25.531, -31.4076, 47.0069, -142.454, -73.7725, 45.8484
9.22391, 43, -25.5035, -31.4591, 47.044, -142.418, -73.7295, 45.9312
9.23197, 43, -25.4756, -31.5103, 47.081, -142.381, -73.6873, 46.0154
9.2401, 44, -25.4475, -31.5613, 47.1176, -142.346, -73.6456, 46.1001
9.24789, 44, -25.4188, -31.6119, 47.1537, -142.311, -73.6032, 46.1869
9.25583, 44, -25.39, -31.6624, 47.1896, -142.277, -73.5608, 46.274
9.26384, 44, -25.3611, -31.7125, 47.2251, -142.242, -73.5193, 46.3633
9.27189, 44, -25.3321, -31.7622, 47.2602, -142.208, -73.4774, 46.4527
9.28012, 44, -25.3028, -31.8115, 47.2951, -142.174, -73.4349, 46.5442
9.28701, 44, -25.2731, -31.8606, 47.3296, -142.141, -73.3933, 46.6362
9.29517, 44, -25.243, -31.9091, 47.3636, -142.108, -73.3522, 46.73
9.30332, 44, -25.2127, -31.957, 47.3975, -142.075, -73.3104, 46.8239
9.3112, 44, -25.1821, -32.0047, 47.431, -142.043, -73.2688, 46.9197
9.3194, 44, -25.1513, -32.0519, 47.464, -142.011, -73.2278, 47.0162
9.32918, 44, -25.1201, -32.0986, 47.4967, -141.98, -73.1866, 47.1147
9.3379, 44, -25.0886, -32.145, 47.5291, -141.948, -73.1448, 47.2138
9.34339, 44, -25.057, -32.191, 47.561, -141.918, -73.1038, 47.3145
9.35336, 45, -25.0251, -32.2368, 47.5925, -141.888, -73.0632, 47.4162
9.35954, 45, -24.9928, -32.2822, 47.6237, -141.859, -73.0221, 47.5192
9.36804, 45, -24.9601, -32.3272, 47.6545, -141.829, -72.981, 47.6233
9.3798, 45, -24.9271, -32.3718, 47.6996, -141.785, -72.9207, 47.7817
9.38386, 45, -24.8939, -32.416, 47.7145, -141.771, -72.9003, 47.8352
9.39192, 45, -24.8604, -32.4597, 47.7441, -141.743, -72.8591, 47.9423
9.40078, 45, -24.8266, -32.5029, 47.7731, -141.716, -72.8187, 48.0511
9.40806, 45, -24.7924, -32.5457, 47.8017, -141.688, -72.7789, 48.1609
9.41483, 45, -24.7752, -32.5669, 47.8159, -141.674, -72.7588, 48.2164
9.42497, 45, -24.7233, -32.6298, 47.858, -141.635, -72.698, 48.3844
9.43223, 45, -24.6883, -32.6711, 47.8854, -141.609, -72.6582, 48.498
9.43885, 45, -24.6707, -32.6915, 47.8989, -141.596, -72.6385, 48.5554
9.44843, 45, -24.617, -32.7522, 47.9389, -141.559, -72.5781, 48.7287
9.45675, 45, -24.581, -32.7921, 47.9652, -141.534, -72.5382, 48.8455
9.46499, 46, -24.5446, -32.8316, 47.9909, -141.51, -72.4992, 48.9637
9.47241, 46, -24.5079, -32.8705, 48.016, -141.486, -72.4598, 49.0829
9.48056, 46, -24.4708, -32.9089, 48.0407, -141.464, -72.42, 49.2033
9.48847, 46, -24.4521, -32.9469, 48.065, -141.442, -72.3809, 49.3251
9.49656, 46, -24.4147, -32.9657, 48.077, -141.431, -72.3615, 49.3863
9.50383, 46, -24.3769, -33.003, 48.1006, -141.41, -72.3226, 49.5103
9.51187, 46, -24.3386, -33.0396, 48.1238, -141.389, -72.2831, 49.6353
9.51981, 46, -24.3, -33.0758, 48.1465, -141.368, -72.2442, 49.7615
9.52783, 46, -24.2612, -33.1115, 48.1686, -141.348, -72.206, 49.8888
9.53588, 46, -24.2221, -33.1466, 48.1903, -141.329, -72.1675, 50.0173
9.54384, 46, -24.1826, -33.1811, 48.2115, -141.31, -72.1286, 50.1467
9.55205, 46, -24.1426, -33.2152, 48.2322, -141.292, -72.0905, 50.2773
9.56212, 46, -24.0822, -33.2652, 48.2624, -141.266, -72.0339, 50.4753
9.56688, 46, -24.0619, -33.2816, 48.2722, -141.257, -72.0148, 50.542
9.5759, 47, -24.0207, -33.3139, 48.2915, -141.241, -71.9764, 50.676
9.58381, 47, -23.9793, -33.3457, 48.3103, -141.224, -71.9391, 50.8114
9.59181, 47, -23.9375, -33.377, 48.3283, -141.209, -71.9022, 50.948
9.60223, 47, -23.8742, -33.4225, 48.3545, -141.188, -71.8459, 51.1554
9.60684, 47, -23.8528, -33.4374, 48.363, -141.181, -71.8273, 51.2249
9.61582, 47, -23.8099, -33.4667, 48.3795, -141.168, -71.7906, 51.3648
9.62482, 47, -23.7668, -33.4955, 48.3955, -141.156, -71.7542, 51.5061
9.63083, 47, -23.7233, -33.5236, 48.4111, -141.145, -71.7173, 51.6486
9.63981, 47, -23.6793, -33.5512, 48.4261, -141.133, -71.6805, 51.7923
9.65, 47, -23.6127, -33.5912, 48.4472, -141.118, -71.6269, 52.0101
9.65483, 47, -23.5904, -33.6043, 48.4541, -141.113, -71.6091, 52.0832
9.66387, 47, -23.5452, -33.6301, 48.4673, -141.103, -71.5733, 52.2305
9.6718, 47, -23.4997, -33.655, 48.4799, -141.094, -71.5374, 52.3787
9.68098, 48, -23.4539, -33.6794, 48.4917, -141.086, -71.5025, 52.5279
9.6888, 48, -23.4077, -33.7031, 48.503, -141.078, -71.4679, 52.6785
9.69582, 48, -23.361, -33.7261, 48.5139, -141.071, -71.433, 52.8303
9.70384, 48, -23.314, -33.7486, 48.5242, -141.065, -71.398, 52.9835
9.71189, 48, -23.2667, -33.7701, 48.534, -141.06, -71.3638, 53.1377
9.71981, 48, -23.2189, -33.791, 48.5431, -141.056, -71.3302, 53.2929
9.72788, 48, -23.1708, -33.8113, 48.5514, -141.052, -71.2966, 53.4494
9.73582, 48, -23.1223, -33.8307, 48.5592, -141.049, -71.2627, 53.6068
9.74381, 48, -23.0732, -33.8496, 48.5665, -141.047, -71.2294, 53.7656
9.75189, 48, -23.0239, -33.8679, 48.5731, -141.046, -71.1967, 53.9257
9.75981, 48, -22.9742, -33.8851, 48.5791, -141.045, -71.164, 54.0872
9.76782, 48, -22.924, -33.9017, 48.5845, -141.045, -71.1311, 54.2496
9.77603, 48, -22.8734, -33.9177, 48.5893, -141.044, -71.0986, 54.413
9.78341, 48, -22.8226, -33.9329, 48.5933, -141.045, -71.0667, 54.5775
9.79187, 49, -22.7713, -33.9472, 48.5966, -141.046, -71.0355, 54.7429
9.79981, 49, -22.7195, -33.9605, 48.5993, -141.048, -71.0043, 54.9092
9.80781, 49, -22.6675, -33.9732, 48.6013, -141.051, -70.9729, 55.077
9.81611, 49, -22.6149, -33.9854, 48.6026, -141.056, -70.9421, 55.2458
9.82406, 49, -22.562, -33.9967, 48.6033, -141.061, -70.9119, 55.4156
9.83191, 49, -22.5087, -34.0068, 48.6035, -141.066, -70.8822, 55.5867
9.83997, 49, -22.455, -34.0162, 48.6035, -141.073, -70.8525, 55.7585
9.84871, 49, -22.4008, -34.0249, 48.603, -141.081, -70.8226, 55.9315
9.85592, 49, -22.3463, -34.0328, 48.6018, -141.09, -70.7935, 56.1058
9.86434, 49, -22.2915, -34.0399, 48.6001, -141.1, -70.7652, 56.2814
9.87132, 49, -22.2639, -34.0432, 48.5989, -141.105, -70.7513, 56.3694
9.87983, 49, -22.1805, -34.0519, 48.5943, -141.123, -70.7098, 56.6353
9.88784, 49, -22.1244, -34.0565, 48.5902, -141.135, -70.6821, 56.8136
9.89704, 50, -22.0678, -34.0601, 48.5853, -141.149, -70.6549, 56.993
9.90297, 50, -22.0395, -34.0616, 48.5825, -141.156, -70.6416, 57.0832
9.91209, 50, -21.9538, -34.0646, 48.5732, -141.177, -70.6028, 57.3553
9.91881, 50, -21.925, -34.0652, 48.5696, -141.185, -70.5901, 57.4465
9.92682, 50, -21.8672, -34.0658, 48.5619, -141.201, -70.5646, 57.6297
9.93617, 50, -21.7795, -34.0658, 48.5489, -141.226, -70.5264, 57.9064
9.94288, 50, -21.75, -34.0654, 48.5443, -141.236, -70.514, 57.999
9.95386, 50, -21.661, -34.063, 48.5291, -141.265, -70.4781, 58.2788
9.96031, 50, -21.6013, -34.0604, 48.518, -141.285, -70.455, 58.4668
9.96837, 50, -21.5413, -34.0568, 48.506, -141.306, -70.4324, 58.6557
9.97643, 50, -21.4808, -34.0522, 48.4932, -141.327, -70.4098, 58.8454
9.98518, 50, -21.4504, -34.0465, 48.4795, -141.35, -70.3875, 59.036
9.9908, 50, -21.3894, -34.0433, 48.4724, -141.361, -70.3765, 59.1316
10.0007, 50, -21.328, -34.0359, 48.4497, -141.398, -70.3448, 59.4199
10.0078, 51, -21.2662, -34.0276, 48.4418, -141.411, -70.3346, 59.5165
10.0148, 51, -21.2039, -34.0181, 48.4255, -141.437, -70.3147, 59.7104
10.0238, 51, -21.1412, -34.0077, 48.4083, -141.463, -70.2953, 59.9054
10.0318, 51, -21.0782, -33.9963, 48.3901, -141.49, -70.2762, 60.1012
10.0399, 51, -21.0147, -33.9837, 48.3712, -141.519, -70.2574, 60.2977
10.0479, 51, -20.9509, -33.9696, 48.3515, -141.549, -70.2388, 60.4955
10.0558, 51, -20.8866, -33.9545, 48.3309, -141.579, -70.2209, 60.6943
10.0638, 51, -20.8221, -33.9386, 48.3097, -141.61, -70.204, 60.8938
10.0718, 51, -20.7571, -33.9218, 48.2875, -141.642, -70.1879, 61.0944
10.0798, 51, -20.6917, -33.9038, 48.2645, -141.675, -70.1726, 61.2956
10.0868, 51, -20.626, -33.8847, 48.2407, -141.709, -70.1579, 61.4975
10.0959, 51, -20.56, -33.8646, 48.2161, -141.743, -70.1439, 61.7004
10.1067, 51, -20.4603, -33.8321, 48.1774, -141.796, -70.1238, 62.0065
10.1118, 51, -20.4269, -33.8207, 48.1641, -141.815, -70.1173, 62.109
10.1198, 52, -20.3598, -33.7971, 48.1369, -141.852, -70.1046, 62.3144
10.1288, 52, -20.2924, -33.7723, 48.1089, -141.891, -70.0924, 62.5206
10.1358, 52, -20.2244, -33.7465, 48.08, -141.929, -70.0811, 62.728
10.1459, 52, -20.122, -33.7052, 48.035, -141.99, -70.0656, 63.0406
10.1518, 52, -20.0876, -33.6909, 48.0196, -142.011, -70.0609, 63.1452
10.1599, 52, -20.0187, -33.6614, 47.9882, -142.052, -70.0521, 63.3548
10.1678, 52, -19.9493, -33.6308, 47.9559, -142.094, -70.044, 63.5652
10.1748, 52, -19.8798, -33.599, 47.9227, -142.138, -70.0368, 63.7761
10.1838, 52, -19.8099, -33.5661, 47.8887, -142.182, -70.0304, 63.9881
10.1918, 52, -19.7395, -33.5321, 47.8537, -142.227, -70.0247, 64.2005
10.1999, 52, -19.669, -33.4969, 47.8178, -142.273, -70.0197, 64.4138
10.2078, 52, -19.5983, -33.4605, 47.7812, -142.32, -70.0156, 64.6275
10.2158, 52, -19.5272, -33.4228, 47.7437, -142.367, -70.0122, 64.8421
10.2239, 52, -19.4559, -33.384, 47.7051, -142.416, -70.0097, 65.0576
10.2328, 53, -19.384, -33.3439, 47.6659, -142.465, -70.0079, 65.2738
10.2399, 53, -19.3117, -33.3026, 47.6257, -142.515, -70.0068, 65.4906
10.2478, 53, -19.2392, -33.26, 47.5846, -142.567, -70.0063, 65.7078
10.2558, 53, -19.1664, -33.2162, 47.5427, -142.619, -70.0063, 65.9256
10.2639, 53, -19.0933, -33.1713, 47.4998, -142.671, -70.0068, 66.1441
10.2719, 53, -19.02, -33.1251, 47.4561, -142.725, -70.008, 66.3635
10.2798, 53, -18.9464, -33.0777, 47.4115, -142.779, -70.0102, 66.5834
10.2878, 53, -18.8725, -33.0291, 47.3659, -142.835, -70.0133, 66.8038
10.2959, 53, -18.7983, -32.9793, 47.3195, -142.89, -70.0174, 67.0248
10.3038, 53, -18.7238, -32.9281, 47.2722, -142.947, -70.0225, 67.2468
10.312, 53, -18.649, -32.8756, 47.2239, -143.005, -70.0286, 67.4692
10.32, 53, -18.574, -32.8219, 47.1747, -143.063, -70.0357, 67.6919
10.3283, 53, -18.4987, -32.7669, 47.1247, -143.122, -70.0439, 67.9151
10.3364, 54, -18.4231, -32.7105, 47.0737, -143.181, -70.0532, 68.1386
10.3434, 54, -18.3472, -32.6528, 47.0219, -143.242, -70.0636, 68.363
10.3519, 54, -18.2712, -32.5939, 46.9692, -143.303, -70.0753, 68.5877
10.3604, 54, -18.1949, -32.5337, 46.9156, -143.365, -70.0881, 68.813
10.3681, 54, -18.1184, -32.4723, 46.8612, -143.429, -70.1024, 69.0385
10.3753, 54, -18.08, -32.4411, 46.8336, -143.46, -70.11, 69.1514
10.3843, 54, -17.9646, -32.3456, 46.7494, -143.556, -70.134, 69.4913
10.3908, 54, -17.926, -32.3131, 46.7209, -143.589, -70.1424, 69.6049
10.3998, 54, -17.8099, -32.2136, 46.634, -143.687, -70.1687, 69.9461
10.4087, 54, -17.7322, -32.1457, 46.575, -143.753, -70.1875, 70.1738
10.4164, 54, -17.6544, -32.0763, 46.515, -143.82, -70.2074, 70.4019
10.4228, 54, -17.6155, -32.0411, 46.4847, -143.854, -70.2178, 70.5161
10.4308, 54, -17.5374, -31.9696, 46.4235, -143.921, -70.2397, 70.7451
10.4413, 54, -17.4199, -31.8599, 46.3299, -144.025, -70.275, 71.089
10.4492, 55, -17.3414, -31.7851, 46.2666, -144.094, -70.2995, 71.3186
10.4563, 55, -17.2626, -31.709, 46.2024, -144.164, -70.3249, 71.5487
10.4654, 55, -17.1837, -31.6317, 46.1372, -144.235, -70.3514, 71.7794
10.4733, 55, -17.1046, -31.5531, 46.0711, -144.306, -70.3794, 72.0102
10.4804, 55, -17.0252, -31.4732, 46.004, -144.378, -70.4088, 72.2412
10.4884, 55, -16.9855, -31.4327, 45.936, -144.451, -70.4389, 72.4723
10.497, 55, -16.906, -31.3508, 45.9016, -144.487, -70.4697, 72.7036
10.5038, 55, -16.8265, -31.2675, 45.8322, -144.561, -70.4855, 72.8194
10.5118, 55, -16.7469, -31.1828, 45.762, -144.634, -70.5184, 73.0511
10.5198, 55, -16.6671, -31.0968, 45.691, -144.709, -70.5531, 73.2832
10.5268, 55, -16.5874, -31.0095, 45.6193, -144.783, -70.5883, 73.5151
10.5359, 55, -16.5073, -30.9208, 45.5466, -144.859, -70.6244, 73.7474
10.544, 55, -16.4271, -30.8308, 45.4731, -144.934, -70.6618, 73.9799
10.5518, 55, -16.3469, -30.7393, 45.3986, -145.011, -70.701, 74.2125
10.5598, 56, -16.2664, -30.6466, 45.3233, -145.087, -70.7407, 74.4452
10.5678, 56, -16.186, -30.5525, 45.247, -145.165, -70.7812, 74.6776
10.5758, 56, -16.1055, -30.4571, 45.1698, -145.242, -70.8238, 74.9103
10.5838, 56, -16.0248, -30.3604, 45.0919, -145.32, -70.8678, 75.1433
10.5918, 56, -15.9442, -30.2624, 45.0132, -145.398, -70.9121, 75.3764
10.5998, 56, -15.8637, -30.1631, 44.9337, -145.477, -70.9583, 75.6094
10.6079, 56, -15.7831, -30.0625, 44.8534, -145.556, -71.006, 75.8424
10.6158, 56, -15.7025, -29.9604, 44.7722, -145.635, -71.054, 76.0758
10.6238, 56, -15.6217, -29.857, 44.6902, -145.715, -71.1038, 76.3093
10.6319, 56, -15.5408, -29.7522, 44.6072, -145.795, -71.1553, 76.5426
10.6408, 56, -15.4597, -29.6462, 44.5234, -145.875, -71.207, 76.7757
10.6468, 56, -15.3786, -29.539, 44.4387, -145.956, -71.2608, 77.0087
10.6558, 56, -15.2976, -29.4305, 44.3534, -146.037, -71.3155, 77.2417
10.664, 56, -15.2167, -29.3207, 44.2674, -146.118, -71.3709, 77.4744
10.672, 57, -15.1358, -29.2095, 44.1806, -146.199, -71.4288, 77.7073
10.6798, 57, -15.0549, -29.097, 44.093, -146.281, -71.487, 77.9398
10.6878, 57, -14.9741, -28.9832, 44.0045, -146.362, -71.5469, 78.1723
10.6958, 57, -14.8932, -28.8681, 43.9151, -146.444, -71.6079, 78.4047
10.7038, 57, -14.8123, -28.7518, 43.8249, -146.526, -71.6696, 78.6369
10.7134, 57, -14.7314, -28.6342, 43.7341, -146.608, -71.7336, 78.869
10.7198, 57, -14.6505, -28.5153, 43.6427, -146.69, -71.7981, 79.1007
10.7278, 57, -14.5698, -28.395, 43.5505, -146.773, -71.8647, 79.3322
10.7358, 57, -14.4891, -28.2735, 43.4576, -146.856, -71.9316, 79.5638
10.7448, 57, -14.4085, -28.1509, 43.3638, -146.938, -72.0008, 79.7951
10.7519, 57, -14.328, -28.0273, 43.2692, -147.021, -72.0706, 80.0261
10.7598, 57, -14.2476, -27.9024, 43.1739, -147.103, -72.1421, 80.2564
10.7699, 57, -14.1671, -27.7762, 43.0778, -147.186, -72.2142, 80.487
10.776, 58, -14.0867, -27.6488, 42.9813, -147.269, -72.2881, 80.7174
10.7838, 58, -14.0064, -27.5202, 42.8841, -147.352, -72.363, 80.9473
10.7918, 58, -13.9263, -27.3905, 42.7862, -147.434, -72.4391, 81.1767
10.7999, 58, -13.8464, -27.2596, 42.6877, -147.517, -72.5163, 81.4056
10.8078, 58, -13.7666, -27.1274, 42.5884, -147.6, -72.5951, 81.6342
10.8153, 58, -13.687, -26.9938, 42.4883, -147.682, -72.675, 81.8627
10.8238, 58, -13.6076, -26.8589, 42.3877, -147.765, -72.7564, 82.0906
10.8319, 58, -13.5283, -26.7229, 42.2865, -147.847, -72.8387, 82.3179
10.8399, 58, -13.4489, -26.586, 42.1848, -147.929, -72.9228, 82.5449
10.8482, 58, -13.3696, -26.4481, 42.0825, -148.012, -73.008, 82.7714
10.8554, 58, -13.2905, -26.3089, 41.9795, -148.093, -73.0941, 82.9976
10.8641, 58, -13.2115, -26.1685, 41.8756, -148.175, -73.1817, 83.223
10.8719, 58, -13.1329, -26.0271, 41.7711, -148.257, -73.2703, 83.4478
10.8798, 58, -13.0544, -25.8848, 41.6663, -148.338, -73.3599, 83.6721
10.8879, 59, -12.976, -25.7417, 41.5611, -148.419, -73.451, 83.8959
10.8958, 59, -12.898, -25.5972, 41.4554, -148.501, -73.5431, 84.1194
10.9038, 59, -12.8202, -25.4516, 41.3492, -148.581, -73.6365, 84.3423
10.912, 59, -12.7424, -25.3048, 41.2422, -148.662, -73.731, 84.5643
10.9188, 59, -12.7037, -25.2311, 41.1884, -148.702, -73.7788, 84.675
10.928, 59, -12.5875, -25.0087, 41.0265, -148.822, -73.9235, 85.0071
10.9362, 59, -12.5104, -24.859, 40.9182, -148.902, -74.0216, 85.2277
10.9428, 59, -12.4719, -24.7837, 40.8639, -148.941, -74.0712, 85.3378
10.9522, 59, -12.3566, -24.5564, 40.7003, -149.06, -74.2214, 85.6668
10.9588, 59, -12.3183, -24.4803, 40.6455, -149.099, -74.272, 85.7759
10.9691, 59, -12.2036, -24.2508, 40.4798, -149.217, -74.4257, 86.1027
10.9749, 59, -12.1655, -24.1738, 40.4244, -149.256, -74.4774, 86.2113
10.9846, 59, -12.0518, -23.941, 40.258, -149.372, -74.6343, 86.5358
10.9935, 59, -11.9763, -23.7848, 40.1467, -149.45, -74.7403, 86.751
10.9988, 60, -11.9386, -23.7064, 40.091, -149.488, -74.7936, 86.8583
11.0084, 60, -11.8635, -23.5493, 39.9792, -149.564, -74.9553, 87.1794
11.0158, 60, -11.7886, -23.3911, 39.8667, -149.64, -75.0098, 87.286
11.0228, 60, -11.714, -23.2317, 39.7538, -149.715, -75.119, 87.4986
11.0339, 60, -11.6026, -22.9914, 39.584, -149.827, -75.2854, 87.8158
11.0398, 60, -11.5656, -22.9112, 39.5274, -149.865, -75.3414, 87.921
11.0478, 60, -11.4918, -22.7502, 39.4139, -149.939, -75.4538, 88.1308
11.0558, 60, -11.4182, -22.5882, 39.3001, -150.013, -75.5676, 88.34
11.0638, 60, -11.3448, -22.425, 39.1857, -150.085, -75.6821, 88.5486
11.0708, 60, -11.2719, -22.2611, 39.0708, -150.158, -75.7976, 88.7561
11.0798, 60, -11.1992, -22.097, 38.9558, -150.23, -75.9141, 88.9625
11.0904, 60, -11.0907, -21.8492, 38.7834, -150.337, -76.0901, 89.2701
11.0958, 60, -11.0547, -21.766, 38.7259, -150.372, -76.1494, 89.3725
11.1037, 61, -10.983, -21.5991, 38.6106, -150.443, -76.2684, 89.5764
11.1118, 61, -10.9117, -21.4319, 38.4949, -150.512, -76.3884, 89.7791
11.1198, 61, -10.8405, -21.2646, 38.3789, -150.581, -76.5091, 89.9807
11.1278, 61, -10.7698, -21.0963, 38.263, -150.649, -76.6306, 90.1811
11.1368, 61, -10.6995, -20.9271, 38.147, -150.717, -76.7533, 90.3803
11.1438, 61, -10.6294, -20.7576, 38.0311, -150.785, -76.8766, 90.5788
11.1518, 61, -10.5597, -20.5882, 37.9148, -150.851, -77.001, 90.7761
11.1598, 61, -10.4902, -20.418, 37.7981, -150.917, -77.1261, 90.9725
11.1679, 61, -10.4209, -20.2466, 37.6813, -150.982, -77.2521, 91.1677
11.1758, 61, -10.3519, -20.0747, 37.5644, -151.047, -77.3789, 91.3616
11.1838, 61, -10.2834, -19.9029, 37.4477, -151.111, -77.5063, 91.5546
11.1918, 61, -10.2153, -19.731, 37.3312, -151.175, -77.6345, 91.7464
11.1998, 61, -10.1476, -19.558, 37.2144, -151.237, -77.7631, 91.937
11.2079, 61, -10.0804, -19.3842, 37.0974, -151.299, -77.8926, 92.1263
11.2158, 62, -10.0134, -19.2104, 36.9805, -151.361, -78.0224, 92.3144
11.2238, 62, -9.94677, -19.0367, 36.8638, -151.421, -78.1531, 92.5009
11.2318, 62, -9.88045, -18.8625, 36.7472, -151.481, -78.2842, 92.6863
11.2398, 62, -9.81463, -18.6875, 36.6307, -151.54, -78.4161, 92.8707
11.2478, 62, -9.74912, -18.5125, 36.514, -151.598, -78.5484, 93.054
11.2558, 62, -9.6839, -18.3379, 36.3971, -151.656, -78.6809, 93.2358
11.2638, 62, -9.61898, -18.1629, 36.2804, -151.712, -78.8145, 93.4163
11.2718, 62, -9.55434, -17.9872, 36.1638, -151.769, -78.9483, 93.5953
11.2798, 62, -9.49002, -17.8111, 36.0476, -151.824, -79.083, 93.7734
11.2879, 62, -9.42598, -17.6354, 35.9314, -151.879, -79.2179, 93.9504
11.2958, 62, -9.36242, -17.4594, 35.8152, -151.933, -79.3535, 94.126
11.3041, 62, -9.29928, -17.2824, 35.6991, -151.986, -79.4893, 94.3
11.3126, 62, -9.23659, -17.1049, 35.5833, -152.038, -79.6257, 94.4725
11.3198, 62, -9.17441, -16.9278, 35.4677, -152.09, -79.7626, 94.6434
11.3286, 63, -9.11251, -16.7511, 35.3526, -152.14, -79.8999, 94.8128
11.3359, 63, -9.05105, -16.5738, 35.2375, -152.191, -80.0378, 94.9808
11.3439, 63, -8.98993, -16.3961, 35.1224, -152.24, -80.176, 95.1476
11.3543, 63, -8.92909, -16.2189, 35.0075, -152.288, -80.3145, 95.3127
11.3593, 63, -8.86871, -16.0423, 34.8929, -152.336, -80.4534, 95.4764
11.3679, 63, -8.80856, -15.8653, 34.7787, -152.383, -80.5928, 95.6386
11.3759, 63, -8.74887, -15.6878, 34.6649, -152.429, -80.7323, 95.799
11.384, 63, -8.68961, -15.5106, 34.551, -152.474, -80.8723, 95.9581
11.3918, 63, -8.6305, -15.334, 34.4373, -152.519, -81.0124, 96.1156
11.3998, 63, -8.57188, -15.157, 34.324, -152.562, -81.1527, 96.2719
11.4087, 63, -8.51358, -14.9793, 34.2112, -152.605, -81.2931, 96.4263
11.4159, 63, -8.45567, -14.8018, 34.0989, -152.647, -81.4338, 96.579
11.4228, 63, -8.42692, -14.7133, 34.0429, -152.668, -81.5042, 96.655
11.4332, 64, -8.34121, -14.4479, 33.8752, -152.729, -81.7158, 96.8795
11.4401, 64, -8.28462, -14.2703, 33.7635, -152.769, -81.8568, 97.0271
11.4468, 64, -8.25655, -14.1816, 33.7079, -152.788, -81.9275, 97.1002
11.4572, 64, -8.17278, -13.9168, 33.5417, -152.845, -82.1391, 97.3174
11.4628, 64, -8.145, -13.829, 33.4865, -152.864, -82.2099, 97.3891
11.4723, 64, -8.06222, -13.565, 33.3218, -152.919, -82.4222, 97.6013
11.4829, 64, -8.0074, -13.3892, 33.2122, -152.954, -82.564, 97.7405
11.4883, 64, -7.98014, -13.3015, 33.1028, -152.989, -82.7057, 97.878
11.4963, 64, -7.92591, -13.1268, 33.0483, -153.023, -82.8476, 98.0135
11.5052, 64, -7.87196, -12.8642, 32.8857, -153.056, -82.9894, 98.1477
11.5108, 64, -7.81841, -12.7765, 32.8318, -153.073, -83.0603, 98.214
11.5197, 64, -7.76535, -12.6014, 32.7245, -153.104, -83.2024, 98.3454
11.5279, 64, -7.71265, -12.4272, 32.6175, -153.135, -83.3443, 98.4751
11.536, 64, -7.66032, -12.2532, 32.5107, -153.166, -83.4863, 98.6029
11.5438, 65, -7.6084, -12.0788, 32.4043, -153.195, -83.6282, 98.7287
11.5518, 65, -7.55691, -11.9048, 32.2986, -153.224, -83.7704, 98.8526
11.5597, 65, -7.50582, -11.7318, 32.1936, -153.251, -83.9122, 98.9746
11.5677, 65, -7.45514, -11.5594, 32.0893, -153.278, -84.0541, 99.0945
11.5763, 65, -7.40473, -11.3869, 31.9854, -153.304, -84.1958, 99.2124
11.5828, 65, -7.35462, -11.2145, 31.8816, -153.33, -84.3374, 99.3285
11.5917, 65, -7.30497, -11.043, 31.7781, -153.355, -84.4789, 99.4426
11.6012, 65, -7.25557, -10.8725, 31.6753, -153.378, -84.6206, 99.6103
