rpiRobotics/ARM-21-02-F-19-Robot-Motion-Program/data_performance_abb/curve_1/baseline/100L/realrobot/bisect/run_4realrobot_curve_exe_v93.75_z10.csv
timestamp, cmd_num, J1, J2, J3, J4, J5, J6
0.001033, -1, 11.3781, 13.614, 17.3393, -145.519, -97.9229, 142.516
0.004114, -1, 11.3781, 13.614, 17.3393, -145.519, -97.9229, 142.516
0.00775, -1, 11.3781, 13.614, 17.3393, -145.519, -97.9229, 142.516
0.028097, -1, 11.3781, 13.614, 17.3393, -145.519, -97.923, 142.516
0.033314, -1, 11.3781, 13.614, 17.3393, -145.519, -97.923, 142.516
0.034703, -1, 11.3781, 13.614, 17.3393, -145.519, -97.923, 142.516
0.039623, -1, 11.3781, 13.614, 17.3393, -145.519, -97.923, 142.516
0.047557, -1, 11.378, 13.614, 17.3393, -145.519, -97.923, 142.516
0.056537, -1, 11.3774, 13.6139, 17.3393, -145.519, -97.9229, 142.516
0.063528, -1, 11.3748, 13.6136, 17.3392, -145.519, -97.923, 142.516
0.071552, -1, 11.3684, 13.6127, 17.339, -145.519, -97.9229, 142.516
0.079597, -1, 11.3573, 13.6107, 17.3385, -145.52, -97.9229, 142.514
0.087549, -1, 11.3399, 13.6071, 17.3377, -145.521, -97.9227, 142.506
0.095585, -1, 11.3132, 13.6009, 17.3368, -145.525, -97.922, 142.484
0.103583, -1, 11.2751, 13.5916, 17.3362, -145.532, -97.9202, 142.444
0.111653, -1, 11.2251, 13.579, 17.3364, -145.544, -97.9167, 142.379
0.119536, -1, 11.1637, 13.5635, 17.338, -145.561, -97.9112, 142.283
0.127934, -1, 11.0907, 13.5442, 17.342, -145.584, -97.9033, 142.152
0.135531, -1, 11.0057, 13.5211, 17.3483, -145.613, -97.8932, 141.987
0.143532, -1, 10.9091, 13.4946, 17.3569, -145.647, -97.8811, 141.789
0.152326, -1, 10.8018, 13.4648, 17.3673, -145.686, -97.8675, 141.564
0.159531, -1, 10.6835, 13.432, 17.3786, -145.728, -97.8528, 141.318
0.167549, -1, 10.5544, 13.3962, 17.3898, -145.773, -97.8374, 141.057
0.176365, -1, 10.4164, 13.3583, 17.4004, -145.818, -97.8216, 140.788
0.183532, -1, 10.2716, 13.3188, 17.4106, -145.866, -97.8054, 140.513
0.191559, -1, 10.1221, 13.2784, 17.4207, -145.913, -97.7888, 140.236
0.200386, -1, 9.96966, 13.2374, 17.4307, -145.961, -97.7718, 139.958
0.207552, -1, 9.815, 13.1961, 17.4408, -146.009, -97.7546, 139.679
0.215531, -1, 9.65944, 13.1548, 17.4508, -146.057, -97.7374, 139.4
0.224322, -1, 9.50431, 13.1136, 17.4607, -146.104, -97.7205, 139.12
0.231533, -1, 9.3496, 13.0724, 17.4705, -146.153, -97.7037, 138.841
0.239568, -1, 9.1952, 13.0314, 17.4805, -146.201, -97.687, 138.561
0.24893, -1, 9.0414, 12.9903, 17.4905, -146.249, -97.6702, 138.281
0.255611, -1, 8.8878, 12.9493, 17.5006, -146.297, -97.6534, 138.002
0.263743, -1, 8.73433, 12.9083, 17.5107, -146.345, -97.6362, 137.722
0.27193, -1, 8.58135, 12.8672, 17.5207, -146.392, -97.6188, 137.442
0.279643, -1, 8.42864, 12.826, 17.5309, -146.441, -97.6012, 137.162
0.287703, -1, 8.27563, 12.7848, 17.541, -146.488, -97.584, 136.882
0.295918, -1, 8.12209, 12.7433, 17.5512, -146.536, -97.567, 136.602
0.303557, -1, 7.96816, 12.7018, 17.5614, -146.585, -97.5502, 136.322
0.311626, -1, 7.81357, 12.6602, 17.5714, -146.632, -97.5336, 136.041
0.321131, -1, 7.65865, 12.6186, 17.5816, -146.68, -97.517, 135.761
0.327774, -1, 7.50362, 12.5771, 17.5918, -146.728, -97.5001, 135.481
0.335818, -1, 7.34839, 12.5357, 17.6019, -146.776, -97.4829, 135.201
0.343744, -1, 7.19328, 12.4943, 17.6121, -146.824, -97.4655, 134.92
0.351839, -1, 7.03812, 12.4529, 17.6224, -146.873, -97.4483, 134.64
0.360008, -1, 6.88291, 12.4117, 17.6326, -146.92, -97.4312, 134.36
0.367926, -1, 6.72795, 12.3705, 17.643, -146.968, -97.4143, 134.08
0.376335, -1, 6.57334, 12.3292, 17.6534, -147.017, -97.3976, 133.799
0.384142, -1, 6.41892, 12.2881, 17.6637, -147.065, -97.3808, 133.519
0.39208, -1, 6.2646, 12.2467, 17.674, -147.113, -97.3639, 133.239
0.400143, -1, 6.11036, 12.2053, 17.6842, -147.161, -97.3468, 132.958
0.408181, -1, 5.95589, 12.164, 17.6945, -147.209, -97.3293, 132.677
0.416095, -1, 5.87857, 12.1432, 17.6996, -147.257, -97.3117, 132.397
0.424438, -1, 5.72384, 12.1016, 17.7098, -147.281, -97.2943, 132.116
0.431579, -1, 5.56893, 12.06, 17.72, -147.329, -97.2857, 131.975
0.439523, -1, 5.41375, 12.0184, 17.7303, -147.377, -97.2687, 131.694
0.447569, -1, 5.25838, 11.9768, 17.7405, -147.426, -97.2519, 131.414
0.455518, -1, 5.10263, 11.9352, 17.7508, -147.474, -97.2352, 131.133
0.463525, -1, 4.94666, 11.8937, 17.7613, -147.521, -97.2184, 130.852
0.47302, -1, 4.71294, 11.8314, 17.7769, -147.594, -97.1926, 130.43
0.479523, -1, 4.63504, 11.8107, 17.782, -147.618, -97.1838, 130.29
0.616314, -1, 1.99216, 11.1037, 17.9579, -148.439, -96.8933, 125.506
0.618573, -1, 1.91387, 11.0829, 17.9631, -148.463, -96.8845, 125.365
0.619822, -1, 1.91387, 11.0829, 17.9631, -148.463, -96.8845, 125.365
0.621066, -1, 1.91387, 11.0829, 17.9631, -148.463, -96.8845, 125.365
0.62382, -1, 1.83559, 11.0622, 17.9683, -148.487, -96.8758, 125.224
0.625009, -1, 1.83559, 11.0622, 17.9683, -148.487, -96.8758, 125.224
0.627033, -1, 1.75732, 11.0414, 17.9735, -148.511, -96.8671, 125.083
0.630109, -1, 1.67911, 11.0205, 17.9787, -148.535, -96.8585, 124.942
0.769348, -1, -0.972539, 10.3107, 18.1552, -149.36, -96.5676, 120.14
0.771148, -1, -1.05117, 10.2898, 18.1603, -149.384, -96.5591, 119.998
0.772594, -1, -1.05117, 10.2898, 18.1603, -149.384, -96.5591, 119.998
0.773774, -1, -1.05117, 10.2898, 18.1603, -149.384, -96.5591, 119.998
0.775807, -1, -1.12975, 10.269, 18.1655, -149.408, -96.5506, 119.857
0.777012, -1, -1.12975, 10.269, 18.1655, -149.408, -96.5506, 119.857
0.779753, -1, -1.12975, 10.269, 18.1655, -149.408, -96.5421, 119.715
0.784664, -1, -1.28684, 10.2272, 18.1758, -149.457, -96.5337, 119.574
0.785917, -1, -1.28684, 10.2272, 18.1758, -149.457, -96.5337, 119.574
0.787985, -1, -1.36527, 10.2062, 18.1809, -149.482, -96.5253, 119.432
0.789284, -1, -1.36527, 10.2062, 18.1809, -149.482, -96.5253, 119.432
0.791165, -1, -1.44362, 10.1854, 18.1861, -149.506, -96.5169, 119.29
0.792554, -1, -1.44362, 10.1854, 18.1861, -149.506, -96.5169, 119.29
0.793813, -1, -1.44362, 10.1854, 18.1861, -149.506, -96.5169, 119.29
0.795907, -1, -1.52192, 10.1645, 18.1913, -149.53, -96.5085, 119.149
0.800161, -1, -1.60014, 10.1436, 18.1966, -149.554, -96.5001, 119.007
0.801433, -1, -1.60014, 10.1436, 18.1966, -149.554, -96.5001, 119.007
0.804052, -1, -1.67828, 10.1227, 18.2018, -149.579, -96.4916, 118.866
0.806142, -1, -1.67828, 10.1227, 18.2018, -149.579, -96.4916, 118.866
0.808269, -1, -1.75629, 10.1018, 18.207, -149.603, -96.483, 118.724
0.809549, -1, -1.75629, 10.1018, 18.207, -149.603, -96.483, 118.724
0.811629, -1, -1.83414, 10.0809, 18.2122, -149.627, -96.4743, 118.583
0.81457, -1, -1.83414, 10.0809, 18.2122, -149.627, -96.4743, 118.583
0.816553, -1, -1.91187, 10.06, 18.2175, -149.652, -96.4656, 118.441
0.817896, -1, -1.91187, 10.06, 18.2175, -149.652, -96.4656, 118.441
0.819788, -1, -1.98955, 10.0391, 18.2227, -149.676, -96.4567, 118.299
0.821141, -1, -1.98955, 10.0391, 18.2227, -149.676, -96.4567, 118.299
0.822374, -1, -1.98955, 10.0391, 18.2227, -149.676, -96.4567, 118.299
0.824414, -1, -2.06718, 10.0182, 18.2279, -149.7, -96.4479, 118.157
0.825624, -1, -2.06718, 10.0182, 18.2279, -149.7, -96.4479, 118.157
0.828428, -1, -2.14474, 9.99726, 18.2331, -149.725, -96.4391, 118.015
0.830615, -1, -2.14474, 9.99726, 18.2331, -149.725, -96.4391, 118.015
0.83273, -1, -2.2223, 9.97637, 18.2383, -149.749, -96.4303, 117.874
0.833929, -1, -2.2223, 9.97637, 18.2383, -149.749, -96.4303, 117.874
0.835953, -1, -2.29992, 9.95548, 18.2434, -149.773, -96.4216, 117.732
0.837277, -1, -2.29992, 9.95548, 18.2434, -149.773, -96.4216, 117.732
0.839684, -1, -2.37761, 9.93457, 18.2487, -149.797, -96.413, 117.59
0.847779, -1, -2.53323, 9.89263, 18.2591, -149.846, -96.396, 117.307
0.85585, -1, -2.68908, 9.85076, 18.2695, -149.895, -96.3792, 117.023
0.863894, -1, -2.84528, 9.80888, 18.2798, -149.943, -96.3623, 116.739
0.871987, -1, -3.00196, 9.76696, 18.2902, -149.992, -96.3454, 116.456
0.88003, -1, -3.15904, 9.72511, 18.3006, -150.041, -96.3282, 116.172
0.888022, -1, -3.31649, 9.6832, 18.311, -150.089, -96.3107, 115.888
0.896099, -1, -3.47439, 9.64119, 18.3216, -150.137, -96.2931, 115.604
0.904133, -1, -3.63224, 9.59931, 18.332, -150.187, -96.2757, 115.32
0.912063, -1, -3.71116, 9.5575, 18.3423, -150.235, -96.2586, 115.036
0.920179, -1, -3.94813, 9.51551, 18.3526, -150.284, -96.2415, 114.752
0.927505, -1, -4.02708, 9.49455, 18.3578, -150.308, -96.2331, 114.61
0.935516, -1, -4.18491, 9.4527, 18.3682, -150.357, -96.2161, 114.326
0.943549, -1, -4.34265, 9.41078, 18.3784, -150.406, -96.199, 114.041
0.951518, -1, -4.50001, 9.3688, 18.3888, -150.455, -96.1817, 113.756
0.959507, -1, -4.657, 9.32683, 18.3991, -150.504, -96.164, 113.472
0.967553, -1, -4.81351, 9.28486, 18.4094, -150.552, -96.1463, 113.187
0.975502, -1, -4.96975, 9.24283, 18.4199, -150.602, -96.1288, 112.903
0.983503, -1, -5.12569, 9.20083, 18.4304, -150.65, -96.1117, 112.618
0.991563, -1, -5.28156, 9.1588, 18.4409, -150.699, -96.0948, 112.333
0.999549, -1, -5.43764, 9.11667, 18.4514, -150.748, -96.0779, 112.049
1.0075, -1, -5.59381, 9.0746, 18.4617, -150.796, -96.061, 111.764
1.01551, -1, -5.7503, 9.03254, 18.4721, -150.845, -96.044, 111.479
1.02351, -1, -5.90729, 8.99041, 18.4825, -150.894, -96.0265, 111.194
1.03158, -1, -6.06468, 8.9483, 18.4928, -150.943, -96.0089, 110.909
1.0395, -1, -6.22276, 8.90621, 18.5031, -150.992, -95.9914, 110.624
1.04752, -1, -6.38114, 8.86413, 18.5134, -151.041, -95.9742, 110.339
1.0565, -1, -6.5396, 8.82215, 18.5237, -151.09, -95.9571, 110.054
1.06353, -1, -6.69813, 8.78007, 18.5343, -151.139, -95.9401, 109.769
1.07252, -1, -6.85686, 8.73798, 18.5448, -151.188, -95.9232, 109.483
1.07956, -1, -7.01537, 8.69595, 18.5553, -151.237, -95.9061, 109.197
1.08751, -1, -7.17381, 8.65388, 18.5657, -151.286, -95.8887, 108.912
1.09551, -1, -7.33209, 8.61175, 18.5761, -151.335, -95.871, 108.626
1.10357, -1, -7.48997, 8.5695, 18.5865, -151.384, -95.8532, 108.341
1.1115, -1, -7.64766, 8.52724, 18.597, -151.433, -95.8357, 108.055
1.11958, -1, -7.80493, 8.48503, 18.6074, -151.482, -95.8186, 107.769
1.1275, -1, -7.9618, 8.44281, 18.6178, -151.531, -95.8016, 107.484
1.1355, -1, -8.11843, 8.4005, 18.6282, -151.58, -95.7847, 107.198
1.14398, -1, -8.27502, 8.3582, 18.6386, -151.629, -95.7677, 106.912
1.15149, -1, -8.43176, 8.31583, 18.6491, -151.678, -95.7505, 106.626
1.1595, -1, -8.58874, 8.27351, 18.6597, -151.727, -95.733, 106.34
1.16838, -1, -8.74613, 8.23127, 18.6701, -151.777, -95.7153, 106.053
1.17549, -1, -8.90385, 8.18898, 18.6804, -151.825, -95.6977, 105.767
1.1835, -1, -9.06201, 8.1467, 18.6908, -151.874, -95.6804, 105.481
1.1923, -1, -9.22061, 8.1045, 18.7013, -151.924, -95.6633, 105.195
1.19951, -1, -9.37955, 8.06226, 18.7117, -151.973, -95.6462, 104.908
1.20752, -1, -9.53869, 8.01999, 18.7221, -152.022, -95.629, 104.621
1.21628, -1, -9.69788, 7.97783, 18.7325, -152.072, -95.6117, 104.335
1.2235, -1, -9.8571, 7.93567, 18.7429, -152.12, -95.5942, 104.048
1.23169, -1, -10.0164, 7.89334, 18.7536, -152.17, -95.5763, 103.761
1.24027, -1, -10.1757, 7.85098, 18.7642, -152.219, -95.5584, 103.474
1.24754, -1, -10.3347, 7.80855, 18.7747, -152.268, -95.5408, 103.187
1.25575, -1, -10.4934, 7.76606, 18.7852, -152.318, -95.5236, 102.9
1.26438, -1, -10.6518, 7.72365, 18.7956, -152.367, -95.5066, 102.613
1.2716, -1, -10.81, 7.68119, 18.806, -152.416, -95.4896, 102.326
1.27996, -1, -10.9678, 7.63867, 18.8165, -152.466, -95.4724, 102.039
1.28841, -1, -11.1254, 7.5962, 18.8268, -152.515, -95.4551, 101.752
1.29556, -1, -11.2828, 7.55379, 18.8373, -152.564, -95.4374, 101.464
1.30414, -1, -11.4403, 7.51136, 18.8477, -152.614, -95.4196, 101.177
1.3124, -1, -11.598, 7.4689, 18.8582, -152.663, -95.402, 100.89
1.31953, -1, -11.7559, 7.42654, 18.8688, -152.712, -95.3847, 100.602
1.32851, -1, -11.9143, 7.38415, 18.8793, -152.762, -95.3674, 100.314
1.33651, -1, -12.073, 7.34181, 18.8899, -152.811, -95.3503, 100.027
1.34392, -1, -12.2321, 7.29948, 18.9004, -152.86, -95.333, 99.7388
1.3526, -1, -12.3917, 7.2571, 18.9109, -152.91, -95.3157, 99.4509
1.36102, -1, -12.5515, 7.2147, 18.9214, -152.959, -95.2979, 99.1631
1.3685, -1, -12.7115, 7.17234, 18.9319, -153.008, -95.28, 98.8755
1.3759, -1, -12.8717, 7.12993, 18.9424, -153.058, -95.2622, 98.5875
1.3855, -1, -13.0318, 7.08741, 18.953, -153.107, -95.2447, 98.2995
1.39233, -1, -13.1917, 7.04486, 18.9635, -153.157, -95.2274, 98.0116
1.40007, -1, -13.3513, 7.00232, 18.9741, -153.207, -95.2103, 97.7234
1.40963, -1, -13.5106, 6.95964, 18.9846, -153.256, -95.1932, 97.435
1.41618, -1, -13.6698, 6.91691, 18.9952, -153.305, -95.176, 97.1464
1.42402, -1, -13.7494, 6.89557, 19.0005, -153.33, -95.1673, 96.8579
1.43148, -1, -13.9083, 6.85291, 19.0109, -153.379, -95.1496, 96.7137
1.43953, -1, -14.0665, 6.81024, 19.0214, -153.429, -95.1318, 96.425
1.44749, -1, -14.2246, 6.76764, 19.0319, -153.478, -95.1142, 96.1362
1.45548, -1, -14.3828, 6.72501, 19.0424, -153.528, -95.0968, 95.8472
1.46353, -1, -14.5412, 6.68236, 19.0528, -153.577, -95.0795, 95.5584
1.47149, -1, -14.6998, 6.63984, 19.0634, -153.627, -95.0623, 95.2693
1.47949, -1, -14.8589, 6.59733, 19.0738, -153.676, -95.0452, 94.98
1.4876, -1, -15.0183, 6.55473, 19.0845, -153.726, -95.0279, 94.6909
1.49548, -1, -15.1781, 6.51214, 19.0952, -153.776, -95.0102, 94.4019
1.50348, -1, -15.3383, 6.46962, 19.1058, -153.825, -94.9922, 94.1128
1.51147, -1, -15.4986, 6.42698, 19.1164, -153.875, -94.9742, 93.8235
1.51948, -1, -15.6594, 6.38431, 19.1269, -153.925, -94.9566, 93.5343
1.5306, -1, -15.9005, 6.32023, 19.1428, -153.999, -94.9305, 93.1004
1.53551, -1, -15.9809, 6.29881, 19.1481, -154.024, -94.922, 92.9556
1.54348, -1, -16.1416, 6.25598, 19.1586, -154.074, -94.9049, 92.6658
1.55154, -1, -16.3024, 6.21316, 19.1691, -154.123, -94.8876, 92.3763
1.56109, -1, -16.4629, 6.1702, 19.1795, -154.173, -94.8702, 92.0867
1.56756, -1, -16.623, 6.12725, 19.19, -154.222, -94.8523, 91.7967
1.57554, -1, -16.7828, 6.08438, 19.2007, -154.272, -94.8344, 91.5067
1.58348, -1, -16.9423, 6.04143, 19.2112, -154.322, -94.8167, 91.2166
1.59149, -1, -17.1015, 5.99853, 19.2219, -154.372, -94.7992, 90.9265
1.59955, -1, -17.2605, 5.95567, 19.2325, -154.421, -94.7819, 90.6362
1.60749, -1, -17.4197, 5.91287, 19.243, -154.471, -94.7646, 90.346
1.61548, -1, -17.579, 5.87014, 19.2537, -154.521, -94.7471, 90.056
1.62354, -1, -17.7385, 5.8274, 19.2643, -154.57, -94.7295, 89.7657
1.63148, -1, -17.8981, 5.78464, 19.275, -154.621, -94.7116, 89.4754
1.63947, -1, -18.0582, 5.74187, 19.2856, -154.671, -94.6935, 89.1849
1.64755, -1, -18.2187, 5.69913, 19.2962, -154.72, -94.6755, 88.8945
1.65558, -1, -18.3796, 5.65638, 19.3068, -154.77, -94.6579, 88.6039
1.66354, -1, -18.541, 5.61348, 19.3175, -154.82, -94.6406, 88.313
1.67149, -1, -18.7026, 5.57049, 19.3282, -154.87, -94.6233, 88.0221
1.67948, -1, -18.8641, 5.52756, 19.3388, -154.92, -94.606, 87.7313
1.68755, -1, -19.0258, 5.48454, 19.3493, -154.97, -94.5885, 87.4401
1.69547, -1, -19.1873, 5.44144, 19.3599, -155.02, -94.5707, 87.1487
1.7035, -1, -19.3487, 5.39834, 19.3705, -155.07, -94.5526, 86.8575
1.71154, -1, -19.5099, 5.35522, 19.381, -155.12, -94.5346, 86.566
1.71948, -1, -19.6707, 5.31202, 19.3916, -155.169, -94.5169, 86.2745
1.72756, -1, -19.8313, 5.26893, 19.4022, -155.22, -94.4993, 85.9828
1.73558, -1, -19.9917, 5.22583, 19.4127, -155.27, -94.4819, 85.6914
1.74348, -1, -20.1517, 5.18275, 19.4235, -155.32, -94.4645, 85.4
1.75176, -1, -20.3115, 5.13985, 19.4343, -155.37, -94.447, 85.1083
1.75956, -1, -20.4716, 5.09691, 19.4451, -155.42, -94.4292, 84.8165
1.76757, -1, -20.6317, 5.05388, 19.4558, -155.47, -94.4112, 84.5249
1.77593, -1, -20.7919, 5.01097, 19.4663, -155.52, -94.3932, 84.233
1.78358, -1, -20.9527, 4.96811, 19.477, -155.57, -94.3755, 83.9409
1.7916, -1, -21.1138, 4.92506, 19.4877, -155.62, -94.3581, 83.6488
1.80012, -1, -21.2753, 4.88206, 19.4982, -155.671, -94.3408, 83.357
1.80749, -1, -21.4374, 4.83895, 19.5088, -155.721, -94.3237, 83.0647
1.8155, -1, -21.5995, 4.79574, 19.5194, -155.771, -94.3064, 82.7722
1.82432, -1, -21.7617, 4.75259, 19.5301, -155.822, -94.2888, 82.4797
1.83155, -1, -21.9241, 4.70933, 19.5408, -155.871, -94.271, 82.1872
1.83957, -1, -22.0865, 4.66597, 19.5516, -155.922, -94.253, 81.8945
1.84854, -1, -22.2489, 4.62265, 19.5623, -155.972, -94.2352, 81.6019
1.85572, -1, -22.4113, 4.57929, 19.5729, -156.022, -94.2177, 81.3093
1.86385, -1, -22.5731, 4.53595, 19.5836, -156.073, -94.2002, 81.0168
1.87275, -1, -22.7347, 4.49257, 19.5943, -156.123, -94.1828, 80.7239
1.87991, -1, -22.896, 4.44923, 19.6049, -156.173, -94.1653, 80.4308
1.88802, -1, -23.0571, 4.40598, 19.6156, -156.223, -94.1474, 80.1381
1.89684, -1, -23.2182, 4.36275, 19.6263, -156.273, -94.1293, 79.8451
1.9041, -1, -23.3791, 4.31952, 19.6371, -156.324, -94.111, 79.5517
1.91208, -1, -23.5399, 4.2763, 19.6479, -156.374, -94.093, 79.2583
1.92087, -1, -23.6204, 4.25468, 19.6587, -156.424, -94.0752, 78.965
1.92801, -1, -23.7816, 4.21147, 19.664, -156.45, -94.0664, 78.6716
1.93607, -1, -23.943, 4.16827, 19.6747, -156.5, -94.0489, 78.3778
1.94348, -1, -24.1048, 4.12492, 19.6854, -156.551, -94.0315, 78.2309
1.95146, -1, -24.2671, 4.08156, 19.6961, -156.601, -94.014, 77.9371
1.95952, -1, -24.4297, 4.03817, 19.7068, -156.652, -93.9962, 77.6432
1.96743, -1, -24.5926, 3.99473, 19.7173, -156.702, -93.978, 77.349
1.97547, -1, -24.7558, 3.95117, 19.728, -156.752, -93.9599, 77.0549
1.98352, -1, -24.9192, 3.90763, 19.7386, -156.803, -93.9421, 76.7609
1.99147, -1, -25.0826, 3.86409, 19.7494, -156.853, -93.9244, 76.467
1.99951, -1, -25.2458, 3.82051, 19.7603, -156.903, -93.9069, 76.1726
2.00746, -1, -25.4087, 3.77693, 19.7711, -156.954, -93.8894, 75.8783
2.01548, -1, -25.5714, 3.73329, 19.7818, -157.004, -93.8717, 75.5842
2.02353, -1, -25.734, 3.68967, 19.7925, -157.055, -93.8538, 75.2896
2.03147, -1, -25.8963, 3.64622, 19.8031, -157.105, -93.8356, 74.9949
2.03949, -1, -26.0585, 3.60273, 19.8139, -157.155, -93.8171, 74.7002
2.04752, -1, -26.2202, 3.55926, 19.8246, -157.206, -93.799, 74.4057
2.05704, -1, -26.3818, 3.5159, 19.8354, -157.257, -93.7811, 73.9633
2.06349, -1, -26.5437, 3.47248, 19.8461, -157.307, -93.7635, 73.8158
2.07246, -1, -26.7056, 3.42903, 19.8568, -157.358, -93.7459, 73.5208
2.07946, -1, -26.8678, 3.38557, 19.8676, -157.409, -93.7283, 73.2256
2.09085, -1, -27.1119, 3.32021, 19.8839, -157.485, -93.7013, 72.7827
2.09547, -1, -27.1934, 3.29842, 19.8893, -157.51, -93.6922, 72.6351
2.10347, -1, -27.3567, 3.25484, 19.9, -157.561, -93.6738, 72.34
2.11152, -1, -27.5204, 3.2111, 19.9107, -157.611, -93.6557, 72.0448
2.11947, -1, -27.6844, 3.16734, 19.9215, -157.662, -93.6379, 71.7491
2.12746, -1, -27.8484, 3.12369, 19.9323, -157.712, -93.6202, 71.4536
2.13553, -1, -28.0125, 3.07998, 19.9431, -157.763, -93.6025, 71.1582
2.14346, -1, -28.1766, 3.03624, 19.9539, -157.814, -93.5848, 70.8623
2.15146, -1, -28.3407, 2.99249, 19.9646, -157.865, -93.5668, 70.5664
2.15953, -1, -28.5046, 2.94878, 19.9754, -157.915, -93.5486, 70.2706
2.16745, -1, -28.6682, 2.90511, 19.9863, -157.966, -93.5301, 69.9746
2.17546, -1, -28.8317, 2.86144, 19.9971, -158.017, -93.5119, 69.6786
2.18352, -1, -28.9947, 2.81781, 20.0079, -158.068, -93.494, 69.3821
2.19147, -1, -29.1574, 2.77418, 20.0186, -158.119, -93.4763, 69.0858
2.19947, -1, -29.3201, 2.73055, 20.0294, -158.169, -93.4588, 68.7892
2.20754, -1, -29.4829, 2.68696, 20.0402, -158.221, -93.4411, 68.4925
2.21547, -1, -29.6457, 2.64324, 20.0509, -158.272, -93.4232, 68.1958
2.22356, -1, -29.8088, 2.5995, 20.0617, -158.322, -93.405, 67.8992
2.23153, -1, -29.972, 2.55577, 20.0725, -158.374, -93.3866, 67.6026
2.23953, -1, -30.1353, 2.51194, 20.0834, -158.424, -93.3683, 67.3056
2.24754, -1, -30.2992, 2.46797, 20.0943, -158.475, -93.3504, 67.0087
2.25551, -1, -30.4635, 2.42405, 20.1052, -158.526, -93.3326, 66.7118
2.26355, -1, -30.6283, 2.38011, 20.116, -158.577, -93.3149, 66.4147
2.27161, -1, -30.7933, 2.33612, 20.1267, -158.628, -93.2973, 66.1173
2.27961, -1, -30.9582, 2.29221, 20.1375, -158.679, -93.2793, 65.8202
2.28756, -1, -31.1232, 2.24821, 20.1484, -158.73, -93.2609, 65.523
2.29564, -1, -31.2881, 2.20426, 20.1592, -158.781, -93.2424, 65.2257
2.30353, -1, -31.4529, 2.16047, 20.17, -158.832, -93.224, 64.9279
2.31159, -1, -31.6175, 2.11654, 20.1807, -158.883, -93.206, 64.6302
2.31967, -1, -31.7819, 2.07258, 20.1916, -158.935, -93.1882, 64.3324
2.32749, -1, -31.946, 2.02876, 20.2025, -158.986, -93.1706, 64.0346
2.33564, -1, -32.1099, 1.98483, 20.2135, -159.036, -93.153, 63.7366
2.34364, -1, -32.2736, 1.9409, 20.2245, -159.088, -93.1352, 63.4387
2.35168, -1, -32.4372, 1.89697, 20.2353, -159.139, -93.117, 63.1408
2.36016, -1, -32.6009, 1.8529, 20.2462, -159.19, -93.0986, 62.8426
2.36776, -1, -32.7648, 1.80888, 20.2571, -159.242, -93.0803, 62.5444
2.37597, -1, -32.9288, 1.76482, 20.268, -159.293, -93.0623, 62.2463
2.3846, -1, -33.0931, 1.72064, 20.2789, -159.344, -93.0444, 61.9478
2.39195, -1, -33.2579, 1.67647, 20.2898, -159.395, -93.0266, 61.649
2.40055, -1, -33.4231, 1.63232, 20.3006, -159.446, -93.0087, 61.3505
2.40852, -1, -33.5886, 1.58813, 20.3115, -159.498, -92.9906, 61.0521
2.41605, -1, -33.7543, 1.54395, 20.3225, -159.549, -92.9723, 60.7534
2.4241, -1, -33.92, 1.49979, 20.3334, -159.6, -92.9536, 60.4542
2.432, -1, -34.0028, 1.4777, 20.3389, -159.626, -92.9443, 60.3047
2.4395, -1, -34.1687, 1.43361, 20.3497, -159.677, -92.9259, 60.0058
2.44751, -1, -34.3346, 1.38952, 20.3607, -159.729, -92.9077, 59.7064
2.45545, -1, -34.5005, 1.34534, 20.3716, -159.78, -92.8898, 59.4068
2.46353, -1, -34.6662, 1.30125, 20.3824, -159.832, -92.8721, 59.1075
2.47166, -1, -34.8313, 1.25716, 20.3933, -159.883, -92.8541, 58.8082
2.4795, -1, -34.9963, 1.21298, 20.4042, -159.934, -92.8361, 58.5087
2.48745, -1, -35.161, 1.16881, 20.4152, -159.986, -92.8176, 58.2089
2.49549, -1, -35.3255, 1.12455, 20.4262, -160.037, -92.7991, 57.9093
2.50346, -1, -35.4897, 1.08043, 20.4373, -160.089, -92.7808, 57.6096
2.51145, -1, -35.6523, 1.03665, 20.4486, -160.14, -92.7627, 57.3098
2.51955, -1, -35.8122, 0.993362, 20.46, -160.191, -92.7448, 57.0112
2.52744, -1, -35.9683, 0.951173, 20.4717, -160.242, -92.7271, 56.7155
2.53545, -1, -36.1194, 0.91054, 20.4836, -160.291, -92.7096, 56.4255
2.54507, -1, -36.2632, 0.853822, 20.5014, -160.362, -92.6841, 56.0105
2.55144, -1, -36.3974, 0.836386, 20.5071, -160.384, -92.676, 55.8806
2.5595, -1, -36.5206, 0.803891, 20.5178, -160.425, -92.6607, 55.6382
2.56848, -1, -36.631, 0.77467, 20.5271, -160.461, -92.6472, 55.4234
2.57552, -1, -36.7272, 0.749303, 20.5347, -160.492, -92.6359, 55.2413
2.58447, -1, -36.8087, 0.72767, 20.54, -160.517, -92.6269, 55.0941
2.59152, -1, -36.8762, 0.709731, 20.5431, -160.537, -92.6202, 54.9821
2.59956, -1, -36.9308, 0.695396, 20.5445, -160.551, -92.6156, 54.9021
2.60745, -1, -36.9727, 0.684394, 20.5449, -160.56, -92.6126, 54.8477
2.61548, -1, -37.0034, 0.676286, 20.5446, -160.566, -92.6108, 54.8144
2.62345, -1, -37.0246, 0.670704, 20.5441, -160.569, -92.6098, 54.7952
2.63144, -1, -37.038, 0.667364, 20.5437, -160.571, -92.6093, 54.7855
2.63954, 2, -37.0455, 0.665579, 20.5435, -160.572, -92.6091, 54.7809
2.64744, 2, -37.0484, 0.664759, 20.5434, -160.572, -92.609, 54.7788
2.65546, 2, -37.0486, 0.664406, 20.5433, -160.573, -92.6089, 54.7779
2.66352, 2, -37.0481, 0.664259, 20.5433, -160.573, -92.6089, 54.7774
2.67144, 2, -37.0479, 0.664214, 20.5433, -160.573, -92.6089, 54.7772
2.6795, 2, -37.0482, 0.664156, 20.5433, -160.573, -92.609, 54.7773
2.68751, 2, -37.0491, 0.664124, 20.5432, -160.573, -92.609, 54.7773
2.69544, 2, -37.0502, 0.664014, 20.5431, -160.573, -92.609, 54.7774
2.70345, 2, -37.0515, 0.663784, 20.5429, -160.573, -92.609, 54.7775
2.71153, 2, -37.0528, 0.663551, 20.5427, -160.573, -92.609, 54.7777
2.71951, 2, -37.054, 0.663319, 20.5425, -160.573, -92.6091, 54.7779
2.72745, 2, -37.0549, 0.663116, 20.5423, -160.573, -92.6092, 54.7781
2.73551, 2, -37.0554, 0.663005, 20.5422, -160.573, -92.6092, 54.7783
2.74353, 2, -37.0554, 0.662971, 20.542, -160.573, -92.6092, 54.7784
2.75147, 2, -37.0548, 0.662993, 20.5419, -160.573, -92.6092, 54.7787
2.75959, 2, -37.0539, 0.663059, 20.5418, -160.573, -92.6093, 54.7789
2.76752, 2, -37.0529, 0.663137, 20.5417, -160.573, -92.6093, 54.7792
2.77554, 2, -37.0513, 0.663234, 20.5417, -160.573, -92.6093, 54.7794
2.78361, 2, -37.0498, 0.66337, 20.5416, -160.573, -92.6094, 54.7796
2.79155, 2, -37.0487, 0.663432, 20.5415, -160.573, -92.6094, 54.7798
2.7996, 2, -37.048, 0.663457, 20.5415, -160.573, -92.6094, 54.7798
2.80762, 2, -37.0477, 0.66345, 20.5415, -160.573, -92.6094, 54.7799
2.81545, 2, -37.0477, 0.663402, 20.5415, -160.573, -92.6095, 54.78
2.82348, 2, -37.0479, 0.663318, 20.5415, -160.573, -92.6095, 54.78
2.83154, 2, -37.0481, 0.663256, 20.5414, -160.573, -92.6095, 54.7801
2.83959, 2, -37.0486, 0.663217, 20.5414, -160.573, -92.6095, 54.78
2.8479, 2, -37.0493, 0.663184, 20.5414, -160.573, -92.6095, 54.7801
2.85569, 2, -37.0502, 0.663159, 20.5414, -160.573, -92.6095, 54.7802
2.86372, 2, -37.051, 0.663176, 20.5414, -160.573, -92.6095, 54.7802
2.87211, 2, -37.0515, 0.663209, 20.5413, -160.573, -92.6095, 54.7802
2.88046, 2, -37.0517, 0.663232, 20.5413, -160.573, -92.6095, 54.7803
2.88789, 2, -37.0517, 0.663278, 20.5413, -160.573, -92.6095, 54.7804
2.89654, 2, -37.0517, 0.663281, 20.5413, -160.573, -92.6095, 54.7804
2.90405, 2, -37.0514, 0.663282, 20.5413, -160.573, -92.6096, 54.7805
2.91205, 2, -37.0509, 0.663282, 20.5413, -160.573, -92.6096, 54.7805
2.92028, 2, -37.0507, 0.663263, 20.5413, -160.573, -92.6096, 54.7805
2.92805, 2, -37.0505, 0.663269, 20.5413, -160.573, -92.6096, 54.7805
2.93598, 2, -37.0503, 0.663266, 20.5413, -160.573, -92.6096, 54.7805
2.94424, 2, -37.0501, 0.663197, 20.5413, -160.573, -92.6096, 54.7806
2.95148, 2, -37.0501, 0.663181, 20.5413, -160.573, -92.6096, 54.7806
2.95949, 2, -37.0501, 0.663175, 20.5413, -160.573, -92.6096, 54.7807
2.96835, 2, -37.0501, 0.663191, 20.5413, -160.573, -92.6096, 54.7808
2.97548, 2, -37.0502, 0.663179, 20.5413, -160.573, -92.6096, 54.7808
2.98344, 2, -37.0503, 0.663203, 20.5412, -160.573, -92.6097, 54.7809
2.99143, 2, -37.0505, 0.663234, 20.5412, -160.573, -92.6097, 54.7809
2.99953, 2, -37.0507, 0.663248, 20.5413, -160.573, -92.6097, 54.7809
3.00743, 2, -37.0508, 0.663262, 20.5412, -160.573, -92.6097, 54.781
3.01744, 2, -37.0508, 0.663276, 20.5412, -160.572, -92.6097, 54.7811
3.02348, 2, -37.0508, 0.663279, 20.5412, -160.573, -92.6097, 54.7811
3.03143, 2, -37.0508, 0.663281, 20.5412, -160.572, -92.6097, 54.7812
3.04137, 2, -37.0508, 0.663254, 20.5412, -160.572, -92.6097, 54.7812
3.04751, 2, -37.0507, 0.663238, 20.5412, -160.572, -92.6098, 54.7812
3.05705, 2, -37.0507, 0.663212, 20.5411, -160.572, -92.6098, 54.7813
3.06344, 2, -37.0507, 0.663208, 20.5411, -160.572, -92.6098, 54.7813
3.07149, 2, -37.0507, 0.663213, 20.5411, -160.572, -92.6098, 54.7813
3.07956, 2, -37.0507, 0.6632, 20.5411, -160.572, -92.6098, 54.7814
3.08946, 2, -37.0507, 0.663233, 20.5411, -160.572, -92.6098, 54.7815
3.09549, 2, -37.0506, 0.663242, 20.5411, -160.572, -92.6098, 54.7815
3.10344, 2, -37.0506, 0.663259, 20.5411, -160.572, -92.6098, 54.7815
3.11142, 2, -37.0506, 0.663272, 20.5411, -160.572, -92.6098, 54.7816
3.11954, 2, -37.0506, 0.663278, 20.5411, -160.572, -92.6098, 54.7816
3.12743, 2, -37.0506, 0.663281, 20.5411, -160.572, -92.6098, 54.7816
3.13543, 2, -37.0506, 0.663282, 20.5411, -160.572, -92.6098, 54.7817
3.1435, 2, -37.0506, 0.663282, 20.5411, -160.572, -92.6098, 54.7817
3.15143, 2, -37.0506, 0.663283, 20.5411, -160.572, -92.6099, 54.7817
3.15948, 2, -37.0506, 0.663283, 20.5411, -160.572, -92.6099, 54.7817
3.16749, 2, -37.0505, 0.663263, 20.5411, -160.572, -92.6099, 54.7818
3.17543, 2, -37.0505, 0.663262, 20.5411, -160.572, -92.6099, 54.7818
3.18343, 2, -37.0505, 0.663261, 20.5411, -160.572, -92.6098, 54.7819
3.1915, 2, -37.0505, 0.663268, 20.541, -160.572, -92.6098, 54.7818
3.19948, 2, -37.0505, 0.663276, 20.541, -160.572, -92.6098, 54.7819
3.20742, 2, -37.0505, 0.66328, 20.541, -160.572, -92.6098, 54.7819
3.21551, 2, -37.0505, 0.663282, 20.541, -160.572, -92.6099, 54.782
3.22343, 2, -37.0505, 0.663282, 20.541, -160.572, -92.6099, 54.782
3.23143, 2, -37.0505, 0.663283, 20.541, -160.572, -92.6099, 54.7821
3.23954, 2, -37.0505, 0.663283, 20.541, -160.572, -92.6098, 54.7821
3.2475, 2, -37.0505, 0.663283, 20.541, -160.572, -92.6098, 54.7821
3.25545, 2, -37.0505, 0.663283, 20.541, -160.572, -92.6098, 54.7821
3.26356, 2, -37.0504, 0.663283, 20.541, -160.572, -92.6098, 54.7822
3.27162, 2, -37.0504, 0.663271, 20.541, -160.572, -92.6099, 54.7822
3.27957, 2, -37.0504, 0.663265, 20.541, -160.572, -92.6099, 54.7822
3.28758, 2, -37.0504, 0.663275, 20.541, -160.572, -92.6099, 54.7822
3.29552, 2, -37.0504, 0.663279, 20.5409, -160.572, -92.6099, 54.7823
3.30354, 2, -37.0504, 0.663281, 20.5409, -160.572, -92.6099, 54.7823
3.3116, 2, -37.0504, 0.663282, 20.5409, -160.572, -92.61, 54.7824
3.3195, 2, -37.0503, 0.663283, 20.5409, -160.572, -92.6099, 54.7824
3.32755, 2, -37.0504, 0.663283, 20.5409, -160.572, -92.61, 54.7823
3.33559, 2, -37.0503, 0.663283, 20.5409, -160.572, -92.6099, 54.7824
3.34353, 2, -37.0503, 0.663283, 20.5409, -160.572, -92.6099, 54.7824
3.35158, 2, -37.0503, 0.663283, 20.5409, -160.572, -92.6099, 54.7825
3.35982, 2, -37.0503, 0.663283, 20.5409, -160.572, -92.6099, 54.7825
3.36769, 2, -37.0503, 0.663283, 20.5409, -160.572, -92.6099, 54.7824
3.37593, 2, -37.0503, 0.663283, 20.5409, -160.572, -92.6099, 54.7825
3.38444, 2, -37.0502, 0.663283, 20.5409, -160.572, -92.61, 54.7825
3.39188, 2, -37.0502, 0.663283, 20.5409, -160.572, -92.6099, 54.7825
3.40052, 2, -37.0502, 0.663283, 20.5409, -160.572, -92.6099, 54.7825
3.40815, 2, -37.0502, 0.663283, 20.5409, -160.572, -92.6099, 54.7825
3.41602, 2, -37.0502, 0.663283, 20.5408, -160.572, -92.6099, 54.7825
3.42417, 2, -37.0502, 0.663283, 20.5408, -160.572, -92.6099, 54.7825
3.43211, 2, -37.0502, 0.663301, 20.5408, -160.572, -92.61, 54.7825
3.44, 2, -37.0502, 0.663295, 20.5408, -160.572, -92.61, 54.7825
3.44741, 2, -37.0502, 0.663289, 20.5408, -160.572, -92.61, 54.7825
3.45621, 2, -37.0502, 0.663297, 20.5408, -160.572, -92.61, 54.7825
3.46342, 2, -37.0501, 0.663297, 20.5408, -160.572, -92.61, 54.7825
3.47141, 2, -37.0501, 0.663289, 20.5408, -160.572, -92.61, 54.7825
3.47953, 2, -37.0501, 0.663304, 20.5408, -160.572, -92.61, 54.7825
3.48741, 2, -37.0501, 0.663293, 20.5408, -160.572, -92.61, 54.7825
3.49541, 2, -37.0501, 0.663287, 20.5408, -160.572, -92.61, 54.7825
3.50347, 2, -37.0501, 0.663285, 20.5408, -160.572, -92.61, 54.7826
3.51141, 2, -37.05, 0.663284, 20.5408, -160.572, -92.61, 54.7826
3.52139, 2, -37.05, 0.663283, 20.5407, -160.572, -92.61, 54.7826
3.52747, 2, -37.05, 0.663294, 20.5407, -160.572, -92.61, 54.7826
3.53541, 2, -37.05, 0.663306, 20.5407, -160.572, -92.61, 54.7826
3.54502, 2, -37.05, 0.663326, 20.5407, -160.572, -92.61, 54.7827
3.55148, 2, -37.05, 0.66333, 20.5407, -160.572, -92.61, 54.7827
3.56102, 2, -37.05, 0.663317, 20.5407, -160.572, -92.61, 54.7827
3.56741, 2, -37.0499, 0.663299, 20.5407, -160.572, -92.61, 54.7827
3.57641, 2, -37.0499, 0.66329, 20.5407, -160.572, -92.61, 54.7827
3.5835, 2, -37.0499, 0.663297, 20.5407, -160.572, -92.61, 54.7828
3.5924, 2, -37.0499, 0.663297, 20.5407, -160.572, -92.61, 54.7828
3.59953, 2, -37.0499, 0.663308, 20.5407, -160.572, -92.61, 54.7828
3.60741, 2, -37.0499, 0.663336, 20.5407, -160.572, -92.6101, 54.7828
3.61541, 2, -37.0499, 0.663333, 20.5407, -160.572, -92.6101, 54.7828
3.62349, 2, -37.0499, 0.663317, 20.5407, -160.572, -92.6101, 54.7828
3.63141, 2, -37.0498, 0.663335, 20.5407, -160.572, -92.6101, 54.7828
3.63973, 2, -37.0498, 0.663351, 20.5407, -160.572, -92.6101, 54.7829
3.64852, 2, -37.0498, 0.663363, 20.5407, -160.572, -92.6101, 54.7829
3.65547, 2, -37.0497, 0.663369, 20.5407, -160.572, -92.6101, 54.7829
3.66342, 2, -37.0497, 0.663364, 20.5407, -160.572, -92.6101, 54.7829
3.67141, 2, -37.0497, 0.663346, 20.5407, -160.572, -92.6101, 54.7829
3.67952, 2, -37.0497, 0.663341, 20.5406, -160.572, -92.6101, 54.7828
3.68741, 2, -37.0497, 0.663346, 20.5406, -160.572, -92.6101, 54.7828
3.69541, 2, -37.0497, 0.663349, 20.5406, -160.572, -92.6101, 54.7828
3.70349, 2, -37.0497, 0.66335, 20.5406, -160.572, -92.6101, 54.7829
3.71141, 4, -37.0496, 0.663358, 20.5406, -160.572, -92.6101, 54.7829
3.71948, 4, -37.0496, 0.663366, 20.5406, -160.572, -92.6101, 54.7829
3.72748, 4, -37.0496, 0.663382, 20.5406, -160.572, -92.6101, 54.7829
3.73541, 4, -37.0496, 0.663378, 20.5406, -160.572, -92.6101, 54.7828
3.74342, 4, -37.0496, 0.66338, 20.5406, -160.571, -92.6101, 54.7829
3.75155, 4, -37.0496, 0.663384, 20.5406, -160.571, -92.6102, 54.7829
3.7595, 4, -37.0495, 0.663378, 20.5406, -160.571, -92.6102, 54.7829
3.76748, 4, -37.0495, 0.663388, 20.5406, -160.571, -92.6101, 54.7829
3.77557, 4, -37.0495, 0.663392, 20.5406, -160.571, -92.6102, 54.7829
3.78351, 4, -37.0495, 0.663394, 20.5405, -160.571, -92.6102, 54.7828
3.79151, 4, -37.0495, 0.663383, 20.5405, -160.571, -92.6101, 54.7829
3.79966, 4, -37.0495, 0.66339, 20.5405, -160.571, -92.6101, 54.7829
3.80762, 4, -37.0495, 0.663381, 20.5405, -160.571, -92.6101, 54.7829
3.83354, 4, -37.0494, 0.663384, 20.5405, -160.571, -92.6101, 54.7829
3.83553, 4, -37.0494, 0.663388, 20.5405, -160.571, -92.6101, 54.7829
3.83697, 4, -37.0494, 0.663388, 20.5405, -160.571, -92.6101, 54.7829
3.83959, 4, -37.0494, 0.66339, 20.5404, -160.571, -92.6101, 54.7829
3.84757, 4, -37.0494, 0.663381, 20.5404, -160.571, -92.6101, 54.7829
3.85557, 4, -37.0493, 0.663382, 20.5404, -160.571, -92.6102, 54.783
3.86371, 4, -37.0486, 0.663251, 20.5405, -160.571, -92.6102, 54.7829
3.87174, 4, -37.046, 0.662355, 20.5407, -160.571, -92.6102, 54.7829
3.8798, 4, -37.0406, 0.659967, 20.5414, -160.571, -92.6102, 54.7829
3.88792, 4, -37.0331, 0.655919, 20.5434, -160.571, -92.6102, 54.7829
3.89655, 4, -37.0244, 0.650455, 20.5471, -160.571, -92.6102, 54.7829
3.90406, 4, -37.0141, 0.643341, 20.5533, -160.569, -92.6102, 54.7829
3.91198, 5, -37.0016, 0.634067, 20.5624, -160.567, -92.6101, 54.7829
3.92017, 5, -36.9876, 0.622871, 20.5744, -160.565, -92.61, 54.7828
3.92799, 5, -36.9803, 0.610088, 20.5892, -160.562, -92.6099, 54.7827
3.93605, 5, -36.9649, 0.595936, 20.6062, -160.558, -92.6098, 54.7827
3.94342, 5, -36.9477, 0.588205, 20.6153, -160.556, -92.6097, 54.7826
3.95139, 5, -36.9279, 0.571162, 20.6346, -160.552, -92.6095, 54.7826
3.96147, 5, -36.8936, 0.542721, 20.6652, -160.546, -92.6092, 54.7823
3.96736, 5, -36.8814, 0.532968, 20.6754, -160.544, -92.6091, 54.7823
3.97545, 5, -36.8562, 0.513243, 20.696, -160.539, -92.6089, 54.7822
3.98341, 5, -36.8307, 0.493019, 20.7169, -160.535, -92.6086, 54.7821
3.9914, 5, -36.805, 0.472693, 20.7377, -160.53, -92.6081, 54.782
3.99951, 5, -36.7791, 0.452525, 20.7587, -160.525, -92.6077, 54.7818
4.00739, 5, -36.7535, 0.432197, 20.7797, -160.521, -92.6072, 54.7816
4.01689, 5, -36.7151, 0.401811, 20.8111, -160.514, -92.6064, 54.7813
4.02517, 5, -36.6896, 0.381685, 20.8322, -160.509, -92.6058, 54.7811
4.033, 5, -36.664, 0.361509, 20.8532, -160.504, -92.6053, 54.781
4.04098, 5, -36.6384, 0.341517, 20.8743, -160.499, -92.6047, 54.7808
4.04746, 5, -36.6256, 0.331549, 20.8848, -160.497, -92.6043, 54.7807
4.05702, 5, -36.6001, 0.301518, 20.9163, -160.49, -92.6034, 54.7805
4.0634, 5, -36.5747, 0.291536, 20.9269, -160.488, -92.6031, 54.7804
4.07238, 5, -36.5493, 0.271551, 20.948, -160.483, -92.6024, 54.7803
4.08043, 5, -36.524, 0.251344, 20.9691, -160.479, -92.6017, 54.7803
4.08751, 5, -36.4987, 0.231099, 20.9902, -160.474, -92.601, 54.7802
4.09639, 5, -36.4732, 0.210939, 21.0111, -160.47, -92.6003, 54.7801
4.1044, 5, -36.4474, 0.190723, 21.032, -160.466, -92.5998, 54.7801
4.11146, 5, -36.4215, 0.170453, 21.053, -160.461, -92.5992, 54.78
4.11945, 5, -36.3954, 0.150319, 21.0739, -160.457, -92.5985, 54.7798
4.12739, 5, -36.3693, 0.13016, 21.0949, -160.453, -92.5978, 54.7796
4.13546, 5, -36.3435, 0.109887, 21.1159, -160.448, -92.5972, 54.7793
4.14339, 5, -36.3176, 0.0898877, 21.1368, -160.444, -92.5965, 54.7791
4.15145, 5, -36.2917, 0.0698909, 21.1577, -160.44, -92.5958, 54.7788
4.15953, 5, -36.2659, 0.0497889, 21.1786, -160.436, -92.5952, 54.7784
4.16739, 5, -36.2399, 0.029874, 21.1995, -160.432, -92.5946, 54.7781
4.17539, 5, -36.214, 0.00993665, 21.2205, -160.427, -92.594, 54.7776
4.18346, 5, -36.1882, -0.0101586, 21.2413, -160.423, -92.5934, 54.7773
4.19139, 5, -36.1625, -0.0300976, 21.2622, -160.419, -92.5927, 54.7768
4.19946, 5, -36.1368, -0.050024, 21.2831, -160.414, -92.592, 54.7764
4.20746, 5, -36.111, -0.0701128, 21.3039, -160.41, -92.5914, 54.7759
4.21545, 5, -36.085, -0.090066, 21.3248, -160.405, -92.5908, 54.7754
4.22341, 5, -36.0589, -0.110031, 21.3455, -160.401, -92.5902, 54.7749
4.23147, 5, -36.033, -0.130135, 21.3661, -160.396, -92.5896, 54.7744
4.23945, 5, -36.0069, -0.150166, 21.3869, -160.391, -92.589, 54.774
4.24739, 5, -35.9808, -0.170049, 21.4075, -160.386, -92.5884, 54.7736
4.25563, 5, -35.9548, -0.190045, 21.4284, -160.381, -92.5877, 54.7731
4.26342, 5, -35.9286, -0.209963, 21.4491, -160.377, -92.5871, 54.7727
4.27147, 5, -35.9024, -0.229728, 21.4697, -160.372, -92.5865, 54.7723
4.27967, 5, -35.8763, -0.249664, 21.4904, -160.367, -92.5859, 54.7719
4.28748, 5, -35.8503, -0.269557, 21.511, -160.362, -92.5853, 54.7715
4.2955, 5, -35.8242, -0.289212, 21.5316, -160.357, -92.5846, 54.7712
4.30394, 5, -35.7982, -0.30904, 21.5523, -160.352, -92.5841, 54.7709
4.31145, 5, -35.772, -0.328936, 21.5728, -160.347, -92.5835, 54.7705
4.32016, 5, -35.7459, -0.348667, 21.5934, -160.343, -92.5829, 54.7702
4.32749, 5, -35.72, -0.368522, 21.614, -160.338, -92.5824, 54.7701
4.33545, 5, -35.6939, -0.388432, 21.6345, -160.333, -92.5818, 54.7699
4.34465, 5, -35.6678, -0.408147, 21.655, -160.329, -92.5812, 54.7697
4.35237, 5, -35.6417, -0.42794, 21.6754, -160.324, -92.5806, 54.7695
4.35967, 5, -35.6154, -0.447784, 21.6957, -160.32, -92.58, 54.7694
4.36851, 5, -35.589, -0.467508, 21.7162, -160.315, -92.5795, 54.7692
4.3757, 5, -35.5628, -0.487326, 21.7365, -160.311, -92.5789, 54.7692
4.38382, 5, -35.5366, -0.507131, 21.7569, -160.306, -92.5782, 54.7691
4.39287, 5, -35.5104, -0.526752, 21.7773, -160.302, -92.5777, 54.7691
4.39996, 5, -35.4841, -0.546376, 21.7976, -160.297, -92.5772, 54.769
4.40846, 5, -35.4578, -0.566094, 21.8179, -160.293, -92.5765, 54.7689
4.41682, 5, -35.4315, -0.585634, 21.8381, -160.288, -92.5759, 54.7689
4.424, 5, -35.4053, -0.605174, 21.8583, -160.284, -92.5753, 54.7688
4.43247, 5, -35.379, -0.624938, 21.8787, -160.279, -92.5747, 54.7688
4.44102, 5, -35.3659, -0.634757, 21.8987, -160.275, -92.5742, 54.7687
4.44838, 5, -35.3265, -0.663941, 21.9189, -160.27, -92.5736, 54.7687
4.45544, 5, -35.3133, -0.673774, 21.9291, -160.268, -92.5733, 54.7687
4.46338, 5, -35.2868, -0.693504, 21.9492, -160.263, -92.5727, 54.7688
4.47138, 5, -35.2604, -0.713009, 21.9694, -160.258, -92.5722, 54.7688
4.47948, 5, -35.2339, -0.732557, 21.9897, -160.253, -92.5715, 54.7689
4.48738, 5, -35.2075, -0.752228, 22.0096, -160.248, -92.5709, 54.7689
4.49667, 5, -35.1678, -0.78126, 22.0395, -160.241, -92.5701, 54.7688
4.50336, 5, -35.1545, -0.790949, 22.0496, -160.238, -92.5698, 54.7688
4.51368, 5, -35.1147, -0.82012, 22.0796, -160.23, -92.5689, 54.7688
4.51952, 5, -35.1015, -0.829742, 22.0896, -160.228, -92.5686, 54.7689
4.52738, 5, -35.0751, -0.849092, 22.1097, -160.223, -92.5681, 54.7689
4.5354, 5, -35.0486, -0.868631, 22.1295, -160.218, -92.5675, 54.769
4.54494, 5, -35.0091, -0.897715, 22.1594, -160.21, -92.5666, 54.769
4.553, 5, -34.9825, -0.917073, 22.1792, -160.205, -92.566, 54.769
4.56182, 5, -34.9692, -0.926824, 22.1891, -160.203, -92.5654, 54.769
4.56744, 5, -34.9429, -0.946257, 22.209, -160.198, -92.5651, 54.7691
4.57641, 5, -34.9164, -0.965532, 22.2288, -160.193, -92.5645, 54.7691
4.58437, 5, -34.8899, -0.984891, 22.2486, -160.188, -92.5639, 54.7691
4.59239, 5, -34.8633, -1.00431, 22.2685, -160.184, -92.5633, 54.7691
4.60041, 5, -34.8367, -1.0235, 22.2882, -160.179, -92.5627, 54.7692
4.608, 5, -34.8099, -1.04262, 22.308, -160.174, -92.5621, 54.7693
4.61759, 5, -34.7833, -1.07157, 22.3377, -160.167, -92.5612, 54.7694
4.62337, 5, -34.7566, -1.08114, 22.3474, -160.165, -92.5609, 54.7694
4.63216, 5, -34.7299, -1.10027, 22.367, -160.161, -92.5603, 54.7694
4.63943, 5, -34.7034, -1.11959, 22.3867, -160.156, -92.5597, 54.7695
4.64738, 5, -34.6766, -1.13882, 22.4063, -160.152, -92.5591, 54.7696
4.65992, 5, -34.6363, -1.16754, 22.4359, -160.145, -92.5582, 54.7698
4.66337, 5, -34.623, -1.17716, 22.4456, -160.142, -92.5579, 54.7698
4.67143, 5, -34.5963, -1.19633, 22.4652, -160.138, -92.5573, 54.77
4.67943, 5, -34.5695, -1.21549, 22.4847, -160.133, -92.5567, 54.7702
4.68737, 5, -34.5429, -1.23476, 22.5042, -160.128, -92.5561, 54.7704
4.69545, 5, -34.5162, -1.25393, 22.5236, -160.124, -92.5555, 54.7707
4.70342, 5, -34.4894, -1.27298, 22.5431, -160.119, -92.5548, 54.771
4.71152, 5, -34.4627, -1.29203, 22.5626, -160.114, -92.5542, 54.7715
4.71949, 5, -34.4358, -1.3111, 22.582, -160.109, -92.5536, 54.772
4.72739, 5, -34.4089, -1.33004, 22.6015, -160.104, -92.553, 54.7726
4.73537, 5, -34.382, -1.34899, 22.6209, -160.099, -92.5523, 54.7732
4.74344, 5, -34.355, -1.3681, 22.6403, -160.093, -92.5517, 54.7739
4.75139, 5, -34.3281, -1.38708, 22.6598, -160.088, -92.551, 54.7748
4.75952, 5, -34.3013, -1.40595, 22.6791, -160.083, -92.5504, 54.7757
4.76749, 5, -34.2743, -1.42501, 22.6983, -160.077, -92.5498, 54.7766
4.77551, 5, -34.2475, -1.44404, 22.7177, -160.072, -92.5493, 54.7778
4.78347, 5, -34.2205, -1.4629, 22.7369, -160.067, -92.5486, 54.779
4.79154, 5, -34.1934, -1.48188, 22.7562, -160.061, -92.548, 54.7801
4.79953, 5, -34.1665, -1.50092, 22.7755, -160.056, -92.5473, 54.7814
4.80767, 5, -34.1396, -1.5197, 22.7947, -160.051, -92.5466, 54.7826
4.81635, 5, -34.1127, -1.53853, 22.814, -160.046, -92.546, 54.7839
4.82338, 5, -34.0859, -1.5575, 22.8331, -160.041, -92.5454, 54.7851
4.83142, 5, -34.059, -1.5762, 22.8521, -160.036, -92.5448, 54.7865
4.83952, 5, -34.0319, -1.59495, 22.8713, -160.031, -92.5441, 54.7878
4.84745, 5, -34.0049, -1.6139, 22.8905, -160.026, -92.5434, 54.7892
4.85658, 5, -33.9778, -1.63263, 22.9095, -160.022, -92.5428, 54.7905
4.86356, 5, -33.9507, -1.65127, 22.9288, -160.017, -92.5422, 54.7918
4.87171, 5, -33.9236, -1.6701, 22.9478, -160.012, -92.5415, 54.7931
4.87978, 5, -33.8965, -1.68883, 22.9668, -160.007, -92.5409, 54.7945
4.88785, 5, -33.8693, -1.70741, 22.9859, -160.002, -92.5403, 54.7959
4.89643, 5, -33.8422, -1.72613, 23.0049, -159.997, -92.5396, 54.7973
4.90392, 5, -33.8151, -1.74493, 23.0237, -159.993, -92.539, 54.7986
4.91188, 5, -33.788, -1.76353, 23.0426, -159.988, -92.5383, 54.7999
4.92053, 5, -33.7608, -1.7821, 23.0615, -159.983, -92.5377, 54.8013
4.92801, 5, -33.7335, -1.80087, 23.0804, -159.978, -92.537, 54.8026
4.93598, 5, -33.7199, -1.81024, 23.0993, -159.972, -92.5363, 54.804
4.94436, 5, -33.6792, -1.83808, 23.1182, -159.967, -92.5357, 54.8053
4.95138, 5, -33.6657, -1.84739, 23.1276, -159.965, -92.5353, 54.806
4.96079, 5, -33.625, -1.87546, 23.1558, -159.957, -92.5343, 54.8081
4.96739, 5, -33.6115, -1.88471, 23.1652, -159.954, -92.534, 54.8088
4.97738, 5, -33.5705, -1.91245, 23.1931, -159.946, -92.533, 54.8108
4.98336, 5, -33.5568, -1.92182, 23.2025, -159.943, -92.5327, 54.8115
4.9914, 5, -33.5295, -1.94033, 23.2213, -159.937, -92.532, 54.8129
5.00334, 5, -33.4886, -1.96811, 23.2494, -159.929, -92.531, 54.815
5.0073, 5, -33.475, -1.97749, 23.2588, -159.927, -92.5306, 54.8157
5.01682, 5, -33.434, -2.00544, 23.2868, -159.918, -92.5296, 54.8177
5.02485, 5, -33.4066, -2.02406, 23.3055, -159.913, -92.5289, 54.819
5.03137, 5, -33.3929, -2.03347, 23.315, -159.91, -92.5285, 54.8197
5.03936, 5, -33.3657, -2.05232, 23.3338, -159.905, -92.5276, 54.8209
5.04894, 5, -33.325, -2.08054, 23.362, -159.897, -92.5261, 54.8225
5.05824, 5, -33.298, -2.09972, 23.381, -159.892, -92.5249, 54.8232
5.06338, 5, -33.2845, -2.10935, 23.3906, -159.889, -92.5242, 54.8235
5.07144, 6, -33.2573, -2.12852, 23.4097, -159.883, -92.5227, 54.824
5.07936, 6, -33.2303, -2.14788, 23.4291, -159.878, -92.5209, 54.8243
5.08834, 6, -33.2036, -2.16759, 23.4487, -159.872, -92.5191, 54.8244
5.0955, 6, -33.1768, -2.18737, 23.4682, -159.866, -92.517, 54.8245
5.10435, 6, -33.1501, -2.20734, 23.488, -159.86, -92.5147, 54.8245
5.1124, 6, -33.1236, -2.22765, 23.5079, -159.854, -92.5122, 54.8244
5.11936, 6, -33.0969, -2.24806, 23.5278, -159.848, -92.5095, 54.8243
5.12735, 6, -33.0704, -2.26856, 23.5481, -159.841, -92.5066, 54.8241
5.13535, 6, -33.0441, -2.28939, 23.5684, -159.834, -92.5036, 54.8237
5.14343, 6, -33.0179, -2.31027, 23.5889, -159.827, -92.5004, 54.8232
5.15136, 6, -32.9916, -2.3314, 23.6095, -159.82, -92.4971, 54.8226
5.15935, 6, -32.9655, -2.35286, 23.6303, -159.812, -92.4935, 54.8217
5.16743, 6, -32.9392, -2.37435, 23.6513, -159.805, -92.4897, 54.8208
5.17548, 7, -32.9132, -2.39598, 23.6722, -159.796, -92.4859, 54.8199
5.18357, 7, -32.8874, -2.4179, 23.6933, -159.788, -92.4819, 54.8187
5.19242, 7, -32.8615, -2.43987, 23.7146, -159.78, -92.4777, 54.817
5.20048, 7, -32.8358, -2.46212, 23.736, -159.771, -92.4734, 54.8148
5.20834, 7, -32.8101, -2.48468, 23.7577, -159.763, -92.4688, 54.8118
5.21535, 7, -32.7844, -2.50727, 23.7795, -159.755, -92.4641, 54.8083
5.22496, 7, -32.7588, -2.5301, 23.8013, -159.746, -92.4592, 54.8044
5.23138, 7, -32.7335, -2.55316, 23.8233, -159.738, -92.4543, 54.8001
5.23942, 7, -32.7081, -2.57639, 23.8454, -159.729, -92.449, 54.7956
5.24737, 7, -32.6829, -2.59989, 23.8677, -159.721, -92.4435, 54.7906
5.25546, 7, -32.6578, -2.6235, 23.8902, -159.712, -92.4379, 54.7855
5.26382, 7, -32.6326, -2.6473, 23.9127, -159.703, -92.4321, 54.78
5.2714, 7, -32.6075, -2.67127, 23.9355, -159.694, -92.426, 54.7742
5.28024, 7, -32.5826, -2.69542, 23.9584, -159.685, -92.4197, 54.7682
5.28779, 8, -32.5576, -2.71997, 23.9815, -159.675, -92.413, 54.7619
5.29545, 8, -32.5329, -2.74452, 24.0046, -159.665, -92.4062, 54.7554
5.30347, 8, -32.5082, -2.76925, 24.0278, -159.655, -92.399, 54.7487
5.31222, 8, -32.4835, -2.79428, 24.0512, -159.644, -92.3915, 54.7417
5.31936, 8, -32.4588, -2.81934, 24.0748, -159.634, -92.3837, 54.7345
5.32736, 8, -32.4343, -2.84473, 24.0986, -159.623, -92.3756, 54.727
5.33595, 8, -32.4099, -2.87026, 24.1224, -159.613, -92.3673, 54.7193
5.34441, 8, -32.3855, -2.89591, 24.1464, -159.602, -92.3588, 54.7113
5.35149, 8, -32.3613, -2.92184, 24.1705, -159.592, -92.3503, 54.7031
5.36056, 8, -32.3372, -2.94795, 24.1947, -159.581, -92.3417, 54.6945
5.36755, 8, -32.3129, -2.97433, 24.2193, -159.571, -92.333, 54.6856
5.37603, 8, -32.2889, -3.00072, 24.2438, -159.56, -92.3243, 54.6765
5.38473, 8, -32.2651, -3.02743, 24.2685, -159.549, -92.3154, 54.667
5.39174, 8, -32.2412, -3.05421, 24.2934, -159.537, -92.3065, 54.6573
5.40051, 9, -32.2174, -3.08123, 24.3184, -159.526, -92.2975, 54.6475
5.40813, 9, -32.1939, -3.10856, 24.3435, -159.514, -92.2883, 54.6375
5.41589, 9, -32.1702, -3.13596, 24.3687, -159.502, -92.2788, 54.6276
5.42445, 9, -32.1465, -3.16361, 24.394, -159.489, -92.269, 54.6174
5.43207, 9, -32.1231, -3.19139, 24.4196, -159.477, -92.2589, 54.6072
5.43992, 9, -32.1114, -3.20541, 24.4325, -159.471, -92.2485, 54.597
5.4479, 9, -32.088, -3.23359, 24.4582, -159.459, -92.2431, 54.5918
5.45642, 9, -32.0531, -3.27614, 24.497, -159.44, -92.2264, 54.5761
5.46336, 9, -32.0415, -3.29047, 24.51, -159.434, -92.2207, 54.5707
5.47135, 9, -32.0183, -3.31917, 24.5362, -159.422, -92.2094, 54.5598
5.48132, 9, -31.9835, -3.36267, 24.5756, -159.403, -92.1922, 54.543
5.48734, 9, -31.9721, -3.37721, 24.5889, -159.396, -92.1864, 54.5373
5.4955, 9, -31.9493, -3.40652, 24.6155, -159.383, -92.1749, 54.5257
5.50593, 9, -31.9265, -3.45088, 24.6558, -159.363, -92.1573, 54.5074
5.51279, 10, -31.8925, -3.48076, 24.6827, -159.349, -92.1455, 54.4948
5.51935, 10, -31.8812, -3.49572, 24.6961, -159.342, -92.1395, 54.4884
5.52979, 10, -31.8472, -3.54095, 24.7369, -159.322, -92.121, 54.4685
5.53534, 10, -31.8359, -3.55611, 24.7506, -159.315, -92.1146, 54.4618
5.54553, 10, -31.8024, -3.60207, 24.7919, -159.294, -92.0949, 54.4414
5.5514, 10, -31.7913, -3.61741, 24.8057, -159.288, -92.0881, 54.4346
5.55935, 10, -31.7691, -3.64831, 24.8334, -159.274, -92.0743, 54.421
5.56888, 10, -31.747, -3.67942, 24.8614, -159.26, -92.0606, 54.4006
5.57541, 10, -31.7251, -3.71081, 24.8894, -159.245, -92.0467, 54.3938
5.58438, 10, -31.703, -3.74225, 24.9175, -159.231, -92.033, 54.38
5.59233, 10, -31.6809, -3.77386, 24.9459, -159.216, -92.0192, 54.3659
5.59965, 10, -31.659, -3.80568, 24.9745, -159.201, -92.0054, 54.3516
5.60733, 10, -31.6371, -3.83781, 25.0031, -159.186, -91.9914, 54.337
5.61531, 11, -31.6152, -3.87004, 25.0317, -159.171, -91.9771, 54.322
5.62335, 11, -31.5935, -3.90249, 25.0606, -159.156, -91.9624, 54.3067
5.63134, 11, -31.572, -3.93516, 25.0898, -159.141, -91.9473, 54.2908
5.63942, 11, -31.5504, -3.96816, 25.1189, -159.126, -91.9317, 54.2747
5.64741, 11, -31.5287, -4.00121, 25.1482, -159.11, -91.9161, 54.2584
5.65534, 11, -31.5073, -4.03453, 25.1776, -159.094, -91.9004, 54.2422
5.66335, 11, -31.486, -4.06809, 25.2073, -159.078, -91.8848, 54.226
5.6714, 11, -31.4647, -4.10189, 25.237, -159.062, -91.8691, 54.2097
5.67935, 11, -31.4435, -4.13581, 25.2668, -159.045, -91.8533, 54.1933
5.68735, 11, -31.4224, -4.16988, 25.2969, -159.029, -91.8371, 54.1767
5.69541, 11, -31.4014, -4.2043, 25.3272, -159.013, -91.8207, 54.1598
5.70336, 11, -31.3804, -4.2389, 25.3574, -158.997, -91.8037, 54.1426
5.71133, 11, -31.3594, -4.27363, 25.3878, -158.98, -91.7863, 54.1249
5.71956, 11, -31.3387, -4.30856, 25.4185, -158.964, -91.7688, 54.1066
5.72838, 12, -31.318, -4.34379, 25.4492, -158.947, -91.7514, 54.088
5.73536, 12, -31.2973, -4.3792, 25.48, -158.929, -91.7341, 54.0694
5.74342, 12, -31.2769, -4.41475, 25.511, -158.912, -91.7167, 54.0509
5.75155, 12, -31.2566, -4.45054, 25.5423, -158.894, -91.6993, 54.0324
5.75935, 12, -31.2362, -4.48653, 25.5736, -158.877, -91.6815, 54.0138
5.76757, 12, -31.2158, -4.52265, 25.605, -158.86, -91.6632, 53.995
5.7754, 12, -31.1956, -4.559, 25.6366, -158.842, -91.6445, 53.9761
5.78343, 12, -31.1755, -4.59557, 25.6684, -158.824, -91.6255, 53.9567
5.79222, 12, -31.1554, -4.63229, 25.7002, -158.806, -91.6067, 53.9368
5.79974, 12, -31.1353, -4.66915, 25.7322, -158.788, -91.588, 53.9165
5.80744, 12, -31.1154, -4.70633, 25.7644, -158.769, -91.5691, 53.8958
5.81647, 12, -31.0956, -4.74365, 25.7967, -158.751, -91.55, 53.8753
5.82429, 12, -31.0757, -4.78125, 25.829, -158.732, -91.5304, 53.8549
5.83135, 12, -31.0558, -4.81909, 25.8616, -158.714, -91.5103, 53.8344
5.84033, 13, -31.036, -4.85707, 25.8943, -158.696, -91.4898, 53.8136
5.84738, 13, -31.0164, -4.89523, 25.9272, -158.677, -91.4693, 53.7928
5.85543, 13, -30.9968, -4.93376, 25.9602, -158.658, -91.4491, 53.7716
5.86614, 13, -30.9773, -4.97241, 25.9935, -158.639, -91.4288, 53.7499
5.8724, 13, -30.958, -5.01124, 26.0267, -158.619, -91.4085, 53.7277
5.87965, 13, -30.9388, -5.05032, 26.0602, -158.6, -91.3877, 53.7053
5.88774, 13, -30.9195, -5.08955, 26.0939, -158.581, -91.3663, 53.6831
5.8958, 13, -30.9002, -5.12894, 26.1276, -158.561, -91.3446, 53.6609
5.90447, 13, -30.8811, -5.1686, 26.1615, -158.542, -91.3229, 53.6385
5.91195, 13, -30.8621, -5.20846, 26.1956, -158.522, -91.3014, 53.6159
5.92078, 13, -30.8431, -5.24839, 26.2298, -158.501, -91.2798, 53.5929
5.92788, 13, -30.8242, -5.28854, 26.2641, -158.481, -91.258, 53.5693
5.93645, 13, -30.8055, -5.329, 26.2987, -158.461, -91.2358, 53.5454
5.94494, 14, -30.7869, -5.36955, 26.3334, -158.441, -91.213, 53.5212
5.95433, 14, -30.7683, -5.41026, 26.368, -158.421, -91.1899, 53.4974
5.95936, 14, -30.759, -5.43076, 26.3854, -158.411, -91.1785, 53.4856
5.96732, 14, -30.7404, -5.47193, 26.4204, -158.39, -91.1558, 53.462
5.97535, 14, -30.7218, -5.51325, 26.4556, -158.369, -91.1331, 53.4381
5.9834, 14, -30.7034, -5.55482, 26.4907, -158.348, -91.1102, 53.4138
5.99129, 14, -30.6849, -5.59668, 26.526, -158.326, -91.0867, 53.3889
5.99938, 14, -30.6667, -5.6386, 26.5616, -158.305, -91.0626, 53.3634
6.00732, 14, -30.6486, -5.68082, 26.5972, -158.284, -91.0384, 53.3375
6.01533, 14, -30.6305, -5.7233, 26.6331, -158.263, -91.0142, 53.3118
6.02339, 14, -30.6125, -5.76585, 26.6691, -158.242, -90.9902, 53.2861
6.03292, 14, -30.5854, -5.83012, 26.7232, -158.208, -90.9536, 53.2476
6.04135, 14, -30.5675, -5.87324, 26.7596, -158.186, -90.9284, 53.2214
6.04736, 14, -30.5586, -5.89483, 26.7779, -158.175, -90.9157, 53.2082
6.05698, 15, -30.532, -5.95985, 26.8326, -158.143, -90.8779, 53.1676
6.06494, 15, -30.5232, -5.98162, 26.8694, -158.121, -90.8528, 53.1405
6.07141, 15, -30.5057, -6.0253, 26.8879, -158.11, -90.8403, 53.127
6.08105, 15, -30.4883, -6.06919, 26.925, -158.087, -90.8022, 53.0864
6.08732, 15, -30.4709, -6.11327, 26.9621, -158.064, -90.7892, 53.0728
6.09539, 15, -30.4534, -6.15757, 26.9994, -158.041, -90.7629, 53.0456
6.10341, 15, -30.436, -6.20206, 27.0368, -158.018, -90.7368, 53.0176
6.1123, 15, -30.4187, -6.2468, 27.0743, -157.995, -90.7107, 52.9891
6.1194, 15, -30.4017, -6.29182, 27.1121, -157.972, -90.6845, 52.9604
6.12733, 15, -30.3845, -6.337, 27.1499, -157.949, -90.6577, 52.9321
6.13553, 15, -30.3675, -6.38246, 27.1878, -157.925, -90.6303, 52.9036
6.14333, 15, -30.3507, -6.42826, 27.226, -157.901, -90.6029, 52.8751
6.15132, 15, -30.334, -6.47417, 27.2643, -157.878, -90.5757, 52.8459
6.15957, 15, -30.3173, -6.52028, 27.3027, -157.854, -90.5486, 52.8162
6.16994, 16, -30.2921, -6.58984, 27.3606, -157.819, -90.5072, 52.7714
6.17632, 16, -30.2838, -6.6131, 27.38, -157.807, -90.4931, 52.7566
6.18432, 16, -30.2672, -6.65984, 27.419, -157.782, -90.4647, 52.727
6.19131, 16, -30.2506, -6.70672, 27.4581, -157.757, -90.4365, 52.6973
6.19934, 16, -30.2342, -6.75366, 27.4973, -157.733, -90.4085, 52.6672
6.20896, 16, -30.2177, -6.80093, 27.5367, -157.709, -90.3801, 52.6366
6.21532, 16, -30.2014, -6.84833, 27.5763, -157.685, -90.351, 52.6053
6.2234, 16, -30.1852, -6.89587, 27.616, -157.66, -90.3215, 52.5744
6.23132, 16, -30.1691, -6.94371, 27.656, -157.634, -90.2923, 52.5438
6.23944, 16, -30.153, -6.99171, 27.6958, -157.609, -90.2631, 52.513
6.24738, 16, -30.1368, -7.03999, 27.7359, -157.584, -90.2339, 52.4818
6.25532, 16, -30.1208, -7.0885, 27.7762, -157.559, -90.2038, 52.45
6.26682, 16, -30.0968, -7.16174, 27.8366, -157.522, -90.1585, 52.4019
6.27155, 17, -30.0889, -7.1863, 27.8569, -157.509, -90.1435, 52.3861
6.27941, 17, -30.0732, -7.23556, 27.8976, -157.482, -90.1136, 52.3546
6.28747, 17, -30.0575, -7.28498, 27.9384, -157.457, -90.0832, 52.3228
6.29543, 17, -30.0419, -7.33462, 27.9793, -157.431, -90.0521, 52.2905
6.30343, 17, -30.0264, -7.38445, 28.0203, -157.406, -90.0209, 52.2575
6.31142, 17, -30.011, -7.43442, 28.0614, -157.379, -89.9901, 52.2242
6.31948, 17, -29.9957, -7.48447, 28.1029, -157.353, -89.9593, 52.1913
6.32759, 17, -29.9802, -7.53474, 28.1444, -157.326, -89.928, 52.1583
6.33549, 17, -29.9649, -7.58516, 28.186, -157.299, -89.896, 52.125
6.34343, 17, -29.9497, -7.63572, 28.2279, -157.273, -89.8642, 52.0913
6.35144, 17, -29.9345, -7.68649, 28.2698, -157.247, -89.8326, 52.0571
6.36026, 17, -29.9195, -7.73753, 28.3119, -157.22, -89.8009, 52.023
6.36756, 17, -29.9044, -7.78883, 28.3542, -157.192, -89.7683, 51.9891
6.37573, 17, -29.8895, -7.84029, 28.3964, -157.165, -89.7354, 51.955
6.38473, 18, -29.8747, -7.89207, 28.439, -157.138, -89.7029, 51.9204
6.39279, 18, -29.86, -7.94411, 28.4815, -157.111, -89.6706, 51.8851
6.39983, 18, -29.8453, -7.99634, 28.5242, -157.083, -89.6378, 51.8498
6.40878, 18, -29.8306, -8.04876, 28.5671, -157.054, -89.6042, 51.8148
6.41583, 18, -29.8159, -8.10136, 28.6101, -157.027, -89.571, 51.7799
6.42442, 18, -29.8014, -8.1542, 28.6534, -156.999, -89.5379, 51.7444
6.43247, 18, -29.7868, -8.20706, 28.6966, -156.971, -89.5045, 51.7082
6.43992, 18, -29.7724, -8.26009, 28.7402, -156.943, -89.4701, 51.672
6.44809, 18, -29.7652, -8.28669, 28.7839, -156.914, -89.4357, 51.636
6.45533, 18, -29.7508, -8.33991, 28.8058, -156.9, -89.4187, 51.6181
6.46336, 18, -29.7365, -8.39326, 28.8496, -156.872, -89.3848, 51.5822
6.47268, 18, -29.7154, -8.47369, 28.9158, -156.829, -89.3331, 51.5273
6.47947, 18, -29.7084, -8.50062, 28.9379, -156.815, -89.3155, 51.5087
6.4888, 18, -29.6943, -8.55471, 29.0044, -156.771, -89.2633, 51.4534
6.49533, 19, -29.6803, -8.60898, 29.0266, -156.756, -89.246, 51.4351
6.5034, 19, -29.6662, -8.66359, 29.0711, -156.727, -89.211, 51.3985
6.51136, 19, -29.6521, -8.71844, 29.1158, -156.698, -89.1751, 51.3614
6.5193, 19, -29.6383, -8.77352, 29.1604, -156.67, -89.1395, 51.3238
6.52949, 19, -29.6177, -8.85655, 29.2279, -156.625, -89.0865, 51.2679
6.53536, 19, -29.6109, -8.88433, 29.2505, -156.61, -89.0688, 51.2493
6.54495, 19, -29.5905, -8.96778, 29.3184, -156.566, -89.0145, 51.193
6.55132, 19, -29.5837, -8.99568, 29.3411, -156.551, -88.9965, 51.1739
6.55937, 19, -29.5703, -9.05158, 29.3865, -156.521, -88.9606, 51.1353
6.56926, 19, -29.557, -9.13558, 29.4552, -156.475, -88.9062, 51.0776
6.57532, 19, -29.5437, -9.16365, 29.4781, -156.46, -88.8877, 51.0584
6.58622, 19, -29.5239, -9.24824, 29.5471, -156.415, -88.8326, 51.0002
6.59131, 19, -29.5172, -9.27653, 29.5702, -156.4, -88.8144, 50.9805
6.59937, 19, -29.504, -9.33322, 29.6165, -156.369, -88.7779, 50.9408
6.60943, 20, -29.4844, -9.41891, 29.6861, -156.322, -88.7217, 50.8819
6.6153, 20, -29.4779, -9.44762, 29.7093, -156.307, -88.7031, 50.8623
6.62337, 20, -29.465, -9.50521, 29.7559, -156.276, -88.666, 50.8226
6.63142, 20, -29.4521, -9.56296, 29.8026, -156.245, -88.6286, 50.7822
6.6393, 20, -29.4393, -9.62101, 29.8494, -156.214, -88.5904, 50.7417
6.6473, 20, -29.4265, -9.67922, 29.8964, -156.182, -88.5524, 50.7017
6.6553, 20, -29.4139, -9.73753, 29.9435, -156.15, -88.5148, 50.6615
6.6633, 20, -29.4014, -9.796, 29.9909, -156.119, -88.4768, 50.6209
6.67146, 20, -29.389, -9.85454, 30.0383, -156.088, -88.438, 50.5797
6.6793, 20, -29.3765, -9.91325, 30.086, -156.055, -88.3994, 50.5388
6.68731, 20, -29.3641, -9.97208, 30.1337, -156.023, -88.3611, 50.4982
6.69545, 20, -29.3516, -10.0311, 30.1816, -155.991, -88.3222, 50.4574
6.70345, 20, -29.3392, -10.0903, 30.2296, -155.96, -88.2826, 50.416
6.71228, 21, -29.3269, -10.1498, 30.2778, -155.927, -88.2436, 50.3743
6.72029, 21, -29.3147, -10.2095, 30.3261, -155.894, -88.2048, 50.333
6.7273, 21, -29.3025, -10.2695, 30.3744, -155.862, -88.1651, 50.2917
6.73538, 21, -29.2904, -10.3297, 30.4229, -155.829, -88.1253, 50.2499
6.74332, 21, -29.2783, -10.3901, 30.4714, -155.797, -88.086, 50.2077
6.75144, 21, -29.2663, -10.4506, 30.52, -155.763, -88.0465, 50.166
6.75931, 21, -29.2545, -10.5113, 30.5689, -155.73, -88.0059, 50.1245
6.7673, 21, -29.2426, -10.5722, 30.6179, -155.697, -87.9657, 50.0826
6.77621, 21, -29.2308, -10.633, 30.6671, -155.664, -87.9259, 50.04
6.78354, 21, -29.2191, -10.6941, 30.7164, -155.63, -87.8855, 49.9974
6.7914, 21, -29.2073, -10.7552, 30.7659, -155.596, -87.8445, 49.9552
6.80069, 21, -29.1954, -10.8165, 30.8154, -155.563, -87.804, 49.9128
6.80841, 21, -29.1838, -10.8781, 30.8651, -155.53, -87.7634, 49.8698
6.81546, 21, -29.1722, -10.9398, 30.915, -155.495, -87.7219, 49.8266
6.82387, 22, -29.1606, -11.0018, 30.965, -155.461, -87.6805, 49.7839
6.83132, 22, -29.1492, -11.064, 31.0151, -155.427, -87.6397, 49.7411
6.83957, 22, -29.1378, -11.1265, 31.0652, -155.393, -87.5984, 49.6979
6.85126, 22, -29.1208, -11.2204, 31.1406, -155.34, -87.5353, 49.632
6.85538, 22, -29.1152, -11.2518, 31.1658, -155.323, -87.5146, 49.6103
6.86341, 22, -29.1041, -11.3147, 31.2163, -155.288, -87.473, 49.5671
6.87218, 22, -29.0931, -11.3777, 31.267, -155.254, -87.4305, 49.5236
6.8796, 22, -29.0821, -11.4409, 31.3179, -155.219, -87.3882, 49.4792
6.88769, 22, -29.0711, -11.5042, 31.3688, -155.184, -87.3464, 49.4352
6.8965, 22, -29.0602, -11.5676, 31.42, -155.148, -87.3042, 49.3915
6.90375, 22, -29.0493, -11.6312, 31.4713, -155.114, -87.2612, 49.3475
6.91193, 22, -29.0383, -11.695, 31.5226, -155.078, -87.219, 49.303
6.92044, 22, -29.0275, -11.7591, 31.5741, -155.042, -87.1766, 49.2582
6.92818, 22, -29.0169, -11.8233, 31.6258, -155.006, -87.1332, 49.2141
6.93588, 23, -29.0061, -11.8877, 31.6774, -154.971, -87.09, 49.1698
6.94448, 23, -28.9954, -11.9523, 31.7291, -154.935, -87.0475, 49.1249
6.95199, 23, -28.9901, -11.9847, 31.781, -154.899, -87.0041, 49.0799
6.95928, 23, -28.9795, -12.0495, 31.807, -154.881, -86.9822, 49.0576
6.96728, 23, -28.9689, -12.1144, 31.8589, -154.845, -86.9389, 49.0133
6.97633, 23, -28.9531, -12.212, 31.9373, -154.791, -86.8738, 48.9459
6.98334, 23, -28.948, -12.2446, 31.9635, -154.772, -86.8516, 48.9231
6.99251, 23, -28.9326, -12.3426, 32.0422, -154.717, -86.7856, 48.8554
6.99929, 23, -28.9275, -12.3754, 32.0685, -154.699, -86.7638, 48.833
7.00867, 23, -28.9122, -12.474, 32.1476, -154.644, -86.6971, 48.7649
7.01528, 23, -28.9071, -12.5069, 32.174, -154.625, -86.6748, 48.742
7.0235, 23, -28.8971, -12.5729, 32.227, -154.588, -86.6307, 48.6964
7.03271, 23, -28.887, -12.6391, 32.3067, -154.533, -86.5636, 48.6286
7.03924, 24, -28.8769, -12.7055, 32.3332, -154.514, -86.5409, 48.6058
7.04737, 24, -28.8669, -12.772, 32.3864, -154.476, -86.4965, 48.5596
7.05688, 24, -28.852, -12.8719, 32.4664, -154.42, -86.4294, 48.4907
7.06592, 24, -28.842, -12.9387, 32.5198, -154.382, -86.384, 48.445
7.07356, 24, -28.8321, -13.0057, 32.5735, -154.344, -86.3393, 48.3989
7.07937, 24, -28.8272, -13.0393, 32.6004, -154.325, -86.3168, 48.3756
7.08832, 24, -28.8173, -13.1065, 32.6542, -154.287, -86.2711, 48.3292
7.09527, 24, -28.8075, -13.1739, 32.7082, -154.25, -86.2254, 48.2833
7.10335, 24, -28.7977, -13.2414, 32.7623, -154.211, -86.1805, 48.2373
7.11127, 24, -28.788, -13.3092, 32.8164, -154.173, -86.1349, 48.1906
7.11927, 24, -28.7785, -13.3771, 32.8707, -154.134, -86.0888, 48.144
7.12736, 24, -28.7689, -13.445, 32.925, -154.096, -86.0434, 48.0981
7.13527, 24, -28.7593, -13.5132, 32.9796, -154.058, -85.9975, 48.0519
7.14327, 24, -28.7499, -13.5814, 33.0341, -154.018, -85.951, 48.0052
7.15143, 25, -28.7405, -13.6497, 33.0887, -153.98, -85.9052, 47.9587
7.16026, 25, -28.731, -13.7182, 33.1435, -153.941, -85.8593, 47.9129
7.16832, 25, -28.7214, -13.7867, 33.1983, -153.902, -85.8126, 47.8668
7.17627, 25, -28.7121, -13.8555, 33.2532, -153.862, -85.7664, 47.8201
7.18429, 25, -28.7028, -13.9244, 33.3083, -153.824, -85.7201, 47.7734
7.19128, 25, -28.6935, -13.9935, 33.3635, -153.784, -85.673, 47.7274
7.19936, 25, -28.6841, -14.0628, 33.4188, -153.744, -85.6264, 47.6812
7.20728, 25, -28.675, -14.1321, 33.4742, -153.705, -85.5802, 47.6344
7.21527, 25, -28.6659, -14.2017, 33.5296, -153.665, -85.533, 47.5878
7.22337, 25, -28.6568, -14.2713, 33.5852, -153.625, -85.4862, 47.5417
7.23127, 25, -28.6476, -14.341, 33.6409, -153.585, -85.4396, 47.4954
7.23927, 25, -28.6386, -14.4108, 33.6967, -153.545, -85.3921, 47.4484
7.24755, 25, -28.6297, -14.4807, 33.7525, -153.505, -85.3449, 47.4015
7.25632, 25, -28.6209, -14.5507, 33.8084, -153.464, -85.2983, 47.3552
7.26429, 26, -28.612, -14.6209, 33.8643, -153.424, -85.2507, 47.3088
7.27137, 26, -28.6032, -14.6911, 33.9204, -153.384, -85.2032, 47.2618
7.27931, 26, -28.5944, -14.7616, 33.9766, -153.343, -85.1563, 47.215
7.28736, 26, -28.5857, -14.8322, 34.0329, -153.302, -85.1084, 47.1685
7.29565, 26, -28.5769, -14.9028, 34.0893, -153.262, -85.0604, 47.1221
7.30339, 26, -28.568, -14.9736, 34.1457, -153.221, -85.0132, 47.0752
7.31142, 26, -28.5591, -15.0445, 34.2023, -153.18, -84.9652, 47.0285
7.32017, 26, -28.5504, -15.1154, 34.259, -153.139, -84.9171, 46.9825
7.32727, 26, -28.5416, -15.1864, 34.3158, -153.098, -84.8695, 46.9363
7.33528, 26, -28.5328, -15.2574, 34.3725, -153.057, -84.8211, 46.8896
7.34528, 26, -28.5241, -15.3286, 34.4295, -153.015, -84.7728, 46.8434
7.35162, 26, -28.5155, -15.4, 34.4864, -152.974, -84.7251, 46.7978
7.36026, 26, -28.507, -15.4714, 34.5433, -152.932, -84.6769, 46.752
7.36924, 27, -28.4984, -15.5431, 34.6004, -152.89, -84.6283, 46.7054
7.37561, 27, -28.4898, -15.6148, 34.6576, -152.848, -84.5805, 46.659
7.38359, 27, -28.4812, -15.6867, 34.7147, -152.807, -84.5319, 46.613
7.39572, 27, -28.4687, -15.7947, 34.8008, -152.743, -84.4589, 46.5437
7.39967, 27, -28.4645, -15.8307, 34.8295, -152.722, -84.435, 46.5203
7.40776, 27, -28.4561, -15.9028, 34.887, -152.68, -84.3863, 46.474
7.41656, 27, -28.4478, -15.975, 34.9447, -152.638, -84.3374, 46.4281
7.42381, 27, -28.4395, -16.0473, 35.0023, -152.595, -84.289, 46.3819
7.43236, 27, -28.4312, -16.1196, 35.06, -152.553, -84.24, 46.3352
7.44087, 27, -28.4229, -16.192, 35.1177, -152.51, -84.1908, 46.2888
7.44852, 27, -28.4144, -16.2646, 35.1754, -152.467, -84.1424, 46.2429
7.45667, 27, -28.4102, -16.301, 35.2043, -152.446, -84.0933, 46.1969
7.46327, 27, -28.4017, -16.3737, 35.2622, -152.403, -84.0686, 46.1738
7.4725, 27, -28.3891, -16.483, 35.3491, -152.339, -83.9954, 46.1046
7.47928, 28, -28.3849, -16.5195, 35.3781, -152.317, -83.9709, 46.0819
7.48726, 28, -28.3766, -16.5925, 35.4363, -152.274, -83.9212, 46.0366
7.49526, 28, -28.3682, -16.6656, 35.4945, -152.232, -83.8722, 45.9911
7.50333, 28, -28.36, -16.7387, 35.5527, -152.188, -83.8235, 45.9451
7.51134, 28, -28.3518, -16.812, 35.611, -152.144, -83.7739, 45.8999
7.51925, 28, -28.3435, -16.8852, 35.6694, -152.102, -83.725, 45.8551
7.52726, 28, -28.3352, -16.9585, 35.7277, -152.058, -83.6759, 45.8101
7.53532, 28, -28.3269, -17.032, 35.7862, -152.014, -83.626, 45.7648
7.54327, 28, -28.3187, -17.1054, 35.8446, -151.97, -83.5769, 45.72
7.55373, 28, -28.3066, -17.2158, 35.9324, -151.904, -83.5028, 45.6535
7.55934, 28, -28.3025, -17.2526, 35.9617, -151.882, -83.4779, 45.6312
7.56912, 28, -28.2903, -17.3632, 36.0497, -151.816, -83.4042, 45.5642
7.57607, 28, -28.2864, -17.4001, 36.0791, -151.794, -83.3793, 45.5421
7.58328, 28, -28.2783, -17.4739, 36.1379, -151.75, -83.3291, 45.4984
7.59227, 29, -28.2702, -17.5479, 36.1968, -151.705, -83.2799, 45.4546
7.59933, 29, -28.262, -17.6219, 36.2558, -151.661, -83.2302, 45.4104
7.60726, 29, -28.2538, -17.6959, 36.3147, -151.617, -83.18, 45.3666
7.61743, 29, -28.2415, -17.807, 36.4031, -151.55, -83.1057, 45.3019
7.62328, 29, -28.2374, -17.8441, 36.4326, -151.528, -83.0805, 45.2803
7.63133, 29, -28.2292, -17.9182, 36.4916, -151.483, -83.0302, 45.2369
7.63926, 29, -28.2211, -17.9924, 36.5506, -151.438, -82.9808, 45.1933
7.64826, 29, -28.2129, -18.0667, 36.6097, -151.393, -82.9307, 45.1505
7.65628, 29, -28.2048, -18.141, 36.6689, -151.349, -82.8806, 45.108
7.66431, 29, -28.1968, -18.2153, 36.7281, -151.303, -82.8312, 45.0654
7.67225, 29, -28.1888, -18.2898, 36.7875, -151.258, -82.7809, 45.0226
7.67934, 29, -28.1806, -18.3643, 36.8468, -151.214, -82.7307, 44.9805
7.68726, 29, -28.1725, -18.4388, 36.9061, -151.168, -82.6814, 44.9388
7.69642, 30, -28.1646, -18.5134, 36.9655, -151.122, -82.6311, 44.8972
7.70326, 30, -28.1566, -18.5879, 37.0248, -151.077, -82.581, 44.8551
7.71126, 30, -28.1486, -18.6626, 37.0842, -151.031, -82.5315, 44.8132
7.71932, 30, -28.1406, -18.7373, 37.1435, -150.986, -82.4809, 44.7721
7.72726, 30, -28.1325, -18.8119, 37.2029, -150.94, -82.4308, 44.7313
7.73525, 30, -28.1245, -18.8867, 37.2623, -150.894, -82.3811, 44.6903
7.74326, 30, -28.1165, -18.9615, 37.3218, -150.848, -82.3306, 44.6492
7.75141, 30, -28.1083, -19.0363, 37.3813, -150.803, -82.2804, 44.6089
7.75926, 30, -28.1001, -19.1112, 37.4409, -150.757, -82.2305, 44.569
7.76726, 30, -28.0919, -19.1862, 37.5005, -150.71, -82.1798, 44.5292
7.77535, 30, -28.0837, -19.2612, 37.5601, -150.665, -82.1297, 44.4893
7.78352, 30, -28.0755, -19.3362, 37.6197, -150.619, -82.0799, 44.4494
7.79167, 30, -28.0673, -19.4112, 37.6793, -150.572, -82.0294, 44.4103
7.80024, 30, -28.059, -19.4862, 37.7389, -150.526, -81.9795, 44.3716
7.80771, 31, -28.0508, -19.5611, 37.7985, -150.48, -81.9296, 44.3329
7.81537, 31, -28.0426, -19.6361, 37.858, -150.433, -81.8789, 44.294
7.82348, 31, -28.0344, -19.711, 37.9177, -150.387, -81.8291, 44.2554
7.83192, 31, -28.0261, -19.7861, 37.9774, -150.341, -81.7793, 44.2178
7.84032, 31, -28.0177, -19.8612, 38.037, -150.294, -81.7287, 44.1805
7.84736, 31, -28.0094, -19.9363, 38.0968, -150.247, -81.679, 44.143
7.85597, 31, -28.0013, -20.0115, 38.1565, -150.201, -81.6288, 44.1053
7.86432, 31, -27.993, -20.0866, 38.2162, -150.153, -81.5782, 44.0679
7.87145, 31, -27.9846, -20.1618, 38.276, -150.106, -81.5284, 44.0314
7.88033, 31, -27.9763, -20.2369, 38.3356, -150.06, -81.4781, 43.9952
7.88753, 31, -27.968, -20.312, 38.3952, -150.012, -81.4277, 43.959
7.8957, 31, -27.9596, -20.3872, 38.4549, -149.965, -81.3778, 43.9226
7.90368, 31, -27.9512, -20.4624, 38.5145, -149.919, -81.3274, 43.8866
7.91204, 31, -27.9426, -20.5376, 38.5741, -149.871, -81.2771, 43.8515
7.92025, 32, -27.934, -20.6127, 38.6338, -149.824, -81.2275, 43.8166
7.9278, 32, -27.9255, -20.6879, 38.6934, -149.777, -81.1773, 43.7821
7.93584, 32, -27.9169, -20.7631, 38.753, -149.73, -81.1272, 43.7474
7.94436, 32, -27.9082, -20.8383, 38.8127, -149.682, -81.0776, 43.7128
7.95179, 32, -27.9039, -20.8759, 38.8425, -149.659, -81.0273, 43.6791
7.96037, 32, -27.8909, -20.9886, 38.932, -149.587, -80.9772, 43.6461
7.96725, 32, -27.8866, -21.0262, 38.9618, -149.564, -80.9525, 43.6297
7.97628, 32, -27.8735, -21.1388, 39.0512, -149.493, -80.8774, 43.5807
7.98326, 32, -27.8691, -21.1763, 39.0809, -149.469, -80.8523, 43.5644
7.99129, 32, -27.8603, -21.2513, 39.1404, -149.421, -80.8028, 43.5319
7.99932, 32, -27.8516, -21.3264, 39.1999, -149.374, -80.7529, 43.5002
8.00968, 32, -27.8385, -21.4389, 39.2892, -149.302, -80.6778, 43.4539
8.01746, 32, -27.8297, -21.5139, 39.3486, -149.254, -80.6284, 43.4234
8.0233, 32, -27.8252, -21.5513, 39.3784, -149.23, -80.6034, 43.4082
8.03125, 33, -27.8164, -21.6264, 39.4379, -149.183, -80.5532, 43.3777
8.04077, 33, -27.803, -21.7388, 39.527, -149.11, -80.4791, 43.3326
8.04882, 33, -27.7939, -21.8136, 39.5865, -149.063, -80.4288, 43.3036
8.05683, 33, -27.7847, -21.8885, 39.6459, -149.014, -80.3794, 43.2752
8.06324, 33, -27.7801, -21.9259, 39.6755, -148.99, -80.3548, 43.261
8.07131, 33, -27.7708, -22.0008, 39.7348, -148.943, -80.3051, 43.2329
8.08095, 33, -27.7617, -22.0755, 39.8236, -148.87, -80.2308, 43.1909
8.08824, 33, -27.7523, -22.1504, 39.8531, -148.846, -80.2063, 43.1769
8.09624, 33, -27.743, -22.2251, 39.9123, -148.799, -80.1565, 43.1494
8.1043, 33, -27.7338, -22.2998, 39.9715, -148.751, -80.1068, 43.1228
8.11224, 33, -27.7246, -22.3744, 40.0306, -148.702, -80.058, 43.0968
8.12032, 33, -27.7152, -22.4491, 40.0897, -148.654, -80.0084, 43.0715
8.12724, 33, -27.7058, -22.5236, 40.1488, -148.606, -79.959, 43.0464
8.13542, 34, -27.6963, -22.5981, 40.2079, -148.557, -79.9102, 43.0214
8.14559, 34, -27.6822, -22.7096, 40.2965, -148.485, -79.8354, 42.9841
8.15123, 34, -27.6774, -22.7468, 40.3259, -148.461, -79.8108, 42.972
8.15933, 34, -27.6679, -22.8212, 40.3848, -148.411, -79.7619, 42.9481
8.16724, 34, -27.6583, -22.8954, 40.4436, -148.364, -79.7121, 42.9251
8.17534, 34, -27.6487, -22.9697, 40.5022, -148.315, -79.6627, 42.9028
8.18338, 34, -27.639, -23.0439, 40.5609, -148.266, -79.6138, 42.881
8.19132, 34, -27.6291, -23.1181, 40.6195, -148.218, -79.5638, 42.8597
8.19924, 34, -27.6191, -23.1922, 40.6781, -148.17, -79.5146, 42.8385
8.20724, 34, -27.6091, -23.2662, 40.7366, -148.12, -79.4659, 42.8174
8.21531, 34, -27.599, -23.3403, 40.7951, -148.073, -79.4162, 42.7969
8.2233, 34, -27.5888, -23.4142, 40.8535, -148.024, -79.3672, 42.7769
8.23146, 34, -27.5787, -23.4881, 40.9119, -147.975, -79.3183, 42.7577
8.24274, 34, -27.5685, -23.5988, 40.9993, -147.903, -79.2439, 42.7305
8.24725, 35, -27.5583, -23.6357, 41.0284, -147.878, -79.2197, 42.7217
8.25535, 35, -27.548, -23.7094, 41.0865, -147.829, -79.1712, 42.7047
8.26328, 35, -27.5377, -23.7829, 41.1445, -147.781, -79.1216, 42.6881
8.27149, 35, -27.5274, -23.8564, 41.2024, -147.732, -79.0729, 42.6721
8.28173, 35, -27.517, -23.9298, 41.2603, -147.683, -79.0245, 42.6563
8.28738, 35, -27.5065, -24.0031, 41.3181, -147.635, -78.975, 42.641
8.29538, 35, -27.4959, -24.0764, 41.3759, -147.585, -78.9264, 42.626
8.30337, 35, -27.4853, -24.1494, 41.4338, -147.536, -78.8779, 42.6114
8.31142, 35, -27.4745, -24.2225, 41.4914, -147.488, -78.8288, 42.5975
8.31971, 35, -27.4636, -24.2956, 41.5491, -147.439, -78.7802, 42.5844
8.3273, 35, -27.4527, -24.3686, 41.6066, -147.39, -78.7318, 42.5717
8.33542, 35, -27.4415, -24.4415, 41.664, -147.342, -78.6827, 42.5598
8.34329, 35, -27.4302, -24.5142, 41.7213, -147.293, -78.6343, 42.5487
8.35135, 35, -27.4189, -24.5871, 41.7785, -147.244, -78.5863, 42.5381
8.36001, 36, -27.4076, -24.6597, 41.8356, -147.196, -78.5375, 42.5282
8.368, 36, -27.3961, -24.7322, 41.8926, -147.146, -78.4895, 42.5191
8.37623, 36, -27.3846, -24.8046, 41.9496, -147.098, -78.4416, 42.5104
8.38423, 36, -27.3732, -24.877, 42.0065, -147.049, -78.393, 42.5023
8.39151, 36, -27.3617, -24.9491, 42.0633, -147, -78.3451, 42.4947
8.39958, 36, -27.35, -25.0213, 42.1201, -146.951, -78.2974, 42.4877
8.40803, 36, -27.3383, -25.0933, 42.1768, -146.903, -78.249, 42.4812
8.41632, 36, -27.3264, -25.1654, 42.2333, -146.854, -78.2012, 42.4753
8.42405, 36, -27.3143, -25.2372, 42.2899, -146.805, -78.1537, 42.4698
8.43239, 36, -27.3022, -25.309, 42.3462, -146.757, -78.1054, 42.4652
8.44057, 36, -27.2902, -25.3806, 42.4024, -146.707, -78.0577, 42.4611
8.44784, 36, -27.2779, -25.4521, 42.4586, -146.659, -78.0104, 42.4576
8.45673, 36, -27.2656, -25.5234, 42.5145, -146.61, -77.9624, 42.4548
8.46576, 37, -27.2532, -25.5947, 42.5704, -146.561, -77.9149, 42.4527
8.47127, 37, -27.2469, -25.6302, 42.5984, -146.537, -77.8913, 42.4519
8.48036, 37, -27.228, -25.7368, 42.682, -146.464, -77.8197, 42.4503
8.48722, 37, -27.2218, -25.7723, 42.7098, -146.44, -77.7958, 42.45
8.49529, 37, -27.2093, -25.8432, 42.7655, -146.391, -77.7487, 42.4496
8.50478, 37, -27.1902, -25.9494, 42.8486, -146.319, -77.6777, 42.4495
8.51122, 37, -27.1838, -25.9847, 42.8762, -146.294, -77.654, 42.4495
8.51929, 37, -27.1708, -26.0553, 42.9315, -146.245, -77.6071, 42.4496
8.5287, 37, -27.151, -26.1607, 43.0141, -146.173, -77.5362, 42.4503
8.53524, 37, -27.1444, -26.1958, 43.0416, -146.149, -77.5124, 42.4507
8.54327, 37, -27.1311, -26.2658, 43.0964, -146.1, -77.4656, 42.4522
8.55377, 37, -27.1109, -26.3706, 43.1784, -146.028, -77.3952, 42.4577
8.55932, 37, -27.1042, -26.4055, 43.2056, -146.004, -77.3715, 42.4601
8.56882, 37, -27.0838, -26.51, 43.2873, -145.931, -77.3017, 42.4692
8.57788, 38, -27.07, -26.5795, 43.3415, -145.883, -77.2547, 42.4765
8.58342, 38, -27.0631, -26.6143, 43.3686, -145.859, -77.231, 42.4804
8.59226, 38, -27.0493, -26.6838, 43.4228, -145.81, -77.1843, 42.4892
8.60028, 38, -27.0353, -26.7529, 43.4766, -145.763, -77.1381, 42.4988
8.6083, 38, -27.0212, -26.822, 43.5304, -145.715, -77.091, 42.5093
8.61623, 38, -27.0069, -26.8909, 43.584, -145.666, -77.0444, 42.5205
8.6277, 38, -26.9851, -26.9938, 43.6643, -145.595, -76.9749, 42.539
8.63118, 38, -26.9779, -27.028, 43.691, -145.571, -76.9514, 42.5456
8.63928, 38, -26.9632, -27.0963, 43.7443, -145.522, -76.9046, 42.5593
8.64723, 38, -26.9485, -27.1645, 43.7973, -145.475, -76.859, 42.5741
8.65523, 38, -26.9335, -27.2325, 43.8502, -145.427, -76.8127, 42.5898
8.66329, 38, -26.9184, -27.3005, 43.903, -145.379, -76.7662, 42.6066
8.67126, 38, -26.9033, -27.3683, 43.9556, -145.333, -76.7206, 42.6244
8.67937, 38, -26.8881, -27.436, 44.008, -145.285, -76.6744, 42.6432
8.68764, 39, -26.8728, -27.5036, 44.0603, -145.237, -76.6279, 42.6627
8.69523, 39, -26.8572, -27.571, 44.1125, -145.19, -76.5824, 42.6828
8.70322, 39, -26.8414, -27.6382, 44.1643, -145.143, -76.5366, 42.7035
8.71129, 39, -26.8255, -27.7052, 44.2162, -145.095, -76.4901, 42.725
8.71922, 39, -26.8095, -27.7719, 44.2679, -145.048, -76.4447, 42.7472
8.72723, 39, -26.7935, -27.8385, 44.3195, -145.001, -76.3991, 42.7705
8.73532, 39, -26.7772, -27.9049, 44.3708, -144.953, -76.3527, 42.7949
8.74321, 39, -26.7608, -27.9712, 44.422, -144.907, -76.307, 42.8204
8.75137, 39, -26.7444, -28.0373, 44.4729, -144.86, -76.2617, 42.8466
8.75925, 39, -26.7278, -28.1034, 44.5236, -144.813, -76.2154, 42.8731
8.76723, 39, -26.7112, -28.1693, 44.5742, -144.767, -76.1697, 42.9003
8.77629, 39, -26.6943, -28.2349, 44.6247, -144.72, -76.1245, 42.9285
8.78507, 39, -26.6771, -28.3004, 44.675, -144.673, -76.0784, 42.9577
8.7913, 39, -26.6599, -28.3657, 44.7251, -144.627, -76.0328, 42.9884
8.8001, 40, -26.6425, -28.4307, 44.7751, -144.581, -75.988, 43.0199
8.80733, 40, -26.625, -28.4953, 44.8248, -144.534, -75.9425, 43.0519
8.81533, 40, -26.6073, -28.5598, 44.8745, -144.489, -75.8968, 43.0845
8.82584, 40, -26.5896, -28.624, 44.9239, -144.443, -75.8521, 43.1179
8.8314, 40, -26.5717, -28.6882, 44.9732, -144.397, -75.8069, 43.1525
8.83922, 40, -26.5538, -28.752, 45.0222, -144.351, -75.7611, 43.1883
8.84726, 40, -26.5356, -28.8158, 45.071, -144.306, -75.7165, 43.2248
8.85546, 40, -26.517, -28.8794, 45.1196, -144.26, -75.6718, 43.2618
8.86328, 40, -26.4984, -28.9429, 45.1679, -144.215, -75.6264, 43.2998
8.8714, 40, -26.4797, -29.0061, 45.2161, -144.17, -75.5816, 43.3392
8.88022, 40, -26.4607, -29.0692, 45.2641, -144.124, -75.5372, 43.3797
8.88749, 40, -26.4415, -29.1319, 45.312, -144.079, -75.4919, 43.4207
8.89557, 40, -26.4222, -29.1943, 45.3595, -144.035, -75.4469, 43.4622
8.90466, 41, -26.4028, -29.2566, 45.407, -143.99, -75.4027, 43.5049
8.91225, 41, -26.3832, -29.3186, 45.4542, -143.945, -75.358, 43.5492
8.91983, 41, -26.3632, -29.3802, 45.5011, -143.901, -75.3132, 43.5939
8.9287, 41, -26.3432, -29.4418, 45.548, -143.857, -75.2692, 43.6392
8.93579, 41, -26.323, -29.5032, 45.5946, -143.812, -75.2249, 43.6856
8.94435, 41, -26.3027, -29.5644, 45.6409, -143.769, -75.18, 43.7335
8.9524, 41, -26.2925, -29.6255, 45.6869, -143.725, -75.136, 43.7821
8.95973, 41, -26.2718, -29.6559, 45.7098, -143.703, -75.1143, 43.8066
8.96822, 41, -26.2406, -29.7469, 45.7783, -143.638, -75.0479, 43.8819
8.97526, 41, -26.2302, -29.7771, 45.8009, -143.617, -75.0258, 43.9078
8.98321, 41, -26.2089, -29.8372, 45.8461, -143.573, -74.9822, 43.9602
8.99122, 41, -26.1875, -29.897, 45.8911, -143.53, -74.9384, 44.0129
9.00074, 41, -26.1551, -29.9862, 45.9582, -143.466, -74.872, 44.095
9.00718, 41, -26.1443, -30.0158, 45.9805, -143.445, -74.8503, 44.123
9.01721, 42, -26.1112, -30.104, 46.0468, -143.381, -74.785, 44.2072
9.02329, 42, -26.1001, -30.1334, 46.0689, -143.36, -74.7629, 44.2359
9.03126, 42, -26.0778, -30.1919, 46.1127, -143.318, -74.7192, 44.2945
9.04077, 42, -26.0437, -30.2793, 46.1779, -143.255, -74.6542, 44.3835
9.04878, 42, -26.0208, -30.3372, 46.2211, -143.213, -74.61, 44.4445
9.05677, 42, -25.9978, -30.395, 46.264, -143.173, -74.5664, 44.5068
9.06487, 42, -25.9745, -30.4524, 46.3066, -143.131, -74.5235, 44.5694
9.07203, 42, -25.9629, -30.481, 46.3278, -143.111, -74.5017, 44.6011
9.0792, 42, -25.9393, -30.538, 46.3699, -143.07, -74.4577, 44.6661
9.08883, 42, -25.9154, -30.5945, 46.412, -143.03, -74.4146, 44.7314
9.0962, 42, -25.8911, -30.6507, 46.4536, -142.989, -74.3716, 44.7979
9.10322, 42, -25.8667, -30.7066, 46.4949, -142.949, -74.3279, 44.8663
9.11221, 42, -25.8423, -30.7623, 46.5361, -142.91, -74.2845, 44.9349
9.12034, 42, -25.8175, -30.8177, 46.577, -142.871, -74.242, 45.0051
9.12738, 43, -25.7927, -30.8727, 46.6175, -142.831, -74.199, 45.0767
9.1362, 43, -25.7677, -30.9277, 46.6578, -142.792, -74.1556, 45.1487
9.14426, 43, -25.7423, -30.9823, 46.6977, -142.754, -74.1131, 45.2227
9.15226, 43, -25.7166, -31.0367, 46.7373, -142.715, -74.0706, 45.2971
9.16019, 43, -25.6908, -31.0909, 46.7768, -142.677, -74.0272, 45.3726
9.17165, 43, -25.6514, -31.1715, 46.8352, -142.62, -73.9635, 45.4879
9.1752, 43, -25.6382, -31.1981, 46.8546, -142.602, -73.9425, 45.5267
9.18327, 43, -25.6117, -31.2511, 46.8932, -142.564, -73.8996, 45.606
9.19128, 43, -25.5849, -31.3037, 46.9314, -142.527, -73.8568, 45.6853
9.1992, 43, -25.5578, -31.356, 46.9693, -142.49, -73.8148, 45.7664
9.20728, 43, -25.5306, -31.4078, 47.0069, -142.454, -73.7724, 45.8481
9.2152, 43, -25.5032, -31.4594, 47.0441, -142.418, -73.7294, 45.9309
9.22336, 43, -25.4753, -31.5106, 47.081, -142.381, -73.6873, 46.0151
9.23158, 44, -25.4471, -31.5616, 47.1176, -142.346, -73.6455, 46.0998
9.2392, 44, -25.4185, -31.6123, 47.1537, -142.311, -73.6032, 46.1867
9.24721, 44, -25.3896, -31.6627, 47.1895, -142.277, -73.5608, 46.2738
9.25527, 44, -25.3608, -31.7129, 47.225, -142.242, -73.5192, 46.3632
9.26322, 44, -25.3317, -31.7626, 47.2601, -142.208, -73.4773, 46.4526
9.27122, 44, -25.3024, -31.812, 47.295, -142.174, -73.4349, 46.5441
9.27921, 44, -25.2727, -31.8609, 47.3295, -142.141, -73.3934, 46.636
9.28731, 44, -25.2427, -31.9095, 47.3635, -142.108, -73.3522, 46.7299
9.29533, 44, -25.2124, -31.9574, 47.3974, -142.075, -73.3103, 46.8239
9.30329, 44, -25.1818, -32.0051, 47.4309, -142.043, -73.2687, 46.9198
9.31138, 44, -25.151, -32.0523, 47.4638, -142.011, -73.2277, 47.0163
9.31963, 44, -25.1199, -32.099, 47.4965, -141.98, -73.1865, 47.1146
9.32733, 44, -25.0884, -32.1455, 47.5289, -141.948, -73.1447, 47.2136
9.33539, 44, -25.0568, -32.1915, 47.5607, -141.918, -73.1038, 47.3143
9.34418, 45, -25.0248, -32.2372, 47.5922, -141.888, -73.0633, 47.4161
9.35157, 45, -24.9926, -32.2827, 47.6234, -141.859, -73.0221, 47.519
9.35938, 45, -24.9598, -32.3276, 47.6541, -141.829, -72.981, 47.6231
9.36829, 45, -24.9268, -32.3722, 47.6843, -141.799, -72.9408, 47.7282
9.37549, 45, -24.8937, -32.4164, 47.7141, -141.771, -72.9003, 47.835
9.38346, 45, -24.8602, -32.46, 47.7437, -141.743, -72.8591, 47.9422
9.39349, 45, -24.8264, -32.5033, 47.7728, -141.716, -72.8187, 48.051
9.39961, 45, -24.7922, -32.546, 47.8014, -141.688, -72.7789, 48.1607
9.40757, 45, -24.7578, -32.5883, 47.8297, -141.661, -72.7385, 48.2717
9.41643, 45, -24.7231, -32.6301, 47.8577, -141.634, -72.698, 48.3842
9.42412, 45, -24.6881, -32.6713, 47.8851, -141.609, -72.6582, 48.4978
9.43178, 45, -24.6527, -32.7121, 47.9121, -141.584, -72.6186, 48.6127
9.44029, 45, -24.6169, -32.7525, 47.9386, -141.559, -72.5782, 48.7284
9.45, 45, -24.5809, -32.7923, 47.9649, -141.534, -72.5383, 48.8454
9.45637, 46, -24.5445, -32.8317, 47.9906, -141.51, -72.4992, 48.9637
9.46373, 46, -24.5262, -32.8513, 48.0032, -141.498, -72.4796, 49.0231
9.4725, 46, -24.4707, -32.9091, 48.0404, -141.464, -72.42, 49.2033
9.47919, 46, -24.452, -32.9281, 48.0525, -141.453, -72.4003, 49.2641
9.48822, 46, -24.3957, -32.9846, 48.0885, -141.421, -72.3422, 49.4483
9.49514, 46, -24.3767, -33.0031, 48.1003, -141.41, -72.3226, 49.5105
9.50441, 46, -24.3192, -33.0579, 48.1348, -141.378, -72.2635, 49.6985
9.51119, 46, -24.2999, -33.076, 48.146, -141.368, -72.2441, 49.7616
9.52065, 46, -24.2416, -33.1293, 48.1791, -141.338, -72.1868, 49.9529
9.52728, 46, -24.222, -33.1468, 48.1899, -141.329, -72.1675, 50.0174
9.53749, 46, -24.1624, -33.1984, 48.2214, -141.301, -72.1095, 50.2119
9.54335, 46, -24.1424, -33.2153, 48.2317, -141.292, -72.0905, 50.2773
9.55116, 46, -24.1022, -33.2488, 48.252, -141.275, -72.0529, 50.4091
9.56171, 47, -24.0411, -33.2979, 48.2813, -141.249, -71.9956, 50.609
9.56925, 47, -23.9998, -33.3299, 48.3003, -141.232, -71.9577, 50.7439
9.57519, 47, -23.979, -33.3457, 48.3096, -141.225, -71.9391, 50.8118
9.58325, 47, -23.9373, -33.377, 48.3277, -141.209, -71.9022, 50.9485
9.5919, 47, -23.8952, -33.4075, 48.3452, -141.195, -71.8648, 51.0863
9.59921, 47, -23.8526, -33.4375, 48.3623, -141.181, -71.8273, 51.2251
9.60818, 47, -23.8097, -33.4667, 48.3788, -141.168, -71.7906, 51.365
9.61599, 47, -23.7666, -33.4956, 48.3946, -141.156, -71.7542, 51.5064
9.62423, 47, -23.7231, -33.5237, 48.4102, -141.144, -71.7173, 51.6488
9.63227, 47, -23.6791, -33.5512, 48.4253, -141.133, -71.6805, 51.7926
9.64023, 47, -23.6348, -33.5781, 48.4395, -141.123, -71.6446, 51.9375
9.64818, 47, -23.5902, -33.6044, 48.4533, -141.113, -71.6092, 52.0835
9.65618, 47, -23.5451, -33.6301, 48.4666, -141.103, -71.5733, 52.2309
9.66428, 47, -23.4995, -33.6549, 48.4792, -141.094, -71.5375, 52.379
9.67232, 48, -23.4537, -33.6794, 48.491, -141.086, -71.5025, 52.5282
9.68018, 48, -23.4075, -33.703, 48.5023, -141.078, -71.4679, 52.6788
9.68826, 48, -23.3608, -33.7259, 48.5131, -141.071, -71.433, 52.8306
9.69618, 48, -23.3139, -33.7484, 48.5234, -141.065, -71.3979, 52.9838
9.7042, 48, -23.2667, -33.7699, 48.5332, -141.06, -71.3637, 53.138
9.71457, 48, -23.1948, -33.8011, 48.5465, -141.054, -71.3134, 53.3714
9.71919, 48, -23.1707, -33.8111, 48.5506, -141.052, -71.2966, 53.4497
9.7272, 48, -23.1222, -33.8304, 48.5584, -141.049, -71.2627, 53.6071
9.73525, 48, -23.0732, -33.8493, 48.5657, -141.047, -71.2293, 53.7659
9.74319, 48, -23.0237, -33.8676, 48.5724, -141.046, -71.1966, 53.9261
9.75118, 48, -22.9741, -33.8848, 48.5784, -141.045, -71.164, 54.0874
9.75925, 48, -22.924, -33.9014, 48.5838, -141.045, -71.1311, 54.2497
9.76738, 48, -22.8734, -33.9173, 48.5886, -141.045, -71.0985, 54.4131
9.77525, 48, -22.8226, -33.9326, 48.5926, -141.045, -71.0667, 54.5776
9.78347, 49, -22.7713, -33.9467, 48.596, -141.046, -71.0355, 54.7429
9.79123, 49, -22.7196, -33.9601, 48.5987, -141.048, -71.0043, 54.9094
9.79934, 49, -22.6675, -33.9728, 48.6007, -141.052, -70.9729, 55.0772
9.80762, 49, -22.6149, -33.985, 48.602, -141.056, -70.9421, 55.2461
9.81528, 49, -22.5619, -33.9963, 48.6027, -141.061, -70.9119, 55.4158
9.8233, 49, -22.5087, -34.0064, 48.603, -141.066, -70.8823, 55.5868
9.83157, 49, -22.455, -34.0157, 48.603, -141.073, -70.8525, 55.7586
9.83918, 49, -22.4008, -34.0244, 48.6026, -141.081, -70.8226, 55.9317
9.84724, 49, -22.3464, -34.0323, 48.6016, -141.09, -70.7935, 56.1059
9.85599, 49, -22.2915, -34.0394, 48.6, -141.1, -70.7652, 56.2814
9.86425, 49, -22.2362, -34.0458, 48.5977, -141.111, -70.7375, 56.4577
9.87128, 49, -22.1806, -34.0514, 48.5946, -141.123, -70.7097, 56.6353
9.8794, 49, -22.1244, -34.056, 48.5906, -141.135, -70.682, 56.8137
9.88776, 49, -22.0678, -34.0596, 48.5858, -141.149, -70.6548, 56.9929
9.8959, 50, -22.011, -34.0622, 48.5802, -141.163, -70.6286, 57.1734
9.90353, 50, -21.9537, -34.064, 48.5739, -141.177, -70.6027, 57.3551
9.91161, 50, -21.8961, -34.065, 48.5667, -141.193, -70.5773, 57.5378
9.91974, 50, -21.8381, -34.0654, 48.5587, -141.209, -70.5517, 57.7215
9.92834, 50, -21.7795, -34.0653, 48.5499, -141.226, -70.5264, 57.9062
9.93643, 50, -21.7206, -34.0644, 48.5404, -141.245, -70.5018, 58.0916
9.94376, 50, -21.6611, -34.0626, 48.5302, -141.265, -70.4781, 58.2785
9.95228, 50, -21.6014, -34.06, 48.5191, -141.285, -70.4551, 58.4665
9.95975, 50, -21.5714, -34.0584, 48.5132, -141.295, -70.4323, 58.6553
9.96805, 50, -21.5111, -34.0543, 48.5008, -141.327, -70.4098, 58.8451
9.97522, 50, -21.4504, -34.0492, 48.4876, -141.338, -70.3986, 58.9402
9.98318, 50, -21.3894, -34.043, 48.4736, -141.361, -70.3764, 59.1313
9.99328, 50, -21.2971, -34.0317, 48.4509, -141.398, -70.3447, 59.4195
9.99919, 51, -21.2662, -34.0274, 48.443, -141.411, -70.3345, 59.5162
10.0072, 51, -21.204, -34.018, 48.4267, -141.437, -70.3146, 59.7102
10.0152, 51, -21.1413, -34.0076, 48.4095, -141.463, -70.2952, 59.9052
10.0254, 51, -21.0466, -33.9902, 48.382, -141.505, -70.2667, 60.1992
10.0313, 51, -21.0148, -33.9836, 48.3724, -141.519, -70.2573, 60.2977
10.0392, 51, -20.9509, -33.9697, 48.3526, -141.549, -70.2387, 60.4954
10.0493, 51, -20.8544, -33.9467, 48.3216, -141.594, -70.2124, 60.794
10.0552, 51, -20.8221, -33.9386, 48.3109, -141.61, -70.204, 60.8939
10.0647, 51, -20.7245, -33.913, 48.2772, -141.658, -70.1802, 61.1949
10.0736, 51, -20.6589, -33.8944, 48.2539, -141.692, -70.1652, 61.3963
10.0792, 51, -20.6261, -33.8848, 48.2418, -141.709, -70.158, 61.4975
10.0889, 51, -20.5601, -33.8648, 48.2045, -141.761, -70.1372, 61.8024
10.0952, 51, -20.4937, -33.8434, 48.1916, -141.778, -70.1304, 61.9045
10.1042, 51, -20.4269, -33.8209, 48.165, -141.815, -70.1173, 62.1091
10.1152, 52, -20.3262, -33.785, 48.1239, -141.871, -70.0985, 62.4176
10.1201, 52, -20.2924, -33.7725, 48.1098, -141.89, -70.0925, 62.5208
10.1282, 52, -20.2244, -33.7467, 48.0809, -141.929, -70.0812, 62.7282
10.1375, 52, -20.122, -33.7053, 48.0358, -141.99, -70.0656, 63.0408
10.1432, 52, -20.0877, -33.6911, 48.0204, -142.011, -70.0609, 63.1454
10.1512, 52, -20.0188, -33.6616, 47.9889, -142.052, -70.0521, 63.355
10.1593, 52, -19.9494, -33.631, 47.9566, -142.094, -70.0441, 63.5652
10.1672, 52, -19.8798, -33.5991, 47.9233, -142.138, -70.0368, 63.7763
10.1752, 52, -19.8099, -33.5662, 47.8893, -142.182, -70.0304, 63.9881
10.1832, 52, -19.7395, -33.5322, 47.8544, -142.227, -70.0247, 64.2006
10.1912, 52, -19.6691, -33.497, 47.8184, -142.273, -70.0198, 64.4139
10.1993, 52, -19.5984, -33.4606, 47.7818, -142.32, -70.0156, 64.6276
10.2074, 52, -19.5273, -33.4229, 47.7442, -142.367, -70.0122, 64.8422
10.2162, 52, -19.4559, -33.3841, 47.7057, -142.416, -70.0096, 65.0577
10.2242, 53, -19.384, -33.344, 47.6664, -142.465, -70.0078, 65.2739
10.2322, 53, -19.3116, -33.3026, 47.6263, -142.516, -70.0067, 65.4906
10.2392, 53, -19.2392, -33.26, 47.5852, -142.567, -70.0062, 65.7079
10.2472, 53, -19.1664, -33.2162, 47.5433, -142.619, -70.0062, 65.9258
10.2553, 53, -19.0933, -33.1713, 47.5004, -142.671, -70.0068, 66.1443
10.2632, 53, -19.02, -33.1251, 47.4567, -142.725, -70.008, 66.3636
10.2712, 53, -18.9464, -33.0776, 47.4121, -142.779, -70.0102, 66.5835
10.28, 53, -18.8725, -33.029, 47.3665, -142.835, -70.0133, 66.8039
10.2882, 53, -18.7983, -32.9791, 47.32, -142.89, -70.0173, 67.0248
10.2953, 53, -18.7238, -32.9279, 47.2727, -142.947, -70.0224, 67.2467
10.3045, 53, -18.6491, -32.8755, 47.2244, -143.005, -70.0285, 67.4691
10.313, 53, -18.574, -32.8217, 47.1752, -143.063, -70.0357, 67.6919
10.3202, 53, -18.4986, -32.7667, 47.1252, -143.122, -70.0439, 67.9151
10.3278, 54, -18.423, -32.7103, 47.0742, -143.181, -70.0532, 68.1386
10.3353, 54, -18.3472, -32.6527, 47.0224, -143.242, -70.0636, 68.3628
10.3434, 54, -18.2712, -32.5937, 46.9697, -143.303, -70.0753, 68.5874
10.355, 54, -18.1949, -32.5336, 46.9161, -143.365, -70.0951, 68.9256
10.3592, 54, -18.1184, -32.4721, 46.8617, -143.429, -70.1023, 69.0384
10.3674, 54, -18.0416, -32.4094, 46.8062, -143.492, -70.1177, 69.2645
10.376, 54, -17.9646, -32.3454, 46.7499, -143.556, -70.1339, 69.4912
10.3842, 54, -17.8873, -32.2801, 46.6926, -143.621, -70.1509, 69.7184
10.3917, 54, -17.8098, -32.2134, 46.6344, -143.687, -70.1687, 69.9459
10.4004, 54, -17.7322, -32.1454, 46.5754, -143.753, -70.1874, 70.1736
10.4076, 54, -17.6544, -32.076, 46.5154, -143.82, -70.2072, 70.4018
10.4164, 54, -17.5765, -32.0053, 46.4545, -143.887, -70.2285, 70.6305
10.4236, 54, -17.4983, -31.9331, 46.3928, -143.956, -70.2512, 70.8596
10.4321, 54, -17.4199, -31.8596, 46.3303, -144.025, -70.275, 71.089
10.4407, 55, -17.3413, -31.7848, 46.2669, -144.094, -70.2995, 71.3185
10.4483, 55, -17.2626, -31.7088, 46.2026, -144.164, -70.3249, 71.5486
10.4558, 55, -17.1837, -31.6314, 46.1375, -144.235, -70.3514, 71.7794
10.4649, 55, -17.1046, -31.5528, 46.0714, -144.306, -70.3794, 72.0103
10.4723, 55, -17.0253, -31.4729, 46.0042, -144.378, -70.4089, 72.2413
10.4792, 55, -16.9856, -31.4324, 45.9704, -144.414, -70.4238, 72.3568
10.489, 55, -16.8663, -31.309, 45.8673, -144.524, -70.4698, 72.7037
10.4963, 55, -16.7867, -31.225, 45.7975, -144.597, -70.5017, 72.9354
10.5032, 55, -16.7468, -31.1825, 45.7623, -144.634, -70.5184, 73.0513
10.5132, 55, -16.6272, -31.0531, 45.6554, -144.746, -70.5706, 73.3992
10.5192, 55, -16.5873, -31.0093, 45.6194, -144.783, -70.5884, 73.5152
10.5288, 55, -16.4672, -30.8758, 45.5101, -144.896, -70.6429, 73.8636
10.537, 55, -16.4271, -30.7851, 45.4361, -144.972, -70.6813, 74.0962
10.5447, 55, -16.3067, -30.693, 45.3612, -145.049, -70.7209, 74.3287
10.5527, 56, -16.2263, -30.5996, 45.2853, -145.126, -70.7608, 74.5614
10.5607, 56, -16.1458, -30.5048, 45.2086, -145.203, -70.8023, 74.794
10.5687, 56, -16.0653, -30.4087, 45.1311, -145.281, -70.8458, 75.0269
10.5774, 56, -15.9845, -30.3114, 45.0527, -145.359, -70.8899, 75.2602
10.5832, 56, -15.9443, -30.2623, 45.0132, -145.398, -70.9122, 75.3767
10.5928, 56, -15.8637, -30.163, 44.8937, -145.516, -70.9821, 75.7262
10.6001, 56, -15.7831, -30.0624, 44.8534, -145.556, -71.0061, 75.8427
10.6073, 56, -15.7025, -29.9604, 44.7722, -145.635, -71.054, 76.0762
10.6162, 56, -15.6216, -29.857, 44.6901, -145.715, -71.1038, 76.3096
10.6242, 56, -15.5406, -29.7523, 44.6071, -145.795, -71.1553, 76.5429
10.6321, 56, -15.4596, -29.6463, 44.5232, -145.876, -71.2071, 76.7759
10.6403, 56, -15.3786, -29.5391, 44.4386, -145.956, -71.2608, 77.0087
10.6482, 56, -15.2976, -29.4307, 44.3532, -146.037, -71.3156, 77.2417
10.6564, 57, -15.2167, -29.3209, 44.2672, -146.118, -71.371, 77.4745
10.6631, 57, -15.1358, -29.2097, 44.1804, -146.199, -71.4288, 77.7072
10.6712, 57, -15.055, -29.0973, 44.0928, -146.281, -71.4869, 77.9397
10.6792, 57, -14.9741, -28.9835, 44.0043, -146.362, -71.5469, 78.1721
10.6872, 57, -14.8932, -28.8684, 43.9148, -146.444, -71.6078, 78.4046
10.6952, 57, -14.8123, -28.7522, 43.8247, -146.526, -71.6695, 78.6368
10.7033, 57, -14.7314, -28.6347, 43.7339, -146.608, -71.7337, 78.8689
10.7111, 57, -14.6506, -28.5158, 43.6424, -146.69, -71.7981, 79.1006
10.7192, 57, -14.5698, -28.3955, 43.5503, -146.773, -71.8648, 79.3322
10.7273, 57, -14.4892, -28.2741, 43.4574, -146.856, -71.9316, 79.5637
10.7352, 57, -14.4086, -28.1516, 43.3636, -146.938, -72.0008, 79.7951
10.7432, 57, -14.3281, -28.0279, 43.269, -147.021, -72.0706, 80.026
10.7514, 57, -14.2476, -27.9031, 43.1736, -147.104, -72.1421, 80.2564
10.7591, 57, -14.1671, -27.7769, 43.0776, -147.186, -72.2142, 80.487
10.7682, 58, -14.0867, -27.6495, 42.981, -147.269, -72.2881, 80.7174
10.7752, 58, -14.0065, -27.5208, 42.8838, -147.352, -72.363, 80.9474
10.7832, 58, -13.9264, -27.3911, 42.786, -147.434, -72.4391, 81.1768
10.7915, 58, -13.8464, -27.2603, 42.6875, -147.517, -72.5163, 81.4056
10.7993, 58, -13.7667, -27.1281, 42.5881, -147.6, -72.5951, 81.6342
10.8073, 58, -13.6871, -26.9945, 42.488, -147.682, -72.675, 81.8625
10.8153, 58, -13.6075, -26.8596, 42.3874, -147.765, -72.7564, 82.0903
10.824, 58, -13.5282, -26.7237, 42.2862, -147.847, -72.8387, 82.3177
10.8323, 58, -13.4489, -26.5868, 42.1846, -147.929, -72.9228, 82.5446
10.8397, 58, -13.3697, -26.4489, 42.0823, -148.012, -73.008, 82.7712
10.8474, 58, -13.2906, -26.3096, 41.9792, -148.094, -73.0941, 82.9974
10.8552, 58, -13.2116, -26.1693, 41.8754, -148.176, -73.1817, 83.2228
10.8632, 58, -13.1329, -26.0279, 41.7709, -148.257, -73.2703, 83.4479
10.8724, 58, -13.0544, -25.8857, 41.6661, -148.338, -73.3599, 83.6722
10.8813, 59, -12.9761, -25.7425, 41.5609, -148.42, -73.451, 83.8961
10.8881, 59, -12.8981, -25.5982, 41.4552, -148.501, -73.5431, 84.1196
10.8963, 59, -12.8202, -25.4526, 41.3491, -148.582, -73.6365, 84.3422
10.9036, 59, -12.7426, -25.3059, 41.2421, -148.662, -73.731, 84.5644
10.9115, 59, -12.6651, -25.1583, 41.1344, -148.742, -73.8267, 84.7859
10.9196, 59, -12.5877, -25.0099, 41.0265, -148.822, -73.9235, 85.0072
10.9277, 59, -12.5105, -24.8601, 40.9182, -148.902, -74.0216, 85.228
10.9362, 59, -12.4336, -24.7093, 40.8095, -148.981, -74.1211, 85.4478
10.9437, 59, -12.3568, -24.5575, 40.7003, -149.06, -74.2214, 85.6669
10.9523, 59, -12.2802, -24.405, 40.5904, -149.139, -74.323, 85.8852
10.9605, 59, -12.242, -24.2517, 40.4798, -149.217, -74.4258, 86.1028
10.9678, 59, -12.1277, -24.0972, 40.3689, -149.295, -74.5293, 86.3198
10.9765, 59, -12.0519, -23.9417, 40.258, -149.372, -74.6343, 86.5359
10.9861, 60, -11.9764, -23.7853, 40.1468, -149.449, -74.7403, 86.7511
10.9912, 60, -11.9388, -23.7069, 40.0911, -149.488, -74.7935, 86.8584
10.9992, 60, -11.8636, -23.5496, 39.9793, -149.564, -74.9011, 87.0725
11.0072, 60, -11.7887, -23.3912, 39.8668, -149.64, -75.0098, 87.2859
11.0164, 60, -11.6769, -23.1517, 39.6974, -149.753, -75.1741, 87.6044
11.0232, 60, -11.6397, -23.0715, 39.6408, -149.79, -75.2296, 87.7102
11.0331, 60, -11.5287, -22.8306, 39.4708, -149.902, -75.3974, 88.026
11.0406, 60, -11.455, -22.6691, 39.3572, -149.976, -75.5105, 88.2355
11.0472, 60, -11.4183, -22.588, 39.3002, -150.013, -75.5676, 88.34
11.0575, 60, -11.3084, -22.3429, 39.1283, -150.122, -75.7396, 88.6524
11.0632, 60, -11.272, -22.2609, 39.0708, -150.158, -75.7976, 88.7559
11.073, 60, -11.163, -22.0146, 38.8983, -150.265, -75.9724, 89.0651
11.0821, 60, -11.0907, -21.8491, 38.7834, -150.337, -76.0901, 89.2701
11.0872, 60, -11.0548, -21.7659, 38.7258, -150.372, -76.1494, 89.3724
11.0961, 61, -10.983, -21.599, 38.6106, -150.443, -76.2684, 89.5762
11.1041, 61, -10.9117, -21.4319, 38.4949, -150.512, -76.3883, 89.7789
11.1122, 61, -10.8405, -21.2646, 38.3789, -150.581, -76.5091, 89.9805
11.1212, 61, -10.7346, -21.0118, 38.2049, -150.683, -76.6917, 90.2807
11.1272, 61, -10.6994, -20.9271, 38.147, -150.717, -76.7533, 90.3801
11.1352, 61, -10.6294, -20.7577, 38.031, -150.785, -76.8766, 90.5785
11.1431, 61, -10.5597, -20.5883, 37.9148, -150.851, -77.001, 90.776
11.1521, 61, -10.4901, -20.4181, 37.7981, -150.917, -77.1262, 90.9724
11.1602, 61, -10.4209, -20.2468, 37.6813, -150.982, -77.2521, 91.1676
11.1681, 61, -10.3519, -20.0749, 37.5644, -151.047, -77.3789, 91.3616
11.1761, 61, -10.2835, -19.9031, 37.4477, -151.111, -77.5062, 91.5546
11.1841, 61, -10.2153, -19.7311, 37.3311, -151.175, -77.6345, 91.7464
11.1922, 61, -10.1476, -19.5581, 37.2143, -151.237, -77.7631, 91.9371
11.2041, 61, -10.0468, -19.2974, 37.0389, -151.33, -77.9574, 92.2206
11.2072, 62, -10.0133, -19.2105, 36.9804, -151.36, -78.0224, 92.3144
11.2152, 62, -9.94667, -19.0368, 36.8637, -151.421, -78.1531, 92.5009
11.2231, 62, -9.88035, -18.8624, 36.7471, -151.481, -78.2843, 92.6864
11.2311, 62, -9.81454, -18.6874, 36.6306, -151.54, -78.4161, 92.8707
11.2392, 62, -9.74908, -18.5123, 36.5139, -151.598, -78.5484, 93.054
11.2473, 62, -9.68385, -18.3377, 36.397, -151.656, -78.681, 93.2358
11.2551, 62, -9.61895, -18.1627, 36.2803, -151.712, -78.8146, 93.4164
11.2631, 62, -9.55428, -17.9868, 36.1637, -151.769, -78.9483, 93.5954
11.2712, 62, -9.48999, -17.8107, 36.0475, -151.824, -79.083, 93.7734
11.2792, 62, -9.42597, -17.6349, 35.9313, -151.879, -79.218, 93.9504
11.2872, 62, -9.3624, -17.4589, 35.8151, -151.933, -79.3535, 94.1259
11.2955, 62, -9.29925, -17.2819, 35.699, -151.985, -79.4893, 94.3
11.3042, 62, -9.23653, -17.1043, 35.5832, -152.038, -79.6257, 94.4725
11.3112, 62, -9.17437, -16.9272, 35.4677, -152.09, -79.7626, 94.6434
11.3193, 63, -9.11247, -16.7505, 35.3525, -152.14, -79.8999, 94.8127
11.3273, 63, -9.05101, -16.5732, 35.2375, -152.191, -80.0378, 94.9808
11.3352, 63, -8.98985, -16.3955, 35.1223, -152.24, -80.176, 95.1476
11.3433, 63, -8.92901, -16.2182, 35.0074, -152.288, -80.3146, 95.3128
11.3512, 63, -8.86861, -16.0415, 34.8929, -152.336, -80.4534, 95.4765
11.3592, 63, -8.80852, -15.8644, 34.7786, -152.383, -80.5927, 95.6387
11.3677, 63, -8.74889, -15.687, 34.6648, -152.429, -80.7324, 95.7989
11.3752, 63, -8.68955, -15.5097, 34.551, -152.474, -80.8724, 95.9582
11.3833, 63, -8.63053, -15.3331, 34.4373, -152.519, -81.0124, 96.1156
11.3915, 63, -8.57187, -15.1561, 34.324, -152.562, -81.1527, 96.2718
11.4002, 63, -8.51354, -14.9785, 34.2111, -152.605, -81.2931, 96.4263
11.4076, 63, -8.45563, -14.8009, 34.0988, -152.647, -81.4339, 96.579
11.4166, 63, -8.39829, -14.624, 33.9869, -152.688, -81.5747, 96.7303
11.4255, 64, -8.34128, -14.4471, 33.8752, -152.729, -81.7158, 96.8794
11.4317, 64, -8.28469, -14.2696, 33.7635, -152.768, -81.8568, 97.027
11.441, 64, -8.22865, -14.0922, 33.6524, -152.807, -81.9981, 97.1729
11.4488, 64, -8.17285, -13.916, 33.5417, -152.845, -82.1392, 97.3173
11.4562, 64, -8.11743, -13.7403, 33.4315, -152.882, -82.2808, 97.4603
11.4637, 64, -8.08984, -13.6524, 33.3218, -152.919, -82.4221, 97.6012
11.4711, 64, -8.03488, -13.4764, 33.267, -152.937, -82.493, 97.6709
11.4791, 64, -7.98023, -13.3008, 33.1574, -152.972, -82.6349, 97.8096
11.4882, 64, -7.89899, -13.0387, 32.9939, -153.023, -82.8476, 98.0137
11.4951, 64, -7.87206, -12.9512, 32.9397, -153.039, -82.9185, 98.0809
11.5031, 64, -7.81848, -12.7759, 32.8318, -153.072, -83.0603, 98.2142
11.5111, 64, -7.76546, -12.6007, 32.7244, -153.104, -83.2024, 98.3457
11.5206, 64, -7.68651, -12.3395, 32.5641, -153.15, -83.4153, 98.5395
11.5285, 64, -7.63439, -12.1654, 32.4574, -153.181, -83.5573, 98.6662
11.5366, 65, -7.58268, -11.9911, 32.3513, -153.21, -83.6993, 98.7911
11.5431, 65, -7.55697, -11.9042, 32.2986, -153.224, -83.7704, 98.8527
11.5528, 65, -7.48047, -11.6449, 32.1413, -153.265, -83.9831, 99.0349
11.5607, 65, -7.43, -11.4726, 32.0373, -153.291, -84.1249, 99.1538
11.5712, 65, -7.37968, -11.3, 31.9334, -153.317, -84.2666, 99.271
11.5767, 65, -7.3298, -11.1281, 31.8297, -153.342, -84.4082, 99.3858
11.5847, 65, -7.28032, -10.9571, 31.7266, -153.367, -84.5498, 99.4992
11.5928, 65, -7.25564, -10.7867, 31.6242, -153.39, -84.6911, 99.6105
11.6001, 65, -7.20661, -10.7014, 31.5734, -153.401, -84.7618, 99.6655
