rpiRobotics/ARM-21-02-F-19-Robot-Motion-Program/data_performance_abb/curve_1/baseline/100L/realrobot/bisect/run_2realrobot_curve_exe_v93.75_z10.csv
timestamp, cmd_num, J1, J2, J3, J4, J5, J6
0.009593, -1, 11.3781, 13.614, 17.3392, -145.519, -97.923, 142.516
0.01159, -1, 11.3781, 13.614, 17.3392, -145.519, -97.923, 142.516
0.015328, -1, 11.3781, 13.614, 17.3392, -145.519, -97.923, 142.516
0.017935, -1, 11.3781, 13.614, 17.3392, -145.519, -97.9229, 142.516
0.040008, -1, 11.3781, 13.614, 17.3392, -145.519, -97.923, 142.516
0.042087, -1, 11.3781, 13.614, 17.3392, -145.519, -97.923, 142.516
0.044745, -1, 11.3781, 13.614, 17.3392, -145.519, -97.923, 142.516
0.048159, -1, 11.3781, 13.614, 17.3392, -145.519, -97.923, 142.516
0.056359, -1, 11.378, 13.614, 17.3392, -145.519, -97.9229, 142.516
0.063982, -1, 11.3773, 13.614, 17.3392, -145.519, -97.923, 142.516
0.072231, -1, 11.3748, 13.6137, 17.3391, -145.519, -97.923, 142.516
0.079164, -1, 11.3684, 13.6128, 17.3389, -145.519, -97.9229, 142.516
0.087237, -1, 11.3572, 13.6109, 17.3384, -145.52, -97.9229, 142.514
0.095159, -1, 11.3399, 13.6072, 17.3377, -145.521, -97.9228, 142.505
0.103163, -1, 11.3132, 13.6011, 17.3368, -145.525, -97.9221, 142.484
0.113166, -1, 11.2751, 13.5918, 17.3362, -145.532, -97.9202, 142.443
0.120253, -1, 11.2251, 13.5793, 17.3363, -145.544, -97.9168, 142.378
0.127242, -1, 11.1637, 13.5637, 17.338, -145.561, -97.9113, 142.282
0.135266, -1, 11.0906, 13.5444, 17.3419, -145.584, -97.9035, 142.152
0.143211, -1, 11.0057, 13.5213, 17.3483, -145.613, -97.8933, 141.987
0.151242, -1, 10.9091, 13.495, 17.3568, -145.647, -97.8812, 141.789
0.15946, -1, 10.8018, 13.4652, 17.3673, -145.685, -97.8675, 141.564
0.167253, -1, 10.6834, 13.4324, 17.3785, -145.728, -97.8528, 141.317
0.175298, -1, 10.5544, 13.3967, 17.3897, -145.772, -97.8375, 141.057
0.183754, -1, 10.4164, 13.3588, 17.4004, -145.818, -97.8217, 140.787
0.192183, -1, 10.2716, 13.3193, 17.4106, -145.866, -97.8055, 140.513
0.199318, -1, 10.1221, 13.2789, 17.4206, -145.913, -97.7889, 140.236
0.208603, -1, 9.96973, 13.2379, 17.4306, -145.96, -97.772, 139.958
0.215194, -1, 9.81508, 13.1966, 17.4406, -146.009, -97.7548, 139.679
0.223243, -1, 9.65953, 13.1552, 17.4507, -146.057, -97.7375, 139.399
0.232803, -1, 9.50438, 13.114, 17.4606, -146.104, -97.7206, 139.12
0.240199, -1, 9.34971, 13.0728, 17.4704, -146.153, -97.7038, 138.84
0.247424, -1, 9.19535, 13.0318, 17.4804, -146.2, -97.687, 138.561
0.257375, -1, 9.04155, 12.9907, 17.4904, -146.248, -97.6704, 138.281
0.263594, -1, 8.88794, 12.9497, 17.5005, -146.297, -97.6535, 138.001
0.272238, -1, 8.73446, 12.9088, 17.5106, -146.344, -97.6363, 137.722
0.280428, -1, 8.58158, 12.8677, 17.5206, -146.392, -97.6189, 137.442
0.287728, -1, 8.42883, 12.8265, 17.5308, -146.441, -97.6013, 137.161
0.296307, -1, 8.27577, 12.7852, 17.5409, -146.488, -97.5841, 136.881
0.304318, -1, 8.12224, 12.7437, 17.5511, -146.536, -97.5671, 136.601
0.311871, -1, 7.96834, 12.7022, 17.5613, -146.584, -97.5504, 136.321
0.320324, -1, 7.81372, 12.6606, 17.5714, -146.632, -97.5337, 136.041
0.328457, -1, 7.73628, 12.6398, 17.5764, -146.656, -97.5253, 135.901
0.335725, -1, 7.58126, 12.5982, 17.5866, -146.704, -97.5086, 135.621
0.344248, -1, 7.34853, 12.5361, 17.6018, -146.776, -97.483, 135.201
0.351158, -1, 7.27095, 12.5153, 17.6069, -146.8, -97.4743, 135.06
0.361164, -1, 7.03827, 12.4532, 17.6223, -146.872, -97.4483, 134.64
0.367153, -1, 6.96063, 12.4325, 17.6274, -146.896, -97.4398, 134.5
0.376393, -1, 6.7281, 12.3707, 17.643, -146.968, -97.4144, 134.08
0.383198, -1, 6.65074, 12.3501, 17.6482, -146.993, -97.406, 133.94
0.392611, -1, 6.41904, 12.2883, 17.6637, -147.065, -97.381, 133.519
0.399145, -1, 6.34187, 12.2676, 17.6689, -147.089, -97.3725, 133.379
0.40923, -1, 6.11047, 12.2055, 17.6842, -147.161, -97.3469, 132.958
0.41515, -1, 6.03326, 12.1849, 17.6894, -147.185, -97.3382, 132.817
0.424694, -1, 5.80131, 12.1226, 17.7047, -147.257, -97.3118, 132.397
0.431169, -1, 5.72395, 12.1018, 17.7098, -147.281, -97.3031, 132.256
0.440768, -1, 5.56905, 12.0394, 17.7252, -147.353, -97.2773, 131.835
0.448693, -1, 5.41387, 12.0186, 17.7303, -147.377, -97.2689, 131.554
0.456759, -1, 5.25848, 11.977, 17.7405, -147.425, -97.252, 131.273
0.464137, -1, 5.10277, 11.9353, 17.7509, -147.474, -97.2353, 131.133
0.472132, -1, 4.94684, 11.8938, 17.7613, -147.521, -97.2184, 130.852
0.480189, -1, 4.791, 11.8522, 17.7717, -147.57, -97.2013, 130.571
0.488137, -1, 4.63517, 11.8108, 17.7821, -147.618, -97.1838, 130.29
0.496148, -1, 4.47948, 11.7694, 17.7924, -147.666, -97.1664, 130.009
0.504198, -1, 4.32388, 11.728, 17.8028, -147.715, -97.1491, 129.728
0.512132, -1, 4.16856, 11.6866, 17.8132, -147.763, -97.1321, 129.447
0.651003, -1, 1.44514, 10.9582, 17.9945, -148.609, -96.8331, 124.52
0.652264, -1, 1.44514, 10.9582, 17.9945, -148.609, -96.8331, 124.52
0.653537, -1, 1.44514, 10.9582, 17.9945, -148.609, -96.8331, 124.52
0.65566, -1, 1.36715, 10.9374, 17.9997, -148.633, -96.8247, 124.378
0.656954, -1, 1.36715, 10.9374, 17.9997, -148.633, -96.8247, 124.378
0.658756, -1, 1.2892, 10.9166, 18.0049, -148.657, -96.8163, 124.237
0.660203, -1, 1.2892, 10.9166, 18.0049, -148.657, -96.8163, 124.237
0.663314, -1, 1.21136, 10.8958, 18.0101, -148.681, -96.8079, 124.096
0.800499, -1, -1.4435, 10.1856, 18.1862, -149.506, -96.5169, 119.291
0.801788, -1, -1.4435, 10.1856, 18.1862, -149.506, -96.5169, 119.291
0.803588, -1, -1.4435, 10.1856, 18.1914, -149.53, -96.5085, 119.149
0.805245, -1, -1.52181, 10.1648, 18.1914, -149.53, -96.5085, 119.149
0.80644, -1, -1.52181, 10.1648, 18.1914, -149.53, -96.5085, 119.149
0.808522, -1, -1.60006, 10.1439, 18.1967, -149.554, -96.5, 119.007
0.809715, -1, -1.60006, 10.1439, 18.1967, -149.554, -96.5, 119.007
0.816294, -1, -1.75618, 10.1021, 18.2072, -149.603, -96.4829, 118.724
0.817586, -1, -1.75618, 10.1021, 18.2072, -149.603, -96.4829, 118.724
0.818784, -1, -1.75618, 10.1021, 18.2072, -149.603, -96.4829, 118.724
0.820895, -1, -1.83404, 10.0812, 18.2124, -149.627, -96.4743, 118.583
0.822159, -1, -1.83404, 10.0812, 18.2124, -149.627, -96.4743, 118.583
0.824003, -1, -1.9118, 10.0603, 18.2176, -149.652, -96.4656, 118.441
0.825649, -1, -1.9118, 10.0603, 18.2176, -149.652, -96.4656, 118.441
0.826869, -1, -1.9118, 10.0603, 18.2176, -149.652, -96.4656, 118.441
0.830879, -1, -1.98948, 10.0394, 18.2228, -149.676, -96.4567, 118.299
0.83287, -1, -2.06708, 10.0185, 18.228, -149.7, -96.4479, 118.157
0.834132, -1, -2.06708, 10.0185, 18.228, -149.7, -96.4479, 118.157
0.836713, -1, -2.14464, 9.99755, 18.2332, -149.724, -96.4391, 118.015
0.838857, -1, -2.14464, 9.99755, 18.2332, -149.724, -96.4391, 118.015
0.840963, -1, -2.2222, 9.97665, 18.2384, -149.749, -96.4303, 117.874
0.842152, -1, -2.2222, 9.97665, 18.2384, -149.749, -96.4303, 117.874
0.845119, -1, -2.29981, 9.95576, 18.2435, -149.773, -96.4216, 117.732
0.846451, -1, -2.29981, 9.95576, 18.2435, -149.773, -96.4216, 117.732
0.848565, -1, -2.37751, 9.93484, 18.2488, -149.797, -96.413, 117.59
0.849914, -1, -2.37751, 9.93484, 18.2488, -149.797, -96.413, 117.59
0.851106, -1, -2.37751, 9.93484, 18.2488, -149.797, -96.413, 117.59
0.853122, -1, -2.4553, 9.91389, 18.254, -149.821, -96.4045, 117.448
0.854312, -1, -2.4553, 9.91389, 18.254, -149.821, -96.4045, 117.448
0.856171, -1, -2.53315, 9.89293, 18.2592, -149.846, -96.396, 117.307
0.858724, -1, -2.53315, 9.89293, 18.2592, -149.846, -96.396, 117.307
0.862239, -1, -2.61107, 9.87196, 18.2644, -149.87, -96.3876, 117.165
0.86414, -1, -2.61107, 9.87196, 18.2644, -149.895, -96.3792, 117.023
0.86556, -1, -2.68908, 9.85101, 18.2696, -149.895, -96.3792, 117.023
0.86698, -1, -2.68908, 9.85101, 18.2696, -149.895, -96.3792, 117.023
0.869003, -1, -2.76715, 9.83007, 18.2748, -149.919, -96.3708, 116.881
0.872445, -1, -2.8453, 9.80912, 18.28, -149.943, -96.3624, 116.739
0.881123, -1, -3.00188, 9.76721, 18.2903, -149.992, -96.3456, 116.456
0.887125, -1, -3.08034, 9.74627, 18.2955, -150.016, -96.337, 116.314
0.896661, -1, -3.31638, 9.68341, 18.3111, -150.089, -96.3109, 115.888
0.904572, -1, -3.47429, 9.64141, 18.3216, -150.137, -96.2932, 115.604
0.911138, -1, -3.55325, 9.62044, 18.3268, -150.162, -96.2845, 115.462
0.920719, -1, -3.79001, 9.55769, 18.3424, -150.235, -96.2588, 115.036
0.92884, -1, -3.948, 9.5157, 18.3527, -150.284, -96.2417, 114.752
0.936726, -1, -4.1059, 9.4738, 18.3631, -150.333, -96.2248, 114.468
0.944943, -1, -4.18481, 9.45286, 18.3734, -150.381, -96.2078, 114.183
0.951117, -1, -4.34254, 9.41094, 18.3785, -150.406, -96.1992, 114.041
0.960116, -1, -4.49986, 9.36899, 18.3889, -150.455, -96.1819, 113.756
0.968113, -1, -4.65683, 9.32704, 18.3992, -150.504, -96.1642, 113.472
0.97616, -1, -4.81341, 9.28506, 18.4096, -150.552, -96.1465, 113.187
0.984122, -1, -4.96967, 9.243, 18.42, -150.601, -96.129, 112.903
0.992151, -1, -5.12563, 9.20101, 18.4306, -150.65, -96.1119, 112.618
0.999126, -1, -5.28149, 9.15898, 18.441, -150.698, -96.0948, 112.333
1.00712, -1, -5.43759, 9.11682, 18.4515, -150.748, -96.078, 112.049
1.01611, -1, -5.59378, 9.07476, 18.4618, -150.796, -96.0611, 111.764
1.02412, -1, -5.75026, 9.03269, 18.4722, -150.845, -96.044, 111.479
1.03212, -1, -5.90721, 8.99054, 18.4826, -150.894, -96.0266, 111.194
1.04016, -1, -6.06467, 8.94843, 18.4929, -150.943, -96.0089, 110.909
1.04812, -1, -6.22269, 8.90634, 18.5032, -150.992, -95.9915, 110.624
1.05613, -1, -6.38102, 8.86427, 18.5135, -151.041, -95.9742, 110.339
1.06419, -1, -6.53943, 8.82226, 18.5238, -151.09, -95.9573, 110.054
1.07216, -1, -6.69802, 8.78016, 18.5344, -151.139, -95.9402, 109.768
1.08013, -1, -6.85669, 8.73806, 18.5448, -151.188, -95.9234, 109.483
1.08711, -1, -7.01522, 8.69604, 18.5553, -151.237, -95.9062, 109.197
1.09511, -1, -7.17373, 8.65394, 18.5657, -151.286, -95.8888, 108.912
1.10413, -1, -7.33207, 8.61183, 18.5761, -151.335, -95.8711, 108.626
1.11111, -1, -7.48993, 8.56958, 18.5865, -151.384, -95.8533, 108.341
1.11914, -1, -7.6476, 8.5273, 18.597, -151.433, -95.8358, 108.055
1.12791, -1, -7.80486, 8.48506, 18.6074, -151.482, -95.8187, 107.77
1.13617, -1, -7.96172, 8.44286, 18.6178, -151.531, -95.8017, 107.484
1.14329, -1, -8.11835, 8.40056, 18.6282, -151.58, -95.7848, 107.198
1.15254, -1, -8.27494, 8.35826, 18.6386, -151.629, -95.7677, 106.912
1.1592, -1, -8.43167, 8.31594, 18.6492, -151.678, -95.7506, 106.626
1.16748, -1, -8.58869, 8.27359, 18.6597, -151.727, -95.7331, 106.34
1.17522, -1, -8.74608, 8.23137, 18.6701, -151.777, -95.7153, 106.053
1.18323, -1, -8.90379, 8.1891, 18.6804, -151.825, -95.6978, 105.767
1.19165, -1, -9.06193, 8.14679, 18.6908, -151.874, -95.6804, 105.481
1.19923, -1, -9.22052, 8.1046, 18.7012, -151.924, -95.6633, 105.194
1.2081, -1, -9.37941, 8.06237, 18.7116, -151.973, -95.6462, 104.908
1.21585, -1, -9.53857, 8.02008, 18.722, -152.022, -95.629, 104.621
1.2249, -1, -9.69775, 7.97792, 18.7325, -152.072, -95.6117, 104.334
1.2321, -1, -9.85701, 7.93579, 18.7429, -152.12, -95.5942, 104.047
1.24008, -1, -10.0164, 7.89349, 18.7535, -152.17, -95.5763, 103.761
1.24734, -1, -10.1756, 7.85116, 18.764, -152.219, -95.5584, 103.474
1.25534, -1, -10.3346, 7.80875, 18.7746, -152.268, -95.5409, 103.187
1.26423, -1, -10.4932, 7.76627, 18.7851, -152.318, -95.5236, 102.9
1.27149, -1, -10.6517, 7.72386, 18.7954, -152.367, -95.5066, 102.613
1.2796, -1, -10.8099, 7.68142, 18.8059, -152.416, -95.4896, 102.326
1.28846, -1, -10.9677, 7.6389, 18.8163, -152.465, -95.4725, 102.039
1.29565, -1, -11.1252, 7.59645, 18.8266, -152.515, -95.4551, 101.752
1.30382, -1, -11.2827, 7.55402, 18.8371, -152.564, -95.4374, 101.464
1.31261, -1, -11.4402, 7.51159, 18.8476, -152.614, -95.4197, 101.177
1.31973, -1, -11.5978, 7.46915, 18.858, -152.663, -95.402, 100.89
1.32825, -1, -11.7558, 7.42678, 18.8686, -152.712, -95.3847, 100.602
1.3351, -1, -11.8349, 7.40559, 18.8739, -152.737, -95.3761, 100.458
1.3431, -1, -11.9935, 7.36327, 18.8844, -152.786, -95.3589, 100.171
1.35115, -1, -12.1525, 7.32092, 18.895, -152.835, -95.3417, 99.8829
1.36104, -1, -12.3917, 7.25732, 18.9107, -152.91, -95.3157, 99.4512
1.36963, -1, -12.5515, 7.21494, 18.9212, -152.959, -95.298, 99.1635
1.37516, -1, -12.6315, 7.19378, 18.9265, -152.984, -95.289, 99.0196
1.38445, -1, -12.8716, 7.13015, 18.9422, -153.058, -95.2622, 98.5878
1.39116, -1, -12.9516, 7.10891, 18.9475, -153.083, -95.2533, 98.4438
1.39917, -1, -13.1116, 7.06636, 18.958, -153.132, -95.236, 98.1557
1.40866, -1, -13.3512, 7.00253, 18.9739, -153.207, -95.2102, 97.7237
1.41815, -1, -13.5105, 6.95986, 18.9844, -153.256, -95.1932, 97.4354
1.42309, -1, -13.5902, 6.93848, 18.9897, -153.28, -95.1846, 97.2911
1.43268, -1, -13.8288, 6.87445, 19.0055, -153.355, -95.1585, 96.8584
1.44219, -1, -13.9873, 6.83178, 19.0159, -153.404, -95.1408, 96.5698
1.44709, -1, -14.0664, 6.81044, 19.0211, -153.428, -95.1318, 96.4255
1.45662, -1, -14.2246, 6.76785, 19.0317, -153.478, -95.1141, 96.1366
1.46411, -1, -14.3829, 6.72524, 19.0421, -153.528, -95.0967, 95.8476
1.47121, -1, -14.5412, 6.68258, 19.0526, -153.577, -95.0795, 95.5587
1.48009, -1, -14.6999, 6.64006, 19.0631, -153.627, -95.0624, 95.2694
1.48814, -1, -14.8589, 6.59757, 19.0736, -153.676, -95.0452, 94.9801
1.4951, -1, -15.0183, 6.55493, 19.0843, -153.725, -95.0278, 94.691
1.5031, -1, -15.178, 6.51232, 19.095, -153.776, -95.0101, 94.4019
1.51117, -1, -15.3382, 6.46979, 19.1056, -153.825, -94.9921, 94.1128
1.5191, -1, -15.4986, 6.42714, 19.1162, -153.874, -94.9742, 93.8234
1.52709, -1, -15.6594, 6.38445, 19.1267, -153.924, -94.9566, 93.5343
1.53517, -1, -15.8201, 6.34173, 19.1372, -153.974, -94.9393, 93.2451
1.54309, -1, -15.9808, 6.29891, 19.1479, -154.024, -94.9221, 92.9554
1.55109, -1, -16.1415, 6.25607, 19.1584, -154.074, -94.905, 92.6656
1.5601, -1, -16.3023, 6.21323, 19.1689, -154.123, -94.8877, 92.3762
1.5671, -1, -16.4627, 6.17028, 19.1793, -154.172, -94.8702, 92.0866
1.57517, -1, -16.6229, 6.12733, 19.1898, -154.222, -94.8523, 91.7966
1.58309, -1, -16.7827, 6.08445, 19.2004, -154.272, -94.8344, 91.5066
1.59109, -1, -16.9422, 6.04149, 19.211, -154.322, -94.8168, 91.2165
1.59918, -1, -17.1014, 5.99856, 19.2217, -154.372, -94.7992, 90.9265
1.60709, -1, -17.2604, 5.95566, 19.2323, -154.421, -94.7819, 90.6363
1.6151, -1, -17.4196, 5.91287, 19.2428, -154.471, -94.7646, 90.346
1.62411, -1, -17.5789, 5.87009, 19.2535, -154.521, -94.7471, 90.056
1.63216, -1, -17.7384, 5.82735, 19.2641, -154.57, -94.7295, 89.7658
1.63915, -1, -17.8979, 5.78463, 19.2748, -154.621, -94.7116, 89.4753
1.64719, -1, -18.058, 5.74189, 19.2854, -154.671, -94.6935, 89.1849
1.65515, -1, -18.2186, 5.69919, 19.296, -154.72, -94.6755, 88.8946
1.66318, -1, -18.3796, 5.65647, 19.3067, -154.77, -94.6579, 88.6039
1.67125, -1, -18.541, 5.61359, 19.3174, -154.82, -94.6405, 88.313
1.6792, -1, -18.7026, 5.57066, 19.3281, -154.87, -94.6233, 88.0221
1.68727, -1, -18.8641, 5.52774, 19.3387, -154.92, -94.606, 87.7313
1.69522, -1, -19.0257, 5.48476, 19.3492, -154.97, -94.5885, 87.4402
1.7032, -1, -19.1872, 5.44167, 19.3597, -155.02, -94.5708, 87.1488
1.71127, -1, -19.3486, 5.39858, 19.3703, -155.07, -94.5526, 86.8576
1.71937, -1, -19.5098, 5.3555, 19.3808, -155.12, -94.5346, 86.5661
1.72713, -1, -19.6706, 5.31232, 19.3914, -155.169, -94.5168, 86.2746
1.73533, -1, -19.8312, 5.26926, 19.402, -155.22, -94.4994, 85.9828
1.74326, -1, -19.9916, 5.22618, 19.4126, -155.27, -94.482, 85.6914
1.75131, -1, -20.1516, 5.18309, 19.4234, -155.32, -94.4646, 85.4
1.76018, -1, -20.3114, 5.14022, 19.4341, -155.37, -94.4471, 85.1083
1.76757, -1, -20.4714, 5.09733, 19.4449, -155.42, -94.4294, 84.8165
1.77609, -1, -20.6315, 5.05431, 19.4556, -155.47, -94.4113, 84.5249
1.78435, -1, -20.7919, 5.01143, 19.4662, -155.52, -94.3933, 84.233
1.79163, -1, -20.9527, 4.96859, 19.4769, -155.57, -94.3755, 83.9408
1.80026, -1, -21.1138, 4.92555, 19.4875, -155.62, -94.3581, 83.6487
1.80854, -1, -21.2753, 4.88255, 19.4981, -155.671, -94.3408, 83.3569
1.8159, -1, -21.4373, 4.83944, 19.5087, -155.721, -94.3237, 83.0647
1.82424, -1, -21.5994, 4.79621, 19.5193, -155.771, -94.3064, 82.7722
1.83251, -1, -21.6805, 4.77463, 19.5246, -155.796, -94.2977, 82.4798
1.83909, -1, -21.8428, 4.73146, 19.5354, -155.846, -94.2799, 82.3336
1.84816, -1, -22.0864, 4.66642, 19.5515, -155.922, -94.253, 81.8947
1.85511, -1, -22.1676, 4.64474, 19.5569, -155.947, -94.2441, 81.7484
1.86309, -1, -22.3301, 4.60141, 19.5675, -155.997, -94.2264, 81.4557
1.87222, -1, -22.5731, 4.53635, 19.5835, -156.073, -94.2002, 81.0168
1.87908, -1, -22.6539, 4.51464, 19.5889, -156.098, -94.1915, 80.8704
1.88718, -1, -22.8154, 4.47128, 19.5995, -156.147, -94.1741, 80.5775
1.89655, -1, -23.0571, 4.40637, 19.6155, -156.223, -94.1474, 80.1381
1.90309, -1, -23.1376, 4.38474, 19.6209, -156.248, -94.1384, 79.9916
1.91113, -1, -23.2986, 4.34149, 19.6315, -156.298, -94.1202, 79.6984
1.92079, -1, -23.5399, 4.27667, 19.6478, -156.374, -94.093, 79.2583
1.92955, -1, -23.701, 4.23344, 19.6586, -156.424, -94.0753, 78.9652
1.93517, -1, -23.7816, 4.21183, 19.664, -156.449, -94.0665, 78.8185
1.94469, -1, -24.0238, 4.14692, 19.68, -156.525, -94.0403, 78.3779
1.9535, -1, -24.1047, 4.12522, 19.6853, -156.576, -94.0229, 78.0841
1.95915, -1, -24.267, 4.08185, 19.696, -156.601, -94.014, 77.9372
1.96871, -1, -24.4297, 4.03846, 19.7067, -156.651, -93.9962, 77.4963
1.97608, -1, -24.5926, 3.99499, 19.7173, -156.702, -93.9781, 77.3492
1.98319, -1, -24.7558, 3.95139, 19.7279, -156.752, -93.96, 77.055
1.9911, -1, -24.9191, 3.90782, 19.7386, -156.803, -93.9422, 76.761
1.99908, -1, -25.0825, 3.86426, 19.7493, -156.853, -93.9245, 76.467
2.00812, -1, -25.2457, 3.82067, 19.7602, -156.903, -93.907, 76.1727
2.01509, -1, -25.4085, 3.77707, 19.771, -156.954, -93.8894, 75.8784
2.02308, -1, -25.5712, 3.73342, 19.7818, -157.004, -93.8718, 75.5842
2.03212, -1, -25.7339, 3.68977, 19.7924, -157.054, -93.8539, 75.2897
2.04007, -1, -25.8963, 3.64632, 19.8031, -157.105, -93.8356, 74.9951
2.04813, -1, -26.0584, 3.60283, 19.8139, -157.155, -93.8173, 74.7005
2.05512, -1, -26.2202, 3.55933, 19.8246, -157.206, -93.7991, 74.4059
2.06308, -1, -26.3818, 3.51598, 19.8353, -157.257, -93.7812, 74.1112
2.07208, -1, -26.5435, 3.47254, 19.846, -157.307, -93.7636, 73.816
2.08171, -1, -26.7054, 3.42904, 19.8567, -157.358, -93.7372, 73.3735
2.08813, -1, -26.8677, 3.38556, 19.8676, -157.409, -93.7283, 73.2259
2.09859, -1, -27.0303, 3.34198, 19.8784, -157.459, -93.7104, 72.9306
2.10314, -1, -27.1933, 3.29835, 19.8892, -157.51, -93.6922, 72.6353
2.11109, -1, -27.3566, 3.25474, 19.9, -157.561, -93.6739, 72.3402
2.11907, -1, -27.5204, 3.21101, 19.9106, -157.611, -93.6558, 72.0449
2.12716, -1, -27.6843, 3.16728, 19.9214, -157.662, -93.6379, 71.7493
2.13508, -1, -27.8482, 3.12362, 19.9322, -157.712, -93.6202, 71.4537
2.14311, -1, -28.0123, 3.07991, 19.9429, -157.763, -93.6025, 71.1584
2.15117, -1, -28.1764, 3.03618, 19.9538, -157.814, -93.5848, 70.8626
2.15911, -1, -28.3405, 2.99245, 19.9645, -157.864, -93.5668, 70.5666
2.16719, -1, -28.5045, 2.94873, 19.9753, -157.915, -93.5486, 70.2708
2.17524, -1, -28.6681, 2.90506, 19.9862, -157.966, -93.5302, 69.9748
2.18318, -1, -28.8315, 2.86137, 19.997, -158.017, -93.5119, 69.6787
2.19119, -1, -28.9945, 2.81774, 20.0078, -158.068, -93.494, 69.3823
2.19931, -1, -29.1572, 2.7741, 20.0185, -158.119, -93.4763, 69.086
2.2072, -1, -29.3199, 2.73046, 20.0293, -158.169, -93.4587, 68.7893
2.21508, -1, -29.4827, 2.68685, 20.0401, -158.221, -93.4411, 68.4926
2.22333, -1, -29.6456, 2.64313, 20.0509, -158.272, -93.4231, 68.1958
2.23119, -1, -29.8087, 2.59933, 20.0617, -158.322, -93.405, 67.8993
2.23917, -1, -29.9719, 2.55562, 20.0725, -158.374, -93.3866, 67.6027
2.24735, -1, -30.1353, 2.51181, 20.0833, -158.424, -93.3684, 67.3058
2.25527, -1, -30.2991, 2.46787, 20.0943, -158.475, -93.3504, 67.0088
2.26332, -1, -30.4634, 2.42398, 20.1052, -158.526, -93.3327, 66.7119
2.27151, -1, -30.6281, 2.38006, 20.116, -158.577, -93.315, 66.4148
2.27945, -1, -30.7931, 2.33611, 20.1268, -158.628, -93.2973, 66.1175
2.28752, -1, -30.9582, 2.29223, 20.1376, -158.679, -93.2793, 65.8203
2.29616, -1, -31.1231, 2.24822, 20.1485, -158.73, -93.261, 65.5231
2.30361, -1, -31.288, 2.20428, 20.1593, -158.781, -93.2425, 65.2257
2.31224, -1, -31.4528, 2.16046, 20.1701, -158.832, -93.2242, 64.928
2.31978, -1, -31.6173, 2.11652, 20.1808, -158.883, -93.206, 64.6304
2.32834, -1, -31.7818, 2.07256, 20.1917, -158.935, -93.1882, 64.3326
2.33557, -1, -31.8639, 2.05062, 20.1971, -158.96, -93.1794, 64.1837
2.34408, -1, -32.1097, 1.98477, 20.2136, -159.036, -93.153, 63.7366
2.35106, -1, -32.1916, 1.96279, 20.2191, -159.062, -93.1441, 63.5878
2.36011, -1, -32.4371, 1.89687, 20.2354, -159.139, -93.117, 63.141
2.36713, -1, -32.5189, 1.87485, 20.2409, -159.165, -93.1078, 62.992
2.37627, -1, -32.7647, 1.8088, 20.2573, -159.242, -93.0803, 62.5446
2.38308, -1, -32.8467, 1.78679, 20.2627, -159.267, -93.0713, 62.3955
2.39238, -1, -33.0931, 1.72056, 20.279, -159.344, -93.0444, 61.9479
2.39906, -1, -33.1754, 1.69847, 20.2845, -159.37, -93.0355, 61.7986
2.40856, -1, -33.4229, 1.63221, 20.3007, -159.446, -93.0087, 61.3506
2.41661, -1, -33.5885, 1.58803, 20.3117, -159.498, -92.9906, 61.0521
2.42466, -1, -33.7542, 1.54382, 20.3227, -159.549, -92.9722, 60.7533
2.43266, -1, -33.9199, 1.49968, 20.3336, -159.6, -92.9535, 60.4542
2.44066, -1, -34.0857, 1.45554, 20.3445, -159.651, -92.9349, 60.1553
2.44869, -1, -34.2516, 1.41146, 20.3553, -159.703, -92.9166, 59.8561
2.45667, -1, -34.3346, 1.3894, 20.3608, -159.729, -92.8987, 59.5566
2.46407, -1, -34.5005, 1.34524, 20.3717, -159.78, -92.8898, 59.4068
2.47211, -1, -34.6661, 1.30111, 20.3825, -159.832, -92.872, 59.1076
2.48006, -1, -34.8313, 1.257, 20.3934, -159.883, -92.8542, 58.8084
2.48806, -1, -34.9963, 1.2128, 20.4043, -159.934, -92.836, 58.5089
2.49616, -1, -35.1609, 1.16863, 20.4152, -159.986, -92.8176, 58.2091
2.50407, -1, -35.3254, 1.12439, 20.4263, -160.037, -92.7991, 57.9094
2.51206, -1, -35.4896, 1.08023, 20.4374, -160.089, -92.7808, 57.6097
2.5201, -1, -35.6522, 1.03643, 20.4486, -160.14, -92.7627, 57.31
2.52706, -1, -35.8121, 0.993185, 20.46, -160.191, -92.7448, 57.0114
2.53616, -1, -35.9682, 0.950979, 20.4717, -160.242, -92.7271, 56.7157
2.54413, -1, -36.1193, 0.910354, 20.4837, -160.291, -92.7096, 56.4257
2.55106, -1, -36.2631, 0.871863, 20.4956, -160.339, -92.6925, 56.1453
2.56006, -1, -36.3974, 0.836241, 20.5072, -160.384, -92.676, 55.8807
2.56811, -1, -36.5206, 0.803715, 20.5178, -160.425, -92.6607, 55.6384
2.57606, -1, -36.631, 0.774507, 20.5271, -160.461, -92.6473, 55.4236
2.58411, -1, -36.7272, 0.749143, 20.5347, -160.492, -92.6359, 55.2415
2.59213, -1, -36.8087, 0.727518, 20.5401, -160.517, -92.6269, 55.0944
2.60013, -1, -36.8763, 0.709593, 20.5431, -160.537, -92.6202, 54.9822
2.60806, -1, -36.9309, 0.695255, 20.5445, -160.551, -92.6156, 54.9022
2.61611, -1, -36.9728, 0.684267, 20.5449, -160.56, -92.6126, 54.8478
2.62322, -1, -37.0035, 0.676167, 20.5446, -160.566, -92.6108, 54.8146
2.63111, -1, -37.0247, 0.670608, 20.5441, -160.569, -92.6099, 54.7953
2.63908, -1, -37.0379, 0.667276, 20.5437, -160.571, -92.6094, 54.7855
2.64707, 2, -37.0454, 0.665527, 20.5435, -160.572, -92.6092, 54.7808
2.65606, 2, -37.0484, 0.664717, 20.5434, -160.572, -92.609, 54.7787
2.66418, 2, -37.0485, 0.664374, 20.5434, -160.573, -92.609, 54.7778
2.67116, 2, -37.0481, 0.664232, 20.5434, -160.573, -92.6089, 54.7774
2.67922, 2, -37.0479, 0.664171, 20.5433, -160.573, -92.609, 54.7772
2.68717, 2, -37.0483, 0.664136, 20.5433, -160.573, -92.609, 54.7772
2.69518, 2, -37.0492, 0.664086, 20.5433, -160.573, -92.609, 54.7773
2.70323, 2, -37.0502, 0.663981, 20.5431, -160.573, -92.609, 54.7774
2.71112, 2, -37.0515, 0.663764, 20.5429, -160.573, -92.609, 54.7775
2.71909, 2, -37.0529, 0.663523, 20.5427, -160.573, -92.6091, 54.7777
2.72727, 2, -37.054, 0.663307, 20.5426, -160.573, -92.6091, 54.7778
2.73526, 2, -37.055, 0.663098, 20.5424, -160.573, -92.6092, 54.778
2.74317, 2, -37.0555, 0.663002, 20.5422, -160.573, -92.6092, 54.7783
2.75125, 2, -37.0554, 0.662965, 20.542, -160.573, -92.6092, 54.7785
2.75962, 2, -37.0549, 0.662983, 20.5419, -160.573, -92.6092, 54.7787
2.76805, 2, -37.0539, 0.663047, 20.5418, -160.573, -92.6093, 54.7789
2.77543, 2, -37.0529, 0.663119, 20.5418, -160.573, -92.6093, 54.7792
2.78405, 2, -37.0513, 0.663221, 20.5417, -160.573, -92.6094, 54.7794
2.79212, 2, -37.0498, 0.663345, 20.5416, -160.573, -92.6094, 54.7796
2.79963, 2, -37.0488, 0.663409, 20.5416, -160.573, -92.6094, 54.7798
2.80821, 2, -37.0481, 0.663439, 20.5416, -160.573, -92.6094, 54.7798
2.81564, 2, -37.0478, 0.663423, 20.5415, -160.573, -92.6095, 54.7798
2.82418, 2, -37.0477, 0.66339, 20.5415, -160.573, -92.6095, 54.7798
2.83222, 2, -37.0479, 0.663302, 20.5415, -160.573, -92.6095, 54.7799
2.83963, 2, -37.048, 0.663259, 20.5415, -160.573, -92.6095, 54.78
2.8481, 2, -37.0487, 0.663185, 20.5414, -160.573, -92.6095, 54.7801
2.85597, 2, -37.0491, 0.663165, 20.5414, -160.573, -92.6095, 54.7801
2.86305, 2, -37.0499, 0.663159, 20.5414, -160.573, -92.6095, 54.7801
2.87215, 2, -37.0511, 0.663174, 20.5414, -160.573, -92.6095, 54.7802
2.87905, 2, -37.0514, 0.663184, 20.5414, -160.573, -92.6095, 54.7802
2.88705, 2, -37.0517, 0.663205, 20.5414, -160.573, -92.6095, 54.7802
2.89635, 2, -37.0518, 0.663247, 20.5414, -160.573, -92.6095, 54.7803
2.90304, 2, -37.0518, 0.663259, 20.5414, -160.573, -92.6095, 54.7803
2.91106, 2, -37.0516, 0.663272, 20.5414, -160.573, -92.6096, 54.7804
2.92059, 2, -37.051, 0.663271, 20.5414, -160.573, -92.6096, 54.7804
2.92922, 2, -37.0507, 0.663259, 20.5413, -160.573, -92.6095, 54.7805
2.93505, 2, -37.0505, 0.663241, 20.5413, -160.573, -92.6096, 54.7805
2.94309, 2, -37.0503, 0.66321, 20.5413, -160.573, -92.6096, 54.7805
2.95291, 2, -37.0502, 0.663193, 20.5413, -160.573, -92.6096, 54.7806
2.96059, 2, -37.0502, 0.663189, 20.5413, -160.573, -92.6096, 54.7806
2.96805, 2, -37.0502, 0.663154, 20.5413, -160.573, -92.6096, 54.7807
2.97709, 2, -37.0503, 0.663141, 20.5413, -160.573, -92.6096, 54.7808
2.98308, 2, -37.0503, 0.663161, 20.5412, -160.572, -92.6096, 54.7808
2.99204, 2, -37.0504, 0.663173, 20.5412, -160.572, -92.6096, 54.7809
3.00013, 2, -37.0506, 0.663182, 20.5412, -160.572, -92.6096, 54.7809
3.0071, 2, -37.0508, 0.663212, 20.5412, -160.572, -92.6096, 54.7809
3.01605, 2, -37.0509, 0.663226, 20.5412, -160.572, -92.6096, 54.7809
3.0241, 2, -37.0509, 0.663252, 20.5412, -160.572, -92.6096, 54.781
3.03105, 2, -37.0509, 0.663261, 20.5412, -160.572, -92.6096, 54.781
3.04007, 2, -37.0509, 0.663249, 20.5412, -160.572, -92.6097, 54.7811
3.04808, 2, -37.0508, 0.663243, 20.5412, -160.572, -92.6097, 54.7812
3.05505, 2, -37.0508, 0.663229, 20.5412, -160.572, -92.6097, 54.7812
3.06405, 2, -37.0508, 0.66319, 20.5412, -160.572, -92.6098, 54.7812
3.07209, 2, -37.0508, 0.663167, 20.5411, -160.572, -92.6097, 54.7812
3.07906, 2, -37.0507, 0.663162, 20.5412, -160.572, -92.6097, 54.7813
3.08809, 2, -37.0507, 0.663174, 20.5411, -160.572, -92.6097, 54.7813
3.09612, 2, -37.0507, 0.663183, 20.5411, -160.572, -92.6098, 54.7813
3.10405, 2, -37.0507, 0.66322, 20.5411, -160.572, -92.6098, 54.7814
3.11204, 2, -37.0507, 0.663254, 20.5411, -160.572, -92.6098, 54.7814
3.12009, 2, -37.0507, 0.663262, 20.5411, -160.572, -92.6098, 54.7816
3.12804, 2, -37.0507, 0.663269, 20.5411, -160.572, -92.6098, 54.7816
3.13509, 2, -37.0507, 0.663264, 20.5411, -160.572, -92.6098, 54.7816
3.1441, 2, -37.0506, 0.663267, 20.5411, -160.572, -92.6099, 54.7817
3.15108, 2, -37.0507, 0.663251, 20.5411, -160.572, -92.6098, 54.7818
3.16013, 2, -37.0506, 0.663263, 20.5411, -160.572, -92.6098, 54.7818
3.1671, 2, -37.0506, 0.663254, 20.5411, -160.572, -92.6098, 54.7819
3.17513, 2, -37.0506, 0.663209, 20.5411, -160.572, -92.6098, 54.7819
3.1832, 2, -37.0507, 0.663212, 20.5411, -160.572, -92.6098, 54.7818
3.19114, 2, -37.0506, 0.663226, 20.5411, -160.572, -92.6098, 54.7818
3.19918, 2, -37.0506, 0.663232, 20.5411, -160.572, -92.6098, 54.7819
3.20721, 2, -37.0506, 0.663235, 20.541, -160.572, -92.6098, 54.7819
3.21504, 2, -37.0505, 0.663256, 20.541, -160.572, -92.6098, 54.782
3.22306, 2, -37.0505, 0.663263, 20.541, -160.572, -92.6098, 54.782
3.23125, 2, -37.0506, 0.663269, 20.541, -160.572, -92.6098, 54.782
3.23909, 2, -37.0505, 0.663276, 20.541, -160.572, -92.6098, 54.782
3.24722, 2, -37.0505, 0.663268, 20.541, -160.572, -92.6099, 54.782
3.25525, 2, -37.0505, 0.663276, 20.541, -160.572, -92.6099, 54.7821
3.26325, 2, -37.0505, 0.66326, 20.541, -160.572, -92.6099, 54.7821
3.2714, 2, -37.0505, 0.663248, 20.541, -160.572, -92.6099, 54.7821
3.27944, 2, -37.0505, 0.663255, 20.541, -160.572, -92.6099, 54.7821
3.28749, 2, -37.0505, 0.663258, 20.541, -160.572, -92.6099, 54.7821
3.29612, 2, -37.0504, 0.663248, 20.541, -160.572, -92.6099, 54.7822
3.30359, 2, -37.0504, 0.663235, 20.541, -160.572, -92.6099, 54.7823
3.31219, 2, -37.0504, 0.663244, 20.541, -160.572, -92.6099, 54.7823
3.31973, 2, -37.0503, 0.663253, 20.541, -160.572, -92.6099, 54.7824
3.32819, 2, -37.0503, 0.663269, 20.541, -160.572, -92.6099, 54.7824
3.33556, 2, -37.0503, 0.663274, 20.541, -160.572, -92.6099, 54.7824
3.34405, 2, -37.0503, 0.66328, 20.541, -160.572, -92.6099, 54.7824
3.35105, 2, -37.0503, 0.663281, 20.541, -160.572, -92.6099, 54.7824
3.36009, 2, -37.0503, 0.663263, 20.5409, -160.572, -92.6099, 54.7824
3.36708, 2, -37.0503, 0.663262, 20.5409, -160.572, -92.6099, 54.7824
3.37618, 2, -37.0503, 0.663276, 20.5409, -160.572, -92.6099, 54.7825
3.38303, 2, -37.0503, 0.663279, 20.5409, -160.572, -92.6099, 54.7825
3.39232, 2, -37.0503, 0.663274, 20.5409, -160.572, -92.6099, 54.7825
3.3991, 2, -37.0503, 0.66327, 20.5409, -160.572, -92.6099, 54.7825
3.40848, 2, -37.0503, 0.663279, 20.5409, -160.572, -92.6099, 54.7824
3.41653, 2, -37.0503, 0.663274, 20.5409, -160.572, -92.6099, 54.7825
3.42461, 2, -37.0503, 0.663274, 20.5409, -160.572, -92.6099, 54.7825
3.43259, 2, -37.0503, 0.663279, 20.5409, -160.572, -92.6099, 54.7825
3.44064, 2, -37.0502, 0.663281, 20.5409, -160.572, -92.6099, 54.7825
3.44864, 2, -37.0502, 0.663282, 20.5409, -160.572, -92.6099, 54.7825
3.45662, 2, -37.0502, 0.663282, 20.5409, -160.572, -92.6099, 54.7825
3.46467, 2, -37.0502, 0.663283, 20.5408, -160.572, -92.6099, 54.7825
3.47258, 2, -37.0502, 0.663283, 20.5408, -160.572, -92.61, 54.7825
3.48004, 2, -37.0502, 0.663283, 20.5408, -160.572, -92.61, 54.7825
3.48802, 2, -37.0502, 0.663283, 20.5408, -160.572, -92.61, 54.7825
3.49606, 2, -37.0501, 0.663283, 20.5408, -160.572, -92.61, 54.7826
3.5041, 2, -37.0501, 0.663283, 20.5408, -160.572, -92.61, 54.7826
3.51209, 2, -37.0501, 0.663283, 20.5408, -160.572, -92.6101, 54.7826
3.52006, 2, -37.0501, 0.663276, 20.5408, -160.572, -92.61, 54.7826
3.52805, 2, -37.0501, 0.663262, 20.5408, -160.572, -92.61, 54.7826
3.53603, 2, -37.05, 0.663274, 20.5408, -160.572, -92.61, 54.7826
3.54407, 2, -37.0501, 0.663279, 20.5408, -160.572, -92.61, 54.7827
3.55203, 2, -37.05, 0.663281, 20.5408, -160.572, -92.61, 54.7828
3.56002, 2, -37.05, 0.663282, 20.5408, -160.572, -92.61, 54.7828
3.56807, 2, -37.05, 0.663282, 20.5408, -160.572, -92.61, 54.7827
3.57604, 2, -37.0499, 0.663283, 20.5408, -160.572, -92.61, 54.7828
3.58403, 2, -37.0499, 0.663283, 20.5407, -160.572, -92.6101, 54.7828
3.59354, 2, -37.0499, 0.663283, 20.5407, -160.572, -92.6101, 54.7828
3.60006, 2, -37.0499, 0.663283, 20.5407, -160.572, -92.6101, 54.7828
3.60986, 2, -37.0499, 0.663283, 20.5407, -160.572, -92.6101, 54.7828
3.61607, 2, -37.0499, 0.663283, 20.5407, -160.572, -92.6101, 54.7828
3.62404, 2, -37.0499, 0.663283, 20.5407, -160.572, -92.6101, 54.7828
3.63203, 2, -37.0499, 0.663283, 20.5407, -160.572, -92.6101, 54.7828
3.64006, 2, -37.0499, 0.663283, 20.5407, -160.572, -92.6101, 54.7828
3.64817, 2, -37.0498, 0.663283, 20.5407, -160.572, -92.6102, 54.7828
3.65554, 2, -37.0498, 0.663283, 20.5407, -160.571, -92.6102, 54.7828
3.66408, 2, -37.0498, 0.663283, 20.5407, -160.571, -92.6101, 54.7829
3.67207, 2, -37.0498, 0.663283, 20.5407, -160.571, -92.6101, 54.7829
3.67918, 2, -37.0498, 0.663294, 20.5407, -160.571, -92.6101, 54.7828
3.68713, 2, -37.0498, 0.663295, 20.5406, -160.571, -92.6101, 54.7828
3.69513, 2, -37.0498, 0.663307, 20.5406, -160.571, -92.6101, 54.7829
3.7032, 2, -37.0497, 0.663294, 20.5406, -160.571, -92.6102, 54.7829
3.71135, 2, -37.0497, 0.663288, 20.5406, -160.571, -92.6101, 54.7829
3.71903, 4, -37.0497, 0.663285, 20.5406, -160.571, -92.6101, 54.7829
3.7271, 4, -37.0497, 0.663284, 20.5406, -160.571, -92.6101, 54.7829
3.7351, 4, -37.0496, 0.663283, 20.5406, -160.571, -92.6101, 54.7829
3.74305, 4, -37.0496, 0.663283, 20.5406, -160.571, -92.6101, 54.783
3.75148, 4, -37.0496, 0.663283, 20.5406, -160.571, -92.6102, 54.783
3.7592, 4, -37.0496, 0.663294, 20.5406, -160.571, -92.6102, 54.7829
3.76724, 4, -37.0495, 0.663306, 20.5406, -160.571, -92.6101, 54.7829
3.77575, 4, -37.0495, 0.663319, 20.5406, -160.571, -92.6102, 54.7829
3.78409, 4, -37.0495, 0.663329, 20.5406, -160.571, -92.6102, 54.7829
3.79205, 4, -37.0494, 0.663341, 20.5406, -160.571, -92.6101, 54.7829
3.80007, 4, -37.0495, 0.663346, 20.5406, -160.571, -92.6101, 54.783
3.80817, 4, -37.0494, 0.663349, 20.5406, -160.571, -92.6101, 54.783
3.81581, 4, -37.0494, 0.663339, 20.5405, -160.571, -92.6101, 54.783
3.84197, 4, -37.0494, 0.663331, 20.5405, -160.571, -92.6101, 54.7829
3.84391, 4, -37.0494, 0.663345, 20.5405, -160.571, -92.6101, 54.7829
3.84534, 4, -37.0494, 0.663345, 20.5405, -160.571, -92.6101, 54.7829
3.84699, 4, -37.0494, 0.663345, 20.5405, -160.571, -92.6101, 54.7829
3.85605, 4, -37.0493, 0.663338, 20.5405, -160.571, -92.6101, 54.783
3.86305, 4, -37.0493, 0.663331, 20.5405, -160.571, -92.6101, 54.783
3.87219, 4, -37.0485, 0.663192, 20.5405, -160.571, -92.6102, 54.7829
3.87901, 4, -37.0475, 0.662911, 20.5406, -160.571, -92.6102, 54.783
3.88819, 4, -37.0406, 0.659991, 20.5415, -160.571, -92.6102, 54.7829
3.89501, 4, -37.0371, 0.658169, 20.5422, -160.571, -92.6102, 54.7829
3.90437, 4, -37.0244, 0.650534, 20.547, -160.571, -92.6102, 54.7829
3.91106, 4, -37.0195, 0.647255, 20.5498, -160.57, -92.6102, 54.7829
3.92057, 5, -37.0015, 0.634187, 20.5624, -160.568, -92.6101, 54.7829
3.9286, 5, -36.9875, 0.623003, 20.5743, -160.565, -92.61, 54.7828
3.93655, 5, -36.9726, 0.610271, 20.5891, -160.562, -92.6099, 54.7827
3.94301, 5, -36.9648, 0.60339, 20.5974, -160.56, -92.6098, 54.7827
3.95264, 5, -36.938, 0.580149, 20.6247, -160.555, -92.6096, 54.7826
3.96058, 5, -36.9277, 0.571389, 20.6345, -160.55, -92.6094, 54.7825
3.96868, 5, -36.9054, 0.552687, 20.6548, -160.546, -92.6092, 54.7825
3.97601, 5, -36.8812, 0.533273, 20.6753, -160.544, -92.6091, 54.7824
3.98401, 5, -36.856, 0.513559, 20.6959, -160.54, -92.6089, 54.7823
3.99207, 5, -36.8305, 0.493358, 20.7168, -160.535, -92.6085, 54.7821
4.00001, 5, -36.8048, 0.473039, 20.7376, -160.53, -92.6081, 54.7819
4.00805, 5, -36.779, 0.452883, 20.7586, -160.526, -92.6076, 54.7818
4.01605, 5, -36.7533, 0.432571, 20.7796, -160.521, -92.6072, 54.7816
4.02401, 5, -36.7278, 0.412245, 20.8005, -160.516, -92.6067, 54.7814
4.03202, 5, -36.7023, 0.392114, 20.8215, -160.511, -92.6061, 54.7812
4.039, 5, -36.6768, 0.371927, 20.8426, -160.506, -92.6056, 54.7809
4.04702, 5, -36.6512, 0.351797, 20.8636, -160.502, -92.605, 54.7808
4.05601, 5, -36.6256, 0.331849, 20.8847, -160.497, -92.6043, 54.7806
4.06406, 5, -36.6, 0.311823, 20.9057, -160.492, -92.6037, 54.7805
4.07202, 5, -36.5746, 0.291825, 20.9268, -160.488, -92.6031, 54.7804
4.08, 5, -36.5493, 0.271814, 20.9479, -160.483, -92.6025, 54.7803
4.08807, 5, -36.5239, 0.251625, 20.969, -160.479, -92.6019, 54.7802
4.09604, 5, -36.4986, 0.231338, 20.9901, -160.474, -92.6011, 54.7802
4.10402, 5, -36.473, 0.211116, 21.011, -160.47, -92.6004, 54.7801
4.11202, 5, -36.4472, 0.190868, 21.0319, -160.466, -92.5998, 54.78
4.12001, 5, -36.4213, 0.170585, 21.0529, -160.461, -92.5992, 54.7799
4.12806, 5, -36.3953, 0.15039, 21.0738, -160.457, -92.5986, 54.7796
4.135, 5, -36.3693, 0.130183, 21.0948, -160.453, -92.5979, 54.7795
4.144, 5, -36.3434, 0.109892, 21.1158, -160.449, -92.5972, 54.7792
4.15208, 5, -36.3176, 0.0898276, 21.1366, -160.444, -92.5966, 54.779
4.16, 5, -36.2918, 0.0698094, 21.1576, -160.44, -92.5959, 54.7787
4.16801, 5, -36.2659, 0.0496941, 21.1784, -160.436, -92.5952, 54.7784
4.17611, 5, -36.24, 0.0297472, 21.1993, -160.432, -92.5946, 54.778
4.1831, 5, -36.2141, 0.00979758, 21.2203, -160.427, -92.594, 54.7777
4.19202, 5, -36.1883, -0.0103057, 21.2411, -160.423, -92.5933, 54.7773
4.20007, 5, -36.1626, -0.0302801, 21.262, -160.419, -92.5927, 54.7769
4.20712, 5, -36.1369, -0.0502046, 21.2828, -160.414, -92.5921, 54.7764
4.21563, 5, -36.1111, -0.0702826, 21.3037, -160.41, -92.5915, 54.7759
4.22406, 5, -36.085, -0.0902455, 21.3246, -160.405, -92.5908, 54.7754
4.23202, 5, -36.0589, -0.110238, 21.3452, -160.401, -92.5902, 54.775
4.24001, 5, -36.033, -0.130343, 21.3659, -160.396, -92.5896, 54.7746
4.24806, 5, -36.0069, -0.150405, 21.3867, -160.391, -92.5889, 54.7741
4.25518, 5, -35.9808, -0.170311, 21.4073, -160.386, -92.5883, 54.7736
4.26402, 5, -35.9548, -0.190302, 21.4282, -160.382, -92.5877, 54.7732
4.27211, 5, -35.9286, -0.210231, 21.4489, -160.377, -92.5871, 54.7727
4.28, 5, -35.9024, -0.230021, 21.4695, -160.372, -92.5865, 54.7723
4.28811, 5, -35.8764, -0.249953, 21.4902, -160.367, -92.5859, 54.7719
4.29546, 5, -35.8504, -0.26982, 21.5107, -160.362, -92.5853, 54.7715
4.30357, 5, -35.8243, -0.28949, 21.5313, -160.357, -92.5847, 54.7712
4.31238, 5, -35.7983, -0.309314, 21.552, -160.352, -92.5841, 54.7709
4.31953, 5, -35.7722, -0.329174, 21.5725, -160.347, -92.5835, 54.7706
4.32848, 5, -35.746, -0.348903, 21.5931, -160.342, -92.583, 54.7704
4.33562, 5, -35.7331, -0.368756, 21.6137, -160.338, -92.5824, 54.7702
4.34415, 5, -35.694, -0.388681, 21.6342, -160.333, -92.5818, 54.77
4.35259, 5, -35.681, -0.408381, 21.6548, -160.329, -92.5812, 54.7698
4.36057, 5, -35.6417, -0.428168, 21.6752, -160.324, -92.5806, 54.7696
4.36699, 5, -35.6286, -0.438119, 21.6854, -160.322, -92.5803, 54.7695
4.37689, 5, -35.5891, -0.467708, 21.7159, -160.315, -92.5795, 54.7693
4.38419, 5, -35.5629, -0.48751, 21.7363, -160.311, -92.5788, 54.7692
4.39098, 5, -35.5498, -0.497415, 21.7465, -160.308, -92.5785, 54.7691
4.40111, 5, -35.5105, -0.526899, 21.7771, -160.302, -92.5777, 54.7691
4.40709, 5, -35.4974, -0.536683, 21.7872, -160.299, -92.5774, 54.769
4.41647, 5, -35.4579, -0.566184, 21.8177, -160.293, -92.5766, 54.7689
4.42301, 5, -35.4447, -0.575965, 21.8278, -160.29, -92.5762, 54.7689
4.43258, 5, -35.4053, -0.605248, 21.8581, -160.284, -92.5753, 54.7689
4.44059, 5, -35.379, -0.624986, 21.8784, -160.279, -92.5748, 54.7689
4.44951, 5, -35.3528, -0.644515, 21.8985, -160.275, -92.5742, 54.7689
4.45505, 5, -35.3397, -0.654231, 21.9086, -160.272, -92.5739, 54.7689
4.46461, 5, -35.3133, -0.683695, 21.939, -160.265, -92.573, 54.7688
4.47342, 5, -35.2867, -0.693536, 21.949, -160.263, -92.5727, 54.7688
4.47905, 5, -35.2603, -0.713022, 21.9692, -160.258, -92.5722, 54.7689
4.48908, 5, -35.2206, -0.742424, 21.9995, -160.251, -92.5713, 54.7689
4.49503, 5, -35.2074, -0.752242, 22.0094, -160.248, -92.571, 54.7689
4.50399, 5, -35.181, -0.771603, 22.0293, -160.243, -92.5704, 54.7688
4.51209, 5, -35.1544, -0.790919, 22.0494, -160.238, -92.5698, 54.7689
4.51999, 5, -35.1278, -0.810434, 22.0694, -160.233, -92.5693, 54.7689
4.52699, 5, -35.1014, -0.829728, 22.0894, -160.228, -92.5687, 54.769
4.53599, 5, -35.075, -0.849063, 22.1095, -160.223, -92.5681, 54.769
4.54399, 5, -35.0485, -0.868599, 22.1293, -160.218, -92.5675, 54.769
4.55099, 5, -35.0222, -0.888043, 22.1492, -160.213, -92.5669, 54.769
4.55998, 5, -34.9958, -0.907326, 22.169, -160.208, -92.5663, 54.7689
4.56799, 5, -34.9692, -0.926767, 22.1888, -160.203, -92.5657, 54.7689
4.57503, 5, -34.9429, -0.946194, 22.2087, -160.198, -92.5651, 54.769
4.58398, 5, -34.9165, -0.965491, 22.2286, -160.193, -92.5645, 54.7691
4.592, 5, -34.8899, -0.984842, 22.2483, -160.188, -92.5639, 54.7691
4.60098, 5, -34.8634, -1.00426, 22.2682, -160.184, -92.5634, 54.7691
4.60801, 5, -34.8367, -1.02349, 22.2879, -160.179, -92.5627, 54.7692
4.61664, 5, -34.8098, -1.04262, 22.3077, -160.174, -92.5621, 54.7692
4.62413, 5, -34.7832, -1.06195, 22.3275, -160.17, -92.5614, 54.7693
4.63199, 5, -34.7566, -1.08113, 22.3471, -160.165, -92.5609, 54.7693
4.64078, 5, -34.7299, -1.10025, 22.3667, -160.161, -92.5603, 54.7695
4.64699, 5, -34.7033, -1.11955, 22.3864, -160.156, -92.5596, 54.7696
4.65599, 5, -34.6765, -1.13879, 22.406, -160.152, -92.5591, 54.7696
4.66846, 5, -34.6363, -1.16752, 22.4355, -160.145, -92.5582, 54.7698
4.67206, 5, -34.623, -1.17715, 22.4452, -160.142, -92.5579, 54.7699
4.67907, 5, -34.5963, -1.19634, 22.4647, -160.138, -92.5573, 54.77
4.68708, 5, -34.5696, -1.21551, 22.4842, -160.133, -92.5567, 54.7702
4.69599, 5, -34.543, -1.23476, 22.5037, -160.128, -92.556, 54.7704
4.70404, 5, -34.5162, -1.25396, 22.5231, -160.124, -92.5554, 54.7707
4.71198, 5, -34.4894, -1.273, 22.5426, -160.119, -92.5548, 54.771
4.72014, 5, -34.4627, -1.29207, 22.5621, -160.114, -92.5542, 54.7715
4.72748, 5, -34.4359, -1.31115, 22.5815, -160.109, -92.5535, 54.772
4.73502, 5, -34.409, -1.33011, 22.601, -160.104, -92.553, 54.7726
4.74331, 5, -34.3821, -1.34908, 22.6203, -160.099, -92.5523, 54.7733
4.75104, 5, -34.3551, -1.36818, 22.6398, -160.093, -92.5517, 54.774
4.75912, 5, -34.3281, -1.38718, 22.6593, -160.088, -92.5511, 54.7748
4.76751, 5, -34.3013, -1.40605, 22.6785, -160.083, -92.5505, 54.7757
4.7753, 5, -34.2744, -1.42511, 22.6978, -160.077, -92.5499, 54.7767
4.78331, 5, -34.2476, -1.44415, 22.7171, -160.072, -92.5492, 54.7778
4.7915, 5, -34.2206, -1.46301, 22.7363, -160.067, -92.5486, 54.779
4.80011, 5, -34.1934, -1.48199, 22.7556, -160.061, -92.548, 54.7802
4.80808, 5, -34.1665, -1.50103, 22.7749, -160.056, -92.5474, 54.7814
4.81611, 5, -34.1396, -1.51983, 22.7941, -160.051, -92.5467, 54.7827
4.8245, 5, -34.1126, -1.53867, 22.8134, -160.046, -92.546, 54.7839
4.83156, 5, -34.0859, -1.55762, 22.8325, -160.041, -92.5454, 54.7852
4.84009, 5, -34.0589, -1.57634, 22.8516, -160.036, -92.5448, 54.7865
4.8482, 5, -34.0318, -1.59513, 22.8708, -160.031, -92.5441, 54.7878
4.85497, 5, -34.0183, -1.60461, 22.8804, -160.029, -92.5438, 54.7885
4.86533, 5, -33.9778, -1.63283, 22.909, -160.022, -92.5428, 54.7905
4.87103, 5, -33.9642, -1.64214, 22.9186, -160.019, -92.5424, 54.7912
4.88014, 5, -33.9236, -1.67035, 22.9473, -160.012, -92.5415, 54.7932
4.88698, 5, -33.9101, -1.67974, 22.9568, -160.01, -92.5412, 54.7939
4.8962, 5, -33.8693, -1.70767, 22.9854, -160.002, -92.5403, 54.7959
4.90298, 5, -33.8557, -1.71704, 22.995, -160, -92.5399, 54.7965
4.91263, 5, -33.8151, -1.74528, 23.0233, -159.993, -92.539, 54.7985
4.92045, 5, -33.7879, -1.7639, 23.0423, -159.988, -92.5383, 54.7999
4.92697, 5, -33.7743, -1.77319, 23.0517, -159.985, -92.5379, 54.8005
4.93657, 5, -33.7335, -1.8013, 23.0801, -159.978, -92.5369, 54.8026
4.94457, 5, -33.7062, -1.81998, 23.0991, -159.972, -92.5362, 54.804
4.95257, 5, -33.6791, -1.8385, 23.118, -159.967, -92.5356, 54.8053
4.96179, 5, -33.6656, -1.85724, 23.1369, -159.962, -92.535, 54.8067
4.96954, 5, -33.625, -1.87593, 23.1558, -159.957, -92.5343, 54.8081
4.97649, 5, -33.6114, -1.88519, 23.1651, -159.954, -92.534, 54.8087
4.984, 5, -33.5842, -1.90364, 23.1838, -159.949, -92.5333, 54.8101
4.992, 5, -33.5568, -1.9223, 23.2026, -159.943, -92.5327, 54.8115
5.00002, 5, -33.5296, -1.94081, 23.2214, -159.938, -92.5319, 54.8129
5.00797, 5, -33.5023, -1.95929, 23.2401, -159.932, -92.5313, 54.8142
5.01599, 5, -33.475, -1.97798, 23.2589, -159.927, -92.5306, 54.8157
5.02398, 5, -33.4477, -1.99667, 23.2776, -159.921, -92.5299, 54.8171
5.03201, 5, -33.4203, -2.01523, 23.2963, -159.916, -92.5292, 54.8184
5.03997, 5, -33.3929, -2.03398, 23.3152, -159.91, -92.5284, 54.8198
5.04797, 5, -33.3657, -2.05285, 23.334, -159.905, -92.5276, 54.8209
5.05597, 5, -33.3385, -2.0716, 23.3528, -159.9, -92.5266, 54.8219
5.06412, 5, -33.3115, -2.0906, 23.3718, -159.894, -92.5255, 54.8227
5.07097, 5, -33.2844, -2.10986, 23.3909, -159.889, -92.5241, 54.8234
5.07997, 6, -33.2572, -2.12904, 23.4101, -159.883, -92.5226, 54.8238
5.08797, 6, -33.2303, -2.14839, 23.4296, -159.878, -92.521, 54.8241
5.09603, 6, -33.2035, -2.1681, 23.4491, -159.872, -92.5191, 54.8242
5.10581, 6, -33.1768, -2.18788, 23.4687, -159.866, -92.517, 54.8243
5.11093, 6, -33.1501, -2.20782, 23.4885, -159.86, -92.5147, 54.8243
5.11997, 6, -33.1236, -2.2281, 23.5084, -159.854, -92.5122, 54.8243
5.12809, 6, -33.097, -2.24849, 23.5284, -159.848, -92.5095, 54.8242
5.13597, 6, -33.0705, -2.26897, 23.5486, -159.841, -92.5066, 54.824
5.14398, 6, -33.0441, -2.28976, 23.5689, -159.834, -92.5037, 54.8236
5.15203, 6, -33.0178, -2.31062, 23.5894, -159.827, -92.5004, 54.8231
5.15997, 6, -32.9916, -2.33173, 23.6101, -159.82, -92.4971, 54.8225
5.16799, 6, -32.9655, -2.35317, 23.6309, -159.812, -92.4935, 54.8217
5.17504, 6, -32.9392, -2.37464, 23.6518, -159.805, -92.4898, 54.8207
5.18414, 7, -32.9131, -2.39628, 23.6728, -159.796, -92.486, 54.8197
5.19318, 7, -32.8873, -2.41822, 23.6939, -159.788, -92.4819, 54.8187
5.19997, 7, -32.8615, -2.44018, 23.7152, -159.78, -92.4777, 54.817
5.20804, 7, -32.8358, -2.46243, 23.7366, -159.771, -92.4734, 54.8147
5.21508, 7, -32.8101, -2.48498, 23.7583, -159.763, -92.4688, 54.8118
5.22397, 7, -32.7844, -2.50757, 23.78, -159.755, -92.4641, 54.8083
5.23352, 7, -32.7589, -2.53039, 23.8018, -159.746, -92.4592, 54.8045
5.23996, 7, -32.7335, -2.55346, 23.8239, -159.738, -92.4542, 54.8003
5.24803, 7, -32.7081, -2.57668, 23.8459, -159.729, -92.4489, 54.7956
5.25505, 7, -32.6829, -2.60018, 23.8682, -159.721, -92.4435, 54.7908
5.26324, 7, -32.6578, -2.62378, 23.8907, -159.712, -92.4378, 54.7856
5.27204, 7, -32.6326, -2.64759, 23.9132, -159.703, -92.432, 54.7801
5.27998, 7, -32.6075, -2.67156, 23.936, -159.694, -92.426, 54.7744
5.28885, 7, -32.5826, -2.69565, 23.9589, -159.684, -92.4196, 54.7685
5.29626, 8, -32.5577, -2.7202, 23.9819, -159.675, -92.413, 54.7622
5.30344, 8, -32.5329, -2.74474, 24.005, -159.665, -92.4062, 54.7557
5.31154, 8, -32.5082, -2.76946, 24.0282, -159.655, -92.399, 54.749
5.32046, 8, -32.4835, -2.79451, 24.0516, -159.644, -92.3915, 54.7419
5.32752, 8, -32.4588, -2.81955, 24.0751, -159.634, -92.3837, 54.7348
5.33955, 8, -32.4343, -2.85773, 24.1109, -159.618, -92.3715, 54.7234
5.34445, 8, -32.4099, -2.87049, 24.1228, -159.613, -92.3673, 54.7195
5.35147, 8, -32.3977, -2.88328, 24.1347, -159.608, -92.3631, 54.7156
5.35999, 8, -32.3614, -2.92206, 24.1708, -159.592, -92.3503, 54.7033
5.36886, 8, -32.3371, -2.94819, 24.195, -159.581, -92.3417, 54.6947
5.376, 8, -32.3129, -2.97456, 24.2195, -159.571, -92.3331, 54.6858
5.38311, 8, -32.3009, -2.98775, 24.2318, -159.565, -92.3287, 54.6812
5.39093, 8, -32.277, -3.01427, 24.2564, -159.554, -92.3199, 54.6718
5.40019, 8, -32.2412, -3.05448, 24.2936, -159.537, -92.3065, 54.6574
5.40696, 9, -32.2293, -3.06794, 24.3061, -159.532, -92.302, 54.6524
5.41639, 9, -32.1939, -3.10881, 24.3438, -159.514, -92.2882, 54.6376
5.4244, 9, -32.1702, -3.13615, 24.3689, -159.502, -92.2788, 54.6276
5.43243, 9, -32.1464, -3.1638, 24.3943, -159.489, -92.2691, 54.6174
5.43895, 9, -32.1347, -3.17766, 24.4071, -159.483, -92.2641, 54.6123
5.44852, 9, -32.0997, -3.21966, 24.4456, -159.465, -92.2485, 54.5969
5.45657, 9, -32.0763, -3.24783, 24.4713, -159.453, -92.2376, 54.5865
5.4646, 9, -32.053, -3.27626, 24.4972, -159.441, -92.2265, 54.576
5.4725, 9, -32.0415, -3.29058, 24.5102, -159.434, -92.2208, 54.5652
5.48067, 9, -32.0183, -3.3193, 24.5364, -159.422, -92.2036, 54.5542
5.488, 9, -31.995, -3.34827, 24.5627, -159.409, -92.1979, 54.5486
5.49497, 9, -31.9721, -3.37736, 24.5891, -159.397, -92.1864, 54.5372
5.50411, 9, -31.9493, -3.40667, 24.6157, -159.383, -92.1748, 54.5255
5.51181, 9, -31.9265, -3.43617, 24.6425, -159.37, -92.1632, 54.5135
5.51895, 10, -31.9039, -3.46596, 24.6695, -159.356, -92.1515, 54.5011
5.52797, 10, -31.8813, -3.49584, 24.6963, -159.342, -92.1395, 54.4883
5.536, 10, -31.8587, -3.52596, 24.7234, -159.328, -92.1272, 54.4752
5.54297, 10, -31.836, -3.55622, 24.7508, -159.315, -92.1146, 54.4617
5.55414, 10, -31.8025, -3.60214, 24.7921, -159.294, -92.0949, 54.4414
5.55895, 10, -31.7914, -3.61747, 24.8059, -159.288, -92.0881, 54.4346
5.56795, 10, -31.7692, -3.64838, 24.8336, -159.274, -92.0744, 54.421
5.57595, 10, -31.7471, -3.67945, 24.8615, -159.26, -92.0606, 54.4075
5.583, 10, -31.7251, -3.71084, 24.8895, -159.245, -92.0467, 54.3938
5.59195, 10, -31.703, -3.74229, 24.9176, -159.231, -92.033, 54.38
5.59997, 10, -31.681, -3.77391, 24.946, -159.216, -92.0192, 54.366
5.61098, 10, -31.648, -3.82183, 24.9889, -159.193, -91.9985, 54.3446
5.61597, 10, -31.6371, -3.83794, 25.0032, -159.186, -91.9915, 54.3372
5.62398, 11, -31.6152, -3.87018, 25.0318, -159.171, -91.9772, 54.3223
5.63194, 11, -31.5935, -3.90265, 25.0606, -159.156, -91.9625, 54.307
5.63996, 11, -31.572, -3.93534, 25.0897, -159.141, -91.9472, 54.2912
5.64802, 11, -31.5504, -3.96829, 25.1188, -159.126, -91.9317, 54.2752
5.65595, 11, -31.5287, -4.00135, 25.148, -159.11, -91.916, 54.259
5.66401, 11, -31.5073, -4.03465, 25.1774, -159.094, -91.9004, 54.2429
5.6711, 11, -31.486, -4.06817, 25.2071, -159.078, -91.8847, 54.2267
5.67901, 11, -31.4647, -4.10196, 25.2368, -159.062, -91.869, 54.2103
5.68797, 11, -31.4435, -4.13586, 25.2666, -159.045, -91.8532, 54.194
5.69538, 11, -31.4225, -4.16997, 25.2966, -159.029, -91.8372, 54.1774
5.70305, 11, -31.4015, -4.20439, 25.3268, -159.013, -91.8207, 54.1605
5.71144, 11, -31.3804, -4.23897, 25.357, -158.997, -91.8037, 54.1433
5.71912, 11, -31.3595, -4.27371, 25.3874, -158.98, -91.7863, 54.1256
5.72722, 11, -31.3388, -4.30862, 25.418, -158.964, -91.7689, 54.1073
5.73612, 12, -31.318, -4.34384, 25.4488, -158.946, -91.7515, 54.0888
5.74395, 12, -31.2974, -4.37923, 25.4796, -158.929, -91.7341, 54.0703
5.75204, 12, -31.2769, -4.41475, 25.5106, -158.911, -91.7168, 54.0516
5.75995, 12, -31.2566, -4.45054, 25.5418, -158.894, -91.6994, 54.033
5.76795, 12, -31.2363, -4.4865, 25.5731, -158.877, -91.6816, 54.0145
5.77598, 12, -31.2159, -4.52255, 25.6045, -158.86, -91.6633, 53.9956
5.78407, 12, -31.1956, -4.5589, 25.6362, -158.842, -91.6446, 53.9765
5.79195, 12, -31.1755, -4.59548, 25.668, -158.824, -91.6257, 53.9572
5.79998, 12, -31.1554, -4.63219, 25.6998, -158.806, -91.6068, 53.9373
5.80829, 12, -31.1354, -4.66906, 25.7318, -158.788, -91.588, 53.9168
5.81549, 12, -31.1154, -4.70624, 25.764, -158.769, -91.5691, 53.8962
5.82425, 12, -31.0957, -4.74357, 25.7963, -158.751, -91.55, 53.8756
5.83259, 12, -31.0757, -4.78117, 25.8286, -158.732, -91.5304, 53.8551
5.84009, 12, -31.0558, -4.819, 25.8612, -158.714, -91.5102, 53.8345
5.84768, 13, -31.036, -4.85702, 25.894, -158.696, -91.4897, 53.8137
5.85615, 13, -31.0163, -4.89518, 25.9268, -158.677, -91.4693, 53.7927
5.86294, 13, -31.0066, -4.91438, 25.9433, -158.668, -91.4591, 53.7821
5.87315, 13, -30.9773, -4.97232, 25.9931, -158.639, -91.4288, 53.7495
5.87899, 13, -30.9676, -4.99171, 26.0097, -158.629, -91.4186, 53.7384
5.88813, 13, -30.9388, -5.05018, 26.0598, -158.6, -91.3876, 53.7049
5.89494, 13, -30.9292, -5.06979, 26.0767, -158.59, -91.377, 53.6937
5.90419, 13, -30.9003, -5.12882, 26.1273, -158.561, -91.3445, 53.6604
5.91094, 13, -30.8907, -5.1486, 26.1442, -158.552, -91.3337, 53.6492
5.92038, 13, -30.8622, -5.20831, 26.1953, -158.522, -91.3013, 53.6153
5.9294, 13, -30.8432, -5.24822, 26.2295, -158.501, -91.2797, 53.5921
5.93494, 13, -30.8338, -5.26824, 26.2467, -158.491, -91.2689, 53.5804
5.94449, 13, -30.8056, -5.32882, 26.2984, -158.461, -91.2357, 53.5446
5.95354, 14, -30.787, -5.36934, 26.3332, -158.441, -91.2128, 53.5205
5.96054, 14, -30.7684, -5.41004, 26.3678, -158.421, -91.1898, 53.4967
5.96853, 14, -30.7591, -5.43052, 26.4028, -158.4, -91.167, 53.4732
5.97757, 14, -30.7404, -5.47167, 26.4204, -158.39, -91.1556, 53.4495
5.98451, 14, -30.7219, -5.51299, 26.4555, -158.369, -91.1329, 53.4376
5.99195, 14, -30.7034, -5.55455, 26.4907, -158.348, -91.11, 53.4132
5.9999, 14, -30.685, -5.59641, 26.5261, -158.326, -91.0865, 53.3884
6.00703, 14, -30.6668, -5.6383, 26.5617, -158.305, -91.0624, 53.3629
6.01599, 14, -30.6487, -5.68053, 26.5974, -158.284, -91.0382, 53.3371
6.02395, 14, -30.6306, -5.72302, 26.6333, -158.263, -91.0141, 53.3113
6.03199, 14, -30.6125, -5.76558, 26.6694, -158.242, -90.99, 53.2858
6.03994, 14, -30.5945, -5.80839, 26.7054, -158.219, -90.9658, 53.2603
6.0481, 14, -30.5766, -5.85142, 26.7417, -158.197, -90.9411, 53.2344
6.05491, 14, -30.5587, -5.8946, 26.7783, -158.175, -90.9157, 53.208
6.06393, 15, -30.541, -5.93794, 26.8148, -158.154, -90.8904, 53.1811
6.07194, 15, -30.5233, -5.98149, 26.8515, -158.132, -90.8654, 53.1539
6.08, 15, -30.5057, -6.02519, 26.8885, -158.11, -90.8403, 53.127
6.08794, 15, -30.4883, -6.06911, 26.9255, -158.087, -90.8151, 53.1001
6.09597, 15, -30.471, -6.11321, 26.9627, -158.064, -90.7892, 53.0729
6.10393, 15, -30.4535, -6.15751, 27.0001, -158.041, -90.763, 53.0456
6.11202, 15, -30.436, -6.20201, 27.0375, -158.018, -90.7368, 53.0176
6.12098, 15, -30.4187, -6.24674, 27.0751, -157.995, -90.7107, 52.9891
6.12794, 15, -30.4016, -6.29176, 27.1128, -157.972, -90.6846, 52.9605
6.136, 15, -30.3846, -6.33696, 27.1506, -157.949, -90.6579, 52.932
6.14393, 15, -30.3676, -6.3824, 27.1886, -157.925, -90.6304, 52.9035
6.15196, 15, -30.3508, -6.42815, 27.2268, -157.901, -90.6029, 52.8748
6.16007, 15, -30.334, -6.47408, 27.2651, -157.878, -90.5757, 52.8457
6.1681, 15, -30.3174, -6.5202, 27.3036, -157.854, -90.5486, 52.8159
6.17715, 16, -30.3006, -6.56656, 27.3422, -157.831, -90.5213, 52.7859
6.18393, 16, -30.2837, -6.61305, 27.3809, -157.807, -90.4931, 52.7562
6.19203, 16, -30.2671, -6.6598, 27.4199, -157.782, -90.4648, 52.7265
6.19994, 16, -30.2506, -6.70668, 27.4589, -157.757, -90.4366, 52.6968
6.20794, 16, -30.2341, -6.75359, 27.498, -157.733, -90.4086, 52.6667
6.21756, 16, -30.2177, -6.80087, 27.5374, -157.709, -90.3802, 52.6359
6.22312, 16, -30.2013, -6.84825, 27.577, -157.685, -90.351, 52.6047
6.23094, 16, -30.1851, -6.89576, 27.6166, -157.66, -90.3215, 52.5739
6.23999, 16, -30.169, -6.94358, 27.6566, -157.634, -90.2923, 52.5433
6.24794, 16, -30.1529, -6.99156, 27.6964, -157.609, -90.2632, 52.5124
6.25599, 16, -30.1368, -7.03984, 27.7364, -157.584, -90.2339, 52.4812
6.26393, 16, -30.1207, -7.08832, 27.7767, -157.559, -90.2039, 52.4494
6.27389, 16, -30.1047, -7.13702, 27.8169, -157.534, -90.1736, 52.4173
6.27921, 16, -30.0889, -7.18605, 27.8573, -157.509, -90.1435, 52.3855
6.28795, 17, -30.0731, -7.23528, 27.898, -157.483, -90.1136, 52.3539
6.29602, 17, -30.0574, -7.28468, 27.9386, -157.457, -90.0832, 52.3221
6.30397, 17, -30.0418, -7.33431, 27.9795, -157.431, -90.0521, 52.2897
6.31201, 17, -30.0264, -7.38417, 28.0205, -157.405, -90.0209, 52.2567
6.31954, 17, -30.011, -7.43414, 28.0616, -157.379, -89.9901, 52.2234
6.32809, 17, -29.9956, -7.48419, 28.1031, -157.352, -89.9594, 52.1904
6.33553, 17, -29.9802, -7.53446, 28.1445, -157.326, -89.9281, 52.1575
6.34415, 17, -29.9649, -7.58486, 28.1861, -157.299, -89.8961, 52.1243
6.35154, 17, -29.9573, -7.61012, 28.207, -157.286, -89.8643, 52.0906
6.35995, 17, -29.9345, -7.68619, 28.2699, -157.247, -89.8327, 52.0564
6.36697, 17, -29.927, -7.71163, 28.2909, -157.233, -89.8169, 52.0394
6.37491, 17, -29.9119, -7.76273, 28.3331, -157.206, -89.7848, 52.0056
6.38402, 17, -29.8895, -7.83986, 28.3965, -157.165, -89.7354, 51.9546
6.39108, 18, -29.8821, -7.86568, 28.4177, -157.151, -89.7191, 51.9374
6.40015, 18, -29.86, -7.94358, 28.4815, -157.111, -89.6706, 51.8848
6.40699, 18, -29.8527, -7.96966, 28.5028, -157.097, -89.6543, 51.8671
6.41716, 18, -29.8307, -8.04824, 28.567, -157.054, -89.6042, 51.8147
6.42299, 18, -29.8233, -8.07452, 28.5886, -157.04, -89.5875, 51.7972
6.43244, 18, -29.8014, -8.15371, 28.6533, -156.999, -89.5379, 51.7445
6.44103, 18, -29.7869, -8.20658, 28.6965, -156.971, -89.5044, 51.7084
6.44692, 18, -29.7796, -8.23307, 28.7182, -156.957, -89.4873, 51.6902
6.4565, 18, -29.7581, -8.31287, 28.7837, -156.914, -89.4357, 51.6362
6.46531, 18, -29.7437, -8.36614, 28.8274, -156.886, -89.4017, 51.6004
6.47092, 18, -29.7366, -8.39286, 28.8494, -156.872, -89.3848, 51.5824
6.47988, 18, -29.7225, -8.44645, 28.8935, -156.843, -89.3505, 51.5459
6.4888, 18, -29.7084, -8.50023, 28.9597, -156.8, -89.2979, 51.4904
6.49781, 18, -29.6873, -8.58139, 29.0041, -156.771, -89.2632, 51.4537
6.50394, 19, -29.6803, -8.60856, 29.0263, -156.756, -89.2459, 51.4354
6.51195, 19, -29.6661, -8.66315, 29.0708, -156.727, -89.211, 51.3988
6.51997, 19, -29.6521, -8.718, 29.1155, -156.698, -89.1751, 51.3617
6.52793, 19, -29.6383, -8.77306, 29.1601, -156.67, -89.1395, 51.324
6.53808, 19, -29.6176, -8.85609, 29.2275, -156.625, -89.0866, 51.268
6.54398, 19, -29.6108, -8.88389, 29.25, -156.61, -89.0688, 51.2494
6.55191, 19, -29.5972, -8.93953, 29.2952, -156.58, -89.0326, 51.212
6.55992, 19, -29.5837, -8.99524, 29.3406, -156.551, -88.9966, 51.174
6.56796, 19, -29.5703, -9.05117, 29.386, -156.521, -88.9606, 51.1352
6.57592, 19, -29.557, -9.10717, 29.4318, -156.49, -88.9246, 51.0966
6.58391, 19, -29.5437, -9.16328, 29.4776, -156.46, -88.8877, 51.0582
6.59108, 19, -29.5305, -9.21964, 29.5235, -156.43, -88.8509, 51.0195
6.59991, 19, -29.5173, -9.27617, 29.5697, -156.4, -88.8145, 50.9801
6.60798, 19, -29.504, -9.33289, 29.616, -156.369, -88.7779, 50.9404
6.61593, 20, -29.4909, -9.38992, 29.6624, -156.338, -88.7405, 50.9011
6.62492, 20, -29.4779, -9.44721, 29.7088, -156.307, -88.7031, 50.8617
6.63197, 20, -29.4649, -9.50478, 29.7554, -156.276, -88.666, 50.822
6.64, 20, -29.452, -9.56251, 29.8021, -156.245, -88.6287, 50.7817
6.64791, 20, -29.4392, -9.62055, 29.8489, -156.214, -88.5905, 50.7411
6.65595, 20, -29.4264, -9.67877, 29.8959, -156.182, -88.5525, 50.7011
6.66394, 20, -29.4138, -9.73709, 29.9431, -156.15, -88.5149, 50.6612
6.67191, 20, -29.4013, -9.79561, 29.9904, -156.119, -88.4769, 50.6206
6.67998, 20, -29.3889, -9.85414, 30.0378, -156.088, -88.438, 50.5795
6.68791, 20, -29.3765, -9.91287, 30.0855, -156.055, -88.3995, 50.5387
6.69593, 20, -29.364, -9.97173, 30.1332, -156.023, -88.3612, 50.4983
6.70398, 20, -29.3515, -10.0308, 30.1811, -155.991, -88.3222, 50.4575
6.71206, 20, -29.3391, -10.0899, 30.2292, -155.96, -88.2827, 50.4161
6.72272, 21, -29.3207, -10.1793, 30.3015, -155.91, -88.2243, 50.3539
6.72797, 21, -29.3146, -10.2092, 30.3257, -155.894, -88.2048, 50.3333
6.73591, 21, -29.3025, -10.2691, 30.3739, -155.861, -88.1652, 50.2921
6.74391, 21, -29.2904, -10.3293, 30.4224, -155.829, -88.1254, 50.2504
6.75198, 21, -29.2783, -10.3897, 30.471, -155.796, -88.0861, 50.2083
6.76005, 21, -29.2663, -10.4502, 30.5196, -155.763, -88.0466, 50.1667
6.76792, 21, -29.2545, -10.5109, 30.5685, -155.73, -88.006, 50.1252
6.77591, 21, -29.2426, -10.5718, 30.6176, -155.697, -87.9658, 50.0834
6.78477, 21, -29.2308, -10.6326, 30.6667, -155.664, -87.926, 50.0408
6.79198, 21, -29.219, -10.6937, 30.716, -155.63, -87.8855, 49.9982
6.79995, 21, -29.2073, -10.7549, 30.7656, -155.596, -87.8444, 49.9561
6.80912, 21, -29.1954, -10.8162, 30.8152, -155.563, -87.8039, 49.9138
6.81769, 21, -29.1837, -10.8778, 30.8649, -155.53, -87.7634, 49.8708
6.82406, 21, -29.1722, -10.9395, 30.9148, -155.495, -87.7219, 49.8274
6.83305, 22, -29.1606, -11.0016, 30.9648, -155.461, -87.6805, 49.7848
6.84003, 22, -29.1492, -11.0638, 31.0149, -155.427, -87.6397, 49.7421
6.8481, 22, -29.1378, -11.1263, 31.065, -155.393, -87.5984, 49.6988
6.85963, 22, -29.1264, -11.1888, 31.1153, -155.358, -87.5562, 49.6547
6.86393, 22, -29.1151, -11.2517, 31.1657, -155.323, -87.5146, 49.6111
6.87197, 22, -29.1041, -11.3146, 31.2162, -155.288, -87.473, 49.5677
6.88055, 22, -29.0931, -11.3777, 31.2669, -155.254, -87.4305, 49.5241
6.88798, 22, -29.082, -11.4408, 31.3178, -155.219, -87.3882, 49.4796
6.8964, 22, -29.0711, -11.5042, 31.3687, -155.184, -87.3464, 49.4353
6.9029, 22, -29.0656, -11.5359, 31.3943, -155.166, -87.3254, 49.4133
6.91096, 22, -29.0548, -11.5994, 31.4455, -155.131, -87.2826, 49.3693
6.92037, 22, -29.0383, -11.6951, 31.5224, -155.078, -87.219, 49.3027
6.92692, 22, -29.0329, -11.7271, 31.5481, -155.06, -87.1979, 49.2802
6.93686, 22, -29.0169, -11.8235, 31.6255, -155.006, -87.1331, 49.2138
6.9448, 23, -29.0061, -11.8879, 31.6771, -154.971, -87.09, 49.1694
6.95245, 23, -28.9954, -11.9525, 31.7288, -154.935, -87.0475, 49.1245
6.96052, 23, -28.9848, -12.0173, 31.7807, -154.899, -87.0041, 49.0796
6.96855, 23, -28.9742, -12.0821, 31.8325, -154.863, -86.9604, 49.0353
6.97651, 23, -28.9689, -12.1146, 31.8585, -154.827, -86.9174, 48.9909
6.98445, 23, -28.9583, -12.1797, 31.9108, -154.809, -86.8958, 48.9685
6.99276, 23, -28.9479, -12.2448, 31.9631, -154.772, -86.8516, 48.9231
6.9999, 23, -28.9376, -12.3102, 32.0156, -154.735, -86.8073, 48.8779
7.00791, 23, -28.9274, -12.3757, 32.0681, -154.699, -86.7638, 48.8331
7.01597, 23, -28.9172, -12.4413, 32.1209, -154.663, -86.7195, 48.788
7.02389, 23, -28.9071, -12.5072, 32.1737, -154.625, -86.6748, 48.7424
7.03198, 23, -28.897, -12.5733, 32.2267, -154.588, -86.6306, 48.6968
7.04163, 23, -28.8869, -12.6726, 32.3064, -154.533, -86.5635, 48.6291
7.04792, 24, -28.8768, -12.7059, 32.3329, -154.514, -86.5409, 48.6063
7.05574, 24, -28.8668, -12.7724, 32.3862, -154.476, -86.4965, 48.5602
7.0629, 24, -28.8568, -12.839, 32.4395, -154.438, -86.452, 48.5141
7.07189, 24, -28.8468, -12.9057, 32.4929, -154.401, -86.4066, 48.4685
7.08206, 24, -28.832, -13.0061, 32.5733, -154.344, -86.3393, 48.3994
7.08797, 24, -28.8271, -13.0397, 32.6002, -154.325, -86.3169, 48.3761
7.0959, 24, -28.8173, -13.1069, 32.6541, -154.287, -86.2712, 48.3298
7.10297, 24, -28.8074, -13.1743, 32.708, -154.25, -86.2255, 48.2839
7.11196, 24, -28.7976, -13.2419, 32.7622, -154.212, -86.1806, 48.2377
7.12097, 24, -28.788, -13.3097, 32.8163, -154.173, -86.1348, 48.191
7.12696, 24, -28.7784, -13.3775, 32.8706, -154.134, -86.0888, 48.1443
7.13598, 24, -28.7689, -13.4455, 32.925, -154.096, -86.0435, 48.0983
7.1439, 24, -28.7593, -13.5137, 32.9795, -154.058, -85.9975, 48.0521
7.1519, 24, -28.75, -13.5819, 33.034, -154.018, -85.951, 48.0054
7.16009, 25, -28.7406, -13.6502, 33.0887, -153.98, -85.9052, 47.9589
7.16796, 25, -28.731, -13.7187, 33.1435, -153.941, -85.8593, 47.9129
7.17591, 25, -28.7216, -13.7872, 33.1983, -153.902, -85.8125, 47.8668
7.18391, 25, -28.7122, -13.856, 33.2533, -153.862, -85.7663, 47.8201
7.19196, 25, -28.7029, -13.9249, 33.3084, -153.824, -85.7201, 47.7734
7.1999, 25, -28.6937, -13.994, 33.3636, -153.784, -85.673, 47.7274
7.20797, 25, -28.6844, -14.0632, 33.4189, -153.744, -85.6264, 47.6811
7.2159, 25, -28.6752, -14.1325, 33.4743, -153.705, -85.5801, 47.6343
7.22389, 25, -28.6661, -14.2021, 33.5297, -153.665, -85.533, 47.5876
7.23197, 25, -28.657, -14.2717, 33.5854, -153.625, -85.4863, 47.5416
7.23989, 25, -28.6479, -14.3414, 33.6411, -153.585, -85.4397, 47.4953
7.24789, 25, -28.6389, -14.4111, 33.6969, -153.545, -85.3922, 47.4484
7.25611, 25, -28.63, -14.4811, 33.7527, -153.505, -85.345, 47.4014
7.2634, 25, -28.6212, -14.551, 33.8086, -153.464, -85.2983, 47.355
7.27113, 26, -28.6124, -14.6212, 33.8645, -153.424, -85.2508, 47.3086
7.27914, 26, -28.6035, -14.6914, 33.9206, -153.384, -85.2033, 47.2616
7.28715, 26, -28.5948, -14.7619, 33.9768, -153.343, -85.1563, 47.2149
7.29533, 26, -28.586, -14.8324, 34.033, -153.302, -85.1084, 47.1686
7.30402, 26, -28.5772, -14.903, 34.0895, -153.262, -85.0604, 47.122
7.31196, 26, -28.5683, -14.9738, 34.1459, -153.221, -85.0133, 47.0751
7.31998, 26, -28.5594, -15.0446, 34.2024, -153.18, -84.9653, 47.0283
7.32881, 26, -28.5506, -15.1155, 34.2591, -153.139, -84.9171, 46.9823
7.33606, 26, -28.5418, -15.1865, 34.3158, -153.098, -84.8695, 46.9361
7.34354, 26, -28.5329, -15.2574, 34.3725, -153.057, -84.8212, 46.8894
7.3535, 26, -28.5242, -15.3287, 34.4294, -153.015, -84.7729, 46.8431
7.36172, 26, -28.5156, -15.4, 34.4862, -152.974, -84.7252, 46.7975
7.36797, 26, -28.5071, -15.4715, 34.5431, -152.932, -84.6769, 46.7515
7.37763, 26, -28.4985, -15.5431, 34.6001, -152.89, -84.6283, 46.705
7.38393, 27, -28.4898, -15.6148, 34.6572, -152.848, -84.5806, 46.6585
7.39205, 27, -28.4813, -15.6867, 34.7144, -152.807, -84.532, 46.6125
7.39889, 27, -28.4771, -15.7227, 34.7431, -152.786, -84.5074, 46.5894
7.40812, 27, -28.4645, -15.8306, 34.8291, -152.722, -84.4351, 46.5196
7.41495, 27, -28.4603, -15.8667, 34.8578, -152.701, -84.4109, 46.4962
7.42493, 27, -28.4477, -15.9749, 34.9441, -152.638, -84.3373, 46.4271
7.43231, 27, -28.4394, -16.0471, 35.0018, -152.595, -84.289, 46.3809
7.43888, 27, -28.4353, -16.0832, 35.0306, -152.574, -84.2647, 46.3576
7.44926, 27, -28.4227, -16.1919, 35.1171, -152.511, -84.1908, 46.288
7.45494, 27, -28.4185, -16.2281, 35.146, -152.489, -84.1666, 46.2651
7.46526, 27, -28.4058, -16.3371, 35.2326, -152.424, -84.0933, 46.1964
7.47089, 27, -28.4016, -16.3735, 35.2616, -152.403, -84.0686, 46.1733
7.47912, 27, -28.3933, -16.4463, 35.3196, -152.361, -84.0197, 46.127
7.48685, 28, -28.3849, -16.5193, 35.3776, -152.317, -83.9709, 46.0817
7.49699, 28, -28.3724, -16.6288, 35.465, -152.253, -83.8966, 46.0139
7.50295, 28, -28.3682, -16.6653, 35.4941, -152.232, -83.8723, 45.991
7.51194, 28, -28.36, -16.7383, 35.5524, -152.188, -83.8236, 45.9451
7.5189, 28, -28.3518, -16.8115, 35.6108, -152.144, -83.7739, 45.8999
7.5279, 28, -28.3435, -16.8848, 35.6692, -152.101, -83.725, 45.8552
7.53588, 28, -28.3352, -16.9581, 35.7276, -152.058, -83.676, 45.8101
7.54289, 28, -28.3269, -17.0316, 35.7862, -152.014, -83.6261, 45.7648
7.5519, 28, -28.3187, -17.105, 35.8447, -151.97, -83.577, 45.7202
7.55988, 28, -28.3106, -17.1786, 35.9032, -151.927, -83.5279, 45.676
7.56689, 28, -28.3025, -17.2522, 35.9618, -151.882, -83.4779, 45.6316
7.57603, 28, -28.2943, -17.3259, 36.0205, -151.838, -83.4288, 45.5867
7.58679, 28, -28.2822, -17.4366, 36.1087, -151.772, -83.3541, 45.5205
7.59189, 28, -28.2782, -17.4735, 36.1381, -151.75, -83.3291, 45.4987
7.59991, 29, -28.2701, -17.5474, 36.197, -151.705, -83.2799, 45.4548
7.60794, 29, -28.2619, -17.6214, 36.256, -151.662, -83.2302, 45.4105
7.61748, 29, -28.2536, -17.6955, 36.3149, -151.617, -83.1799, 45.3667
7.62607, 29, -28.2413, -17.8066, 36.4033, -151.55, -83.1056, 45.302
7.63087, 29, -28.2373, -17.8437, 36.4329, -151.528, -83.0804, 45.2804
7.63988, 29, -28.2291, -17.9179, 36.4918, -151.483, -83.0303, 45.2369
7.64787, 29, -28.2209, -17.9921, 36.5508, -151.438, -82.9808, 45.1933
7.65588, 29, -28.2127, -18.0664, 36.61, -151.393, -82.9307, 45.1505
7.6639, 29, -28.2046, -18.1407, 36.6691, -151.349, -82.8806, 45.1079
7.67196, 29, -28.1965, -18.2151, 36.7284, -151.303, -82.8311, 45.0651
7.67987, 29, -28.1885, -18.2895, 36.7878, -151.258, -82.7809, 45.0222
7.6879, 29, -28.1803, -18.3641, 36.8471, -151.214, -82.7307, 44.9799
7.69594, 29, -28.1722, -18.4386, 36.9065, -151.168, -82.6814, 44.9383
7.70402, 29, -28.1641, -18.5132, 36.9659, -151.122, -82.631, 44.8966
7.71286, 30, -28.1562, -18.5878, 37.0252, -151.077, -82.5809, 44.8545
7.71994, 30, -28.1482, -18.6625, 37.0845, -151.031, -82.5315, 44.8127
7.72789, 30, -28.1401, -18.7372, 37.1438, -150.985, -82.4809, 44.7718
7.73588, 30, -28.132, -18.8119, 37.2032, -150.94, -82.4308, 44.7309
7.74393, 30, -28.124, -18.8868, 37.2626, -150.894, -82.3811, 44.6902
7.75194, 30, -28.116, -18.9617, 37.3221, -150.848, -82.3305, 44.6492
7.75987, 30, -28.1078, -19.0365, 37.3816, -150.803, -82.2804, 44.6089
7.76796, 30, -28.0996, -19.1115, 37.4412, -150.757, -82.2305, 44.5692
7.77595, 30, -28.0913, -19.1865, 37.5008, -150.711, -82.1797, 44.5295
7.78388, 30, -28.0832, -19.2615, 37.5604, -150.665, -82.1296, 44.4897
7.7921, 30, -28.0751, -19.3364, 37.6201, -150.619, -82.0799, 44.4499
7.79954, 30, -28.0668, -19.4114, 37.6796, -150.572, -82.0293, 44.4109
7.80857, 30, -28.0586, -19.4864, 37.7392, -150.526, -81.9795, 44.3723
7.81632, 31, -28.0504, -19.5613, 37.7988, -150.48, -81.9295, 44.3336
7.82344, 31, -28.0422, -19.6363, 37.8583, -150.433, -81.8789, 44.2948
7.83205, 31, -28.034, -19.7112, 37.918, -150.387, -81.8291, 44.2564
7.84046, 31, -28.0257, -19.7862, 37.9777, -150.341, -81.7792, 44.2186
7.84804, 31, -28.0174, -19.8613, 38.0374, -150.294, -81.7286, 44.1812
7.85606, 31, -28.0092, -19.9364, 38.0972, -150.247, -81.679, 44.1438
7.8643, 31, -28.0051, -19.9739, 38.1271, -150.201, -81.6288, 44.106
7.87238, 31, -27.9928, -20.0866, 38.2166, -150.153, -81.5782, 44.0686
7.87887, 31, -27.9886, -20.1242, 38.2465, -150.13, -81.5533, 44.0502
7.88873, 31, -27.9761, -20.2369, 38.3361, -150.06, -81.4781, 43.9957
7.89612, 31, -27.9678, -20.312, 38.3958, -150.012, -81.4277, 43.9594
7.90288, 31, -27.9637, -20.3495, 38.4256, -149.989, -81.4027, 43.9412
7.91237, 31, -27.9511, -20.4622, 38.5151, -149.919, -81.3274, 43.887
7.91888, 31, -27.9468, -20.4998, 38.5449, -149.895, -81.3021, 43.8694
7.92907, 32, -27.934, -20.6125, 38.6344, -149.824, -81.2275, 43.817
7.93634, 32, -27.9256, -20.6877, 38.6941, -149.777, -81.1773, 43.7824
7.94434, 32, -27.917, -20.7629, 38.7537, -149.73, -81.1272, 43.7476
7.95086, 32, -27.9126, -20.8004, 38.7835, -149.706, -81.1025, 43.7302
7.96082, 32, -27.8996, -20.9131, 38.873, -149.636, -81.0273, 43.6794
7.96845, 32, -27.891, -20.9883, 38.9326, -149.587, -80.9772, 43.6464
7.97482, 32, -27.8867, -21.0258, 38.9625, -149.564, -80.9525, 43.63
7.98451, 32, -27.8781, -21.1008, 39.0221, -149.517, -80.8774, 43.5809
7.99257, 32, -27.8693, -21.1758, 39.0816, -149.445, -80.8275, 43.5482
7.99989, 32, -27.8605, -21.2508, 39.1411, -149.421, -80.8028, 43.532
8.00786, 32, -27.8517, -21.3259, 39.2006, -149.374, -80.7528, 43.5002
8.01593, 32, -27.843, -21.4008, 39.2601, -149.326, -80.7025, 43.4692
8.02404, 32, -27.8342, -21.4759, 39.3196, -149.278, -80.6531, 43.4387
8.03093, 32, -27.8253, -21.5508, 39.3791, -149.23, -80.6033, 43.4081
8.03987, 33, -27.8164, -21.6259, 39.4386, -149.183, -80.5532, 43.3777
8.04786, 33, -27.8076, -21.7008, 39.498, -149.134, -80.5039, 43.3475
8.05591, 33, -27.7986, -21.7757, 39.5574, -149.087, -80.4539, 43.318
8.06289, 33, -27.7894, -21.8505, 39.6168, -149.039, -80.4039, 43.2894
8.07193, 33, -27.7802, -21.9254, 39.6761, -148.99, -80.3548, 43.2612
8.07987, 33, -27.771, -22.0001, 39.7354, -148.943, -80.3051, 43.2331
8.08792, 33, -27.7618, -22.0749, 39.7947, -148.895, -80.2553, 43.2052
8.09586, 33, -27.7525, -22.1497, 39.8538, -148.846, -80.2063, 43.1772
8.10388, 33, -27.7432, -22.2245, 39.913, -148.799, -80.1565, 43.1498
8.11201, 33, -27.7339, -22.2991, 39.9721, -148.751, -80.1068, 43.1232
8.11987, 33, -27.7247, -22.3738, 40.0311, -148.702, -80.058, 43.0973
8.12887, 33, -27.7153, -22.4485, 40.0902, -148.654, -80.0084, 43.0719
8.13594, 33, -27.7058, -22.5231, 40.1493, -148.606, -79.9589, 43.0469
8.14506, 34, -27.6964, -22.5976, 40.2083, -148.557, -79.9101, 43.0219
8.15209, 34, -27.687, -22.672, 40.2674, -148.509, -79.8603, 42.997
8.15993, 34, -27.6775, -22.7464, 40.3263, -148.461, -79.8108, 42.9724
8.16789, 34, -27.6679, -22.8209, 40.3851, -148.411, -79.7619, 42.9486
8.17584, 34, -27.6583, -22.8951, 40.4439, -148.364, -79.7121, 42.9256
8.18386, 34, -27.6486, -22.9694, 40.5025, -148.315, -79.6627, 42.9032
8.1947, 34, -27.6388, -23.0436, 40.5611, -148.266, -79.6138, 42.8706
8.19991, 34, -27.6289, -23.1179, 40.6198, -148.218, -79.5638, 42.8599
8.20792, 34, -27.6189, -23.1921, 40.6783, -148.169, -79.5146, 42.8388
8.21586, 34, -27.609, -23.2662, 40.7368, -148.12, -79.4659, 42.8178
8.22485, 34, -27.5989, -23.3403, 40.7953, -148.073, -79.4161, 42.7971
8.232, 34, -27.5888, -23.4143, 40.8538, -148.024, -79.3671, 42.7771
8.23985, 34, -27.5787, -23.4883, 40.9121, -147.975, -79.3183, 42.7579
8.24967, 34, -27.5685, -23.5622, 40.9704, -147.927, -79.2686, 42.7397
8.25593, 35, -27.5583, -23.6359, 41.0286, -147.878, -79.2196, 42.722
8.26395, 35, -27.548, -23.7097, 41.0867, -147.829, -79.1711, 42.7048
8.27194, 35, -27.5377, -23.7832, 41.1447, -147.781, -79.1216, 42.6883
8.27993, 35, -27.5274, -23.8567, 41.2026, -147.732, -79.073, 42.6723
8.28786, 35, -27.5169, -23.9301, 41.2605, -147.683, -79.0245, 42.6565
8.29524, 35, -27.5065, -24.0034, 41.3183, -147.635, -78.975, 42.6411
8.30388, 35, -27.4959, -24.0767, 41.3761, -147.585, -78.9263, 42.626
8.31195, 35, -27.4853, -24.1497, 41.4339, -147.536, -78.8779, 42.6113
8.31994, 35, -27.4745, -24.2228, 41.4916, -147.488, -78.8287, 42.5974
8.32827, 35, -27.4635, -24.2958, 41.5492, -147.439, -78.7801, 42.5842
8.33541, 35, -27.4526, -24.3687, 41.6067, -147.39, -78.7317, 42.5716
8.34417, 35, -27.4415, -24.4416, 41.6641, -147.342, -78.6826, 42.5597
8.35201, 35, -27.4303, -24.5143, 41.7213, -147.293, -78.6343, 42.5485
8.35999, 35, -27.419, -24.5871, 41.7785, -147.244, -78.5862, 42.538
8.36804, 36, -27.4077, -24.6597, 41.8355, -147.196, -78.5375, 42.528
8.37588, 36, -27.3963, -24.7322, 41.8925, -147.146, -78.4895, 42.5188
8.38389, 36, -27.3848, -24.8046, 41.9495, -147.098, -78.4416, 42.5102
8.39202, 36, -27.3734, -24.8769, 42.0063, -147.049, -78.393, 42.5022
8.39888, 36, -27.3676, -24.913, 42.0347, -147.025, -78.3688, 42.4983
8.40805, 36, -27.3502, -25.0213, 42.1199, -146.951, -78.2974, 42.4875
8.41618, 36, -27.3385, -25.0933, 42.1765, -146.903, -78.249, 42.481
8.42289, 36, -27.3326, -25.1293, 42.2048, -146.879, -78.225, 42.478
8.43226, 36, -27.3145, -25.2372, 42.2895, -146.805, -78.1537, 42.4699
8.4389, 36, -27.3085, -25.273, 42.3177, -146.781, -78.1296, 42.4674
8.44928, 36, -27.2903, -25.3806, 42.402, -146.707, -78.0577, 42.461
8.4549, 36, -27.2842, -25.4164, 42.4301, -146.683, -78.034, 42.4591
8.46484, 36, -27.2657, -25.5235, 42.514, -146.61, -77.9623, 42.4547
8.47313, 36, -27.2595, -25.5591, 42.5419, -146.586, -77.9384, 42.4535
8.47892, 37, -27.2471, -25.6303, 42.5978, -146.537, -77.8913, 42.4517
8.48864, 37, -27.2282, -25.7369, 42.6812, -146.464, -77.8197, 42.4502
8.49584, 37, -27.2219, -25.7724, 42.709, -146.44, -77.7958, 42.4499
8.50294, 37, -27.2093, -25.8433, 42.7646, -146.391, -77.7487, 42.4496
8.5142, 37, -27.1902, -25.9494, 42.8476, -146.319, -77.6777, 42.4493
8.51885, 37, -27.1838, -25.9847, 42.8753, -146.294, -77.654, 42.4494
8.52787, 37, -27.1708, -26.0553, 42.9305, -146.245, -77.6071, 42.4495
8.53584, 37, -27.1575, -26.1256, 42.9856, -146.198, -77.5601, 42.4497
8.54391, 37, -27.1443, -26.1958, 43.0405, -146.149, -77.5124, 42.4503
8.55084, 37, -27.131, -26.2659, 43.0954, -146.1, -77.4656, 42.4517
8.55984, 37, -27.1175, -26.3358, 43.1501, -146.053, -77.419, 42.4549
8.56701, 37, -27.104, -26.4055, 43.2045, -146.004, -77.3715, 42.4595
8.57584, 37, -27.0904, -26.4753, 43.2591, -145.955, -77.3249, 42.4651
8.58384, 38, -27.0766, -26.5449, 43.3134, -145.907, -77.2784, 42.4719
8.5919, 38, -27.0628, -26.6144, 43.3676, -145.859, -77.2309, 42.4796
8.59983, 38, -27.049, -26.6838, 43.4218, -145.81, -77.1842, 42.4884
8.60793, 38, -27.0351, -26.753, 43.4757, -145.763, -77.1381, 42.498
8.61887, 38, -27.0138, -26.8565, 43.5564, -145.69, -77.0675, 42.5139
8.62386, 38, -27.0066, -26.8909, 43.5832, -145.666, -77.0443, 42.5196
8.63196, 38, -26.9921, -26.9595, 43.6368, -145.619, -76.9982, 42.5317
8.64084, 38, -26.9776, -27.0279, 43.6902, -145.571, -76.9513, 42.5447
8.64791, 38, -26.9629, -27.0962, 43.7435, -145.522, -76.9047, 42.5585
8.65584, 38, -26.9481, -27.1644, 43.7966, -145.475, -76.859, 42.5734
8.66392, 38, -26.9332, -27.2324, 43.8495, -145.427, -76.8127, 42.5892
8.67199, 38, -26.9181, -27.3003, 43.9023, -145.379, -76.7662, 42.6059
8.67984, 38, -26.9031, -27.3682, 43.9549, -145.333, -76.7206, 42.6237
8.688, 38, -26.8878, -27.4359, 44.0074, -145.285, -76.6744, 42.6425
8.69908, 39, -26.8648, -27.5371, 44.0859, -145.214, -76.6049, 42.6721
8.70383, 39, -26.8569, -27.5708, 44.112, -145.19, -76.5823, 42.6821
8.71191, 39, -26.8411, -27.6379, 44.164, -145.143, -76.5365, 42.7029
8.71992, 39, -26.8252, -27.7048, 44.2159, -145.095, -76.4901, 42.7244
8.72784, 39, -26.8093, -27.7714, 44.2677, -145.048, -76.4447, 42.7467
8.73747, 39, -26.7932, -27.838, 44.3193, -145.001, -76.3991, 42.77
8.74332, 39, -26.777, -27.9044, 44.3707, -144.953, -76.3527, 42.7946
8.75085, 39, -26.7606, -27.9707, 44.4219, -144.907, -76.3071, 42.8202
8.75985, 39, -26.7443, -28.0368, 44.4729, -144.86, -76.2618, 42.8464
8.76785, 39, -26.7278, -28.1029, 44.5237, -144.813, -76.2155, 42.8729
8.77592, 39, -26.7112, -28.1689, 44.5744, -144.767, -76.1697, 42.9003
8.78384, 39, -26.6943, -28.2345, 44.6249, -144.72, -76.1245, 42.9286
8.79519, 39, -26.6772, -28.3, 44.7003, -144.65, -76.0555, 42.9731
8.79914, 39, -26.6599, -28.3653, 44.7255, -144.627, -76.0328, 42.9885
8.80735, 40, -26.6426, -28.4302, 44.7755, -144.581, -75.988, 43.02
8.81595, 40, -26.6251, -28.4949, 44.8253, -144.534, -75.9425, 43.052
8.82393, 40, -26.6074, -28.5594, 44.875, -144.489, -75.8968, 43.0846
8.83199, 40, -26.5896, -28.6236, 44.9244, -144.443, -75.8521, 43.1181
8.83945, 40, -26.5718, -28.6877, 44.9737, -144.397, -75.8069, 43.1527
8.84801, 40, -26.5538, -28.7516, 45.0227, -144.351, -75.7611, 43.1885
8.85594, 40, -26.5356, -28.8154, 45.0716, -144.306, -75.7164, 43.2249
8.86398, 40, -26.517, -28.8791, 45.1202, -144.26, -75.6718, 43.262
8.87205, 40, -26.4984, -28.9426, 45.1684, -144.215, -75.6263, 43.3
8.88014, 40, -26.4796, -29.0059, 45.2167, -144.17, -75.5816, 43.3393
8.8869, 40, -26.4702, -29.0375, 45.2406, -144.147, -75.5594, 43.3595
8.89484, 40, -26.451, -29.1004, 45.2886, -144.101, -75.5146, 43.4003
8.90402, 40, -26.4222, -29.1942, 45.36, -144.035, -75.447, 43.4624
8.91099, 41, -26.4125, -29.2254, 45.3837, -144.012, -75.4248, 43.4836
8.92011, 41, -26.3832, -29.3185, 45.4547, -143.945, -75.3579, 43.5493
8.92686, 41, -26.3733, -29.3494, 45.4781, -143.923, -75.3354, 43.5716
8.93714, 41, -26.3432, -29.4419, 45.5483, -143.857, -75.2691, 43.6394
8.94291, 41, -26.3332, -29.4726, 45.5717, -143.834, -75.2471, 43.6624
8.95246, 41, -26.3028, -29.5646, 45.6412, -143.769, -75.1799, 43.7337
8.96098, 41, -26.2822, -29.6257, 45.6872, -143.725, -75.136, 43.7823
8.96842, 41, -26.2615, -29.6866, 45.733, -143.681, -75.0923, 43.8315
8.97668, 41, -26.2407, -29.7472, 45.7785, -143.638, -75.0479, 43.8819
8.9852, 41, -26.2302, -29.7774, 45.8238, -143.595, -75.0039, 43.9339
8.99082, 41, -26.209, -29.8376, 45.8463, -143.573, -74.9822, 43.9601
9.00091, 41, -26.1769, -29.9272, 45.9138, -143.508, -74.9161, 44.0398
9.00794, 41, -26.1661, -29.957, 45.9362, -143.487, -74.8939, 44.0672
9.01731, 41, -26.1445, -30.0457, 46.0029, -143.424, -74.8287, 44.151
9.02279, 42, -26.1225, -30.0752, 46.025, -143.402, -74.807, 44.179
9.03187, 42, -26.1003, -30.1339, 46.0691, -143.36, -74.763, 44.236
9.03989, 42, -26.078, -30.1925, 46.113, -143.318, -74.7192, 44.2947
9.04782, 42, -26.0554, -30.2508, 46.1564, -143.276, -74.676, 44.3539
9.05796, 42, -26.0212, -30.3379, 46.2213, -143.213, -74.61, 44.4449
9.06397, 42, -26.0097, -30.3668, 46.2428, -143.193, -74.5881, 44.4761
9.07182, 42, -25.9866, -30.4244, 46.2856, -143.152, -74.545, 44.5384
9.07983, 42, -25.9632, -30.4817, 46.3281, -143.111, -74.5017, 44.6015
9.08788, 42, -25.9396, -30.5386, 46.3702, -143.07, -74.4577, 44.6665
9.09584, 42, -25.9158, -30.5952, 46.4122, -143.03, -74.4146, 44.7318
9.10382, 42, -25.8915, -30.6515, 46.4539, -142.989, -74.3716, 44.7982
9.1147, 42, -25.8549, -30.7352, 46.5158, -142.929, -74.3061, 44.9007
9.11983, 42, -25.8427, -30.7631, 46.5364, -142.91, -74.2845, 44.935
9.12882, 42, -25.8179, -30.8185, 46.5772, -142.871, -74.242, 45.0053
9.13482, 43, -25.793, -30.8736, 46.6177, -142.831, -74.199, 45.0768
9.14384, 43, -25.768, -30.9286, 46.658, -142.792, -74.1556, 45.1488
9.15189, 43, -25.7426, -30.9833, 46.6979, -142.754, -74.1132, 45.2227
9.15989, 43, -25.7169, -31.0377, 46.7376, -142.715, -74.0706, 45.2971
9.16782, 43, -25.6911, -31.0918, 46.777, -142.677, -74.0272, 45.3726
9.17586, 43, -25.665, -31.1456, 46.816, -142.639, -73.9845, 45.4495
9.18385, 43, -25.6386, -31.1989, 46.8548, -142.602, -73.9425, 45.5268
9.19182, 43, -25.6121, -31.2519, 46.8933, -142.564, -73.8997, 45.6061
9.19989, 43, -25.5852, -31.3045, 46.9315, -142.527, -73.8568, 45.6854
9.20784, 43, -25.5582, -31.3567, 46.9695, -142.49, -73.8147, 45.7665
9.21583, 43, -25.531, -31.4085, 47.0071, -142.454, -73.7724, 45.8483
9.22389, 43, -25.5035, -31.46, 47.0442, -142.418, -73.7295, 45.9311
9.23198, 43, -25.4756, -31.5112, 47.0812, -142.381, -73.6873, 46.0154
9.2398, 44, -25.4474, -31.5621, 47.1177, -142.346, -73.6456, 46.1003
9.24789, 44, -25.4188, -31.6128, 47.1538, -142.311, -73.6032, 46.1871
9.25583, 44, -25.39, -31.6632, 47.1897, -142.277, -73.5609, 46.2743
9.26381, 44, -25.3611, -31.7133, 47.2252, -142.242, -73.5193, 46.3635
9.27188, 44, -25.332, -31.7631, 47.2604, -142.208, -73.4774, 46.4528
9.27997, 44, -25.3027, -31.8124, 47.2953, -142.174, -73.435, 46.5443
9.28782, 44, -25.273, -31.8613, 47.3297, -142.141, -73.3934, 46.6362
9.29585, 44, -25.2429, -31.9098, 47.3638, -142.108, -73.3522, 46.73
9.30467, 44, -25.2126, -31.9577, 47.3977, -142.075, -73.3103, 46.8239
9.31193, 44, -25.182, -32.0054, 47.4312, -142.043, -73.2687, 46.9199
9.31988, 44, -25.1512, -32.0525, 47.4642, -142.011, -73.2278, 47.0164
9.32908, 44, -25.12, -32.0992, 47.4969, -141.98, -73.1865, 47.1147
9.33856, 44, -25.0886, -32.1457, 47.5293, -141.948, -73.1448, 47.2137
9.34338, 44, -25.0569, -32.1917, 47.5612, -141.918, -73.1037, 47.3145
9.35314, 45, -25.025, -32.2374, 47.5927, -141.888, -73.0632, 47.4162
9.35944, 45, -24.9927, -32.2828, 47.6239, -141.858, -73.0221, 47.5191
9.36803, 45, -24.96, -32.3277, 47.6547, -141.829, -72.981, 47.6231
9.37971, 45, -24.9104, -32.3944, 47.6998, -141.785, -72.9206, 47.7815
9.38385, 45, -24.8938, -32.4165, 47.7147, -141.771, -72.9003, 47.8349
9.39186, 45, -24.8603, -32.4601, 47.7443, -141.743, -72.8591, 47.9421
9.40055, 45, -24.8265, -32.5033, 47.7733, -141.716, -72.8188, 48.0509
9.40799, 45, -24.7923, -32.5461, 47.8019, -141.688, -72.7789, 48.1606
9.41611, 45, -24.7579, -32.5884, 47.8302, -141.661, -72.7385, 48.2717
9.42281, 45, -24.7406, -32.6094, 47.8442, -141.648, -72.7181, 48.3276
9.4309, 45, -24.7057, -32.6509, 47.8719, -141.622, -72.678, 48.4408
9.44031, 45, -24.6528, -32.7122, 47.9125, -141.584, -72.6186, 48.6126
9.44683, 45, -24.6349, -32.7324, 47.9258, -141.571, -72.5984, 48.6702
9.45677, 45, -24.581, -32.7924, 47.9653, -141.534, -72.5383, 48.8454
9.46437, 46, -24.5445, -32.8318, 47.991, -141.51, -72.4992, 48.9636
9.47242, 46, -24.5079, -32.8707, 48.0161, -141.486, -72.4598, 49.0827
9.48047, 46, -24.4708, -32.9091, 48.0408, -141.464, -72.42, 49.2031
9.48842, 46, -24.4521, -32.9281, 48.053, -141.442, -72.3809, 49.325
9.4958, 46, -24.4147, -32.9659, 48.0771, -141.431, -72.3615, 49.3863
9.50382, 46, -24.3768, -33.0031, 48.1007, -141.41, -72.3226, 49.5102
9.5119, 46, -24.3386, -33.0398, 48.1238, -141.389, -72.2831, 49.6353
9.51982, 46, -24.3, -33.0759, 48.1465, -141.368, -72.2442, 49.7615
9.52781, 46, -24.2612, -33.1116, 48.1685, -141.348, -72.206, 49.8889
9.53584, 46, -24.2221, -33.1467, 48.1903, -141.329, -72.1675, 50.0173
9.54381, 46, -24.1825, -33.1813, 48.2115, -141.31, -72.1286, 50.1468
9.55188, 46, -24.1426, -33.2153, 48.2321, -141.292, -72.0905, 50.2773
9.56347, 46, -24.0822, -33.2653, 48.2623, -141.266, -72.0339, 50.4752
9.56684, 46, -24.0618, -33.2816, 48.2721, -141.258, -72.0147, 50.5419
9.57589, 47, -24.0207, -33.3139, 48.2913, -141.241, -71.9764, 50.6761
9.5838, 47, -23.9792, -33.3457, 48.3101, -141.225, -71.9391, 50.8117
9.59182, 47, -23.9374, -33.377, 48.3281, -141.209, -71.9022, 50.9483
9.60203, 47, -23.8741, -33.4226, 48.3543, -141.188, -71.8459, 51.1556
9.60787, 47, -23.8528, -33.4375, 48.3628, -141.181, -71.8273, 51.225
9.61582, 47, -23.8099, -33.4668, 48.3793, -141.168, -71.7906, 51.365
9.62288, 47, -23.7668, -33.4956, 48.3951, -141.156, -71.7542, 51.5064
9.63189, 47, -23.7233, -33.5237, 48.4107, -141.145, -71.7173, 51.6487
9.64088, 47, -23.6793, -33.5512, 48.4258, -141.133, -71.6805, 51.7926
9.64688, 47, -23.635, -33.5781, 48.44, -141.123, -71.6446, 51.9374
9.65587, 47, -23.5903, -33.6044, 48.4538, -141.113, -71.6091, 52.0834
9.66381, 47, -23.5452, -33.6301, 48.4671, -141.103, -71.5734, 52.2308
9.67182, 47, -23.4996, -33.655, 48.4796, -141.094, -71.5376, 52.3789
9.68094, 48, -23.4538, -33.6794, 48.4914, -141.086, -71.5026, 52.5282
9.68705, 48, -23.4076, -33.7031, 48.5027, -141.078, -71.4679, 52.6787
9.6958, 48, -23.3609, -33.726, 48.5135, -141.071, -71.433, 52.8306
9.70384, 48, -23.3139, -33.7485, 48.5238, -141.065, -71.398, 52.9837
9.71187, 48, -23.2666, -33.7701, 48.5336, -141.06, -71.3638, 53.1379
9.7198, 48, -23.2188, -33.791, 48.5426, -141.056, -71.3302, 53.2932
9.72788, 48, -23.1706, -33.8113, 48.551, -141.052, -71.2966, 53.4497
9.7358, 48, -23.1222, -33.8306, 48.5588, -141.049, -71.2627, 53.6071
9.7438, 48, -23.0732, -33.8495, 48.5661, -141.047, -71.2294, 53.7659
9.75188, 48, -23.0238, -33.8678, 48.5728, -141.046, -71.1967, 53.926
9.7598, 48, -22.9741, -33.8851, 48.5788, -141.045, -71.1642, 54.0872
9.76782, 48, -22.9239, -33.9016, 48.5841, -141.045, -71.1313, 54.2496
9.77603, 48, -22.8734, -33.9176, 48.5889, -141.044, -71.0985, 54.413
9.78388, 48, -22.8225, -33.9328, 48.593, -141.045, -71.0668, 54.5774
9.79186, 49, -22.7712, -33.9471, 48.5963, -141.046, -71.0355, 54.7428
9.79983, 49, -22.7195, -33.9604, 48.599, -141.048, -71.0044, 54.9092
9.80782, 49, -22.6675, -33.9731, 48.601, -141.051, -70.973, 55.077
9.81618, 49, -22.6149, -33.9853, 48.6023, -141.056, -70.9421, 55.2457
9.82401, 49, -22.562, -33.9967, 48.603, -141.06, -70.912, 55.4155
9.83189, 49, -22.5087, -34.0068, 48.6033, -141.066, -70.8823, 55.5865
9.83996, 49, -22.455, -34.0161, 48.6032, -141.073, -70.8526, 55.7584
9.84875, 49, -22.4008, -34.0248, 48.6028, -141.081, -70.8227, 55.9315
9.85596, 49, -22.3464, -34.0327, 48.6017, -141.09, -70.7936, 56.1058
9.86419, 49, -22.2915, -34.0398, 48.6, -141.1, -70.7653, 56.2812
9.87139, 49, -22.2639, -34.0431, 48.5989, -141.106, -70.7514, 56.3693
9.87982, 49, -22.1805, -34.0518, 48.5944, -141.123, -70.7098, 56.6352
9.88784, 49, -22.1244, -34.0564, 48.5903, -141.136, -70.682, 56.8136
9.89724, 50, -22.0679, -34.06, 48.5855, -141.149, -70.6548, 56.9928
9.90425, 50, -22.0111, -34.0626, 48.5798, -141.163, -70.6285, 57.1734
9.91204, 50, -21.9538, -34.0645, 48.5734, -141.177, -70.6027, 57.355
9.91879, 50, -21.925, -34.065, 48.5699, -141.185, -70.59, 57.4462
9.9288, 50, -21.8381, -34.0658, 48.5581, -141.209, -70.5517, 57.7214
9.93621, 50, -21.7795, -34.0656, 48.5492, -141.226, -70.5264, 57.9062
9.94436, 50, -21.7205, -34.0647, 48.5397, -141.245, -70.5018, 58.0917
9.95075, 50, -21.6908, -34.0638, 48.5347, -141.255, -70.4899, 58.185
9.95884, 50, -21.6312, -34.0615, 48.524, -141.275, -70.4665, 58.3725
9.9684, 50, -21.5413, -34.0565, 48.5064, -141.306, -70.4323, 58.6554
9.97643, 50, -21.4807, -34.0519, 48.4936, -141.327, -70.4097, 58.8453
9.98512, 50, -21.4199, -34.0461, 48.48, -141.35, -70.3873, 59.0358
9.99079, 50, -21.3894, -34.0428, 48.4729, -141.361, -70.3763, 59.1314
10.0006, 50, -21.328, -34.0355, 48.458, -141.398, -70.3447, 59.4196
10.0078, 51, -21.2662, -34.0271, 48.4423, -141.411, -70.3344, 59.5163
10.0148, 51, -21.2039, -34.0176, 48.4261, -141.437, -70.3146, 59.7103
10.0249, 51, -21.1097, -34.0016, 48.3999, -141.477, -70.2856, 60.0032
10.0318, 51, -21.0782, -33.9958, 48.3907, -141.49, -70.2761, 60.1011
10.0388, 51, -21.0146, -33.9831, 48.3718, -141.519, -70.2572, 60.2978
10.0478, 51, -20.9508, -33.9691, 48.352, -141.549, -70.2387, 60.4955
10.0558, 51, -20.8866, -33.9539, 48.3314, -141.579, -70.2209, 60.6944
10.0628, 51, -20.822, -33.938, 48.3103, -141.61, -70.2039, 60.894
10.0718, 51, -20.7571, -33.9213, 48.2881, -141.642, -70.1878, 61.0945
10.0798, 51, -20.6916, -33.9032, 48.2651, -141.675, -70.1726, 61.2958
10.0868, 51, -20.626, -33.8841, 48.2413, -141.709, -70.158, 61.4977
10.096, 51, -20.5599, -33.864, 48.2166, -141.743, -70.1439, 61.7007
10.1036, 51, -20.4936, -33.8426, 48.1911, -141.778, -70.1304, 61.9047
10.1118, 51, -20.4268, -33.8201, 48.1646, -141.815, -70.1173, 62.1093
10.1198, 52, -20.3598, -33.7964, 48.1374, -141.852, -70.1046, 62.3148
10.1288, 52, -20.2923, -33.7716, 48.1094, -141.89, -70.0925, 62.521
10.1358, 52, -20.2244, -33.7458, 48.0806, -141.929, -70.0811, 62.7284
10.1459, 52, -20.122, -33.7045, 48.0355, -141.99, -70.0657, 63.041
10.1518, 52, -20.0876, -33.6902, 48.0201, -142.011, -70.0609, 63.1455
10.1598, 52, -20.0187, -33.6607, 47.9887, -142.052, -70.0521, 63.3551
10.1678, 52, -19.9493, -33.6301, 47.9564, -142.094, -70.0441, 63.5653
10.1748, 52, -19.8797, -33.5983, 47.9232, -142.138, -70.0369, 63.7762
10.1838, 52, -19.8098, -33.5654, 47.8892, -142.182, -70.0304, 63.9881
10.1918, 52, -19.7395, -33.5314, 47.8543, -142.227, -70.0247, 64.2005
10.1999, 52, -19.669, -33.4962, 47.8184, -142.273, -70.0198, 64.4138
10.2078, 52, -19.5982, -33.4598, 47.7818, -142.32, -70.0157, 64.6276
10.2158, 52, -19.5271, -33.4222, 47.7443, -142.367, -70.0123, 64.8422
10.2239, 52, -19.4557, -33.3834, 47.7057, -142.416, -70.0097, 65.0576
10.2328, 53, -19.3839, -33.3433, 47.6664, -142.465, -70.0078, 65.2738
10.2398, 53, -19.3116, -33.302, 47.6263, -142.516, -70.0068, 65.4904
10.2478, 53, -19.2391, -33.2594, 47.5852, -142.567, -70.0063, 65.7078
10.2558, 53, -19.1663, -33.2157, 47.5433, -142.619, -70.0063, 65.9256
10.2639, 53, -19.0932, -33.1707, 47.5004, -142.671, -70.0069, 66.1441
10.2718, 53, -19.0199, -33.1246, 47.4566, -142.725, -70.0081, 66.3635
10.2798, 53, -18.9463, -33.0772, 47.4121, -142.779, -70.0102, 66.5833
10.2878, 53, -18.8724, -33.0286, 47.3665, -142.835, -70.0133, 66.8037
10.2959, 53, -18.7983, -32.9787, 47.32, -142.89, -70.0173, 67.0246
10.3038, 53, -18.7238, -32.9275, 47.2727, -142.947, -70.0224, 67.2465
10.312, 53, -18.649, -32.8751, 47.2244, -143.005, -70.0285, 67.4689
10.32, 53, -18.5741, -32.8213, 47.1753, -143.062, -70.0358, 67.6917
10.3282, 53, -18.4987, -32.7663, 47.1252, -143.122, -70.0439, 67.915
10.3364, 54, -18.4231, -32.71, 47.0742, -143.181, -70.0533, 68.1385
10.3439, 54, -18.3472, -32.6524, 47.0224, -143.242, -70.0637, 68.3627
10.3519, 54, -18.2712, -32.5935, 46.9697, -143.303, -70.0753, 68.5874
10.3604, 54, -18.1949, -32.5333, 46.9162, -143.365, -70.0882, 68.8126
10.3679, 54, -18.1184, -32.472, 46.8617, -143.429, -70.1024, 69.0382
10.376, 54, -18.0416, -32.4092, 46.8062, -143.492, -70.1177, 69.2643
10.3844, 54, -17.9647, -32.3453, 46.7499, -143.556, -70.1339, 69.4911
10.3922, 54, -17.8873, -32.28, 46.6926, -143.621, -70.1509, 69.7182
10.3988, 54, -17.8486, -32.2469, 46.6637, -143.654, -70.1597, 69.8319
10.4087, 54, -17.7322, -32.1453, 46.5754, -143.753, -70.1875, 70.1735
10.4161, 54, -17.6544, -32.076, 46.5154, -143.82, -70.2073, 70.4018
10.4228, 54, -17.6154, -32.0408, 46.4851, -143.854, -70.2177, 70.5161
10.4308, 54, -17.5374, -31.9693, 46.4239, -143.921, -70.2397, 70.745
10.4412, 54, -17.4199, -31.8596, 46.3303, -144.025, -70.275, 71.0891
10.4526, 55, -17.302, -31.747, 46.2349, -144.129, -70.3121, 71.4336
10.4564, 55, -17.2626, -31.7088, 46.2027, -144.164, -70.3249, 71.5488
10.4643, 55, -17.1836, -31.6315, 46.1375, -144.235, -70.3513, 71.7794
10.4708, 55, -17.1441, -31.5924, 46.1046, -144.271, -70.3651, 71.8948
10.4788, 55, -17.0649, -31.5131, 46.038, -144.342, -70.394, 72.1257
10.4883, 55, -16.9855, -31.4325, 45.9362, -144.451, -70.4389, 72.4723
10.497, 55, -16.906, -31.3506, 45.9019, -144.487, -70.4697, 72.7036
10.5038, 55, -16.8264, -31.2673, 45.8324, -144.561, -70.4855, 72.8195
10.5118, 55, -16.7468, -31.1827, 45.7622, -144.634, -70.5185, 73.0513
10.5198, 55, -16.6671, -31.0967, 45.6912, -144.709, -70.5531, 73.2833
10.5268, 55, -16.5873, -31.0094, 45.6194, -144.783, -70.5883, 73.5153
10.5359, 55, -16.5072, -30.9208, 45.5467, -144.859, -70.6244, 73.7475
10.544, 55, -16.4271, -30.8308, 45.4731, -144.934, -70.6618, 73.98
10.5509, 55, -16.3468, -30.7394, 45.3986, -145.011, -70.7011, 74.2127
10.5598, 56, -16.2664, -30.6466, 45.3232, -145.087, -70.7407, 74.4454
10.5678, 56, -16.186, -30.5526, 45.2469, -145.165, -70.7813, 74.6778
10.5759, 56, -16.1055, -30.4572, 45.1697, -145.242, -70.8238, 74.9105
10.5838, 56, -16.0248, -30.3605, 45.0917, -145.32, -70.8678, 75.1435
10.5918, 56, -15.9442, -30.2626, 45.013, -145.398, -70.9121, 75.3766
10.5998, 56, -15.8637, -30.1633, 44.9334, -145.477, -70.9582, 75.6096
10.6078, 56, -15.7831, -30.0626, 44.8532, -145.556, -71.006, 75.8426
10.6158, 56, -15.7025, -29.9606, 44.772, -145.635, -71.054, 76.076
10.6238, 56, -15.6216, -29.8572, 44.6899, -145.715, -71.1038, 76.3094
10.6328, 56, -15.5406, -29.7524, 44.6069, -145.795, -71.1553, 76.5427
10.6398, 56, -15.4596, -29.6464, 44.523, -145.875, -71.2071, 76.7758
10.6488, 56, -15.3785, -29.5392, 44.4383, -145.956, -71.2608, 77.0085
10.6559, 56, -15.2976, -29.4307, 44.3531, -146.037, -71.3156, 77.2415
10.6639, 56, -15.2166, -29.3209, 44.2671, -146.118, -71.371, 77.4744
10.6719, 57, -15.1358, -29.2097, 44.1803, -146.199, -71.4288, 77.7072
10.6798, 57, -15.055, -29.0972, 44.0926, -146.281, -71.487, 77.9396
10.6879, 57, -14.9741, -28.9834, 44.0041, -146.362, -71.5469, 78.172
10.6958, 57, -14.8932, -28.8683, 43.9147, -146.444, -71.6079, 78.4044
10.7038, 57, -14.8123, -28.752, 43.8245, -146.526, -71.6696, 78.6366
10.7134, 57, -14.7313, -28.6344, 43.7338, -146.608, -71.7338, 78.8687
10.7198, 57, -14.6505, -28.5155, 43.6423, -146.69, -71.7981, 79.1004
10.7278, 57, -14.5697, -28.3952, 43.5502, -146.773, -71.8649, 79.332
10.7358, 57, -14.4891, -28.2738, 43.4573, -146.856, -71.9316, 79.5635
10.7448, 57, -14.4085, -28.1511, 43.3634, -146.938, -72.0008, 79.7949
10.7518, 57, -14.328, -28.0275, 43.2689, -147.021, -72.0706, 80.0258
10.7598, 57, -14.2475, -27.9026, 43.1735, -147.103, -72.1421, 80.2564
10.7696, 57, -14.1671, -27.7764, 43.0774, -147.186, -72.2142, 80.4869
10.776, 58, -14.0867, -27.649, 42.9809, -147.269, -72.2881, 80.7174
10.7838, 58, -14.0064, -27.5203, 42.8837, -147.352, -72.363, 80.9473
10.7918, 58, -13.9263, -27.3906, 42.7858, -147.434, -72.4391, 81.1767
10.7999, 58, -13.8464, -27.2597, 42.6873, -147.517, -72.5163, 81.4057
10.8078, 58, -13.7666, -27.1275, 42.588, -147.6, -72.5951, 81.6343
10.8156, 58, -13.687, -26.9939, 42.4879, -147.682, -72.675, 81.8628
10.8239, 58, -13.6075, -26.859, 42.3872, -147.765, -72.7564, 82.0908
10.8318, 58, -13.5282, -26.723, 42.2861, -147.847, -72.8388, 82.3181
10.8399, 58, -13.4489, -26.5861, 42.1844, -147.929, -72.9228, 82.5449
10.8482, 58, -13.3696, -26.4481, 42.0821, -148.012, -73.008, 82.7716
10.8553, 58, -13.2906, -26.3089, 41.9791, -148.094, -73.0941, 82.9978
10.8641, 58, -13.2116, -26.1685, 41.8752, -148.176, -73.1818, 83.2233
10.8718, 58, -13.1329, -26.0271, 41.7707, -148.257, -73.2703, 83.4483
10.8798, 58, -13.0544, -25.8848, 41.6659, -148.338, -73.36, 83.6725
10.8879, 59, -12.9761, -25.7416, 41.5607, -148.419, -73.451, 83.8965
10.8958, 59, -12.898, -25.5972, 41.455, -148.501, -73.5431, 84.12
10.9038, 59, -12.8202, -25.4515, 41.3488, -148.582, -73.6364, 84.3427
10.9121, 59, -12.7424, -25.3047, 41.2418, -148.662, -73.731, 84.5648
10.9188, 59, -12.7037, -25.231, 41.188, -148.702, -73.7788, 84.6755
10.928, 59, -12.5876, -25.0086, 41.0261, -148.822, -73.9236, 85.0075
10.9363, 59, -12.5104, -24.8588, 40.9178, -148.902, -74.0217, 85.2281
10.9442, 59, -12.4335, -24.708, 40.8091, -148.981, -74.121, 85.448
10.9508, 59, -12.395, -24.6322, 40.7546, -149.021, -74.1711, 85.5576
10.9607, 59, -12.2801, -24.4039, 40.59, -149.139, -74.323, 85.8852
10.9691, 59, -12.2036, -24.2507, 40.4794, -149.217, -74.4258, 86.1029
10.9748, 59, -12.1655, -24.1737, 40.424, -149.256, -74.4775, 86.2115
10.9847, 59, -12.0518, -23.9409, 40.2576, -149.372, -74.6343, 86.5359
10.9948, 60, -11.9763, -23.7847, 40.1463, -149.449, -74.7403, 86.7511
11.0005, 60, -11.9386, -23.7064, 40.0348, -149.526, -74.8471, 86.9655
11.0086, 60, -11.8635, -23.5492, 39.9789, -149.564, -74.901, 87.1791
11.0158, 60, -11.7886, -23.391, 39.8664, -149.64, -75.0097, 87.2858
11.0238, 60, -11.714, -23.2316, 39.7535, -149.715, -75.119, 87.4984
11.034, 60, -11.6027, -22.9913, 39.5838, -149.827, -75.2854, 87.8156
11.0398, 60, -11.5656, -22.911, 39.5271, -149.865, -75.3414, 87.9208
11.0478, 60, -11.4918, -22.7501, 39.4136, -149.939, -75.4538, 88.1307
11.0558, 60, -11.4183, -22.5881, 39.2998, -150.012, -75.5676, 88.3399
11.0638, 60, -11.3449, -22.425, 39.1853, -150.085, -75.6822, 88.5483
11.0708, 60, -11.2719, -22.2612, 39.0704, -150.158, -75.7976, 88.7558
11.0798, 60, -11.1992, -22.097, 38.9555, -150.23, -75.914, 88.9623
11.0902, 60, -11.0907, -21.8492, 38.7831, -150.337, -76.0901, 89.2701
11.0948, 60, -11.0548, -21.766, 38.7255, -150.372, -76.1494, 89.3724
11.1037, 61, -10.9831, -21.5991, 38.6103, -150.442, -76.2683, 89.5761
11.1133, 61, -10.8761, -21.3484, 38.4367, -150.547, -76.4486, 89.8798
11.1198, 61, -10.8405, -21.2646, 38.3787, -150.581, -76.5091, 89.9805
11.1278, 61, -10.7697, -21.0964, 38.2627, -150.65, -76.6305, 90.1809
11.1388, 61, -10.6643, -20.8424, 38.0888, -150.751, -76.8148, 90.4794
11.1438, 61, -10.6294, -20.7577, 38.0308, -150.785, -76.8766, 90.5785
11.1518, 61, -10.5597, -20.5884, 37.9146, -150.851, -77.001, 90.776
11.1597, 61, -10.4902, -20.4181, 37.7979, -150.917, -77.1261, 90.9722
11.1678, 61, -10.421, -20.2469, 37.6811, -150.982, -77.2521, 91.1675
11.1758, 61, -10.352, -20.075, 37.5643, -151.047, -77.3789, 91.3613
11.1838, 61, -10.2835, -19.9031, 37.4476, -151.111, -77.5062, 91.5542
11.1918, 61, -10.2153, -19.7312, 37.331, -151.175, -77.6345, 91.7463
11.1998, 61, -10.1476, -19.5582, 37.2142, -151.237, -77.7631, 91.9369
11.2079, 61, -10.0804, -19.3844, 37.0973, -151.299, -77.8926, 92.1262
11.2152, 62, -10.0134, -19.2106, 36.9804, -151.36, -78.0224, 92.3143
11.2229, 62, -9.94674, -19.0369, 36.8636, -151.421, -78.1532, 92.5007
11.2317, 62, -9.88045, -18.8626, 36.7471, -151.481, -78.2843, 92.6862
11.2397, 62, -9.8147, -18.6876, 36.6306, -151.54, -78.4162, 92.8704
11.2478, 62, -9.74926, -18.5126, 36.514, -151.598, -78.5484, 93.0537
11.2558, 62, -9.68399, -18.3379, 36.3971, -151.656, -78.6809, 93.2355
11.2638, 62, -9.61901, -18.1629, 36.2805, -151.712, -78.8145, 93.4161
11.2718, 62, -9.55436, -17.9872, 36.1639, -151.769, -78.9483, 93.5952
11.2798, 62, -9.49008, -17.8111, 36.0476, -151.824, -79.083, 93.7732
11.2878, 62, -9.42603, -17.6354, 35.9314, -151.879, -79.2179, 93.9501
11.2958, 62, -9.36244, -17.4593, 35.8152, -151.933, -79.3534, 94.1256
11.3042, 62, -9.29929, -17.2824, 35.6991, -151.986, -79.4893, 94.2998
11.315, 62, -9.20542, -17.0163, 35.5255, -152.064, -79.6941, 94.5581
11.3192, 62, -9.17437, -16.9278, 35.4678, -152.09, -79.7626, 94.6434
11.3272, 63, -9.11247, -16.7511, 35.3526, -152.14, -79.8999, 94.8129
11.3352, 63, -9.05094, -16.5738, 35.2375, -152.191, -80.0378, 94.9809
11.3434, 63, -8.98981, -16.3961, 35.1224, -152.24, -80.1761, 95.1478
11.3543, 63, -8.929, -16.2188, 35.0075, -152.288, -80.3146, 95.3129
11.3599, 63, -8.86857, -16.0421, 34.893, -152.336, -80.4534, 95.4766
11.3678, 63, -8.8085, -15.8651, 34.7787, -152.383, -80.5929, 95.6387
11.3759, 63, -8.74883, -15.6876, 34.6648, -152.429, -80.7324, 95.7991
11.3839, 63, -8.68957, -15.5104, 34.551, -152.474, -80.8723, 95.9583
11.3918, 63, -8.6305, -15.3338, 34.4373, -152.519, -81.0124, 96.1159
11.3998, 63, -8.57183, -15.1568, 34.324, -152.562, -81.1527, 96.2721
11.4086, 63, -8.51351, -14.9793, 34.2112, -152.605, -81.2931, 96.4266
11.4159, 63, -8.4556, -14.8017, 34.0989, -152.647, -81.4338, 96.5793
11.4239, 63, -8.39822, -14.6249, 33.9869, -152.688, -81.5747, 96.7307
11.4331, 64, -8.34116, -14.4479, 33.8751, -152.729, -81.7158, 96.8795
11.4401, 64, -8.28456, -14.2704, 33.7634, -152.768, -81.8568, 97.0273
11.4468, 64, -8.25647, -14.1817, 33.7078, -152.788, -81.9275, 97.1005
11.4571, 64, -8.17277, -13.9169, 33.5416, -152.845, -82.1391, 97.3176
11.4628, 64, -8.14499, -13.8291, 33.4864, -152.864, -82.2099, 97.3894
11.4723, 64, -8.06218, -13.5653, 33.3217, -152.919, -82.4222, 97.6016
11.4828, 64, -8.00743, -13.3894, 33.212, -152.954, -82.564, 97.7408
11.4883, 64, -7.98016, -13.3017, 33.1026, -152.989, -82.7057, 97.8784
11.4963, 64, -7.92593, -13.1269, 33.0481, -153.006, -82.7767, 98.014
11.5051, 64, -7.872, -12.952, 32.9396, -153.04, -82.9894, 98.1481
11.5108, 64, -7.81851, -12.7766, 32.8316, -153.073, -83.0603, 98.2143
11.5197, 64, -7.76543, -12.6015, 32.7243, -153.105, -83.2024, 98.3458
11.5286, 64, -7.71269, -12.4273, 32.6173, -153.135, -83.3443, 98.5396
11.5358, 64, -7.66031, -12.2533, 32.5105, -153.166, -83.4864, 98.6032
11.5449, 65, -7.58264, -11.9919, 32.3512, -153.21, -83.6993, 98.7911
11.5508, 65, -7.55691, -11.9049, 32.2984, -153.224, -83.7704, 98.8527
11.5598, 65, -7.5058, -11.7319, 32.1934, -153.251, -83.9121, 98.9748
11.5677, 65, -7.45516, -11.5595, 32.0891, -153.278, -84.0541, 99.0947
11.5762, 65, -7.40477, -11.3871, 31.9852, -153.304, -84.1957, 99.2126
11.5837, 65, -7.35468, -11.2147, 31.8814, -153.33, -84.3374, 99.3287
11.5917, 65, -7.30507, -11.0433, 31.7779, -153.355, -84.4789, 99.4427
11.6011, 65, -7.25568, -10.8727, 31.6752, -153.378, -84.6206, 99.6104
