rpiRobotics/ARM-21-02-F-19-Robot-Motion-Program/data_performance_abb/curve_1/baseline/100L/realrobot/bisect/run_3realrobot_curve_exe_v150_z10.csv
timestamp, cmd_num, J1, J2, J3, J4, J5, J6
0.001044, -1, 11.378, 13.6139, 17.3393, -145.519, -97.923, 142.516
0.005899, -1, 11.378, 13.6139, 17.3393, -145.519, -97.923, 142.516
0.007849, -1, 11.378, 13.6139, 17.3393, -145.519, -97.923, 142.516
0.03108, -1, 11.378, 13.6139, 17.3393, -145.519, -97.9229, 142.516
0.033772, -1, 11.378, 13.6139, 17.3393, -145.519, -97.9229, 142.516
0.035008, -1, 11.378, 13.6139, 17.3393, -145.519, -97.9229, 142.516
0.039544, -1, 11.378, 13.6139, 17.3393, -145.519, -97.9229, 142.516
0.04929, -1, 11.3779, 13.6139, 17.3393, -145.519, -97.923, 142.516
0.055492, -1, 11.3773, 13.6139, 17.3393, -145.519, -97.9229, 142.516
0.06354, -1, 11.3747, 13.6136, 17.3393, -145.519, -97.923, 142.516
0.071496, -1, 11.3682, 13.6128, 17.339, -145.519, -97.9229, 142.516
0.07948, -1, 11.357, 13.6109, 17.3385, -145.52, -97.9229, 142.514
0.087555, -1, 11.3396, 13.6072, 17.3377, -145.521, -97.9228, 142.504
0.095473, -1, 11.3128, 13.6011, 17.3368, -145.525, -97.922, 142.481
0.104723, -1, 11.2745, 13.5917, 17.3361, -145.532, -97.9202, 142.441
0.111489, -1, 11.2244, 13.5792, 17.3363, -145.543, -97.9166, 142.375
0.119546, -1, 11.1628, 13.5636, 17.338, -145.561, -97.9111, 142.279
0.127494, -1, 11.0897, 13.5443, 17.342, -145.584, -97.9033, 142.148
0.135496, -1, 11.0046, 13.5212, 17.3484, -145.613, -97.8932, 141.983
0.143589, -1, 10.9078, 13.4948, 17.357, -145.647, -97.8811, 141.785
0.1515, -1, 10.8004, 13.465, 17.3675, -145.685, -97.8675, 141.56
0.15948, -1, 10.682, 13.4322, 17.3787, -145.728, -97.8528, 141.313
0.167551, -1, 10.553, 13.3965, 17.3899, -145.772, -97.8374, 141.053
0.175495, -1, 10.4149, 13.3586, 17.4006, -145.818, -97.8216, 140.783
0.184474, -1, 10.2701, 13.3192, 17.4109, -145.866, -97.8054, 140.509
0.191542, -1, 10.1207, 13.2788, 17.4209, -145.913, -97.7888, 140.232
0.199489, -1, 9.96838, 13.2378, 17.431, -145.96, -97.7718, 139.954
0.207489, -1, 9.81388, 13.1965, 17.441, -146.009, -97.7546, 139.676
0.215541, -1, 9.65841, 13.1552, 17.451, -146.057, -97.7374, 139.396
0.223575, -1, 9.50325, 13.114, 17.461, -146.104, -97.7205, 139.117
0.231515, -1, 9.34859, 13.0728, 17.4708, -146.153, -97.7037, 138.838
0.239716, -1, 9.19419, 13.0318, 17.4808, -146.201, -97.687, 138.558
0.247772, -1, 9.04033, 12.9907, 17.4907, -146.248, -97.6703, 138.279
0.25563, -1, 8.88671, 12.9497, 17.5008, -146.297, -97.6534, 137.999
0.263589, -1, 8.73324, 12.9088, 17.5109, -146.345, -97.6362, 137.72
0.271995, -1, 8.58029, 12.8676, 17.5209, -146.392, -97.6188, 137.44
0.279657, -1, 8.42747, 12.8264, 17.5311, -146.441, -97.6013, 137.16
0.287483, -1, 8.27445, 12.7852, 17.5413, -146.488, -97.584, 136.88
0.295965, -1, 8.12097, 12.7437, 17.5515, -146.536, -97.5671, 136.6
0.303628, -1, 7.96709, 12.7022, 17.5616, -146.584, -97.5503, 136.32
0.311573, -1, 7.81254, 12.6606, 17.5717, -146.632, -97.5337, 136.04
0.320417, -1, 7.6576, 12.619, 17.5818, -146.68, -97.5171, 135.76
0.328018, -1, 7.50261, 12.5774, 17.5921, -146.728, -97.5002, 135.48
0.335765, -1, 7.34747, 12.536, 17.6021, -146.776, -97.483, 135.2
0.343793, -1, 7.19237, 12.4946, 17.6124, -146.824, -97.4657, 134.919
0.351919, -1, 7.03725, 12.4532, 17.6226, -146.872, -97.4483, 134.639
0.359949, -1, 6.88209, 12.4119, 17.6329, -146.92, -97.4313, 134.359
0.368002, -1, 6.72717, 12.3708, 17.6432, -146.968, -97.4145, 134.079
0.376391, -1, 6.57257, 12.3295, 17.6537, -147.017, -97.3977, 133.799
0.38407, -1, 6.41814, 12.2883, 17.664, -147.065, -97.381, 133.518
0.39208, -1, 6.26385, 12.247, 17.6743, -147.113, -97.3641, 133.238
0.400118, -1, 6.10961, 12.2056, 17.6844, -147.161, -97.3469, 132.957
0.408078, -1, 6.03241, 12.1849, 17.6896, -147.185, -97.3382, 132.677
0.415464, -1, 5.87784, 12.1435, 17.6998, -147.233, -97.3205, 132.536
0.424873, -1, 5.64572, 12.0811, 17.7151, -147.305, -97.2944, 132.116
0.431471, -1, 5.56822, 12.0603, 17.7202, -147.329, -97.2858, 131.975
0.43953, -1, 5.41306, 12.0187, 17.7305, -147.377, -97.2688, 131.694
0.447465, -1, 5.25764, 11.977, 17.7407, -147.426, -97.252, 131.413
0.455471, -1, 5.10188, 11.9354, 17.7511, -147.474, -97.2353, 131.133
0.463522, -1, 4.94596, 11.8938, 17.7615, -147.521, -97.2184, 130.852
0.471468, -1, 4.79013, 11.8523, 17.7718, -147.57, -97.2013, 130.571
0.479516, -1, 4.63437, 11.8108, 17.7822, -147.618, -97.1839, 130.29
0.487674, -1, 4.47868, 11.7694, 17.7925, -147.666, -97.1664, 130.009
0.495462, -1, 4.32312, 11.728, 17.8028, -147.715, -97.1491, 129.728
0.503479, -1, 4.16781, 11.6866, 17.8132, -147.763, -97.1321, 129.447
0.511533, -1, 4.01296, 11.6452, 17.8235, -147.811, -97.1152, 129.166
0.519464, -1, 3.85853, 11.6038, 17.8338, -147.859, -97.0984, 128.885
0.527472, -1, 3.7042, 11.5624, 17.8441, -147.908, -97.0815, 128.604
0.537038, -1, 3.54978, 11.5208, 17.8544, -147.956, -97.0645, 128.182
0.545085, -1, 3.39511, 11.4792, 17.8647, -148.005, -97.0471, 128.041
0.551469, -1, 3.24021, 11.4376, 17.8752, -148.053, -97.0296, 127.76
0.559524, -1, 3.085, 11.3959, 17.8855, -148.101, -97.0121, 127.478
0.567464, -1, 2.92963, 11.3542, 17.8959, -148.149, -96.995, 127.197
0.575466, -1, 2.774, 11.3125, 17.9062, -148.198, -96.9781, 126.915
0.583537, -1, 2.61798, 11.2708, 17.9165, -148.245, -96.9614, 126.634
0.591467, -1, 2.46171, 11.2291, 17.927, -148.294, -96.9447, 126.352
0.599467, -1, 2.30519, 11.1874, 17.9373, -148.342, -96.9278, 126.07
0.607583, -1, 2.14848, 11.1457, 17.9477, -148.39, -96.9107, 125.788
0.615461, -1, 1.99166, 11.104, 17.9581, -148.439, -96.8934, 125.507
0.749462, -1, -0.579486, 10.4155, 18.1295, -149.238, -96.6111, 120.847
0.75151, -1, -0.658154, 10.3946, 18.1347, -149.262, -96.6024, 120.706
0.752777, -1, -0.658154, 10.3946, 18.1347, -149.262, -96.6024, 120.706
0.754049, -1, -0.658154, 10.3946, 18.1347, -149.262, -96.6024, 120.706
0.757626, -1, -0.736809, 10.3737, 18.1399, -149.287, -96.5937, 120.564
0.759752, -1, -0.815502, 10.3528, 18.1451, -149.311, -96.5849, 120.423
0.760982, -1, -0.815502, 10.3528, 18.1451, -149.311, -96.5849, 120.423
0.763661, -1, -0.894206, 10.3319, 18.1502, -149.336, -96.5763, 120.282
0.903362, -1, -3.55351, 9.62041, 18.327, -150.162, -96.2845, 115.463
0.905442, -1, -3.63244, 9.59948, 18.3322, -150.187, -96.2758, 115.321
0.906626, -1, -3.63244, 9.59948, 18.3322, -150.187, -96.2758, 115.321
0.908832, -1, -3.71135, 9.57858, 18.3374, -150.211, -96.2672, 115.179
0.91003, -1, -3.71135, 9.57858, 18.3374, -150.211, -96.2672, 115.179
0.911421, -1, -3.71135, 9.57858, 18.3374, -150.211, -96.2672, 115.179
0.913492, -1, -3.79032, 9.55766, 18.3425, -150.235, -96.2587, 115.036
0.916709, -1, -3.86933, 9.53668, 18.3477, -150.259, -96.2502, 114.894
0.918005, -1, -3.86933, 9.53668, 18.3477, -150.259, -96.2502, 114.894
0.91942, -1, -3.86933, 9.53668, 18.3477, -150.259, -96.2502, 114.894
0.921499, -1, -3.94832, 9.51567, 18.3528, -150.284, -96.2417, 114.752
0.922804, -1, -3.94832, 9.51567, 18.3528, -150.284, -96.2417, 114.752
0.926257, -1, -4.02727, 9.49472, 18.358, -150.308, -96.2332, 114.61
0.927497, -1, -4.02727, 9.49472, 18.358, -150.308, -96.2332, 114.61
0.929583, -1, -4.10618, 9.4738, 18.3632, -150.333, -96.2247, 114.468
0.935192, -1, -4.18506, 9.45287, 18.3684, -150.357, -96.2162, 114.326
0.937264, -1, -4.26391, 9.43193, 18.3735, -150.381, -96.2077, 114.184
0.938507, -1, -4.26391, 9.43193, 18.3735, -150.381, -96.2077, 114.184
0.940374, -1, -4.26391, 9.43193, 18.3735, -150.381, -96.1991, 114.041
0.941801, -1, -4.34274, 9.41097, 18.3787, -150.406, -96.1991, 114.041
0.942998, -1, -4.34274, 9.41097, 18.3787, -150.406, -96.1991, 114.041
0.945061, -1, -4.42146, 9.38999, 18.3838, -150.43, -96.1905, 113.899
0.947358, -1, -4.42146, 9.38999, 18.3838, -150.43, -96.1905, 113.899
0.950784, -1, -4.50007, 9.36902, 18.389, -150.455, -96.1817, 113.757
0.952687, -1, -4.57861, 9.34805, 18.3942, -150.479, -96.173, 113.614
0.954058, -1, -4.57861, 9.34805, 18.3942, -150.479, -96.173, 113.614
0.955366, -1, -4.57861, 9.34805, 18.3942, -150.479, -96.173, 113.614
0.957562, -1, -4.65704, 9.32705, 18.3993, -150.504, -96.1641, 113.472
0.958873, -1, -4.65704, 9.32705, 18.3993, -150.504, -96.1641, 113.472
0.960684, -1, -4.73536, 9.30607, 18.4045, -150.528, -96.1553, 113.33
0.964665, -1, -4.73536, 9.28508, 18.4096, -150.552, -96.1465, 113.188
0.966015, -1, -4.81359, 9.28508, 18.4096, -150.552, -96.1465, 113.188
0.96731, -1, -4.81359, 9.28508, 18.4096, -150.552, -96.1465, 113.188
0.969292, -1, -4.89175, 9.26404, 18.4149, -150.577, -96.1377, 113.045
0.970596, -1, -4.89175, 9.26404, 18.4149, -150.577, -96.1377, 113.045
0.97179, -1, -4.89175, 9.26404, 18.4149, -150.577, -96.1377, 113.045
0.975426, -1, -4.96986, 9.243, 18.4201, -150.601, -96.1291, 112.903
0.9835, -1, -5.12585, 9.201, 18.4306, -150.65, -96.1119, 112.618
0.992984, -1, -5.35977, 9.13791, 18.4464, -150.723, -96.0865, 112.191
1.00109, -1, -5.5159, 9.09576, 18.4568, -150.772, -96.0697, 111.907
1.00744, -1, -5.59402, 9.07475, 18.4619, -150.796, -96.0612, 111.764
1.01551, -1, -5.75051, 9.03268, 18.4723, -150.845, -96.0441, 111.479
1.02346, -1, -5.90744, 8.99055, 18.4827, -150.894, -96.0267, 111.194
1.03292, -1, -6.0649, 8.94844, 18.493, -150.943, -96.0091, 110.91
1.03948, -1, -6.22294, 8.90634, 18.5033, -150.992, -95.9915, 110.624
1.04848, -1, -6.3813, 8.86424, 18.5136, -151.041, -95.9743, 110.339
1.05552, -1, -6.53976, 8.82223, 18.5239, -151.09, -95.9573, 110.054
1.06346, -1, -6.6983, 8.78015, 18.5345, -151.139, -95.9403, 109.769
1.07146, -1, -6.85699, 8.73804, 18.5449, -151.188, -95.9234, 109.483
1.0795, -1, -7.01553, 8.69601, 18.5554, -151.237, -95.9062, 109.198
1.08745, -1, -7.17399, 8.65393, 18.5659, -151.286, -95.8888, 108.912
1.09549, -1, -7.33222, 8.61182, 18.5762, -151.335, -95.8711, 108.627
1.10347, -1, -7.49007, 8.5696, 18.5867, -151.384, -95.8534, 108.341
1.11147, -1, -7.64777, 8.52734, 18.5971, -151.433, -95.8359, 108.055
1.11952, -1, -7.80504, 8.48511, 18.6075, -151.482, -95.8187, 107.77
1.12744, -1, -7.96189, 8.44288, 18.6179, -151.531, -95.8017, 107.484
1.13545, -1, -8.11855, 8.40056, 18.6283, -151.58, -95.7848, 107.198
1.14396, -1, -8.27513, 8.35828, 18.6387, -151.629, -95.7677, 106.912
1.15148, -1, -8.43187, 8.31593, 18.6493, -151.678, -95.7505, 106.626
1.15947, -1, -8.58887, 8.27357, 18.6598, -151.727, -95.733, 106.34
1.16825, -1, -8.74628, 8.23135, 18.6703, -151.777, -95.7153, 106.054
1.17554, -1, -8.904, 8.18905, 18.6806, -151.825, -95.6977, 105.767
1.18347, -1, -9.06209, 8.14674, 18.691, -151.874, -95.6804, 105.481
1.19222, -1, -9.22071, 8.10455, 18.7014, -151.924, -95.6633, 105.195
1.1995, -1, -9.3796, 8.0623, 18.7118, -151.973, -95.6462, 104.908
1.20745, -1, -9.53868, 8.02001, 18.7223, -152.022, -95.629, 104.621
1.21626, -1, -9.69789, 7.97783, 18.7327, -152.072, -95.6117, 104.335
1.22346, -1, -9.85716, 7.93567, 18.7431, -152.12, -95.5941, 104.048
1.23163, -1, -10.0165, 7.89335, 18.7537, -152.17, -95.5762, 103.761
1.24028, -1, -10.1758, 7.85099, 18.7642, -152.219, -95.5584, 103.474
1.24753, -1, -10.3348, 7.80857, 18.7748, -152.268, -95.5409, 103.187
1.25581, -1, -10.4935, 7.7661, 18.7853, -152.318, -95.5236, 102.9
1.26436, -1, -10.652, 7.72367, 18.7957, -152.367, -95.5066, 102.614
1.27155, -1, -10.8101, 7.68122, 18.8061, -152.416, -95.4896, 102.327
1.28001, -1, -10.9679, 7.63865, 18.8166, -152.466, -95.4725, 102.039
1.28835, -1, -11.1254, 7.59619, 18.8269, -152.515, -95.4551, 101.752
1.29549, -1, -11.2828, 7.55377, 18.8374, -152.564, -95.4374, 101.465
1.30436, -1, -11.4403, 7.51132, 18.8478, -152.614, -95.4196, 101.178
1.31238, -1, -11.5979, 7.46887, 18.8583, -152.663, -95.402, 100.89
1.3196, -1, -11.7559, 7.42648, 18.8689, -152.712, -95.3846, 100.602
1.32854, -1, -11.9143, 7.3841, 18.8794, -152.761, -95.3674, 100.315
1.3364, -1, -12.0731, 7.34176, 18.89, -152.811, -95.3503, 100.027
1.34407, -1, -12.2322, 7.29941, 18.9005, -152.86, -95.333, 99.7392
1.35258, -1, -12.3918, 7.257, 18.9109, -152.91, -95.3157, 99.4513
1.36105, -1, -12.5516, 7.21461, 18.9215, -152.959, -95.2979, 99.1634
1.36802, -1, -12.7116, 7.17224, 18.932, -153.008, -95.28, 98.8757
1.37594, -1, -12.8717, 7.12982, 18.9425, -153.058, -95.2622, 98.5878
1.38554, -1, -13.0318, 7.0873, 18.9531, -153.107, -95.2447, 98.2997
1.39221, -1, -13.1916, 7.04476, 18.9636, -153.157, -95.2274, 98.0117
1.39999, -1, -13.3513, 7.0022, 18.9741, -153.207, -95.2103, 97.7235
1.40875, -1, -13.431, 6.9809, 18.9794, -153.256, -95.1932, 97.4352
1.41608, -1, -13.5903, 6.93818, 18.99, -153.28, -95.176, 97.1466
1.42344, -1, -13.7495, 6.8955, 19.0005, -153.33, -95.1673, 97.0023
1.43143, -1, -13.9083, 6.85288, 19.011, -153.379, -95.1497, 96.7138
1.43948, -1, -14.0666, 6.81019, 19.0214, -153.429, -95.1319, 96.4252
1.44744, -1, -14.2248, 6.76759, 19.032, -153.478, -95.1142, 96.1363
1.45543, -1, -14.3831, 6.72497, 19.0424, -153.528, -95.0968, 95.8473
1.46349, -1, -14.5413, 6.68232, 19.0529, -153.577, -95.0796, 95.5585
1.47143, -1, -14.7, 6.6398, 19.0634, -153.627, -95.0624, 95.2693
1.47944, -1, -14.8591, 6.59729, 19.0739, -153.676, -95.0453, 94.9801
1.48755, -1, -15.0184, 6.55467, 19.0845, -153.726, -95.0279, 94.691
1.49543, -1, -15.1782, 6.51207, 19.0952, -153.776, -95.0101, 94.402
1.50344, -1, -15.3383, 6.46956, 19.1058, -153.825, -94.9921, 94.1129
1.51142, -1, -15.4988, 6.42692, 19.1165, -153.875, -94.9742, 93.8235
1.51943, -1, -15.6595, 6.38427, 19.1269, -153.925, -94.9565, 93.5343
1.52749, -1, -15.8202, 6.34158, 19.1375, -153.974, -94.9392, 93.2449
1.53542, -1, -15.981, 6.29876, 19.1481, -154.024, -94.9221, 92.9555
1.54344, -1, -16.1417, 6.25596, 19.1586, -154.074, -94.9049, 92.6658
1.55149, -1, -16.3024, 6.21315, 19.1691, -154.123, -94.8876, 92.3763
1.56048, -1, -16.4629, 6.17018, 19.1796, -154.172, -94.8702, 92.0867
1.56743, -1, -16.6231, 6.12723, 19.19, -154.223, -94.8524, 91.7967
1.57549, -1, -16.7829, 6.08434, 19.2006, -154.272, -94.8345, 91.5067
1.58344, -1, -16.9423, 6.04139, 19.2112, -154.322, -94.8168, 91.2167
1.59142, -1, -17.1015, 5.99845, 19.2218, -154.372, -94.7992, 90.9267
1.59949, -1, -17.2606, 5.95557, 19.2324, -154.421, -94.7819, 90.6364
1.60742, -1, -17.4198, 5.91276, 19.243, -154.471, -94.7646, 90.3462
1.61544, -1, -17.5791, 5.86998, 19.2536, -154.521, -94.7472, 90.0562
1.6235, -1, -17.7386, 5.82725, 19.2643, -154.57, -94.7296, 89.7659
1.63143, -1, -17.8982, 5.78447, 19.2749, -154.621, -94.7116, 89.4754
1.63949, -1, -18.0582, 5.74173, 19.2856, -154.671, -94.6935, 89.185
1.64744, -1, -18.2188, 5.69899, 19.2961, -154.72, -94.6755, 88.8946
1.65548, -1, -18.3797, 5.65622, 19.3068, -154.77, -94.6579, 88.604
1.6635, -1, -18.5411, 5.61333, 19.3175, -154.82, -94.6406, 88.313
1.67143, -1, -18.7026, 5.57039, 19.3281, -154.87, -94.6233, 88.0222
1.67941, -1, -18.8642, 5.52744, 19.3388, -154.92, -94.606, 87.7313
1.68749, -1, -19.0259, 5.48447, 19.3493, -154.97, -94.5885, 87.4403
1.69542, -1, -19.1874, 5.44136, 19.3598, -155.02, -94.5707, 87.149
1.70344, -1, -19.3488, 5.39827, 19.3704, -155.07, -94.5526, 86.8577
1.71149, -1, -19.5099, 5.35517, 19.381, -155.12, -94.5347, 86.5662
1.71942, -1, -19.6708, 5.31193, 19.3915, -155.169, -94.5169, 86.2746
1.72751, -1, -19.8314, 5.26886, 19.4021, -155.22, -94.4994, 85.983
1.73545, -1, -19.9917, 5.22574, 19.4127, -155.27, -94.482, 85.6915
1.7435, -1, -20.1517, 5.18264, 19.4235, -155.32, -94.4646, 85.4001
1.75179, -1, -20.3116, 5.1397, 19.4342, -155.37, -94.4471, 85.1083
1.75952, -1, -20.4716, 5.09677, 19.445, -155.42, -94.4293, 84.8166
1.76752, -1, -20.6316, 5.05377, 19.4557, -155.47, -94.4113, 84.5249
1.77598, -1, -20.792, 5.01085, 19.4663, -155.52, -94.3933, 84.2331
1.78356, -1, -20.9527, 4.96799, 19.477, -155.57, -94.3756, 83.9409
1.79143, -1, -21.1138, 4.92497, 19.4876, -155.62, -94.3581, 83.6488
1.80019, -1, -21.2754, 4.88198, 19.4982, -155.671, -94.3409, 83.3569
1.80745, -1, -21.4374, 4.83886, 19.5088, -155.721, -94.3237, 83.0648
1.81547, -1, -21.5996, 4.79565, 19.5194, -155.771, -94.3064, 82.7723
1.82443, -1, -21.7618, 4.75251, 19.5301, -155.821, -94.2888, 82.4798
1.83158, -1, -21.9242, 4.70923, 19.5408, -155.871, -94.271, 82.1874
1.83966, -1, -22.0866, 4.66586, 19.5515, -155.922, -94.253, 81.8947
1.84859, -1, -22.249, 4.62256, 19.5623, -155.972, -94.2352, 81.602
1.85577, -1, -22.4114, 4.57922, 19.5728, -156.022, -94.2177, 81.3094
1.86389, -1, -22.5732, 4.53585, 19.5836, -156.073, -94.2002, 81.0168
1.87274, -1, -22.7348, 4.49245, 19.5942, -156.123, -94.1828, 80.7241
1.87992, -1, -22.8962, 4.44911, 19.6049, -156.173, -94.1652, 80.4311
1.88855, -1, -23.0573, 4.40586, 19.6156, -156.223, -94.1474, 80.1382
1.89685, -1, -23.2183, 4.36261, 19.6262, -156.273, -94.1293, 79.8453
1.90399, -1, -23.3792, 4.31939, 19.637, -156.324, -94.1111, 79.5519
1.91203, -1, -23.4596, 4.27619, 19.6478, -156.375, -94.093, 79.2586
1.91941, -1, -23.6206, 4.25457, 19.6532, -156.4, -94.0841, 79.1121
1.92741, -1, -23.7818, 4.21139, 19.664, -156.45, -94.0665, 78.8188
1.93545, -1, -23.9431, 4.16819, 19.6747, -156.5, -94.0489, 78.5251
1.94342, -1, -24.1049, 4.12487, 19.6853, -156.551, -94.0316, 78.2313
1.95143, -1, -24.2672, 4.08155, 19.6961, -156.601, -94.014, 77.9376
1.95946, -1, -24.4298, 4.03818, 19.7067, -156.651, -93.9962, 77.6435
1.96741, -1, -24.5928, 3.99474, 19.7173, -156.702, -93.9781, 77.3494
1.97547, -1, -24.7559, 3.95119, 19.7279, -156.752, -93.96, 77.0553
1.98344, -1, -24.9193, 3.90763, 19.7385, -156.803, -93.9422, 76.7612
1.99146, -1, -25.0826, 3.8641, 19.7493, -156.853, -93.9245, 76.4671
1.99947, -1, -25.2459, 3.82051, 19.7602, -156.903, -93.907, 76.1727
2.009, -1, -25.4901, 3.75516, 19.7764, -156.979, -93.8806, 75.7312
2.01542, -1, -25.5715, 3.73332, 19.7817, -157.004, -93.8718, 75.5841
2.02347, -1, -25.7341, 3.6897, 19.7924, -157.055, -93.8539, 75.2896
2.03302, -1, -25.9775, 3.62458, 19.8084, -157.13, -93.8264, 74.8474
2.03943, -1, -26.0586, 3.60281, 19.8138, -157.155, -93.8172, 74.7001
2.0484, -1, -26.2204, 3.55932, 19.8245, -157.206, -93.799, 74.4056
2.05541, -1, -26.3819, 3.51596, 19.8353, -157.257, -93.7811, 74.1108
2.06441, -1, -26.5437, 3.47257, 19.846, -157.307, -93.7635, 73.8157
2.07147, -1, -26.7056, 3.42913, 19.8567, -157.358, -93.7459, 73.5207
2.07941, -1, -26.8678, 3.38566, 19.8675, -157.409, -93.7283, 73.2256
2.09078, -1, -27.112, 3.32029, 19.8838, -157.485, -93.7013, 72.7826
2.09542, -1, -27.1935, 3.29851, 19.8892, -157.51, -93.6921, 72.6351
2.10341, -1, -27.3567, 3.25492, 19.9, -157.561, -93.6738, 72.34
2.11147, -1, -27.5204, 3.21118, 19.9106, -157.611, -93.6557, 72.0447
2.11942, -1, -27.6844, 3.16746, 19.9215, -157.662, -93.6379, 71.7491
2.1274, -1, -27.8484, 3.1238, 19.9322, -157.712, -93.6201, 71.4535
2.13548, -1, -28.0126, 3.08008, 19.943, -157.763, -93.6025, 71.1581
2.1434, -1, -28.1766, 3.03636, 19.9538, -157.814, -93.5848, 70.8624
2.15142, -1, -28.3408, 2.9926, 19.9645, -157.865, -93.5668, 70.5664
2.15951, -1, -28.5047, 2.94887, 19.9754, -157.915, -93.5485, 70.2705
2.1674, -1, -28.6683, 2.90521, 19.9862, -157.966, -93.5301, 69.9747
2.17543, -1, -28.8317, 2.86155, 19.9971, -158.017, -93.5118, 69.6786
2.18347, -1, -28.9947, 2.81791, 20.0079, -158.068, -93.494, 69.3821
2.19141, -1, -29.1574, 2.77428, 20.0185, -158.119, -93.4762, 69.0858
2.1994, -1, -29.3201, 2.73063, 20.0293, -158.169, -93.4587, 68.7893
2.20746, -1, -29.4829, 2.68703, 20.0401, -158.221, -93.441, 68.4927
2.21541, -1, -29.6457, 2.64332, 20.0509, -158.272, -93.4231, 68.1959
2.22347, -1, -29.8087, 2.59956, 20.0617, -158.322, -93.4049, 67.8992
2.23142, -1, -29.9719, 2.55584, 20.0725, -158.374, -93.3866, 67.6025
2.23944, -1, -30.1354, 2.51202, 20.0834, -158.424, -93.3683, 67.3056
2.24754, -1, -30.2993, 2.46806, 20.0943, -158.475, -93.3504, 67.0085
2.2555, -1, -30.4636, 2.42414, 20.1052, -158.526, -93.3326, 66.7117
2.2635, -1, -30.6284, 2.38017, 20.116, -158.577, -93.3149, 66.4146
2.27157, -1, -30.7933, 2.33623, 20.1267, -158.628, -93.2972, 66.1173
2.27951, -1, -30.9583, 2.29232, 20.1376, -158.679, -93.2792, 65.82
2.28753, -1, -31.1233, 2.24828, 20.1484, -158.73, -93.2609, 65.5229
2.2956, -1, -31.2881, 2.20435, 20.1592, -158.781, -93.2424, 65.2256
2.30344, -1, -31.4529, 2.16054, 20.17, -158.832, -93.224, 64.9279
2.31173, -1, -31.6175, 2.11659, 20.1807, -158.883, -93.206, 64.6302
2.31952, -1, -31.782, 2.07267, 20.1915, -158.935, -93.1882, 64.3323
2.32754, -1, -31.9461, 2.02884, 20.2024, -158.986, -93.1706, 64.0344
2.33563, -1, -32.1099, 1.98491, 20.2134, -159.037, -93.153, 63.7364
2.34369, -1, -32.2737, 1.94096, 20.2244, -159.088, -93.1352, 63.4386
2.35172, -1, -32.4373, 1.89703, 20.2352, -159.139, -93.117, 63.1408
2.36014, -1, -32.601, 1.85298, 20.2461, -159.19, -93.0986, 62.8425
2.36785, -1, -32.7649, 1.80896, 20.2571, -159.242, -93.0803, 62.5443
2.37649, -1, -32.9288, 1.76489, 20.2679, -159.293, -93.0622, 62.246
2.38397, -1, -33.0933, 1.72071, 20.2788, -159.344, -93.0444, 61.9476
2.39195, -1, -33.258, 1.67654, 20.2897, -159.395, -93.0266, 61.649
2.40052, -1, -33.4231, 1.63241, 20.3005, -159.446, -93.0088, 61.3504
2.40824, -1, -33.5059, 1.58821, 20.3115, -159.498, -92.9907, 61.0518
2.41594, -1, -33.6716, 1.56611, 20.317, -159.524, -92.9815, 60.753
2.42442, -1, -33.9201, 1.49986, 20.3334, -159.6, -92.9535, 60.4539
2.43139, -1, -34.003, 1.47778, 20.3389, -159.626, -92.9442, 60.3044
2.43939, -1, -34.1689, 1.43367, 20.3497, -159.677, -92.9258, 60.0055
2.4485, -1, -34.4177, 1.36749, 20.3661, -159.754, -92.8988, 59.5563
2.4554, -1, -34.5006, 1.34541, 20.3715, -159.78, -92.8899, 59.4065
2.46341, -1, -34.6662, 1.30129, 20.3824, -159.832, -92.8721, 59.1073
2.47362, -1, -34.9139, 1.23509, 20.3987, -159.908, -92.8452, 58.6583
2.47939, -1, -34.9963, 1.21303, 20.4041, -159.934, -92.8362, 58.5086
2.48742, -1, -35.161, 1.16885, 20.4151, -159.986, -92.8177, 58.2088
2.49687, -1, -35.4078, 1.10251, 20.4317, -160.063, -92.7899, 57.7594
2.50533, -1, -35.5713, 1.05857, 20.4428, -160.114, -92.7717, 57.4596
2.51139, -1, -35.6524, 1.03672, 20.4485, -160.14, -92.7627, 57.3097
2.52099, -1, -35.8909, 0.972167, 20.4657, -160.216, -92.7359, 56.8627
2.52905, -1, -36.0447, 0.930688, 20.4775, -160.267, -92.7184, 56.5695
2.53538, -1, -36.1195, 0.910612, 20.4835, -160.291, -92.7096, 56.4254
2.54513, -1, -36.2632, 0.872148, 20.5013, -160.362, -92.6842, 56.0104
2.55139, -1, -36.3975, 0.836494, 20.507, -160.384, -92.676, 55.8805
2.56042, -1, -36.5206, 0.803953, 20.5177, -160.425, -92.6607, 55.6382
2.56746, -1, -36.6311, 0.774742, 20.527, -160.461, -92.6473, 55.4235
2.57539, -1, -36.7273, 0.749376, 20.5345, -160.492, -92.636, 55.2414
2.5834, -1, -36.8087, 0.727722, 20.5399, -160.517, -92.627, 55.0942
2.59145, -1, -36.8763, 0.709816, 20.5429, -160.537, -92.6203, 54.982
2.59939, -1, -36.9308, 0.695459, 20.5443, -160.551, -92.6156, 54.9021
2.60747, -1, -36.9727, 0.684437, 20.5448, -160.56, -92.6125, 54.8478
2.61542, -1, -37.0034, 0.676322, 20.5445, -160.566, -92.6108, 54.8144
2.62341, -1, -37.0247, 0.67074, 20.544, -160.569, -92.6098, 54.7952
2.63141, -1, -37.0381, 0.66737, 20.5436, -160.571, -92.6093, 54.7855
2.63942, 2, -37.0455, 0.665593, 20.5434, -160.572, -92.6091, 54.7809
2.64739, 2, -37.0484, 0.664758, 20.5433, -160.572, -92.609, 54.7788
2.65541, 2, -37.0485, 0.66442, 20.5433, -160.573, -92.609, 54.7778
2.6635, 2, -37.0481, 0.66427, 20.5432, -160.573, -92.6089, 54.7774
2.67139, 2, -37.0479, 0.664201, 20.5432, -160.573, -92.6089, 54.7773
2.67939, 2, -37.0482, 0.664157, 20.5432, -160.573, -92.609, 54.7773
2.68745, 2, -37.0492, 0.664119, 20.5431, -160.573, -92.609, 54.7773
2.69538, 2, -37.0502, 0.664022, 20.543, -160.573, -92.6091, 54.7774
2.7034, 2, -37.0515, 0.663806, 20.5428, -160.573, -92.6091, 54.7775
2.71145, 2, -37.0529, 0.663554, 20.5426, -160.573, -92.6091, 54.7777
2.71939, 2, -37.0541, 0.663316, 20.5425, -160.573, -92.6091, 54.7778
2.72739, 2, -37.055, 0.663114, 20.5423, -160.573, -92.6092, 54.778
2.73545, 2, -37.0555, 0.66301, 20.5421, -160.573, -92.6092, 54.7782
2.74343, 2, -37.0555, 0.662969, 20.5419, -160.573, -92.6092, 54.7784
2.75147, 2, -37.0549, 0.662973, 20.5418, -160.573, -92.6093, 54.7787
2.75954, 2, -37.054, 0.663018, 20.5417, -160.573, -92.6093, 54.7789
2.76748, 2, -37.0529, 0.663099, 20.5417, -160.573, -92.6093, 54.7791
2.77549, 2, -37.0513, 0.663192, 20.5416, -160.573, -92.6093, 54.7794
2.78357, 2, -37.0499, 0.663327, 20.5416, -160.573, -92.6093, 54.7796
2.79153, 2, -37.0487, 0.663383, 20.5415, -160.573, -92.6094, 54.7797
2.79941, 2, -37.048, 0.663397, 20.5415, -160.573, -92.6095, 54.7798
2.80748, 2, -37.0477, 0.663377, 20.5415, -160.573, -92.6095, 54.7798
2.81548, 2, -37.0477, 0.663352, 20.5414, -160.573, -92.6095, 54.7798
2.82349, 2, -37.0479, 0.663295, 20.5414, -160.573, -92.6095, 54.7799
2.83159, 2, -37.0481, 0.663235, 20.5414, -160.573, -92.6095, 54.7799
2.83956, 2, -37.0486, 0.6632, 20.5414, -160.573, -92.6095, 54.78
2.8479, 2, -37.0494, 0.663171, 20.5414, -160.573, -92.6094, 54.78
2.85582, 2, -37.0503, 0.663151, 20.5414, -160.573, -92.6095, 54.7801
2.86374, 2, -37.051, 0.663137, 20.5414, -160.573, -92.6095, 54.7801
2.87214, 2, -37.0515, 0.663168, 20.5414, -160.573, -92.6095, 54.7801
2.87993, 2, -37.0518, 0.663206, 20.5413, -160.573, -92.6096, 54.7802
2.88855, 2, -37.0518, 0.66324, 20.5413, -160.573, -92.6096, 54.7802
2.89626, 2, -37.0517, 0.663239, 20.5413, -160.573, -92.6096, 54.7803
2.90398, 2, -37.0514, 0.663258, 20.5413, -160.573, -92.6096, 54.7804
2.91199, 2, -37.0512, 0.663266, 20.5413, -160.573, -92.6096, 54.7804
2.92015, 2, -37.0507, 0.66325, 20.5413, -160.573, -92.6096, 54.7804
2.92793, 2, -37.0505, 0.663246, 20.5413, -160.573, -92.6096, 54.7804
2.93537, 2, -37.0503, 0.663223, 20.5413, -160.573, -92.6096, 54.7805
2.9442, 2, -37.0501, 0.663208, 20.5413, -160.573, -92.6096, 54.7806
2.95142, 2, -37.0501, 0.663187, 20.5413, -160.573, -92.6096, 54.7806
2.95939, 2, -37.0501, 0.663178, 20.5413, -160.572, -92.6096, 54.7806
2.9674, 2, -37.0502, 0.663173, 20.5412, -160.572, -92.6096, 54.7807
2.97544, 2, -37.0502, 0.663171, 20.5412, -160.572, -92.6096, 54.7808
2.98339, 2, -37.0503, 0.6632, 20.5412, -160.572, -92.6096, 54.7808
2.99138, 2, -37.0505, 0.66322, 20.5412, -160.572, -92.6096, 54.7809
2.99947, 2, -37.0508, 0.663242, 20.5412, -160.572, -92.6096, 54.7809
3.00899, 2, -37.0509, 0.663239, 20.5412, -160.572, -92.6096, 54.781
3.01537, 2, -37.0509, 0.663239, 20.5412, -160.572, -92.6097, 54.7811
3.02345, 2, -37.0509, 0.66325, 20.5412, -160.572, -92.6097, 54.7811
3.03312, 2, -37.0508, 0.663242, 20.5412, -160.572, -92.6097, 54.7812
3.03937, 2, -37.0508, 0.663229, 20.5412, -160.572, -92.6097, 54.7812
3.04744, 2, -37.0508, 0.663197, 20.5412, -160.572, -92.6098, 54.7812
3.05641, 2, -37.0507, 0.663182, 20.5411, -160.572, -92.6097, 54.7813
3.06338, 2, -37.0507, 0.663205, 20.5412, -160.572, -92.6097, 54.7813
3.07144, 2, -37.0507, 0.663193, 20.5411, -160.572, -92.6098, 54.7813
3.07937, 2, -37.0507, 0.663181, 20.5411, -160.572, -92.6097, 54.7813
3.08737, 2, -37.0507, 0.663204, 20.5411, -160.572, -92.6097, 54.7814
3.09544, 2, -37.0507, 0.663222, 20.5411, -160.572, -92.6098, 54.7815
3.10338, 2, -37.0507, 0.663238, 20.5411, -160.572, -92.6098, 54.7815
3.11137, 2, -37.0507, 0.663255, 20.5411, -160.572, -92.6098, 54.7815
3.11943, 2, -37.0507, 0.663265, 20.5411, -160.572, -92.6098, 54.7816
3.12739, 2, -37.0507, 0.663275, 20.5411, -160.572, -92.6098, 54.7816
3.13539, 2, -37.0507, 0.663267, 20.5411, -160.572, -92.6098, 54.7816
3.14344, 2, -37.0507, 0.663256, 20.5411, -160.572, -92.6098, 54.7817
3.15158, 2, -37.0506, 0.663246, 20.5411, -160.572, -92.6098, 54.7817
3.15939, 2, -37.0506, 0.663242, 20.5411, -160.572, -92.6098, 54.7818
3.16748, 2, -37.0506, 0.663229, 20.5411, -160.572, -92.6099, 54.7818
3.17537, 2, -37.0506, 0.663226, 20.5411, -160.572, -92.6098, 54.7818
3.18337, 2, -37.0506, 0.663232, 20.5411, -160.572, -92.6099, 54.7818
3.19144, 2, -37.0506, 0.663235, 20.541, -160.572, -92.6098, 54.7818
3.19937, 2, -37.0506, 0.663237, 20.541, -160.572, -92.6098, 54.7819
3.20737, 2, -37.0506, 0.663249, 20.541, -160.572, -92.6098, 54.782
3.21544, 2, -37.0505, 0.663263, 20.541, -160.572, -92.6098, 54.782
3.22337, 2, -37.0505, 0.663274, 20.541, -160.572, -92.6099, 54.782
3.23138, 2, -37.0505, 0.663271, 20.541, -160.572, -92.6098, 54.782
3.23944, 2, -37.0505, 0.663273, 20.541, -160.572, -92.6098, 54.782
3.24741, 2, -37.0505, 0.663271, 20.541, -160.572, -92.6099, 54.7821
3.25544, 2, -37.0505, 0.663273, 20.541, -160.572, -92.6099, 54.7821
3.26351, 2, -37.0505, 0.663271, 20.541, -160.572, -92.6099, 54.7821
3.27147, 2, -37.0505, 0.663253, 20.541, -160.572, -92.6099, 54.7822
3.27947, 2, -37.0505, 0.663245, 20.541, -160.572, -92.6099, 54.7821
3.28754, 2, -37.0505, 0.663253, 20.541, -160.572, -92.61, 54.7822
3.29549, 2, -37.0504, 0.663252, 20.5409, -160.572, -92.6099, 54.7822
3.3034, 2, -37.0504, 0.663257, 20.5409, -160.572, -92.61, 54.7822
3.31148, 2, -37.0504, 0.663271, 20.5409, -160.572, -92.61, 54.7823
3.3194, 2, -37.0504, 0.663277, 20.5409, -160.572, -92.6099, 54.7823
3.32761, 2, -37.0504, 0.66328, 20.5409, -160.572, -92.6099, 54.7824
3.33563, 2, -37.0504, 0.663282, 20.5409, -160.572, -92.6099, 54.7824
3.34359, 2, -37.0504, 0.663282, 20.5409, -160.572, -92.6099, 54.7824
3.35165, 2, -37.0504, 0.663275, 20.5409, -160.572, -92.6099, 54.7824
3.35983, 2, -37.0503, 0.663275, 20.5409, -160.572, -92.6099, 54.7824
3.36774, 2, -37.0503, 0.663279, 20.5409, -160.572, -92.6099, 54.7825
3.37596, 2, -37.0503, 0.663274, 20.5409, -160.572, -92.61, 54.7825
3.38444, 2, -37.0503, 0.663274, 20.5409, -160.572, -92.61, 54.7825
3.39187, 2, -37.0503, 0.663267, 20.5408, -160.572, -92.61, 54.7825
3.40048, 2, -37.0503, 0.663263, 20.5408, -160.572, -92.61, 54.7824
3.4081, 2, -37.0503, 0.663274, 20.5408, -160.572, -92.6099, 54.7825
3.41592, 2, -37.0502, 0.663277, 20.5408, -160.572, -92.61, 54.7825
3.42408, 2, -37.0503, 0.66328, 20.5408, -160.572, -92.61, 54.7825
3.43199, 2, -37.0503, 0.663262, 20.5408, -160.572, -92.61, 54.7826
3.43936, 2, -37.0502, 0.663268, 20.5408, -160.572, -92.6099, 54.7826
3.44736, 2, -37.0502, 0.663276, 20.5408, -160.572, -92.61, 54.7825
3.45651, 2, -37.0502, 0.663281, 20.5408, -160.572, -92.61, 54.7825
3.46337, 2, -37.0502, 0.663282, 20.5408, -160.572, -92.61, 54.7826
3.47139, 2, -37.0502, 0.663282, 20.5408, -160.572, -92.61, 54.7826
3.47941, 2, -37.0501, 0.663283, 20.5408, -160.572, -92.61, 54.7826
3.48736, 2, -37.0501, 0.663275, 20.5408, -160.572, -92.6101, 54.7826
3.49681, 2, -37.05, 0.663277, 20.5408, -160.572, -92.61, 54.7826
3.5049, 2, -37.05, 0.66328, 20.5408, -160.572, -92.61, 54.7826
3.51291, 2, -37.05, 0.663282, 20.5408, -160.572, -92.61, 54.7827
3.52128, 2, -37.05, 0.663275, 20.5407, -160.572, -92.61, 54.7827
3.52745, 2, -37.05, 0.66327, 20.5407, -160.572, -92.61, 54.7828
3.53535, 2, -37.05, 0.663277, 20.5407, -160.572, -92.61, 54.7828
3.54495, 2, -37.05, 0.66328, 20.5407, -160.572, -92.6101, 54.7827
3.55143, 2, -37.0499, 0.6633, 20.5407, -160.572, -92.6101, 54.7828
3.56043, 2, -37.0499, 0.663291, 20.5407, -160.572, -92.6101, 54.7827
3.56736, 2, -37.0499, 0.663287, 20.5407, -160.572, -92.61, 54.7827
3.57638, 2, -37.0499, 0.663285, 20.5407, -160.572, -92.61, 54.7827
3.58335, 2, -37.0499, 0.663284, 20.5407, -160.572, -92.61, 54.7828
3.5914, 2, -37.0498, 0.663283, 20.5407, -160.572, -92.61, 54.7828
3.59942, 2, -37.0498, 0.663283, 20.5407, -160.572, -92.61, 54.7828
3.60736, 2, -37.0498, 0.663283, 20.5407, -160.572, -92.61, 54.7829
3.61535, 2, -37.0498, 0.663283, 20.5407, -160.572, -92.6101, 54.7828
3.62349, 2, -37.0497, 0.663283, 20.5407, -160.572, -92.61, 54.7828
3.63138, 2, -37.0497, 0.663283, 20.5407, -160.572, -92.6101, 54.7828
3.63951, 2, -37.0497, 0.663283, 20.5407, -160.572, -92.6101, 54.7828
3.64734, 2, -37.0497, 0.663283, 20.5407, -160.572, -92.6101, 54.7829
3.65542, 2, -37.0497, 0.663283, 20.5407, -160.572, -92.6101, 54.7829
3.66337, 2, -37.0497, 0.663283, 20.5406, -160.572, -92.6101, 54.7829
3.67141, 2, -37.0497, 0.663283, 20.5406, -160.572, -92.61, 54.7829
3.67939, 2, -37.0496, 0.663283, 20.5406, -160.572, -92.6101, 54.7828
3.68734, 2, -37.0496, 0.663294, 20.5406, -160.572, -92.6101, 54.7828
3.69535, 2, -37.0496, 0.663295, 20.5406, -160.572, -92.6101, 54.7829
3.70339, 4, -37.0496, 0.663307, 20.5406, -160.572, -92.6101, 54.7829
3.71136, 4, -37.0495, 0.663294, 20.5406, -160.572, -92.6101, 54.7829
3.71935, 4, -37.0495, 0.663288, 20.5406, -160.572, -92.6101, 54.7829
3.72742, 4, -37.0495, 0.663304, 20.5406, -160.572, -92.6101, 54.7829
3.73535, 4, -37.0495, 0.663303, 20.5405, -160.572, -92.6101, 54.7829
3.74337, 4, -37.0495, 0.6633, 20.5405, -160.571, -92.6101, 54.7829
3.75148, 4, -37.0495, 0.663309, 20.5405, -160.571, -92.6102, 54.7829
3.75943, 4, -37.0495, 0.663324, 20.5405, -160.571, -92.6102, 54.7829
3.76745, 4, -37.0495, 0.663339, 20.5406, -160.571, -92.6101, 54.7829
3.77551, 4, -37.0494, 0.663334, 20.5405, -160.571, -92.6101, 54.7829
3.78352, 4, -37.0494, 0.663336, 20.5405, -160.571, -92.6101, 54.7829
3.79146, 4, -37.0494, 0.663315, 20.5405, -160.571, -92.6101, 54.7829
3.79973, 4, -37.0494, 0.663316, 20.5405, -160.571, -92.6101, 54.7829
3.80763, 4, -37.0494, 0.663309, 20.5405, -160.571, -92.6101, 54.7829
3.8302, 4, -37.0493, 0.663345, 20.5405, -160.571, -92.6102, 54.7829
3.83231, 4, -37.0493, 0.663336, 20.5405, -160.571, -92.6102, 54.7829
3.83352, 4, -37.0493, 0.663336, 20.5405, -160.571, -92.6102, 54.7829
3.83956, 4, -37.0493, 0.663349, 20.5405, -160.571, -92.6101, 54.7829
3.84764, 4, -37.0492, 0.663351, 20.5405, -160.571, -92.6101, 54.7829
3.85565, 4, -37.0485, 0.663211, 20.5405, -160.571, -92.6101, 54.7829
3.8637, 4, -37.0458, 0.6623, 20.5407, -160.571, -92.6102, 54.7829
3.87186, 4, -37.0398, 0.659456, 20.5416, -160.571, -92.6101, 54.7829
3.88049, 4, -37.0303, 0.654017, 20.5441, -160.571, -92.6102, 54.7829
3.88785, 4, -37.0182, 0.646054, 20.5491, -160.57, -92.6102, 54.7829
3.89645, 4, -37.0034, 0.635424, 20.5576, -160.569, -92.6102, 54.7829
3.90409, 5, -36.9852, 0.621779, 20.5703, -160.566, -92.6101, 54.7829
3.91196, 5, -36.9637, 0.605123, 20.5879, -160.563, -92.6101, 54.7828
3.92053, 5, -36.9401, 0.586063, 20.6099, -160.558, -92.6098, 54.7826
3.92811, 5, -36.9277, 0.564459, 20.6356, -160.553, -92.6096, 54.7826
3.93685, 5, -36.901, 0.539881, 20.6643, -160.546, -92.6092, 54.7824
3.94335, 5, -36.8707, 0.526562, 20.6795, -160.543, -92.609, 54.7824
3.95136, 5, -36.8365, 0.49789, 20.711, -160.536, -92.6084, 54.7822
3.96044, 5, -36.7794, 0.451743, 20.7603, -160.526, -92.6075, 54.7817
3.96736, 5, -36.7595, 0.43591, 20.7769, -160.522, -92.6071, 54.7816
3.97537, 5, -36.7188, 0.403922, 20.8102, -160.514, -92.6064, 54.7814
3.98465, 5, -36.6571, 0.355436, 20.8602, -160.503, -92.6053, 54.781
3.99135, 5, -36.6364, 0.339248, 20.8769, -160.499, -92.6049, 54.7809
3.99937, 5, -36.5952, 0.306946, 20.9103, -160.492, -92.6041, 54.7807
4.00883, 5, -36.5334, 0.258497, 20.9604, -160.481, -92.6027, 54.7805
4.01697, 5, -36.4925, 0.226247, 20.994, -160.474, -92.6018, 54.7803
4.0234, 5, -36.4721, 0.210221, 21.0107, -160.47, -92.6013, 54.7802
4.03141, 5, -36.4311, 0.178259, 21.044, -160.463, -92.6004, 54.7802
4.04097, 5, -36.3694, 0.130449, 21.0941, -160.453, -92.599, 54.78
4.04791, 5, -36.3489, 0.114487, 21.1108, -160.449, -92.5984, 54.7799
4.05534, 5, -36.308, 0.0826516, 21.144, -160.442, -92.5975, 54.7798
4.06433, 5, -36.2673, 0.0507488, 21.1772, -160.435, -92.5965, 54.7796
4.07216, 5, -36.2264, 0.018848, 21.2106, -160.429, -92.5956, 54.7794
4.07934, 5, -36.1854, -0.0131694, 21.2438, -160.422, -92.5946, 54.779
4.08734, 5, -36.1443, -0.0451279, 21.2768, -160.415, -92.5936, 54.7788
4.09542, 5, -36.1027, -0.0771019, 21.31, -160.407, -92.5926, 54.7784
4.10333, 5, -36.0608, -0.109071, 21.3431, -160.4, -92.5916, 54.778
4.11135, 5, -36.0189, -0.141105, 21.376, -160.393, -92.5906, 54.7776
4.12009, 5, -35.9771, -0.172999, 21.409, -160.385, -92.5896, 54.7773
4.12734, 5, -35.9351, -0.204858, 21.4421, -160.378, -92.5886, 54.7769
4.13541, 5, -35.8932, -0.236635, 21.4749, -160.37, -92.5877, 54.7764
4.14477, 5, -35.8513, -0.268353, 21.5077, -160.362, -92.5867, 54.776
4.15136, 5, -35.8094, -0.29995, 21.5407, -160.354, -92.5857, 54.7756
4.15941, 5, -35.7675, -0.331539, 21.5735, -160.347, -92.5847, 54.7752
4.16735, 5, -35.7258, -0.363082, 21.6063, -160.339, -92.5838, 54.7748
4.17723, 5, -35.6842, -0.394633, 21.6391, -160.332, -92.5828, 54.7745
4.18432, 5, -35.6427, -0.426147, 21.6718, -160.324, -92.5818, 54.7742
4.19135, 5, -35.601, -0.457657, 21.7043, -160.317, -92.5809, 54.7739
4.20115, 5, -35.5593, -0.489284, 21.7369, -160.31, -92.5799, 54.7738
4.20835, 5, -35.5176, -0.520825, 21.7695, -160.302, -92.579, 54.7735
4.21534, 5, -35.4757, -0.552308, 21.8019, -160.295, -92.578, 54.7734
4.22339, 5, -35.4336, -0.583772, 21.8342, -160.288, -92.5771, 54.7732
4.23134, 5, -35.3914, -0.61529, 21.8665, -160.281, -92.5761, 54.7731
4.2394, 5, -35.3491, -0.646708, 21.8988, -160.273, -92.5751, 54.7731
4.24794, 5, -35.3067, -0.678079, 21.931, -160.266, -92.5742, 54.773
4.25539, 5, -35.2642, -0.709385, 21.9633, -160.258, -92.5732, 54.773
4.26342, 5, -35.2218, -0.74066, 21.9956, -160.25, -92.5723, 54.7731
4.27178, 5, -35.1794, -0.771749, 22.0276, -160.243, -92.5713, 54.773
4.27943, 5, -35.1369, -0.802739, 22.0596, -160.235, -92.5703, 54.773
4.28745, 5, -35.0946, -0.833712, 22.0918, -160.226, -92.5694, 54.7731
4.29638, 5, -35.0524, -0.864787, 22.1238, -160.218, -92.5684, 54.773
4.30548, 5, -35.0103, -0.895734, 22.1556, -160.21, -92.5674, 54.7731
4.31233, 5, -34.9679, -0.926688, 22.1874, -160.202, -92.5664, 54.7731
4.32016, 5, -34.9256, -0.957599, 22.2193, -160.195, -92.5654, 54.7732
4.32739, 5, -34.8832, -0.988596, 22.251, -160.187, -92.5645, 54.7732
4.33549, 5, -34.8407, -1.0195, 22.2827, -160.179, -92.5635, 54.7733
4.34581, 5, -34.798, -1.05034, 22.3144, -160.172, -92.5626, 54.7733
4.35545, 5, -34.7554, -1.08122, 22.346, -160.165, -92.5612, 54.7733
4.35962, 5, -34.7126, -1.11208, 22.3774, -160.157, -92.5607, 54.7734
4.36851, 5, -34.6698, -1.1429, 22.4089, -160.15, -92.5597, 54.7735
4.37577, 5, -34.6269, -1.17359, 22.4404, -160.142, -92.5587, 54.7735
4.3838, 5, -34.5842, -1.20421, 22.4717, -160.135, -92.5577, 54.7736
4.39285, 5, -34.5414, -1.2349, 22.5028, -160.127, -92.5566, 54.7738
4.39985, 5, -34.4983, -1.26548, 22.5342, -160.12, -92.5556, 54.774
4.40844, 5, -34.4554, -1.296, 22.5654, -160.112, -92.5546, 54.7742
4.41675, 5, -34.4125, -1.32645, 22.5965, -160.104, -92.5536, 54.7745
4.42416, 5, -34.3695, -1.35698, 22.6276, -160.096, -92.5526, 54.7748
4.43191, 5, -34.348, -1.37224, 22.6432, -160.092, -92.5521, 54.7753
4.44051, 5, -34.2836, -1.41783, 22.6896, -160.079, -92.5506, 54.776
4.44733, 5, -34.2621, -1.43304, 22.705, -160.075, -92.5501, 54.7764
4.45532, 5, -34.2191, -1.46338, 22.7359, -160.067, -92.5491, 54.7772
4.46448, 5, -34.1543, -1.50888, 22.7823, -160.054, -92.5475, 54.7788
4.47136, 5, -34.1328, -1.52399, 22.7977, -160.05, -92.5469, 54.7795
4.47934, 5, -34.0896, -1.55419, 22.8283, -160.042, -92.5459, 54.7809
4.48889, 5, -34.0247, -1.59937, 22.8745, -160.03, -92.5444, 54.7833
4.49717, 5, -33.9814, -1.62948, 22.9051, -160.022, -92.5433, 54.7851
4.50354, 5, -33.9597, -1.64448, 22.9204, -160.018, -92.5428, 54.786
4.51133, 5, -33.9163, -1.67446, 22.951, -160.011, -92.5417, 54.7879
4.51933, 5, -33.8728, -1.70433, 22.9815, -160.003, -92.5406, 54.7899
4.52888, 5, -33.8077, -1.74924, 23.0271, -159.991, -92.539, 54.793
4.53532, 5, -33.786, -1.76415, 23.0423, -159.987, -92.5385, 54.7941
4.54334, 5, -33.7424, -1.79403, 23.0726, -159.979, -92.5374, 54.7963
4.55282, 5, -33.6988, -1.82394, 23.1029, -159.971, -92.5364, 54.7984
4.56093, 5, -33.6554, -1.85377, 23.1331, -159.962, -92.5353, 54.8006
4.56915, 5, -33.6119, -1.88361, 23.1631, -159.954, -92.5342, 54.8029
4.57618, 5, -33.5683, -1.91338, 23.1932, -159.945, -92.5331, 54.8051
4.58332, 5, -33.5246, -1.94323, 23.2233, -159.937, -92.532, 54.8075
4.59133, 5, -33.4811, -1.97323, 23.2534, -159.928, -92.5309, 54.8098
4.5994, 5, -33.4375, -2.00333, 23.2834, -159.919, -92.5296, 54.8119
4.60732, 5, -33.394, -2.03357, 23.3137, -159.911, -92.5282, 54.814
4.61622, 5, -33.3507, -2.06397, 23.344, -159.902, -92.5265, 54.8158
4.62438, 6, -33.3075, -2.0947, 23.3744, -159.893, -92.5245, 54.8172
4.63132, 6, -33.2643, -2.12567, 23.4052, -159.884, -92.5222, 54.8181
4.64038, 6, -33.2212, -2.15695, 23.4365, -159.875, -92.5193, 54.8186
4.6475, 6, -33.1784, -2.18863, 23.4678, -159.865, -92.516, 54.8189
4.65535, 6, -33.1357, -2.22082, 23.4995, -159.856, -92.5123, 54.819
4.66411, 6, -33.0931, -2.25338, 23.5317, -159.845, -92.508, 54.8188
4.67234, 6, -33.0508, -2.28636, 23.5642, -159.834, -92.5033, 54.8184
4.68035, 6, -33.0087, -2.31984, 23.597, -159.823, -92.4981, 54.8175
4.69005, 7, -32.9668, -2.35397, 23.6303, -159.811, -92.4895, 54.8157
4.69533, 7, -32.925, -2.38844, 23.6639, -159.799, -92.4864, 54.815
4.70338, 7, -32.8834, -2.42338, 23.6977, -159.786, -92.48, 54.8131
4.71131, 7, -32.8422, -2.45881, 23.7319, -159.773, -92.4731, 54.81
4.72416, 7, -32.7806, -2.51295, 23.7841, -159.753, -92.4619, 54.8031
4.72738, 7, -32.7601, -2.53122, 23.8016, -159.746, -92.458, 54.8003
4.73532, 7, -32.7195, -2.56818, 23.8367, -159.732, -92.4497, 54.7941
4.74337, 7, -32.6792, -2.60569, 23.8725, -159.718, -92.441, 54.7873
4.75141, 7, -32.6389, -2.64361, 23.9086, -159.704, -92.4318, 54.7796
4.75941, 8, -32.5988, -2.68196, 23.9449, -159.689, -92.422, 54.7712
4.76747, 8, -32.559, -2.72096, 23.9818, -159.674, -92.4116, 54.762
4.77543, 8, -32.5193, -2.76047, 24.0189, -159.658, -92.4005, 54.7521
4.78373, 8, -32.4797, -2.80036, 24.0563, -159.641, -92.3887, 54.7416
4.79156, 8, -32.4405, -2.8408, 24.0943, -159.625, -92.3762, 54.7304
4.8003, 8, -32.4014, -2.88174, 24.1325, -159.608, -92.3631, 54.7184
4.80797, 8, -32.3625, -2.92315, 24.171, -159.591, -92.3497, 54.7058
4.8163, 8, -32.3238, -2.96507, 24.21, -159.574, -92.336, 54.6924
4.82335, 8, -32.2854, -3.00745, 24.2494, -159.557, -92.3221, 54.6781
4.83212, 9, -32.2471, -3.05022, 24.2891, -159.539, -92.3078, 54.6633
4.83985, 9, -32.2092, -3.09352, 24.3292, -159.52, -92.2931, 54.6478
4.8478, 9, -32.1712, -3.13729, 24.3695, -159.501, -92.2778, 54.6318
4.8563, 9, -32.1334, -3.18153, 24.4102, -159.481, -92.2619, 54.6155
4.86364, 9, -32.096, -3.2263, 24.4514, -159.462, -92.2453, 54.5989
4.87171, 9, -32.0587, -3.27163, 24.4927, -159.442, -92.2278, 54.582
4.87984, 9, -32.0216, -3.31751, 24.5345, -159.422, -92.2099, 54.5645
4.88845, 9, -31.9847, -3.36389, 24.5766, -159.402, -92.1917, 54.5464
4.89584, 10, -31.948, -3.41077, 24.6192, -159.381, -92.1732, 54.5276
4.90441, 10, -31.9115, -3.45825, 24.6621, -159.359, -92.1544, 54.508
4.91235, 10, -31.8752, -3.50626, 24.7053, -159.337, -92.135, 54.4876
4.92112, 10, -31.8391, -3.55475, 24.7489, -159.316, -92.1149, 54.4663
4.92794, 10, -31.8211, -3.5792, 24.7709, -159.294, -92.094, 54.4446
4.93654, 10, -31.7677, -3.6532, 24.8371, -159.272, -92.0723, 54.4227
4.9433, 10, -31.7499, -3.67814, 24.8594, -159.26, -92.0614, 54.4117
4.95135, 10, -31.7146, -3.72834, 24.9044, -159.237, -92.0396, 54.3896
4.96048, 10, -31.6617, -3.80442, 24.9724, -159.201, -92.0063, 54.3552
4.96736, 11, -31.6443, -3.83009, 24.9953, -159.189, -91.995, 54.3434
4.97531, 11, -31.6096, -3.8817, 25.0411, -159.165, -91.9719, 54.3192
4.98347, 11, -31.575, -3.93373, 25.0875, -159.142, -91.9477, 54.2941
4.99274, 11, -31.5405, -3.98636, 25.1576, -159.104, -91.9107, 54.2554
4.99932, 11, -31.5061, -4.03952, 25.1811, -159.092, -91.8982, 54.2425
5.00877, 11, -31.4552, -4.12039, 25.2524, -159.053, -91.8605, 54.2032
5.0153, 11, -31.4383, -4.14757, 25.2763, -159.04, -91.8477, 54.1899
5.02494, 11, -31.3877, -4.23018, 25.3487, -159.001, -91.8078, 54.1488
5.03307, 12, -31.3542, -4.28586, 25.3973, -158.975, -91.7802, 54.1204
5.03929, 12, -31.3376, -4.3139, 25.4218, -158.961, -91.7664, 54.1057
5.04887, 12, -31.3045, -4.37042, 25.4711, -158.919, -91.7249, 54.0613
5.05787, 12, -31.2716, -4.42745, 25.5456, -158.892, -91.6967, 54.0314
5.06347, 12, -31.2389, -4.48492, 25.5707, -158.878, -91.6823, 54.0163
5.07229, 12, -31.2063, -4.54281, 25.6211, -158.85, -91.6527, 53.9859
5.08016, 12, -31.1741, -4.60121, 25.6718, -158.822, -91.6228, 53.9545
5.08734, 12, -31.1421, -4.66006, 25.7229, -158.792, -91.5928, 53.9223
5.0953, 12, -31.1101, -4.71933, 25.7744, -158.763, -91.5624, 53.8895
5.10739, 13, -31.0625, -4.80931, 25.8522, -158.719, -91.5152, 53.8403
5.11251, 13, -31.0467, -4.83955, 25.8783, -158.704, -91.499, 53.8237
5.12177, 13, -30.9998, -4.93128, 25.9573, -158.659, -91.4504, 53.7729
5.12737, 13, -30.9842, -4.96214, 25.9838, -158.644, -91.4342, 53.7554
5.1353, 13, -30.9532, -5.02429, 26.0371, -158.613, -91.4013, 53.72
5.14331, 13, -30.9223, -5.08704, 26.0908, -158.582, -91.3674, 53.6844
5.15138, 13, -30.8915, -5.15034, 26.1448, -158.551, -91.333, 53.6487
5.15932, 13, -30.861, -5.21415, 26.1992, -158.519, -91.2985, 53.6122
5.16738, 13, -30.8307, -5.2784, 26.2539, -158.486, -91.2638, 53.5749
5.17532, 14, -30.8006, -5.34318, 26.3092, -158.454, -91.228, 53.5367
5.18345, 14, -30.7707, -5.40833, 26.3646, -158.422, -91.1915, 53.4987
5.19136, 14, -30.7409, -5.47394, 26.4206, -158.389, -91.1551, 53.4606
5.19932, 14, -30.7113, -5.54005, 26.4768, -158.355, -91.1186, 53.4217
5.20729, 14, -30.6819, -5.60662, 26.5334, -158.321, -91.0809, 53.3817
5.21537, 14, -30.6528, -5.67371, 26.5904, -158.288, -91.0424, 53.341
5.2233, 14, -30.6239, -5.74147, 26.6478, -158.254, -91.004, 53.3004
5.23136, 14, -30.595, -5.80974, 26.7056, -158.218, -90.9653, 53.2593
5.23938, 15, -30.5665, -5.87858, 26.7638, -158.183, -90.9253, 53.2176
5.24736, 15, -30.5382, -5.94802, 26.8223, -158.148, -90.885, 53.1747
5.25557, 15, -30.5099, -6.01795, 26.8811, -158.113, -90.845, 53.1318
5.26437, 15, -30.4819, -6.08842, 26.9403, -158.077, -90.8043, 53.0886
5.27139, 15, -30.4539, -6.15935, 27, -158.04, -90.7624, 53.0447
5.27948, 15, -30.4261, -6.23073, 27.0599, -158.004, -90.7207, 52.9997
5.28776, 15, -30.3985, -6.30265, 27.1202, -157.967, -90.6788, 52.9544
5.2954, 15, -30.3712, -6.37501, 27.1808, -157.929, -90.6354, 52.909
5.30341, 15, -30.3441, -6.44798, 27.2419, -157.891, -90.5917, 52.8629
5.31211, 16, -30.3172, -6.52149, 27.3034, -157.854, -90.5484, 52.8157
5.31949, 16, -30.2904, -6.59548, 27.3652, -157.815, -90.504, 52.7682
5.32762, 16, -30.2637, -6.67011, 27.4275, -157.776, -90.4588, 52.7208
5.33813, 16, -30.2375, -6.74526, 27.4901, -157.737, -90.414, 52.6726
5.34429, 16, -30.2113, -6.82098, 27.553, -157.699, -90.3683, 52.6234
5.3515, 16, -30.1853, -6.89715, 27.6163, -157.659, -90.3214, 52.5741
5.35992, 16, -30.1595, -6.97385, 27.6799, -157.618, -90.2749, 52.5248
5.36835, 16, -30.1338, -7.05109, 27.7439, -157.579, -90.2279, 52.4745
5.37619, 17, -30.1081, -7.12884, 27.8083, -157.538, -90.1796, 52.4235
5.38381, 17, -30.0828, -7.20717, 27.8731, -157.497, -90.1317, 52.3727
5.39241, 17, -30.0577, -7.28592, 27.9382, -157.456, -90.0832, 52.3214
5.40219, 17, -30.0326, -7.36528, 28.0036, -157.415, -90.0334, 52.2691
5.40838, 17, -30.0078, -7.44511, 28.0695, -157.373, -89.9842, 52.2162
5.41591, 17, -29.9832, -7.52542, 28.1358, -157.33, -89.9344, 52.1635
5.42469, 17, -29.9708, -7.5658, 28.2024, -157.288, -89.8833, 52.1099
5.43122, 17, -29.9464, -7.6469, 28.2359, -157.267, -89.8581, 52.0827
5.44031, 17, -29.9103, -7.76956, 28.3368, -157.202, -89.7814, 52.0013
5.44734, 18, -29.8984, -7.81067, 28.3706, -157.18, -89.7551, 51.9741
5.45544, 18, -29.8746, -7.89327, 28.4385, -157.137, -89.7031, 51.9188
5.4635, 18, -29.8511, -7.97647, 28.5066, -157.093, -89.651, 51.8627
5.47134, 18, -29.8276, -8.06009, 28.5752, -157.048, -89.5975, 51.8068
5.48062, 18, -29.7926, -8.18645, 28.6788, -156.981, -89.5178, 51.7214
5.4873, 18, -29.7811, -8.22883, 28.7135, -156.959, -89.4906, 51.6925
5.49675, 18, -29.7467, -8.35677, 28.8184, -156.89, -89.4087, 51.6063
5.50635, 18, -29.724, -8.4426, 28.8887, -156.845, -89.3539, 51.5482
5.51149, 19, -29.7127, -8.48575, 28.924, -156.822, -89.3259, 51.5186
5.51929, 19, -29.6903, -8.57242, 28.9949, -156.775, -89.2702, 51.4598
5.5292, 19, -29.6566, -8.70341, 29.1017, -156.706, -89.1858, 51.3713
5.53526, 19, -29.6455, -8.74731, 29.1374, -156.683, -89.1572, 51.3412
5.54328, 19, -29.6235, -8.83552, 29.2092, -156.635, -89.1007, 51.2814
5.55135, 19, -29.6017, -8.92419, 29.2815, -156.588, -89.0433, 51.2218
5.55928, 19, -29.5799, -9.01331, 29.354, -156.541, -88.9855, 51.1608
5.56827, 19, -29.5585, -9.10299, 29.427, -156.492, -88.9278, 51.0994
5.57632, 19, -29.5374, -9.19315, 29.5003, -156.444, -88.8689, 51.0382
5.58333, 20, -29.5162, -9.28379, 29.5741, -156.395, -88.8103, 50.9757
5.59136, 20, -29.4951, -9.37496, 29.6482, -156.346, -88.751, 50.9129
5.59944, 20, -29.4743, -9.46664, 29.7226, -156.296, -88.6913, 50.8502
5.60811, 20, -29.4538, -9.55866, 29.7973, -156.247, -88.6316, 50.7861
5.61527, 20, -29.4333, -9.65124, 29.8722, -156.196, -88.5707, 50.722
5.62329, 20, -29.413, -9.74432, 29.9476, -156.146, -88.5103, 50.658
5.63135, 20, -29.393, -9.83779, 30.0234, -156.096, -88.4488, 50.5925
5.63927, 20, -29.3731, -9.93187, 30.0997, -156.044, -88.3873, 50.5274
5.6486, 21, -29.3532, -10.0265, 30.1763, -155.993, -88.3251, 50.4622
5.65532, 21, -29.3334, -10.1215, 30.2533, -155.942, -88.2625, 50.3958
5.66334, 21, -29.3138, -10.2171, 30.3305, -155.889, -88.2, 50.3297
5.67231, 21, -29.2945, -10.313, 30.4079, -155.838, -88.1366, 50.2632
5.6811, 21, -29.2752, -10.4093, 30.4856, -155.785, -88.0735, 50.1959
5.68735, 21, -29.2561, -10.5061, 30.5638, -155.732, -88.0091, 50.1291
5.69606, 21, -29.2372, -10.6033, 30.6423, -155.68, -87.9451, 50.0615
5.70427, 21, -29.2184, -10.7009, 30.7212, -155.625, -87.8805, 49.9935
5.71147, 21, -29.1997, -10.799, 30.8005, -155.572, -87.8154, 49.9257
5.7212, 22, -29.181, -10.8977, 30.8801, -155.518, -87.7503, 49.8569
5.72727, 22, -29.1625, -10.9967, 30.9601, -155.463, -87.6842, 49.7882
5.73535, 22, -29.1443, -11.0962, 31.0403, -155.409, -87.6186, 49.7194
5.74338, 22, -29.1262, -11.196, 31.1207, -155.353, -87.5515, 49.6495
5.75559, 22, -29.0991, -11.3467, 31.2418, -155.27, -87.4514, 49.5453
5.75931, 22, -29.0903, -11.3972, 31.2824, -155.243, -87.4174, 49.5101
5.76764, 22, -29.0726, -11.4985, 31.3638, -155.186, -87.3504, 49.4393
5.77538, 22, -29.0551, -11.6004, 31.4456, -155.13, -87.2823, 49.3692
5.78345, 22, -29.0376, -11.7026, 31.5278, -155.073, -87.2144, 49.2981
5.79171, 23, -29.0203, -11.8053, 31.6103, -155.016, -87.1458, 49.227
5.79953, 23, -29.0033, -11.9082, 31.693, -154.96, -87.077, 49.156
5.80827, 23, -28.9864, -12.0116, 31.7757, -154.901, -87.0081, 49.0842
5.81529, 23, -28.9696, -12.1154, 31.8588, -154.844, -86.9385, 49.0129
5.82334, 23, -28.9528, -12.2195, 31.9423, -154.786, -86.869, 48.9407
5.83137, 23, -28.9362, -12.3242, 32.0262, -154.727, -86.7985, 48.8684
5.83942, 23, -28.9198, -12.4293, 32.1105, -154.669, -86.7283, 48.7964
5.84746, 23, -28.9035, -12.5346, 32.1951, -154.609, -86.6571, 48.7235
5.85549, 24, -28.8873, -12.6404, 32.28, -154.55, -86.5861, 48.6513
5.86365, 24, -28.8711, -12.7465, 32.3651, -154.49, -86.5145, 48.5783
5.87191, 24, -28.855, -12.853, 32.4503, -154.43, -86.4432, 48.5049
5.88052, 24, -28.8391, -12.9599, 32.5358, -154.37, -86.3709, 48.4319
5.88781, 24, -28.8232, -13.0673, 32.6218, -154.309, -86.2988, 48.3577
5.89642, 24, -28.8075, -13.1752, 32.708, -154.249, -86.226, 48.2842
5.90459, 24, -28.7919, -13.2833, 32.7946, -154.187, -86.1536, 48.2102
5.91191, 24, -28.7767, -13.3917, 32.8815, -154.126, -86.0801, 48.1358
5.92039, 24, -28.7615, -13.5006, 32.9687, -154.064, -86.007, 48.062
5.92868, 25, -28.7539, -13.6097, 33.0559, -154.002, -85.933, 47.9873
5.93522, 25, -28.7388, -13.6645, 33.0995, -153.971, -85.8965, 47.9503
5.94458, 25, -28.7161, -13.8292, 33.231, -153.877, -85.7852, 47.8391
5.95322, 25, -28.7011, -13.9395, 33.3191, -153.815, -85.711, 47.7645
5.95925, 25, -28.6936, -13.9947, 33.3633, -153.783, -85.6734, 47.7276
5.96729, 25, -28.6787, -14.1053, 33.4519, -153.719, -85.5991, 47.6531
5.97649, 25, -28.6566, -14.2719, 33.5853, -153.624, -85.4864, 47.5416
5.98325, 25, -28.6493, -14.3275, 33.6298, -153.592, -85.449, 47.5045
5.99312, 26, -28.6277, -14.4952, 33.7636, -153.496, -85.3358, 47.3921
5.99926, 26, -28.6206, -14.5513, 33.8083, -153.463, -85.2983, 47.355
6.00733, 26, -28.6064, -14.6637, 33.8979, -153.399, -85.2224, 47.2803
6.01916, 26, -28.5853, -14.8327, 34.0328, -153.301, -85.1085, 47.1684
6.02338, 26, -28.5782, -14.8891, 34.0779, -153.268, -85.0702, 47.1312
6.03125, 26, -28.5641, -15.0022, 34.1684, -153.203, -84.9941, 47.0562
6.04164, 26, -28.5432, -15.1724, 34.3046, -153.105, -84.8791, 46.9452
6.04732, 26, -28.5362, -15.2293, 34.35, -153.072, -84.8407, 46.9079
6.05681, 26, -28.5224, -15.3432, 34.441, -153.005, -84.7635, 46.7971
6.06565, 27, -28.5087, -15.4574, 34.5321, -152.939, -84.6868, 46.7231
6.0716, 27, -28.4949, -15.5718, 34.6234, -152.872, -84.6094, 46.6858
6.07933, 27, -28.4812, -15.6865, 34.715, -152.805, -84.5319, 46.6123
6.08733, 27, -28.4677, -15.8015, 34.8069, -152.738, -84.4544, 46.5385
6.0953, 27, -28.4542, -15.9168, 34.899, -152.67, -84.3767, 46.4644
6.10329, 27, -28.4407, -16.0326, 34.9913, -152.602, -84.2989, 46.3911
6.11125, 27, -28.4273, -16.1486, 35.0835, -152.534, -84.2206, 46.3167
6.11926, 27, -28.4139, -16.2648, 35.1757, -152.466, -84.1427, 46.2436
6.12729, 27, -28.4006, -16.3811, 35.2682, -152.398, -84.064, 46.1699
6.13534, 28, -28.3874, -16.4977, 35.361, -152.329, -83.9858, 46.0966
6.14347, 28, -28.3741, -16.6145, 35.4541, -152.26, -83.9069, 46.024
6.15141, 28, -28.3609, -16.7314, 35.5475, -152.191, -83.8287, 45.9508
6.15927, 28, -28.3477, -16.8487, 35.641, -152.122, -83.7496, 45.8788
6.16727, 28, -28.3344, -16.9659, 35.7344, -152.052, -83.6709, 45.8066
6.17533, 28, -28.3213, -17.0832, 35.8278, -151.982, -83.5917, 45.7345
6.18325, 28, -28.3082, -17.2007, 35.9214, -151.912, -83.5129, 45.6634
6.19232, 28, -28.2951, -17.3183, 36.0151, -151.841, -83.4337, 45.5918
6.20031, 29, -28.282, -17.4363, 36.1093, -151.771, -83.3543, 45.5211
6.20825, 29, -28.269, -17.5547, 36.2036, -151.7, -83.275, 45.4508
6.21629, 29, -28.2557, -17.6731, 36.298, -151.629, -83.1953, 45.3803
6.22345, 29, -28.2427, -17.7917, 36.3922, -151.558, -83.1157, 45.311
6.23264, 29, -28.2297, -17.9102, 36.4864, -151.486, -83.0357, 45.2415
6.24028, 29, -28.2167, -18.029, 36.5807, -151.414, -82.9562, 45.1724
6.24741, 29, -28.2038, -18.148, 36.6753, -151.343, -82.8763, 45.1042
6.25534, 29, -28.1909, -18.2671, 36.7702, -151.271, -82.7964, 45.0355
6.26545, 30, -28.178, -18.3865, 36.8652, -151.199, -82.7165, 44.9681
6.2716, 30, -28.1651, -18.5057, 36.9604, -151.126, -82.6367, 44.9012
6.27936, 30, -28.1523, -18.625, 37.0553, -151.053, -82.5566, 44.834
6.28736, 30, -28.1394, -18.7443, 37.1501, -150.98, -82.4763, 44.7682
6.29563, 30, -28.1264, -18.8637, 37.245, -150.907, -82.3965, 44.7027
6.30431, 30, -28.1134, -18.9834, 37.3401, -150.834, -82.316, 44.6372
6.31125, 30, -28.1002, -19.1034, 37.4355, -150.76, -82.2359, 44.5733
6.3194, 30, -28.0871, -19.2234, 37.531, -150.687, -82.1553, 44.5095
6.32746, 30, -28.074, -19.3432, 37.6265, -150.613, -82.0755, 44.4459
6.33529, 31, -28.0609, -19.4631, 37.7217, -150.539, -81.995, 44.3837
6.34524, 31, -28.0478, -19.5831, 37.8169, -150.465, -81.9148, 44.3216
6.35145, 31, -28.0347, -19.7031, 37.9121, -150.391, -81.8345, 44.2601
6.36026, 31, -28.0215, -19.8232, 38.0076, -150.316, -81.7544, 44.2
6.36788, 31, -28.0084, -19.9432, 38.1032, -150.242, -81.6742, 44.1398
6.37577, 31, -27.9952, -20.0632, 38.1989, -150.167, -81.5937, 44.08
6.38455, 31, -27.9819, -20.1831, 38.2946, -150.092, -81.5137, 44.0216
6.3918, 31, -27.9684, -20.303, 38.39, -150.016, -81.4333, 43.9635
6.40041, 31, -27.9549, -20.4233, 38.4852, -149.941, -81.3531, 43.9056
6.40858, 32, -27.9412, -20.5435, 38.5805, -149.866, -81.2728, 43.8494
6.4161, 32, -27.9275, -20.6639, 38.6759, -149.79, -81.1929, 43.7938
6.42508, 32, -27.9138, -20.7841, 38.7714, -149.714, -81.1129, 43.7384
6.43239, 32, -27.9001, -20.9043, 38.867, -149.639, -81.0327, 43.6843
6.43985, 32, -27.8932, -20.9645, 38.9148, -149.601, -80.9927, 43.6314
6.44834, 32, -27.8723, -21.1446, 39.0577, -149.487, -80.8729, 43.5788
6.45524, 32, -27.8653, -21.2047, 39.1052, -149.449, -80.8329, 43.5527
6.46439, 32, -27.8443, -21.3849, 39.2479, -149.334, -80.713, 43.4769
6.47122, 33, -27.8373, -21.4448, 39.2955, -149.296, -80.6733, 43.4522
6.47931, 33, -27.8231, -21.5646, 39.3907, -149.22, -80.5937, 43.4032
6.48889, 33, -27.8016, -21.7441, 39.5335, -149.105, -80.4743, 43.331
6.49526, 33, -27.7943, -21.8039, 39.5811, -149.066, -80.4343, 43.3077
6.50327, 33, -27.7796, -21.9237, 39.6761, -148.989, -80.3551, 43.2621
6.51276, 33, -27.7574, -22.1034, 39.8181, -148.874, -80.2361, 43.1947
6.52177, 33, -27.7425, -22.2231, 39.9126, -148.797, -80.1568, 43.151
6.5273, 33, -27.7351, -22.2828, 39.9599, -148.759, -80.1172, 43.1298
6.53683, 33, -27.7126, -22.4619, 40.1017, -148.643, -79.9988, 43.068
6.54331, 34, -27.705, -22.5217, 40.149, -148.604, -79.9594, 43.0479
6.55125, 34, -27.6899, -22.641, 40.2436, -148.527, -79.8804, 43.008
6.5611, 34, -27.6747, -22.8198, 40.3849, -148.411, -79.7621, 42.9502
6.56808, 34, -27.6594, -22.8793, 40.4318, -148.372, -79.7225, 42.9318
6.57628, 34, -27.6439, -22.9981, 40.5256, -148.295, -79.6437, 42.896
6.58424, 34, -27.6281, -23.1166, 40.6193, -148.217, -79.5646, 42.8614
6.59224, 34, -27.6122, -23.2349, 40.7131, -148.139, -79.4861, 42.8277
6.59931, 34, -27.5961, -23.3533, 40.8067, -148.062, -79.4073, 42.7947
6.60836, 35, -27.5799, -23.4717, 40.9004, -147.984, -79.3289, 42.7635
6.61524, 35, -27.5636, -23.59, 40.9938, -147.906, -79.25, 42.7342
6.62331, 35, -27.547, -23.708, 41.0867, -147.828, -79.1721, 42.7062
6.63228, 35, -27.5304, -23.8256, 41.1793, -147.75, -79.0935, 42.6797
6.63939, 35, -27.5138, -23.9431, 41.2719, -147.672, -79.0155, 42.6542
6.64733, 35, -27.497, -24.0604, 41.3644, -147.594, -78.9372, 42.6297
6.65605, 35, -27.4799, -24.1775, 41.4569, -147.516, -78.8594, 42.6066
6.66327, 35, -27.4625, -24.2945, 41.5493, -147.438, -78.7814, 42.5853
6.67131, 35, -27.445, -24.4111, 41.6414, -147.36, -78.7034, 42.5655
6.68114, 36, -27.4272, -24.5273, 41.7331, -147.282, -78.6259, 42.5475
6.68723, 36, -27.4092, -24.6433, 41.8244, -147.204, -78.5484, 42.5311
6.69531, 36, -27.3909, -24.7592, 41.9155, -147.126, -78.4712, 42.5164
6.70326, 36, -27.3725, -24.875, 42.0066, -147.048, -78.3938, 42.5032
6.71146, 36, -27.3539, -24.9907, 42.0975, -146.97, -78.3171, 42.4913
6.72041, 36, -27.3352, -25.1064, 42.1883, -146.892, -78.2402, 42.4811
6.72825, 36, -27.316, -25.2215, 42.2787, -146.814, -78.1637, 42.4722
6.73623, 36, -27.2967, -25.3363, 42.3687, -146.736, -78.0868, 42.4651
6.74332, 36, -27.2771, -25.4508, 42.4583, -146.658, -78.0107, 42.4595
6.75134, 37, -27.2575, -25.565, 42.5477, -146.58, -77.9343, 42.4555
6.75948, 37, -27.2376, -25.679, 42.637, -146.502, -77.8583, 42.4532
6.76739, 37, -27.2174, -25.7926, 42.726, -146.424, -77.7822, 42.4521
6.77534, 37, -27.197, -25.9058, 42.8149, -146.347, -77.7066, 42.4518
6.78342, 37, -27.1764, -26.0185, 42.9035, -146.269, -77.6309, 42.452
6.79134, 37, -27.1554, -26.1308, 42.9917, -146.192, -77.5554, 42.4535
6.79935, 37, -27.134, -26.2429, 43.0794, -146.114, -77.4799, 42.4576
6.8074, 37, -27.1125, -26.3549, 43.1667, -146.037, -77.4049, 42.4645
6.81523, 38, -27.0908, -26.4666, 43.2537, -145.959, -77.3298, 42.4734
6.82331, 38, -27.0687, -26.578, 43.3406, -145.882, -77.2548, 42.4847
6.83163, 38, -27.0464, -26.6891, 43.4271, -145.805, -77.18, 42.4978
6.84028, 38, -27.0239, -26.7996, 43.5134, -145.728, -77.1054, 42.5131
6.84742, 38, -27.001, -26.9099, 43.5993, -145.651, -77.0307, 42.5305
6.85553, 38, -26.9778, -27.0198, 43.6847, -145.575, -76.9562, 42.5501
6.86434, 38, -26.9544, -27.1292, 43.7696, -145.498, -76.882, 42.572
6.87154, 38, -26.9307, -27.2382, 43.8542, -145.422, -76.8082, 42.5963
6.8796, 38, -26.9066, -27.3467, 43.9385, -145.346, -76.7342, 42.623
6.88843, 39, -26.8822, -27.4547, 44.0225, -145.269, -76.6604, 42.6521
6.89576, 39, -26.8574, -27.5623, 44.1062, -145.194, -76.5869, 42.6828
6.90456, 39, -26.8321, -27.6696, 44.1894, -145.118, -76.5135, 42.7157
6.91281, 39, -26.8065, -27.7765, 44.2722, -145.043, -76.4402, 42.7506
6.92036, 39, -26.7808, -27.8831, 44.3545, -144.967, -76.3669, 42.7883
6.92789, 39, -26.7546, -27.9894, 44.4363, -144.892, -76.2937, 42.8284
6.93585, 39, -26.7415, -28.0423, 44.477, -144.817, -76.2206, 42.8703
6.94426, 39, -26.7015, -28.2003, 44.5986, -144.743, -76.1475, 42.9142
6.95203, 40, -26.6879, -28.2527, 44.6389, -144.668, -76.0745, 42.9608
6.95924, 40, -26.6604, -28.3572, 44.7193, -144.631, -76.0381, 42.9852
6.96834, 40, -26.6187, -28.5129, 44.8392, -144.52, -75.9294, 43.0611
6.9754, 40, -26.6046, -28.5645, 44.8789, -144.483, -75.8931, 43.0873
6.98475, 40, -26.5761, -28.6673, 44.9973, -144.373, -75.7846, 43.17
6.99122, 40, -26.5472, -28.7696, 45.0365, -144.337, -75.7485, 43.1989
7.0014, 40, -26.5027, -28.9218, 45.153, -144.228, -75.6407, 43.2882
7.00726, 40, -26.4878, -28.9723, 45.1917, -144.192, -75.6047, 43.3194
7.01668, 40, -26.4422, -29.1231, 45.3068, -144.083, -75.497, 43.4167
7.02565, 41, -26.4113, -29.223, 45.3829, -144.012, -75.4256, 43.4838
7.03122, 41, -26.3956, -29.2728, 45.4208, -143.976, -75.3901, 43.5186
7.04077, 41, -26.3479, -29.4215, 45.5337, -143.87, -75.2831, 43.6263
7.04961, 41, -26.3157, -29.5199, 45.6082, -143.799, -75.2119, 43.701
7.05771, 41, -26.2831, -29.6177, 45.682, -143.729, -75.1411, 43.7787
7.06484, 41, -26.2666, -29.6663, 45.7187, -143.694, -75.0706, 43.8582
7.07485, 41, -26.2163, -29.8112, 45.8278, -143.59, -74.9998, 43.9413
7.08027, 41, -26.1993, -29.8591, 45.8638, -143.556, -74.9649, 43.9834
7.08915, 42, -26.1649, -29.9545, 45.9356, -143.487, -74.8942, 44.1142
7.09535, 42, -26.1301, -30.0491, 46.0068, -143.419, -74.8245, 44.159
7.10337, 42, -26.0947, -30.1432, 46.0774, -143.351, -74.7543, 44.2502
7.1112, 42, -26.0587, -30.2367, 46.1474, -143.285, -74.6847, 44.3447
7.11922, 42, -26.0222, -30.3295, 46.2168, -143.218, -74.6146, 44.4413
7.12723, 42, -25.9852, -30.4215, 46.2854, -143.152, -74.5452, 44.5411
7.13528, 42, -25.9477, -30.5128, 46.3532, -143.086, -74.4755, 44.6431
7.14323, 42, -25.9095, -30.6035, 46.4203, -143.022, -74.4062, 44.7481
7.15138, 42, -25.8708, -30.6934, 46.4866, -142.957, -74.3369, 44.8558
7.15922, 43, -25.8315, -30.7827, 46.5524, -142.894, -74.2679, 44.9664
7.16724, 43, -25.7917, -30.8711, 46.6174, -142.831, -74.1992, 45.0801
7.17546, 43, -25.7513, -30.959, 46.6817, -142.769, -74.1304, 45.1964
7.18342, 43, -25.7102, -31.0458, 46.7452, -142.708, -74.062, 45.3155
7.19121, 43, -25.6687, -31.1319, 46.808, -142.646, -73.9933, 45.4373
7.19929, 43, -25.6266, -31.2171, 46.87, -142.587, -73.9256, 45.5619
7.20726, 43, -25.5837, -31.3015, 46.9313, -142.527, -73.8571, 45.689
7.21521, 43, -25.5401, -31.385, 46.9917, -142.469, -73.7896, 45.8191
7.22325, 43, -25.4959, -31.4676, 47.0512, -142.411, -73.7214, 45.9518
7.2313, 44, -25.4511, -31.5493, 47.11, -142.353, -73.6543, 46.0872
7.23922, 44, -25.4055, -31.6302, 47.1677, -142.298, -73.5865, 46.2258
7.24779, 44, -25.3593, -31.7102, 47.2246, -142.242, -73.5196, 46.3674
7.25539, 44, -25.3125, -31.7893, 47.2808, -142.188, -73.4522, 46.512
7.26421, 44, -25.265, -31.8675, 47.336, -142.135, -73.3856, 46.6596
7.27209, 44, -25.2167, -31.9446, 47.3903, -142.082, -73.3191, 46.8099
7.28021, 44, -25.1677, -32.0208, 47.4437, -142.031, -73.2527, 46.9631
7.28738, 44, -25.118, -32.0959, 47.4961, -141.98, -73.1866, 47.1197
7.29724, 45, -25.0675, -32.1699, 47.5476, -141.931, -73.1204, 47.2793
7.30336, 45, -25.0164, -32.2431, 47.5981, -141.883, -73.0551, 47.442
7.31138, 45, -24.9644, -32.3151, 47.6476, -141.835, -72.9893, 47.6075
7.31987, 45, -24.9117, -32.386, 47.696, -141.789, -72.9246, 47.7763
7.32758, 45, -24.8582, -32.4558, 47.7435, -141.744, -72.8592, 47.948
7.34226, 45, -24.7764, -32.5586, 47.8125, -141.678, -72.7628, 48.2111
7.34777, 45, -24.7209, -32.6257, 47.8572, -141.636, -72.6981, 48.3902
7.35137, 45, -24.6929, -32.6587, 47.8792, -141.615, -72.6663, 48.481
7.35946, 45, -24.6362, -32.724, 47.9222, -141.575, -72.6024, 48.6648
7.36836, 46, -24.5786, -32.7882, 47.9642, -141.535, -72.5386, 48.8514
7.3759, 46, -24.5201, -32.8509, 48.0051, -141.497, -72.4758, 49.0411
7.38359, 46, -24.4608, -32.9123, 48.0447, -141.461, -72.4125, 49.2337
7.39206, 46, -24.4007, -32.9724, 48.0833, -141.426, -72.3501, 49.4297
7.40036, 46, -24.3398, -33.0312, 48.1206, -141.392, -72.2872, 49.6288
7.40774, 46, -24.278, -33.0886, 48.1566, -141.36, -72.2255, 49.831
7.41631, 46, -24.2153, -33.1447, 48.1915, -141.329, -72.164, 50.036
7.42382, 46, -24.1517, -33.1995, 48.2251, -141.3, -72.1024, 50.2437
7.43232, 47, -24.0872, -33.253, 48.2574, -141.271, -72.0419, 50.4545
7.4401, 47, -24.0546, -33.2792, 48.273, -141.244, -71.9809, 50.6684
7.44805, 47, -23.9887, -33.3306, 48.3034, -141.219, -71.9213, 50.8854
7.46064, 47, -23.8881, -33.4289, 48.3598, -141.185, -71.8316, 51.2166
7.46319, 47, -23.854, -33.4289, 48.3598, -141.185, -71.8316, 51.2166
7.47233, 47, -23.7506, -33.4985, 48.3986, -141.155, -71.7437, 51.5545
7.47924, 47, -23.7156, -33.5208, 48.4108, -141.146, -71.7142, 51.6687
7.48723, 47, -23.645, -33.5643, 48.4343, -141.128, -71.6562, 51.8996
7.49522, 47, -23.5734, -33.6061, 48.4563, -141.112, -71.5991, 52.1333
7.50531, 48, -23.4643, -33.6657, 48.4867, -141.091, -71.5137, 52.4891
7.5112, 48, -23.4275, -33.6847, 48.496, -141.085, -71.4859, 52.6092
7.52111, 48, -23.3153, -33.7394, 48.5218, -141.069, -71.4022, 52.9743
7.52862, 48, -23.2775, -33.7567, 48.5297, -141.065, -71.3478, 53.2213
7.53521, 48, -23.2011, -33.7902, 48.5441, -141.058, -71.3208, 53.3459
7.54327, 48, -23.1237, -33.8218, 48.5569, -141.053, -71.2667, 53.5973
7.55287, 48, -23.0056, -33.8659, 48.5734, -141.048, -71.1877, 53.9805
7.56083, 48, -22.9657, -33.8797, 48.5781, -141.047, -71.1353, 54.2395
7.56912, 49, -22.8447, -33.918, 48.5897, -141.048, -71.0836, 54.5012
7.57522, 49, -22.8038, -33.9298, 48.5927, -141.048, -71.0584, 54.633
7.5842, 49, -22.7212, -33.9517, 48.5975, -141.052, -71.0085, 54.8987
7.59122, 49, -22.6377, -33.9717, 48.6005, -141.058, -70.9586, 55.1674
7.59942, 49, -22.5532, -33.9899, 48.602, -141.065, -70.9102, 55.4388
7.60948, 49, -22.4246, -34.0128, 48.6017, -141.082, -70.8387, 55.851
7.61527, 49, -22.3812, -34.0193, 48.6007, -141.088, -70.8152, 55.99
7.6232, 49, -22.2936, -34.0309, 48.5976, -141.103, -70.7695, 56.2701
7.63127, 49, -22.2051, -34.0405, 48.5927, -141.121, -70.725, 56.5525
7.6392, 50, -22.1153, -34.0482, 48.5859, -141.14, -70.6807, 56.8377
7.64737, 50, -22.0247, -34.0534, 48.5772, -141.161, -70.638, 57.1254
7.65528, 50, -21.9332, -34.0564, 48.5664, -141.185, -70.5966, 57.4162
7.66328, 50, -21.8406, -34.0575, 48.5537, -141.21, -70.5557, 57.7095
7.67122, 50, -21.7469, -34.0565, 48.5393, -141.239, -70.5157, 58.0052
7.67927, 50, -21.652, -34.0532, 48.5229, -141.269, -70.4775, 58.3039
7.6872, 50, -21.556, -34.0474, 48.5044, -141.302, -70.4408, 58.6052
7.69526, 50, -21.4592, -34.0389, 48.4839, -141.336, -70.4046, 58.9086
7.70343, 51, -21.3614, -34.028, 48.4615, -141.373, -70.3696, 59.2144
7.71122, 51, -21.2627, -34.0145, 48.4369, -141.413, -70.3365, 59.5227
7.71943, 51, -21.1629, -33.9989, 48.4102, -141.455, -70.3049, 59.8334
7.72823, 51, -21.0624, -33.9805, 48.3814, -141.498, -70.2743, 60.1464
7.73522, 51, -20.9607, -33.9592, 48.3506, -141.545, -70.2446, 60.462
7.74325, 51, -20.8579, -33.9353, 48.3179, -141.593, -70.2167, 60.7801
7.75121, 51, -20.754, -33.9085, 48.283, -141.644, -70.1906, 61.1002
7.75924, 51, -20.6492, -33.879, 48.2459, -141.698, -70.1663, 61.4223
7.76728, 51, -20.5434, -33.8467, 48.2068, -141.753, -70.1437, 61.747
7.77536, 52, -20.437, -33.8114, 48.1654, -141.81, -70.1224, 62.0739
7.78329, 52, -20.3297, -33.7734, 48.122, -141.87, -70.1025, 62.4028
7.79155, 52, -20.2214, -33.7326, 48.0764, -141.932, -70.0842, 62.734
7.80058, 52, -20.1121, -33.6888, 48.0285, -141.997, -70.0679, 63.0675
7.80819, 52, -20.0019, -33.6421, 47.9785, -142.063, -70.0536, 63.4023
7.81537, 52, -19.8907, -33.5924, 47.9262, -142.132, -70.0413, 63.7393
7.82384, 52, -19.7786, -33.5396, 47.8717, -142.203, -70.0311, 64.0783
7.83221, 52, -19.6658, -33.484, 47.8148, -142.277, -70.0228, 64.419
7.83982, 52, -19.5524, -33.4251, 47.7559, -142.352, -70.0165, 64.7616
7.84827, 53, -19.4383, -33.3633, 47.6947, -142.43, -70.0122, 65.1062
7.85535, 53, -19.3233, -33.2983, 47.6313, -142.509, -70.01, 65.4525
7.86452, 53, -19.2074, -33.2302, 47.5657, -142.591, -70.0092, 65.7999
7.87309, 53, -19.0908, -33.159, 47.4977, -142.676, -70.0102, 66.1493
7.87959, 53, -18.9734, -33.0847, 47.4275, -142.762, -70.0132, 66.5005
7.88757, 53, -18.8551, -33.0072, 47.3549, -142.85, -70.0186, 66.8532
7.89578, 53, -18.7363, -32.9264, 47.2801, -142.94, -70.0262, 67.2076
7.90434, 53, -18.6167, -32.8423, 47.2028, -143.032, -70.0365, 67.5634
7.91172, 54, -18.4964, -32.755, 47.1231, -143.126, -70.0492, 67.9201
7.92029, 54, -18.3754, -32.6643, 47.0413, -143.222, -70.0648, 68.2781
7.92779, 54, -18.2538, -32.5704, 46.9574, -143.32, -70.0832, 68.6375
7.93677, 54, -18.1315, -32.4733, 46.8711, -143.42, -70.1047, 68.9981
7.94405, 54, -18.0701, -32.4235, 46.7824, -143.522, -70.1287, 69.3601
7.95116, 54, -17.947, -32.3213, 46.7373, -143.574, -70.1416, 69.5417
7.96093, 54, -17.7612, -32.1615, 46.5981, -143.731, -70.1836, 70.0871
7.97025, 54, -17.6369, -32.0508, 46.5022, -143.838, -70.2152, 70.4522
7.97518, 54, -17.5745, -31.9941, 46.4535, -143.892, -70.2323, 70.6351
7.98518, 55, -17.3865, -31.8192, 46.3041, -144.056, -70.288, 71.1853
7.99134, 55, -17.3237, -31.7593, 46.2532, -144.112, -70.3076, 71.3692
7.99922, 55, -17.1977, -31.6368, 46.1498, -144.225, -70.349, 71.7378
8.00863, 55, -17.0078, -31.4463, 45.9902, -144.397, -70.4176, 72.2914
8.01519, 55, -16.9443, -31.381, 45.9358, -144.455, -70.4416, 72.4761
8.02466, 55, -16.7531, -31.1802, 45.7689, -144.631, -70.5179, 73.0316
8.03118, 55, -16.6892, -31.1116, 45.7122, -144.69, -70.5453, 73.217
8.04078, 55, -16.4973, -30.9011, 45.5391, -144.87, -70.6306, 73.7739
8.04873, 56, -16.3692, -30.7563, 45.4209, -144.992, -70.692, 74.1458
8.05685, 56, -16.2408, -30.6079, 45.3005, -145.114, -70.7556, 74.5178
8.06505, 56, -16.1765, -30.4562, 45.1776, -145.238, -70.8227, 74.8901
8.07201, 56, -16.0478, -30.3792, 45.1153, -145.3, -70.8576, 75.0765
8.07923, 56, -15.919, -30.2228, 44.9892, -145.425, -70.9291, 75.4492
8.08818, 56, -15.79, -30.0629, 44.8611, -145.552, -71.0043, 75.8221
8.09618, 56, -15.661, -29.8993, 44.7311, -145.679, -71.0821, 76.1955
8.10323, 56, -15.5316, -29.7322, 44.5989, -145.807, -71.1637, 76.5686
8.1121, 56, -15.4021, -29.5623, 44.4643, -145.935, -71.2481, 76.9411
8.12023, 57, -15.2726, -29.3892, 44.3278, -146.064, -71.3355, 77.3138
8.12719, 57, -15.143, -29.2125, 44.1891, -146.194, -71.4264, 77.6863
8.13621, 57, -15.0136, -29.0321, 44.0486, -146.325, -71.5206, 78.0583
8.14333, 57, -14.8843, -28.849, 43.906, -146.455, -71.6176, 78.4303
8.15124, 57, -14.755, -28.6635, 43.7616, -146.587, -71.7183, 78.8014
8.16001, 57, -14.6257, -28.4747, 43.6155, -146.718, -71.8222, 79.1721
8.1672, 57, -14.4964, -28.2819, 43.4673, -146.85, -71.9291, 79.5426
8.17527, 57, -14.3674, -28.086, 43.3171, -146.982, -72.0397, 79.9124
8.18506, 58, -14.2387, -27.8876, 43.1649, -147.114, -72.1533, 80.2814
8.19122, 58, -14.1102, -27.686, 43.0112, -147.247, -72.2699, 80.6502
8.19929, 58, -13.9818, -27.4808, 42.856, -147.379, -72.3899, 81.0177
8.2072, 58, -13.8539, -27.273, 42.6988, -147.511, -72.5129, 81.384
8.21875, 58, -13.7262, -26.9561, 42.4594, -147.709, -72.7039, 81.9322
8.22418, 58, -13.5989, -26.8487, 42.3789, -147.775, -72.7691, 82.1143
8.2312, 58, -13.4719, -26.6317, 42.2171, -147.907, -72.902, 82.4777
8.24018, 58, -13.3455, -26.4121, 42.0535, -148.038, -73.0382, 82.8402
8.24726, 58, -13.2192, -26.189, 41.888, -148.169, -73.1773, 83.2012
8.25518, 59, -13.0934, -25.9625, 41.7212, -148.299, -73.3195, 83.5605
8.26322, 59, -12.968, -25.7337, 41.5535, -148.429, -73.4646, 83.9191
8.27134, 59, -12.8431, -25.5023, 41.3844, -148.559, -73.6129, 84.2762
8.27933, 59, -12.7189, -25.2679, 41.2132, -148.687, -73.7642, 84.6315
8.28744, 59, -12.5951, -25.0314, 41.0409, -148.815, -73.9185, 84.9859
8.29618, 59, -12.4718, -24.7925, 40.868, -148.942, -74.0759, 85.3384
8.30334, 59, -12.3491, -24.5506, 40.6938, -149.069, -74.236, 85.6888
8.31137, 59, -12.2267, -24.3068, 40.5175, -149.194, -74.3992, 86.0375
8.31956, 60, -12.1049, -24.061, 40.3405, -149.319, -74.5652, 86.3845
8.3272, 60, -11.9839, -23.8123, 40.163, -149.442, -74.7339, 86.7293
8.33557, 60, -11.8635, -23.5616, 39.9842, -149.564, -74.9053, 87.0723
8.34425, 60, -11.7438, -23.3082, 39.804, -149.686, -75.0793, 87.4134
8.35126, 60, -11.6249, -23.052, 39.6234, -149.806, -75.2561, 87.752
8.35974, 60, -11.5066, -22.7946, 39.4426, -149.924, -75.4354, 88.0884
8.36827, 60, -11.389, -22.5354, 39.2604, -150.042, -75.6173, 88.4229
8.37544, 60, -11.272, -22.2742, 39.0769, -150.158, -75.8014, 88.7551
8.38357, 60, -11.1558, -22.012, 38.8934, -150.273, -75.988, 89.0848
8.39235, 61, -11.0405, -21.7475, 38.7094, -150.386, -76.1769, 89.4124
8.39975, 61, -10.926, -21.4808, 38.5241, -150.498, -76.368, 89.7375
8.4085, 61, -10.8123, -21.2131, 38.3386, -150.608, -76.5615, 90.0596
8.41648, 61, -10.6994, -20.9435, 38.1536, -150.717, -76.7572, 90.3788
8.42373, 61, -10.5874, -20.6726, 37.9679, -150.824, -76.9549, 90.6958
8.43231, 61, -10.4762, -20.4004, 37.7813, -150.93, -77.1549, 91.01
8.44002, 61, -10.3657, -20.126, 37.5949, -151.034, -77.3568, 91.3211
8.44777, 61, -10.3108, -19.9884, 37.5018, -151.085, -77.5607, 91.6294
8.45626, 61, -10.1478, -19.5744, 37.2213, -151.236, -77.7661, 91.9348
8.46323, 62, -10.0939, -19.4356, 37.1276, -151.286, -77.8695, 92.0862
8.47229, 62, -9.93356, -19.0186, 36.8479, -151.432, -78.1821, 92.5357
8.47938, 62, -9.88055, -18.879, 36.7549, -151.48, -78.2871, 92.684
8.48871, 62, -9.77534, -18.5988, 36.4747, -151.62, -78.604, 93.1244
8.49516, 62, -9.6712, -18.3187, 36.3813, -151.666, -78.7104, 93.2695
8.50554, 62, -9.51632, -17.8975, 36.1021, -151.8, -79.0317, 93.6998
8.51124, 62, -9.46506, -17.757, 36.009, -151.844, -79.1395, 93.8418
8.52066, 62, -9.31268, -17.3349, 35.7296, -151.973, -79.4646, 94.2623
8.52962, 63, -9.21234, -17.0522, 35.5449, -152.057, -79.6828, 94.5379
8.53516, 63, -9.16251, -16.911, 35.4528, -152.098, -79.7924, 94.6742
8.54476, 63, -9.01447, -16.4861, 35.1758, -152.219, -80.1228, 95.078
8.55366, 63, -8.91697, -16.2028, 34.9919, -152.296, -80.3443, 95.3424
8.56172, 63, -8.82039, -15.9193, 34.8091, -152.372, -80.5668, 95.603
8.56882, 63, -8.77247, -15.7771, 34.6266, -152.445, -80.7899, 95.8595
8.57616, 63, -8.67742, -15.4932, 34.5355, -152.481, -80.9018, 95.9864
8.58417, 64, -8.58339, -15.2101, 34.354, -152.552, -81.126, 96.2373
8.59802, 64, -8.39834, -14.6442, 33.9947, -152.686, -81.5758, 96.7263
8.59945, 64, -8.39834, -14.6442, 33.9947, -152.686, -81.5758, 96.7263
8.60946, 64, -8.26255, -14.2195, 33.7262, -152.782, -81.9143, 97.0817
8.61618, 64, -8.21778, -14.0779, 33.6375, -152.813, -82.0272, 97.1981
8.62316, 64, -8.12888, -13.7957, 33.4611, -152.873, -82.2534, 97.4278
8.63117, 64, -8.0407, -13.5141, 33.2851, -152.931, -82.4799, 97.6529
8.63928, 64, -7.95328, -13.2337, 33.1097, -152.987, -82.7066, 97.8735
8.64718, 64, -7.86681, -12.9542, 32.9361, -153.041, -82.9336, 98.0896
8.65517, 64, -7.78129, -12.6745, 32.7639, -153.093, -83.1605, 98.3014
8.66319, 65, -7.69679, -12.396, 32.5922, -153.142, -83.3876, 98.5087
8.67116, 65, -7.61332, -12.1183, 32.4215, -153.19, -83.6147, 98.7109
8.6794, 65, -7.53078, -11.8414, 32.2528, -153.235, -83.8418, 98.9083
8.68725, 65, -7.44942, -11.5656, 32.0853, -153.278, -84.0686, 99.1006
8.69517, 65, -7.36904, -11.2899, 31.9185, -153.32, -84.2953, 99.2879
8.70316, 65, -7.28963, -11.0151, 31.7532, -153.359, -84.5218, 99.4706
8.71123, 65, -7.21122, -10.7419, 31.5898, -153.397, -84.7479, 99.6482
8.71921, 65, -7.1337, -10.4694, 31.4278, -153.432, -84.9737, 99.8206
8.72723, 65, -7.05706, -10.1985, 31.2667, -153.465, -85.1992, 99.9878
8.73519, 66, -6.98144, -9.9286, 31.107, -153.497, -85.4241, 100.149
8.74316, 66, -6.90652, -9.65925, 30.9493, -153.526, -85.6485, 100.306
8.75139, 66, -6.83255, -9.39196, 30.7929, -153.553, -85.8726, 100.456
8.76021, 66, -6.7593, -9.12623, 30.6377, -153.578, -86.0961, 100.602
8.76721, 66, -6.68682, -8.86199, 30.4839, -153.601, -86.319, 100.741
8.77534, 66, -6.61523, -8.59979, 30.332, -153.623, -86.5411, 100.875
8.78348, 66, -6.54441, -8.33846, 30.1819, -153.642, -86.7629, 101.004
8.79126, 66, -6.47457, -8.07842, 30.0328, -153.66, -86.9839, 101.126
8.79953, 67, -6.40568, -7.82051, 29.8854, -153.676, -87.2043, 101.242
8.80761, 67, -6.3376, -7.56365, 29.7396, -153.689, -87.424, 101.353
8.81535, 67, -6.27033, -7.30859, 29.5955, -153.701, -87.6432, 101.457
8.82351, 67, -6.20389, -7.05529, 29.453, -153.71, -87.8617, 101.555
8.83213, 67, -6.13835, -6.80288, 29.3121, -153.718, -88.0793, 101.647
8.8393, 67, -6.0737, -6.55241, 29.1727, -153.724, -88.296, 101.733
8.84724, 67, -6.00971, -6.30419, 29.0351, -153.729, -88.512, 101.812
8.85529, 67, -5.94649, -6.05728, 28.8992, -153.731, -88.727, 101.886
8.86343, 67, -5.88407, -5.81228, 28.7648, -153.733, -88.9413, 101.953
8.87156, 68, -5.82236, -5.56902, 28.6321, -153.733, -89.1544, 102.012
8.87953, 68, -5.7614, -5.32668, 28.5008, -153.732, -89.3667, 102.066
8.88817, 68, -5.70102, -5.08612, 28.3713, -153.729, -89.5781, 102.114
8.89792, 68, -5.64122, -4.84803, 28.2436, -153.724, -89.7886, 102.153
8.90439, 68, -5.58223, -4.61162, 28.1173, -153.717, -89.9983, 102.186
8.91231, 68, -5.52389, -4.37726, 27.9927, -153.708, -90.2074, 102.213
8.92045, 68, -5.4662, -4.14531, 27.8697, -153.698, -90.4156, 102.233
8.92767, 68, -5.40935, -3.91489, 27.7482, -153.686, -90.623, 102.246
8.93626, 68, -5.3531, -3.68592, 27.6285, -153.673, -90.8296, 102.252
8.94467, 69, -5.29749, -3.45942, 27.5105, -153.658, -91.0354, 102.254
8.95201, 69, -5.26998, -3.34692, 27.4521, -153.641, -91.2404, 102.248
8.95918, 69, -5.21531, -3.12282, 27.3364, -153.631, -91.3426, 102.241
8.9672, 69, -5.16123, -2.90048, 27.2223, -153.611, -91.5462, 102.223
8.97626, 69, -5.08129, -2.57112, 27.0539, -153.579, -91.8497, 102.182
8.98317, 69, -5.05486, -2.46199, 26.9987, -153.568, -91.9504, 102.164
8.9912, 69, -5.00251, -2.24487, 26.8893, -153.544, -92.1512, 102.124
9.00049, 69, -4.92521, -1.92393, 26.7284, -153.507, -92.4506, 102.047
9.00716, 70, -4.89961, -1.81792, 26.6756, -153.493, -92.5497, 102.018
9.01655, 70, -4.82348, -1.50215, 26.519, -153.451, -92.8464, 101.919
9.02333, 70, -4.79834, -1.398, 26.4676, -153.436, -92.9449, 101.882
9.03133, 70, -4.74828, -1.19141, 26.3659, -153.406, -93.1412, 101.802
9.0407, 70, -4.67386, -0.884384, 26.2164, -153.359, -93.4339, 101.667
9.04892, 70, -4.62497, -0.682083, 26.1189, -153.326, -93.6281, 101.568
9.05674, 70, -4.57646, -0.48262, 26.0227, -153.291, -93.8215, 101.46
9.06484, 70, -4.52826, -0.285177, 25.9277, -153.257, -94.014, 101.345
9.07276, 70, -4.50438, -0.186987, 25.8807, -153.239, -94.2058, 101.223
9.07924, 71, -4.45697, 0.00789322, 25.7877, -153.203, -94.3013, 101.158
9.08818, 71, -4.40981, 0.200115, 25.6964, -153.165, -94.4919, 101.023
9.09628, 71, -4.36292, 0.390203, 25.6069, -153.127, -94.6814, 100.881
9.10402, 71, -4.31634, 0.578887, 25.5188, -153.088, -94.87, 100.731
9.11217, 71, -4.26987, 0.765768, 25.432, -153.048, -95.0579, 100.572
9.12016, 71, -4.22359, 0.949942, 25.3465, -153.007, -95.2446, 100.406
9.12722, 71, -4.1776, 1.13187, 25.2622, -152.966, -95.4306, 100.233
9.13514, 71, -4.13182, 1.31235, 25.1793, -152.924, -95.6156, 100.052
9.14428, 72, -4.08611, 1.49063, 25.098, -152.881, -95.7995, 99.863
9.15219, 72, -4.04055, 1.66601, 25.0183, -152.839, -95.9825, 99.6665
9.16014, 72, -3.99515, 1.83938, 24.94, -152.796, -96.1643, 99.4621
9.16874, 72, -3.94976, 2.011, 24.8628, -152.752, -96.3452, 99.2505
9.17752, 72, -3.90446, 2.1803, 24.7871, -152.707, -96.5251, 99.0313
9.18325, 72, -3.85912, 2.34664, 24.7126, -152.664, -96.7037, 98.8047
9.19115, 72, -3.81372, 2.51057, 24.6394, -152.619, -96.8813, 98.5705
9.20021, 72, -3.76832, 2.67252, 24.5677, -152.574, -97.0575, 98.329
9.20817, 72, -3.72315, 2.83217, 24.4972, -152.53, -97.2327, 98.0803
9.21619, 73, -3.67802, 2.98896, 24.4281, -152.485, -97.4067, 97.8247
9.2233, 73, -3.63273, 3.14307, 24.3604, -152.44, -97.5794, 97.5619
9.23115, 73, -3.58735, 3.29498, 24.2941, -152.396, -97.7507, 97.292
9.23929, 73, -3.54203, 3.44439, 24.2292, -152.352, -97.9204, 97.0152
9.24716, 73, -3.49644, 3.59108, 24.1656, -152.308, -98.089, 96.732
9.25518, 73, -3.45058, 3.73484, 24.1034, -152.265, -98.2559, 96.4418
9.26319, 73, -3.40457, 3.87553, 24.0423, -152.222, -98.4212, 96.1451
9.27126, 73, -3.35831, 4.01337, 23.9827, -152.178, -98.5849, 95.8422
9.27952, 74, -3.31168, 4.14847, 23.9243, -152.136, -98.7466, 95.5332
9.28723, 74, -3.26488, 4.28053, 23.8672, -152.095, -98.9066, 95.2184
9.29546, 74, -3.21786, 4.40944, 23.8116, -152.054, -99.0644, 94.8979
9.30423, 74, -3.17048, 4.53512, 23.7574, -152.013, -99.2203, 94.5722
9.31125, 74, -3.12281, 4.65749, 23.7045, -151.973, -99.3739, 94.241
9.31938, 74, -3.07496, 4.77684, 23.6532, -151.935, -99.5254, 93.9045
9.328, 74, -3.02675, 4.89296, 23.6032, -151.896, -99.6744, 93.5628
9.33614, 74, -2.97809, 5.00571, 23.5547, -151.859, -99.821, 93.2165
9.34319, 74, -2.92924, 5.11513, 23.5075, -151.823, -99.9649, 92.8652
9.35203, 75, -2.88008, 5.22092, 23.4619, -151.789, -100.106, 92.51
9.36014, 75, -2.83044, 5.32302, 23.4176, -151.755, -100.245, 92.1511
9.36768, 75, -2.78065, 5.42136, 23.3748, -151.722, -100.381, 91.788
9.37661, 75, -2.73059, 5.5159, 23.3335, -151.69, -100.513, 91.4211
9.38347, 75, -2.67997, 5.60659, 23.2938, -151.66, -100.643, 91.0509
9.39152, 75, -2.62896, 5.69326, 23.2556, -151.631, -100.77, 90.6773
9.39973, 75, -2.57764, 5.77583, 23.219, -151.603, -100.893, 90.3009
9.40829, 75, -2.52578, 5.85426, 23.1839, -151.576, -101.013, 89.9221
9.41603, 76, -2.47352, 5.92844, 23.1504, -151.551, -101.129, 89.5408
9.42425, 76, -2.42085, 5.99831, 23.1186, -151.528, -101.241, 89.1576
9.4317, 76, -2.36783, 6.06378, 23.0885, -151.506, -101.35, 88.7727
9.44091, 76, -2.31452, 6.12484, 23.06, -151.485, -101.455, 88.3857
9.44875, 76, -2.26093, 6.1814, 23.0333, -151.465, -101.555, 87.9976
9.45628, 76, -2.20687, 6.23343, 23.0085, -151.447, -101.652, 87.6083
9.46315, 76, -2.17972, 6.25763, 22.9968, -151.438, -101.698, 87.4131
9.47118, 76, -2.12521, 6.30246, 22.9746, -151.422, -101.788, 87.022
9.48025, 76, -2.04269, 6.36079, 22.9447, -151.401, -101.914, 86.4341
9.49212, 77, -1.98729, 6.39348, 22.9273, -151.389, -101.993, 85.8466
9.49528, 77, -1.95949, 6.4078, 22.9192, -151.384, -102.03, 85.8466
9.50324, 77, -1.9036, 6.43283, 22.9045, -151.374, -102.101, 85.4555
9.51254, 77, -1.81943, 6.46094, 22.8864, -151.362, -102.198, 84.8696
9.5192, 77, -1.79123, 6.46753, 22.8814, -151.358, -102.227, 84.6746
9.52717, 77, -1.73452, 6.47669, 22.8729, -151.353, -102.283, 84.2853
9.53677, 77, -1.64909, 6.481, 22.8641, -151.347, -102.355, 83.7028
9.54474, 77, -1.59181, 6.4775, 22.8607, -151.345, -102.397, 83.3166
9.55295, 78, -1.53441, 6.46855, 22.8594, -151.344, -102.434, 82.9315
9.55919, 78, -1.50566, 6.46205, 22.8594, -151.343, -102.45, 82.7395
9.56925, 78, -1.41893, 6.43391, 22.8629, -151.343, -102.489, 82.1666
9.58092, 78, -1.36108, 6.40783, 22.868, -151.345, -102.515, 81.5984
9.58415, 78, -1.3321, 6.39276, 22.8715, -151.346, -102.515, 81.5984
9.59213, 78, -1.27396, 6.35838, 22.8802, -151.35, -102.525, 81.2228
9.60014, 78, -1.21577, 6.31809, 22.8915, -151.355, -102.529, 80.8496
9.60714, 78, -1.15749, 6.2719, 22.905, -151.361, -102.528, 80.4787
9.61812, 78, -1.06984, 6.19171, 22.9302, -151.373, -102.514, 79.9277
9.62317, 79, -1.0406, 6.16191, 22.94, -151.378, -102.506, 79.7453
9.63114, 79, -0.982012, 6.09778, 22.9613, -151.387, -102.486, 79.3826
9.63917, 79, -0.923299, 6.02744, 22.9854, -151.398, -102.459, 79.0234
9.64729, 79, -0.864635, 5.95093, 23.0122, -151.41, -102.425, 78.6673
9.65611, 79, -0.805899, 5.8685, 23.0415, -151.423, -102.385, 78.3139
9.66418, 79, -0.747139, 5.77992, 23.0738, -151.437, -102.338, 77.964
9.67212, 79, -0.688486, 5.68525, 23.1089, -151.452, -102.284, 77.6174
9.68014, 79, -0.629793, 5.58451, 23.1467, -151.468, -102.224, 77.2741
9.68818, 79, -0.571175, 5.47757, 23.1874, -151.485, -102.157, 76.9346
9.69614, 80, -0.512568, 5.36423, 23.2312, -151.502, -102.082, 76.5987
9.70419, 80, -0.453992, 5.24479, 23.278, -151.52, -102.001, 76.2661
9.71214, 80, -0.395514, 5.1192, 23.3276, -151.538, -101.914, 75.9372
9.72091, 80, -0.337035, 4.98741, 23.3803, -151.556, -101.819, 75.6121
9.72895, 80, -0.278668, 4.84931, 23.4361, -151.576, -101.718, 75.2906
9.73519, 80, -0.220358, 4.70484, 23.4951, -151.596, -101.609, 74.9726
9.74316, 80, -0.162066, 4.5542, 23.5573, -151.617, -101.494, 74.6588
9.75116, 80, -0.103906, 4.39778, 23.6226, -151.638, -101.372, 74.3486
9.75918, 81, -0.0457063, 4.23527, 23.6911, -151.659, -101.243, 74.0419
9.76713, 81, 0.0125253, 4.06621, 23.7628, -151.681, -101.107, 73.7386
9.77952, 81, 0.0996813, 3.80073, 23.8764, -151.713, -100.891, 73.2908
9.78344, 81, 0.128748, 3.70944, 23.916, -151.724, -100.815, 73.1434
9.79122, 81, 0.186624, 3.52298, 23.9977, -151.746, -100.658, 72.8512
9.80012, 81, 0.244362, 3.33053, 24.0828, -151.769, -100.495, 72.5629
9.80751, 81, 0.301962, 3.13122, 24.1717, -151.792, -100.324, 72.2785
9.81523, 81, 0.3594, 2.92613, 24.2639, -151.814, -100.147, 71.9974
9.82331, 81, 0.416872, 2.71582, 24.3596, -151.837, -99.9625, 71.7199
9.83165, 82, 0.47437, 2.49937, 24.4585, -151.859, -99.7716, 71.4457
9.84013, 82, 0.531745, 2.27636, 24.5609, -151.882, -99.5742, 71.1752
9.84797, 82, 0.589152, 2.04771, 24.667, -151.905, -99.3702, 70.9081
9.85621, 82, 0.646534, 1.81298, 24.7768, -151.927, -99.1597, 70.6442
9.86325, 82, 0.703653, 1.5715, 24.8904, -151.949, -98.9423, 70.3838
9.87221, 82, 0.760756, 1.32429, 25.0077, -151.971, -98.7185, 70.1271
9.88099, 82, 0.817857, 1.07124, 25.1283, -151.993, -98.4881, 69.8739
9.88817, 82, 0.874982, 0.811985, 25.2524, -152.014, -98.2515, 69.6236
9.89593, 83, 0.932242, 0.547738, 25.3801, -152.036, -98.0087, 69.3763
9.90423, 83, 0.989527, 0.277459, 25.5117, -152.057, -97.76, 69.1323
9.91167, 83, 1.04688, 0.00116738, 25.6473, -152.078, -97.5052, 68.8915
9.9209, 83, 1.10428, -0.279854, 25.7861, -152.098, -97.2441, 68.6537
9.9294, 83, 1.16154, -0.566215, 25.9284, -152.117, -96.9769, 68.419
9.93572, 83, 1.21881, -0.857087, 26.0745, -152.136, -96.7035, 68.1874
9.94672, 83, 1.27623, -1.1532, 26.2242, -152.155, -96.4244, 67.9593
9.9525, 83, 1.3049, -1.30346, 26.3004, -152.164, -96.1397, 67.7343
9.95971, 83, 1.36232, -1.60754, 26.4554, -152.183, -95.9951, 67.6229
9.96815, 84, 1.44866, -2.07369, 26.6948, -152.209, -95.5534, 67.293
9.97511, 84, 1.47749, -2.23139, 26.7766, -152.218, -95.4035, 67.1846
9.98503, 84, 1.56433, -2.71135, 27.0268, -152.242, -94.9452, 66.8643
9.99225, 84, 1.62239, -3.03742, 27.1971, -152.257, -94.6327, 66.6549
9.99934, 84, 1.65145, -3.20203, 27.2838, -152.264, -94.4746, 66.5514
10.0071, 84, 1.70966, -3.53505, 27.4606, -152.278, -94.1545, 66.3465
10.0165, 84, 1.79731, -4.04203, 27.7328, -152.298, -93.665, 66.0446
10.0231, 84, 1.82662, -4.21333, 27.8247, -152.304, -93.4996, 65.9454
10.033, 85, 1.91479, -4.73359, 28.1056, -152.323, -92.9961, 65.6528
10.0406, 85, 1.97388, -5.08582, 28.2976, -152.334, -92.655, 65.4615
10.0471, 85, 2.00357, -5.26296, 28.3946, -152.339, -92.4827, 65.3671
10.0567, 85, 2.0929, -5.7998, 28.69, -152.353, -91.9598, 65.0885
10.0656, 85, 2.1526, -6.16153, 28.8919, -152.362, -91.6058, 64.907
10.073, 85, 2.21249, -6.52668, 29.097, -152.369, -91.2479, 64.7286
10.0812, 85, 2.2726, -6.8942, 29.3046, -152.375, -90.8865, 64.5538
10.0871, 85, 2.30276, -7.07917, 29.4096, -152.378, -90.7045, 64.4676
10.0961, 85, 2.3632, -7.45133, 29.6221, -152.383, -90.3377, 64.2973
10.1041, 86, 2.4239, -7.82705, 29.8366, -152.386, -89.9675, 64.1304
10.1121, 86, 2.48515, -8.20537, 30.0537, -152.389, -89.5941, 63.9669
10.1201, 86, 2.54679, -8.58619, 30.2741, -152.39, -89.2175, 63.8071
10.1271, 86, 2.60874, -8.96939, 30.4969, -152.391, -88.8379, 63.6513
10.1351, 86, 2.67109, -9.35475, 30.722, -152.391, -88.4559, 63.4996
10.1455, 86, 2.76492, -9.93579, 31.0651, -152.39, -87.8776, 63.2789
10.1615, 86, 2.85916, -10.5207, 31.4122, -152.384, -87.0987, 62.9979
10.163, 86, 2.89063, -10.7166, 31.5294, -152.384, -87.0987, 62.9979
10.1721, 87, 2.95382, -11.109, 31.7651, -152.379, -86.7061, 62.8633
10.1761, 87, 2.98554, -11.3053, 31.8834, -152.376, -86.5091, 62.7976
10.1832, 87, 3.0492, -11.6991, 32.1217, -152.368, -86.1137, 62.6696
10.1911, 87, 3.11327, -12.0939, 32.362, -152.359, -85.7166, 62.5462
10.1993, 87, 3.17778, -12.4899, 32.6033, -152.349, -85.318, 62.4279
10.2074, 87, 3.24261, -12.8862, 32.8471, -152.337, -84.9181, 62.3145
10.2151, 87, 3.30768, -13.2833, 33.0926, -152.323, -84.5168, 62.2055
10.2231, 87, 3.37284, -13.681, 33.3391, -152.308, -84.1144, 62.1014
10.2312, 87, 3.43831, -14.0788, 33.5872, -152.291, -83.711, 62.0022
10.2391, 88, 3.50402, -14.4768, 33.8359, -152.274, -83.3066, 61.9078
10.2486, 88, 3.56989, -14.8747, 34.0859, -152.255, -82.9019, 61.8188
10.2569, 88, 3.63607, -15.2726, 34.3376, -152.234, -82.4963, 61.7354
10.2632, 88, 3.70258, -15.6697, 34.5898, -152.212, -82.0902, 61.6579
10.2711, 88, 3.76921, -16.0662, 34.8432, -152.187, -81.684, 61.587
10.2792, 88, 3.83575, -16.4618, 35.0972, -152.161, -81.2776, 61.5211
10.2872, 88, 3.90253, -16.8571, 35.3515, -152.133, -80.8708, 61.4614
10.2953, 88, 3.96947, -17.2512, 35.607, -152.105, -80.4644, 61.4083
10.3032, 88, 4.03658, -17.6447, 35.8627, -152.074, -80.0579, 61.361
10.3112, 89, 4.10364, -18.037, 36.1191, -152.042, -79.6514, 61.3198
10.3193, 89, 4.17088, -18.4285, 36.3761, -152.007, -79.2448, 61.2856
10.3279, 89, 4.23838, -18.8181, 36.6327, -151.971, -78.8383, 61.2589
10.3352, 89, 4.30587, -19.207, 36.8898, -151.932, -78.4323, 61.2401
10.3433, 89, 4.37344, -19.5947, 37.1466, -151.891, -78.0274, 61.2288
10.3522, 89, 4.44094, -19.9807, 37.4035, -151.849, -77.6229, 61.2238
10.3592, 89, 4.50841, -20.3645, 37.661, -151.805, -77.219, 61.2251
10.3673, 89, 4.57586, -20.7469, 37.9182, -151.759, -76.8158, 61.2344
10.3764, 90, 4.64333, -21.1275, 38.1755, -151.711, -76.4129, 61.2518
10.3834, 90, 4.71075, -21.5062, 38.4326, -151.661, -76.0102, 61.2771
10.3919, 90, 4.77803, -21.8827, 38.6891, -151.609, -75.6083, 61.3115
10.4024, 90, 4.84531, -22.2578, 38.946, -151.554, -75.2071, 61.3547
10.4084, 90, 4.9125, -22.6312, 39.2018, -151.499, -74.8067, 61.4063
10.4172, 90, 4.97974, -23.0028, 39.4576, -151.439, -74.4073, 61.4672
10.4245, 90, 5.047, -23.3721, 39.7131, -151.379, -74.0084, 61.5384
10.4317, 90, 5.11419, -23.7399, 39.9678, -151.316, -73.6102, 61.6183
10.4402, 90, 5.18137, -24.1054, 40.2226, -151.25, -73.2127, 61.7087
10.4483, 91, 5.21483, -24.2873, 40.3496, -151.217, -72.8158, 61.8087
10.4558, 91, 5.28162, -24.6485, 40.6028, -151.113, -72.4195, 61.919
10.4648, 91, 5.38148, -25.1868, 40.9826, -151.041, -72.0238, 62.0392
10.4729, 91, 5.4478, -25.5428, 41.2347, -150.966, -71.6287, 62.1701
10.4805, 91, 5.51407, -25.8971, 41.4864, -150.889, -71.2343, 62.312
10.4888, 91, 5.58058, -26.2488, 41.7374, -150.81, -70.8408, 62.4647
10.497, 91, 5.64712, -26.5987, 41.9873, -150.729, -70.4477, 62.6289
10.5043, 91, 5.71361, -26.946, 42.2369, -150.645, -70.0552, 62.8046
10.5112, 91, 5.74695, -27.119, 42.3612, -150.603, -69.8592, 62.8969
10.5191, 92, 5.81358, -27.4629, 42.6089, -150.516, -69.4674, 63.0901
10.5276, 92, 5.88002, -27.8043, 42.8563, -150.427, -69.0757, 63.295
10.5351, 92, 5.94663, -28.1442, 43.1029, -150.336, -68.6842, 63.5119
10.5431, 92, 6.01332, -28.4817, 43.3484, -150.243, -68.2929, 63.7411
10.5545, 92, 6.11368, -28.9835, 43.7154, -150.1, -67.7064, 64.1086
10.5614, 92, 6.18074, -29.3144, 43.9579, -150.003, -67.3158, 64.3694
10.567, 92, 6.21439, -29.4792, 44.0789, -149.953, -67.1204, 64.5045
10.5772, 92, 6.31603, -29.9692, 44.4408, -149.803, -66.5352, 64.93
10.5841, 93, 6.35009, -30.1315, 44.5606, -149.753, -66.34, 65.079
10.5921, 93, 6.41854, -30.4535, 44.7998, -149.65, -65.9497, 65.3873
10.6001, 93, 6.48746, -30.7727, 45.0379, -149.546, -65.5594, 65.7103
10.6082, 93, 6.55733, -31.0902, 45.2739, -149.441, -65.1692, 66.0486
10.6151, 93, 6.62794, -31.4051, 45.5088, -149.335, -64.7789, 66.4022
10.6232, 93, 6.69921, -31.7177, 45.742, -149.228, -64.3886, 66.7705
10.6311, 93, 6.77128, -32.0265, 45.9731, -149.121, -63.9983, 67.1534
10.6391, 93, 6.84417, -32.3324, 46.2031, -149.015, -63.6074, 67.5508
10.6472, 93, 6.91826, -32.6357, 46.4313, -148.909, -63.2167, 67.9623
10.6552, 94, 6.99337, -32.9353, 46.6572, -148.804, -62.8258, 68.3895
10.6631, 94, 7.06968, -33.2317, 46.8815, -148.7, -62.4351, 68.8328
10.6711, 94, 7.14766, -33.5241, 47.1028, -148.596, -62.0445, 69.2934
10.6802, 94, 7.22746, -33.8134, 47.3211, -148.494, -61.6541, 69.7711
10.6872, 94, 7.30892, -34.0994, 47.5375, -148.394, -61.264, 70.2648
10.6951, 94, 7.3922, -34.3811, 47.7512, -148.295, -60.8737, 70.7752
10.7049, 94, 7.47744, -34.6593, 47.9619, -148.2, -60.484, 71.301
10.7111, 94, 7.5646, -34.9327, 48.1701, -148.109, -60.0944, 71.8421
10.7201, 95, 7.65375, -35.2008, 48.3748, -148.021, -59.7057, 72.3979
10.7304, 95, 7.79144, -35.5945, 48.6735, -147.899, -59.1255, 73.2621
10.7352, 95, 7.83852, -35.7231, 48.7712, -147.86, -58.9328, 73.5587
10.7431, 95, 7.93475, -35.977, 48.9636, -147.787, -58.5489, 74.1648
10.7512, 95, 8.03364, -36.226, 49.1508, -147.718, -58.1667, 74.7869
10.7593, 95, 8.13499, -36.4684, 49.3334, -147.656, -57.7861, 75.4261
10.7681, 95, 8.23881, -36.7043, 49.5122, -147.599, -57.4072, 76.0805
10.7753, 95, 8.3453, -36.9344, 49.6864, -147.549, -57.0308, 76.748
10.7831, 95, 8.4544, -37.157, 49.8546, -147.507, -56.6569, 77.4295
10.7912, 96, 8.56581, -37.3718, 50.0175, -147.473, -56.2864, 78.125
10.7992, 96, 8.67989, -37.5795, 50.1744, -147.446, -55.9206, 78.8332
10.8072, 96, 8.79672, -37.78, 50.3241, -147.429, -55.5602, 79.5555
10.8152, 96, 8.9167, -37.9726, 50.4667, -147.419, -55.205, 80.2928
10.8233, 96, 9.03931, -38.1569, 50.6027, -147.417, -54.8551, 81.0415
10.8316, 96, 9.1642, -38.3327, 50.732, -147.425, -54.5102, 81.8021
10.8391, 96, 9.29134, -38.4991, 50.8547, -147.442, -54.1706, 82.5747
10.8472, 96, 9.42066, -38.6555, 50.9705, -147.469, -53.837, 83.3558
10.8567, 97, 9.55132, -38.8014, 51.0786, -147.505, -53.5102, 84.1462
10.8641, 97, 9.68337, -38.9369, 51.1785, -147.55, -53.1914, 84.9462
10.8721, 97, 9.81729, -39.0628, 51.2696, -147.607, -52.882, 85.7516
10.8822, 97, 9.95318, -39.179, 51.3516, -147.673, -52.5831, 86.564
10.8883, 97, 10.0906, -39.2846, 51.4247, -147.749, -52.2949, 87.3843
10.8954, 97, 10.229, -39.3786, 51.4891, -147.834, -52.0167, 88.2082
10.9036, 97, 10.3684, -39.4606, 51.5452, -147.928, -51.7479, 89.0389
10.9122, 97, 10.5078, -39.5303, 51.5928, -148.03, -51.4889, 89.8728
10.9196, 97, 10.6469, -39.5877, 51.6317, -148.14, -51.2399, 90.7074
10.9282, 98, 10.7852, -39.6323, 51.6614, -148.259, -51.0024, 91.5455
10.9356, 98, 10.9228, -39.6646, 51.6817, -148.384, -50.778, 92.3821
10.9442, 98, 11.0601, -39.6856, 51.6922, -148.518, -50.5682, 93.2178
10.9527, 98, 11.1286, -39.6953, 51.6926, -148.659, -50.3734, 94.0528
10.9638, 98, 11.3329, -39.6931, 51.6748, -148.881, -50.1079, 95.2972
10.9681, 98, 11.4674, -39.6778, 51.6642, -148.958, -50.0263, 95.7113
10.9751, 98, 11.5341, -39.6652, 51.6513, -149.035, -49.9481, 96.1245
10.9831, 98, 11.6659, -39.6305, 51.6189, -149.194, -49.8016, 96.9458
10.9922, 99, 11.8589, -39.5534, 51.5531, -149.44, -49.6074, 98.1707
10.9991, 99, 11.9219, -39.5211, 51.5265, -149.523, -49.5501, 98.5757
11.0084, 99, 12.1075, -39.4052, 51.432, -149.777, -49.4019, 99.7764
11.0151, 99, 12.1682, -39.3607, 51.3955, -149.863, -49.3611, 100.173
11.0247, 99, 12.346, -39.2095, 51.271, -150.123, -49.2629, 101.347
11.0325, 99, 12.4601, -39.0927, 51.1759, -150.297, -49.2186, 102.117
11.0406, 99, 12.5707, -38.963, 51.0717, -150.471, -49.1897, 102.878
11.0487, 99, 12.6774, -38.8208, 50.959, -150.644, -49.1753, 103.627
11.0566, 99, 12.7802, -38.6662, 50.8376, -150.816, -49.1749, 104.366
11.0647, 100, 12.879, -38.4998, 50.7076, -150.987, -49.1902, 105.093
11.0727, 100, 12.974, -38.3225, 50.5686, -151.155, -49.221, 105.807
11.0816, 100, 13.02, -38.2297, 50.4958, -151.238, -49.2426, 106.509
11.0873, 100, 13.1094, -38.0356, 50.3439, -151.402, -49.2997, 106.854
11.0961, 100, 13.1948, -37.83, 50.1839, -151.563, -49.3728, 107.535
11.1041, 100, 13.2754, -37.6134, 50.0156, -151.72, -49.4622, 108.201
11.1121, 100, 13.3512, -37.3857, 49.8388, -151.874, -49.5666, 108.853
11.1191, 100, 13.4225, -37.1464, 49.6547, -152.022, -49.686, 109.492
11.1283, 101, 13.4893, -36.8963, 49.4632, -152.166, -49.8197, 110.117
11.1351, 101, 13.5515, -36.635, 49.2634, -152.305, -49.9682, 110.729
11.1431, 101, 13.6095, -36.3625, 49.0554, -152.439, -50.1315, 111.326
11.1521, 101, 13.6633, -36.0811, 48.8406, -152.567, -50.31, 111.909
11.1601, 101, 13.713, -35.7899, 48.6179, -152.69, -50.5039, 112.475
11.1681, 101, 13.7585, -35.4893, 48.3874, -152.806, -50.7119, 113.028
11.1764, 101, 13.7995, -35.1789, 48.1511, -152.917, -50.9338, 113.566
11.1832, 101, 13.8361, -34.858, 47.9079, -153.022, -51.1686, 114.091
11.1911, 101, 13.8685, -34.5278, 47.6585, -153.121, -51.4157, 114.602
11.1991, 102, 13.8966, -34.1877, 47.4034, -153.214, -51.6752, 115.099
11.2071, 102, 13.9205, -33.8388, 47.1414, -153.3, -51.9472, 115.583
11.2151, 102, 13.9406, -33.481, 46.8738, -153.38, -52.2321, 116.054
11.2231, 102, 13.9573, -33.1165, 46.6001, -153.454, -52.5298, 116.51
11.2321, 102, 13.9707, -32.7443, 46.3206, -153.522, -52.8401, 116.952
11.2391, 102, 13.9804, -32.3644, 46.0362, -153.584, -53.1617, 117.383
11.2471, 102, 13.9868, -31.976, 45.7465, -153.64, -53.4939, 117.8
11.2561, 102, 13.9898, -31.5804, 45.4526, -153.69, -53.8357, 118.207
11.2644, 103, 13.9895, -31.1779, 45.1538, -153.735, -54.1867, 118.601
11.2712, 103, 13.9859, -30.7686, 44.8514, -153.774, -54.547, 118.984
11.2792, 103, 13.9792, -30.3521, 44.5446, -153.807, -54.9167, 119.355
11.2871, 103, 13.9698, -29.9298, 44.234, -153.835, -55.2962, 119.715
11.2953, 103, 13.9582, -29.5028, 43.9192, -153.857, -55.6852, 120.063
11.3032, 103, 13.9442, -29.0695, 43.6006, -153.874, -56.0835, 120.4
11.3112, 103, 13.9277, -28.6303, 43.2788, -153.886, -56.4896, 120.728
11.3192, 103, 13.9086, -28.186, 42.9547, -153.893, -56.9026, 121.045
11.3272, 103, 13.8873, -27.7363, 42.6282, -153.897, -57.3217, 121.353
11.3351, 104, 13.8638, -27.2816, 42.3, -153.897, -57.7466, 121.651
11.3433, 104, 13.838, -26.8221, 41.9696, -153.891, -58.1775, 121.941
11.3511, 104, 13.8104, -26.3594, 41.6368, -153.88, -58.6146, 122.22
11.3594, 104, 13.7816, -25.8939, 41.3021, -153.865, -59.0579, 122.489
11.3673, 104, 13.7516, -25.4258, 40.9663, -153.846, -59.5074, 122.75
11.3752, 104, 13.7203, -24.9555, 40.6293, -153.823, -59.9617, 123.002
11.3836, 104, 13.6884, -24.4827, 40.2912, -153.797, -60.4192, 123.247
11.3914, 104, 13.6557, -24.0083, 39.9527, -153.767, -60.8792, 123.487
11.3994, 104, 13.6221, -23.5326, 39.6148, -153.734, -61.3408, 123.723
11.4079, 104, 13.5879, -23.0556, 39.2775, -153.7, -61.8033, 123.956
11.4162, 104, 13.5531, -22.5783, 38.9415, -153.664, -62.266, 124.188
11.4236, 104, 13.5181, -22.1011, 38.6065, -153.625, -62.7286, 124.419
11.4322, 104, 13.483, -21.6245, 38.2726, -153.584, -63.191, 124.648
11.4396, 104, 13.448, -21.1491, 37.9398, -153.543, -63.6531, 124.876
11.4482, 104, 13.4128, -20.6745, 37.6086, -153.499, -64.1145, 125.103
11.4567, 104, 13.3779, -20.2006, 37.2786, -153.454, -64.5751, 125.33
11.4643, 104, 13.3432, -19.7274, 36.9504, -153.407, -65.0355, 125.555
11.4711, 104, 13.326, -19.4911, 36.7868, -153.383, -65.2655, 125.667
11.4809, 104, 13.2741, -18.783, 36.2979, -153.308, -65.9544, 126.003
11.4882, 104, 13.2396, -18.312, 35.9737, -153.257, -66.4134, 126.226
11.4951, 104, 13.2224, -18.0766, 35.8123, -153.231, -66.6428, 126.338
11.5053, 104, 13.1707, -17.3722, 35.3309, -153.149, -67.3294, 126.671
11.5111, 104, 13.1536, -17.1379, 35.1708, -153.122, -67.5578, 126.781
11.5204, 104, 13.1024, -16.4365, 34.6931, -153.035, -68.2419, 127.112
11.5271, 104, 13.0854, -16.2033, 34.5344, -153.006, -68.4696, 127.223
11.5351, 104, 13.0517, -15.7375, 34.2191, -152.947, -68.9247, 127.443
11.5446, 104, 13.0018, -15.0406, 33.7488, -152.854, -69.6063, 127.772
11.5535, 104, 12.9687, -14.5772, 33.4373, -152.791, -70.0601, 127.99
11.5591, 104, 12.9523, -14.3455, 33.2819, -152.759, -70.2868, 128.099
11.5687, 104, 12.9035, -13.6518, 32.8192, -152.66, -70.9648, 128.426
11.5774, 104, 12.8873, -13.4211, 32.5124, -152.592, -71.4156, 128.644
11.5831, 104, 12.8548, -12.9605, 32.3598, -152.558, -71.6408, 128.752
11.5921, 104, 12.8226, -12.501, 32.056, -152.489, -72.0908, 128.969
11.6001, 104, 12.7904, -12.0426, 31.7536, -152.418, -72.5401, 129.186
11.6081, 104, 12.7584, -11.5857, 31.4532, -152.346, -72.9883, 129.402
11.6175, 104, 12.7113, -10.902, 31.0051, -152.235, -73.6594, 129.727
