rpiRobotics/ARM-21-02-F-19-Robot-Motion-Program/data_performance_abb/curve_1/curve_pose_opt1/greedy0.02/realrobot/run_4.csv
timestamp,cmd_num,J1,J2,J3,J4,J5,J6
1.500000071246176958e-04,-1.000000000000000000e+00,-3.460015487670898438e+01,4.793055725097656250e+01,2.988686943054199219e+01,1.086464538574218750e+02,9.417926788330078125e+01,-2.775200843811035156e+00,4.031498432159423828e-01,-6.667009735107421875e+01,-1.826863250732421875e+02,-2.342460393905639648e+00,7.562065887451171875e+01,3.135675048828125000e+01
4.007999785244464874e-03,1.000000000000000000e+00,-3.460015487670898438e+01,4.793048858642578125e+01,2.988683128356933594e+01,1.086463546752929688e+02,9.417926788330078125e+01,-2.775336503982543945e+00,4.031498432159423828e-01,-6.667009735107421875e+01,-1.826863250732421875e+02,-2.342245101928710938e+00,7.562081146240234375e+01,3.135675048828125000e+01
1.119599957019090652e-02,1.000000000000000000e+00,-3.460020828247070312e+01,4.793051147460937500e+01,2.988686943054199219e+01,1.086464538574218750e+02,9.417916107177734375e+01,-2.775200843811035156e+00,4.031498432159423828e-01,-6.667009735107421875e+01,-1.826863250732421875e+02,-2.342316627502441406e+00,7.562065887451171875e+01,3.135697174072265625e+01
1.469799969345331192e-02,1.000000000000000000e+00,-3.460020828247070312e+01,4.793051147460937500e+01,2.988683128356933594e+01,1.086465072631835938e+02,9.417937469482421875e+01,-2.775336503982543945e+00,4.031498432159423828e-01,-6.667009735107421875e+01,-1.826863250732421875e+02,-2.342316627502441406e+00,7.562065887451171875e+01,3.135697174072265625e+01
4.084200039505958557e-02,1.000000000000000000e+00,-3.460020828247070312e+01,4.793055725097656250e+01,2.988683128356933594e+01,1.086464538574218750e+02,9.417916107177734375e+01,-2.775200843811035156e+00,4.031498432159423828e-01,-6.667009735107421875e+01,-1.826863250732421875e+02,-2.342316627502441406e+00,7.562065887451171875e+01,3.135697174072265625e+01
4.354000091552734375e-02,1.000000000000000000e+00,-3.460015487670898438e+01,4.793051147460937500e+01,2.988683128356933594e+01,1.086462936401367188e+02,9.417926788330078125e+01,-2.774997472763061523e+00,4.031498432159423828e-01,-6.667009735107421875e+01,-1.826863250732421875e+02,-2.342460393905639648e+00,7.562065887451171875e+01,3.135697174072265625e+01
4.486500099301338196e-02,1.000000000000000000e+00,-3.460015487670898438e+01,4.793051147460937500e+01,2.988683128356933594e+01,1.086462936401367188e+02,9.417926788330078125e+01,-2.774997472763061523e+00,4.031498432159423828e-01,-6.667009735107421875e+01,-1.826863250732421875e+02,-2.342460393905639648e+00,7.562065887451171875e+01,3.135697174072265625e+01
5.280699953436851501e-02,1.000000000000000000e+00,-3.460020828247070312e+01,4.793055725097656250e+01,2.988686943054199219e+01,1.086464538574218750e+02,9.417937469482421875e+01,-2.775200843811035156e+00,4.031498432159423828e-01,-6.667009735107421875e+01,-1.826863250732421875e+02,-2.342316627502441406e+00,7.562051391601562500e+01,3.135697174072265625e+01
5.600300058722496033e-02,1.000000000000000000e+00,-3.460029602050781250e+01,4.793048858642578125e+01,2.988683128356933594e+01,1.086463546752929688e+02,9.417926788330078125e+01,-2.775336503982543945e+00,4.031498432159423828e-01,-6.667009735107421875e+01,-1.826863250732421875e+02,-2.342316627502441406e+00,7.562065887451171875e+01,3.135719108581542969e+01
5.829299986362457275e-02,1.000000000000000000e+00,-3.460029602050781250e+01,4.793048858642578125e+01,2.988683128356933594e+01,1.086463546752929688e+02,9.417926788330078125e+01,-2.775336503982543945e+00,4.031498432159423828e-01,-6.667009735107421875e+01,-1.826863250732421875e+02,-2.342316627502441406e+00,7.562065887451171875e+01,3.135719108581542969e+01
5.969399958848953247e-02,1.000000000000000000e+00,-3.460055541992187500e+01,4.793035125732421875e+01,2.988683128356933594e+01,1.086462936401367188e+02,9.417937469482421875e+01,-2.775336503982543945e+00,4.031498432159423828e-01,-6.667009735107421875e+01,-1.826863250732421875e+02,-2.342245101928710938e+00,7.562065887451171875e+01,3.135697174072265625e+01
6.113800033926963806e-02,1.000000000000000000e+00,-3.460055541992187500e+01,4.793035125732421875e+01,2.988683128356933594e+01,1.086462936401367188e+02,9.417937469482421875e+01,-2.775336503982543945e+00,4.031498432159423828e-01,-6.667009735107421875e+01,-1.826863250732421875e+02,-2.342245101928710938e+00,7.562065887451171875e+01,3.135697174072265625e+01
6.726200133562088013e-02,1.000000000000000000e+00,-3.460261917114257812e+01,4.792892837524414062e+01,2.988686943054199219e+01,1.086463546752929688e+02,9.417948150634765625e+01,-2.775336503982543945e+00,4.031498432159423828e-01,-6.667009735107421875e+01,-1.826863250732421875e+02,-2.342316627502441406e+00,7.562065887451171875e+01,3.135697174072265625e+01
6.860099732875823975e-02,1.000000000000000000e+00,-3.460261917114257812e+01,4.792892837524414062e+01,2.988686943054199219e+01,1.086463546752929688e+02,9.417948150634765625e+01,-2.775336503982543945e+00,4.031498432159423828e-01,-6.667009735107421875e+01,-1.826863250732421875e+02,-2.342316627502441406e+00,7.562065887451171875e+01,3.135697174072265625e+01
7.109600305557250977e-02,1.000000000000000000e+00,-3.460451507568359375e+01,4.792702484130859375e+01,2.988686943054199219e+01,1.086462936401367188e+02,9.417937469482421875e+01,-2.775200843811035156e+00,4.031498432159423828e-01,-6.667009735107421875e+01,-1.826863250732421875e+02,-2.342245101928710938e+00,7.562081146240234375e+01,3.135675048828125000e+01
7.235900312662124634e-02,1.000000000000000000e+00,-3.460451507568359375e+01,4.792702484130859375e+01,2.988686943054199219e+01,1.086462936401367188e+02,9.417937469482421875e+01,-2.775200843811035156e+00,4.031498432159423828e-01,-6.667009735107421875e+01,-1.826863250732421875e+02,-2.342245101928710938e+00,7.562081146240234375e+01,3.135675048828125000e+01
7.605800032615661621e-02,1.000000000000000000e+00,-3.460698318481445312e+01,4.792362976074218750e+01,2.988686943054199219e+01,1.086462936401367188e+02,9.417937469482421875e+01,-2.775200843811035156e+00,4.031498432159423828e-01,-6.667009735107421875e+01,-1.826863250732421875e+02,-2.342316627502441406e+00,7.562065887451171875e+01,3.135697174072265625e+01
7.732400298118591309e-02,1.000000000000000000e+00,-3.460698318481445312e+01,4.792362976074218750e+01,2.988686943054199219e+01,1.086462936401367188e+02,9.417937469482421875e+01,-2.775200843811035156e+00,4.031498432159423828e-01,-6.667009735107421875e+01,-1.826863250732421875e+02,-2.342316627502441406e+00,7.562065887451171875e+01,3.135697174072265625e+01
7.986699789762496948e-02,1.000000000000000000e+00,-3.461005783081054688e+01,4.791865158081054688e+01,2.988693046569824219e+01,1.086459808349609375e+02,9.417948150634765625e+01,-2.775336503982543945e+00,4.031498432159423828e-01,-6.667009735107421875e+01,-1.826864318847656250e+02,-2.342245101928710938e+00,7.562065887451171875e+01,3.135697174072265625e+01
8.120500296354293823e-02,1.000000000000000000e+00,-3.461005783081054688e+01,4.791865158081054688e+01,2.988693046569824219e+01,1.086459808349609375e+02,9.417948150634765625e+01,-2.775336503982543945e+00,4.031498432159423828e-01,-6.667009735107421875e+01,-1.826864318847656250e+02,-2.342245101928710938e+00,7.562065887451171875e+01,3.135697174072265625e+01
8.515799790620803833e-02,1.000000000000000000e+00,-3.461370086669921875e+01,4.791177368164062500e+01,2.988703346252441406e+01,1.086449813842773438e+02,9.417964172363281250e+01,-2.775200843811035156e+00,4.031498432159423828e-01,-6.667009735107421875e+01,-1.826863250732421875e+02,-2.342460393905639648e+00,7.562065887451171875e+01,3.135719108581542969e+01
8.780600130558013916e-02,1.000000000000000000e+00,-3.461803436279296875e+01,4.790319442749023438e+01,2.988729667663574219e+01,1.086427154541015625e+02,9.418017578125000000e+01,-2.775539875030517578e+00,4.031498432159423828e-01,-6.667009735107421875e+01,-1.826863250732421875e+02,-2.342245101928710938e+00,7.562065887451171875e+01,3.135697174072265625e+01
9.107699990272521973e-02,1.000000000000000000e+00,-3.462317657470703125e+01,4.789314651489257812e+01,2.988796806335449219e+01,1.086386032104492188e+02,9.418076324462890625e+01,-2.776014804840087891e+00,4.031498432159423828e-01,-6.667009735107421875e+01,-1.826863250732421875e+02,-2.342245101928710938e+00,7.562065887451171875e+01,3.135719108581542969e+01
9.239300340414047241e-02,1.000000000000000000e+00,-3.462317657470703125e+01,4.789314651489257812e+01,2.988796806335449219e+01,1.086386032104492188e+02,9.418076324462890625e+01,-2.776014804840087891e+00,4.031498432159423828e-01,-6.667009735107421875e+01,-1.826863250732421875e+02,-2.342245101928710938e+00,7.562065887451171875e+01,3.135719108581542969e+01
9.683100134134292603e-02,1.000000000000000000e+00,-3.462317657470703125e+01,4.789314651489257812e+01,2.988796806335449219e+01,1.086386032104492188e+02,9.418076324462890625e+01,-2.776014804840087891e+00,4.031498432159423828e-01,-6.667009735107421875e+01,-1.826863250732421875e+02,-2.342245101928710938e+00,7.562081146240234375e+01,3.135719108581542969e+01
1.000899970531463623e-01,1.000000000000000000e+00,-3.463629531860351562e+01,4.786621856689453125e+01,2.989048957824707031e+01,1.086260147094726562e+02,9.418412017822265625e+01,-2.779812335968017578e+00,4.031498432159423828e-01,-6.667009735107421875e+01,-1.826863250732421875e+02,-2.342245101928710938e+00,7.562065887451171875e+01,3.135697174072265625e+01
1.013609990477561951e-01,1.000000000000000000e+00,-3.463629531860351562e+01,4.786621856689453125e+01,2.989048957824707031e+01,1.086260147094726562e+02,9.418412017822265625e+01,-2.779812335968017578e+00,4.031498432159423828e-01,-6.667009735107421875e+01,-1.826863250732421875e+02,-2.342245101928710938e+00,7.562065887451171875e+01,3.135697174072265625e+01
1.041690036654472351e-01,1.000000000000000000e+00,-3.464479446411132812e+01,4.784879302978515625e+01,2.989260292053222656e+01,1.086164321899414062e+02,9.418672943115234375e+01,-2.782932043075561523e+00,4.031498432159423828e-01,-6.667009735107421875e+01,-1.826863250732421875e+02,-2.342316627502441406e+00,7.562065887451171875e+01,3.135697174072265625e+01
1.070030033588409424e-01,1.000000000000000000e+00,-3.464479446411132812e+01,4.784879302978515625e+01,2.989260292053222656e+01,1.086164321899414062e+02,9.418672943115234375e+01,-2.782932043075561523e+00,4.031498432159423828e-01,-6.667009735107421875e+01,-1.826863250732421875e+02,-2.342316627502441406e+00,7.562065887451171875e+01,3.135697174072265625e+01
1.120819970965385437e-01,1.000000000000000000e+00,-3.466592025756835938e+01,4.780651855468750000e+01,2.989943695068359375e+01,1.085884094238281250e+02,9.419473266601562500e+01,-2.790798664093017578e+00,4.031498432159423828e-01,-6.667009735107421875e+01,-1.826863250732421875e+02,-2.342460393905639648e+00,7.562065887451171875e+01,3.135675048828125000e+01
1.150979995727539062e-01,1.000000000000000000e+00,-3.466592025756835938e+01,4.780651855468750000e+01,2.989943695068359375e+01,1.085884094238281250e+02,9.419473266601562500e+01,-2.790798664093017578e+00,4.031498432159423828e-01,-6.667009735107421875e+01,-1.826863250732421875e+02,-2.342460393905639648e+00,7.562065887451171875e+01,3.135675048828125000e+01
1.190600022673606873e-01,1.000000000000000000e+00,-3.467875289916992188e+01,4.778121948242187500e+01,2.990453910827636719e+01,1.085686569213867188e+02,9.420016479492187500e+01,-2.796495199203491211e+00,4.031498432159423828e-01,-6.667019653320312500e+01,-1.826863250732421875e+02,-2.342316627502441406e+00,7.562051391601562500e+01,3.135697174072265625e+01
1.239380016922950745e-01,1.000000000000000000e+00,-3.469333648681640625e+01,4.775295639038085938e+01,2.991098403930664062e+01,1.085452194213867188e+02,9.420673370361328125e+01,-2.803683757781982422e+00,4.031498432159423828e-01,-6.667009735107421875e+01,-1.826863250732421875e+02,-2.342245101928710938e+00,7.562065887451171875e+01,3.135697174072265625e+01
1.279439926147460938e-01,1.000000000000000000e+00,-3.470955276489257812e+01,4.772156906127929688e+01,2.991854858398437500e+01,1.085188827514648438e+02,9.421408843994140625e+01,-2.811618328094482422e+00,4.031498432159423828e-01,-6.667009735107421875e+01,-1.826863250732421875e+02,-2.342245101928710938e+00,7.562065887451171875e+01,3.135697174072265625e+01
1.319539994001388550e-01,1.000000000000000000e+00,-3.472703552246093750e+01,4.768662643432617188e+01,2.992753219604492188e+01,1.084893798828125000e+02,9.422251129150390625e+01,-2.820977210998535156e+00,4.031498432159423828e-01,-6.667009735107421875e+01,-1.826863250732421875e+02,-2.342316627502441406e+00,7.562065887451171875e+01,3.135697174072265625e+01
1.359869986772537231e-01,1.000000000000000000e+00,-3.474586868286132812e+01,4.764822387695312500e+01,2.993788337707519531e+01,1.084553527832031250e+02,9.423253631591796875e+01,-2.831353187561035156e+00,4.031498432159423828e-01,-6.667009735107421875e+01,-1.826864318847656250e+02,-2.342316627502441406e+00,7.562065887451171875e+01,3.135719108581542969e+01
1.409219950437545776e-01,1.000000000000000000e+00,-3.476656341552734375e+01,4.760644912719726562e+01,2.994949150085449219e+01,1.084153213500976562e+02,9.424362182617187500e+01,-2.843220949172973633e+00,4.031498432159423828e-01,-6.667009735107421875e+01,-1.826863250732421875e+02,-2.342316627502441406e+00,7.562065887451171875e+01,3.135719108581542969e+01
1.436969935894012451e-01,1.000000000000000000e+00,-3.481327438354492188e+01,4.751355361938476562e+01,2.997700119018554688e+01,1.083237762451171875e+02,9.426964569091796875e+01,-2.871907711029052734e+00,4.031498432159423828e-01,-6.667009735107421875e+01,-1.826863250732421875e+02,-2.342460393905639648e+00,7.562065887451171875e+01,3.135719108581542969e+01
1.480039954185485840e-01,1.000000000000000000e+00,-3.481327438354492188e+01,4.751355361938476562e+01,2.997700119018554688e+01,1.083237762451171875e+02,9.426964569091796875e+01,-2.871907711029052734e+00,4.031498432159423828e-01,-6.667009735107421875e+01,-1.826863250732421875e+02,-2.342460393905639648e+00,7.562065887451171875e+01,3.135719108581542969e+01
1.519369930028915405e-01,1.000000000000000000e+00,-3.483853530883789062e+01,4.746257019042968750e+01,2.999286079406738281e+01,1.082743148803710938e+02,9.428478240966796875e+01,-2.887709140777587891e+00,4.031498432159423828e-01,-6.667009735107421875e+01,-1.826863250732421875e+02,-2.342316627502441406e+00,7.562065887451171875e+01,3.135719108581542969e+01
1.559620052576065063e-01,1.000000000000000000e+00,-3.486534500122070312e+01,4.740891265869140625e+01,3.000977516174316406e+01,1.082196350097656250e+02,9.430067443847656250e+01,-2.905205726623535156e+00,4.031498432159423828e-01,-6.667009735107421875e+01,-1.826863250732421875e+02,-2.342316627502441406e+00,7.562065887451171875e+01,3.135697174072265625e+01
1.600069999694824219e-01,1.000000000000000000e+00,-3.489367675781250000e+01,4.735263442993164062e+01,3.002718162536621094e+01,1.081620101928710938e+02,9.431709289550781250e+01,-2.923787593841552734e+00,4.031498432159423828e-01,-6.667009735107421875e+01,-1.826863250732421875e+02,-2.342460393905639648e+00,7.562065887451171875e+01,3.135697174072265625e+01
1.649360060691833496e-01,1.000000000000000000e+00,-3.492339324951171875e+01,4.729359054565429688e+01,3.004515266418457031e+01,1.081023330688476562e+02,9.433356475830078125e+01,-2.943589925765991211e+00,4.031498432159423828e-01,-6.667009735107421875e+01,-1.826863250732421875e+02,-2.342245101928710938e+00,7.562065887451171875e+01,3.135675048828125000e+01
1.689620018005371094e-01,1.000000000000000000e+00,-3.495470809936523438e+01,4.723194885253906250e+01,3.006394195556640625e+01,1.080404968261718750e+02,9.435110473632812500e+01,-2.964138746261596680e+00,4.031498432159423828e-01,-6.667009735107421875e+01,-1.826863250732421875e+02,-2.342460393905639648e+00,7.562065887451171875e+01,3.135697174072265625e+01
1.738979965448379517e-01,1.000000000000000000e+00,-3.498720550537109375e+01,4.716817855834960938e+01,3.008347892761230469e+01,1.079763946533203125e+02,9.436864471435546875e+01,-2.984687089920043945e+00,4.031498432159423828e-01,-6.667009735107421875e+01,-1.826863250732421875e+02,-2.342460393905639648e+00,7.562065887451171875e+01,3.135697174072265625e+01
1.764599978923797607e-01,1.000000000000000000e+00,-3.505538558959960938e+01,4.703474807739257812e+01,3.012414360046386719e+01,1.078439712524414062e+02,9.440592193603515625e+01,-3.026462078094482422e+00,4.031498432159423828e-01,-6.667009735107421875e+01,-1.826863250732421875e+02,-2.342245101928710938e+00,7.562065887451171875e+01,3.135719108581542969e+01
1.793359965085983276e-01,1.000000000000000000e+00,-3.505538558959960938e+01,4.703474807739257812e+01,3.012414360046386719e+01,1.078439712524414062e+02,9.440592193603515625e+01,-3.026462078094482422e+00,4.031498432159423828e-01,-6.667009735107421875e+01,-1.826863250732421875e+02,-2.342245101928710938e+00,7.562065887451171875e+01,3.135719108581542969e+01
1.840000003576278687e-01,1.000000000000000000e+00,-3.509078216552734375e+01,4.696541213989257812e+01,3.014461708068847656e+01,1.077762298583984375e+02,9.442569732666015625e+01,-3.047960281372070312e+00,4.031498432159423828e-01,-6.667009735107421875e+01,-1.826863250732421875e+02,-2.342316627502441406e+00,7.562065887451171875e+01,3.135719108581542969e+01
1.879400014877319336e-01,1.000000000000000000e+00,-3.512712478637695312e+01,4.689414978027343750e+01,3.016523361206054688e+01,1.077079086303710938e+02,9.444628143310546875e+01,-3.069322586059570312e+00,4.031498432159423828e-01,-6.667009735107421875e+01,-1.826863250732421875e+02,-2.342316627502441406e+00,7.562065887451171875e+01,3.135697174072265625e+01
1.916829943656921387e-01,1.000000000000000000e+00,-3.516395568847656250e+01,4.682107543945312500e+01,3.018593215942382812e+01,1.076383819580078125e+02,9.446648406982421875e+01,-3.091227293014526367e+00,4.031498432159423828e-01,-6.667009735107421875e+01,-1.826863250732421875e+02,-2.342316627502441406e+00,7.562065887451171875e+01,3.135697174072265625e+01
1.963769942522048950e-01,1.000000000000000000e+00,-3.520184707641601562e+01,4.674687576293945312e+01,3.020685386657714844e+01,1.075694808959960938e+02,9.448589324951171875e+01,-3.113742351531982422e+00,4.031498432159423828e-01,-6.667009735107421875e+01,-1.826863250732421875e+02,-2.342316627502441406e+00,7.562065887451171875e+01,3.135697174072265625e+01
1.996590048074722290e-01,1.000000000000000000e+00,-3.524051666259765625e+01,4.667179107666015625e+01,3.022783660888671875e+01,1.075000076293945312e+02,9.450503540039062500e+01,-3.136461019515991211e+00,4.031498432159423828e-01,-6.667009735107421875e+01,-1.826863250732421875e+02,-2.342316627502441406e+00,7.562065887451171875e+01,3.135675048828125000e+01
2.039410024881362915e-01,1.000000000000000000e+00,-3.527947235107421875e+01,4.659640884399414062e+01,3.024892044067382812e+01,1.074308471679687500e+02,9.452491760253906250e+01,-3.159383296966552734e+00,4.031498432159423828e-01,-6.667009735107421875e+01,-1.826863250732421875e+02,-2.342316627502441406e+00,7.562065887451171875e+01,3.135697174072265625e+01
2.078309953212738037e-01,1.000000000000000000e+00,-3.531896972656250000e+01,4.652032852172851562e+01,3.026984214782714844e+01,1.073614730834960938e+02,9.454496765136718750e+01,-3.181559324264526367e+00,4.031498432159423828e-01,-6.667009735107421875e+01,-1.826863250732421875e+02,-2.342460393905639648e+00,7.562065887451171875e+01,3.135719108581542969e+01
2.119400054216384888e-01,1.000000000000000000e+00,-3.535858535766601562e+01,4.644420242309570312e+01,3.029076194763183594e+01,1.072924194335937500e+02,9.456543731689453125e+01,-3.202921628952026367e+00,4.031498432159423828e-01,-6.667009735107421875e+01,-1.826863250732421875e+02,-2.342245101928710938e+00,7.562065887451171875e+01,3.135697174072265625e+01
2.159499973058700562e-01,1.000000000000000000e+00,-3.539840316772460938e+01,4.636795806884765625e+01,3.031162261962890625e+01,1.072228851318359375e+02,9.458628082275390625e+01,-3.224962234497070312e+00,4.031498432159423828e-01,-6.667009735107421875e+01,-1.826863250732421875e+02,-2.342460393905639648e+00,7.562065887451171875e+01,3.135697174072265625e+01
2.205750048160552979e-01,1.000000000000000000e+00,-3.543810653686523438e+01,4.629160690307617188e+01,3.033264541625976562e+01,1.071536788940429688e+02,9.460702514648437500e+01,-3.247205972671508789e+00,4.031498432159423828e-01,-6.667009735107421875e+01,-1.826863250732421875e+02,-2.342316627502441406e+00,7.562065887451171875e+01,3.135719108581542969e+01
2.239519953727722168e-01,1.000000000000000000e+00,-3.547843933105468750e+01,4.621498107910156250e+01,3.035381126403808594e+01,1.070838775634765625e+02,9.462690734863281250e+01,-3.269585609436035156e+00,4.031498432159423828e-01,-6.667009735107421875e+01,-1.826862182617187500e+02,-2.342316627502441406e+00,7.562065887451171875e+01,3.135697174072265625e+01
2.279659956693649292e-01,1.000000000000000000e+00,-3.551839828491210938e+01,4.613835525512695312e+01,3.037479400634765625e+01,1.070145111083984375e+02,9.464642333984375000e+01,-3.291761636734008789e+00,4.031498432159423828e-01,-6.667009735107421875e+01,-1.826863250732421875e+02,-2.342245101928710938e+00,7.562065887451171875e+01,3.135697174072265625e+01
2.319950014352798462e-01,1.000000000000000000e+00,-3.555827331542968750e+01,4.606184387207031250e+01,3.039573478698730469e+01,1.069447097778320312e+02,9.466588592529296875e+01,-3.314412593841552734e+00,4.031498432159423828e-01,-6.667009735107421875e+01,-1.826863250732421875e+02,-2.342460393905639648e+00,7.562065887451171875e+01,3.135697174072265625e+01
2.369450032711029053e-01,1.000000000000000000e+00,-3.559805679321289062e+01,4.598551177978515625e+01,3.041688156127929688e+01,1.068744506835937500e+02,9.468561553955078125e+01,-3.337741374969482422e+00,4.031498432159423828e-01,-6.667009735107421875e+01,-1.826863250732421875e+02,-2.342245101928710938e+00,7.562065887451171875e+01,3.135675048828125000e+01
2.401790022850036621e-01,1.000000000000000000e+00,-3.563770294189453125e+01,4.590947723388671875e+01,3.043816757202148438e+01,1.068046493530273438e+02,9.470587158203125000e+01,-3.360324621200561523e+00,4.031498432159423828e-01,-6.667009735107421875e+01,-1.826863250732421875e+02,-2.342245101928710938e+00,7.562065887451171875e+01,3.135697174072265625e+01
2.449019998311996460e-01,1.000000000000000000e+00,-3.567769241333007812e+01,4.583355331420898438e+01,3.045959854125976562e+01,1.067347564697265625e+02,9.472698974609375000e+01,-3.382161617279052734e+00,4.031498432159423828e-01,-6.667009735107421875e+01,-1.826863250732421875e+02,-2.342316627502441406e+00,7.562081146240234375e+01,3.135719108581542969e+01
2.480649948120117188e-01,1.000000000000000000e+00,-3.571753692626953125e+01,4.575767517089843750e+01,3.048090362548828125e+01,1.066652832031250000e+02,9.474794006347656250e+01,-3.403930664062500000e+00,4.031498432159423828e-01,-6.667009735107421875e+01,-1.826863250732421875e+02,-2.342316627502441406e+00,7.562065887451171875e+01,3.135697174072265625e+01
2.520120143890380859e-01,1.000000000000000000e+00,-3.575714874267578125e+01,4.568145751953125000e+01,3.050198936462402344e+01,1.065951690673828125e+02,9.476787567138671875e+01,-3.425699949264526367e+00,4.031498432159423828e-01,-6.667009735107421875e+01,-1.826863250732421875e+02,-2.342316627502441406e+00,7.562065887451171875e+01,3.135697174072265625e+01
2.561779916286468506e-01,1.000000000000000000e+00,-3.579659652709960938e+01,4.560503768920898438e+01,3.052305412292480469e+01,1.065248565673828125e+02,9.478733825683593750e+01,-3.447943925857543945e+00,4.031498432159423828e-01,-6.667009735107421875e+01,-1.826863250732421875e+02,-2.342316627502441406e+00,7.562065887451171875e+01,3.135675048828125000e+01
2.601169943809509277e-01,1.000000000000000000e+00,-3.583609771728515625e+01,4.552859497070312500e+01,3.054431915283203125e+01,1.064549026489257812e+02,9.480680084228515625e+01,-3.470594882965087891e+00,4.031498432159423828e-01,-6.667009735107421875e+01,-1.826863250732421875e+02,-2.342460393905639648e+00,7.562065887451171875e+01,3.135675048828125000e+01
2.642149925231933594e-01,1.000000000000000000e+00,-3.587565612792968750e+01,4.545205688476562500e+01,3.056587219238281250e+01,1.063855819702148438e+02,9.482711791992187500e+01,-3.493041992187500000e+00,4.031498432159423828e-01,-6.667009735107421875e+01,-1.826863250732421875e+02,-2.342245101928710938e+00,7.562065887451171875e+01,3.135675048828125000e+01
2.668809890747070312e-01,1.000000000000000000e+00,-3.591469573974609375e+01,4.537529754638671875e+01,3.058721923828125000e+01,1.063155212402343750e+02,9.484758758544921875e+01,-3.516371250152587891e+00,4.031498432159423828e-01,-6.667009735107421875e+01,-1.826863250732421875e+02,-2.342460393905639648e+00,7.562081146240234375e+01,3.135697174072265625e+01
2.722139954566955566e-01,1.000000000000000000e+00,-3.595393753051757812e+01,4.529813003540039062e+01,3.060865020751953125e+01,1.062450942993164062e+02,9.486864471435546875e+01,-3.539157629013061523e+00,4.031498432159423828e-01,-6.667009735107421875e+01,-1.826863250732421875e+02,-2.342316627502441406e+00,7.562081146240234375e+01,3.135697174072265625e+01
2.749310135841369629e-01,1.000000000000000000e+00,-3.599312210083007812e+01,4.522129821777343750e+01,3.062979507446289062e+01,1.061750488281250000e+02,9.488970947265625000e+01,-3.560791015625000000e+00,4.031498432159423828e-01,-6.667009735107421875e+01,-1.826863250732421875e+02,-2.342460393905639648e+00,7.562065887451171875e+01,3.135697174072265625e+01
2.788839936256408691e-01,1.000000000000000000e+00,-3.603245162963867188e+01,4.514460754394531250e+01,3.065095901489257812e+01,1.061054077148437500e+02,9.491017913818359375e+01,-3.582628011703491211e+00,4.031498432159423828e-01,-6.667009735107421875e+01,-1.826863250732421875e+02,-2.342316627502441406e+00,7.562065887451171875e+01,3.135697174072265625e+01
2.829779982566833496e-01,1.000000000000000000e+00,-3.607152175903320312e+01,4.506807327270507812e+01,3.067238807678222656e+01,1.060350341796875000e+02,9.492996215820312500e+01,-3.604668617248535156e+00,4.031498432159423828e-01,-6.667001342773437500e+01,-1.826863250732421875e+02,-2.342245101928710938e+00,7.562065887451171875e+01,3.135697174072265625e+01
2.869319915771484375e-01,1.000000000000000000e+00,-3.611053466796875000e+01,4.499122238159179688e+01,3.069373703002929688e+01,1.059643478393554688e+02,9.494969177246093750e+01,-3.626912355422973633e+00,4.031498432159423828e-01,-6.667009735107421875e+01,-1.826863250732421875e+02,-2.342316627502441406e+00,7.562065887451171875e+01,3.135697174072265625e+01
2.909159958362579346e-01,1.000000000000000000e+00,-3.614960479736328125e+01,4.491426086425781250e+01,3.071494483947753906e+01,1.058935012817382812e+02,9.496962738037109375e+01,-3.649156332015991211e+00,4.031498432159423828e-01,-6.667009735107421875e+01,-1.826863250732421875e+02,-2.342316627502441406e+00,7.562065887451171875e+01,3.135719108581542969e+01
2.964360117912292480e-01,1.000000000000000000e+00,-3.618867111206054688e+01,4.483702468872070312e+01,3.073618888854980469e+01,1.058237609863281250e+02,9.499021148681640625e+01,-3.671603679656982422e+00,4.031498432159423828e-01,-6.667009735107421875e+01,-1.826863250732421875e+02,-2.342316627502441406e+00,7.562065887451171875e+01,3.135719108581542969e+01
2.989569902420043945e-01,1.000000000000000000e+00,-3.622777175903320312e+01,4.475933456420898438e+01,3.075749969482421875e+01,1.057533340454101562e+02,9.501121520996093750e+01,-3.694458007812500000e+00,4.031498432159423828e-01,-6.667009735107421875e+01,-1.826863250732421875e+02,-2.342245101928710938e+00,7.562065887451171875e+01,3.135697174072265625e+01
3.029350042343139648e-01,1.000000000000000000e+00,-3.626684188842773438e+01,4.468132781982421875e+01,3.077917289733886719e+01,1.056830139160156250e+02,9.503269958496093750e+01,-3.717583656311035156e+00,4.031498432159423828e-01,-6.667009735107421875e+01,-1.826863250732421875e+02,-2.342316627502441406e+00,7.562065887451171875e+01,3.135697174072265625e+01
3.069440126419067383e-01,1.000000000000000000e+00,-3.630596923828125000e+01,4.460366439819335938e+01,3.080082702636718750e+01,1.056124267578125000e+02,9.505317687988281250e+01,-3.739692211151123047e+00,4.031498432159423828e-01,-6.667009735107421875e+01,-1.826863250732421875e+02,-2.342460393905639648e+00,7.562065887451171875e+01,3.135697174072265625e+01
3.110480010509490967e-01,1.000000000000000000e+00,-3.634550094604492188e+01,4.452595138549804688e+01,3.082231521606445312e+01,1.055425872802734375e+02,9.507306671142578125e+01,-3.761528968811035156e+00,4.031498432159423828e-01,-6.667009735107421875e+01,-1.826863250732421875e+02,-2.342245101928710938e+00,7.562065887451171875e+01,3.135719108581542969e+01
3.149429857730865479e-01,1.000000000000000000e+00,-3.638491439819335938e+01,4.444842147827148438e+01,3.084358406066894531e+01,1.054721069335937500e+02,9.509294891357421875e+01,-3.783501863479614258e+00,4.031498432159423828e-01,-6.667009735107421875e+01,-1.826863250732421875e+02,-2.342316627502441406e+00,7.562065887451171875e+01,3.135719108581542969e+01
3.206270039081573486e-01,1.000000000000000000e+00,-3.642444229125976562e+01,4.437084579467773438e+01,3.086476898193359375e+01,1.054020996093750000e+02,9.511310577392578125e+01,-3.805881261825561523e+00,4.031498432159423828e-01,-6.667009735107421875e+01,-1.826863250732421875e+02,-2.342460393905639648e+00,7.562065887451171875e+01,3.135697174072265625e+01
3.246389925479888916e-01,1.000000000000000000e+00,-3.646414184570312500e+01,4.429329299926757812e+01,3.088601684570312500e+01,1.053309936523437500e+02,9.513378906250000000e+01,-3.828057289123535156e+00,4.031498432159423828e-01,-6.667009735107421875e+01,-1.826863250732421875e+02,-2.342460393905639648e+00,7.562065887451171875e+01,3.135697174072265625e+01
3.286980092525482178e-01,1.000000000000000000e+00,-3.650410461425781250e+01,4.421567535400390625e+01,3.090764808654785156e+01,1.052611007690429688e+02,9.515479278564453125e+01,-3.850301027297973633e+00,4.031498432159423828e-01,-6.667009735107421875e+01,-1.826863250732421875e+02,-2.342316627502441406e+00,7.562065887451171875e+01,3.135697174072265625e+01
3.327899873256683350e-01,1.000000000000000000e+00,-3.654400634765625000e+01,4.413787078857421875e+01,3.092918014526367188e+01,1.051900405883789062e+02,9.517617034912109375e+01,-3.873291015625000000e+00,4.031498432159423828e-01,-6.667009735107421875e+01,-1.826863250732421875e+02,-2.342316627502441406e+00,7.562065887451171875e+01,3.135697174072265625e+01
3.368589878082275391e-01,1.000000000000000000e+00,-3.658396530151367188e+01,4.405986785888671875e+01,3.095075416564941406e+01,1.051197662353515625e+02,9.519707489013671875e+01,-3.896620035171508789e+00,4.031498432159423828e-01,-6.667009735107421875e+01,-1.826863250732421875e+02,-2.342316627502441406e+00,7.562065887451171875e+01,3.135697174072265625e+01
3.415699899196624756e-01,1.000000000000000000e+00,-3.662404251098632812e+01,4.398188400268554688e+01,3.097224426269531250e+01,1.050484008789062500e+02,9.521711730957031250e+01,-3.919338941574096680e+00,4.031498432159423828e-01,-6.667009735107421875e+01,-1.826863250732421875e+02,-2.342316627502441406e+00,7.562065887451171875e+01,3.135697174072265625e+01
3.449200093746185303e-01,1.000000000000000000e+00,-3.666440200805664062e+01,4.390383148193359375e+01,3.099375343322753906e+01,1.049777603149414062e+02,9.523674011230468750e+01,-3.940904378890991211e+00,4.031498432159423828e-01,-6.667009735107421875e+01,-1.826863250732421875e+02,-2.342316627502441406e+00,7.562065887451171875e+01,3.135697174072265625e+01
3.487420082092285156e-01,1.000000000000000000e+00,-3.670464706420898438e+01,4.382589721679687500e+01,3.101538658142089844e+01,1.049070205688476562e+02,9.525668334960937500e+01,-3.962470293045043945e+00,4.031498432159423828e-01,-6.667009735107421875e+01,-1.826863250732421875e+02,-2.342316627502441406e+00,7.562065887451171875e+01,3.135697174072265625e+01
3.529930114746093750e-01,1.000000000000000000e+00,-3.674486923217773438e+01,4.374827575683593750e+01,3.103696060180664062e+01,1.048366470336914062e+02,9.527731323242187500e+01,-3.984714031219482422e+00,4.031498432159423828e-01,-6.667009735107421875e+01,-1.826863250732421875e+02,-2.342316627502441406e+00,7.562065887451171875e+01,3.135697174072265625e+01
3.569889962673187256e-01,1.000000000000000000e+00,-3.678528594970703125e+01,4.367071914672851562e+01,3.105843162536621094e+01,1.047657546997070312e+02,9.529842376708984375e+01,-4.006890296936035156e+00,4.031498432159423828e-01,-6.667009735107421875e+01,-1.826863250732421875e+02,-2.342316627502441406e+00,7.562051391601562500e+01,3.135697174072265625e+01
3.609170019626617432e-01,1.000000000000000000e+00,-3.682576370239257812e+01,4.359323501586914062e+01,3.108002090454101562e+01,1.046950073242187500e+02,9.531996917724609375e+01,-4.029473304748535156e+00,4.031498432159423828e-01,-6.667009735107421875e+01,-1.826863250732421875e+02,-2.342316627502441406e+00,7.562065887451171875e+01,3.135697174072265625e+01
3.659130036830902100e-01,1.000000000000000000e+00,-3.686624145507812500e+01,4.351579666137695312e+01,3.110165596008300781e+01,1.046243743896484375e+02,9.534097290039062500e+01,-4.052395343780517578e+00,4.031498432159423828e-01,-6.667009735107421875e+01,-1.826863250732421875e+02,-2.342316627502441406e+00,7.562065887451171875e+01,3.135697174072265625e+01
3.690370023250579834e-01,1.000000000000000000e+00,-3.690671539306640625e+01,4.343827056884765625e+01,3.112336921691894531e+01,1.045536804199218750e+02,9.536075592041015625e+01,-4.075588703155517578e+00,4.031498432159423828e-01,-6.667009735107421875e+01,-1.826863250732421875e+02,-2.342316627502441406e+00,7.562051391601562500e+01,3.135697174072265625e+01
3.709329962730407715e-01,1.000000000000000000e+00,-3.694736480712890625e+01,4.336062240600585938e+01,3.114504432678222656e+01,1.044824676513671875e+02,9.538058471679687500e+01,-4.098782062530517578e+00,4.031498432159423828e-01,-6.667009735107421875e+01,-1.826863250732421875e+02,-2.342316627502441406e+00,7.562065887451171875e+01,3.135697174072265625e+01
3.772180080413818359e-01,1.000000000000000000e+00,-3.698789978027343750e+01,4.328241348266601562e+01,3.116667556762695312e+01,1.044117279052734375e+02,9.540100860595703125e+01,-4.120890617370605469e+00,4.031498432159423828e-01,-6.667009735107421875e+01,-1.826863250732421875e+02,-2.342460393905639648e+00,7.562065887451171875e+01,3.135719108581542969e+01
3.794690072536468506e-01,1.000000000000000000e+00,-3.702846145629882812e+01,4.320404815673828125e+01,3.118820762634277344e+01,1.043403015136718750e+02,9.542159271240234375e+01,-4.142523765563964844e+00,4.031498432159423828e-01,-6.667001342773437500e+01,-1.826863250732421875e+02,-2.342316627502441406e+00,7.562065887451171875e+01,3.135719108581542969e+01
3.853090107440948486e-01,1.000000000000000000e+00,-3.706876373291015625e+01,4.312570190429687500e+01,3.120981979370117188e+01,1.042693481445312500e+02,9.544254302978515625e+01,-4.165174961090087891e+00,4.031498432159423828e-01,-6.667009735107421875e+01,-1.826863250732421875e+02,-2.342460393905639648e+00,7.562065887451171875e+01,3.135719108581542969e+01
3.869999945163726807e-01,1.000000000000000000e+00,-3.710924530029296875e+01,4.304744720458984375e+01,3.123163795471191406e+01,1.041978149414062500e+02,9.546430206298828125e+01,-4.187825679779052734e+00,4.031498432159423828e-01,-6.667009735107421875e+01,-1.826863250732421875e+02,-2.342316627502441406e+00,7.562065887451171875e+01,3.135697174072265625e+01
3.931779861450195312e-01,1.000000000000000000e+00,-3.714986419677734375e+01,4.296928405761718750e+01,3.125330924987792969e+01,1.041268157958984375e+02,9.548546600341796875e+01,-4.210476398468017578e+00,4.031498432159423828e-01,-6.667009735107421875e+01,-1.826863250732421875e+02,-2.342316627502441406e+00,7.562065887451171875e+01,3.135697174072265625e+01
3.973389863967895508e-01,1.000000000000000000e+00,-3.719028091430664062e+01,4.289148330688476562e+01,3.127506446838378906e+01,1.040553359985351562e+02,9.550561523437500000e+01,-4.232991218566894531e+00,4.031498432159423828e-01,-6.667001342773437500e+01,-1.826863250732421875e+02,-2.342245101928710938e+00,7.562065887451171875e+01,3.135697174072265625e+01
3.989579975605010986e-01,1.000000000000000000e+00,-3.723056030273437500e+01,4.281370162963867188e+01,3.129671859741210938e+01,1.039843826293945312e+02,9.552529144287109375e+01,-4.256117343902587891e+00,4.031498432159423828e-01,-6.667001342773437500e+01,-1.826863250732421875e+02,-2.342245101928710938e+00,7.562065887451171875e+01,3.135697174072265625e+01
4.054430127143859863e-01,1.000000000000000000e+00,-3.723056030273437500e+01,4.273561096191406250e+01,3.131834983825683594e+01,1.039130630493164062e+02,9.554549407958984375e+01,-4.279310226440429688e+00,4.031498432159423828e-01,-6.667009735107421875e+01,-1.826863250732421875e+02,-2.342245101928710938e+00,7.562081146240234375e+01,3.135719108581542969e+01
4.068900048732757568e-01,1.000000000000000000e+00,-3.731168365478515625e+01,4.265710449218750000e+01,3.134020805358886719e+01,1.038422164916992188e+02,9.556601715087890625e+01,-4.301893711090087891e+00,4.031498432159423828e-01,-6.667009735107421875e+01,-1.826863250732421875e+02,-2.342316627502441406e+00,7.562065887451171875e+01,3.135697174072265625e+01
4.140900075435638428e-01,1.000000000000000000e+00,-3.731168365478515625e+01,4.265710449218750000e+01,3.134020805358886719e+01,1.038422164916992188e+02,9.556601715087890625e+01,-4.301893711090087891e+00,4.031498432159423828e-01,-6.667009735107421875e+01,-1.826863250732421875e+02,-2.342316627502441406e+00,7.562065887451171875e+01,3.135675048828125000e+01
4.154910147190093994e-01,1.000000000000000000e+00,-3.739289474487304688e+01,4.249948501586914062e+01,3.138371849060058594e+01,1.036995773315429688e+02,9.560872650146484375e+01,-4.346381664276123047e+00,4.031498432159423828e-01,-6.667009735107421875e+01,-1.826863250732421875e+02,-2.342316627502441406e+00,7.562065887451171875e+01,3.135675048828125000e+01
4.199439883232116699e-01,1.000000000000000000e+00,-3.743348693847656250e+01,4.242039489746093750e+01,3.140551376342773438e+01,1.036281509399414062e+02,9.562978363037109375e+01,-4.368964195251464844e+00,4.031498432159423828e-01,-6.667009735107421875e+01,-1.826863250732421875e+02,-2.342316627502441406e+00,7.562065887451171875e+01,3.135675048828125000e+01
4.239340126514434814e-01,1.000000000000000000e+00,-3.747410583496093750e+01,4.234114456176757812e+01,3.142733001708984375e+01,1.035569305419921875e+02,9.564983367919921875e+01,-4.391683101654052734e+00,4.031498432159423828e-01,-6.667009735107421875e+01,-1.826863250732421875e+02,-2.342316627502441406e+00,7.562065887451171875e+01,3.135697174072265625e+01
4.269019961357116699e-01,1.000000000000000000e+00,-3.751469802856445312e+01,4.226225662231445312e+01,3.144920730590820312e+01,1.034850845336914062e+02,9.566983032226562500e+01,-4.414401531219482422e+00,4.031498432159423828e-01,-6.667009735107421875e+01,-1.826863250732421875e+02,-2.342316627502441406e+00,7.562051391601562500e+01,3.135697174072265625e+01
4.320040047168731689e-01,1.000000000000000000e+00,-3.751469802856445312e+01,4.226225662231445312e+01,3.144920730590820312e+01,1.034850845336914062e+02,9.566983032226562500e+01,-4.414401531219482422e+00,4.031498432159423828e-01,-6.667009735107421875e+01,-1.826863250732421875e+02,-2.342316627502441406e+00,7.562051391601562500e+01,3.135697174072265625e+01
4.349710047245025635e-01,1.000000000000000000e+00,-3.759593963623046875e+01,4.210495758056640625e+01,3.149273490905761719e+01,1.033415451049804688e+02,9.571083068847656250e+01,-4.461399078369140625e+00,4.031498432159423828e-01,-6.667009735107421875e+01,-1.826863250732421875e+02,-2.342316627502441406e+00,7.562065887451171875e+01,3.135697174072265625e+01
4.399319887161254883e-01,1.000000000000000000e+00,-3.759593963623046875e+01,4.210495758056640625e+01,3.149273490905761719e+01,1.033415451049804688e+02,9.571083068847656250e+01,-4.461399078369140625e+00,4.031498432159423828e-01,-6.667009735107421875e+01,-1.826863250732421875e+02,-2.342316627502441406e+00,7.562065887451171875e+01,3.135697174072265625e+01
4.428910017013549805e-01,1.000000000000000000e+00,-3.767697525024414062e+01,4.194731521606445312e+01,3.153606224060058594e+01,1.031984863281250000e+02,9.575395965576171875e+01,-4.506564617156982422e+00,4.031498432159423828e-01,-6.667009735107421875e+01,-1.826863250732421875e+02,-2.342245101928710938e+00,7.562065887451171875e+01,3.135697174072265625e+01
4.479399919509887695e-01,1.000000000000000000e+00,-3.767697525024414062e+01,4.194731521606445312e+01,3.153606224060058594e+01,1.031984863281250000e+02,9.575395965576171875e+01,-4.506564617156982422e+00,4.031498432159423828e-01,-6.667009735107421875e+01,-1.826863250732421875e+02,-2.342245101928710938e+00,7.562065887451171875e+01,3.135697174072265625e+01
4.514369964599609375e-01,1.000000000000000000e+00,-3.775798797607421875e+01,4.178879547119140625e+01,3.157998085021972656e+01,1.030548477172851562e+02,9.579586791992187500e+01,-4.551323890686035156e+00,4.031498432159423828e-01,-6.667009735107421875e+01,-1.826863250732421875e+02,-2.342316627502441406e+00,7.562051391601562500e+01,3.135697174072265625e+01
4.559429883956909180e-01,1.000000000000000000e+00,-3.779872512817382812e+01,4.170916366577148438e+01,3.160187911987304688e+01,1.029831542968750000e+02,9.581565093994140625e+01,-4.573974609375000000e+00,4.031498432159423828e-01,-6.667009735107421875e+01,-1.826863250732421875e+02,-2.342460393905639648e+00,7.562065887451171875e+01,3.135697174072265625e+01
4.599390029907226562e-01,1.000000000000000000e+00,-3.783926010131835938e+01,4.162945556640625000e+01,3.162379646301269531e+01,1.029115676879882812e+02,9.583596038818359375e+01,-4.597439289093017578e+00,4.031498432159423828e-01,-6.667009735107421875e+01,-1.826863250732421875e+02,-2.342316627502441406e+00,7.562065887451171875e+01,3.135697174072265625e+01
4.638949930667877197e-01,1.000000000000000000e+00,-3.787993621826171875e+01,4.154998016357421875e+01,3.164571571350097656e+01,1.028397216796875000e+02,9.585638427734375000e+01,-4.620836257934570312e+00,4.031498432159423828e-01,-6.667009735107421875e+01,-1.826863250732421875e+02,-2.342460393905639648e+00,7.562081146240234375e+01,3.135697174072265625e+01
4.668909907341003418e-01,1.000000000000000000e+00,-3.792066955566406250e+01,4.147093582153320312e+01,3.166775321960449219e+01,1.027676162719726562e+02,9.587776184082031250e+01,-4.644232749938964844e+00,4.031498432159423828e-01,-6.667009735107421875e+01,-1.826863250732421875e+02,-2.342316627502441406e+00,7.562065887451171875e+01,3.135697174072265625e+01
4.719389975070953369e-01,1.000000000000000000e+00,-3.792066955566406250e+01,4.147093582153320312e+01,3.166775321960449219e+01,1.027676162719726562e+02,9.587776184082031250e+01,-4.644232749938964844e+00,4.031498432159423828e-01,-6.667009735107421875e+01,-1.826863250732421875e+02,-2.342316627502441406e+00,7.562065887451171875e+01,3.135697174072265625e+01
4.759640097618103027e-01,1.000000000000000000e+00,-3.800194168090820312e+01,4.131367874145507812e+01,3.171150588989257812e+01,1.026240234375000000e+02,9.592099761962890625e+01,-4.688992023468017578e+00,4.031498432159423828e-01,-6.667009735107421875e+01,-1.826863250732421875e+02,-2.342316627502441406e+00,7.562065887451171875e+01,3.135697174072265625e+01
4.788799881935119629e-01,1.000000000000000000e+00,-3.804264450073242188e+01,4.123483657836914062e+01,3.173314094543457031e+01,1.025516967773437500e+02,9.594147491455078125e+01,-4.711304187774658203e+00,4.031498432159423828e-01,-6.667009735107421875e+01,-1.826863250732421875e+02,-2.342316627502441406e+00,7.562065887451171875e+01,3.135697174072265625e+01
4.839259982109069824e-01,1.000000000000000000e+00,-3.804264450073242188e+01,4.123483657836914062e+01,3.173314094543457031e+01,1.025516967773437500e+02,9.594147491455078125e+01,-4.711304187774658203e+00,4.031498432159423828e-01,-6.667009735107421875e+01,-1.826863250732421875e+02,-2.342316627502441406e+00,7.562065887451171875e+01,3.135697174072265625e+01
4.878900051116943359e-01,1.000000000000000000e+00,-3.812405776977539062e+01,4.107592773437500000e+01,3.177717971801757812e+01,1.024068984985351562e+02,9.598210144042968750e+01,-4.757080554962158203e+00,4.031498432159423828e-01,-6.667009735107421875e+01,-1.826863250732421875e+02,-2.342316627502441406e+00,7.562065887451171875e+01,3.135719108581542969e+01
4.908779859542846680e-01,1.000000000000000000e+00,-3.816482162475585938e+01,4.099629592895507812e+01,3.179940032958984375e+01,1.023348388671875000e+02,9.600284576416015625e+01,-4.780002117156982422e+00,4.031498432159423828e-01,-6.667009735107421875e+01,-1.826863250732421875e+02,-2.342316627502441406e+00,7.562065887451171875e+01,3.135697174072265625e+01
4.959250092506408691e-01,1.000000000000000000e+00,-3.816482162475585938e+01,4.099629592895507812e+01,3.179940032958984375e+01,1.023348388671875000e+02,9.600284576416015625e+01,-4.780002117156982422e+00,4.031498432159423828e-01,-6.667009735107421875e+01,-1.826863250732421875e+02,-2.342316627502441406e+00,7.562065887451171875e+01,3.135697174072265625e+01
4.997130036354064941e-01,1.000000000000000000e+00,-3.824634933471679688e+01,4.083646011352539062e+01,3.184333992004394531e+01,1.021905212402343750e+02,9.604640197753906250e+01,-4.826999187469482422e+00,4.031498432159423828e-01,-6.667009735107421875e+01,-1.826863250732421875e+02,-2.342245101928710938e+00,7.562065887451171875e+01,3.135675048828125000e+01
5.060759782791137695e-01,1.000000000000000000e+00,-3.824634933471679688e+01,4.083646011352539062e+01,3.184333992004394531e+01,1.021905212402343750e+02,9.604640197753906250e+01,-4.826999187469482422e+00,4.031498432159423828e-01,-6.667009735107421875e+01,-1.826863250732421875e+02,-2.342316627502441406e+00,7.562065887451171875e+01,3.135675048828125000e+01
5.074750185012817383e-01,1.000000000000000000e+00,-3.832784652709960938e+01,4.067793655395507812e+01,3.188717651367187500e+01,1.020463485717773438e+02,9.608835601806640625e+01,-4.872029781341552734e+00,4.031498432159423828e-01,-6.667009735107421875e+01,-1.826863250732421875e+02,-2.342245101928710938e+00,7.562065887451171875e+01,3.135697174072265625e+01
5.140799880027770996e-01,1.000000000000000000e+00,-3.832784652709960938e+01,4.067793655395507812e+01,3.188717651367187500e+01,1.020463485717773438e+02,9.608835601806640625e+01,-4.872029781341552734e+00,4.031498432159423828e-01,-6.667009735107421875e+01,-1.826863250732421875e+02,-2.342245101928710938e+00,7.562065887451171875e+01,3.135697174072265625e+01
5.155040025711059570e-01,1.000000000000000000e+00,-3.840960311889648438e+01,4.051937103271484375e+01,3.193147659301757812e+01,1.019020156860351562e+02,9.612877655029296875e+01,-4.917806148529052734e+00,4.031498432159423828e-01,-6.667009735107421875e+01,-1.826863250732421875e+02,-2.342316627502441406e+00,7.562065887451171875e+01,3.135697174072265625e+01
5.200060009956359863e-01,1.000000000000000000e+00,-3.840960311889648438e+01,4.051937103271484375e+01,3.193147659301757812e+01,1.019020156860351562e+02,9.612877655029296875e+01,-4.917806148529052734e+00,4.031498432159423828e-01,-6.667009735107421875e+01,-1.826863250732421875e+02,-2.342316627502441406e+00,7.562065887451171875e+01,3.135697174072265625e+01
5.236960053443908691e-01,1.000000000000000000e+00,-3.849115753173828125e+01,4.035964584350585938e+01,3.197545623779296875e+01,1.017570037841796875e+02,9.617127227783203125e+01,-4.963447093963623047e+00,4.031498432159423828e-01,-6.667009735107421875e+01,-1.826863250732421875e+02,-2.342316627502441406e+00,7.562065887451171875e+01,3.135697174072265625e+01
5.301939845085144043e-01,1.000000000000000000e+00,-3.849115753173828125e+01,4.035964584350585938e+01,3.197545623779296875e+01,1.017570037841796875e+02,9.617127227783203125e+01,-4.963447093963623047e+00,4.031498432159423828e-01,-6.667009735107421875e+01,-1.826863250732421875e+02,-2.342316627502441406e+00,7.562065887451171875e+01,3.135697174072265625e+01
5.316259860992431641e-01,1.000000000000000000e+00,-3.857311630249023438e+01,4.019886398315429688e+01,3.201987838745117188e+01,1.016119461059570312e+02,9.621424102783203125e+01,-5.010986328125000000e+00,4.031498432159423828e-01,-6.667009735107421875e+01,-1.826863250732421875e+02,-2.342316627502441406e+00,7.562065887451171875e+01,3.135697174072265625e+01
5.359479784965515137e-01,1.000000000000000000e+00,-3.857311630249023438e+01,4.019886398315429688e+01,3.201987838745117188e+01,1.016119461059570312e+02,9.621424102783203125e+01,-5.010986328125000000e+00,4.031498432159423828e-01,-6.667009735107421875e+01,-1.826863250732421875e+02,-2.342316627502441406e+00,7.562065887451171875e+01,3.135697174072265625e+01
5.389180183410644531e-01,1.000000000000000000e+00,-3.865473175048828125e+01,4.003828048706054688e+01,3.206399917602539062e+01,1.014664077758789062e+02,9.625518798828125000e+01,-5.055949211120605469e+00,4.031498432159423828e-01,-6.667009735107421875e+01,-1.826863250732421875e+02,-2.342316627502441406e+00,7.562065887451171875e+01,3.135697174072265625e+01
5.440419912338256836e-01,1.000000000000000000e+00,-3.865473175048828125e+01,4.003828048706054688e+01,3.206399917602539062e+01,1.014664077758789062e+02,9.625518798828125000e+01,-5.055949211120605469e+00,4.031498432159423828e-01,-6.667009735107421875e+01,-1.826863250732421875e+02,-2.342316627502441406e+00,7.562065887451171875e+01,3.135697174072265625e+01
5.479500293731689453e-01,1.000000000000000000e+00,-3.873709106445312500e+01,3.987873840332031250e+01,3.210828399658203125e+01,1.013216018676757812e+02,9.629672241210937500e+01,-5.101521968841552734e+00,4.031498432159423828e-01,-6.667009735107421875e+01,-1.826863250732421875e+02,-2.342316627502441406e+00,7.562065887451171875e+01,3.135697174072265625e+01
5.529500246047973633e-01,1.000000000000000000e+00,-3.873709106445312500e+01,3.987873840332031250e+01,3.210828399658203125e+01,1.013216018676757812e+02,9.629672241210937500e+01,-5.101521968841552734e+00,4.031498432159423828e-01,-6.667009735107421875e+01,-1.826863250732421875e+02,-2.342316627502441406e+00,7.562065887451171875e+01,3.135697174072265625e+01
5.554559826850891113e-01,1.000000000000000000e+00,-3.881936645507812500e+01,3.971883392333984375e+01,3.215285110473632812e+01,1.011762771606445312e+02,9.634006500244140625e+01,-5.147569656372070312e+00,4.031498432159423828e-01,-6.667009735107421875e+01,-1.826863250732421875e+02,-2.342245101928710938e+00,7.562065887451171875e+01,3.135719108581542969e+01
5.599520206451416016e-01,1.000000000000000000e+00,-3.881936645507812500e+01,3.971883392333984375e+01,3.215285110473632812e+01,1.011762771606445312e+02,9.634006500244140625e+01,-5.147569656372070312e+00,4.031498432159423828e-01,-6.667009735107421875e+01,-1.826863250732421875e+02,-2.342245101928710938e+00,7.562065887451171875e+01,3.135719108581542969e+01
5.639330148696899414e-01,1.000000000000000000e+00,-3.886044311523437500e+01,3.963840866088867188e+01,3.217493057250976562e+01,1.011037445068359375e+02,9.636154937744140625e+01,-5.171237468719482422e+00,4.031498432159423828e-01,-6.667009735107421875e+01,-1.826863250732421875e+02,-2.342316627502441406e+00,7.562065887451171875e+01,3.135719108581542969e+01
5.679720044136047363e-01,1.000000000000000000e+00,-3.890189743041992188e+01,3.955793762207031250e+01,3.219701004028320312e+01,1.010305252075195312e+02,9.638208007812500000e+01,-5.194973468780517578e+00,4.031498432159423828e-01,-6.667009735107421875e+01,-1.826863250732421875e+02,-2.342316627502441406e+00,7.562065887451171875e+01,3.135697174072265625e+01
5.719429850578308105e-01,1.000000000000000000e+00,-3.894294738769531250e+01,3.947721481323242188e+01,3.221921157836914062e+01,1.009579391479492188e+02,9.640229034423828125e+01,-5.218438148498535156e+00,4.031498432159423828e-01,-6.667009735107421875e+01,-1.826863250732421875e+02,-2.342316627502441406e+00,7.562065887451171875e+01,3.135719108581542969e+01
5.759419798851013184e-01,1.000000000000000000e+00,-3.898448562622070312e+01,3.939638137817382812e+01,3.224174118041992188e+01,1.008845672607421875e+02,9.642265319824218750e+01,-5.240749835968017578e+00,4.031498432159423828e-01,-6.667009735107421875e+01,-1.826863250732421875e+02,-2.342316627502441406e+00,7.562065887451171875e+01,3.135697174072265625e+01
5.799900293350219727e-01,1.000000000000000000e+00,-3.902599716186523438e+01,3.931584167480468750e+01,3.226412582397460938e+01,1.008117675781250000e+02,9.644377136230468750e+01,-5.263332843780517578e+00,4.031498432159423828e-01,-6.667009735107421875e+01,-1.826863250732421875e+02,-2.342316627502441406e+00,7.562081146240234375e+01,3.135697174072265625e+01
5.839650034904479980e-01,1.000000000000000000e+00,-3.906761932373046875e+01,3.923548126220703125e+01,3.228649139404296875e+01,1.007380752563476562e+02,9.646541595458984375e+01,-5.286729335784912109e+00,4.031498432159423828e-01,-6.667019653320312500e+01,-1.826863250732421875e+02,-2.342316627502441406e+00,7.562065887451171875e+01,3.135697174072265625e+01
5.879219770431518555e-01,1.000000000000000000e+00,-3.910904693603515625e+01,3.915550994873046875e+01,3.230869293212890625e+01,1.006654968261718750e+02,9.648732757568359375e+01,-5.309923171997070312e+00,4.031498432159423828e-01,-6.667009735107421875e+01,-1.826863250732421875e+02,-2.342460393905639648e+00,7.562065887451171875e+01,3.135697174072265625e+01
5.920180082321166992e-01,1.000000000000000000e+00,-3.915061569213867188e+01,3.907524108886718750e+01,3.233083343505859375e+01,1.005918579101562500e+02,9.650871276855468750e+01,-5.333184242248535156e+00,4.031498432159423828e-01,-6.667009735107421875e+01,-1.826863250732421875e+02,-2.342316627502441406e+00,7.562065887451171875e+01,3.135697174072265625e+01
5.956940054893493652e-01,1.000000000000000000e+00,-3.919226837158203125e+01,3.899499511718750000e+01,3.235313796997070312e+01,1.005190582275390625e+02,9.652923583984375000e+01,-5.356987953186035156e+00,4.031498432159423828e-01,-6.667009735107421875e+01,-1.826863250732421875e+02,-2.342316627502441406e+00,7.562065887451171875e+01,3.135697174072265625e+01
5.999590158462524414e-01,1.000000000000000000e+00,-3.923397827148437500e+01,3.891463851928710938e+01,3.237533950805664062e+01,1.004458465576171875e+02,9.654965209960937500e+01,-5.380723953247070312e+00,4.031498432159423828e-01,-6.667009735107421875e+01,-1.826863250732421875e+02,-2.342245101928710938e+00,7.562065887451171875e+01,3.135719108581542969e+01
6.029599905014038086e-01,1.000000000000000000e+00,-3.927571868896484375e+01,3.883359909057617188e+01,3.239760208129882812e+01,1.003729400634765625e+02,9.657044982910156250e+01,-5.403917312622070312e+00,4.031498432159423828e-01,-6.667019653320312500e+01,-1.826863250732421875e+02,-2.342316627502441406e+00,7.562065887451171875e+01,3.135697174072265625e+01
6.079580187797546387e-01,1.000000000000000000e+00,-3.931748580932617188e+01,3.875242614746093750e+01,3.241998672485351562e+01,1.002994079589843750e+02,9.659171295166015625e+01,-5.426839351654052734e+00,4.031498432159423828e-01,-6.667009735107421875e+01,-1.826863250732421875e+02,-2.342316627502441406e+00,7.562065887451171875e+01,3.135719108581542969e+01
6.119229793548583984e-01,1.000000000000000000e+00,-3.935925674438476562e+01,3.867116165161132812e+01,3.244243621826171875e+01,1.002265625000000000e+02,9.661357879638671875e+01,-5.449557781219482422e+00,4.031498432159423828e-01,-6.667009735107421875e+01,-1.826863250732421875e+02,-2.342245101928710938e+00,7.562065887451171875e+01,3.135697174072265625e+01
6.149929761886596680e-01,1.000000000000000000e+00,-3.940099334716796875e+01,3.858998870849609375e+01,3.246490478515625000e+01,1.001527633666992188e+02,9.663559722900390625e+01,-5.472954750061035156e+00,4.031498432159423828e-01,-6.667009735107421875e+01,-1.826863250732421875e+02,-2.342316627502441406e+00,7.562065887451171875e+01,3.135697174072265625e+01
6.198239922523498535e-01,1.000000000000000000e+00,-3.944270324707031250e+01,3.850913238525390625e+01,3.248744964599609375e+01,1.000797653198242188e+02,9.665703582763671875e+01,-5.496623039245605469e+00,4.031498432159423828e-01,-6.667009735107421875e+01,-1.826863250732421875e+02,-2.342245101928710938e+00,7.562065887451171875e+01,3.135697174072265625e+01
6.239320039749145508e-01,1.000000000000000000e+00,-3.948447418212890625e+01,3.842866134643554688e+01,3.250960922241210938e+01,1.000059661865234375e+02,9.667782592773437500e+01,-5.520020008087158203e+00,4.031498432159423828e-01,-6.667009735107421875e+01,-1.826863250732421875e+02,-2.342316627502441406e+00,7.562065887451171875e+01,3.135697174072265625e+01
6.279259920120239258e-01,1.000000000000000000e+00,-3.952635574340820312e+01,3.834825515747070312e+01,3.253183746337890625e+01,9.993258666992187500e+01,9.669802856445312500e+01,-5.543687820434570312e+00,4.031498432159423828e-01,-6.667009735107421875e+01,-1.826863250732421875e+02,-2.342316627502441406e+00,7.562065887451171875e+01,3.135697174072265625e+01
6.319400072097778320e-01,1.000000000000000000e+00,-3.956815338134765625e+01,3.826744461059570312e+01,3.255417633056640625e+01,9.985836791992187500e+01,9.671877288818359375e+01,-5.567830562591552734e+00,4.031498432159423828e-01,-6.667009735107421875e+01,-1.826863250732421875e+02,-2.342316627502441406e+00,7.562065887451171875e+01,3.135697174072265625e+01
6.359779834747314453e-01,1.000000000000000000e+00,-3.960983657836914062e+01,3.818629455566406250e+01,3.257662582397460938e+01,9.978510284423828125e+01,9.674020385742187500e+01,-5.591837406158447266e+00,4.031498432159423828e-01,-6.667009735107421875e+01,-1.826863250732421875e+02,-2.342316627502441406e+00,7.562065887451171875e+01,3.135697174072265625e+01
6.399369835853576660e-01,1.000000000000000000e+00,-3.965169143676757812e+01,3.810507202148437500e+01,3.259901046752929688e+01,9.971135711669921875e+01,9.676232910156250000e+01,-5.614556312561035156e+00,4.031498432159423828e-01,-6.667009735107421875e+01,-1.826863250732421875e+02,-2.342316627502441406e+00,7.562065887451171875e+01,3.135697174072265625e+01
6.445900201797485352e-01,1.000000000000000000e+00,-3.969357299804687500e+01,3.802358627319335938e+01,3.262157821655273438e+01,9.963766479492187500e+01,9.678440093994140625e+01,-5.637274742126464844e+00,4.031498432159423828e-01,-6.667009735107421875e+01,-1.826863250732421875e+02,-2.342460393905639648e+00,7.562051391601562500e+01,3.135697174072265625e+01
6.489220261573791504e-01,1.000000000000000000e+00,-3.973542785644531250e+01,3.794186782836914062e+01,3.264400482177734375e+01,9.956371307373046875e+01,9.680562591552734375e+01,-5.660535812377929688e+00,4.031498432159423828e-01,-6.667009735107421875e+01,-1.826863250732421875e+02,-2.342316627502441406e+00,7.562065887451171875e+01,3.135675048828125000e+01
6.529049873352050781e-01,1.000000000000000000e+00,-3.981916809082031250e+01,3.777902221679687500e+01,3.268907928466796875e+01,9.941664886474609375e+01,9.684689331054687500e+01,-5.707940101623535156e+00,4.031498432159423828e-01,-6.667009735107421875e+01,-1.826863250732421875e+02,-2.342316627502441406e+00,7.562065887451171875e+01,3.135697174072265625e+01
6.578890085220336914e-01,1.000000000000000000e+00,-3.986099243164062500e+01,3.769803237915039062e+01,3.271142578125000000e+01,9.934268951416015625e+01,9.686821746826171875e+01,-5.731947422027587891e+00,4.031498432159423828e-01,-6.667009735107421875e+01,-1.826863250732421875e+02,-2.342316627502441406e+00,7.562065887451171875e+01,3.135675048828125000e+01
6.605560183525085449e-01,1.000000000000000000e+00,-3.990282058715820312e+01,3.761690139770507812e+01,3.273385238647460938e+01,9.926868438720703125e+01,9.688975524902343750e+01,-5.755954742431640625e+00,4.031498432159423828e-01,-6.667009735107421875e+01,-1.826863250732421875e+02,-2.342245101928710938e+00,7.562065887451171875e+01,3.135697174072265625e+01
6.639850139617919922e-01,1.000000000000000000e+00,-3.990282058715820312e+01,3.761690139770507812e+01,3.273385238647460938e+01,9.926868438720703125e+01,9.688975524902343750e+01,-5.755954742431640625e+00,4.031498432159423828e-01,-6.667009735107421875e+01,-1.826863250732421875e+02,-2.342245101928710938e+00,7.562065887451171875e+01,3.135697174072265625e+01
6.688669919967651367e-01,1.000000000000000000e+00,-3.994475936889648438e+01,3.753579711914062500e+01,3.275635910034179688e+01,9.919499206542968750e+01,9.691199493408203125e+01,-5.779486656188964844e+00,4.031498432159423828e-01,-6.667009735107421875e+01,-1.826863250732421875e+02,-2.342316627502441406e+00,7.562051391601562500e+01,3.135697174072265625e+01
6.729260087013244629e-01,1.000000000000000000e+00,-3.998658370971679688e+01,3.745441818237304688e+01,3.277902603149414062e+01,9.912093353271484375e+01,9.693411254882812500e+01,-5.802205562591552734e+00,4.031498432159423828e-01,-6.667009735107421875e+01,-1.826863250732421875e+02,-2.342316627502441406e+00,7.562065887451171875e+01,3.135719108581542969e+01
6.769180297851562500e-01,1.000000000000000000e+00,-4.002840805053710938e+01,3.737258911132812500e+01,3.280169677734375000e+01,9.904640197753906250e+01,9.695554351806640625e+01,-5.825127601623535156e+00,4.031498432159423828e-01,-6.667009735107421875e+01,-1.826863250732421875e+02,-2.342316627502441406e+00,7.562051391601562500e+01,3.135697174072265625e+01
6.818889975547790527e-01,1.000000000000000000e+00,-4.007023620605468750e+01,3.729069137573242188e+01,3.282422637939453125e+01,9.897192382812500000e+01,9.697608184814453125e+01,-5.848592281341552734e+00,4.031498432159423828e-01,-6.667009735107421875e+01,-1.826863250732421875e+02,-2.342460393905639648e+00,7.562065887451171875e+01,3.135697174072265625e+01
6.844369769096374512e-01,1.000000000000000000e+00,-4.015428924560546875e+01,3.712648773193359375e+01,3.286930084228515625e+01,9.882411956787109375e+01,9.701771545410156250e+01,-5.895725250244140625e+00,4.031498432159423828e-01,-6.667009735107421875e+01,-1.826863250732421875e+02,-2.342316627502441406e+00,7.562065887451171875e+01,3.135697174072265625e+01
6.875249743461608887e-01,1.000000000000000000e+00,-4.015428924560546875e+01,3.712648773193359375e+01,3.286930084228515625e+01,9.882411956787109375e+01,9.701771545410156250e+01,-5.895725250244140625e+00,4.031498432159423828e-01,-6.667009735107421875e+01,-1.826863250732421875e+02,-2.342316627502441406e+00,7.562065887451171875e+01,3.135697174072265625e+01
6.926590204238891602e-01,1.000000000000000000e+00,-4.019617080688476562e+01,3.704475021362304688e+01,3.289189147949218750e+01,9.874984741210937500e+01,9.703957366943359375e+01,-5.919867515563964844e+00,4.031498432159423828e-01,-6.667019653320312500e+01,-1.826863250732421875e+02,-2.342316627502441406e+00,7.562065887451171875e+01,3.135697174072265625e+01
6.959699988365173340e-01,1.000000000000000000e+00,-4.023814392089843750e+01,3.696323394775390625e+01,3.291466140747070312e+01,9.867562866210937500e+01,9.706191253662109375e+01,-5.944010734558105469e+00,4.031498432159423828e-01,-6.667009735107421875e+01,-1.826863250732421875e+02,-2.342316627502441406e+00,7.562065887451171875e+01,3.135697174072265625e+01
6.995499730110168457e-01,1.000000000000000000e+00,-4.028028106689453125e+01,3.688203811645507812e+01,3.293721008300781250e+01,9.860167694091796875e+01,9.708393096923828125e+01,-5.967814445495605469e+00,4.031498432159423828e-01,-6.667009735107421875e+01,-1.826863250732421875e+02,-2.342245101928710938e+00,7.562065887451171875e+01,3.135697174072265625e+01
7.043560147285461426e-01,1.000000000000000000e+00,-4.032233810424804688e+01,3.680057144165039062e+01,3.295975875854492188e+01,9.852761840820312500e+01,9.710510253906250000e+01,-5.990397453308105469e+00,4.031498432159423828e-01,-6.667009735107421875e+01,-1.826863250732421875e+02,-2.342245101928710938e+00,7.562065887451171875e+01,3.135697174072265625e+01
7.078199982643127441e-01,1.000000000000000000e+00,-4.036450958251953125e+01,3.671881103515625000e+01,3.298230361938476562e+01,9.845313262939453125e+01,9.712562561035156250e+01,-6.013251781463623047e+00,4.031498432159423828e-01,-6.667009735107421875e+01,-1.826863250732421875e+02,-2.342316627502441406e+00,7.562065887451171875e+01,3.135675048828125000e+01
7.119250297546386719e-01,1.000000000000000000e+00,-4.040679550170898438e+01,3.663675308227539062e+01,3.300509643554687500e+01,9.837886047363281250e+01,9.714673614501953125e+01,-6.037055492401123047e+00,4.031498432159423828e-01,-6.667009735107421875e+01,-1.826863250732421875e+02,-2.342316627502441406e+00,7.562065887451171875e+01,3.135697174072265625e+01
7.166529893875122070e-01,1.000000000000000000e+00,-4.044905090332031250e+01,3.655438232421875000e+01,3.302790832519531250e+01,9.830406188964843750e+01,9.716828155517578125e+01,-6.060723304748535156e+00,4.031498432159423828e-01,-6.667009735107421875e+01,-1.826863250732421875e+02,-2.342245101928710938e+00,7.562065887451171875e+01,3.135697174072265625e+01
7.199829816818237305e-01,1.000000000000000000e+00,-4.049110794067382812e+01,3.647191619873046875e+01,3.305046081542968750e+01,9.823000335693359375e+01,9.718997955322265625e+01,-6.084798336029052734e+00,4.031498432159423828e-01,-6.667009735107421875e+01,-1.826863250732421875e+02,-2.342316627502441406e+00,7.562065887451171875e+01,3.135697174072265625e+01
7.239850163459777832e-01,1.000000000000000000e+00,-4.053333282470703125e+01,3.638945388793945312e+01,3.307302474975585938e+01,9.815489196777343750e+01,9.721253204345703125e+01,-6.108669757843017578e+00,4.031498432159423828e-01,-6.667009735107421875e+01,-1.826863250732421875e+02,-2.342316627502441406e+00,7.562065887451171875e+01,3.135697174072265625e+01
7.286999821662902832e-01,1.000000000000000000e+00,-4.057576370239257812e+01,3.630739593505859375e+01,3.309575653076171875e+01,9.808009338378906250e+01,9.723471069335937500e+01,-6.133083820343017578e+00,4.031498432159423828e-01,-6.667009735107421875e+01,-1.826863250732421875e+02,-2.342460393905639648e+00,7.562065887451171875e+01,3.135697174072265625e+01
7.319520115852355957e-01,1.000000000000000000e+00,-4.061830520629882812e+01,3.622554397583007812e+01,3.311869430541992188e+01,9.800535583496093750e+01,9.725582122802734375e+01,-6.156548500061035156e+00,4.031498432159423828e-01,-6.667009735107421875e+01,-1.826863250732421875e+02,-2.342460393905639648e+00,7.562065887451171875e+01,3.135675048828125000e+01
7.359600067138671875e-01,1.000000000000000000e+00,-4.066070556640625000e+01,3.614351272583007812e+01,3.314158248901367188e+01,9.793123626708984375e+01,9.727640533447265625e+01,-6.179131507873535156e+00,4.031498432159423828e-01,-6.667019653320312500e+01,-1.826863250732421875e+02,-2.342316627502441406e+00,7.562065887451171875e+01,3.135697174072265625e+01
7.408499717712402344e-01,1.000000000000000000e+00,-4.070316314697265625e+01,3.606161499023437500e+01,3.316423416137695312e+01,9.785671234130859375e+01,9.729714202880859375e+01,-6.202460765838623047e+00,4.031498432159423828e-01,-6.667009735107421875e+01,-1.826863250732421875e+02,-2.342245101928710938e+00,7.562065887451171875e+01,3.135675048828125000e+01
7.440369725227355957e-01,1.000000000000000000e+00,-4.074565124511718750e+01,3.597951507568359375e+01,3.318653869628906250e+01,9.778206634521484375e+01,9.731884765625000000e+01,-6.225992679595947266e+00,4.031498432159423828e-01,-6.667009735107421875e+01,-1.826863250732421875e+02,-2.342316627502441406e+00,7.562081146240234375e+01,3.135675048828125000e+01
7.480520009994506836e-01,1.000000000000000000e+00,-4.078813552856445312e+01,3.589702606201171875e+01,3.320919036865234375e+01,9.770721435546875000e+01,9.734107971191406250e+01,-6.249796390533447266e+00,4.031498432159423828e-01,-6.667009735107421875e+01,-1.826863250732421875e+02,-2.342316627502441406e+00,7.562065887451171875e+01,3.135697174072265625e+01
7.527840137481689453e-01,1.000000000000000000e+00,-4.083050918579101562e+01,3.581427001953125000e+01,3.323218154907226562e+01,9.763253021240234375e+01,9.736357879638671875e+01,-6.273939609527587891e+00,4.031498432159423828e-01,-6.667009735107421875e+01,-1.826863250732421875e+02,-2.342460393905639648e+00,7.562051391601562500e+01,3.135697174072265625e+01
7.560769915580749512e-01,1.000000000000000000e+00,-4.087310791015625000e+01,3.573119735717773438e+01,3.325511932373046875e+01,9.755746459960937500e+01,9.738527679443359375e+01,-6.298421382904052734e+00,4.031498432159423828e-01,-6.667009735107421875e+01,-1.826863250732421875e+02,-2.342245101928710938e+00,7.562065887451171875e+01,3.135697174072265625e+01
7.599620223045349121e-01,1.000000000000000000e+00,-4.091567993164062500e+01,3.564814376831054688e+01,3.327805328369140625e+01,9.748271942138671875e+01,9.740638732910156250e+01,-6.322699546813964844e+00,4.031498432159423828e-01,-6.667009735107421875e+01,-1.826863250732421875e+02,-2.342316627502441406e+00,7.562065887451171875e+01,3.135697174072265625e+01
7.648730278015136719e-01,1.000000000000000000e+00,-4.095836639404296875e+01,3.556534194946289062e+01,3.330076217651367188e+01,9.740766143798828125e+01,9.742723846435546875e+01,-6.346571445465087891e+00,4.031498432159423828e-01,-6.667009735107421875e+01,-1.826863250732421875e+02,-2.342316627502441406e+00,7.562065887451171875e+01,3.135697174072265625e+01
7.683069705963134766e-01,1.000000000000000000e+00,-4.100077056884765625e+01,3.548299026489257812e+01,3.332345199584960938e+01,9.733244323730468750e+01,9.744845581054687500e+01,-6.369561195373535156e+00,4.031498432159423828e-01,-6.667009735107421875e+01,-1.826863250732421875e+02,-2.342245101928710938e+00,7.562065887451171875e+01,3.135697174072265625e+01
7.721660137176513672e-01,1.000000000000000000e+00,-4.104325103759765625e+01,3.540084457397460938e+01,3.334640884399414062e+01,9.725727844238281250e+01,9.747037506103515625e+01,-6.392890453338623047e+00,4.031498432159423828e-01,-6.667019653320312500e+01,-1.826863250732421875e+02,-2.342316627502441406e+00,7.562081146240234375e+01,3.135697174072265625e+01
7.748919725418090820e-01,1.000000000000000000e+00,-4.108579635620117188e+01,3.531851577758789062e+01,3.336917877197265625e+01,9.718211364746093750e+01,9.749275970458984375e+01,-6.416829586029052734e+00,4.031498432159423828e-01,-6.667009735107421875e+01,-1.826863250732421875e+02,-2.342245101928710938e+00,7.562065887451171875e+01,3.135697174072265625e+01
7.802670001983642578e-01,1.000000000000000000e+00,-4.112842941284179688e+01,3.523578262329101562e+01,3.339192962646484375e+01,9.710673522949218750e+01,9.751542663574218750e+01,-6.441040039062500000e+00,4.031498432159423828e-01,-6.667009735107421875e+01,-1.826863250732421875e+02,-2.342316627502441406e+00,7.562065887451171875e+01,3.135697174072265625e+01
7.829340100288391113e-01,1.000000000000000000e+00,-4.117097091674804688e+01,3.515277481079101562e+01,3.341474533081054688e+01,9.703162384033203125e+01,9.753728485107421875e+01,-6.465657711029052734e+00,4.031498432159423828e-01,-6.667001342773437500e+01,-1.826863250732421875e+02,-2.342245101928710938e+00,7.562065887451171875e+01,3.135697174072265625e+01
7.892199754714965820e-01,1.000000000000000000e+00,-4.121348571777343750e+01,3.506961059570312500e+01,3.343773651123046875e+01,9.695677185058593750e+01,9.755807495117187500e+01,-6.490071773529052734e+00,4.031498432159423828e-01,-6.667009735107421875e+01,-1.826863250732421875e+02,-2.342245101928710938e+00,7.562065887451171875e+01,3.135697174072265625e+01
7.908629775047302246e-01,1.000000000000000000e+00,-4.125588607788085938e+01,3.498608398437500000e+01,3.346093750000000000e+01,9.688166046142578125e+01,9.757919311523437500e+01,-6.514078617095947266e+00,4.031498432159423828e-01,-6.667009735107421875e+01,-1.826863250732421875e+02,-2.342316627502441406e+00,7.562065887451171875e+01,3.135697174072265625e+01
7.949479818344116211e-01,1.000000000000000000e+00,-4.129819869995117188e+01,3.490260314941406250e+01,3.348395156860351562e+01,9.680643463134765625e+01,9.760046386718750000e+01,-6.537543296813964844e+00,4.031498432159423828e-01,-6.667009735107421875e+01,-1.826863250732421875e+02,-2.342316627502441406e+00,7.562081146240234375e+01,3.135697174072265625e+01
8.011469841003417969e-01,1.000000000000000000e+00,-4.134068298339843750e+01,3.481948089599609375e+01,3.350688552856445312e+01,9.673095703125000000e+01,9.762248229980468750e+01,-6.561007976531982422e+00,4.031498432159423828e-01,-6.667009735107421875e+01,-1.826863250732421875e+02,-2.342245101928710938e+00,7.562065887451171875e+01,3.135697174072265625e+01
8.028650283813476562e-01,1.000000000000000000e+00,-4.138331222534179688e+01,3.473690414428710938e+01,3.352959823608398438e+01,9.665573883056640625e+01,9.764535522460937500e+01,-6.585015296936035156e+00,4.031498432159423828e-01,-6.667009735107421875e+01,-1.826863250732421875e+02,-2.342245101928710938e+00,7.562065887451171875e+01,3.135697174072265625e+01
8.069549798965454102e-01,1.000000000000000000e+00,-4.142576980590820312e+01,3.465401077270507812e+01,3.355245208740234375e+01,9.657999420166015625e+01,9.766790771484375000e+01,-6.609225749969482422e+00,4.031498432159423828e-01,-6.667009735107421875e+01,-1.826863250732421875e+02,-2.342460393905639648e+00,7.562065887451171875e+01,3.135697174072265625e+01
8.109089732170104980e-01,1.000000000000000000e+00,-4.146817398071289062e+01,3.457131958007812500e+01,3.357560729980468750e+01,9.650450897216796875e+01,9.768965911865234375e+01,-6.633639812469482422e+00,4.031498432159423828e-01,-6.667009735107421875e+01,-1.826863250732421875e+02,-2.342245101928710938e+00,7.562065887451171875e+01,3.135697174072265625e+01
8.148840069770812988e-01,1.000000000000000000e+00,-4.151057052612304688e+01,3.448836135864257812e+01,3.359866333007812500e+01,9.642834472656250000e+01,9.771055603027343750e+01,-6.658053874969482422e+00,4.031498432159423828e-01,-6.667009735107421875e+01,-1.826863250732421875e+02,-2.342460393905639648e+00,7.562065887451171875e+01,3.135697174072265625e+01
8.189859986305236816e-01,1.000000000000000000e+00,-4.155308532714843750e+01,3.440494918823242188e+01,3.362166213989257812e+01,9.635281372070312500e+01,9.773171997070312500e+01,-6.682942867279052734e+00,4.031498432159423828e-01,-6.667009735107421875e+01,-1.826864318847656250e+02,-2.342316627502441406e+00,7.562065887451171875e+01,3.135697174072265625e+01
8.230710029602050781e-01,1.000000000000000000e+00,-4.159565734863281250e+01,3.432137298583984375e+01,3.364457321166992188e+01,9.627732849121093750e+01,9.775369262695312500e+01,-6.707153797149658203e+00,4.031498432159423828e-01,-6.667009735107421875e+01,-1.826863250732421875e+02,-2.342245101928710938e+00,7.562065887451171875e+01,3.135697174072265625e+01
8.287569880485534668e-01,1.000000000000000000e+00,-4.163811874389648438e+01,3.423755264282226562e+01,3.366762924194335938e+01,9.620163726806640625e+01,9.777619171142578125e+01,-6.730685710906982422e+00,4.031498432159423828e-01,-6.667009735107421875e+01,-1.826863250732421875e+02,-2.342316627502441406e+00,7.562065887451171875e+01,3.135719108581542969e+01
8.325719833374023438e-01,1.000000000000000000e+00,-4.168069076538085938e+01,3.415377807617187500e+01,3.369084930419921875e+01,9.612573242187500000e+01,9.779895782470703125e+01,-6.754218101501464844e+00,4.031498432159423828e-01,-6.667009735107421875e+01,-1.826863250732421875e+02,-2.342316627502441406e+00,7.562065887451171875e+01,3.135719108581542969e+01
8.368279933929443359e-01,1.000000000000000000e+00,-4.172323226928710938e+01,3.407025146484375000e+01,3.371392822265625000e+01,9.605009460449218750e+01,9.782118988037109375e+01,-6.778293609619140625e+00,4.031498432159423828e-01,-6.667009735107421875e+01,-1.826863250732421875e+02,-2.342316627502441406e+00,7.562051391601562500e+01,3.135719108581542969e+01
8.408179879188537598e-01,1.000000000000000000e+00,-4.176588821411132812e+01,3.398715209960937500e+01,3.373690032958984375e+01,9.597456359863281250e+01,9.784230041503906250e+01,-6.802571773529052734e+00,4.031498432159423828e-01,-6.667009735107421875e+01,-1.826863250732421875e+02,-2.342173099517822266e+00,7.562065887451171875e+01,3.135719108581542969e+01
8.446660041809082031e-01,1.000000000000000000e+00,-4.180880737304687500e+01,3.390441894531250000e+01,3.375987625122070312e+01,9.589849853515625000e+01,9.786330413818359375e+01,-6.827121734619140625e+00,4.031498432159423828e-01,-6.667009735107421875e+01,-1.826863250732421875e+02,-2.342316627502441406e+00,7.562051391601562500e+01,3.135719108581542969e+01
8.496699929237365723e-01,1.000000000000000000e+00,-4.185158157348632812e+01,3.382120895385742188e+01,3.378295135498046875e+01,9.582227325439453125e+01,9.788452911376953125e+01,-6.852077960968017578e+00,4.031498432159423828e-01,-6.667009735107421875e+01,-1.826863250732421875e+02,-2.342316627502441406e+00,7.562081146240234375e+01,3.135719108581542969e+01
8.528640270233154297e-01,1.000000000000000000e+00,-4.189461135864257812e+01,3.373781585693359375e+01,3.380612945556640625e+01,9.574668884277343750e+01,9.790654754638671875e+01,-6.876763343811035156e+00,4.031498432159423828e-01,-6.667009735107421875e+01,-1.826863250732421875e+02,-2.342316627502441406e+00,7.562065887451171875e+01,3.135719108581542969e+01
8.567579984664916992e-01,1.000000000000000000e+00,-4.193755722045898438e+01,3.365401840209960938e+01,3.382926940917968750e+01,9.567063140869140625e+01,9.792921447753906250e+01,-6.900702953338623047e+00,4.031498432159423828e-01,-6.667009735107421875e+01,-1.826863250732421875e+02,-2.342316627502441406e+00,7.562065887451171875e+01,3.135719108581542969e+01
8.629680275917053223e-01,1.000000000000000000e+00,-4.198076248168945312e+01,3.356999588012695312e+01,3.385226058959960938e+01,9.559404754638671875e+01,9.795191955566406250e+01,-6.923964023590087891e+00,4.031498432159423828e-01,-6.667009735107421875e+01,-1.826863250732421875e+02,-2.342245101928710938e+00,7.562065887451171875e+01,3.135697174072265625e+01
8.655120134353637695e-01,1.000000000000000000e+00,-4.206722259521484375e+01,3.340146636962890625e+01,3.389847946166992188e+01,9.544149780273437500e+01,9.799478912353515625e+01,-6.972045898437500000e+00,4.031498432159423828e-01,-6.667009735107421875e+01,-1.826863250732421875e+02,-2.342245101928710938e+00,7.562065887451171875e+01,3.135675048828125000e+01
8.692309856414794922e-01,1.000000000000000000e+00,-4.206722259521484375e+01,3.340146636962890625e+01,3.389847946166992188e+01,9.544149780273437500e+01,9.799478912353515625e+01,-6.972045898437500000e+00,4.031498432159423828e-01,-6.667009735107421875e+01,-1.826863250732421875e+02,-2.342245101928710938e+00,7.562065887451171875e+01,3.135675048828125000e+01
8.708810210227966309e-01,1.000000000000000000e+00,-4.211042785644531250e+01,3.331764602661132812e+01,3.392159652709960938e+01,9.536575317382812500e+01,9.801622009277343750e+01,-6.996392250061035156e+00,4.031498432159423828e-01,-6.667009735107421875e+01,-1.826863250732421875e+02,-2.342316627502441406e+00,7.562065887451171875e+01,3.135675048828125000e+01
8.748720288276672363e-01,1.000000000000000000e+00,-4.215389251708984375e+01,3.323418807983398438e+01,3.394493484497070312e+01,9.528910827636718750e+01,9.803818511962890625e+01,-7.021009922027587891e+00,4.031498432159423828e-01,-6.667009735107421875e+01,-1.826863250732421875e+02,-2.342316627502441406e+00,7.562051391601562500e+01,3.135675048828125000e+01
8.788599967956542969e-01,1.000000000000000000e+00,-4.219726943969726562e+01,3.315043258666992188e+01,3.396809005737304688e+01,9.521315002441406250e+01,9.806063079833984375e+01,-7.046169757843017578e+00,4.031498432159423828e-01,-6.667009735107421875e+01,-1.826863250732421875e+02,-2.342245101928710938e+00,7.562065887451171875e+01,3.135653114318847656e+01
8.829330205917358398e-01,1.000000000000000000e+00,-4.224081802368164062e+01,3.306674957275390625e+01,3.399131011962890625e+01,9.513667297363281250e+01,9.808355712890625000e+01,-7.070651531219482422e+00,4.031498432159423828e-01,-6.667009735107421875e+01,-1.826862182617187500e+02,-2.342316627502441406e+00,7.562065887451171875e+01,3.135697174072265625e+01
8.892930150032043457e-01,1.000000000000000000e+00,-4.228430938720703125e+01,3.298283767700195312e+01,3.401448822021484375e+01,9.506098175048828125e+01,9.810632324218750000e+01,-7.094116210937500000e+00,4.031498432159423828e-01,-6.667009735107421875e+01,-1.826863250732421875e+02,-2.342316627502441406e+00,7.562065887451171875e+01,3.135697174072265625e+01
8.909140229225158691e-01,1.000000000000000000e+00,-4.232788467407226562e+01,3.289835739135742188e+01,3.403760528564453125e+01,9.498434448242187500e+01,9.812813568115234375e+01,-7.117784500122070312e+00,4.031498432159423828e-01,-6.667019653320312500e+01,-1.826863250732421875e+02,-2.342460393905639648e+00,7.562065887451171875e+01,3.135697174072265625e+01
8.972039818763732910e-01,1.000000000000000000e+00,-4.237137603759765625e+01,3.281344985961914062e+01,3.406090545654296875e+01,9.490801239013671875e+01,9.814897918701171875e+01,-7.141859531402587891e+00,4.031498432159423828e-01,-6.667009735107421875e+01,-1.826863250732421875e+02,-2.342245101928710938e+00,7.562065887451171875e+01,3.135719108581542969e+01
8.988620042800903320e-01,1.000000000000000000e+00,-4.241503906250000000e+01,3.272840881347656250e+01,3.408420944213867188e+01,9.483100128173828125e+01,9.817041015625000000e+01,-7.166069984436035156e+00,4.031498432159423828e-01,-6.667009735107421875e+01,-1.826863250732421875e+02,-2.342316627502441406e+00,7.562065887451171875e+01,3.135719108581542969e+01
9.050980210304260254e-01,1.000000000000000000e+00,-4.241503906250000000e+01,3.272840881347656250e+01,3.408420944213867188e+01,9.483100128173828125e+01,9.817041015625000000e+01,-7.166069984436035156e+00,4.031498432159423828e-01,-6.667009735107421875e+01,-1.826863250732421875e+02,-2.342316627502441406e+00,7.562065887451171875e+01,3.135697174072265625e+01
9.069960117340087891e-01,1.000000000000000000e+00,-4.250230789184570312e+01,3.255913543701171875e+01,3.413107299804687500e+01,9.467751312255859375e+01,9.821530151367187500e+01,-7.215711593627929688e+00,4.031498432159423828e-01,-6.667009735107421875e+01,-1.826863250732421875e+02,-2.342460393905639648e+00,7.562065887451171875e+01,3.135675048828125000e+01
9.152169823646545410e-01,1.000000000000000000e+00,-4.254579925537109375e+01,3.247515487670898438e+01,3.415429306030273438e+01,9.460113525390625000e+01,9.823838806152343750e+01,-7.240397453308105469e+00,4.031498432159423828e-01,-6.667009735107421875e+01,-1.826863250732421875e+02,-2.342316627502441406e+00,7.562051391601562500e+01,3.135697174072265625e+01
9.179310202598571777e-01,1.000000000000000000e+00,-4.263318252563476562e+01,3.230699157714843750e+01,3.420066833496093750e+01,9.444795989990234375e+01,9.828210449218750000e+01,-7.288004875183105469e+00,4.031498432159423828e-01,-6.667009735107421875e+01,-1.826863250732421875e+02,-2.342316627502441406e+00,7.562065887451171875e+01,3.135697174072265625e+01
9.198859930038452148e-01,1.000000000000000000e+00,-4.263318252563476562e+01,3.230699157714843750e+01,3.420066833496093750e+01,9.444795989990234375e+01,9.828210449218750000e+01,-7.288004875183105469e+00,4.031498432159423828e-01,-6.667009735107421875e+01,-1.826863250732421875e+02,-2.342316627502441406e+00,7.562065887451171875e+01,3.135697174072265625e+01
9.228739738464355469e-01,1.000000000000000000e+00,-4.267664337158203125e+01,3.222240447998046875e+01,3.422404861450195312e+01,9.437131500244140625e+01,9.830332946777343750e+01,-7.312012195587158203e+00,4.031498432159423828e-01,-6.667009735107421875e+01,-1.826863250732421875e+02,-2.342245101928710938e+00,7.562065887451171875e+01,3.135697174072265625e+01
9.280059933662414551e-01,1.000000000000000000e+00,-4.267664337158203125e+01,3.222240447998046875e+01,3.422404861450195312e+01,9.437131500244140625e+01,9.830332946777343750e+01,-7.312012195587158203e+00,4.031498432159423828e-01,-6.667009735107421875e+01,-1.826863250732421875e+02,-2.342245101928710938e+00,7.562065887451171875e+01,3.135697174072265625e+01
9.309560060501098633e-01,1.000000000000000000e+00,-4.276365280151367188e+01,3.205231475830078125e+01,3.427089309692382812e+01,9.421777343750000000e+01,9.834800720214843750e+01,-7.360569000244140625e+00,4.031498432159423828e-01,-6.667009735107421875e+01,-1.826863250732421875e+02,-2.342460393905639648e+00,7.562065887451171875e+01,3.135697174072265625e+01
9.359200000762939453e-01,1.000000000000000000e+00,-4.276365280151367188e+01,3.205231475830078125e+01,3.427089309692382812e+01,9.421777343750000000e+01,9.834800720214843750e+01,-7.360569000244140625e+00,4.031498432159423828e-01,-6.667009735107421875e+01,-1.826863250732421875e+02,-2.342460393905639648e+00,7.562065887451171875e+01,3.135697174072265625e+01
9.388660192489624023e-01,1.000000000000000000e+00,-4.285069274902343750e+01,3.188216209411621094e+01,3.431776046752929688e+01,9.406423187255859375e+01,9.839391326904296875e+01,-7.410549640655517578e+00,4.031498432159423828e-01,-6.667009735107421875e+01,-1.826863250732421875e+02,-2.342245101928710938e+00,7.562065887451171875e+01,3.135697174072265625e+01
9.439070224761962891e-01,1.000000000000000000e+00,-4.285069274902343750e+01,3.188216209411621094e+01,3.431776046752929688e+01,9.406423187255859375e+01,9.839391326904296875e+01,-7.410549640655517578e+00,4.031498432159423828e-01,-6.667009735107421875e+01,-1.826863250732421875e+02,-2.342245101928710938e+00,7.562065887451171875e+01,3.135697174072265625e+01
9.468629956245422363e-01,1.000000000000000000e+00,-4.293781661987304688e+01,3.171311759948730469e+01,3.436484909057617188e+01,9.390984344482421875e+01,9.843779754638671875e+01,-7.459445953369140625e+00,4.031498432159423828e-01,-6.667009735107421875e+01,-1.826863250732421875e+02,-2.342245101928710938e+00,7.562065887451171875e+01,3.135697174072265625e+01
9.520329833030700684e-01,1.000000000000000000e+00,-4.293781661987304688e+01,3.171311759948730469e+01,3.436484909057617188e+01,9.390984344482421875e+01,9.843779754638671875e+01,-7.459445953369140625e+00,4.031498432159423828e-01,-6.667009735107421875e+01,-1.826863250732421875e+02,-2.342245101928710938e+00,7.562065887451171875e+01,3.135697174072265625e+01
9.550049901008605957e-01,1.000000000000000000e+00,-4.302488708496093750e+01,3.154425239562988281e+01,3.441136932373046875e+01,9.375540161132812500e+01,9.848161315917968750e+01,-7.507392406463623047e+00,4.031498432159423828e-01,-6.667009735107421875e+01,-1.826863250732421875e+02,-2.342245101928710938e+00,7.562065887451171875e+01,3.135719108581542969e+01
9.599239826202392578e-01,1.000000000000000000e+00,-4.302488708496093750e+01,3.154425239562988281e+01,3.441136932373046875e+01,9.375540161132812500e+01,9.848161315917968750e+01,-7.507392406463623047e+00,4.031498432159423828e-01,-6.667009735107421875e+01,-1.826863250732421875e+02,-2.342245101928710938e+00,7.562065887451171875e+01,3.135719108581542969e+01
9.628790020942687988e-01,1.000000000000000000e+00,-4.311201095581054688e+01,3.137403106689453125e+01,3.445861816406250000e+01,9.360086059570312500e+01,9.852837371826171875e+01,-7.556898117065429688e+00,4.031498432159423828e-01,-6.667009735107421875e+01,-1.826863250732421875e+02,-2.342316627502441406e+00,7.562065887451171875e+01,3.135719108581542969e+01
9.679639935493469238e-01,1.000000000000000000e+00,-4.311201095581054688e+01,3.137403106689453125e+01,3.445861816406250000e+01,9.360086059570312500e+01,9.852837371826171875e+01,-7.556898117065429688e+00,4.031498432159423828e-01,-6.667009735107421875e+01,-1.826863250732421875e+02,-2.342316627502441406e+00,7.562065887451171875e+01,3.135719108581542969e+01
9.710220098495483398e-01,1.000000000000000000e+00,-4.319922256469726562e+01,3.120279121398925781e+01,3.450564575195312500e+01,9.344652557373046875e+01,9.857268524169921875e+01,-7.607014656066894531e+00,4.031498432159423828e-01,-6.667009735107421875e+01,-1.826863250732421875e+02,-2.342316627502441406e+00,7.562065887451171875e+01,3.135675048828125000e+01
9.759569764137268066e-01,1.000000000000000000e+00,-4.319922256469726562e+01,3.120279121398925781e+01,3.450564575195312500e+01,9.344652557373046875e+01,9.857268524169921875e+01,-7.607014656066894531e+00,4.031498432159423828e-01,-6.667009735107421875e+01,-1.826863250732421875e+02,-2.342316627502441406e+00,7.562065887451171875e+01,3.135675048828125000e+01
9.788860082626342773e-01,1.000000000000000000e+00,-4.328663635253906250e+01,3.103232002258300781e+01,3.455250930786132812e+01,9.329187011718750000e+01,9.861666870117187500e+01,-7.655504226684570312e+00,4.031498432159423828e-01,-6.667009735107421875e+01,-1.826863250732421875e+02,-2.342316627502441406e+00,7.562065887451171875e+01,3.135675048828125000e+01
9.839239716529846191e-01,1.000000000000000000e+00,-4.328663635253906250e+01,3.103232002258300781e+01,3.455250930786132812e+01,9.329187011718750000e+01,9.861666870117187500e+01,-7.655504226684570312e+00,4.031498432159423828e-01,-6.667009735107421875e+01,-1.826863250732421875e+02,-2.342316627502441406e+00,7.562065887451171875e+01,3.135675048828125000e+01
9.868729710578918457e-01,1.000000000000000000e+00,-4.337424468994140625e+01,3.086279678344726562e+01,3.459967803955078125e+01,9.313690185546875000e+01,9.866300201416015625e+01,-7.703993320465087891e+00,4.031498432159423828e-01,-6.667009735107421875e+01,-1.826863250732421875e+02,-2.342316627502441406e+00,7.562065887451171875e+01,3.135653114318847656e+01
9.919750094413757324e-01,1.000000000000000000e+00,-4.337424468994140625e+01,3.086279678344726562e+01,3.459967803955078125e+01,9.313690185546875000e+01,9.866300201416015625e+01,-7.703993320465087891e+00,4.031498432159423828e-01,-6.667009735107421875e+01,-1.826863250732421875e+02,-2.342316627502441406e+00,7.562065887451171875e+01,3.135653114318847656e+01
9.949510097503662109e-01,1.000000000000000000e+00,-4.346234893798828125e+01,3.069176292419433594e+01,3.464672851562500000e+01,9.298093414306640625e+01,9.870832061767578125e+01,-7.754177093505859375e+00,4.031498432159423828e-01,-6.667009735107421875e+01,-1.826863250732421875e+02,-2.342316627502441406e+00,7.562065887451171875e+01,3.135697174072265625e+01
9.999189972877502441e-01,1.000000000000000000e+00,-4.346234893798828125e+01,3.069176292419433594e+01,3.464672851562500000e+01,9.298093414306640625e+01,9.870832061767578125e+01,-7.754177093505859375e+00,4.031498432159423828e-01,-6.667009735107421875e+01,-1.826863250732421875e+02,-2.342316627502441406e+00,7.562065887451171875e+01,3.135697174072265625e+01
1.003926038742065430e+00,1.000000000000000000e+00,-4.355064773559570312e+01,3.051947784423828125e+01,3.469422149658203125e+01,9.282575225830078125e+01,9.875160980224609375e+01,-7.804769515991210938e+00,4.031498432159423828e-01,-6.667009735107421875e+01,-1.826863250732421875e+02,-2.342316627502441406e+00,7.562065887451171875e+01,3.135697174072265625e+01
1.008038997650146484e+00,1.000000000000000000e+00,-4.359474563598632812e+01,3.043316841125488281e+01,3.471782684326171875e+01,9.274784851074218750e+01,9.877410888671875000e+01,-7.829251289367675781e+00,4.031498432159423828e-01,-6.667009735107421875e+01,-1.826863250732421875e+02,-2.342460393905639648e+00,7.562065887451171875e+01,3.135697174072265625e+01
1.010861992835998535e+00,1.000000000000000000e+00,-4.363889694213867188e+01,3.034737777709960938e+01,3.474137115478515625e+01,9.267005157470703125e+01,9.879767608642578125e+01,-7.853461742401123047e+00,4.031498432159423828e-01,-6.667009735107421875e+01,-1.826863250732421875e+02,-2.342316627502441406e+00,7.562065887451171875e+01,3.135697174072265625e+01
1.015985012054443359e+00,1.000000000000000000e+00,-4.363889694213867188e+01,3.034737777709960938e+01,3.474137115478515625e+01,9.267005157470703125e+01,9.879767608642578125e+01,-7.853461742401123047e+00,4.031498432159423828e-01,-6.667009735107421875e+01,-1.826863250732421875e+02,-2.342316627502441406e+00,7.562065887451171875e+01,3.135697174072265625e+01
1.018947005271911621e+00,1.000000000000000000e+00,-4.372748565673828125e+01,3.017645645141601562e+01,3.478886795043945312e+01,9.251482391357421875e+01,9.884379577636718750e+01,-7.902357578277587891e+00,4.031498432159423828e-01,-6.667009735107421875e+01,-1.826863250732421875e+02,-2.342245101928710938e+00,7.562065887451171875e+01,3.135675048828125000e+01
1.023906946182250977e+00,1.000000000000000000e+00,-4.372748565673828125e+01,3.017645645141601562e+01,3.478886795043945312e+01,9.251482391357421875e+01,9.884379577636718750e+01,-7.902357578277587891e+00,4.031498432159423828e-01,-6.667009735107421875e+01,-1.826863250732421875e+02,-2.342245101928710938e+00,7.562065887451171875e+01,3.135675048828125000e+01
1.028007030487060547e+00,1.000000000000000000e+00,-4.381624603271484375e+01,3.000539779663085938e+01,3.483628082275390625e+01,9.235858917236328125e+01,9.888729858398437500e+01,-7.953152656555175781e+00,4.031498432159423828e-01,-6.667009735107421875e+01,-1.826863250732421875e+02,-2.342460393905639648e+00,7.562065887451171875e+01,3.135675048828125000e+01
1.032156944274902344e+00,1.000000000000000000e+00,-4.386065292358398438e+01,2.991899490356445312e+01,3.485982513427734375e+01,9.228052520751953125e+01,9.890969085693359375e+01,-7.978448390960693359e+00,4.031498432159423828e-01,-6.667009735107421875e+01,-1.826863250732421875e+02,-2.342245101928710938e+00,7.562065887451171875e+01,3.135719108581542969e+01
1.035920023918151855e+00,1.000000000000000000e+00,-4.390503692626953125e+01,2.983225440979003906e+01,3.488346862792968750e+01,9.220241546630859375e+01,9.893294525146484375e+01,-8.002997398376464844e+00,4.031498432159423828e-01,-6.667009735107421875e+01,-1.826862182617187500e+02,-2.342316627502441406e+00,7.562065887451171875e+01,3.135697174072265625e+01
1.038920998573303223e+00,1.000000000000000000e+00,-4.394947433471679688e+01,2.974569702148437500e+01,3.490742492675781250e+01,9.212371826171875000e+01,9.895645141601562500e+01,-8.027140617370605469e+00,4.031498432159423828e-01,-6.667009735107421875e+01,-1.826863250732421875e+02,-2.342316627502441406e+00,7.562051391601562500e+01,3.135719108581542969e+01
1.043861031532287598e+00,1.000000000000000000e+00,-4.399379730224609375e+01,2.965920257568359375e+01,3.493131256103515625e+01,9.204544830322265625e+01,9.897985839843750000e+01,-8.051554679870605469e+00,4.031498432159423828e-01,-6.667001342773437500e+01,-1.826863250732421875e+02,-2.342245101928710938e+00,7.562065887451171875e+01,3.135697174072265625e+01
1.047899961471557617e+00,1.000000000000000000e+00,-4.399379730224609375e+01,2.965920257568359375e+01,3.493131256103515625e+01,9.204544830322265625e+01,9.897985839843750000e+01,-8.051554679870605469e+00,4.031498432159423828e-01,-6.667001342773437500e+01,-1.826863250732421875e+02,-2.342245101928710938e+00,7.562065887451171875e+01,3.135697174072265625e+01
1.052896976470947266e+00,1.000000000000000000e+00,-4.403823471069335938e+01,2.957314109802246094e+01,3.495524215698242188e+01,9.196696472167968750e+01,9.900203704833984375e+01,-8.076239585876464844e+00,4.031498432159423828e-01,-6.667009735107421875e+01,-1.826863250732421875e+02,-2.342316627502441406e+00,7.562065887451171875e+01,3.135697174072265625e+01
1.056972980499267578e+00,1.000000000000000000e+00,-4.412679672241210938e+01,2.940196990966796875e+01,3.500271987915039062e+01,9.181067657470703125e+01,9.904554748535156250e+01,-8.126423835754394531e+00,4.031498432159423828e-01,-6.667009735107421875e+01,-1.826863250732421875e+02,-2.342460393905639648e+00,7.562065887451171875e+01,3.135697174072265625e+01
1.059609055519104004e+00,1.000000000000000000e+00,-4.417117691040039062e+01,2.931608772277832031e+01,3.502662658691406250e+01,9.173271942138671875e+01,9.906809997558593750e+01,-8.151855468750000000e+00,4.031498432159423828e-01,-6.667009735107421875e+01,-1.826863250732421875e+02,-2.342316627502441406e+00,7.562065887451171875e+01,3.135697174072265625e+01
1.063905000686645508e+00,1.000000000000000000e+00,-4.417117691040039062e+01,2.931608772277832031e+01,3.502662658691406250e+01,9.173271942138671875e+01,9.906809997558593750e+01,-8.151855468750000000e+00,4.031498432159423828e-01,-6.667009735107421875e+01,-1.826863250732421875e+02,-2.342316627502441406e+00,7.562065887451171875e+01,3.135697174072265625e+01
1.067960977554321289e+00,1.000000000000000000e+00,-4.421558380126953125e+01,2.922980117797851562e+01,3.505039596557617188e+01,9.165418243408203125e+01,9.909197998046875000e+01,-8.177219390869140625e+00,4.031498432159423828e-01,-6.667009735107421875e+01,-1.826863250732421875e+02,-2.342316627502441406e+00,7.562065887451171875e+01,3.135697174072265625e+01
1.071969985961914062e+00,1.000000000000000000e+00,-4.425973892211914062e+01,2.914333152770996094e+01,3.507414245605468750e+01,9.157611846923828125e+01,9.911560058593750000e+01,-8.201361656188964844e+00,4.031498432159423828e-01,-6.667001342773437500e+01,-1.826863250732421875e+02,-2.342460393905639648e+00,7.562065887451171875e+01,3.135697174072265625e+01
1.075958967208862305e+00,1.000000000000000000e+00,-4.430397415161132812e+01,2.905643081665039062e+01,3.509803390502929688e+01,9.149731445312500000e+01,9.913804626464843750e+01,-8.225776672363281250e+00,4.031498432159423828e-01,-6.667009735107421875e+01,-1.826863250732421875e+02,-2.342316627502441406e+00,7.562065887451171875e+01,3.135697174072265625e+01
1.080651044845581055e+00,1.000000000000000000e+00,-4.434838485717773438e+01,2.896928405761718750e+01,3.512204360961914062e+01,9.141878509521484375e+01,9.915985107421875000e+01,-8.250325202941894531e+00,4.031498432159423828e-01,-6.667009735107421875e+01,-1.826863250732421875e+02,-2.342316627502441406e+00,7.562065887451171875e+01,3.135697174072265625e+01
1.083879947662353516e+00,1.000000000000000000e+00,-4.443697357177734375e+01,2.879632377624511719e+01,3.516990280151367188e+01,9.126134490966796875e+01,9.920469665527343750e+01,-8.300510406494140625e+00,4.031498432159423828e-01,-6.667009735107421875e+01,-1.826863250732421875e+02,-2.342316627502441406e+00,7.562065887451171875e+01,3.135697174072265625e+01
1.087906002998352051e+00,1.000000000000000000e+00,-4.443697357177734375e+01,2.879632377624511719e+01,3.516990280151367188e+01,9.126134490966796875e+01,9.920469665527343750e+01,-8.300510406494140625e+00,4.031498432159423828e-01,-6.667009735107421875e+01,-1.826863250732421875e+02,-2.342316627502441406e+00,7.562065887451171875e+01,3.135697174072265625e+01
1.090988039970397949e+00,1.000000000000000000e+00,-4.448141098022460938e+01,2.870976448059082031e+01,3.519361114501953125e+01,9.118232727050781250e+01,9.922793579101562500e+01,-8.326145172119140625e+00,4.031498432159423828e-01,-6.667009735107421875e+01,-1.826863250732421875e+02,-2.342316627502441406e+00,7.562065887451171875e+01,3.135697174072265625e+01
1.094990968704223633e+00,1.000000000000000000e+00,-4.452573394775390625e+01,2.862349891662597656e+01,3.521740341186523438e+01,9.110331726074218750e+01,9.925198364257812500e+01,-8.351712226867675781e+00,4.031498432159423828e-01,-6.667009735107421875e+01,-1.826863250732421875e+02,-2.342245101928710938e+00,7.562081146240234375e+01,3.135697174072265625e+01
1.099902033805847168e+00,1.000000000000000000e+00,-4.456985855102539062e+01,2.853707504272460938e+01,3.524135208129882812e+01,9.102514648437500000e+01,9.927523040771484375e+01,-8.376532554626464844e+00,4.031498432159423828e-01,-6.667009735107421875e+01,-1.826863250732421875e+02,-2.342316627502441406e+00,7.562051391601562500e+01,3.135697174072265625e+01
1.104797005653381348e+00,1.000000000000000000e+00,-4.461406707763671875e+01,2.845006370544433594e+01,3.526530075073242188e+01,9.094645690917968750e+01,9.929762268066406250e+01,-8.400675773620605469e+00,4.031498432159423828e-01,-6.667009735107421875e+01,-1.826863250732421875e+02,-2.342316627502441406e+00,7.562065887451171875e+01,3.135697174072265625e+01
1.108261942863464355e+00,1.000000000000000000e+00,-4.470288467407226562e+01,2.827461433410644531e+01,3.531344604492187500e+01,9.078858947753906250e+01,9.934160614013671875e+01,-8.449774742126464844e+00,4.031498432159423828e-01,-6.667009735107421875e+01,-1.826863250732421875e+02,-2.342460393905639648e+00,7.562065887451171875e+01,3.135697174072265625e+01
1.111145973205566406e+00,1.000000000000000000e+00,-4.470288467407226562e+01,2.827461433410644531e+01,3.531344604492187500e+01,9.078858947753906250e+01,9.934160614013671875e+01,-8.449774742126464844e+00,4.031498432159423828e-01,-6.667009735107421875e+01,-1.826863250732421875e+02,-2.342460393905639648e+00,7.562065887451171875e+01,3.135697174072265625e+01
1.114989995956420898e+00,1.000000000000000000e+00,-4.474711990356445312e+01,2.818689918518066406e+01,3.533760452270507812e+01,9.070973205566406250e+01,9.936458587646484375e+01,-8.475069999694824219e+00,4.031498432159423828e-01,-6.667009735107421875e+01,-1.826863250732421875e+02,-2.342245101928710938e+00,7.562051391601562500e+01,3.135697174072265625e+01
