rpiRobotics/ARM-21-02-F-19-Robot-Motion-Program/data_performance_abb/curve_1/curve_pose_opt1/greedy0.02/realrobot/run_2.csv
timestamp,cmd_num,J1,J2,J3,J4,J5,J6
1.519999932497739792e-04,-1.000000000000000000e+00,-3.460023880004882812e+01,4.793055725097656250e+01,2.988686943054199219e+01,1.086463546752929688e+02,9.417926788330078125e+01,-2.775200843811035156e+00,4.031498432159423828e-01,-6.667009735107421875e+01,-1.826863250732421875e+02,-2.342245101928710938e+00,7.562081146240234375e+01,3.135675048828125000e+01
3.754999954253435135e-03,1.000000000000000000e+00,-3.460029602050781250e+01,4.793055725097656250e+01,2.988683128356933594e+01,1.086462936401367188e+02,9.417937469482421875e+01,-2.775336503982543945e+00,4.031498432159423828e-01,-6.667009735107421875e+01,-1.826863250732421875e+02,-2.342245101928710938e+00,7.562081146240234375e+01,3.135675048828125000e+01
8.794000372290611267e-03,1.000000000000000000e+00,-3.460020828247070312e+01,4.793048858642578125e+01,2.988686943054199219e+01,1.086463546752929688e+02,9.417926788330078125e+01,-2.775200843811035156e+00,4.031498432159423828e-01,-6.667009735107421875e+01,-1.826863250732421875e+02,-2.342173099517822266e+00,7.562065887451171875e+01,3.135675048828125000e+01
1.228000037372112274e-02,1.000000000000000000e+00,-3.460023880004882812e+01,4.793048858642578125e+01,2.988683128356933594e+01,1.086464538574218750e+02,9.417937469482421875e+01,-2.775200843811035156e+00,4.031498432159423828e-01,-6.667009735107421875e+01,-1.826863250732421875e+02,-2.342245101928710938e+00,7.562065887451171875e+01,3.135675048828125000e+01
3.810400143265724182e-02,1.000000000000000000e+00,-3.460023880004882812e+01,4.793051147460937500e+01,2.988677024841308594e+01,1.086464538574218750e+02,9.417926788330078125e+01,-2.775336503982543945e+00,4.031498432159423828e-01,-6.667009735107421875e+01,-1.826864318847656250e+02,-2.342245101928710938e+00,7.562081146240234375e+01,3.135675048828125000e+01
4.056299850344657898e-02,1.000000000000000000e+00,-3.460020828247070312e+01,4.793051147460937500e+01,2.988683128356933594e+01,1.086463546752929688e+02,9.417964172363281250e+01,-2.775336503982543945e+00,4.031498432159423828e-01,-6.667009735107421875e+01,-1.826863250732421875e+02,-2.342245101928710938e+00,7.562065887451171875e+01,3.135675048828125000e+01
4.181699827313423157e-02,1.000000000000000000e+00,-3.460020828247070312e+01,4.793051147460937500e+01,2.988683128356933594e+01,1.086463546752929688e+02,9.417964172363281250e+01,-2.775336503982543945e+00,4.031498432159423828e-01,-6.667009735107421875e+01,-1.826863250732421875e+02,-2.342245101928710938e+00,7.562065887451171875e+01,3.135675048828125000e+01
5.006600171327590942e-02,1.000000000000000000e+00,-3.460023880004882812e+01,4.793051147460937500e+01,2.988683128356933594e+01,1.086462936401367188e+02,9.417926788330078125e+01,-2.775336503982543945e+00,4.031498432159423828e-01,-6.667009735107421875e+01,-1.826863250732421875e+02,-2.342245101928710938e+00,7.562065887451171875e+01,3.135675048828125000e+01
5.323500186204910278e-02,1.000000000000000000e+00,-3.460041046142578125e+01,4.793044281005859375e+01,2.988683128356933594e+01,1.086462936401367188e+02,9.417916107177734375e+01,-2.775336503982543945e+00,4.031498432159423828e-01,-6.667009735107421875e+01,-1.826862182617187500e+02,-2.342245101928710938e+00,7.562065887451171875e+01,3.135697174072265625e+01
5.574800074100494385e-02,1.000000000000000000e+00,-3.460041046142578125e+01,4.793044281005859375e+01,2.988683128356933594e+01,1.086462936401367188e+02,9.417916107177734375e+01,-2.775336503982543945e+00,4.031498432159423828e-01,-6.667009735107421875e+01,-1.826862182617187500e+02,-2.342245101928710938e+00,7.562065887451171875e+01,3.135697174072265625e+01
5.712600052356719971e-02,1.000000000000000000e+00,-3.460055541992187500e+01,4.793033218383789062e+01,2.988683128356933594e+01,1.086463546752929688e+02,9.417926788330078125e+01,-2.775336503982543945e+00,4.031498432159423828e-01,-6.667009735107421875e+01,-1.826863250732421875e+02,-2.342245101928710938e+00,7.562065887451171875e+01,3.135675048828125000e+01
5.844999849796295166e-02,1.000000000000000000e+00,-3.460055541992187500e+01,4.793033218383789062e+01,2.988683128356933594e+01,1.086463546752929688e+02,9.417926788330078125e+01,-2.775336503982543945e+00,4.031498432159423828e-01,-6.667009735107421875e+01,-1.826863250732421875e+02,-2.342245101928710938e+00,7.562065887451171875e+01,3.135675048828125000e+01
6.442400068044662476e-02,1.000000000000000000e+00,-3.460267639160156250e+01,4.792883300781250000e+01,2.988683128356933594e+01,1.086463546752929688e+02,9.417926788330078125e+01,-2.775200843811035156e+00,4.031498432159423828e-01,-6.667009735107421875e+01,-1.826863250732421875e+02,-2.342316627502441406e+00,7.562065887451171875e+01,3.135675048828125000e+01
6.576199829578399658e-02,1.000000000000000000e+00,-3.460267639160156250e+01,4.792883300781250000e+01,2.988683128356933594e+01,1.086463546752929688e+02,9.417926788330078125e+01,-2.775200843811035156e+00,4.031498432159423828e-01,-6.667009735107421875e+01,-1.826863250732421875e+02,-2.342316627502441406e+00,7.562065887451171875e+01,3.135675048828125000e+01
6.836000084877014160e-02,1.000000000000000000e+00,-3.460457229614257812e+01,4.792688751220703125e+01,2.988683128356933594e+01,1.086463546752929688e+02,9.417926788330078125e+01,-2.775200843811035156e+00,4.031498432159423828e-01,-6.667009735107421875e+01,-1.826863250732421875e+02,-2.342316627502441406e+00,7.562065887451171875e+01,3.135653114318847656e+01
6.962099671363830566e-02,1.000000000000000000e+00,-3.460457229614257812e+01,4.792688751220703125e+01,2.988683128356933594e+01,1.086463546752929688e+02,9.417926788330078125e+01,-2.775200843811035156e+00,4.031498432159423828e-01,-6.667009735107421875e+01,-1.826863250732421875e+02,-2.342316627502441406e+00,7.562065887451171875e+01,3.135653114318847656e+01
7.334099709987640381e-02,1.000000000000000000e+00,-3.460704421997070312e+01,4.792361068725585938e+01,2.988686943054199219e+01,1.086463546752929688e+02,9.417948150634765625e+01,-2.775336503982543945e+00,4.031498432159423828e-01,-6.667009735107421875e+01,-1.826863250732421875e+02,-2.342316627502441406e+00,7.562065887451171875e+01,3.135653114318847656e+01
7.588700205087661743e-02,1.000000000000000000e+00,-3.460704421997070312e+01,4.792361068725585938e+01,2.988686943054199219e+01,1.086463546752929688e+02,9.417948150634765625e+01,-2.775336503982543945e+00,4.031498432159423828e-01,-6.667009735107421875e+01,-1.826863250732421875e+02,-2.342316627502441406e+00,7.562065887451171875e+01,3.135653114318847656e+01
7.731100171804428101e-02,1.000000000000000000e+00,-3.461008453369140625e+01,4.791874313354492188e+01,2.988693046569824219e+01,1.086460876464843750e+02,9.417948150634765625e+01,-2.775336503982543945e+00,4.031498432159423828e-01,-6.667009735107421875e+01,-1.826863250732421875e+02,-2.342173099517822266e+00,7.562081146240234375e+01,3.135653114318847656e+01
7.955499738454818726e-02,1.000000000000000000e+00,-3.461008453369140625e+01,4.791874313354492188e+01,2.988693046569824219e+01,1.086460876464843750e+02,9.417948150634765625e+01,-2.775336503982543945e+00,4.031498432159423828e-01,-6.667009735107421875e+01,-1.826863250732421875e+02,-2.342173099517822266e+00,7.562081146240234375e+01,3.135653114318847656e+01
8.251900225877761841e-02,1.000000000000000000e+00,-3.461370086669921875e+01,4.791181564331054688e+01,2.988703346252441406e+01,1.086451339721679688e+02,9.417964172363281250e+01,-2.775336503982543945e+00,4.031498432159423828e-01,-6.667009735107421875e+01,-1.826863250732421875e+02,-2.342245101928710938e+00,7.562065887451171875e+01,3.135675048828125000e+01
8.515600115060806274e-02,1.000000000000000000e+00,-3.461809539794921875e+01,4.790330886840820312e+01,2.988733673095703125e+01,1.086428222656250000e+02,9.417996215820312500e+01,-2.775675535202026367e+00,4.031498432159423828e-01,-6.667009735107421875e+01,-1.826863250732421875e+02,-2.342245101928710938e+00,7.562081146240234375e+01,3.135675048828125000e+01
8.831000328063964844e-02,1.000000000000000000e+00,-3.462317657470703125e+01,4.789312744140625000e+01,2.988796806335449219e+01,1.086387634277343750e+02,9.418065643310546875e+01,-2.776014804840087891e+00,4.031498432159423828e-01,-6.667009735107421875e+01,-1.826863250732421875e+02,-2.342316627502441406e+00,7.562065887451171875e+01,3.135675048828125000e+01
8.958099782466888428e-02,1.000000000000000000e+00,-3.462317657470703125e+01,4.789312744140625000e+01,2.988796806335449219e+01,1.086387634277343750e+02,9.418065643310546875e+01,-2.776014804840087891e+00,4.031498432159423828e-01,-6.667009735107421875e+01,-1.826863250732421875e+02,-2.342316627502441406e+00,7.562065887451171875e+01,3.135675048828125000e+01
9.677000343799591064e-02,1.000000000000000000e+00,-3.462317657470703125e+01,4.789312744140625000e+01,2.988796806335449219e+01,1.086387634277343750e+02,9.418065643310546875e+01,-2.776014804840087891e+00,4.031498432159423828e-01,-6.667009735107421875e+01,-1.826863250732421875e+02,-2.342245101928710938e+00,7.562065887451171875e+01,3.135675048828125000e+01
9.813400357961654663e-02,1.000000000000000000e+00,-3.463640975952148438e+01,4.786621856689453125e+01,2.989048957824707031e+01,1.086260757446289062e+02,9.418379974365234375e+01,-2.779812335968017578e+00,4.031498432159423828e-01,-6.667009735107421875e+01,-1.826863250732421875e+02,-2.342316627502441406e+00,7.562081146240234375e+01,3.135697174072265625e+01
1.006930023431777954e-01,1.000000000000000000e+00,-3.464482116699218750e+01,4.784888458251953125e+01,2.989260292053222656e+01,1.086165390014648438e+02,9.418663024902343750e+01,-2.782932043075561523e+00,4.031498432159423828e-01,-6.667009735107421875e+01,-1.826863250732421875e+02,-2.342245101928710938e+00,7.562065887451171875e+01,3.135697174072265625e+01
1.044370010495185852e-01,1.000000000000000000e+00,-3.464482116699218750e+01,4.784888458251953125e+01,2.989260292053222656e+01,1.086165390014648438e+02,9.418663024902343750e+01,-2.782932043075561523e+00,4.031498432159423828e-01,-6.667009735107421875e+01,-1.826863250732421875e+02,-2.342245101928710938e+00,7.562065887451171875e+01,3.135697174072265625e+01
1.081689968705177307e-01,1.000000000000000000e+00,-3.465466690063476562e+01,4.782905960083007812e+01,2.989553260803222656e+01,1.086042098999023438e+02,9.419024658203125000e+01,-2.786322832107543945e+00,4.031498432159423828e-01,-6.667009735107421875e+01,-1.826863250732421875e+02,-2.342245101928710938e+00,7.562065887451171875e+01,3.135675048828125000e+01
1.122869998216629028e-01,1.000000000000000000e+00,-3.466595077514648438e+01,4.780663299560546875e+01,2.989953613281250000e+01,1.085885162353515625e+02,9.419441223144531250e+01,-2.790798664093017578e+00,4.031498432159423828e-01,-6.667009735107421875e+01,-1.826863250732421875e+02,-2.342245101928710938e+00,7.562051391601562500e+01,3.135675048828125000e+01
1.163320019841194153e-01,1.000000000000000000e+00,-3.467875289916992188e+01,4.778121948242187500e+01,2.990470314025878906e+01,1.085688705444335938e+02,9.419985198974609375e+01,-2.796631097793579102e+00,4.031498432159423828e-01,-6.667019653320312500e+01,-1.826863250732421875e+02,-2.342245101928710938e+00,7.562065887451171875e+01,3.135675048828125000e+01
1.209459975361824036e-01,1.000000000000000000e+00,-3.469333648681640625e+01,4.775295639038085938e+01,2.991102409362792969e+01,1.085453186035156250e+02,9.420619201660156250e+01,-2.803887367248535156e+00,4.031498432159423828e-01,-6.667019653320312500e+01,-1.826863250732421875e+02,-2.342245101928710938e+00,7.562081146240234375e+01,3.135675048828125000e+01
1.244880035519599915e-01,1.000000000000000000e+00,-3.470955276489257812e+01,4.772161483764648438e+01,2.991860961914062500e+01,1.085188827514648438e+02,9.421387481689453125e+01,-2.811821937561035156e+00,4.031498432159423828e-01,-6.667009735107421875e+01,-1.826863250732421875e+02,-2.342245101928710938e+00,7.562088012695312500e+01,3.135675048828125000e+01
1.283479928970336914e-01,1.000000000000000000e+00,-3.472709274291992188e+01,4.768674087524414062e+01,2.992763519287109375e+01,1.084894866943359375e+02,9.422229766845703125e+01,-2.820977210998535156e+00,4.031498432159423828e-01,-6.667009735107421875e+01,-1.826863250732421875e+02,-2.342245101928710938e+00,7.562065887451171875e+01,3.135675048828125000e+01
1.320669949054718018e-01,1.000000000000000000e+00,-3.474592590332031250e+01,4.764833450317382812e+01,2.993796539306640625e+01,1.084555664062500000e+02,9.423210144042968750e+01,-2.831488847732543945e+00,4.031498432159423828e-01,-6.667009735107421875e+01,-1.826863250732421875e+02,-2.342316627502441406e+00,7.562065887451171875e+01,3.135675048828125000e+01
1.361490041017532349e-01,1.000000000000000000e+00,-3.476656341552734375e+01,4.760649490356445312e+01,2.994953346252441406e+01,1.084153213500976562e+02,9.424324798583984375e+01,-2.843560218811035156e+00,4.031498432159423828e-01,-6.667009735107421875e+01,-1.826863250732421875e+02,-2.342316627502441406e+00,7.562065887451171875e+01,3.135675048828125000e+01
1.403200030326843262e-01,1.000000000000000000e+00,-3.478927230834960938e+01,4.756155014038085938e+01,2.996254348754882812e+01,1.083704910278320312e+02,9.425566864013671875e+01,-2.857191324234008789e+00,4.031498432159423828e-01,-6.667009735107421875e+01,-1.826863250732421875e+02,-2.342245101928710938e+00,7.562065887451171875e+01,3.135675048828125000e+01
1.431359946727752686e-01,1.000000000000000000e+00,-3.481338500976562500e+01,4.751355361938476562e+01,2.997708320617675781e+01,1.083239364624023438e+02,9.426915740966796875e+01,-2.871907711029052734e+00,4.031498432159423828e-01,-6.667009735107421875e+01,-1.826863250732421875e+02,-2.342245101928710938e+00,7.562065887451171875e+01,3.135697174072265625e+01
1.470939964056015015e-01,1.000000000000000000e+00,-3.483853530883789062e+01,4.746261215209960938e+01,2.999300384521484375e+01,1.082743148803710938e+02,9.428435516357421875e+01,-2.887844562530517578e+00,4.031498432159423828e-01,-6.667009735107421875e+01,-1.826863250732421875e+02,-2.342245101928710938e+00,7.562065887451171875e+01,3.135675048828125000e+01
1.511410027742385864e-01,1.000000000000000000e+00,-3.486548995971679688e+01,4.740902709960937500e+01,3.000977516174316406e+01,1.082196350097656250e+02,9.430030059814453125e+01,-2.905341386795043945e+00,4.031498432159423828e-01,-6.667001342773437500e+01,-1.826863250732421875e+02,-2.342316627502441406e+00,7.562065887451171875e+01,3.135675048828125000e+01
1.550830006599426270e-01,1.000000000000000000e+00,-3.489382553100585938e+01,4.735270309448242188e+01,3.002724075317382812e+01,1.081617507934570312e+02,9.431661224365234375e+01,-2.923787593841552734e+00,4.031498432159423828e-01,-6.667009735107421875e+01,-1.826863250732421875e+02,-2.342245101928710938e+00,7.562065887451171875e+01,3.135697174072265625e+01
1.591310054063796997e-01,1.000000000000000000e+00,-3.492353439331054688e+01,4.729359054565429688e+01,3.004519271850585938e+01,1.081020660400390625e+02,9.433335876464843750e+01,-2.943793535232543945e+00,4.031498432159423828e-01,-6.667009735107421875e+01,-1.826863250732421875e+02,-2.342316627502441406e+00,7.562065887451171875e+01,3.135675048828125000e+01
1.631910055875778198e-01,1.000000000000000000e+00,-3.495485305786132812e+01,4.723194885253906250e+01,3.006402015686035156e+01,1.080403900146484375e+02,9.435063171386718750e+01,-2.964274168014526367e+00,4.031498432159423828e-01,-6.667009735107421875e+01,-1.826863250732421875e+02,-2.342245101928710938e+00,7.562065887451171875e+01,3.135697174072265625e+01
1.671400070190429688e-01,1.000000000000000000e+00,-3.498735046386718750e+01,4.716824722290039062e+01,3.008354187011718750e+01,1.079761810302734375e+02,9.436843872070312500e+01,-2.984890460968017578e+00,4.031498432159423828e-01,-6.667009735107421875e+01,-1.826863250732421875e+02,-2.342245101928710938e+00,7.562065887451171875e+01,3.135697174072265625e+01
1.711439937353134155e-01,1.000000000000000000e+00,-3.502085113525390625e+01,4.710248184204101562e+01,3.010364913940429688e+01,1.079103393554687500e+02,9.438656616210937500e+01,-3.005710363388061523e+00,4.031498432159423828e-01,-6.667009735107421875e+01,-1.826863250732421875e+02,-2.342245101928710938e+00,7.562065887451171875e+01,3.135675048828125000e+01
1.752460002899169922e-01,1.000000000000000000e+00,-3.505550003051757812e+01,4.703481674194335938e+01,3.012414360046386719e+01,1.078438110351562500e+02,9.440548706054687500e+01,-3.026462078094482422e+00,4.031498432159423828e-01,-6.667009735107421875e+01,-1.826863250732421875e+02,-2.342316627502441406e+00,7.562065887451171875e+01,3.135697174072265625e+01
1.791180074214935303e-01,1.000000000000000000e+00,-3.509100723266601562e+01,4.696541213989257812e+01,3.014465713500976562e+01,1.077759704589843750e+02,9.442553710937500000e+01,-3.048231601715087891e+00,4.031498432159423828e-01,-6.667009735107421875e+01,-1.826863250732421875e+02,-2.342245101928710938e+00,7.562081146240234375e+01,3.135675048828125000e+01
1.831769943237304688e-01,1.000000000000000000e+00,-3.512732696533203125e+01,4.689414978027343750e+01,3.016529464721679688e+01,1.077078552246093750e+02,9.444601440429687500e+01,-3.069797277450561523e+00,4.031498432159423828e-01,-6.667009735107421875e+01,-1.826863250732421875e+02,-2.342245101928710938e+00,7.562081146240234375e+01,3.135675048828125000e+01
1.871539950370788574e-01,1.000000000000000000e+00,-3.516432952880859375e+01,4.682107543945312500e+01,3.018603134155273438e+01,1.076381683349609375e+02,9.446621704101562500e+01,-3.091634035110473633e+00,4.031498432159423828e-01,-6.667009735107421875e+01,-1.826863250732421875e+02,-2.342173099517822266e+00,7.562065887451171875e+01,3.135675048828125000e+01
1.910780072212219238e-01,1.000000000000000000e+00,-3.520184707641601562e+01,4.674689865112304688e+01,3.020691490173339844e+01,1.075695877075195312e+02,9.448535156250000000e+01,-3.114081621170043945e+00,4.031498432159423828e-01,-6.667009735107421875e+01,-1.826863250732421875e+02,-2.342245101928710938e+00,7.562065887451171875e+01,3.135675048828125000e+01
1.968799978494644165e-01,1.000000000000000000e+00,-3.524051666259765625e+01,4.667183303833007812e+01,3.022787666320800781e+01,1.074999008178710938e+02,9.450476837158203125e+01,-3.136935710906982422e+00,4.031498432159423828e-01,-6.667009735107421875e+01,-1.826863250732421875e+02,-2.342245101928710938e+00,7.562081146240234375e+01,3.135697174072265625e+01
2.007230073213577271e-01,1.000000000000000000e+00,-3.527967071533203125e+01,4.659640884399414062e+01,3.024892044067382812e+01,1.074307403564453125e+02,9.452475738525390625e+01,-3.159383296966552734e+00,4.031498432159423828e-01,-6.667009735107421875e+01,-1.826863250732421875e+02,-2.342245101928710938e+00,7.562065887451171875e+01,3.135675048828125000e+01
2.031400054693222046e-01,1.000000000000000000e+00,-3.531911468505859375e+01,4.652037048339843750e+01,3.026990318298339844e+01,1.073614730834960938e+02,9.454469299316406250e+01,-3.181694984436035156e+00,4.031498432159423828e-01,-6.667009735107421875e+01,-1.826863250732421875e+02,-2.342316627502441406e+00,7.562065887451171875e+01,3.135675048828125000e+01
2.072120010852813721e-01,1.000000000000000000e+00,-3.535867309570312500e+01,4.644431304931640625e+01,3.029080390930175781e+01,1.072923126220703125e+02,9.456517028808593750e+01,-3.203464269638061523e+00,4.031498432159423828e-01,-6.667009735107421875e+01,-1.826863250732421875e+02,-2.342173099517822266e+00,7.562065887451171875e+01,3.135653114318847656e+01
2.111389935016632080e-01,1.000000000000000000e+00,-3.539846038818359375e+01,4.636811828613281250e+01,3.031166267395019531e+01,1.072228851318359375e+02,9.458590698242187500e+01,-3.225301265716552734e+00,4.031498432159423828e-01,-6.667009735107421875e+01,-1.826863250732421875e+02,-2.342245101928710938e+00,7.562065887451171875e+01,3.135675048828125000e+01
2.150789946317672729e-01,1.000000000000000000e+00,-3.543830871582031250e+01,4.629156112670898438e+01,3.033268547058105469e+01,1.071535186767578125e+02,9.460649871826171875e+01,-3.247748613357543945e+00,4.031498432159423828e-01,-6.667009735107421875e+01,-1.826863250732421875e+02,-2.342245101928710938e+00,7.562065887451171875e+01,3.135697174072265625e+01
2.191160023212432861e-01,1.000000000000000000e+00,-3.547849655151367188e+01,4.621498107910156250e+01,3.035385322570800781e+01,1.070838775634765625e+02,9.462654113769531250e+01,-3.269788980484008789e+00,4.031498432159423828e-01,-6.667009735107421875e+01,-1.826863250732421875e+02,-2.342316627502441406e+00,7.562065887451171875e+01,3.135697174072265625e+01
2.231499999761581421e-01,1.000000000000000000e+00,-3.551845550537109375e+01,4.613830947875976562e+01,3.037483596801757812e+01,1.070145111083984375e+02,9.464605712890625000e+01,-3.292100906372070312e+00,4.031498432159423828e-01,-6.667009735107421875e+01,-1.826863250732421875e+02,-2.342245101928710938e+00,7.562065887451171875e+01,3.135675048828125000e+01
2.271520048379898071e-01,1.000000000000000000e+00,-3.555835723876953125e+01,4.606177520751953125e+01,3.039579772949218750e+01,1.069445114135742188e+02,9.466551208496093750e+01,-3.314954996109008789e+00,4.031498432159423828e-01,-6.667009735107421875e+01,-1.826863250732421875e+02,-2.342245101928710938e+00,7.562065887451171875e+01,3.135697174072265625e+01
2.315270006656646729e-01,1.000000000000000000e+00,-3.559805679321289062e+01,4.598542404174804688e+01,3.041688156127929688e+01,1.068744506835937500e+02,9.468539428710937500e+01,-3.337944984436035156e+00,4.031498432159423828e-01,-6.667009735107421875e+01,-1.826863250732421875e+02,-2.342245101928710938e+00,7.562065887451171875e+01,3.135675048828125000e+01
2.350749969482421875e-01,1.000000000000000000e+00,-3.563784790039062500e+01,4.590954208374023438e+01,3.043820953369140625e+01,1.068046493530273438e+02,9.470555114746093750e+01,-3.360527992248535156e+00,4.031498432159423828e-01,-6.667019653320312500e+01,-1.826863250732421875e+02,-2.342316627502441406e+00,7.562065887451171875e+01,3.135697174072265625e+01
2.390809953212738037e-01,1.000000000000000000e+00,-3.567774963378906250e+01,4.583362197875976562e+01,3.045963859558105469e+01,1.067347564697265625e+02,9.472666168212890625e+01,-3.382432937622070312e+00,4.031498432159423828e-01,-6.667009735107421875e+01,-1.826863250732421875e+02,-2.342245101928710938e+00,7.562065887451171875e+01,3.135675048828125000e+01
2.452609986066818237e-01,1.000000000000000000e+00,-3.571753692626953125e+01,4.575767517089843750e+01,3.048094558715820312e+01,1.066652832031250000e+02,9.474751281738281250e+01,-3.404269933700561523e+00,4.031498432159423828e-01,-6.667009735107421875e+01,-1.826864318847656250e+02,-2.342173099517822266e+00,7.562081146240234375e+01,3.135675048828125000e+01
2.470899969339370728e-01,1.000000000000000000e+00,-3.575724029541015625e+01,4.568143463134765625e+01,3.050207138061523438e+01,1.065950164794921875e+02,9.476766967773437500e+01,-3.426106929779052734e+00,4.031498432159423828e-01,-6.667009735107421875e+01,-1.826863250732421875e+02,-2.342173099517822266e+00,7.562081146240234375e+01,3.135675048828125000e+01
2.511959969997406006e-01,1.000000000000000000e+00,-3.579673767089843750e+01,4.560507965087890625e+01,3.052305412292480469e+01,1.065247421264648438e+02,9.478707122802734375e+01,-3.448350906372070312e+00,4.031498432159423828e-01,-6.667009735107421875e+01,-1.826863250732421875e+02,-2.342173099517822266e+00,7.562065887451171875e+01,3.135675048828125000e+01
2.558299899101257324e-01,1.000000000000000000e+00,-3.583609771728515625e+01,4.552863693237304688e+01,3.054431915283203125e+01,1.064550552368164062e+02,9.480642700195312500e+01,-3.470662593841552734e+00,4.031498432159423828e-01,-6.667009735107421875e+01,-1.826863250732421875e+02,-2.342245101928710938e+00,7.562065887451171875e+01,3.135697174072265625e+01
2.613649964332580566e-01,1.000000000000000000e+00,-3.587565612792968750e+01,4.545210266113281250e+01,3.056593322753906250e+01,1.063855819702148438e+02,9.482668304443359375e+01,-3.493584632873535156e+00,4.031498432159423828e-01,-6.667009735107421875e+01,-1.826863250732421875e+02,-2.342245101928710938e+00,7.562065887451171875e+01,3.135675048828125000e+01
2.632459998130798340e-01,1.000000000000000000e+00,-3.591477966308593750e+01,4.537518310546875000e+01,3.058728218078613281e+01,1.063155212402343750e+02,9.484732055664062500e+01,-3.516710042953491211e+00,4.031498432159423828e-01,-6.667009735107421875e+01,-1.826863250732421875e+02,-2.342245101928710938e+00,7.562081146240234375e+01,3.135697174072265625e+01
2.670840024948120117e-01,1.000000000000000000e+00,-3.595393753051757812e+01,4.529799270629882812e+01,3.060869026184082031e+01,1.062452087402343750e+02,9.486833190917968750e+01,-3.539293050765991211e+00,4.031498432159423828e-01,-6.667009735107421875e+01,-1.826863250732421875e+02,-2.342245101928710938e+00,7.562081146240234375e+01,3.135675048828125000e+01
2.721610069274902344e-01,1.000000000000000000e+00,-3.595393753051757812e+01,4.529799270629882812e+01,3.060869026184082031e+01,1.062452087402343750e+02,9.486833190917968750e+01,-3.539293050765991211e+00,4.031498432159423828e-01,-6.667009735107421875e+01,-1.826863250732421875e+02,-2.342245101928710938e+00,7.562065887451171875e+01,3.135675048828125000e+01
2.751489877700805664e-01,1.000000000000000000e+00,-3.603242111206054688e+01,4.514460754394531250e+01,3.065095901489257812e+01,1.061054077148437500e+02,9.490991210937500000e+01,-3.582695960998535156e+00,4.031498432159423828e-01,-6.667009735107421875e+01,-1.826863250732421875e+02,-2.342316627502441406e+00,7.562065887451171875e+01,3.135697174072265625e+01
2.801850140094757080e-01,1.000000000000000000e+00,-3.603242111206054688e+01,4.514460754394531250e+01,3.065095901489257812e+01,1.061054077148437500e+02,9.490991210937500000e+01,-3.582695960998535156e+00,4.031498432159423828e-01,-6.667009735107421875e+01,-1.826863250732421875e+02,-2.342316627502441406e+00,7.562065887451171875e+01,3.135697174072265625e+01
2.831420004367828369e-01,1.000000000000000000e+00,-3.611061859130859375e+01,4.499122238159179688e+01,3.069369888305664062e+01,1.059643478393554688e+02,9.494926452636718750e+01,-3.627319335937500000e+00,4.031498432159423828e-01,-6.667009735107421875e+01,-1.826863250732421875e+02,-2.342245101928710938e+00,7.562065887451171875e+01,3.135675048828125000e+01
2.881250083446502686e-01,1.000000000000000000e+00,-3.614966201782226562e+01,4.491419219970703125e+01,3.071494483947753906e+01,1.058933944702148438e+02,9.496930694580078125e+01,-3.649563550949096680e+00,4.031498432159423828e-01,-6.667009735107421875e+01,-1.826863250732421875e+02,-2.342173099517822266e+00,7.562065887451171875e+01,3.135675048828125000e+01
2.914449870586395264e-01,1.000000000000000000e+00,-3.618867111206054688e+01,4.483697891235351562e+01,3.073623085021972656e+01,1.058237609863281250e+02,9.498983001708984375e+01,-3.672010898590087891e+00,4.031498432159423828e-01,-6.667009735107421875e+01,-1.826863250732421875e+02,-2.342316627502441406e+00,7.562065887451171875e+01,3.135697174072265625e+01
2.950760126113891602e-01,1.000000000000000000e+00,-3.622762680053710938e+01,4.475922012329101562e+01,3.075757789611816406e+01,1.057533340454101562e+02,9.501094818115234375e+01,-3.694932937622070312e+00,4.031498432159423828e-01,-6.667009735107421875e+01,-1.826863250732421875e+02,-2.342245101928710938e+00,7.562065887451171875e+01,3.135675048828125000e+01
3.001230061054229736e-01,1.000000000000000000e+00,-3.622762680053710938e+01,4.475922012329101562e+01,3.075757789611816406e+01,1.057533340454101562e+02,9.501094818115234375e+01,-3.694932937622070312e+00,4.031498432159423828e-01,-6.667009735107421875e+01,-1.826863250732421875e+02,-2.342245101928710938e+00,7.562065887451171875e+01,3.135675048828125000e+01
3.038699924945831299e-01,1.000000000000000000e+00,-3.630591201782226562e+01,4.460354995727539062e+01,3.080086898803710938e+01,1.056125411987304688e+02,9.505290985107421875e+01,-3.740166902542114258e+00,4.031498432159423828e-01,-6.667009735107421875e+01,-1.826863250732421875e+02,-2.342245101928710938e+00,7.562065887451171875e+01,3.135675048828125000e+01
3.070839941501617432e-01,1.000000000000000000e+00,-3.634540939331054688e+01,4.452595138549804688e+01,3.082235527038574219e+01,1.055426940917968750e+02,9.507269287109375000e+01,-3.762207031250000000e+00,4.031498432159423828e-01,-6.667009735107421875e+01,-1.826863250732421875e+02,-2.342245101928710938e+00,7.562065887451171875e+01,3.135675048828125000e+01
3.111940026283264160e-01,1.000000000000000000e+00,-3.634540939331054688e+01,4.452595138549804688e+01,3.082235527038574219e+01,1.055426940917968750e+02,9.507269287109375000e+01,-3.762207031250000000e+00,4.031498432159423828e-01,-6.667009735107421875e+01,-1.826863250732421875e+02,-2.342245101928710938e+00,7.562065887451171875e+01,3.135675048828125000e+01
3.151269853115081787e-01,1.000000000000000000e+00,-3.638482666015625000e+01,4.444832992553710938e+01,3.084368705749511719e+01,1.054721069335937500e+02,9.509262847900390625e+01,-3.783772945404052734e+00,4.031498432159423828e-01,-6.667009735107421875e+01,-1.826863250732421875e+02,-2.342173099517822266e+00,7.562065887451171875e+01,3.135675048828125000e+01
3.191320002079010010e-01,1.000000000000000000e+00,-3.642432785034179688e+01,4.437066650390625000e+01,3.086487007141113281e+01,1.054020996093750000e+02,9.511289215087890625e+01,-3.806016683578491211e+00,4.031498432159423828e-01,-6.667009735107421875e+01,-1.826863250732421875e+02,-2.342173099517822266e+00,7.562065887451171875e+01,3.135675048828125000e+01
3.232649862766265869e-01,1.000000000000000000e+00,-3.646408462524414062e+01,4.429313659667968750e+01,3.088611984252929688e+01,1.053311004638671875e+02,9.513346862792968750e+01,-3.828192949295043945e+00,4.031498432159423828e-01,-6.667009735107421875e+01,-1.826863250732421875e+02,-2.342245101928710938e+00,7.562065887451171875e+01,3.135697174072265625e+01
3.279559910297393799e-01,1.000000000000000000e+00,-3.650404357910156250e+01,4.421551513671875000e+01,3.090770912170410156e+01,1.052611999511718750e+02,9.515441894531250000e+01,-3.850640535354614258e+00,4.031498432159423828e-01,-6.667009735107421875e+01,-1.826863250732421875e+02,-2.342245101928710938e+00,7.562065887451171875e+01,3.135675048828125000e+01
3.310790061950683594e-01,1.000000000000000000e+00,-3.658399200439453125e+01,4.405974960327148438e+01,3.095081520080566406e+01,1.051197662353515625e+02,9.519670867919921875e+01,-3.896959304809570312e+00,4.031498432159423828e-01,-6.667009735107421875e+01,-1.826863250732421875e+02,-2.342245101928710938e+00,7.562051391601562500e+01,3.135675048828125000e+01
3.351779878139495850e-01,1.000000000000000000e+00,-3.658399200439453125e+01,4.405974960327148438e+01,3.095081520080566406e+01,1.051197662353515625e+02,9.519670867919921875e+01,-3.896959304809570312e+00,4.031498432159423828e-01,-6.667009735107421875e+01,-1.826863250732421875e+02,-2.342245101928710938e+00,7.562051391601562500e+01,3.135675048828125000e+01
3.391480147838592529e-01,1.000000000000000000e+00,-3.662415313720703125e+01,4.398183822631835938e+01,3.097228622436523438e+01,1.050484008789062500e+02,9.521675109863281250e+01,-3.919474124908447266e+00,4.031498432159423828e-01,-6.667009735107421875e+01,-1.826863250732421875e+02,-2.342245101928710938e+00,7.562065887451171875e+01,3.135697174072265625e+01
3.432160019874572754e-01,1.000000000000000000e+00,-3.666440200805664062e+01,4.390378570556640625e+01,3.099379348754882812e+01,1.049779739379882812e+02,9.523648071289062500e+01,-3.940904378890991211e+00,4.031498432159423828e-01,-6.667009735107421875e+01,-1.826863250732421875e+02,-2.342173099517822266e+00,7.562065887451171875e+01,3.135697174072265625e+01
3.472290039062500000e-01,1.000000000000000000e+00,-3.670470809936523438e+01,4.382585144042968750e+01,3.101544952392578125e+01,1.049071807861328125e+02,9.525641632080078125e+01,-3.962605953216552734e+00,4.031498432159423828e-01,-6.667009735107421875e+01,-1.826862182617187500e+02,-2.342316627502441406e+00,7.562065887451171875e+01,3.135675048828125000e+01
3.518190085887908936e-01,1.000000000000000000e+00,-3.674492645263671875e+01,4.374827575683593750e+01,3.103702163696289062e+01,1.048366470336914062e+02,9.527716064453125000e+01,-3.985053539276123047e+00,4.031498432159423828e-01,-6.667009735107421875e+01,-1.826862182617187500e+02,-2.342245101928710938e+00,7.562065887451171875e+01,3.135675048828125000e+01
3.561510145664215088e-01,1.000000000000000000e+00,-3.682582092285156250e+01,4.359323501586914062e+01,3.108006286621093750e+01,1.046950073242187500e+02,9.531970214843750000e+01,-4.029608726501464844e+00,4.031498432159423828e-01,-6.667009735107421875e+01,-1.826863250732421875e+02,-2.342245101928710938e+00,7.562065887451171875e+01,3.135675048828125000e+01
3.591659963130950928e-01,1.000000000000000000e+00,-3.686643981933593750e+01,4.351559448242187500e+01,3.110169792175292969e+01,1.046243743896484375e+02,9.534070587158203125e+01,-4.052734851837158203e+00,4.031498432159423828e-01,-6.667009735107421875e+01,-1.826863250732421875e+02,-2.342245101928710938e+00,7.562065887451171875e+01,3.135697174072265625e+01
3.631660044193267822e-01,1.000000000000000000e+00,-3.686643981933593750e+01,4.351559448242187500e+01,3.110169792175292969e+01,1.046243743896484375e+02,9.534070587158203125e+01,-4.052734851837158203e+00,4.031498432159423828e-01,-6.667009735107421875e+01,-1.826863250732421875e+02,-2.342245101928710938e+00,7.562065887451171875e+01,3.135697174072265625e+01
3.671160042285919189e-01,1.000000000000000000e+00,-3.690689086914062500e+01,4.343808746337890625e+01,3.112336921691894531e+01,1.045536804199218750e+02,9.536048889160156250e+01,-4.075860023498535156e+00,4.031498432159423828e-01,-6.667019653320312500e+01,-1.826863250732421875e+02,-2.342316627502441406e+00,7.562065887451171875e+01,3.135675048828125000e+01
3.711250126361846924e-01,1.000000000000000000e+00,-3.694742202758789062e+01,4.336051177978515625e+01,3.114504432678222656e+01,1.044824676513671875e+02,9.538043212890625000e+01,-4.098782062530517578e+00,4.031498432159423828e-01,-6.667009735107421875e+01,-1.826863250732421875e+02,-2.342173099517822266e+00,7.562065887451171875e+01,3.135697174072265625e+01
3.760130107402801514e-01,1.000000000000000000e+00,-3.698804473876953125e+01,4.328241348266601562e+01,3.116667556762695312e+01,1.044117813110351562e+02,9.540074157714843750e+01,-4.121093750000000000e+00,4.031498432159423828e-01,-6.667009735107421875e+01,-1.826863250732421875e+02,-2.342245101928710938e+00,7.562081146240234375e+01,3.135675048828125000e+01
3.791140019893646240e-01,1.000000000000000000e+00,-3.706888198852539062e+01,4.312565612792968750e+01,3.120981979370117188e+01,1.042693481445312500e+02,9.544264984130859375e+01,-4.165310382843017578e+00,4.031498432159423828e-01,-6.667009735107421875e+01,-1.826863250732421875e+02,-2.342316627502441406e+00,7.562065887451171875e+01,3.135675048828125000e+01
3.831779956817626953e-01,1.000000000000000000e+00,-3.706888198852539062e+01,4.312565612792968750e+01,3.120981979370117188e+01,1.042693481445312500e+02,9.544264984130859375e+01,-4.165310382843017578e+00,4.031498432159423828e-01,-6.667009735107421875e+01,-1.826863250732421875e+02,-2.342316627502441406e+00,7.562065887451171875e+01,3.135675048828125000e+01
3.871279954910278320e-01,1.000000000000000000e+00,-3.710935592651367188e+01,4.304737854003906250e+01,3.123159790039062500e+01,1.041978149414062500e+02,9.546403503417968750e+01,-4.188029289245605469e+00,4.031498432159423828e-01,-6.667019653320312500e+01,-1.826862182617187500e+02,-2.342245101928710938e+00,7.562051391601562500e+01,3.135675048828125000e+01
3.912799954414367676e-01,1.000000000000000000e+00,-3.714992141723632812e+01,4.296923828125000000e+01,3.125324821472167969e+01,1.041268157958984375e+02,9.548529815673828125e+01,-4.210476398468017578e+00,4.031498432159423828e-01,-6.667009735107421875e+01,-1.826863250732421875e+02,-2.342316627502441406e+00,7.562065887451171875e+01,3.135675048828125000e+01
3.951230049133300781e-01,1.000000000000000000e+00,-3.719056701660156250e+01,4.289136886596679688e+01,3.127506446838378906e+01,1.040552291870117188e+02,9.550550842285156250e+01,-4.233127117156982422e+00,4.031498432159423828e-01,-6.667009735107421875e+01,-1.826863250732421875e+02,-2.342245101928710938e+00,7.562065887451171875e+01,3.135675048828125000e+01
3.998259902000427246e-01,1.000000000000000000e+00,-3.723093032836914062e+01,4.281365966796875000e+01,3.129676055908203125e+01,1.039843826293945312e+02,9.552518463134765625e+01,-4.256455898284912109e+00,4.031498432159423828e-01,-6.667009735107421875e+01,-1.826863250732421875e+02,-2.342245101928710938e+00,7.562065887451171875e+01,3.135697174072265625e+01
4.041259884834289551e-01,1.000000000000000000e+00,-3.727129364013671875e+01,4.273554229736328125e+01,3.131834983825683594e+01,1.039133224487304688e+02,9.554522705078125000e+01,-4.279446125030517578e+00,4.031498432159423828e-01,-6.667009735107421875e+01,-1.826863250732421875e+02,-2.342245101928710938e+00,7.562065887451171875e+01,3.135675048828125000e+01
4.080950021743774414e-01,1.000000000000000000e+00,-3.731191253662109375e+01,4.265701293945312500e+01,3.134020805358886719e+01,1.038422164916992188e+02,9.556565093994140625e+01,-4.301622390747070312e+00,4.031498432159423828e-01,-6.667009735107421875e+01,-1.826863250732421875e+02,-2.342245101928710938e+00,7.562065887451171875e+01,3.135697174072265625e+01
4.130820035934448242e-01,1.000000000000000000e+00,-3.735253143310546875e+01,4.257833099365234375e+01,3.136198234558105469e+01,1.037704696655273438e+02,9.558697509765625000e+01,-4.324001789093017578e+00,4.031498432159423828e-01,-6.667019653320312500e+01,-1.826863250732421875e+02,-2.342245101928710938e+00,7.562065887451171875e+01,3.135697174072265625e+01
4.158520102500915527e-01,1.000000000000000000e+00,-3.743363189697265625e+01,4.242030334472656250e+01,3.140549278259277344e+01,1.036281509399414062e+02,9.562957763671875000e+01,-4.369370937347412109e+00,4.031498432159423828e-01,-6.667009735107421875e+01,-1.826863250732421875e+02,-2.342245101928710938e+00,7.562065887451171875e+01,3.135675048828125000e+01
4.201279878616333008e-01,1.000000000000000000e+00,-3.743363189697265625e+01,4.242030334472656250e+01,3.140549278259277344e+01,1.036281509399414062e+02,9.562957763671875000e+01,-4.369370937347412109e+00,4.031498432159423828e-01,-6.667009735107421875e+01,-1.826863250732421875e+02,-2.342245101928710938e+00,7.562065887451171875e+01,3.135675048828125000e+01
4.241749942302703857e-01,1.000000000000000000e+00,-3.747416305541992188e+01,4.234105682373046875e+01,3.142730903625488281e+01,1.035568313598632812e+02,9.564973449707031250e+01,-4.391683101654052734e+00,4.031498432159423828e-01,-6.667009735107421875e+01,-1.826863250732421875e+02,-2.342245101928710938e+00,7.562065887451171875e+01,3.135697174072265625e+01
4.281049966812133789e-01,1.000000000000000000e+00,-3.751472473144531250e+01,4.226225662231445312e+01,3.144926834106445312e+01,1.034850845336914062e+02,9.566956329345703125e+01,-4.414401531219482422e+00,4.031498432159423828e-01,-6.667009735107421875e+01,-1.826863250732421875e+02,-2.342245101928710938e+00,7.562065887451171875e+01,3.135675048828125000e+01
4.311259984970092773e-01,1.000000000000000000e+00,-3.755531692504882812e+01,4.218352890014648438e+01,3.147108459472656250e+01,1.034134521484375000e+02,9.569014739990234375e+01,-4.437934398651123047e+00,4.031498432159423828e-01,-6.667009735107421875e+01,-1.826863250732421875e+02,-2.342173099517822266e+00,7.562065887451171875e+01,3.135675048828125000e+01
4.354070127010345459e-01,1.000000000000000000e+00,-3.759605407714843750e+01,4.210484695434570312e+01,3.149277687072753906e+01,1.033414459228515625e+02,9.571077728271484375e+01,-4.461805820465087891e+00,4.031498432159423828e-01,-6.667019653320312500e+01,-1.826863250732421875e+02,-2.342245101928710938e+00,7.562065887451171875e+01,3.135675048828125000e+01
4.391959905624389648e-01,1.000000000000000000e+00,-3.763661575317382812e+01,4.202611160278320312e+01,3.151432991027832031e+01,1.032698059082031250e+02,9.573183441162109375e+01,-4.484185218811035156e+00,4.031498432159423828e-01,-6.667009735107421875e+01,-1.826863250732421875e+02,-2.342245101928710938e+00,7.562065887451171875e+01,3.135697174072265625e+01
4.434260129928588867e-01,1.000000000000000000e+00,-3.767703628540039062e+01,4.194720458984375000e+01,3.153600502014160156e+01,1.031986389160156250e+02,9.575364685058593750e+01,-4.506496906280517578e+00,4.031498432159423828e-01,-6.667009735107421875e+01,-1.826863250732421875e+02,-2.342245101928710938e+00,7.562065887451171875e+01,3.135675048828125000e+01
4.478290081024169922e-01,1.000000000000000000e+00,-3.771742630004882812e+01,4.186829376220703125e+01,3.155792045593261719e+01,1.031265335083007812e+02,9.577507781982421875e+01,-4.528808593750000000e+00,4.031498432159423828e-01,-6.667009735107421875e+01,-1.826863250732421875e+02,-2.342245101928710938e+00,7.562065887451171875e+01,3.135675048828125000e+01
4.521920084953308105e-01,1.000000000000000000e+00,-3.775798797607421875e+01,4.178879547119140625e+01,3.157994079589843750e+01,1.030547332763671875e+02,9.579566192626953125e+01,-4.551527500152587891e+00,4.031498432159423828e-01,-6.667009735107421875e+01,-1.826863250732421875e+02,-2.342245101928710938e+00,7.562065887451171875e+01,3.135697174072265625e+01
4.551370143890380859e-01,1.000000000000000000e+00,-3.779872512817382812e+01,4.170911407470703125e+01,3.160177612304687500e+01,1.029828872680664062e+02,9.581548309326171875e+01,-4.574314117431640625e+00,4.031498432159423828e-01,-6.667009735107421875e+01,-1.826863250732421875e+02,-2.342245101928710938e+00,7.562065887451171875e+01,3.135697174072265625e+01
4.596079885959625244e-01,1.000000000000000000e+00,-3.783937072753906250e+01,4.162941360473632812e+01,3.162379646301269531e+01,1.029115676879882812e+02,9.583575439453125000e+01,-4.597371578216552734e+00,4.031498432159423828e-01,-6.667009735107421875e+01,-1.826863250732421875e+02,-2.342316627502441406e+00,7.562065887451171875e+01,3.135675048828125000e+01
4.641210138797760010e-01,1.000000000000000000e+00,-3.788004684448242188e+01,4.155002593994140625e+01,3.164575576782226562e+01,1.028397216796875000e+02,9.585627746582031250e+01,-4.620836257934570312e+00,4.031498432159423828e-01,-6.667009735107421875e+01,-1.826863250732421875e+02,-2.342173099517822266e+00,7.562065887451171875e+01,3.135675048828125000e+01
4.672810137271881104e-01,1.000000000000000000e+00,-3.792066955566406250e+01,4.147089004516601562e+01,3.166775321960449219e+01,1.027675018310546875e+02,9.587760162353515625e+01,-4.644232749938964844e+00,4.031498432159423828e-01,-6.667009735107421875e+01,-1.826863250732421875e+02,-2.342316627502441406e+00,7.562051391601562500e+01,3.135675048828125000e+01
4.717909991741180420e-01,1.000000000000000000e+00,-3.796131896972656250e+01,4.139222717285156250e+01,3.168979263305664062e+01,1.026959228515625000e+02,9.589935302734375000e+01,-4.667154788970947266e+00,4.031498432159423828e-01,-6.667009735107421875e+01,-1.826863250732421875e+02,-2.342245101928710938e+00,7.562065887451171875e+01,3.135675048828125000e+01
4.761250019073486328e-01,1.000000000000000000e+00,-3.800194168090820312e+01,4.131363677978515625e+01,3.171150588989257812e+01,1.026238632202148438e+02,9.592084503173828125e+01,-4.688992023468017578e+00,4.031498432159423828e-01,-6.667009735107421875e+01,-1.826863250732421875e+02,-2.342245101928710938e+00,7.562065887451171875e+01,3.135697174072265625e+01
4.791859984397888184e-01,1.000000000000000000e+00,-3.804258728027343750e+01,4.123476791381835938e+01,3.173314094543457031e+01,1.025518646240234375e+02,9.594126129150390625e+01,-4.711575031280517578e+00,4.031498432159423828e-01,-6.667009735107421875e+01,-1.826863250732421875e+02,-2.342245101928710938e+00,7.562051391601562500e+01,3.135675048828125000e+01
4.838469922542572021e-01,1.000000000000000000e+00,-3.808335113525390625e+01,4.115547180175781250e+01,3.175507926940917969e+01,1.024788513183593750e+02,9.596136474609375000e+01,-4.734700202941894531e+00,4.031498432159423828e-01,-6.667009735107421875e+01,-1.826863250732421875e+02,-2.342245101928710938e+00,7.562065887451171875e+01,3.135675048828125000e+01
4.881249964237213135e-01,1.000000000000000000e+00,-3.812414169311523438e+01,4.107592773437500000e+01,3.177726173400878906e+01,1.024068984985351562e+02,9.598188781738281250e+01,-4.757080554962158203e+00,4.031498432159423828e-01,-6.667009735107421875e+01,-1.826863250732421875e+02,-2.342245101928710938e+00,7.562081146240234375e+01,3.135675048828125000e+01
4.913370013236999512e-01,1.000000000000000000e+00,-3.816487884521484375e+01,4.099622726440429688e+01,3.179944229125976562e+01,1.023348388671875000e+02,9.600273895263671875e+01,-4.780002117156982422e+00,4.031498432159423828e-01,-6.667009735107421875e+01,-1.826863250732421875e+02,-2.342316627502441406e+00,7.562065887451171875e+01,3.135697174072265625e+01
4.964230060577392578e-01,1.000000000000000000e+00,-3.820566940307617188e+01,4.091638946533203125e+01,3.182152366638183594e+01,1.022629928588867188e+02,9.602416992187500000e+01,-4.803941249847412109e+00,4.031498432159423828e-01,-6.667009735107421875e+01,-1.826863250732421875e+02,-2.342245101928710938e+00,7.562065887451171875e+01,3.135697174072265625e+01
4.992679953575134277e-01,1.000000000000000000e+00,-3.824640655517578125e+01,4.083648300170898438e+01,3.184337997436523438e+01,1.021905212402343750e+02,9.604613494873046875e+01,-4.827338218688964844e+00,4.031498432159423828e-01,-6.667009735107421875e+01,-1.826862182617187500e+02,-2.342316627502441406e+00,7.562051391601562500e+01,3.135675048828125000e+01
5.033689737319946289e-01,1.000000000000000000e+00,-3.828717041015625000e+01,4.075704956054687500e+01,3.186519622802734375e+01,1.021185607910156250e+02,9.606761932373046875e+01,-4.849853515625000000e+00,4.031498432159423828e-01,-6.667009735107421875e+01,-1.826863250732421875e+02,-2.342245101928710938e+00,7.562065887451171875e+01,3.135675048828125000e+01
5.081099867820739746e-01,1.000000000000000000e+00,-3.832790374755859375e+01,4.067800521850585938e+01,3.188723373413085938e+01,1.020464477539062500e+02,9.608825683593750000e+01,-4.872165203094482422e+00,4.031498432159423828e-01,-6.667009735107421875e+01,-1.826863250732421875e+02,-2.342245101928710938e+00,7.562065887451171875e+01,3.135675048828125000e+01
5.115119814872741699e-01,1.000000000000000000e+00,-3.836883926391601562e+01,4.059864044189453125e+01,3.190941810607910156e+01,1.019744491577148438e+02,9.610836029052734375e+01,-4.894884109497070312e+00,4.031498432159423828e-01,-6.667009735107421875e+01,-1.826863250732421875e+02,-2.342316627502441406e+00,7.562065887451171875e+01,3.135697174072265625e+01
5.155550241470336914e-01,1.000000000000000000e+00,-3.840969085693359375e+01,4.051916503906250000e+01,3.193157958984375000e+01,1.019018096923828125e+02,9.612877655029296875e+01,-4.917806148529052734e+00,4.031498432159423828e-01,-6.667009735107421875e+01,-1.826863250732421875e+02,-2.342245101928710938e+00,7.562065887451171875e+01,3.135697174072265625e+01
5.193639993667602539e-01,1.000000000000000000e+00,-3.845048141479492188e+01,4.043955230712890625e+01,3.195363998413085938e+01,1.018294906616210938e+02,9.614951324462890625e+01,-4.940863609313964844e+00,4.031498432159423828e-01,-6.667009735107421875e+01,-1.826863250732421875e+02,-2.342173099517822266e+00,7.562051391601562500e+01,3.135697174072265625e+01
5.239040255546569824e-01,1.000000000000000000e+00,-3.849127578735351562e+01,4.035953521728515625e+01,3.197557449340820312e+01,1.017569580078125000e+02,9.617100524902343750e+01,-4.963650703430175781e+00,4.031498432159423828e-01,-6.667019653320312500e+01,-1.826863250732421875e+02,-2.342173099517822266e+00,7.562081146240234375e+01,3.135675048828125000e+01
5.276039838790893555e-01,1.000000000000000000e+00,-3.853221130371093750e+01,4.027935791015625000e+01,3.199765777587890625e+01,1.016848449707031250e+02,9.619297027587890625e+01,-4.986979484558105469e+00,4.031498432159423828e-01,-6.667009735107421875e+01,-1.826863250732421875e+02,-2.342316627502441406e+00,7.562065887451171875e+01,3.135697174072265625e+01
5.322399735450744629e-01,1.000000000000000000e+00,-3.857317733764648438e+01,4.019884109497070312e+01,3.201993942260742188e+01,1.016118392944335938e+02,9.621408081054687500e+01,-5.010986328125000000e+00,4.031498432159423828e-01,-6.667009735107421875e+01,-1.826863250732421875e+02,-2.342245101928710938e+00,7.562065887451171875e+01,3.135697174072265625e+01
5.355209708213806152e-01,1.000000000000000000e+00,-3.861402511596679688e+01,4.011848068237304688e+01,3.204210281372070312e+01,1.015389404296875000e+02,9.623455047607421875e+01,-5.034044265747070312e+00,4.031498432159423828e-01,-6.667009735107421875e+01,-1.826863250732421875e+02,-2.342245101928710938e+00,7.562065887451171875e+01,3.135697174072265625e+01
5.395119786262512207e-01,1.000000000000000000e+00,-3.865487670898437500e+01,4.003812026977539062e+01,3.206418228149414062e+01,1.014663009643554688e+02,9.625492095947265625e+01,-5.056152820587158203e+00,4.031498432159423828e-01,-6.667009735107421875e+01,-1.826863250732421875e+02,-2.342245101928710938e+00,7.562051391601562500e+01,3.135697174072265625e+01
5.448650121688842773e-01,1.000000000000000000e+00,-3.869601440429687500e+01,3.995821380615234375e+01,3.208616256713867188e+01,1.013938751220703125e+02,9.627561187744140625e+01,-5.078735351562500000e+00,4.031498432159423828e-01,-6.667009735107421875e+01,-1.826863250732421875e+02,-2.342316627502441406e+00,7.562065887451171875e+01,3.135697174072265625e+01
5.481759905815124512e-01,1.000000000000000000e+00,-3.873717880249023438e+01,3.987858200073242188e+01,3.210832214355468750e+01,1.013214416503906250e+02,9.629645538330078125e+01,-5.101657390594482422e+00,4.031498432159423828e-01,-6.667009735107421875e+01,-1.826863250732421875e+02,-2.342460393905639648e+00,7.562065887451171875e+01,3.135675048828125000e+01
5.517489910125732422e-01,1.000000000000000000e+00,-3.877817153930664062e+01,3.979872131347656250e+01,3.213066864013671875e+01,1.012487564086914062e+02,9.631793975830078125e+01,-5.124308586120605469e+00,4.031498432159423828e-01,-6.667009735107421875e+01,-1.826863250732421875e+02,-2.342316627502441406e+00,7.562065887451171875e+01,3.135675048828125000e+01
5.564150214195251465e-01,1.000000000000000000e+00,-3.881948089599609375e+01,3.971872329711914062e+01,3.215293121337890625e+01,1.011761169433593750e+02,9.633979797363281250e+01,-5.147569656372070312e+00,4.031498432159423828e-01,-6.667009735107421875e+01,-1.826863250732421875e+02,-2.342245101928710938e+00,7.562065887451171875e+01,3.135697174072265625e+01
5.598779916763305664e-01,1.000000000000000000e+00,-3.886079025268554688e+01,3.963829803466796875e+01,3.217502975463867188e+01,1.011037445068359375e+02,9.636144256591796875e+01,-5.171034336090087891e+00,4.031498432159423828e-01,-6.667009735107421875e+01,-1.826863250732421875e+02,-2.342245101928710938e+00,7.562065887451171875e+01,3.135675048828125000e+01
5.642820000648498535e-01,1.000000000000000000e+00,-3.890201187133789062e+01,3.955793762207031250e+01,3.219713211059570312e+01,1.010306396484375000e+02,9.638181304931640625e+01,-5.194973468780517578e+00,4.031498432159423828e-01,-6.667009735107421875e+01,-1.826863250732421875e+02,-2.342316627502441406e+00,7.562051391601562500e+01,3.135697174072265625e+01
5.677999854087829590e-01,1.000000000000000000e+00,-3.894314956665039062e+01,3.947708129882812500e+01,3.221935653686523438e+01,1.009577331542968750e+02,9.640202331542968750e+01,-5.218438148498535156e+00,4.031498432159423828e-01,-6.667009735107421875e+01,-1.826863250732421875e+02,-2.342316627502441406e+00,7.562081146240234375e+01,3.135675048828125000e+01
5.721960067749023438e-01,1.000000000000000000e+00,-3.898466110229492188e+01,3.939626693725585938e+01,3.224188613891601562e+01,1.008844070434570312e+02,9.642265319824218750e+01,-5.240952968597412109e+00,4.031498432159423828e-01,-6.667009735107421875e+01,-1.826863250732421875e+02,-2.342245101928710938e+00,7.562065887451171875e+01,3.135675048828125000e+01
5.760409832000732422e-01,1.000000000000000000e+00,-3.902614212036132812e+01,3.931575012207031250e+01,3.226420593261718750e+01,1.008117218017578125e+02,9.644355773925781250e+01,-5.263332843780517578e+00,4.031498432159423828e-01,-6.667009735107421875e+01,-1.826864318847656250e+02,-2.342173099517822266e+00,7.562065887451171875e+01,3.135675048828125000e+01
5.806279778480529785e-01,1.000000000000000000e+00,-3.906761932373046875e+01,3.923541259765625000e+01,3.228659057617187500e+01,1.007380752563476562e+02,9.646530151367187500e+01,-5.286594390869140625e+00,4.031498432159423828e-01,-6.667009735107421875e+01,-1.826863250732421875e+02,-2.342245101928710938e+00,7.562065887451171875e+01,3.135697174072265625e+01
5.841760039329528809e-01,1.000000000000000000e+00,-3.910913085937500000e+01,3.915541839599609375e+01,3.230869293212890625e+01,1.006653900146484375e+02,9.648722076416015625e+01,-5.309923171997070312e+00,4.031498432159423828e-01,-6.667009735107421875e+01,-1.826863250732421875e+02,-2.342173099517822266e+00,7.562065887451171875e+01,3.135697174072265625e+01
5.881109833717346191e-01,1.000000000000000000e+00,-3.915067291259765625e+01,3.907514953613281250e+01,3.233087539672851562e+01,1.005917587280273438e+02,9.650849151611328125e+01,-5.333184242248535156e+00,4.031498432159423828e-01,-6.667009735107421875e+01,-1.826863250732421875e+02,-2.342245101928710938e+00,7.562065887451171875e+01,3.135719108581542969e+01
5.926460027694702148e-01,1.000000000000000000e+00,-3.919240951538085938e+01,3.899494934082031250e+01,3.235324096679687500e+01,1.005189590454101562e+02,9.652902221679687500e+01,-5.356987953186035156e+00,4.031498432159423828e-01,-6.667009735107421875e+01,-1.826863250732421875e+02,-2.342245101928710938e+00,7.562065887451171875e+01,3.135697174072265625e+01
5.961890220642089844e-01,1.000000000000000000e+00,-3.923417663574218750e+01,3.891456985473632812e+01,3.237550354003906250e+01,1.004457397460937500e+02,9.654949188232421875e+01,-5.380723953247070312e+00,4.031498432159423828e-01,-6.667009735107421875e+01,-1.826863250732421875e+02,-2.342245101928710938e+00,7.562051391601562500e+01,3.135697174072265625e+01
6.001480221748352051e-01,1.000000000000000000e+00,-3.927583312988281250e+01,3.883366775512695312e+01,3.239770507812500000e+01,1.003729400634765625e+02,9.657028198242187500e+01,-5.403781414031982422e+00,4.031498432159423828e-01,-6.667009735107421875e+01,-1.826863250732421875e+02,-2.342245101928710938e+00,7.562065887451171875e+01,3.135675048828125000e+01
6.048099994659423828e-01,1.000000000000000000e+00,-3.931756973266601562e+01,3.875247192382812500e+01,3.242002868652343750e+01,1.002995223999023438e+02,9.659156036376953125e+01,-5.426568031311035156e+00,4.031498432159423828e-01,-6.667009735107421875e+01,-1.826863250732421875e+02,-2.342245101928710938e+00,7.562051391601562500e+01,3.135675048828125000e+01
6.083509922027587891e-01,1.000000000000000000e+00,-3.935936737060546875e+01,3.867111587524414062e+01,3.244247817993164062e+01,1.002264556884765625e+02,9.661336517333984375e+01,-5.449422359466552734e+00,4.031498432159423828e-01,-6.667009735107421875e+01,-1.826863250732421875e+02,-2.342245101928710938e+00,7.562065887451171875e+01,3.135697174072265625e+01
6.122630238533020020e-01,1.000000000000000000e+00,-3.940108108520507812e+01,3.858996582031250000e+01,3.246500396728515625e+01,1.001528778076171875e+02,9.663543701171875000e+01,-5.472819328308105469e+00,4.031498432159423828e-01,-6.667009735107421875e+01,-1.826863250732421875e+02,-2.342245101928710938e+00,7.562065887451171875e+01,3.135697174072265625e+01
6.168850064277648926e-01,1.000000000000000000e+00,-3.944282150268554688e+01,3.850908660888671875e+01,3.248744964599609375e+01,1.000798645019531250e+02,9.665698242187500000e+01,-5.496555328369140625e+00,4.031498432159423828e-01,-6.667009735107421875e+01,-1.826863250732421875e+02,-2.342245101928710938e+00,7.562051391601562500e+01,3.135697174072265625e+01
6.202629804611206055e-01,1.000000000000000000e+00,-3.948458862304687500e+01,3.842854690551757812e+01,3.250967407226562500e+01,1.000056533813476562e+02,9.667750549316406250e+01,-5.519680500030517578e+00,4.031498432159423828e-01,-6.667009735107421875e+01,-1.826863250732421875e+02,-2.342173099517822266e+00,7.562081146240234375e+01,3.135697174072265625e+01
6.243550181388854980e-01,1.000000000000000000e+00,-3.952641296386718750e+01,3.834816741943359375e+01,3.253189468383789062e+01,9.993258666992187500e+01,9.669781494140625000e+01,-5.543416500091552734e+00,4.031498432159423828e-01,-6.667009735107421875e+01,-1.826863250732421875e+02,-2.342245101928710938e+00,7.562065887451171875e+01,3.135675048828125000e+01
6.290829777717590332e-01,1.000000000000000000e+00,-3.956815338134765625e+01,3.826744461059570312e+01,3.255423736572265625e+01,9.985826873779296875e+01,9.671861267089843750e+01,-5.567830562591552734e+00,4.031498432159423828e-01,-6.667009735107421875e+01,-1.826863250732421875e+02,-2.342245101928710938e+00,7.562051391601562500e+01,3.135675048828125000e+01
6.321370005607604980e-01,1.000000000000000000e+00,-3.960983657836914062e+01,3.818636322021484375e+01,3.257662582397460938e+01,9.978536987304687500e+01,9.674005126953125000e+01,-5.591566562652587891e+00,4.031498432159423828e-01,-6.667009735107421875e+01,-1.826863250732421875e+02,-2.342173099517822266e+00,7.562081146240234375e+01,3.135697174072265625e+01
6.363480091094970703e-01,1.000000000000000000e+00,-3.965169143676757812e+01,3.810512161254882812e+01,3.259907150268554688e+01,9.971125793457031250e+01,9.676206207275390625e+01,-5.614217281341552734e+00,4.031498432159423828e-01,-6.667009735107421875e+01,-1.826863250732421875e+02,-2.342245101928710938e+00,7.562051391601562500e+01,3.135675048828125000e+01
6.416029930114746094e-01,1.000000000000000000e+00,-3.969357299804687500e+01,3.802358627319335938e+01,3.262163925170898438e+01,9.963751220703125000e+01,9.678424835205078125e+01,-5.637071609497070312e+00,4.031498432159423828e-01,-6.667009735107421875e+01,-1.826863250732421875e+02,-2.342245101928710938e+00,7.562065887451171875e+01,3.135697174072265625e+01
6.443399786949157715e-01,1.000000000000000000e+00,-3.973554611206054688e+01,3.794177627563476562e+01,3.264408874511718750e+01,9.956345367431640625e+01,9.680562591552734375e+01,-5.660535812377929688e+00,4.031498432159423828e-01,-6.667009735107421875e+01,-1.826863250732421875e+02,-2.342245101928710938e+00,7.562065887451171875e+01,3.135697174072265625e+01
6.470639705657958984e-01,1.000000000000000000e+00,-3.977745437622070312e+01,3.786008453369140625e+01,3.266667556762695312e+01,9.949028778076171875e+01,9.682614898681640625e+01,-5.683729648590087891e+00,4.031498432159423828e-01,-6.667009735107421875e+01,-1.826863250732421875e+02,-2.342316627502441406e+00,7.562065887451171875e+01,3.135697174072265625e+01
6.511340141296386719e-01,1.000000000000000000e+00,-3.981922531127929688e+01,3.777891159057617188e+01,3.268914413452148438e+01,9.941664886474609375e+01,9.684678649902343750e+01,-5.707601070404052734e+00,4.031498432159423828e-01,-6.667009735107421875e+01,-1.826863250732421875e+02,-2.342245101928710938e+00,7.562065887451171875e+01,3.135697174072265625e+01
6.550629734992980957e-01,1.000000000000000000e+00,-3.986099243164062500e+01,3.769803237915039062e+01,3.271140670776367188e+01,9.934268951416015625e+01,9.686800384521484375e+01,-5.731675624847412109e+00,4.031498432159423828e-01,-6.667009735107421875e+01,-1.826863250732421875e+02,-2.342245101928710938e+00,7.562065887451171875e+01,3.135675048828125000e+01
6.590899825096130371e-01,1.000000000000000000e+00,-3.990282058715820312e+01,3.761685562133789062e+01,3.273385238647460938e+01,9.926863098144531250e+01,9.688964843750000000e+01,-5.755818843841552734e+00,4.031498432159423828e-01,-6.667009735107421875e+01,-1.826863250732421875e+02,-2.342245101928710938e+00,7.562065887451171875e+01,3.135697174072265625e+01
6.631180047988891602e-01,1.000000000000000000e+00,-3.994481658935546875e+01,3.753568267822265625e+01,3.275635910034179688e+01,9.919493865966796875e+01,9.691172790527343750e+01,-5.779215812683105469e+00,4.031498432159423828e-01,-6.667009735107421875e+01,-1.826863250732421875e+02,-2.342316627502441406e+00,7.562065887451171875e+01,3.135697174072265625e+01
6.670619845390319824e-01,1.000000000000000000e+00,-3.998670196533203125e+01,3.745441818237304688e+01,3.277906799316406250e+01,9.912098693847656250e+01,9.693401336669921875e+01,-5.801934242248535156e+00,4.031498432159423828e-01,-6.667009735107421875e+01,-1.826863250732421875e+02,-2.342316627502441406e+00,7.562065887451171875e+01,3.135697174072265625e+01
6.710860133171081543e-01,1.000000000000000000e+00,-4.002849960327148438e+01,3.737258911132812500e+01,3.280175781250000000e+01,9.904629516601562500e+01,9.695533752441406250e+01,-5.824992179870605469e+00,4.031498432159423828e-01,-6.667009735107421875e+01,-1.826863250732421875e+02,-2.342245101928710938e+00,7.562065887451171875e+01,3.135697174072265625e+01
6.751130223274230957e-01,1.000000000000000000e+00,-4.007023620605468750e+01,3.729069137573242188e+01,3.282426834106445312e+01,9.897192382812500000e+01,9.697580718994140625e+01,-5.848320960998535156e+00,4.031498432159423828e-01,-6.667009735107421875e+01,-1.826863250732421875e+02,-2.342173099517822266e+00,7.562081146240234375e+01,3.135675048828125000e+01
6.791120171546936035e-01,1.000000000000000000e+00,-4.011235046386718750e+01,3.720856475830078125e+01,3.284669494628906250e+01,9.889801788330078125e+01,9.699655151367187500e+01,-5.871921539306640625e+00,4.031498432159423828e-01,-6.667009735107421875e+01,-1.826863250732421875e+02,-2.342316627502441406e+00,7.562051391601562500e+01,3.135675048828125000e+01
6.830700039863586426e-01,1.000000000000000000e+00,-4.015428924560546875e+01,3.712653350830078125e+01,3.286934280395507812e+01,9.882401275634765625e+01,9.701760864257812500e+01,-5.895589351654052734e+00,4.031498432159423828e-01,-6.667009735107421875e+01,-1.826863250732421875e+02,-2.342245101928710938e+00,7.562051391601562500e+01,3.135675048828125000e+01
6.871299743652343750e-01,1.000000000000000000e+00,-4.019623184204101562e+01,3.704475021362304688e+01,3.289203262329101562e+01,9.874958801269531250e+01,9.703930664062500000e+01,-5.919596672058105469e+00,4.031498432159423828e-01,-6.667009735107421875e+01,-1.826863250732421875e+02,-2.342316627502441406e+00,7.562081146240234375e+01,3.135675048828125000e+01
6.910640001296997070e-01,1.000000000000000000e+00,-4.023819732666015625e+01,3.696323394775390625e+01,3.291470336914062500e+01,9.867562866210937500e+01,9.706175994873046875e+01,-5.943874835968017578e+00,4.031498432159423828e-01,-6.667009735107421875e+01,-1.826863250732421875e+02,-2.342245101928710938e+00,7.562051391601562500e+01,3.135697174072265625e+01
6.951429843902587891e-01,1.000000000000000000e+00,-4.028037261962890625e+01,3.688203811645507812e+01,3.293724822998046875e+01,9.860140991210937500e+01,9.708382415771484375e+01,-5.967475414276123047e+00,4.031498432159423828e-01,-6.667009735107421875e+01,-1.826863250732421875e+02,-2.342173099517822266e+00,7.562065887451171875e+01,3.135675048828125000e+01
6.992340087890625000e-01,1.000000000000000000e+00,-4.032233810424804688e+01,3.680062103271484375e+01,3.295981979370117188e+01,9.852761840820312500e+01,9.710472869873046875e+01,-5.990261554718017578e+00,4.031498432159423828e-01,-6.667009735107421875e+01,-1.826863250732421875e+02,-2.342245101928710938e+00,7.562065887451171875e+01,3.135697174072265625e+01
7.030630111694335938e-01,1.000000000000000000e+00,-4.036456680297851562e+01,3.671885681152343750e+01,3.298234558105468750e+01,9.845307922363281250e+01,9.712546539306640625e+01,-6.013251781463623047e+00,4.031498432159423828e-01,-6.667009735107421875e+01,-1.826863250732421875e+02,-2.342316627502441406e+00,7.562081146240234375e+01,3.135697174072265625e+01
7.070950269699096680e-01,1.000000000000000000e+00,-4.040685272216796875e+01,3.663675308227539062e+01,3.300518035888671875e+01,9.837876129150390625e+01,9.714658355712890625e+01,-6.036716461181640625e+00,4.031498432159423828e-01,-6.667009735107421875e+01,-1.826863250732421875e+02,-2.342245101928710938e+00,7.562065887451171875e+01,3.135675048828125000e+01
7.111319899559020996e-01,1.000000000000000000e+00,-4.044905090332031250e+01,3.655449295043945312e+01,3.302796936035156250e+01,9.830401611328125000e+01,9.716785430908203125e+01,-6.060520172119140625e+00,4.031498432159423828e-01,-6.667009735107421875e+01,-1.826863250732421875e+02,-2.342245101928710938e+00,7.562065887451171875e+01,3.135675048828125000e+01
7.150670289993286133e-01,1.000000000000000000e+00,-4.049119186401367188e+01,3.647191619873046875e+01,3.305052185058593750e+01,9.822995758056640625e+01,9.718987274169921875e+01,-6.084798336029052734e+00,4.031498432159423828e-01,-6.667001342773437500e+01,-1.826863250732421875e+02,-2.342316627502441406e+00,7.562051391601562500e+01,3.135697174072265625e+01
7.190650105476379395e-01,1.000000000000000000e+00,-4.053342056274414062e+01,3.638943099975585938e+01,3.307308959960937500e+01,9.815468597412109375e+01,9.721226501464843750e+01,-6.108669757843017578e+00,4.031498432159423828e-01,-6.667009735107421875e+01,-1.826863250732421875e+02,-2.342316627502441406e+00,7.562065887451171875e+01,3.135697174072265625e+01
7.231169939041137695e-01,1.000000000000000000e+00,-4.057584762573242188e+01,3.630739593505859375e+01,3.309585952758789062e+01,9.807999420166015625e+01,9.723444366455078125e+01,-6.132948398590087891e+00,4.031498432159423828e-01,-6.667009735107421875e+01,-1.826863250732421875e+02,-2.342245101928710938e+00,7.562081146240234375e+01,3.135697174072265625e+01
7.271040081977844238e-01,1.000000000000000000e+00,-4.061836242675781250e+01,3.622561264038085938e+01,3.311877059936523438e+01,9.800524139404296875e+01,9.725560760498046875e+01,-6.156344890594482422e+00,4.031498432159423828e-01,-6.667009735107421875e+01,-1.826863250732421875e+02,-2.342173099517822266e+00,7.562081146240234375e+01,3.135697174072265625e+01
7.310709953308105469e-01,1.000000000000000000e+00,-4.066064834594726562e+01,3.614364624023437500e+01,3.314158248901367188e+01,9.793123626708984375e+01,9.727619171142578125e+01,-6.179131507873535156e+00,4.031498432159423828e-01,-6.667009735107421875e+01,-1.826863250732421875e+02,-2.342245101928710938e+00,7.562065887451171875e+01,3.135697174072265625e+01
7.351139783859252930e-01,1.000000000000000000e+00,-4.070313644409179688e+01,3.606177520751953125e+01,3.316423416137695312e+01,9.785671234130859375e+01,9.729688262939453125e+01,-6.202460765838623047e+00,4.031498432159423828e-01,-6.667009735107421875e+01,-1.826863250732421875e+02,-2.342245101928710938e+00,7.562065887451171875e+01,3.135697174072265625e+01
7.411490082740783691e-01,1.000000000000000000e+00,-4.074565124511718750e+01,3.597955703735351562e+01,3.318663787841796875e+01,9.778179931640625000e+01,9.731858062744140625e+01,-6.225857734680175781e+00,4.031498432159423828e-01,-6.667009735107421875e+01,-1.826863250732421875e+02,-2.342245101928710938e+00,7.562065887451171875e+01,3.135719108581542969e+01
7.431179881095886230e-01,1.000000000000000000e+00,-4.078813552856445312e+01,3.589702606201171875e+01,3.320928955078125000e+01,9.770721435546875000e+01,9.734065246582031250e+01,-6.249457359313964844e+00,4.031498432159423828e-01,-6.667009735107421875e+01,-1.826863250732421875e+02,-2.342245101928710938e+00,7.562065887451171875e+01,3.135697174072265625e+01
7.470679879188537598e-01,1.000000000000000000e+00,-4.083056259155273438e+01,3.581415557861328125e+01,3.323224639892578125e+01,9.763253021240234375e+01,9.736336517333984375e+01,-6.273736000061035156e+00,4.031498432159423828e-01,-6.667009735107421875e+01,-1.826863250732421875e+02,-2.342173099517822266e+00,7.562065887451171875e+01,3.135675048828125000e+01
7.534109950065612793e-01,1.000000000000000000e+00,-4.087305068969726562e+01,3.573108291625976562e+01,3.325516128540039062e+01,9.755746459960937500e+01,9.738516998291015625e+01,-6.298421382904052734e+00,4.031498432159423828e-01,-6.667009735107421875e+01,-1.826863250732421875e+02,-2.342245101928710938e+00,7.562081146240234375e+01,3.135675048828125000e+01
7.550989985466003418e-01,1.000000000000000000e+00,-4.091574096679687500e+01,3.564814376831054688e+01,3.327811431884765625e+01,9.748282623291015625e+01,9.740617370605468750e+01,-6.322699546813964844e+00,4.031498432159423828e-01,-6.667009735107421875e+01,-1.826863250732421875e+02,-2.342245101928710938e+00,7.562081146240234375e+01,3.135675048828125000e+01
7.591789960861206055e-01,1.000000000000000000e+00,-4.095822525024414062e+01,3.556538772583007812e+01,3.330080413818359375e+01,9.740750122070312500e+01,9.742691802978515625e+01,-6.346232414245605469e+00,4.031498432159423828e-01,-6.667009735107421875e+01,-1.826863250732421875e+02,-2.342316627502441406e+00,7.562065887451171875e+01,3.135697174072265625e+01
7.630990147590637207e-01,1.000000000000000000e+00,-4.100077056884765625e+01,3.548303604125976562e+01,3.332357406616210938e+01,9.733244323730468750e+01,9.744845581054687500e+01,-6.369357585906982422e+00,4.031498432159423828e-01,-6.667009735107421875e+01,-1.826863250732421875e+02,-2.342245101928710938e+00,7.562065887451171875e+01,3.135697174072265625e+01
7.671560049057006836e-01,1.000000000000000000e+00,-4.104325103759765625e+01,3.540093612670898438e+01,3.334646987915039062e+01,9.725701141357421875e+01,9.747032165527343750e+01,-6.392890453338623047e+00,4.031498432159423828e-01,-6.667009735107421875e+01,-1.826863250732421875e+02,-2.342173099517822266e+00,7.562065887451171875e+01,3.135675048828125000e+01
7.711039781570434570e-01,1.000000000000000000e+00,-4.108588409423828125e+01,3.531847000122070312e+01,3.336930465698242188e+01,9.718199920654296875e+01,9.749265289306640625e+01,-6.416965484619140625e+00,4.031498432159423828e-01,-6.667009735107421875e+01,-1.826863250732421875e+02,-2.342245101928710938e+00,7.562065887451171875e+01,3.135697174072265625e+01
7.773889899253845215e-01,1.000000000000000000e+00,-4.112842941284179688e+01,3.523573684692382812e+01,3.339205551147460938e+01,9.710673522949218750e+01,9.751537322998046875e+01,-6.441040039062500000e+00,4.031498432159423828e-01,-6.667009735107421875e+01,-1.826863250732421875e+02,-2.342245101928710938e+00,7.562065887451171875e+01,3.135697174072265625e+01
7.790899872779846191e-01,1.000000000000000000e+00,-4.117085266113281250e+01,3.515270614624023438e+01,3.341484451293945312e+01,9.703172302246093750e+01,9.753707122802734375e+01,-6.465183258056640625e+00,4.031498432159423828e-01,-6.667009735107421875e+01,-1.826863250732421875e+02,-2.342173099517822266e+00,7.562065887451171875e+01,3.135675048828125000e+01
7.840800285339355469e-01,1.000000000000000000e+00,-4.117085266113281250e+01,3.515270614624023438e+01,3.341484451293945312e+01,9.703172302246093750e+01,9.753707122802734375e+01,-6.465183258056640625e+00,4.031498432159423828e-01,-6.667009735107421875e+01,-1.826863250732421875e+02,-2.342245101928710938e+00,7.562065887451171875e+01,3.135675048828125000e+01
7.874649763107299805e-01,1.000000000000000000e+00,-4.125579833984375000e+01,3.498612976074218750e+01,3.346101760864257812e+01,9.688155364990234375e+01,9.757902526855468750e+01,-6.514078617095947266e+00,4.031498432159423828e-01,-6.667009735107421875e+01,-1.826863250732421875e+02,-2.342173099517822266e+00,7.562065887451171875e+01,3.135697174072265625e+01
7.910760045051574707e-01,1.000000000000000000e+00,-4.129825592041015625e+01,3.490253448486328125e+01,3.348409271240234375e+01,9.680633544921875000e+01,9.760019683837890625e+01,-6.537407875061035156e+00,4.031498432159423828e-01,-6.667009735107421875e+01,-1.826863250732421875e+02,-2.342173099517822266e+00,7.562065887451171875e+01,3.135697174072265625e+01
7.960799932479858398e-01,1.000000000000000000e+00,-4.129825592041015625e+01,3.490253448486328125e+01,3.348409271240234375e+01,9.680633544921875000e+01,9.760019683837890625e+01,-6.537407875061035156e+00,4.031498432159423828e-01,-6.667009735107421875e+01,-1.826863250732421875e+02,-2.342173099517822266e+00,7.562065887451171875e+01,3.135697174072265625e+01
8.000569939613342285e-01,1.000000000000000000e+00,-4.138331222534179688e+01,3.473686218261718750e+01,3.352963638305664062e+01,9.665557861328125000e+01,9.764530181884765625e+01,-6.584404945373535156e+00,4.031498432159423828e-01,-6.667019653320312500e+01,-1.826863250732421875e+02,-2.342245101928710938e+00,7.562065887451171875e+01,3.135675048828125000e+01
8.030750155448913574e-01,1.000000000000000000e+00,-4.142576980590820312e+01,3.465405654907226562e+01,3.355249023437500000e+01,9.657999420166015625e+01,9.766768646240234375e+01,-6.608886718750000000e+00,4.031498432159423828e-01,-6.667009735107421875e+01,-1.826863250732421875e+02,-2.342316627502441406e+00,7.562065887451171875e+01,3.135675048828125000e+01
8.071789741516113281e-01,1.000000000000000000e+00,-4.142576980590820312e+01,3.465405654907226562e+01,3.355249023437500000e+01,9.657999420166015625e+01,9.766768646240234375e+01,-6.608886718750000000e+00,4.031498432159423828e-01,-6.667009735107421875e+01,-1.826863250732421875e+02,-2.342316627502441406e+00,7.562065887451171875e+01,3.135675048828125000e+01
8.121269941329956055e-01,1.000000000000000000e+00,-4.146831512451171875e+01,3.457138824462890625e+01,3.357566833496093750e+01,9.650434875488281250e+01,9.768955230712890625e+01,-6.633300781250000000e+00,4.031498432159423828e-01,-6.667009735107421875e+01,-1.826863250732421875e+02,-2.342245101928710938e+00,7.562065887451171875e+01,3.135697174072265625e+01
8.150560259819030762e-01,1.000000000000000000e+00,-4.155308532714843750e+01,3.440505981445312500e+01,3.362173843383789062e+01,9.635281372070312500e+01,9.773151397705078125e+01,-6.682671546936035156e+00,4.031498432159423828e-01,-6.667009735107421875e+01,-1.826863250732421875e+02,-2.342316627502441406e+00,7.562065887451171875e+01,3.135697174072265625e+01
8.191739916801452637e-01,1.000000000000000000e+00,-4.155308532714843750e+01,3.440505981445312500e+01,3.362173843383789062e+01,9.635281372070312500e+01,9.773151397705078125e+01,-6.682671546936035156e+00,4.031498432159423828e-01,-6.667009735107421875e+01,-1.826863250732421875e+02,-2.342316627502441406e+00,7.562065887451171875e+01,3.135697174072265625e+01
8.231210112571716309e-01,1.000000000000000000e+00,-4.159571456909179688e+01,3.432142257690429688e+01,3.364465332031250000e+01,9.627706146240234375e+01,9.775347900390625000e+01,-6.706950187683105469e+00,4.031498432159423828e-01,-6.667009735107421875e+01,-1.826863250732421875e+02,-2.342316627502441406e+00,7.562065887451171875e+01,3.135697174072265625e+01
8.271489739418029785e-01,1.000000000000000000e+00,-4.163831710815429688e+01,3.423744201660156250e+01,3.366773223876953125e+01,9.620137023925781250e+01,9.777597808837890625e+01,-6.730618000030517578e+00,4.031498432159423828e-01,-6.667009735107421875e+01,-1.826863250732421875e+02,-2.342245101928710938e+00,7.562065887451171875e+01,3.135675048828125000e+01
8.312799930572509766e-01,1.000000000000000000e+00,-4.168069076538085938e+01,3.415373229980468750e+01,3.369094848632812500e+01,9.612573242187500000e+01,9.779858398437500000e+01,-6.754014492034912109e+00,4.031498432159423828e-01,-6.667001342773437500e+01,-1.826863250732421875e+02,-2.342316627502441406e+00,7.562065887451171875e+01,3.135697174072265625e+01
8.351050019264221191e-01,1.000000000000000000e+00,-4.172323226928710938e+01,3.407029724121093750e+01,3.371398544311523438e+01,9.605009460449218750e+01,9.782108306884765625e+01,-6.777954101562500000e+00,4.031498432159423828e-01,-6.667009735107421875e+01,-1.826863250732421875e+02,-2.342245101928710938e+00,7.562065887451171875e+01,3.135697174072265625e+01
8.391129970550537109e-01,1.000000000000000000e+00,-4.176609039306640625e+01,3.398715209960937500e+01,3.373700332641601562e+01,9.597429656982421875e+01,9.784230041503906250e+01,-6.802368164062500000e+00,4.031498432159423828e-01,-6.667009735107421875e+01,-1.826863250732421875e+02,-2.342245101928710938e+00,7.562051391601562500e+01,3.135697174072265625e+01
8.431850075721740723e-01,1.000000000000000000e+00,-4.180886459350585938e+01,3.390437316894531250e+01,3.375999832153320312e+01,9.589839172363281250e+01,9.786303710937500000e+01,-6.827053546905517578e+00,4.031498432159423828e-01,-6.667009735107421875e+01,-1.826863250732421875e+02,-2.342316627502441406e+00,7.562065887451171875e+01,3.135675048828125000e+01
8.471069931983947754e-01,1.000000000000000000e+00,-4.185172653198242188e+01,3.382125473022460938e+01,3.378307342529296875e+01,9.582244110107421875e+01,9.788442230224609375e+01,-6.851671218872070312e+00,4.031498432159423828e-01,-6.667009735107421875e+01,-1.826863250732421875e+02,-2.342173099517822266e+00,7.562065887451171875e+01,3.135697174072265625e+01
8.514789938926696777e-01,1.000000000000000000e+00,-4.193775939941406250e+01,3.365394973754882812e+01,3.382937240600585938e+01,9.567047119140625000e+01,9.792883300781250000e+01,-6.900228023529052734e+00,4.031498432159423828e-01,-6.667009735107421875e+01,-1.826863250732421875e+02,-2.342173099517822266e+00,7.562065887451171875e+01,3.135697174072265625e+01
8.551059961318969727e-01,1.000000000000000000e+00,-4.193775939941406250e+01,3.365394973754882812e+01,3.382937240600585938e+01,9.567047119140625000e+01,9.792883300781250000e+01,-6.900228023529052734e+00,4.031498432159423828e-01,-6.667009735107421875e+01,-1.826863250732421875e+02,-2.342173099517822266e+00,7.562065887451171875e+01,3.135697174072265625e+01
8.601120114326477051e-01,1.000000000000000000e+00,-4.198090362548828125e+01,3.356992721557617188e+01,3.385236358642578125e+01,9.559383392333984375e+01,9.795191955566406250e+01,-6.923828125000000000e+00,4.031498432159423828e-01,-6.667009735107421875e+01,-1.826863250732421875e+02,-2.342245101928710938e+00,7.562065887451171875e+01,3.135675048828125000e+01
8.630740046501159668e-01,1.000000000000000000e+00,-4.206739807128906250e+01,3.340151214599609375e+01,3.389857864379882812e+01,9.544139099121093750e+01,9.799468231201171875e+01,-6.971639156341552734e+00,4.031498432159423828e-01,-6.667009735107421875e+01,-1.826863250732421875e+02,-2.342173099517822266e+00,7.562065887451171875e+01,3.135675048828125000e+01
8.671060204505920410e-01,1.000000000000000000e+00,-4.206739807128906250e+01,3.340151214599609375e+01,3.389857864379882812e+01,9.544139099121093750e+01,9.799468231201171875e+01,-6.971639156341552734e+00,4.031498432159423828e-01,-6.667009735107421875e+01,-1.826863250732421875e+02,-2.342173099517822266e+00,7.562065887451171875e+01,3.135675048828125000e+01
8.711599707603454590e-01,1.000000000000000000e+00,-4.211060333251953125e+01,3.331760025024414062e+01,3.392173385620117188e+01,9.536564636230468750e+01,9.801622009277343750e+01,-6.995917320251464844e+00,4.031498432159423828e-01,-6.667009735107421875e+01,-1.826863250732421875e+02,-2.342245101928710938e+00,7.562065887451171875e+01,3.135697174072265625e+01
8.751170039176940918e-01,1.000000000000000000e+00,-4.215409469604492188e+01,3.323414230346679688e+01,3.394503784179687500e+01,9.528910827636718750e+01,9.803803253173828125e+01,-7.020874023437500000e+00,4.031498432159423828e-01,-6.667009735107421875e+01,-1.826863250732421875e+02,-2.342245101928710938e+00,7.562065887451171875e+01,3.135675048828125000e+01
8.791180253028869629e-01,1.000000000000000000e+00,-4.219738388061523438e+01,3.315029907226562500e+01,3.396813201904296875e+01,9.521315002441406250e+01,9.806047058105468750e+01,-7.045355796813964844e+00,4.031498432159423828e-01,-6.667009735107421875e+01,-1.826863250732421875e+02,-2.342245101928710938e+00,7.562065887451171875e+01,3.135675048828125000e+01
8.838629722595214844e-01,1.000000000000000000e+00,-4.224092864990234375e+01,3.306665802001953125e+01,3.399135208129882812e+01,9.513677978515625000e+01,9.808355712890625000e+01,-7.070041179656982422e+00,4.031498432159423828e-01,-6.667009735107421875e+01,-1.826863250732421875e+02,-2.342173099517822266e+00,7.562065887451171875e+01,3.135675048828125000e+01
8.903130292892456055e-01,1.000000000000000000e+00,-4.228447723388671875e+01,3.298279190063476562e+01,3.401454925537109375e+01,9.506087493896484375e+01,9.810617065429687500e+01,-7.093302726745605469e+00,4.031498432159423828e-01,-6.667009735107421875e+01,-1.826863250732421875e+02,-2.342245101928710938e+00,7.562065887451171875e+01,3.135697174072265625e+01
8.917769789695739746e-01,1.000000000000000000e+00,-4.237152099609375000e+01,3.281340789794921875e+01,3.406090545654296875e+01,9.490811920166015625e+01,9.814887237548828125e+01,-7.141384601593017578e+00,4.031498432159423828e-01,-6.667009735107421875e+01,-1.826863250732421875e+02,-2.342316627502441406e+00,7.562065887451171875e+01,3.135675048828125000e+01
8.961150050163269043e-01,1.000000000000000000e+00,-4.237152099609375000e+01,3.281340789794921875e+01,3.406090545654296875e+01,9.490811920166015625e+01,9.814887237548828125e+01,-7.141384601593017578e+00,4.031498432159423828e-01,-6.667009735107421875e+01,-1.826863250732421875e+02,-2.342316627502441406e+00,7.562065887451171875e+01,3.135675048828125000e+01
9.000859856605529785e-01,1.000000000000000000e+00,-4.245875930786132812e+01,3.264354705810546875e+01,3.410766983032226562e+01,9.475473022460937500e+01,9.819248199462890625e+01,-7.190280437469482422e+00,4.031498432159423828e-01,-6.667009735107421875e+01,-1.826863250732421875e+02,-2.342173099517822266e+00,7.562065887451171875e+01,3.135675048828125000e+01
9.041280150413513184e-01,1.000000000000000000e+00,-4.250241851806640625e+01,3.255909347534179688e+01,3.413111495971679688e+01,9.467751312255859375e+01,9.821530151367187500e+01,-7.215372562408447266e+00,4.031498432159423828e-01,-6.667009735107421875e+01,-1.826863250732421875e+02,-2.342173099517822266e+00,7.562051391601562500e+01,3.135675048828125000e+01
9.090800285339355469e-01,1.000000000000000000e+00,-4.250241851806640625e+01,3.255909347534179688e+01,3.413111495971679688e+01,9.467751312255859375e+01,9.821530151367187500e+01,-7.215372562408447266e+00,4.031498432159423828e-01,-6.667009735107421875e+01,-1.826863250732421875e+02,-2.342245101928710938e+00,7.562065887451171875e+01,3.135675048828125000e+01
9.117019772529602051e-01,1.000000000000000000e+00,-4.258940124511718750e+01,3.239115524291992188e+01,3.417753219604492188e+01,9.452423095703125000e+01,9.826045989990234375e+01,-7.264200687408447266e+00,4.031498432159423828e-01,-6.667009735107421875e+01,-1.826863250732421875e+02,-2.342245101928710938e+00,7.562065887451171875e+01,3.135675048828125000e+01
9.161959886550903320e-01,1.000000000000000000e+00,-4.258940124511718750e+01,3.239115524291992188e+01,3.417753219604492188e+01,9.452423095703125000e+01,9.826045989990234375e+01,-7.264200687408447266e+00,4.031498432159423828e-01,-6.667009735107421875e+01,-1.826863250732421875e+02,-2.342245101928710938e+00,7.562065887451171875e+01,3.135675048828125000e+01
9.201099872589111328e-01,1.000000000000000000e+00,-4.263315200805664062e+01,3.230704116821289062e+01,3.420066833496093750e+01,9.444806671142578125e+01,9.828189849853515625e+01,-7.287530422210693359e+00,4.031498432159423828e-01,-6.667009735107421875e+01,-1.826863250732421875e+02,-2.342245101928710938e+00,7.562065887451171875e+01,3.135697174072265625e+01
9.240739941596984863e-01,1.000000000000000000e+00,-4.267652893066406250e+01,3.222240447998046875e+01,3.422404861450195312e+01,9.437105560302734375e+01,9.830321502685546875e+01,-7.311469078063964844e+00,4.031498432159423828e-01,-6.667009735107421875e+01,-1.826863250732421875e+02,-2.342245101928710938e+00,7.562065887451171875e+01,3.135697174072265625e+01
9.282299876213073730e-01,1.000000000000000000e+00,-4.272004699707031250e+01,3.213769912719726562e+01,3.424757385253906250e+01,9.429451751708984375e+01,9.832529449462890625e+01,-7.335747718811035156e+00,4.031498432159423828e-01,-6.667019653320312500e+01,-1.826863250732421875e+02,-2.342245101928710938e+00,7.562065887451171875e+01,3.135675048828125000e+01
9.331330060958862305e-01,1.000000000000000000e+00,-4.276356506347656250e+01,3.205242919921875000e+01,3.427099609375000000e+01,9.421777343750000000e+01,9.834784698486328125e+01,-7.360229969024658203e+00,4.031498432159423828e-01,-6.667009735107421875e+01,-1.826863250732421875e+02,-2.342245101928710938e+00,7.562065887451171875e+01,3.135675048828125000e+01
9.356690049171447754e-01,1.000000000000000000e+00,-4.285077667236328125e+01,3.188211822509765625e+01,3.431788253784179688e+01,9.406401824951171875e+01,9.839396667480468750e+01,-7.410074710845947266e+00,4.031498432159423828e-01,-6.667009735107421875e+01,-1.826863250732421875e+02,-2.342245101928710938e+00,7.562065887451171875e+01,3.135697174072265625e+01
9.392639994621276855e-01,1.000000000000000000e+00,-4.285077667236328125e+01,3.188211822509765625e+01,3.431788253784179688e+01,9.406401824951171875e+01,9.839396667480468750e+01,-7.410074710845947266e+00,4.031498432159423828e-01,-6.667009735107421875e+01,-1.826863250732421875e+02,-2.342245101928710938e+00,7.562065887451171875e+01,3.135697174072265625e+01
9.431859850883483887e-01,1.000000000000000000e+00,-4.289406967163085938e+01,3.179757308959960938e+01,3.434140777587890625e+01,9.398669433593750000e+01,9.841614532470703125e+01,-7.434964179992675781e+00,4.031498432159423828e-01,-6.667009735107421875e+01,-1.826863250732421875e+02,-2.342245101928710938e+00,7.562065887451171875e+01,3.135719108581542969e+01
9.471099972724914551e-01,1.000000000000000000e+00,-4.293761444091796875e+01,3.171306991577148438e+01,3.436491012573242188e+01,9.390973663330078125e+01,9.843741607666015625e+01,-7.459106445312500000e+00,4.031498432159423828e-01,-6.667009735107421875e+01,-1.826863250732421875e+02,-2.342245101928710938e+00,7.562065887451171875e+01,3.135697174072265625e+01
9.511089920997619629e-01,1.000000000000000000e+00,-4.298128128051757812e+01,3.162877655029296875e+01,3.438808822631835938e+01,9.383219909667968750e+01,9.845932769775390625e+01,-7.483046054840087891e+00,4.031498432159423828e-01,-6.667009735107421875e+01,-1.826863250732421875e+02,-2.342245101928710938e+00,7.562051391601562500e+01,3.135675048828125000e+01
9.567009806632995605e-01,1.000000000000000000e+00,-4.302488708496093750e+01,3.154432106018066406e+01,3.441136932373046875e+01,9.375540161132812500e+01,9.848161315917968750e+01,-7.506917476654052734e+00,4.031498432159423828e-01,-6.667009735107421875e+01,-1.826863250732421875e+02,-2.342245101928710938e+00,7.562065887451171875e+01,3.135697174072265625e+01
9.600549936294555664e-01,1.000000000000000000e+00,-4.311198043823242188e+01,3.137403106689453125e+01,3.445861816406250000e+01,9.360059356689453125e+01,9.852816772460937500e+01,-7.556423664093017578e+00,4.031498432159423828e-01,-6.667009735107421875e+01,-1.826863250732421875e+02,-2.342245101928710938e+00,7.562065887451171875e+01,3.135675048828125000e+01
9.632620215415954590e-01,1.000000000000000000e+00,-4.311198043823242188e+01,3.137403106689453125e+01,3.445861816406250000e+01,9.360059356689453125e+01,9.852816772460937500e+01,-7.556423664093017578e+00,4.031498432159423828e-01,-6.667009735107421875e+01,-1.826863250732421875e+02,-2.342245101928710938e+00,7.562065887451171875e+01,3.135675048828125000e+01
9.671030044555664062e-01,1.000000000000000000e+00,-4.315555953979492188e+01,3.128830718994140625e+01,3.448220443725585938e+01,9.352342224121093750e+01,9.855072021484375000e+01,-7.581651687622070312e+00,4.031498432159423828e-01,-6.667009735107421875e+01,-1.826863250732421875e+02,-2.342245101928710938e+00,7.562065887451171875e+01,3.135675048828125000e+01
9.711750149726867676e-01,1.000000000000000000e+00,-4.319922256469726562e+01,3.120269775390625000e+01,3.450564575195312500e+01,9.344652557373046875e+01,9.857246398925781250e+01,-7.606744289398193359e+00,4.031498432159423828e-01,-6.667009735107421875e+01,-1.826863250732421875e+02,-2.342316627502441406e+00,7.562065887451171875e+01,3.135697174072265625e+01
9.751240015029907227e-01,1.000000000000000000e+00,-4.324285888671875000e+01,3.111722564697265625e+01,3.452898788452148438e+01,9.336908721923828125e+01,9.859416961669921875e+01,-7.631225109100341797e+00,4.031498432159423828e-01,-6.667019653320312500e+01,-1.826863250732421875e+02,-2.342316627502441406e+00,7.562065887451171875e+01,3.135675048828125000e+01
9.796869754791259766e-01,1.000000000000000000e+00,-4.328672027587890625e+01,3.103215980529785156e+01,3.455250930786132812e+01,9.329166412353515625e+01,9.861656188964843750e+01,-7.655097484588623047e+00,4.031498432159423828e-01,-6.667009735107421875e+01,-1.826863250732421875e+02,-2.342173099517822266e+00,7.562065887451171875e+01,3.135697174072265625e+01
9.841049909591674805e-01,1.000000000000000000e+00,-4.333046722412109375e+01,3.094752693176269531e+01,3.457611465454101562e+01,9.321443939208984375e+01,9.863927459716796875e+01,-7.679443836212158203e+00,4.031498432159423828e-01,-6.667009735107421875e+01,-1.826863250732421875e+02,-2.342316627502441406e+00,7.562065887451171875e+01,3.135697174072265625e+01
9.873300194740295410e-01,1.000000000000000000e+00,-4.337430572509765625e+01,3.086273002624511719e+01,3.459978103637695312e+01,9.313690185546875000e+01,9.866278839111328125e+01,-7.704196453094482422e+00,4.031498432159423828e-01,-6.667009735107421875e+01,-1.826863250732421875e+02,-2.342245101928710938e+00,7.562065887451171875e+01,3.135697174072265625e+01
9.912210106849670410e-01,1.000000000000000000e+00,-4.341831207275390625e+01,3.077729988098144531e+01,3.462332534790039062e+01,9.305873107910156250e+01,9.868597412109375000e+01,-7.728814125061035156e+00,4.031498432159423828e-01,-6.667009735107421875e+01,-1.826863250732421875e+02,-2.342173099517822266e+00,7.562065887451171875e+01,3.135697174072265625e+01
9.953699707984924316e-01,1.000000000000000000e+00,-4.346260833740234375e+01,3.069160270690917969e+01,3.464677047729492188e+01,9.298093414306640625e+01,9.870820617675781250e+01,-7.754381179809570312e+00,4.031498432159423828e-01,-6.667009735107421875e+01,-1.826863250732421875e+02,-2.342245101928710938e+00,7.562065887451171875e+01,3.135675048828125000e+01
9.993349909782409668e-01,1.000000000000000000e+00,-4.350667190551757812e+01,3.060567855834960938e+01,3.467051696777343750e+01,9.290334320068359375e+01,9.872959136962890625e+01,-7.779608726501464844e+00,4.031498432159423828e-01,-6.667009735107421875e+01,-1.826863250732421875e+02,-2.342245101928710938e+00,7.562065887451171875e+01,3.135697174072265625e+01
1.003834962844848633e+00,1.000000000000000000e+00,-4.355059432983398438e+01,3.051945686340332031e+01,3.469422149658203125e+01,9.282565307617187500e+01,9.875134277343750000e+01,-7.804633617401123047e+00,4.031498432159423828e-01,-6.667009735107421875e+01,-1.826863250732421875e+02,-2.342245101928710938e+00,7.562065887451171875e+01,3.135697174072265625e+01
1.009063959121704102e+00,1.000000000000000000e+00,-4.359480285644531250e+01,3.043325996398925781e+01,3.471782684326171875e+01,9.274769592285156250e+01,9.877394866943359375e+01,-7.829251289367675781e+00,4.031498432159423828e-01,-6.667009735107421875e+01,-1.826863250732421875e+02,-2.342245101928710938e+00,7.562065887451171875e+01,3.135697174072265625e+01
1.011754035949707031e+00,1.000000000000000000e+00,-4.368313217163085938e+01,3.026199722290039062e+01,3.476497650146484375e+01,9.259252166748046875e+01,9.882086181640625000e+01,-7.877672195434570312e+00,4.031498432159423828e-01,-6.667009735107421875e+01,-1.826863250732421875e+02,-2.342245101928710938e+00,7.562065887451171875e+01,3.135697174072265625e+01
1.016175031661987305e+00,1.000000000000000000e+00,-4.368313217163085938e+01,3.026199722290039062e+01,3.476497650146484375e+01,9.259252166748046875e+01,9.882086181640625000e+01,-7.877672195434570312e+00,4.031498432159423828e-01,-6.667009735107421875e+01,-1.826863250732421875e+02,-2.342245101928710938e+00,7.562065887451171875e+01,3.135697174072265625e+01
1.019323945045471191e+00,1.000000000000000000e+00,-4.372748565673828125e+01,3.017645645141601562e+01,3.478882598876953125e+01,9.251471710205078125e+01,9.884347534179687500e+01,-7.902560710906982422e+00,4.031498432159423828e-01,-6.667009735107421875e+01,-1.826863250732421875e+02,-2.342173099517822266e+00,7.562065887451171875e+01,3.135675048828125000e+01
1.023432970046997070e+00,1.000000000000000000e+00,-4.377194976806640625e+01,3.009100341796875000e+01,3.481259536743164062e+01,9.243649291992187500e+01,9.886522674560546875e+01,-7.927856922149658203e+00,4.031498432159423828e-01,-6.667009735107421875e+01,-1.826863250732421875e+02,-2.342316627502441406e+00,7.562065887451171875e+01,3.135697174072265625e+01
1.028808951377868652e+00,1.000000000000000000e+00,-4.381624603271484375e+01,3.000528144836425781e+01,3.483628082275390625e+01,9.235832977294921875e+01,9.888719177246093750e+01,-7.953152656555175781e+00,4.031498432159423828e-01,-6.667009735107421875e+01,-1.826863250732421875e+02,-2.342245101928710938e+00,7.562065887451171875e+01,3.135675048828125000e+01
1.032127976417541504e+00,1.000000000000000000e+00,-4.386071395874023438e+01,2.991910743713378906e+01,3.485978317260742188e+01,9.228052520751953125e+01,9.890969085693359375e+01,-7.978448390960693359e+00,4.031498432159423828e-01,-6.667009735107421875e+01,-1.826863250732421875e+02,-2.342316627502441406e+00,7.562065887451171875e+01,3.135697174072265625e+01
1.035523056983947754e+00,1.000000000000000000e+00,-4.390503692626953125e+01,2.983241271972656250e+01,3.488346862792968750e+01,9.220252227783203125e+01,9.893256378173828125e+01,-8.003065109252929688e+00,4.031498432159423828e-01,-6.667001342773437500e+01,-1.826863250732421875e+02,-2.342245101928710938e+00,7.562065887451171875e+01,3.135697174072265625e+01
1.039587974548339844e+00,1.000000000000000000e+00,-4.394947433471679688e+01,2.974580955505371094e+01,3.490742492675781250e+01,9.212339782714843750e+01,9.895634460449218750e+01,-8.027546882629394531e+00,4.031498432159423828e-01,-6.667009735107421875e+01,-1.826863250732421875e+02,-2.342316627502441406e+00,7.562065887451171875e+01,3.135697174072265625e+01
1.044111967086791992e+00,1.000000000000000000e+00,-4.399391174316406250e+01,2.965920257568359375e+01,3.493135452270507812e+01,9.204523468017578125e+01,9.897985839843750000e+01,-8.051825523376464844e+00,4.031498432159423828e-01,-6.667009735107421875e+01,-1.826863250732421875e+02,-2.342245101928710938e+00,7.562065887451171875e+01,3.135697174072265625e+01
1.047721028327941895e+00,1.000000000000000000e+00,-4.403835296630859375e+01,2.957314109802246094e+01,3.495528411865234375e+01,9.196696472167968750e+01,9.900187683105468750e+01,-8.076239585876464844e+00,4.031498432159423828e-01,-6.667009735107421875e+01,-1.826863250732421875e+02,-2.342173099517822266e+00,7.562065887451171875e+01,3.135697174072265625e+01
1.053243041038513184e+00,1.000000000000000000e+00,-4.408253097534179688e+01,2.948753166198730469e+01,3.497901153564453125e+01,9.188921356201171875e+01,9.902336120605468750e+01,-8.101400375366210938e+00,4.031498432159423828e-01,-6.667009735107421875e+01,-1.826863250732421875e+02,-2.342245101928710938e+00,7.562065887451171875e+01,3.135719108581542969e+01
1.056198000907897949e+00,1.000000000000000000e+00,-4.412679672241210938e+01,2.940203475952148438e+01,3.500275802612304688e+01,9.181067657470703125e+01,9.904516601562500000e+01,-8.126898765563964844e+00,4.031498432159423828e-01,-6.667009735107421875e+01,-1.826863250732421875e+02,-2.342245101928710938e+00,7.562065887451171875e+01,3.135697174072265625e+01
1.059721946716308594e+00,1.000000000000000000e+00,-4.417111968994140625e+01,2.931608772277832031e+01,3.502660751342773438e+01,9.173256683349609375e+01,9.906787872314453125e+01,-8.152330398559570312e+00,4.031498432159423828e-01,-6.667009735107421875e+01,-1.826863250732421875e+02,-2.342245101928710938e+00,7.562065887451171875e+01,3.135697174072265625e+01
1.064126968383789062e+00,1.000000000000000000e+00,-4.421553039550781250e+01,2.922986602783203125e+01,3.505033493041992188e+01,9.165386199951171875e+01,9.909149932861328125e+01,-8.177490234375000000e+00,4.031498432159423828e-01,-6.667009735107421875e+01,-1.826863250732421875e+02,-2.342245101928710938e+00,7.562065887451171875e+01,3.135697174072265625e+01
1.067603945732116699e+00,1.000000000000000000e+00,-4.425973892211914062e+01,2.914328765869140625e+01,3.507411956787109375e+01,9.157601165771484375e+01,9.911528015136718750e+01,-8.201972007751464844e+00,4.031498432159423828e-01,-6.667009735107421875e+01,-1.826863250732421875e+02,-2.342245101928710938e+00,7.562051391601562500e+01,3.135697174072265625e+01
1.072116017341613770e+00,1.000000000000000000e+00,-4.430403137207031250e+01,2.905643081665039062e+01,3.509799194335937500e+01,9.149731445312500000e+01,9.913772583007812500e+01,-8.225776672363281250e+00,4.031498432159423828e-01,-6.667019653320312500e+01,-1.826863250732421875e+02,-2.342245101928710938e+00,7.562051391601562500e+01,3.135697174072265625e+01
1.076459050178527832e+00,1.000000000000000000e+00,-4.434838485717773438e+01,2.896928405761718750e+01,3.512198257446289062e+01,9.141888427734375000e+01,9.915959167480468750e+01,-8.250664710998535156e+00,4.031498432159423828e-01,-6.667009735107421875e+01,-1.826863250732421875e+02,-2.342245101928710938e+00,7.562065887451171875e+01,3.135697174072265625e+01
1.080345034599304199e+00,1.000000000000000000e+00,-4.443703079223632812e+01,2.879627990722656250e+01,3.516990280151367188e+01,9.126113128662109375e+01,9.920452880859375000e+01,-8.301053047180175781e+00,4.031498432159423828e-01,-6.667009735107421875e+01,-1.826863250732421875e+02,-2.342245101928710938e+00,7.562065887451171875e+01,3.135697174072265625e+01
1.083750009536743164e+00,1.000000000000000000e+00,-4.443703079223632812e+01,2.879627990722656250e+01,3.516990280151367188e+01,9.126113128662109375e+01,9.920452880859375000e+01,-8.301053047180175781e+00,4.031498432159423828e-01,-6.667009735107421875e+01,-1.826863250732421875e+02,-2.342245101928710938e+00,7.562065887451171875e+01,3.135697174072265625e+01
1.087985992431640625e+00,1.000000000000000000e+00,-4.448144149780273438e+01,2.870976448059082031e+01,3.519361114501953125e+01,9.118232727050781250e+01,9.922761535644531250e+01,-8.326483726501464844e+00,4.031498432159423828e-01,-6.667019653320312500e+01,-1.826863250732421875e+02,-2.342245101928710938e+00,7.562065887451171875e+01,3.135697174072265625e+01
1.092113018035888672e+00,1.000000000000000000e+00,-4.452576446533203125e+01,2.862343025207519531e+01,3.521740341186523438e+01,9.110342407226562500e+01,9.925150299072265625e+01,-8.351847648620605469e+00,4.031498432159423828e-01,-6.667009735107421875e+01,-1.826863250732421875e+02,-2.342245101928710938e+00,7.562065887451171875e+01,3.135697174072265625e+01
1.096109032630920410e+00,1.000000000000000000e+00,-4.456999969482421875e+01,2.853707504272460938e+01,3.524129104614257812e+01,9.102514648437500000e+01,9.927501678466796875e+01,-8.377007484436035156e+00,4.031498432159423828e-01,-6.667009735107421875e+01,-1.826863250732421875e+02,-2.342316627502441406e+00,7.562065887451171875e+01,3.135675048828125000e+01
1.100675940513610840e+00,1.000000000000000000e+00,-4.461406707763671875e+01,2.844999504089355469e+01,3.526530075073242188e+01,9.094629669189453125e+01,9.929740905761718750e+01,-8.401218414306640625e+00,4.031498432159423828e-01,-6.667009735107421875e+01,-1.826863250732421875e+02,-2.342245101928710938e+00,7.562065887451171875e+01,3.135697174072265625e+01
1.104130983352661133e+00,1.000000000000000000e+00,-4.465870285034179688e+01,2.836239433288574219e+01,3.528941726684570312e+01,9.086739349365234375e+01,9.931910705566406250e+01,-8.425903320312500000e+00,4.031498432159423828e-01,-6.667019653320312500e+01,-1.826863250732421875e+02,-2.342245101928710938e+00,7.562065887451171875e+01,3.135675048828125000e+01
1.108118057250976562e+00,1.000000000000000000e+00,-4.470302963256835938e+01,2.827447891235351562e+01,3.531344604492187500e+01,9.078842926025390625e+01,9.934144592285156250e+01,-8.450453758239746094e+00,4.031498432159423828e-01,-6.667009735107421875e+01,-1.826863250732421875e+02,-2.342245101928710938e+00,7.562065887451171875e+01,3.135675048828125000e+01
1.112239956855773926e+00,1.000000000000000000e+00,-4.474721145629882812e+01,2.818685531616210938e+01,3.533764266967773438e+01,9.070963287353515625e+01,9.936442565917968750e+01,-8.475274085998535156e+00,4.031498432159423828e-01,-6.667009735107421875e+01,-1.826863250732421875e+02,-2.342245101928710938e+00,7.562065887451171875e+01,3.135675048828125000e+01
1.116119980812072754e+00,1.000000000000000000e+00,-4.479156112670898438e+01,2.809954833984375000e+01,3.536157226562500000e+01,9.063077545166015625e+01,9.938836669921875000e+01,-8.500841140747070312e+00,4.031498432159423828e-01,-6.667009735107421875e+01,-1.826863250732421875e+02,-2.342245101928710938e+00,7.562065887451171875e+01,3.135675048828125000e+01
