rpiRobotics/ARM-21-02-F-19-Robot-Motion-Program/data_performance_abb/curve_1/curve_pose_opt1/greedy0.02/realrobot/run_3.csv
timestamp,cmd_num,J1,J2,J3,J4,J5,J6
1.550000015413388610e-04,-1.000000000000000000e+00,-3.460020828247070312e+01,4.793055725097656250e+01,2.988686943054199219e+01,1.086464538574218750e+02,9.417948150634765625e+01,-2.775336503982543945e+00,4.031498432159423828e-01,-6.667009735107421875e+01,-1.826863250732421875e+02,-2.342245101928710938e+00,7.562065887451171875e+01,3.135697174072265625e+01
7.007000036537647247e-03,1.000000000000000000e+00,-3.460015487670898438e+01,4.793051147460937500e+01,2.988686943054199219e+01,1.086463546752929688e+02,9.417916107177734375e+01,-2.775336503982543945e+00,4.031498432159423828e-01,-6.667009735107421875e+01,-1.826863250732421875e+02,-2.342245101928710938e+00,7.562065887451171875e+01,3.135697174072265625e+01
9.382000192999839783e-03,1.000000000000000000e+00,-3.460015487670898438e+01,4.793051147460937500e+01,2.988686943054199219e+01,1.086464538574218750e+02,9.417926788330078125e+01,-2.775200843811035156e+00,4.031498432159423828e-01,-6.667019653320312500e+01,-1.826863250732421875e+02,-2.342245101928710938e+00,7.562065887451171875e+01,3.135697174072265625e+01
1.534000039100646973e-02,1.000000000000000000e+00,-3.460020828247070312e+01,4.793051147460937500e+01,2.988683128356933594e+01,1.086463546752929688e+02,9.417926788330078125e+01,-2.775336503982543945e+00,4.031498432159423828e-01,-6.667009735107421875e+01,-1.826863250732421875e+02,-2.342316627502441406e+00,7.562065887451171875e+01,3.135697174072265625e+01
3.988299891352653503e-02,1.000000000000000000e+00,-3.460015487670898438e+01,4.793051147460937500e+01,2.988686943054199219e+01,1.086463546752929688e+02,9.417926788330078125e+01,-2.775200843811035156e+00,4.031498432159423828e-01,-6.667009735107421875e+01,-1.826863250732421875e+02,-2.342245101928710938e+00,7.562065887451171875e+01,3.135719108581542969e+01
4.134599864482879639e-02,1.000000000000000000e+00,-3.460015487670898438e+01,4.793051147460937500e+01,2.988686943054199219e+01,1.086463546752929688e+02,9.417926788330078125e+01,-2.775200843811035156e+00,4.031498432159423828e-01,-6.667009735107421875e+01,-1.826863250732421875e+02,-2.342245101928710938e+00,7.562065887451171875e+01,3.135719108581542969e+01
4.393799975514411926e-02,1.000000000000000000e+00,-3.460020828247070312e+01,4.793051147460937500e+01,2.988686943054199219e+01,1.086464538574218750e+02,9.417937469482421875e+01,-2.775200843811035156e+00,4.031498432159423828e-01,-6.667009735107421875e+01,-1.826863250732421875e+02,-2.342245101928710938e+00,7.562065887451171875e+01,3.135719108581542969e+01
5.289600044488906860e-02,1.000000000000000000e+00,-3.460023880004882812e+01,4.793048858642578125e+01,2.988686943054199219e+01,1.086463546752929688e+02,9.417926788330078125e+01,-2.775336503982543945e+00,4.031498432159423828e-01,-6.667009735107421875e+01,-1.826863250732421875e+02,-2.342245101928710938e+00,7.562065887451171875e+01,3.135719108581542969e+01
5.540800094604492188e-02,1.000000000000000000e+00,-3.460023880004882812e+01,4.793048858642578125e+01,2.988686943054199219e+01,1.086463546752929688e+02,9.417926788330078125e+01,-2.775336503982543945e+00,4.031498432159423828e-01,-6.667009735107421875e+01,-1.826863250732421875e+02,-2.342245101928710938e+00,7.562065887451171875e+01,3.135719108581542969e+01
5.672299861907958984e-02,1.000000000000000000e+00,-3.460049438476562500e+01,4.793035125732421875e+01,2.988683128356933594e+01,1.086463546752929688e+02,9.417926788330078125e+01,-2.775200843811035156e+00,4.031498432159423828e-01,-6.667009735107421875e+01,-1.826863250732421875e+02,-2.342245101928710938e+00,7.562081146240234375e+01,3.135719108581542969e+01
5.798299983143806458e-02,1.000000000000000000e+00,-3.460049438476562500e+01,4.793035125732421875e+01,2.988683128356933594e+01,1.086463546752929688e+02,9.417926788330078125e+01,-2.775200843811035156e+00,4.031498432159423828e-01,-6.667009735107421875e+01,-1.826863250732421875e+02,-2.342245101928710938e+00,7.562081146240234375e+01,3.135719108581542969e+01
6.410499662160873413e-02,1.000000000000000000e+00,-3.460253524780273438e+01,4.792892837524414062e+01,2.988686943054199219e+01,1.086463546752929688e+02,9.417926788330078125e+01,-2.775200843811035156e+00,4.031498432159423828e-01,-6.667009735107421875e+01,-1.826863250732421875e+02,-2.342245101928710938e+00,7.562051391601562500e+01,3.135740852355957031e+01
6.539200246334075928e-02,1.000000000000000000e+00,-3.460253524780273438e+01,4.792892837524414062e+01,2.988686943054199219e+01,1.086463546752929688e+02,9.417926788330078125e+01,-2.775200843811035156e+00,4.031498432159423828e-01,-6.667009735107421875e+01,-1.826863250732421875e+02,-2.342245101928710938e+00,7.562051391601562500e+01,3.135740852355957031e+01
6.780400127172470093e-02,1.000000000000000000e+00,-3.460443115234375000e+01,4.792688751220703125e+01,2.988686943054199219e+01,1.086464538574218750e+02,9.417926788330078125e+01,-2.775336503982543945e+00,4.031498432159423828e-01,-6.667009735107421875e+01,-1.826863250732421875e+02,-2.342245101928710938e+00,7.562065887451171875e+01,3.135740852355957031e+01
6.909299641847610474e-02,1.000000000000000000e+00,-3.460443115234375000e+01,4.792688751220703125e+01,2.988686943054199219e+01,1.086464538574218750e+02,9.417926788330078125e+01,-2.775336503982543945e+00,4.031498432159423828e-01,-6.667009735107421875e+01,-1.826863250732421875e+02,-2.342245101928710938e+00,7.562065887451171875e+01,3.135740852355957031e+01
7.330100238323211670e-02,1.000000000000000000e+00,-3.460443115234375000e+01,4.792688751220703125e+01,2.988686943054199219e+01,1.086464538574218750e+02,9.417926788330078125e+01,-2.775336503982543945e+00,4.031498432159423828e-01,-6.667009735107421875e+01,-1.826863250732421875e+02,-2.342245101928710938e+00,7.562065887451171875e+01,3.135740852355957031e+01
7.592000067234039307e-02,1.000000000000000000e+00,-3.461008453369140625e+01,4.791860580444335938e+01,2.988693046569824219e+01,1.086459274291992188e+02,9.417948150634765625e+01,-2.775336503982543945e+00,4.031498432159423828e-01,-6.667009735107421875e+01,-1.826863250732421875e+02,-2.342316627502441406e+00,7.562065887451171875e+01,3.135740852355957031e+01
7.726400345563888550e-02,1.000000000000000000e+00,-3.461008453369140625e+01,4.791860580444335938e+01,2.988693046569824219e+01,1.086459274291992188e+02,9.417948150634765625e+01,-2.775336503982543945e+00,4.031498432159423828e-01,-6.667009735107421875e+01,-1.826863250732421875e+02,-2.342316627502441406e+00,7.562065887451171875e+01,3.135740852355957031e+01
7.981599867343902588e-02,1.000000000000000000e+00,-3.461370086669921875e+01,4.791172790527343750e+01,2.988703346252441406e+01,1.086447677612304688e+02,9.417985534667968750e+01,-2.775336503982543945e+00,4.031498432159423828e-01,-6.667009735107421875e+01,-1.826862182617187500e+02,-2.342245101928710938e+00,7.562065887451171875e+01,3.135740852355957031e+01
8.126100152730941772e-02,1.000000000000000000e+00,-3.461370086669921875e+01,4.791172790527343750e+01,2.988703346252441406e+01,1.086447677612304688e+02,9.417985534667968750e+01,-2.775336503982543945e+00,4.031498432159423828e-01,-6.667009735107421875e+01,-1.826862182617187500e+02,-2.342245101928710938e+00,7.562065887451171875e+01,3.135740852355957031e+01
8.485999703407287598e-02,1.000000000000000000e+00,-3.461809539794921875e+01,4.790326309204101562e+01,2.988733673095703125e+01,1.086423492431640625e+02,9.418017578125000000e+01,-2.775539875030517578e+00,4.031498432159423828e-01,-6.667009735107421875e+01,-1.826863250732421875e+02,-2.342245101928710938e+00,7.562081146240234375e+01,3.135719108581542969e+01
8.611299842596054077e-02,1.000000000000000000e+00,-3.461809539794921875e+01,4.790326309204101562e+01,2.988733673095703125e+01,1.086423492431640625e+02,9.418017578125000000e+01,-2.775539875030517578e+00,4.031498432159423828e-01,-6.667009735107421875e+01,-1.826863250732421875e+02,-2.342245101928710938e+00,7.562081146240234375e+01,3.135719108581542969e+01
8.943200111389160156e-02,1.000000000000000000e+00,-3.462317657470703125e+01,4.789307785034179688e+01,2.988796806335449219e+01,1.086385040283203125e+02,9.418087005615234375e+01,-2.776014804840087891e+00,4.031498432159423828e-01,-6.667009735107421875e+01,-1.826863250732421875e+02,-2.342173099517822266e+00,7.562065887451171875e+01,3.135697174072265625e+01
9.190700203180313110e-02,1.000000000000000000e+00,-3.462914657592773438e+01,4.788095092773437500e+01,2.988900756835937500e+01,1.086331253051757812e+02,9.418203735351562500e+01,-2.777438879013061523e+00,4.031498432159423828e-01,-6.667009735107421875e+01,-1.826862182617187500e+02,-2.342173099517822266e+00,7.562065887451171875e+01,3.135697174072265625e+01
9.678100049495697021e-02,1.000000000000000000e+00,-3.463629531860351562e+01,4.786617279052734375e+01,2.989048957824707031e+01,1.086257019042968750e+02,9.418391418457031250e+01,-2.779812335968017578e+00,4.031498432159423828e-01,-6.667009735107421875e+01,-1.826863250732421875e+02,-2.342316627502441406e+00,7.562065887451171875e+01,3.135719108581542969e+01
9.812100231647491455e-02,1.000000000000000000e+00,-3.463629531860351562e+01,4.786617279052734375e+01,2.989048957824707031e+01,1.086257019042968750e+02,9.418391418457031250e+01,-2.779812335968017578e+00,4.031498432159423828e-01,-6.667009735107421875e+01,-1.826863250732421875e+02,-2.342316627502441406e+00,7.562065887451171875e+01,3.135719108581542969e+01
1.009889990091323853e-01,1.000000000000000000e+00,-3.464479446411132812e+01,4.784883880615234375e+01,2.989260292053222656e+01,1.086162261962890625e+02,9.418684387207031250e+01,-2.782728672027587891e+00,4.031498432159423828e-01,-6.667009735107421875e+01,-1.826863250732421875e+02,-2.342245101928710938e+00,7.562065887451171875e+01,3.135719108581542969e+01
1.043350026011466980e-01,1.000000000000000000e+00,-3.464479446411132812e+01,4.784883880615234375e+01,2.989260292053222656e+01,1.086162261962890625e+02,9.418684387207031250e+01,-2.782728672027587891e+00,4.031498432159423828e-01,-6.667009735107421875e+01,-1.826863250732421875e+02,-2.342245101928710938e+00,7.562065887451171875e+01,3.135719108581542969e+01
1.098629981279373169e-01,1.000000000000000000e+00,-3.466588973999023438e+01,4.780651855468750000e+01,2.989943695068359375e+01,1.085882492065429688e+02,9.419483947753906250e+01,-2.790663242340087891e+00,4.031498432159423828e-01,-6.667009735107421875e+01,-1.826863250732421875e+02,-2.342173099517822266e+00,7.562065887451171875e+01,3.135719108581542969e+01
1.125390008091926575e-01,1.000000000000000000e+00,-3.467877960205078125e+01,4.778117752075195312e+01,2.990460014343261719e+01,1.085683898925781250e+02,9.420038604736328125e+01,-2.796631097793579102e+00,4.031498432159423828e-01,-6.667009735107421875e+01,-1.826863250732421875e+02,-2.342316627502441406e+00,7.562065887451171875e+01,3.135697174072265625e+01
1.163619980216026306e-01,1.000000000000000000e+00,-3.467877960205078125e+01,4.778117752075195312e+01,2.990460014343261719e+01,1.085683898925781250e+02,9.420038604736328125e+01,-2.796631097793579102e+00,4.031498432159423828e-01,-6.667009735107421875e+01,-1.826863250732421875e+02,-2.342316627502441406e+00,7.562065887451171875e+01,3.135697174072265625e+01
1.205699965357780457e-01,1.000000000000000000e+00,-3.469333648681640625e+01,4.775291061401367188e+01,2.991098403930664062e+01,1.085448455810546875e+02,9.420651245117187500e+01,-2.803548336029052734e+00,4.031498432159423828e-01,-6.667009735107421875e+01,-1.826863250732421875e+02,-2.342245101928710938e+00,7.562065887451171875e+01,3.135697174072265625e+01
1.240170001983642578e-01,1.000000000000000000e+00,-3.470944213867187500e+01,4.772156906127929688e+01,2.991864967346191406e+01,1.085187225341796875e+02,9.421408843994140625e+01,-2.811821937561035156e+00,4.031498432159423828e-01,-6.667009735107421875e+01,-1.826863250732421875e+02,-2.342173099517822266e+00,7.562065887451171875e+01,3.135697174072265625e+01
1.280609965324401855e-01,1.000000000000000000e+00,-3.472703552246093750e+01,4.768662643432617188e+01,2.992759513854980469e+01,1.084890670776367188e+02,9.422271728515625000e+01,-2.820773839950561523e+00,4.031498432159423828e-01,-6.667009735107421875e+01,-1.826863250732421875e+02,-2.342245101928710938e+00,7.562065887451171875e+01,3.135697174072265625e+01
1.321910023689270020e-01,1.000000000000000000e+00,-3.474586868286132812e+01,4.764822387695312500e+01,2.993782234191894531e+01,1.084551925659179688e+02,9.423242950439453125e+01,-2.831488847732543945e+00,4.031498432159423828e-01,-6.667009735107421875e+01,-1.826863250732421875e+02,-2.342245101928710938e+00,7.562065887451171875e+01,3.135697174072265625e+01
1.360940039157867432e-01,1.000000000000000000e+00,-3.476656341552734375e+01,4.760640716552734375e+01,2.994953346252441406e+01,1.084151077270507812e+02,9.424362182617187500e+01,-2.843560218811035156e+00,4.031498432159423828e-01,-6.667009735107421875e+01,-1.826863250732421875e+02,-2.342316627502441406e+00,7.562065887451171875e+01,3.135719108581542969e+01
1.404020041227340698e-01,1.000000000000000000e+00,-3.478918457031250000e+01,4.756148147583007812e+01,2.996246528625488281e+01,1.083701248168945312e+02,9.425588989257812500e+01,-2.857394933700561523e+00,4.031498432159423828e-01,-6.667009735107421875e+01,-1.826863250732421875e+02,-2.342316627502441406e+00,7.562065887451171875e+01,3.135697174072265625e+01
1.447470039129257202e-01,1.000000000000000000e+00,-3.481338500976562500e+01,4.751343917846679688e+01,2.997708320617675781e+01,1.083236694335937500e+02,9.426964569091796875e+01,-2.871907711029052734e+00,4.031498432159423828e-01,-6.667019653320312500e+01,-1.826863250732421875e+02,-2.342173099517822266e+00,7.562065887451171875e+01,3.135697174072265625e+01
1.482979953289031982e-01,1.000000000000000000e+00,-3.483861923217773438e+01,4.746243286132812500e+01,2.999290084838867188e+01,1.082738952636718750e+02,9.428456878662109375e+01,-2.887709140777587891e+00,4.031498432159423828e-01,-6.667009735107421875e+01,-1.826863250732421875e+02,-2.342173099517822266e+00,7.562065887451171875e+01,3.135697174072265625e+01
1.522849947214126587e-01,1.000000000000000000e+00,-3.486543273925781250e+01,4.740886688232421875e+01,3.000969696044921875e+01,1.082192687988281250e+02,9.430056762695312500e+01,-2.905205726623535156e+00,4.031498432159423828e-01,-6.667009735107421875e+01,-1.826863250732421875e+02,-2.342245101928710938e+00,7.562081146240234375e+01,3.135697174072265625e+01
1.560679972171783447e-01,1.000000000000000000e+00,-3.489367675781250000e+01,4.735251998901367188e+01,3.002714157104492188e+01,1.081614837646484375e+02,9.431709289550781250e+01,-2.923651933670043945e+00,4.031498432159423828e-01,-6.667009735107421875e+01,-1.826863250732421875e+02,-2.342245101928710938e+00,7.562065887451171875e+01,3.135697174072265625e+01
1.611749976873397827e-01,1.000000000000000000e+00,-3.492344665527343750e+01,4.729343414306640625e+01,3.004519271850585938e+01,1.081018066406250000e+02,9.433372497558593750e+01,-2.943454504013061523e+00,4.031498432159423828e-01,-6.667009735107421875e+01,-1.826863250732421875e+02,-2.342245101928710938e+00,7.562051391601562500e+01,3.135697174072265625e+01
1.643220037221908569e-01,1.000000000000000000e+00,-3.495470809936523438e+01,4.723190307617187500e+01,3.006395912170410156e+01,1.080399093627929688e+02,9.435083770751953125e+01,-2.964138746261596680e+00,4.031498432159423828e-01,-6.667009735107421875e+01,-1.826863250732421875e+02,-2.342245101928710938e+00,7.562065887451171875e+01,3.135719108581542969e+01
1.688980013132095337e-01,1.000000000000000000e+00,-3.498714828491210938e+01,4.716808319091796875e+01,3.008343887329101562e+01,1.079759674072265625e+02,9.436864471435546875e+01,-2.984890460968017578e+00,4.031498432159423828e-01,-6.667009735107421875e+01,-1.826863250732421875e+02,-2.342245101928710938e+00,7.562065887451171875e+01,3.135697174072265625e+01
1.725959926843643188e-01,1.000000000000000000e+00,-3.502079391479492188e+01,4.710234451293945312e+01,3.010360908508300781e+01,1.079099655151367188e+02,9.438698577880859375e+01,-3.005439043045043945e+00,4.031498432159423828e-01,-6.667009735107421875e+01,-1.826863250732421875e+02,-2.342316627502441406e+00,7.562065887451171875e+01,3.135675048828125000e+01
1.764550060033798218e-01,1.000000000000000000e+00,-3.505550003051757812e+01,4.703466033935546875e+01,3.012414360046386719e+01,1.078434906005859375e+02,9.440592193603515625e+01,-3.026597976684570312e+00,4.031498432159423828e-01,-6.667009735107421875e+01,-1.826863250732421875e+02,-2.342245101928710938e+00,7.562065887451171875e+01,3.135697174072265625e+01
1.806370019912719727e-01,1.000000000000000000e+00,-3.509100723266601562e+01,4.696530151367187500e+01,3.014465713500976562e+01,1.077757568359375000e+02,9.442569732666015625e+01,-3.048095703125000000e+00,4.031498432159423828e-01,-6.667009735107421875e+01,-1.826863250732421875e+02,-2.342245101928710938e+00,7.562065887451171875e+01,3.135675048828125000e+01
1.852809935808181763e-01,1.000000000000000000e+00,-3.512726593017578125e+01,4.689408111572265625e+01,3.016523361206054688e+01,1.077075424194335938e+02,9.444628143310546875e+01,-3.069661617279052734e+00,4.031498432159423828e-01,-6.667009735107421875e+01,-1.826863250732421875e+02,-2.342316627502441406e+00,7.562065887451171875e+01,3.135697174072265625e+01
1.884520053863525391e-01,1.000000000000000000e+00,-3.516418457031250000e+01,4.682112503051757812e+01,3.018589210510253906e+01,1.076379547119140625e+02,9.446648406982421875e+01,-3.091498613357543945e+00,4.031498432159423828e-01,-6.667009735107421875e+01,-1.826863250732421875e+02,-2.342245101928710938e+00,7.562065887451171875e+01,3.135697174072265625e+01
1.930329948663711548e-01,1.000000000000000000e+00,-3.520201873779296875e+01,4.674678421020507812e+01,3.020679283142089844e+01,1.075691146850585938e+02,9.448573303222656250e+01,-3.113945960998535156e+00,4.031498432159423828e-01,-6.667009735107421875e+01,-1.826863250732421875e+02,-2.342245101928710938e+00,7.562065887451171875e+01,3.135697174072265625e+01
1.965229958295822144e-01,1.000000000000000000e+00,-3.524057388305664062e+01,4.667167663574218750e+01,3.022787666320800781e+01,1.074995269775390625e+02,9.450503540039062500e+01,-3.136596918106079102e+00,4.031498432159423828e-01,-6.667009735107421875e+01,-1.826863250732421875e+02,-2.342245101928710938e+00,7.562065887451171875e+01,3.135719108581542969e+01
2.005160003900527954e-01,1.000000000000000000e+00,-3.527967071533203125e+01,4.659636306762695312e+01,3.024892044067382812e+01,1.074305801391601562e+02,9.452475738525390625e+01,-3.159383296966552734e+00,4.031498432159423828e-01,-6.667009735107421875e+01,-1.826862182617187500e+02,-2.342245101928710938e+00,7.562065887451171875e+01,3.135697174072265625e+01
2.042610049247741699e-01,1.000000000000000000e+00,-3.531911468505859375e+01,4.652032852172851562e+01,3.026984214782714844e+01,1.073612136840820312e+02,9.454496765136718750e+01,-3.181559324264526367e+00,4.031498432159423828e-01,-6.667009735107421875e+01,-1.826864318847656250e+02,-2.342316627502441406e+00,7.562065887451171875e+01,3.135675048828125000e+01
2.073410004377365112e-01,1.000000000000000000e+00,-3.535858535766601562e+01,4.644415283203125000e+01,3.029072189331054688e+01,1.072919464111328125e+02,9.456543731689453125e+01,-3.203464269638061523e+00,4.031498432159423828e-01,-6.667009735107421875e+01,-1.826863250732421875e+02,-2.342173099517822266e+00,7.562065887451171875e+01,3.135697174072265625e+01
2.113029956817626953e-01,1.000000000000000000e+00,-3.539854431152343750e+01,4.636791610717773438e+01,3.031162261962890625e+01,1.072224121093750000e+02,9.458628082275390625e+01,-3.225165605545043945e+00,4.031498432159423828e-01,-6.667009735107421875e+01,-1.826863250732421875e+02,-2.342316627502441406e+00,7.562065887451171875e+01,3.135697174072265625e+01
2.153549939393997192e-01,1.000000000000000000e+00,-3.543830871582031250e+01,4.629149246215820312e+01,3.033264541625976562e+01,1.071533050537109375e+02,9.460702514648437500e+01,-3.247205972671508789e+00,4.031498432159423828e-01,-6.667009735107421875e+01,-1.826863250732421875e+02,-2.342316627502441406e+00,7.562065887451171875e+01,3.135697174072265625e+01
2.193109989166259766e-01,1.000000000000000000e+00,-3.547843933105468750e+01,4.621498107910156250e+01,3.035379219055175781e+01,1.070836715698242188e+02,9.462690734863281250e+01,-3.269721269607543945e+00,4.031498432159423828e-01,-6.667009735107421875e+01,-1.826863250732421875e+02,-2.342245101928710938e+00,7.562065887451171875e+01,3.135719108581542969e+01
2.232850044965744019e-01,1.000000000000000000e+00,-3.551856994628906250e+01,4.613817596435546875e+01,3.037477302551269531e+01,1.070140838623046875e+02,9.464642333984375000e+01,-3.291829586029052734e+00,4.031498432159423828e-01,-6.667009735107421875e+01,-1.826863250732421875e+02,-2.342245101928710938e+00,7.562081146240234375e+01,3.135697174072265625e+01
2.273550033569335938e-01,1.000000000000000000e+00,-3.555844497680664062e+01,4.606164169311523438e+01,3.039573478698730469e+01,1.069441833496093750e+02,9.466577911376953125e+01,-3.314819335937500000e+00,4.031498432159423828e-01,-6.667009735107421875e+01,-1.826863250732421875e+02,-2.342245101928710938e+00,7.562051391601562500e+01,3.135697174072265625e+01
2.314189970493316650e-01,1.000000000000000000e+00,-3.559808731079101562e+01,4.598528671264648438e+01,3.041679954528808594e+01,1.068742904663085938e+02,9.468561553955078125e+01,-3.337809324264526367e+00,4.031498432159423828e-01,-6.667009735107421875e+01,-1.826863250732421875e+02,-2.342245101928710938e+00,7.562081146240234375e+01,3.135675048828125000e+01
2.355539947748184204e-01,1.000000000000000000e+00,-3.563784790039062500e+01,4.590936279296875000e+01,3.043812751770019531e+01,1.068043365478515625e+02,9.470576477050781250e+01,-3.360188961029052734e+00,4.031498432159423828e-01,-6.667009735107421875e+01,-1.826863250732421875e+02,-2.342245101928710938e+00,7.562065887451171875e+01,3.135675048828125000e+01
2.393449991941452026e-01,1.000000000000000000e+00,-3.567780685424804688e+01,4.583346176147460938e+01,3.045955657958984375e+01,1.067345504760742188e+02,9.472698974609375000e+01,-3.382093667984008789e+00,4.031498432159423828e-01,-6.667009735107421875e+01,-1.826863250732421875e+02,-2.342245101928710938e+00,7.562065887451171875e+01,3.135675048828125000e+01
2.433979958295822144e-01,1.000000000000000000e+00,-3.571759414672851562e+01,4.575754165649414062e+01,3.048080253601074219e+01,1.066647491455078125e+02,9.474772644042968750e+01,-3.403930664062500000e+00,4.031498432159423828e-01,-6.667009735107421875e+01,-1.826863250732421875e+02,-2.342245101928710938e+00,7.562065887451171875e+01,3.135697174072265625e+01
2.473690062761306763e-01,1.000000000000000000e+00,-3.575724029541015625e+01,4.568143463134765625e+01,3.050188636779785156e+01,1.065947494506835938e+02,9.476787567138671875e+01,-3.425971269607543945e+00,4.031498432159423828e-01,-6.667009735107421875e+01,-1.826863250732421875e+02,-2.342316627502441406e+00,7.562065887451171875e+01,3.135719108581542969e+01
2.513059973716735840e-01,1.000000000000000000e+00,-3.579673767089843750e+01,4.560499191284179688e+01,3.052295112609863281e+01,1.065247421264648438e+02,9.478733825683593750e+01,-3.448215007781982422e+00,4.031498432159423828e-01,-6.667009735107421875e+01,-1.826863250732421875e+02,-2.342245101928710938e+00,7.562065887451171875e+01,3.135719108581542969e+01
2.552849948406219482e-01,1.000000000000000000e+00,-3.583609771728515625e+01,4.552859497070312500e+01,3.054421615600585938e+01,1.064546432495117188e+02,9.480690765380859375e+01,-3.470662593841552734e+00,4.031498432159423828e-01,-6.667009735107421875e+01,-1.826863250732421875e+02,-2.342173099517822266e+00,7.562065887451171875e+01,3.135719108581542969e+01
2.594119906425476074e-01,1.000000000000000000e+00,-3.587559509277343750e+01,4.545201492309570312e+01,3.056576919555664062e+01,1.063853225708007812e+02,9.482711791992187500e+01,-3.493381261825561523e+00,4.031498432159423828e-01,-6.667009735107421875e+01,-1.826863250732421875e+02,-2.342245101928710938e+00,7.562065887451171875e+01,3.135697174072265625e+01
2.633489966392517090e-01,1.000000000000000000e+00,-3.591484069824218750e+01,4.537514114379882812e+01,3.058717918395996094e+01,1.063153076171875000e+02,9.484758758544921875e+01,-3.516506671905517578e+00,4.031498432159423828e-01,-6.667009735107421875e+01,-1.826863250732421875e+02,-2.342245101928710938e+00,7.562051391601562500e+01,3.135697174072265625e+01
2.672869861125946045e-01,1.000000000000000000e+00,-3.595393753051757812e+01,4.529801559448242188e+01,3.060854721069335938e+01,1.062450942993164062e+02,9.486848449707031250e+01,-3.539157629013061523e+00,4.031498432159423828e-01,-6.667009735107421875e+01,-1.826863250732421875e+02,-2.342173099517822266e+00,7.562065887451171875e+01,3.135697174072265625e+01
2.713789939880371094e-01,1.000000000000000000e+00,-3.599317932128906250e+01,4.522114181518554688e+01,3.062975502014160156e+01,1.061746749877929688e+02,9.488970947265625000e+01,-3.561062335968017578e+00,4.031498432159423828e-01,-6.667009735107421875e+01,-1.826863250732421875e+02,-2.342245101928710938e+00,7.562065887451171875e+01,3.135697174072265625e+01
2.752920091152191162e-01,1.000000000000000000e+00,-3.603242111206054688e+01,4.514445114135742188e+01,3.065089797973632812e+01,1.061051483154296875e+02,9.491028594970703125e+01,-3.582695960998535156e+00,4.031498432159423828e-01,-6.667009735107421875e+01,-1.826863250732421875e+02,-2.342245101928710938e+00,7.562065887451171875e+01,3.135697174072265625e+01
2.793020009994506836e-01,1.000000000000000000e+00,-3.607152175903320312e+01,4.506796264648437500e+01,3.067229080200195312e+01,1.060348739624023438e+02,9.493001556396484375e+01,-3.604668617248535156e+00,4.031498432159423828e-01,-6.667009735107421875e+01,-1.826863250732421875e+02,-2.342173099517822266e+00,7.562065887451171875e+01,3.135697174072265625e+01
2.834079861640930176e-01,1.000000000000000000e+00,-3.611056137084960938e+01,4.499110794067382812e+01,3.069363784790039062e+01,1.059641876220703125e+02,9.494963836669921875e+01,-3.627048254013061523e+00,4.031498432159423828e-01,-6.667009735107421875e+01,-1.826863250732421875e+02,-2.342316627502441406e+00,7.562051391601562500e+01,3.135697174072265625e+01
2.872909903526306152e-01,1.000000000000000000e+00,-3.614966201782226562e+01,4.491423416137695312e+01,3.071490287780761719e+01,1.058933944702148438e+02,9.496962738037109375e+01,-3.649291992187500000e+00,4.031498432159423828e-01,-6.667009735107421875e+01,-1.826863250732421875e+02,-2.342173099517822266e+00,7.562065887451171875e+01,3.135719108581542969e+01
2.913509905338287354e-01,1.000000000000000000e+00,-3.618867111206054688e+01,4.483697891235351562e+01,3.073614883422851562e+01,1.058235473632812500e+02,9.499021148681640625e+01,-3.671739339828491211e+00,4.031498432159423828e-01,-6.667009735107421875e+01,-1.826863250732421875e+02,-2.342316627502441406e+00,7.562065887451171875e+01,3.135719108581542969e+01
2.952859997749328613e-01,1.000000000000000000e+00,-3.622771453857421875e+01,4.475915145874023438e+01,3.075749969482421875e+01,1.057529678344726562e+02,9.501142883300781250e+01,-3.694797277450561523e+00,4.031498432159423828e-01,-6.667009735107421875e+01,-1.826863250732421875e+02,-2.342173099517822266e+00,7.562065887451171875e+01,3.135697174072265625e+01
2.993089854717254639e-01,1.000000000000000000e+00,-3.626684188842773438e+01,4.468125915527343750e+01,3.077902793884277344e+01,1.056830139160156250e+02,9.503265380859375000e+01,-3.717787265777587891e+00,4.031498432159423828e-01,-6.667009735107421875e+01,-1.826863250732421875e+02,-2.342316627502441406e+00,7.562065887451171875e+01,3.135675048828125000e+01
3.033590018749237061e-01,1.000000000000000000e+00,-3.630596923828125000e+01,4.460345840454101562e+01,3.080072402954101562e+01,1.056122741699218750e+02,9.505317687988281250e+01,-3.739827394485473633e+00,4.031498432159423828e-01,-6.667009735107421875e+01,-1.826863250732421875e+02,-2.342245101928710938e+00,7.562065887451171875e+01,3.135697174072265625e+01
3.073590099811553955e-01,1.000000000000000000e+00,-3.634550094604492188e+01,4.452579116821289062e+01,3.082225608825683594e+01,1.055423278808593750e+02,9.507295227050781250e+01,-3.761868000030517578e+00,4.031498432159423828e-01,-6.667009735107421875e+01,-1.826863250732421875e+02,-2.342316627502441406e+00,7.562065887451171875e+01,3.135719108581542969e+01
3.113369941711425781e-01,1.000000000000000000e+00,-3.638497161865234375e+01,4.444832992553710938e+01,3.084358406066894531e+01,1.054720001220703125e+02,9.509294891357421875e+01,-3.783501863479614258e+00,4.031498432159423828e-01,-6.667009735107421875e+01,-1.826863250732421875e+02,-2.342245101928710938e+00,7.562065887451171875e+01,3.135697174072265625e+01
3.154039978981018066e-01,1.000000000000000000e+00,-3.642455673217773438e+01,4.437073135375976562e+01,3.086470985412597656e+01,1.054020004272460938e+02,9.511320495605468750e+01,-3.805881261825561523e+00,4.031498432159423828e-01,-6.667009735107421875e+01,-1.826863250732421875e+02,-2.342173099517822266e+00,7.562065887451171875e+01,3.135719108581542969e+01
3.192960023880004883e-01,1.000000000000000000e+00,-3.646420288085937500e+01,4.429322433471679688e+01,3.088597488403320312e+01,1.053311004638671875e+02,9.513357543945312500e+01,-3.828057289123535156e+00,4.031498432159423828e-01,-6.667009735107421875e+01,-1.826862182617187500e+02,-2.342245101928710938e+00,7.562065887451171875e+01,3.135719108581542969e+01
3.233669996261596680e-01,1.000000000000000000e+00,-3.650410461425781250e+01,4.421556091308593750e+01,3.090754890441894531e+01,1.052608871459960938e+02,9.515479278564453125e+01,-3.850640535354614258e+00,4.031498432159423828e-01,-6.667009735107421875e+01,-1.826863250732421875e+02,-2.342316627502441406e+00,7.562065887451171875e+01,3.135697174072265625e+01
3.273060023784637451e-01,1.000000000000000000e+00,-3.654412078857421875e+01,4.413769149780273438e+01,3.092914009094238281e+01,1.051898269653320312e+02,9.517628479003906250e+01,-3.873426675796508789e+00,4.031498432159423828e-01,-6.667009735107421875e+01,-1.826863250732421875e+02,-2.342245101928710938e+00,7.562065887451171875e+01,3.135697174072265625e+01
3.336040079593658447e-01,1.000000000000000000e+00,-3.658411026000976562e+01,4.405970764160156250e+01,3.095067214965820312e+01,1.051197204589843750e+02,9.519707489013671875e+01,-3.896755695343017578e+00,4.031498432159423828e-01,-6.667009735107421875e+01,-1.826863250732421875e+02,-2.342245101928710938e+00,7.562065887451171875e+01,3.135697174072265625e+01
3.353610038757324219e-01,1.000000000000000000e+00,-3.662421417236328125e+01,4.398172760009765625e+01,3.097218322753906250e+01,1.050482864379882812e+02,9.521701812744140625e+01,-3.919338941574096680e+00,4.031498432159423828e-01,-6.667009735107421875e+01,-1.826863250732421875e+02,-2.342245101928710938e+00,7.562051391601562500e+01,3.135697174072265625e+01
3.418790102005004883e-01,1.000000000000000000e+00,-3.662421417236328125e+01,4.398172760009765625e+01,3.097218322753906250e+01,1.050482864379882812e+02,9.521701812744140625e+01,-3.919338941574096680e+00,4.031498432159423828e-01,-6.667009735107421875e+01,-1.826863250732421875e+02,-2.342245101928710938e+00,7.562065887451171875e+01,3.135719108581542969e+01
3.443459868431091309e-01,1.000000000000000000e+00,-3.670490646362304688e+01,4.382573699951171875e+01,3.101530456542968750e+01,1.049068069458007812e+02,9.525668334960937500e+01,-3.962605953216552734e+00,4.031498432159423828e-01,-6.667009735107421875e+01,-1.826863250732421875e+02,-2.342245101928710938e+00,7.562051391601562500e+01,3.135697174072265625e+01
3.473840057849884033e-01,1.000000000000000000e+00,-3.674501037597656250e+01,4.374811553955078125e+01,3.103693962097167969e+01,1.048365402221679688e+02,9.527742767333984375e+01,-3.984849691390991211e+00,4.031498432159423828e-01,-6.667009735107421875e+01,-1.826863250732421875e+02,-2.342173099517822266e+00,7.562065887451171875e+01,3.135697174072265625e+01
3.523220121860504150e-01,1.000000000000000000e+00,-3.674501037597656250e+01,4.374811553955078125e+01,3.103693962097167969e+01,1.048365402221679688e+02,9.527742767333984375e+01,-3.984849691390991211e+00,4.031498432159423828e-01,-6.667009735107421875e+01,-1.826863250732421875e+02,-2.342316627502441406e+00,7.562065887451171875e+01,3.135697174072265625e+01
3.558920025825500488e-01,1.000000000000000000e+00,-3.682582092285156250e+01,4.359323501586914062e+01,3.107995986938476562e+01,1.046949005126953125e+02,9.531996917724609375e+01,-4.029270172119140625e+00,4.031498432159423828e-01,-6.667009735107421875e+01,-1.826863250732421875e+02,-2.342173099517822266e+00,7.562065887451171875e+01,3.135697174072265625e+01
3.593609929084777832e-01,1.000000000000000000e+00,-3.686638259887695312e+01,4.351573181152343750e+01,3.110157394409179688e+01,1.046242141723632812e+02,9.534097290039062500e+01,-4.052395343780517578e+00,4.031498432159423828e-01,-6.667009735107421875e+01,-1.826863250732421875e+02,-2.342316627502441406e+00,7.562051391601562500e+01,3.135697174072265625e+01
3.659990131855010986e-01,1.000000000000000000e+00,-3.686638259887695312e+01,4.351573181152343750e+01,3.110157394409179688e+01,1.046242141723632812e+02,9.534097290039062500e+01,-4.052395343780517578e+00,4.031498432159423828e-01,-6.667009735107421875e+01,-1.826863250732421875e+02,-2.342316627502441406e+00,7.562051391601562500e+01,3.135697174072265625e+01
3.684490025043487549e-01,1.000000000000000000e+00,-3.694745254516601562e+01,4.336046600341796875e+01,3.114500427246093750e+01,1.044823150634765625e+02,9.538085174560546875e+01,-4.098985671997070312e+00,4.031498432159423828e-01,-6.667009735107421875e+01,-1.826863250732421875e+02,-2.342173099517822266e+00,7.562065887451171875e+01,3.135697174072265625e+01
3.713830113410949707e-01,1.000000000000000000e+00,-3.698798370361328125e+01,4.328237152099609375e+01,3.116661453247070312e+01,1.044116210937500000e+02,9.540100860595703125e+01,-4.120618820190429688e+00,4.031498432159423828e-01,-6.667009735107421875e+01,-1.826863250732421875e+02,-2.342316627502441406e+00,7.562065887451171875e+01,3.135697174072265625e+01
3.754479885101318359e-01,1.000000000000000000e+00,-3.698798370361328125e+01,4.328237152099609375e+01,3.116661453247070312e+01,1.044116210937500000e+02,9.540100860595703125e+01,-4.120618820190429688e+00,4.031498432159423828e-01,-6.667009735107421875e+01,-1.826863250732421875e+02,-2.342316627502441406e+00,7.562065887451171875e+01,3.135697174072265625e+01
3.803899884223937988e-01,1.000000000000000000e+00,-3.702846145629882812e+01,4.320411682128906250e+01,3.118814659118652344e+01,1.043403015136718750e+02,9.542159271240234375e+01,-4.142523765563964844e+00,4.031498432159423828e-01,-6.667009735107421875e+01,-1.826863250732421875e+02,-2.342245101928710938e+00,7.562065887451171875e+01,3.135719108581542969e+01
3.833740055561065674e-01,1.000000000000000000e+00,-3.710941696166992188e+01,4.304729080200195312e+01,3.123163795471191406e+01,1.041975021362304688e+02,9.546440124511718750e+01,-4.187825679779052734e+00,4.031498432159423828e-01,-6.667009735107421875e+01,-1.826863250732421875e+02,-2.342245101928710938e+00,7.562065887451171875e+01,3.135697174072265625e+01
3.873459994792938232e-01,1.000000000000000000e+00,-3.710941696166992188e+01,4.304729080200195312e+01,3.123163795471191406e+01,1.041975021362304688e+02,9.546440124511718750e+01,-4.187825679779052734e+00,4.031498432159423828e-01,-6.667009735107421875e+01,-1.826863250732421875e+02,-2.342245101928710938e+00,7.562065887451171875e+01,3.135697174072265625e+01
3.913320004940032959e-01,1.000000000000000000e+00,-3.715000534057617188e+01,4.296905899047851562e+01,3.125324821472167969e+01,1.041267089843750000e+02,9.548556518554687500e+01,-4.210272789001464844e+00,4.031498432159423828e-01,-6.667009735107421875e+01,-1.826863250732421875e+02,-2.342316627502441406e+00,7.562065887451171875e+01,3.135719108581542969e+01
3.953950107097625732e-01,1.000000000000000000e+00,-3.719042587280273438e+01,4.289141464233398438e+01,3.127506446838378906e+01,1.040552291870117188e+02,9.550561523437500000e+01,-4.232788085937500000e+00,4.031498432159423828e-01,-6.667009735107421875e+01,-1.826863250732421875e+02,-2.342245101928710938e+00,7.562065887451171875e+01,3.135697174072265625e+01
3.993580043315887451e-01,1.000000000000000000e+00,-3.723078918457031250e+01,4.281375122070312500e+01,3.129671859741210938e+01,1.039843826293945312e+02,9.552539062500000000e+01,-4.255981445312500000e+00,4.031498432159423828e-01,-6.667009735107421875e+01,-1.826863250732421875e+02,-2.342245101928710938e+00,7.562051391601562500e+01,3.135697174072265625e+01
4.033559858798980713e-01,1.000000000000000000e+00,-3.727123641967773438e+01,4.273561096191406250e+01,3.131834983825683594e+01,1.039129028320312500e+02,9.554522705078125000e+01,-4.279039382934570312e+00,4.031498432159423828e-01,-6.667009735107421875e+01,-1.826863250732421875e+02,-2.342173099517822266e+00,7.562065887451171875e+01,3.135675048828125000e+01
4.073979854583740234e-01,1.000000000000000000e+00,-3.731182861328125000e+01,4.265719604492187500e+01,3.134018707275390625e+01,1.038419494628906250e+02,9.556601715087890625e+01,-4.301486492156982422e+00,4.031498432159423828e-01,-6.667001342773437500e+01,-1.826863250732421875e+02,-2.342245101928710938e+00,7.562065887451171875e+01,3.135675048828125000e+01
4.113459885120391846e-01,1.000000000000000000e+00,-3.735247421264648438e+01,4.257833099365234375e+01,3.136194419860839844e+01,1.037706298828125000e+02,9.558708190917968750e+01,-4.323730468750000000e+00,4.031498432159423828e-01,-6.667009735107421875e+01,-1.826863250732421875e+02,-2.342245101928710938e+00,7.562051391601562500e+01,3.135675048828125000e+01
4.153530001640319824e-01,1.000000000000000000e+00,-3.739301300048828125e+01,4.249937438964843750e+01,3.138365745544433594e+01,1.036995773315429688e+02,9.560872650146484375e+01,-4.346245765686035156e+00,4.031498432159423828e-01,-6.667009735107421875e+01,-1.826863250732421875e+02,-2.342245101928710938e+00,7.562065887451171875e+01,3.135653114318847656e+01
4.193420112133026123e-01,1.000000000000000000e+00,-3.743351364135742188e+01,4.242021560668945312e+01,3.140545272827148438e+01,1.036277236938476562e+02,9.562989807128906250e+01,-4.368964195251464844e+00,4.031498432159423828e-01,-6.667009735107421875e+01,-1.826863250732421875e+02,-2.342245101928710938e+00,7.562065887451171875e+01,3.135675048828125000e+01
4.233579933643341064e-01,1.000000000000000000e+00,-3.747413253784179688e+01,4.234110260009765625e+01,3.142730903625488281e+01,1.035568313598632812e+02,9.564983367919921875e+01,-4.391479492187500000e+00,4.031498432159423828e-01,-6.667009735107421875e+01,-1.826863250732421875e+02,-2.342245101928710938e+00,7.562065887451171875e+01,3.135697174072265625e+01
4.273349940776824951e-01,1.000000000000000000e+00,-3.751472473144531250e+01,4.226214599609375000e+01,3.144930839538574219e+01,1.034848175048828125e+02,9.566983032226562500e+01,-4.414333820343017578e+00,4.031498432159423828e-01,-6.667009735107421875e+01,-1.826863250732421875e+02,-2.342245101928710938e+00,7.562065887451171875e+01,3.135719108581542969e+01
4.313330054283142090e-01,1.000000000000000000e+00,-3.755537414550781250e+01,4.218341445922851562e+01,3.147112464904785156e+01,1.034133377075195312e+02,9.569014739990234375e+01,-4.437866210937500000e+00,4.031498432159423828e-01,-6.667009735107421875e+01,-1.826863250732421875e+02,-2.342173099517822266e+00,7.562081146240234375e+01,3.135719108581542969e+01
4.353930056095123291e-01,1.000000000000000000e+00,-3.759599304199218750e+01,4.210473251342773438e+01,3.149277687072753906e+01,1.033413391113281250e+02,9.571093750000000000e+01,-4.461399078369140625e+00,4.031498432159423828e-01,-6.667009735107421875e+01,-1.826863250732421875e+02,-2.342245101928710938e+00,7.562065887451171875e+01,3.135719108581542969e+01
4.393720030784606934e-01,1.000000000000000000e+00,-3.763661575317382812e+01,4.202600097656250000e+01,3.151436996459960938e+01,1.032699127197265625e+02,9.573210144042968750e+01,-4.484117507934570312e+00,4.031498432159423828e-01,-6.667009735107421875e+01,-1.826863250732421875e+02,-2.342245101928710938e+00,7.562065887451171875e+01,3.135697174072265625e+01
4.433670043945312500e-01,1.000000000000000000e+00,-3.767703628540039062e+01,4.194715881347656250e+01,3.153606224060058594e+01,1.031982269287109375e+02,9.575379943847656250e+01,-4.506293296813964844e+00,4.031498432159423828e-01,-6.667009735107421875e+01,-1.826863250732421875e+02,-2.342245101928710938e+00,7.562065887451171875e+01,3.135697174072265625e+01
4.474389851093292236e-01,1.000000000000000000e+00,-3.771742630004882812e+01,4.186813354492187500e+01,3.155792045593261719e+01,1.031262664794921875e+02,9.577534484863281250e+01,-4.528537750244140625e+00,4.031498432159423828e-01,-6.667009735107421875e+01,-1.826863250732421875e+02,-2.342245101928710938e+00,7.562051391601562500e+01,3.135675048828125000e+01
4.514020085334777832e-01,1.000000000000000000e+00,-3.775807571411132812e+01,4.178874969482421875e+01,3.157998085021972656e+01,1.030547332763671875e+02,9.579570770263671875e+01,-4.551187992095947266e+00,4.031498432159423828e-01,-6.667009735107421875e+01,-1.826863250732421875e+02,-2.342245101928710938e+00,7.562065887451171875e+01,3.135697174072265625e+01
4.553320109844207764e-01,1.000000000000000000e+00,-3.779863739013671875e+01,4.170911407470703125e+01,3.160187911987304688e+01,1.029828872680664062e+02,9.581580352783203125e+01,-4.573974609375000000e+00,4.031498432159423828e-01,-6.667019653320312500e+01,-1.826863250732421875e+02,-2.342460393905639648e+00,7.562065887451171875e+01,3.135697174072265625e+01
4.593980014324188232e-01,1.000000000000000000e+00,-3.783931350708007812e+01,4.162934494018554688e+01,3.162385749816894531e+01,1.029114685058593750e+02,9.583575439453125000e+01,-4.597371578216552734e+00,4.031498432159423828e-01,-6.667009735107421875e+01,-1.826863250732421875e+02,-2.342245101928710938e+00,7.562065887451171875e+01,3.135697174072265625e+01
4.634059965610504150e-01,1.000000000000000000e+00,-3.787999343872070312e+01,4.154980087280273438e+01,3.164571571350097656e+01,1.028395080566406250e+02,9.585654449462890625e+01,-4.620564937591552734e+00,4.031498432159423828e-01,-6.667009735107421875e+01,-1.826863250732421875e+02,-2.342245101928710938e+00,7.562065887451171875e+01,3.135697174072265625e+01
4.673320055007934570e-01,1.000000000000000000e+00,-3.792058181762695312e+01,4.147072982788085938e+01,3.166775321960449219e+01,1.027672958374023438e+02,9.587765502929687500e+01,-4.644097328186035156e+00,4.031498432159423828e-01,-6.667009735107421875e+01,-1.826863250732421875e+02,-2.342245101928710938e+00,7.562051391601562500e+01,3.135697174072265625e+01
4.713380038738250732e-01,1.000000000000000000e+00,-3.796131896972656250e+01,4.139211654663085938e+01,3.168979263305664062e+01,1.026957702636718750e+02,9.589967346191406250e+01,-4.666883945465087891e+00,4.031498432159423828e-01,-6.667009735107421875e+01,-1.826863250732421875e+02,-2.342245101928710938e+00,7.562065887451171875e+01,3.135697174072265625e+01
4.755879938602447510e-01,1.000000000000000000e+00,-3.800194168090820312e+01,4.131363677978515625e+01,3.171154785156250000e+01,1.026238632202148438e+02,9.592111206054687500e+01,-4.688788890838623047e+00,4.031498432159423828e-01,-6.667009735107421875e+01,-1.826863250732421875e+02,-2.342316627502441406e+00,7.562065887451171875e+01,3.135675048828125000e+01
4.793449938297271729e-01,1.000000000000000000e+00,-3.804258728027343750e+01,4.123476791381835938e+01,3.173320198059082031e+01,1.025518112182617188e+02,9.594158172607421875e+01,-4.711304187774658203e+00,4.031498432159423828e-01,-6.667009735107421875e+01,-1.826863250732421875e+02,-2.342245101928710938e+00,7.562065887451171875e+01,3.135653114318847656e+01
4.834490120410919189e-01,1.000000000000000000e+00,-3.808323669433593750e+01,4.115547180175781250e+01,3.175507926940917969e+01,1.024788513183593750e+02,9.596167755126953125e+01,-4.734090328216552734e+00,4.031498432159423828e-01,-6.667009735107421875e+01,-1.826863250732421875e+02,-2.342245101928710938e+00,7.562065887451171875e+01,3.135653114318847656e+01
4.874100089073181152e-01,1.000000000000000000e+00,-3.812405776977539062e+01,4.107597732543945312e+01,3.177726173400878906e+01,1.024068984985351562e+02,9.598210144042968750e+01,-4.756944656372070312e+00,4.031498432159423828e-01,-6.667009735107421875e+01,-1.826863250732421875e+02,-2.342245101928710938e+00,7.562065887451171875e+01,3.135675048828125000e+01
4.913339912891387939e-01,1.000000000000000000e+00,-3.816482162475585938e+01,4.099622726440429688e+01,3.179948234558105469e+01,1.023345794677734375e+02,9.600294494628906250e+01,-4.779866695404052734e+00,4.031498432159423828e-01,-6.667009735107421875e+01,-1.826863250732421875e+02,-2.342316627502441406e+00,7.562051391601562500e+01,3.135697174072265625e+01
4.953320026397705078e-01,1.000000000000000000e+00,-3.820552825927734375e+01,4.091634368896484375e+01,3.182160568237304688e+01,1.022629928588867188e+02,9.602454376220703125e+01,-4.803331375122070312e+00,4.031498432159423828e-01,-6.667009735107421875e+01,-1.826863250732421875e+02,-2.342245101928710938e+00,7.562065887451171875e+01,3.135697174072265625e+01
5.005549788475036621e-01,1.000000000000000000e+00,-3.824626159667968750e+01,4.083652496337890625e+01,3.184337997436523438e+01,1.021905212402343750e+02,9.604629516601562500e+01,-4.826863765716552734e+00,4.031498432159423828e-01,-6.667009735107421875e+01,-1.826863250732421875e+02,-2.342245101928710938e+00,7.562065887451171875e+01,3.135697174072265625e+01
5.043060183525085449e-01,1.000000000000000000e+00,-3.828702545166015625e+01,4.075714111328125000e+01,3.186513519287109375e+01,1.021184616088867188e+02,9.606799316406250000e+01,-4.849717617034912109e+00,4.031498432159423828e-01,-6.667009735107421875e+01,-1.826863250732421875e+02,-2.342173099517822266e+00,7.562051391601562500e+01,3.135697174072265625e+01
5.077419877052307129e-01,1.000000000000000000e+00,-3.832779312133789062e+01,4.067793655395507812e+01,3.188723373413085938e+01,1.020460815429687500e+02,9.608852386474609375e+01,-4.872029781341552734e+00,4.031498432159423828e-01,-6.667009735107421875e+01,-1.826863250732421875e+02,-2.342173099517822266e+00,7.562051391601562500e+01,3.135697174072265625e+01
5.113469958305358887e-01,1.000000000000000000e+00,-3.836878204345703125e+01,4.059855270385742188e+01,3.190937805175781250e+01,1.019744491577148438e+02,9.610872650146484375e+01,-4.894612789154052734e+00,4.031498432159423828e-01,-6.667009735107421875e+01,-1.826863250732421875e+02,-2.342245101928710938e+00,7.562065887451171875e+01,3.135719108581542969e+01
5.153340101242065430e-01,1.000000000000000000e+00,-3.840969085693359375e+01,4.051921081542968750e+01,3.193153762817382812e+01,1.019018096923828125e+02,9.612893676757812500e+01,-4.917467117309570312e+00,4.031498432159423828e-01,-6.667009735107421875e+01,-1.826863250732421875e+02,-2.342245101928710938e+00,7.562065887451171875e+01,3.135719108581542969e+01
5.194209814071655273e-01,1.000000000000000000e+00,-3.845037078857421875e+01,4.043966674804687500e+01,3.195359992980957031e+01,1.018296432495117188e+02,9.614988708496093750e+01,-4.940660476684570312e+00,4.031498432159423828e-01,-6.667009735107421875e+01,-1.826863250732421875e+02,-2.342245101928710938e+00,7.562051391601562500e+01,3.135719108581542969e+01
5.236930251121520996e-01,1.000000000000000000e+00,-3.849110412597656250e+01,4.035964584350585938e+01,3.197549629211425781e+01,1.017569046020507812e+02,9.617153930664062500e+01,-4.963311195373535156e+00,4.031498432159423828e-01,-6.667009735107421875e+01,-1.826863250732421875e+02,-2.342173099517822266e+00,7.562065887451171875e+01,3.135719108581542969e+01
5.273550152778625488e-01,1.000000000000000000e+00,-3.853215408325195312e+01,4.027935791015625000e+01,3.199765777587890625e+01,1.016846847534179688e+02,9.619297027587890625e+01,-4.986436843872070312e+00,4.031498432159423828e-01,-6.667009735107421875e+01,-1.826863250732421875e+02,-2.342173099517822266e+00,7.562065887451171875e+01,3.135719108581542969e+01
5.318379998207092285e-01,1.000000000000000000e+00,-3.857311630249023438e+01,4.019884109497070312e+01,3.201990127563476562e+01,1.016117324829101562e+02,9.621434783935546875e+01,-5.010647296905517578e+00,4.031498432159423828e-01,-6.667009735107421875e+01,-1.826863250732421875e+02,-2.342316627502441406e+00,7.562065887451171875e+01,3.135719108581542969e+01
5.354760289192199707e-01,1.000000000000000000e+00,-3.861402511596679688e+01,4.011848068237304688e+01,3.204204177856445312e+01,1.015388259887695312e+02,9.623455047607421875e+01,-5.033840656280517578e+00,4.031498432159423828e-01,-6.667009735107421875e+01,-1.826863250732421875e+02,-2.342245101928710938e+00,7.562065887451171875e+01,3.135719108581542969e+01
5.393620133399963379e-01,1.000000000000000000e+00,-3.865478897094726562e+01,4.003818893432617188e+01,3.206410217285156250e+01,1.014664077758789062e+02,9.625508117675781250e+01,-5.055949211120605469e+00,4.031498432159423828e-01,-6.667009735107421875e+01,-1.826863250732421875e+02,-2.342245101928710938e+00,7.562065887451171875e+01,3.135697174072265625e+01
5.434700250625610352e-01,1.000000000000000000e+00,-3.869572830200195312e+01,3.995828247070312500e+01,3.208608245849609375e+01,1.013940277099609375e+02,9.627576446533203125e+01,-5.078260421752929688e+00,4.031498432159423828e-01,-6.667009735107421875e+01,-1.826863250732421875e+02,-2.342316627502441406e+00,7.562065887451171875e+01,3.135719108581542969e+01
5.474799871444702148e-01,1.000000000000000000e+00,-3.873697662353515625e+01,3.987864685058593750e+01,3.210824203491210938e+01,1.013214416503906250e+02,9.629660797119140625e+01,-5.101182937622070312e+00,4.031498432159423828e-01,-6.667009735107421875e+01,-1.826863250732421875e+02,-2.342245101928710938e+00,7.562065887451171875e+01,3.135697174072265625e+01
5.514019727706909180e-01,1.000000000000000000e+00,-3.877822875976562500e+01,3.979883193969726562e+01,3.213066864013671875e+01,1.012486038208007812e+02,9.631831359863281250e+01,-5.123969078063964844e+00,4.031498432159423828e-01,-6.667009735107421875e+01,-1.826863250732421875e+02,-2.342316627502441406e+00,7.562065887451171875e+01,3.135697174072265625e+01
5.559859871864318848e-01,1.000000000000000000e+00,-3.881951141357421875e+01,3.971876907348632812e+01,3.215288925170898438e+01,1.011760177612304688e+02,9.634017181396484375e+01,-5.147230625152587891e+00,4.031498432159423828e-01,-6.667019653320312500e+01,-1.826863250732421875e+02,-2.342245101928710938e+00,7.562065887451171875e+01,3.135697174072265625e+01
5.595480203628540039e-01,1.000000000000000000e+00,-3.886058807373046875e+01,3.963836288452148438e+01,3.217493057250976562e+01,1.011037445068359375e+02,9.636170959472656250e+01,-5.170898437500000000e+00,4.031498432159423828e-01,-6.667001342773437500e+01,-1.826863250732421875e+02,-2.342245101928710938e+00,7.562065887451171875e+01,3.135719108581542969e+01
5.635640025138854980e-01,1.000000000000000000e+00,-3.890198516845703125e+01,3.955793762207031250e+01,3.219701004028320312e+01,1.010305252075195312e+02,9.638191986083984375e+01,-5.194702148437500000e+00,4.031498432159423828e-01,-6.667009735107421875e+01,-1.826863250732421875e+02,-2.342245101928710938e+00,7.562051391601562500e+01,3.135697174072265625e+01
5.676710009574890137e-01,1.000000000000000000e+00,-3.894320678710937500e+01,3.947712326049804688e+01,3.221921157836914062e+01,1.009576263427734375e+02,9.640229034423828125e+01,-5.218302726745605469e+00,4.031498432159423828e-01,-6.667009735107421875e+01,-1.826863250732421875e+02,-2.342245101928710938e+00,7.562065887451171875e+01,3.135697174072265625e+01
5.716239809989929199e-01,1.000000000000000000e+00,-3.898460388183593750e+01,3.939622497558593750e+01,3.224178314208984375e+01,1.008843612670898438e+02,9.642286682128906250e+01,-5.240749835968017578e+00,4.031498432159423828e-01,-6.667009735107421875e+01,-1.826863250732421875e+02,-2.342173099517822266e+00,7.562051391601562500e+01,3.135719108581542969e+01
5.755940079689025879e-01,1.000000000000000000e+00,-3.902608108520507812e+01,3.931575012207031250e+01,3.226420593261718750e+01,1.008117218017578125e+02,9.644377136230468750e+01,-5.263332843780517578e+00,4.031498432159423828e-01,-6.667009735107421875e+01,-1.826863250732421875e+02,-2.342245101928710938e+00,7.562065887451171875e+01,3.135719108581542969e+01
5.801849961280822754e-01,1.000000000000000000e+00,-3.906761932373046875e+01,3.923548126220703125e+01,3.228652954101562500e+01,1.007380752563476562e+02,9.646530151367187500e+01,-5.286594390869140625e+00,4.031498432159423828e-01,-6.667009735107421875e+01,-1.826863250732421875e+02,-2.342316627502441406e+00,7.562065887451171875e+01,3.135697174072265625e+01
5.837749838829040527e-01,1.000000000000000000e+00,-3.910913085937500000e+01,3.915541839599609375e+01,3.230865478515625000e+01,1.006651763916015625e+02,9.648743438720703125e+01,-5.309923171997070312e+00,4.031498432159423828e-01,-6.667009735107421875e+01,-1.826863250732421875e+02,-2.342316627502441406e+00,7.562065887451171875e+01,3.135697174072265625e+01
5.882840156555175781e-01,1.000000000000000000e+00,-3.915067291259765625e+01,3.907512664794921875e+01,3.233083343505859375e+01,1.005915985107421875e+02,9.650871276855468750e+01,-5.333184242248535156e+00,4.031498432159423828e-01,-6.667009735107421875e+01,-1.826863250732421875e+02,-2.342316627502441406e+00,7.562065887451171875e+01,3.135697174072265625e+01
5.915420055389404297e-01,1.000000000000000000e+00,-3.919240951538085938e+01,3.899488067626953125e+01,3.235324096679687500e+01,1.005189590454101562e+02,9.652923583984375000e+01,-5.356852531433105469e+00,4.031498432159423828e-01,-6.667009735107421875e+01,-1.826863250732421875e+02,-2.342316627502441406e+00,7.562065887451171875e+01,3.135697174072265625e+01
5.957909822463989258e-01,1.000000000000000000e+00,-3.923417663574218750e+01,3.891436386108398438e+01,3.237540054321289062e+01,1.004457397460937500e+02,9.654959869384765625e+01,-5.380723953247070312e+00,4.031498432159423828e-01,-6.667009735107421875e+01,-1.826863250732421875e+02,-2.342245101928710938e+00,7.562051391601562500e+01,3.135697174072265625e+01
5.997329950332641602e-01,1.000000000000000000e+00,-3.927583312988281250e+01,3.883348464965820312e+01,3.239768600463867188e+01,1.003727874755859375e+02,9.657039642333984375e+01,-5.403917312622070312e+00,4.031498432159423828e-01,-6.667009735107421875e+01,-1.826863250732421875e+02,-2.342173099517822266e+00,7.562065887451171875e+01,3.135697174072265625e+01
6.044480204582214355e-01,1.000000000000000000e+00,-3.931756973266601562e+01,3.875242614746093750e+01,3.241996765136718750e+01,1.002992553710937500e+02,9.659171295166015625e+01,-5.426703453063964844e+00,4.031498432159423828e-01,-6.667009735107421875e+01,-1.826863250732421875e+02,-2.342316627502441406e+00,7.562065887451171875e+01,3.135697174072265625e+01
6.079109907150268555e-01,1.000000000000000000e+00,-3.935936737060546875e+01,3.867123031616210938e+01,3.244243621826171875e+01,1.002265625000000000e+02,9.661357879638671875e+01,-5.449557781219482422e+00,4.031498432159423828e-01,-6.667009735107421875e+01,-1.826863250732421875e+02,-2.342245101928710938e+00,7.562065887451171875e+01,3.135697174072265625e+01
6.123239994049072266e-01,1.000000000000000000e+00,-3.940105438232421875e+01,3.858998870849609375e+01,3.246486282348632812e+01,1.001528778076171875e+02,9.663559722900390625e+01,-5.472954750061035156e+00,4.031498432159423828e-01,-6.667009735107421875e+01,-1.826863250732421875e+02,-2.342245101928710938e+00,7.562065887451171875e+01,3.135697174072265625e+01
6.160230040550231934e-01,1.000000000000000000e+00,-3.944276046752929688e+01,3.850913238525390625e+01,3.248736953735351562e+01,1.000797653198242188e+02,9.665703582763671875e+01,-5.496555328369140625e+00,4.031498432159423828e-01,-6.667009735107421875e+01,-1.826863250732421875e+02,-2.342245101928710938e+00,7.562065887451171875e+01,3.135697174072265625e+01
6.199600100517272949e-01,1.000000000000000000e+00,-3.948458862304687500e+01,3.842861557006835938e+01,3.250957107543945312e+01,1.000057067871093750e+02,9.667766571044921875e+01,-5.520020008087158203e+00,4.031498432159423828e-01,-6.667009735107421875e+01,-1.826863250732421875e+02,-2.342460393905639648e+00,7.562065887451171875e+01,3.135719108581542969e+01
6.239010095596313477e-01,1.000000000000000000e+00,-3.952641296386718750e+01,3.834820938110351562e+01,3.253179550170898438e+01,9.993232727050781250e+01,9.669802856445312500e+01,-5.543687820434570312e+00,4.031498432159423828e-01,-6.667009735107421875e+01,-1.826863250732421875e+02,-2.342245101928710938e+00,7.562051391601562500e+01,3.135719108581542969e+01
6.286240220069885254e-01,1.000000000000000000e+00,-3.956823730468750000e+01,3.826744461059570312e+01,3.255417633056640625e+01,9.985826873779296875e+01,9.671882629394531250e+01,-5.567965984344482422e+00,4.031498432159423828e-01,-6.667009735107421875e+01,-1.826863250732421875e+02,-2.342316627502441406e+00,7.562065887451171875e+01,3.135697174072265625e+01
6.320829987525939941e-01,1.000000000000000000e+00,-3.960983657836914062e+01,3.818629455566406250e+01,3.257656478881835938e+01,9.978510284423828125e+01,9.674031066894531250e+01,-5.591770172119140625e+00,4.031498432159423828e-01,-6.667009735107421875e+01,-1.826863250732421875e+02,-2.342316627502441406e+00,7.562065887451171875e+01,3.135697174072265625e+01
6.362209916114807129e-01,1.000000000000000000e+00,-3.965160369873046875e+01,3.810512161254882812e+01,3.259901046752929688e+01,9.971125793457031250e+01,9.676222229003906250e+01,-5.614556312561035156e+00,4.031498432159423828e-01,-6.667009735107421875e+01,-1.826863250732421875e+02,-2.342245101928710938e+00,7.562065887451171875e+01,3.135719108581542969e+01
6.399199962615966797e-01,1.000000000000000000e+00,-3.969357299804687500e+01,3.802358627319335938e+01,3.262157821655273438e+01,9.963725280761718750e+01,9.678451538085937500e+01,-5.637071609497070312e+00,4.031498432159423828e-01,-6.667019653320312500e+01,-1.826863250732421875e+02,-2.342245101928710938e+00,7.562065887451171875e+01,3.135675048828125000e+01
6.458359956741333008e-01,1.000000000000000000e+00,-3.973554611206054688e+01,3.794189071655273438e+01,3.264404678344726562e+01,9.956360626220703125e+01,9.680562591552734375e+01,-5.660468578338623047e+00,4.031498432159423828e-01,-6.667001342773437500e+01,-1.826863250732421875e+02,-2.342245101928710938e+00,7.562051391601562500e+01,3.135675048828125000e+01
6.484779715538024902e-01,1.000000000000000000e+00,-3.981919479370117188e+01,3.777902221679687500e+01,3.268907928466796875e+01,9.941664886474609375e+01,9.684699249267578125e+01,-5.707940101623535156e+00,4.031498432159423828e-01,-6.667009735107421875e+01,-1.826863250732421875e+02,-2.342245101928710938e+00,7.562065887451171875e+01,3.135697174072265625e+01
6.527929902076721191e-01,1.000000000000000000e+00,-3.981919479370117188e+01,3.777902221679687500e+01,3.268907928466796875e+01,9.941664886474609375e+01,9.684699249267578125e+01,-5.707940101623535156e+00,4.031498432159423828e-01,-6.667009735107421875e+01,-1.826863250732421875e+02,-2.342245101928710938e+00,7.562065887451171875e+01,3.135697174072265625e+01
6.564059853553771973e-01,1.000000000000000000e+00,-3.986093521118164062e+01,3.769814300537109375e+01,3.271136474609375000e+01,9.934248352050781250e+01,9.686811065673828125e+01,-5.731811523437500000e+00,4.031498432159423828e-01,-6.667009735107421875e+01,-1.826863250732421875e+02,-2.342245101928710938e+00,7.562051391601562500e+01,3.135697174072265625e+01
6.603000164031982422e-01,1.000000000000000000e+00,-3.990287399291992188e+01,3.761685562133789062e+01,3.273385238647460938e+01,9.926842498779296875e+01,9.688975524902343750e+01,-5.755818843841552734e+00,4.031498432159423828e-01,-6.667009735107421875e+01,-1.826863250732421875e+02,-2.342245101928710938e+00,7.562065887451171875e+01,3.135697174072265625e+01
6.644359827041625977e-01,1.000000000000000000e+00,-3.994481658935546875e+01,3.753572845458984375e+01,3.275635910034179688e+01,9.919493865966796875e+01,9.691199493408203125e+01,-5.779486656188964844e+00,4.031498432159423828e-01,-6.667009735107421875e+01,-1.826863250732421875e+02,-2.342245101928710938e+00,7.562065887451171875e+01,3.135697174072265625e+01
6.684190034866333008e-01,1.000000000000000000e+00,-3.998670196533203125e+01,3.745441818237304688e+01,3.277902603149414062e+01,9.912078094482421875e+01,9.693411254882812500e+01,-5.802340984344482422e+00,4.031498432159423828e-01,-6.667009735107421875e+01,-1.826863250732421875e+02,-2.342316627502441406e+00,7.562065887451171875e+01,3.135697174072265625e+01
6.723480224609375000e-01,1.000000000000000000e+00,-4.002835083007812500e+01,3.737258911132812500e+01,3.280169677734375000e+01,9.904619598388671875e+01,9.695544433593750000e+01,-5.825127601623535156e+00,4.031498432159423828e-01,-6.667009735107421875e+01,-1.826863250732421875e+02,-2.342316627502441406e+00,7.562065887451171875e+01,3.135697174072265625e+01
6.769480109214782715e-01,1.000000000000000000e+00,-4.007023620605468750e+01,3.729076004028320312e+01,3.282422637939453125e+01,9.897181701660156250e+01,9.697623443603515625e+01,-5.848456859588623047e+00,4.031498432159423828e-01,-6.667009735107421875e+01,-1.826863250732421875e+02,-2.342245101928710938e+00,7.562065887451171875e+01,3.135697174072265625e+01
6.805040240287780762e-01,1.000000000000000000e+00,-4.011235046386718750e+01,3.720854568481445312e+01,3.284669494628906250e+01,9.889791870117187500e+01,9.699670410156250000e+01,-5.872192382812500000e+00,4.031498432159423828e-01,-6.667009735107421875e+01,-1.826863250732421875e+02,-2.342245101928710938e+00,7.562065887451171875e+01,3.135697174072265625e+01
6.845189929008483887e-01,1.000000000000000000e+00,-4.015423202514648438e+01,3.712659835815429688e+01,3.286920166015625000e+01,9.882401275634765625e+01,9.701771545410156250e+01,-5.895860671997070312e+00,4.031498432159423828e-01,-6.667001342773437500e+01,-1.826863250732421875e+02,-2.342245101928710938e+00,7.562065887451171875e+01,3.135697174072265625e+01
6.884130239486694336e-01,1.000000000000000000e+00,-4.019623184204101562e+01,3.704475021362304688e+01,3.289192962646484375e+01,9.874947357177734375e+01,9.703957366943359375e+01,-5.919867515563964844e+00,4.031498432159423828e-01,-6.667009735107421875e+01,-1.826863250732421875e+02,-2.342316627502441406e+00,7.562081146240234375e+01,3.135697174072265625e+01
6.925349831581115723e-01,1.000000000000000000e+00,-4.023822784423828125e+01,3.696319198608398438e+01,3.291460037231445312e+01,9.867562866210937500e+01,9.706201934814453125e+01,-5.944010734558105469e+00,4.031498432159423828e-01,-6.667009735107421875e+01,-1.826863250732421875e+02,-2.342245101928710938e+00,7.562065887451171875e+01,3.135719108581542969e+01
6.964650154113769531e-01,1.000000000000000000e+00,-4.028037261962890625e+01,3.688203811645507812e+01,3.293724822998046875e+01,9.860140991210937500e+01,9.708393096923828125e+01,-5.967610836029052734e+00,4.031498432159423828e-01,-6.667009735107421875e+01,-1.826863250732421875e+02,-2.342173099517822266e+00,7.562065887451171875e+01,3.135697174072265625e+01
7.010120153427124023e-01,1.000000000000000000e+00,-4.032242584228515625e+01,3.680066299438476562e+01,3.295971679687500000e+01,9.852761840820312500e+01,9.710483551025390625e+01,-5.990532875061035156e+00,4.031498432159423828e-01,-6.667009735107421875e+01,-1.826863250732421875e+02,-2.342316627502441406e+00,7.562065887451171875e+01,3.135697174072265625e+01
7.032790184020996094e-01,1.000000000000000000e+00,-4.036450958251953125e+01,3.671889877319335938e+01,3.298230361938476562e+01,9.845307922363281250e+01,9.712562561035156250e+01,-6.013590812683105469e+00,4.031498432159423828e-01,-6.667019653320312500e+01,-1.826863250732421875e+02,-2.342245101928710938e+00,7.562065887451171875e+01,3.135719108581542969e+01
7.072719931602478027e-01,1.000000000000000000e+00,-4.040685272216796875e+01,3.663679885864257812e+01,3.300513839721679688e+01,9.837870788574218750e+01,9.714685058593750000e+01,-6.037258625030517578e+00,4.031498432159423828e-01,-6.667009735107421875e+01,-1.826863250732421875e+02,-2.342316627502441406e+00,7.562065887451171875e+01,3.135675048828125000e+01
7.126359939575195312e-01,1.000000000000000000e+00,-4.044919204711914062e+01,3.655449295043945312e+01,3.302796936035156250e+01,9.830374908447265625e+01,9.716812133789062500e+01,-6.061062335968017578e+00,4.031498432159423828e-01,-6.667009735107421875e+01,-1.826863250732421875e+02,-2.342245101928710938e+00,7.562065887451171875e+01,3.135697174072265625e+01
7.152870297431945801e-01,1.000000000000000000e+00,-4.049119186401367188e+01,3.647191619873046875e+01,3.305046081542968750e+01,9.822985076904296875e+01,9.718997955322265625e+01,-6.085137367248535156e+00,4.031498432159423828e-01,-6.667009735107421875e+01,-1.826863250732421875e+02,-2.342316627502441406e+00,7.562065887451171875e+01,3.135697174072265625e+01
7.192760109901428223e-01,1.000000000000000000e+00,-4.053350448608398438e+01,3.638943099975585938e+01,3.307306671142578125e+01,9.815489196777343750e+01,9.721253204345703125e+01,-6.108873367309570312e+00,4.031498432159423828e-01,-6.667009735107421875e+01,-1.826863250732421875e+02,-2.342316627502441406e+00,7.562065887451171875e+01,3.135697174072265625e+01
7.234159708023071289e-01,1.000000000000000000e+00,-4.057576370239257812e+01,3.630735397338867188e+01,3.309575653076171875e+01,9.807999420166015625e+01,9.723455047607421875e+01,-6.133083820343017578e+00,4.031498432159423828e-01,-6.667009735107421875e+01,-1.826863250732421875e+02,-2.342245101928710938e+00,7.562065887451171875e+01,3.135697174072265625e+01
7.273179888725280762e-01,1.000000000000000000e+00,-4.061836242675781250e+01,3.622554397583007812e+01,3.311865234375000000e+01,9.800535583496093750e+01,9.725572204589843750e+01,-6.156887531280517578e+00,4.031498432159423828e-01,-6.667009735107421875e+01,-1.826863250732421875e+02,-2.342245101928710938e+00,7.562065887451171875e+01,3.135697174072265625e+01
7.313290238380432129e-01,1.000000000000000000e+00,-4.066076660156250000e+01,3.614351272583007812e+01,3.314154434204101562e+01,9.793108367919921875e+01,9.727629852294921875e+01,-6.179335117340087891e+00,4.031498432159423828e-01,-6.667009735107421875e+01,-1.826864318847656250e+02,-2.342245101928710938e+00,7.562065887451171875e+01,3.135697174072265625e+01
7.353370189666748047e-01,1.000000000000000000e+00,-4.070316314697265625e+01,3.606161499023437500e+01,3.316417694091796875e+01,9.785655212402343750e+01,9.729698944091796875e+01,-6.202799797058105469e+00,4.031498432159423828e-01,-6.667009735107421875e+01,-1.826863250732421875e+02,-2.342316627502441406e+00,7.562065887451171875e+01,3.135675048828125000e+01
7.392770051956176758e-01,1.000000000000000000e+00,-4.074565124511718750e+01,3.597960281372070312e+01,3.318663787841796875e+01,9.778179931640625000e+01,9.731884765625000000e+01,-6.226332187652587891e+00,4.031498432159423828e-01,-6.667009735107421875e+01,-1.826863250732421875e+02,-2.342245101928710938e+00,7.562065887451171875e+01,3.135697174072265625e+01
7.432730197906494141e-01,1.000000000000000000e+00,-4.078816604614257812e+01,3.589698028564453125e+01,3.320925140380859375e+01,9.770706176757812500e+01,9.734086608886718750e+01,-6.249796390533447266e+00,4.031498432159423828e-01,-6.667009735107421875e+01,-1.826863250732421875e+02,-2.342245101928710938e+00,7.562065887451171875e+01,3.135697174072265625e+01
7.473369836807250977e-01,1.000000000000000000e+00,-4.083056259155273438e+01,3.581427001953125000e+01,3.323224639892578125e+01,9.763253021240234375e+01,9.736347198486328125e+01,-6.274075031280517578e+00,4.031498432159423828e-01,-6.667009735107421875e+01,-1.826863250732421875e+02,-2.342245101928710938e+00,7.562065887451171875e+01,3.135697174072265625e+01
7.513039708137512207e-01,1.000000000000000000e+00,-4.087299346923828125e+01,3.573110198974609375e+01,3.325516128540039062e+01,9.755746459960937500e+01,9.738527679443359375e+01,-6.298624515533447266e+00,4.031498432159423828e-01,-6.667009735107421875e+01,-1.826863250732421875e+02,-2.342316627502441406e+00,7.562065887451171875e+01,3.135697174072265625e+01
7.552750110626220703e-01,1.000000000000000000e+00,-4.091567993164062500e+01,3.564823150634765625e+01,3.327801132202148438e+01,9.748266601562500000e+01,9.740628814697265625e+01,-6.322835445404052734e+00,4.031498432159423828e-01,-6.667009735107421875e+01,-1.826863250732421875e+02,-2.342245101928710938e+00,7.562065887451171875e+01,3.135697174072265625e+01
7.593349814414978027e-01,1.000000000000000000e+00,-4.095828247070312500e+01,3.556538772583007812e+01,3.330080413818359375e+01,9.740740203857421875e+01,9.742702484130859375e+01,-6.346571445465087891e+00,4.031498432159423828e-01,-6.667009735107421875e+01,-1.826863250732421875e+02,-2.342316627502441406e+00,7.562065887451171875e+01,3.135697174072265625e+01
7.632870078086853027e-01,1.000000000000000000e+00,-4.100059509277343750e+01,3.548303604125976562e+01,3.332353210449218750e+01,9.733238983154296875e+01,9.744845581054687500e+01,-6.369697093963623047e+00,4.031498432159423828e-01,-6.667009735107421875e+01,-1.826863250732421875e+02,-2.342245101928710938e+00,7.562065887451171875e+01,3.135697174072265625e+01
7.672770023345947266e-01,1.000000000000000000e+00,-4.104325103759765625e+01,3.540084457397460938e+01,3.334651184082031250e+01,9.725701141357421875e+01,9.747037506103515625e+01,-6.393161296844482422e+00,4.031498432159423828e-01,-6.667009735107421875e+01,-1.826863250732421875e+02,-2.342245101928710938e+00,7.562065887451171875e+01,3.135697174072265625e+01
7.713469862937927246e-01,1.000000000000000000e+00,-4.108573913574218750e+01,3.531860733032226562e+01,3.336926269531250000e+01,9.718199920654296875e+01,9.749281311035156250e+01,-6.417100906372070312e+00,4.031498432159423828e-01,-6.667009735107421875e+01,-1.826863250732421875e+02,-2.342316627502441406e+00,7.562065887451171875e+01,3.135697174072265625e+01
7.753390073776245117e-01,1.000000000000000000e+00,-4.112842941284179688e+01,3.523573684692382812e+01,3.339203262329101562e+01,9.710662841796875000e+01,9.751542663574218750e+01,-6.441514968872070312e+00,4.031498432159423828e-01,-6.667009735107421875e+01,-1.826863250732421875e+02,-2.342245101928710938e+00,7.562065887451171875e+01,3.135697174072265625e+01
7.792710065841674805e-01,1.000000000000000000e+00,-4.117091369628906250e+01,3.515270614624023438e+01,3.341482162475585938e+01,9.703162384033203125e+01,9.753722381591796875e+01,-6.465793609619140625e+00,4.031498432159423828e-01,-6.667009735107421875e+01,-1.826863250732421875e+02,-2.342245101928710938e+00,7.562065887451171875e+01,3.135697174072265625e+01
7.834179997444152832e-01,1.000000000000000000e+00,-4.121351623535156250e+01,3.506956481933593750e+01,3.343777847290039062e+01,9.695677185058593750e+01,9.755823516845703125e+01,-6.490071773529052734e+00,4.031498432159423828e-01,-6.667009735107421875e+01,-1.826863250732421875e+02,-2.342316627502441406e+00,7.562065887451171875e+01,3.135697174072265625e+01
7.873209714889526367e-01,1.000000000000000000e+00,-4.125588607788085938e+01,3.498608398437500000e+01,3.346097946166992188e+01,9.688128662109375000e+01,9.757897186279296875e+01,-6.514214515686035156e+00,4.031498432159423828e-01,-6.667009735107421875e+01,-1.826863250732421875e+02,-2.342245101928710938e+00,7.562065887451171875e+01,3.135719108581542969e+01
7.913320064544677734e-01,1.000000000000000000e+00,-4.129819869995117188e+01,3.490260314941406250e+01,3.348405456542968750e+01,9.680643463134765625e+01,9.760046386718750000e+01,-6.537543296813964844e+00,4.031498432159423828e-01,-6.667009735107421875e+01,-1.826863250732421875e+02,-2.342245101928710938e+00,7.562065887451171875e+01,3.135719108581542969e+01
7.953550219535827637e-01,1.000000000000000000e+00,-4.134062957763671875e+01,3.481954956054687500e+01,3.350694656372070312e+01,9.673085784912109375e+01,9.762253570556640625e+01,-6.561279773712158203e+00,4.031498432159423828e-01,-6.667009735107421875e+01,-1.826863250732421875e+02,-2.342245101928710938e+00,7.562065887451171875e+01,3.135740852355957031e+01
7.992740273475646973e-01,1.000000000000000000e+00,-4.138325500488281250e+01,3.473686218261718750e+01,3.352970123291015625e+01,9.665557861328125000e+01,9.764535522460937500e+01,-6.585286617279052734e+00,4.031498432159423828e-01,-6.667009735107421875e+01,-1.826863250732421875e+02,-2.342245101928710938e+00,7.562051391601562500e+01,3.135697174072265625e+01
8.032730221748352051e-01,1.000000000000000000e+00,-4.142568588256835938e+01,3.465410232543945312e+01,3.355249023437500000e+01,9.657984161376953125e+01,9.766790771484375000e+01,-6.609090328216552734e+00,4.031498432159423828e-01,-6.667009735107421875e+01,-1.826863250732421875e+02,-2.342245101928710938e+00,7.562051391601562500e+01,3.135697174072265625e+01
8.072779774665832520e-01,1.000000000000000000e+00,-4.146823120117187500e+01,3.457131958007812500e+01,3.357560729980468750e+01,9.650446319580078125e+01,9.768965911865234375e+01,-6.633979320526123047e+00,4.031498432159423828e-01,-6.667009735107421875e+01,-1.826863250732421875e+02,-2.342245101928710938e+00,7.562051391601562500e+01,3.135697174072265625e+01
8.112800121307373047e-01,1.000000000000000000e+00,-4.151062774658203125e+01,3.448836135864257812e+01,3.359870529174804688e+01,9.642834472656250000e+01,9.771055603027343750e+01,-6.658325672149658203e+00,4.031498432159423828e-01,-6.667009735107421875e+01,-1.826863250732421875e+02,-2.342245101928710938e+00,7.562065887451171875e+01,3.135697174072265625e+01
8.152710199356079102e-01,1.000000000000000000e+00,-4.155317306518554688e+01,3.440489959716796875e+01,3.362173843383789062e+01,9.635281372070312500e+01,9.773183441162109375e+01,-6.683349609375000000e+00,4.031498432159423828e-01,-6.667009735107421875e+01,-1.826863250732421875e+02,-2.342245101928710938e+00,7.562065887451171875e+01,3.135697174072265625e+01
8.193420171737670898e-01,1.000000000000000000e+00,-4.159565734863281250e+01,3.432142257690429688e+01,3.364465332031250000e+01,9.627717590332031250e+01,9.775358581542968750e+01,-6.707492351531982422e+00,4.031498432159423828e-01,-6.667009735107421875e+01,-1.826863250732421875e+02,-2.342245101928710938e+00,7.562081146240234375e+01,3.135697174072265625e+01
8.232929706573486328e-01,1.000000000000000000e+00,-4.163817214965820312e+01,3.423755264282226562e+01,3.366764831542968750e+01,9.620137023925781250e+01,9.777597808837890625e+01,-6.730889320373535156e+00,4.031498432159423828e-01,-6.667009735107421875e+01,-1.826863250732421875e+02,-2.342245101928710938e+00,7.562065887451171875e+01,3.135675048828125000e+01
8.272759914398193359e-01,1.000000000000000000e+00,-4.168066024780273438e+01,3.415382003784179688e+01,3.369088745117187500e+01,9.612557983398437500e+01,9.779869079589843750e+01,-6.754150390625000000e+00,4.031498432159423828e-01,-6.667001342773437500e+01,-1.826863250732421875e+02,-2.342245101928710938e+00,7.562065887451171875e+01,3.135697174072265625e+01
8.313490152359008789e-01,1.000000000000000000e+00,-4.172340393066406250e+01,3.407029724121093750e+01,3.371394729614257812e+01,9.604998779296875000e+01,9.782118988037109375e+01,-6.778293609619140625e+00,4.031498432159423828e-01,-6.667009735107421875e+01,-1.826863250732421875e+02,-2.342316627502441406e+00,7.562081146240234375e+01,3.135697174072265625e+01
8.362749814987182617e-01,1.000000000000000000e+00,-4.176594924926757812e+01,3.398715209960937500e+01,3.373700332641601562e+01,9.597429656982421875e+01,9.784241485595703125e+01,-6.802774906158447266e+00,4.031498432159423828e-01,-6.667009735107421875e+01,-1.826863250732421875e+02,-2.342245101928710938e+00,7.562065887451171875e+01,3.135697174072265625e+01
8.392770290374755859e-01,1.000000000000000000e+00,-4.180892181396484375e+01,3.390437316894531250e+01,3.375999832153320312e+01,9.589839172363281250e+01,9.786320495605468750e+01,-6.827596187591552734e+00,4.031498432159423828e-01,-6.667009735107421875e+01,-1.826863250732421875e+02,-2.342245101928710938e+00,7.562051391601562500e+01,3.135697174072265625e+01
8.442980051040649414e-01,1.000000000000000000e+00,-4.180892181396484375e+01,3.390437316894531250e+01,3.375999832153320312e+01,9.589839172363281250e+01,9.786320495605468750e+01,-6.827596187591552734e+00,4.031498432159423828e-01,-6.667009735107421875e+01,-1.826863250732421875e+02,-2.342245101928710938e+00,7.562065887451171875e+01,3.135719108581542969e+01
8.475999832153320312e-01,1.000000000000000000e+00,-4.189461135864257812e+01,3.373770141601562500e+01,3.380623245239257812e+01,9.574658203125000000e+01,9.790654754638671875e+01,-6.876627922058105469e+00,4.031498432159423828e-01,-6.667009735107421875e+01,-1.826863250732421875e+02,-2.342173099517822266e+00,7.562065887451171875e+01,3.135719108581542969e+01
8.524109721183776855e-01,1.000000000000000000e+00,-4.193769836425781250e+01,3.365401840209960938e+01,3.382933044433593750e+01,9.567047119140625000e+01,9.792910003662109375e+01,-6.900702953338623047e+00,4.031498432159423828e-01,-6.667009735107421875e+01,-1.826863250732421875e+02,-2.342245101928710938e+00,7.562065887451171875e+01,3.135719108581542969e+01
8.553659915924072266e-01,1.000000000000000000e+00,-4.198076248168945312e+01,3.357003784179687500e+01,3.385232543945312500e+01,9.559393310546875000e+01,9.795191955566406250e+01,-6.924234867095947266e+00,4.031498432159423828e-01,-6.667009735107421875e+01,-1.826863250732421875e+02,-2.342245101928710938e+00,7.562065887451171875e+01,3.135697174072265625e+01
8.632749915122985840e-01,1.000000000000000000e+00,-4.198076248168945312e+01,3.357003784179687500e+01,3.385232543945312500e+01,9.559393310546875000e+01,9.795191955566406250e+01,-6.924234867095947266e+00,4.031498432159423828e-01,-6.667009735107421875e+01,-1.826863250732421875e+02,-2.342245101928710938e+00,7.562065887451171875e+01,3.135697174072265625e+01
8.657050132751464844e-01,1.000000000000000000e+00,-4.206728363037109375e+01,3.340142059326171875e+01,3.389857864379882812e+01,9.544139099121093750e+01,9.799494171142578125e+01,-6.971910476684570312e+00,4.031498432159423828e-01,-6.667009735107421875e+01,-1.826863250732421875e+02,-2.342245101928710938e+00,7.562051391601562500e+01,3.135697174072265625e+01
8.672720193862915039e-01,1.000000000000000000e+00,-4.211060333251953125e+01,3.331764602661132812e+01,3.392173385620117188e+01,9.536548614501953125e+01,9.801622009277343750e+01,-6.996527671813964844e+00,4.031498432159423828e-01,-6.667009735107421875e+01,-1.826863250732421875e+02,-2.342316627502441406e+00,7.562065887451171875e+01,3.135697174072265625e+01
8.713840246200561523e-01,1.000000000000000000e+00,-4.211060333251953125e+01,3.331764602661132812e+01,3.392173385620117188e+01,9.536548614501953125e+01,9.801622009277343750e+01,-6.996527671813964844e+00,4.031498432159423828e-01,-6.667009735107421875e+01,-1.826863250732421875e+02,-2.342316627502441406e+00,7.562065887451171875e+01,3.135697174072265625e+01
8.762949705123901367e-01,1.000000000000000000e+00,-4.215391921997070312e+01,3.323425674438476562e+01,3.394499588012695312e+01,9.528922271728515625e+01,9.803803253173828125e+01,-7.021009922027587891e+00,4.031498432159423828e-01,-6.667009735107421875e+01,-1.826863250732421875e+02,-2.342245101928710938e+00,7.562065887451171875e+01,3.135675048828125000e+01
8.792690038681030273e-01,1.000000000000000000e+00,-4.224081802368164062e+01,3.306674957275390625e+01,3.399135208129882812e+01,9.513667297363281250e+01,9.808355712890625000e+01,-7.070177078247070312e+00,4.031498432159423828e-01,-6.667009735107421875e+01,-1.826863250732421875e+02,-2.342460393905639648e+00,7.562065887451171875e+01,3.135697174072265625e+01
8.834170103073120117e-01,1.000000000000000000e+00,-4.224081802368164062e+01,3.306674957275390625e+01,3.399135208129882812e+01,9.513667297363281250e+01,9.808355712890625000e+01,-7.070177078247070312e+00,4.031498432159423828e-01,-6.667009735107421875e+01,-1.826863250732421875e+02,-2.342460393905639648e+00,7.562065887451171875e+01,3.135697174072265625e+01
8.873289823532104492e-01,1.000000000000000000e+00,-4.228430938720703125e+01,3.298283767700195312e+01,3.401459121704101562e+01,9.506098175048828125e+01,9.810632324218750000e+01,-7.093913078308105469e+00,4.031498432159423828e-01,-6.667009735107421875e+01,-1.826863250732421875e+02,-2.342316627502441406e+00,7.562065887451171875e+01,3.135697174072265625e+01
8.913149833679199219e-01,1.000000000000000000e+00,-4.232794189453125000e+01,3.289831161499023438e+01,3.403766632080078125e+01,9.498402404785156250e+01,9.812786865234375000e+01,-7.117445468902587891e+00,4.031498432159423828e-01,-6.667009735107421875e+01,-1.826863250732421875e+02,-2.342245101928710938e+00,7.562065887451171875e+01,3.135697174072265625e+01
8.953830003738403320e-01,1.000000000000000000e+00,-4.237128829956054688e+01,3.281336212158203125e+01,3.406097030639648438e+01,9.490795898437500000e+01,9.814919281005859375e+01,-7.141520500183105469e+00,4.031498432159423828e-01,-6.667009735107421875e+01,-1.826863250732421875e+02,-2.342245101928710938e+00,7.562065887451171875e+01,3.135697174072265625e+01
8.993369936943054199e-01,1.000000000000000000e+00,-4.241498184204101562e+01,3.272840881347656250e+01,3.408427047729492188e+01,9.483084869384765625e+01,9.817030334472656250e+01,-7.166069984436035156e+00,4.031498432159423828e-01,-6.667009735107421875e+01,-1.826863250732421875e+02,-2.342245101928710938e+00,7.562065887451171875e+01,3.135697174072265625e+01
9.033309817314147949e-01,1.000000000000000000e+00,-4.245861434936523438e+01,3.264354705810546875e+01,3.410771179199218750e+01,9.475489807128906250e+01,9.819248199462890625e+01,-7.190754890441894531e+00,4.031498432159423828e-01,-6.667009735107421875e+01,-1.826863250732421875e+02,-2.342316627502441406e+00,7.562065887451171875e+01,3.135719108581542969e+01
9.073939919471740723e-01,1.000000000000000000e+00,-4.250236511230468750e+01,3.255913543701171875e+01,3.413121414184570312e+01,9.467730712890625000e+01,9.821530151367187500e+01,-7.215711593627929688e+00,4.031498432159423828e-01,-6.667009735107421875e+01,-1.826863250732421875e+02,-2.342316627502441406e+00,7.562051391601562500e+01,3.135697174072265625e+01
9.113289713859558105e-01,1.000000000000000000e+00,-4.254562377929687500e+01,3.247515487670898438e+01,3.415439224243164062e+01,9.460097503662109375e+01,9.823849487304687500e+01,-7.240262031555175781e+00,4.031498432159423828e-01,-6.667009735107421875e+01,-1.826863250732421875e+02,-2.342245101928710938e+00,7.562065887451171875e+01,3.135697174072265625e+01
9.153180122375488281e-01,1.000000000000000000e+00,-4.258940124511718750e+01,3.239117813110351562e+01,3.417753219604492188e+01,9.452423095703125000e+01,9.826057434082031250e+01,-7.264539718627929688e+00,4.031498432159423828e-01,-6.667009735107421875e+01,-1.826863250732421875e+02,-2.342245101928710938e+00,7.562065887451171875e+01,3.135697174072265625e+01
9.194030165672302246e-01,1.000000000000000000e+00,-4.263289260864257812e+01,3.230692672729492188e+01,3.420072937011718750e+01,9.444779968261718750e+01,9.828210449218750000e+01,-7.287868976593017578e+00,4.031498432159423828e-01,-6.667009735107421875e+01,-1.826863250732421875e+02,-2.342245101928710938e+00,7.562065887451171875e+01,3.135697174072265625e+01
9.233310222625732422e-01,1.000000000000000000e+00,-4.267655563354492188e+01,3.222229385375976562e+01,3.422415161132812500e+01,9.437116241455078125e+01,9.830338287353515625e+01,-7.311808109283447266e+00,4.031498432159423828e-01,-6.667009735107421875e+01,-1.826863250732421875e+02,-2.342245101928710938e+00,7.562065887451171875e+01,3.135697174072265625e+01
9.273160099983215332e-01,1.000000000000000000e+00,-4.272004699707031250e+01,3.213751983642578125e+01,3.424757385253906250e+01,9.429467773437500000e+01,9.832550811767578125e+01,-7.336289882659912109e+00,4.031498432159423828e-01,-6.667009735107421875e+01,-1.826863250732421875e+02,-2.342245101928710938e+00,7.562065887451171875e+01,3.135697174072265625e+01
9.313459992408752441e-01,1.000000000000000000e+00,-4.276365280151367188e+01,3.205227279663085938e+01,3.427103805541992188e+01,9.421777343750000000e+01,9.834784698486328125e+01,-7.360772132873535156e+00,4.031498432159423828e-01,-6.667009735107421875e+01,-1.826863250732421875e+02,-2.342245101928710938e+00,7.562065887451171875e+01,3.135697174072265625e+01
9.354140162467956543e-01,1.000000000000000000e+00,-4.280705642700195312e+01,3.196697998046875000e+01,3.429446029663085938e+01,9.414081573486328125e+01,9.837130737304687500e+01,-7.385525703430175781e+00,4.031498432159423828e-01,-6.667009735107421875e+01,-1.826863250732421875e+02,-2.342460393905639648e+00,7.562065887451171875e+01,3.135697174072265625e+01
9.393820166587829590e-01,1.000000000000000000e+00,-4.285063171386718750e+01,3.188200569152832031e+01,3.431788253784179688e+01,9.406396484375000000e+01,9.839434051513671875e+01,-7.410549640655517578e+00,4.031498432159423828e-01,-6.667009735107421875e+01,-1.826863250732421875e+02,-2.342245101928710938e+00,7.562065887451171875e+01,3.135697174072265625e+01
9.434279799461364746e-01,1.000000000000000000e+00,-4.289406967163085938e+01,3.179741287231445312e+01,3.434144592285156250e+01,9.398658752441406250e+01,9.841646575927734375e+01,-7.435438632965087891e+00,4.031498432159423828e-01,-6.667009735107421875e+01,-1.826863250732421875e+02,-2.342316627502441406e+00,7.562065887451171875e+01,3.135697174072265625e+01
9.473729729652404785e-01,1.000000000000000000e+00,-4.293767547607421875e+01,3.171302604675292969e+01,3.436497116088867188e+01,9.390962982177734375e+01,9.843768310546875000e+01,-7.459580898284912109e+00,4.031498432159423828e-01,-6.667009735107421875e+01,-1.826863250732421875e+02,-2.342245101928710938e+00,7.562065887451171875e+01,3.135697174072265625e+01
9.513120055198669434e-01,1.000000000000000000e+00,-4.298128128051757812e+01,3.162873077392578125e+01,3.438814926147460938e+01,9.383219909667968750e+01,9.845938110351562500e+01,-7.483520984649658203e+00,4.031498432159423828e-01,-6.667009735107421875e+01,-1.826863250732421875e+02,-2.342245101928710938e+00,7.562065887451171875e+01,3.135719108581542969e+01
9.553639888763427734e-01,1.000000000000000000e+00,-4.302476882934570312e+01,3.154427719116210938e+01,3.441138839721679688e+01,9.375540161132812500e+01,9.848172760009765625e+01,-7.507392406463623047e+00,4.031498432159423828e-01,-6.667009735107421875e+01,-1.826863250732421875e+02,-2.342316627502441406e+00,7.562065887451171875e+01,3.135719108581542969e+01
9.598659873008728027e-01,1.000000000000000000e+00,-4.306831741333007812e+01,3.145934677124023438e+01,3.443490982055664062e+01,9.367765808105468750e+01,9.850508117675781250e+01,-7.532010078430175781e+00,4.031498432159423828e-01,-6.667009735107421875e+01,-1.826863250732421875e+02,-2.342173099517822266e+00,7.562065887451171875e+01,3.135719108581542969e+01
9.643650054931640625e-01,1.000000000000000000e+00,-4.311189651489257812e+01,3.137409782409667969e+01,3.445867919921875000e+01,9.360069274902343750e+01,9.852837371826171875e+01,-7.556898117065429688e+00,4.031498432159423828e-01,-6.667009735107421875e+01,-1.826863250732421875e+02,-2.342316627502441406e+00,7.562065887451171875e+01,3.135719108581542969e+01
9.672719836235046387e-01,1.000000000000000000e+00,-4.319922256469726562e+01,3.120276641845703125e+01,3.450578689575195312e+01,9.344652557373046875e+01,9.857268524169921875e+01,-7.607014656066894531e+00,4.031498432159423828e-01,-6.667009735107421875e+01,-1.826863250732421875e+02,-2.342316627502441406e+00,7.562065887451171875e+01,3.135719108581542969e+01
9.713910222053527832e-01,1.000000000000000000e+00,-4.319922256469726562e+01,3.120276641845703125e+01,3.450578689575195312e+01,9.344652557373046875e+01,9.857268524169921875e+01,-7.607014656066894531e+00,4.031498432159423828e-01,-6.667009735107421875e+01,-1.826863250732421875e+02,-2.342316627502441406e+00,7.562065887451171875e+01,3.135719108581542969e+01
9.753339886665344238e-01,1.000000000000000000e+00,-4.324285888671875000e+01,3.111726951599121094e+01,3.452904891967773438e+01,9.336919403076171875e+01,9.859438323974609375e+01,-7.631496906280517578e+00,4.031498432159423828e-01,-6.667009735107421875e+01,-1.826863250732421875e+02,-2.342173099517822266e+00,7.562065887451171875e+01,3.135697174072265625e+01
9.793509840965270996e-01,1.000000000000000000e+00,-4.328672027587890625e+01,3.103220748901367188e+01,3.455257034301757812e+01,9.329187011718750000e+01,9.861677551269531250e+01,-7.655639648437500000e+00,4.031498432159423828e-01,-6.667009735107421875e+01,-1.826863250732421875e+02,-2.342245101928710938e+00,7.562051391601562500e+01,3.135697174072265625e+01
9.841910004615783691e-01,1.000000000000000000e+00,-4.333052444458007812e+01,3.094761466979980469e+01,3.457611465454101562e+01,9.321443939208984375e+01,9.863959503173828125e+01,-7.679850101470947266e+00,4.031498432159423828e-01,-6.667009735107421875e+01,-1.826863250732421875e+02,-2.342316627502441406e+00,7.562065887451171875e+01,3.135697174072265625e+01
9.883379936218261719e-01,1.000000000000000000e+00,-4.337430572509765625e+01,3.086279678344726562e+01,3.459982299804687500e+01,9.313669586181640625e+01,9.866288757324218750e+01,-7.704332351684570312e+00,4.031498432159423828e-01,-6.667009735107421875e+01,-1.826863250732421875e+02,-2.342245101928710938e+00,7.562065887451171875e+01,3.135697174072265625e+01
9.923830032348632812e-01,1.000000000000000000e+00,-4.341831207275390625e+01,3.077741622924804688e+01,3.462336730957031250e+01,9.305894470214843750e+01,9.868614196777343750e+01,-7.729153156280517578e+00,4.031498432159423828e-01,-6.667009735107421875e+01,-1.826863250732421875e+02,-2.342316627502441406e+00,7.562065887451171875e+01,3.135697174072265625e+01
9.962760210037231445e-01,1.000000000000000000e+00,-4.346240615844726562e+01,3.069176292419433594e+01,3.464685058593750000e+01,9.298093414306640625e+01,9.870847320556640625e+01,-7.754381179809570312e+00,4.031498432159423828e-01,-6.667009735107421875e+01,-1.826863250732421875e+02,-2.342245101928710938e+00,7.562065887451171875e+01,3.135719108581542969e+01
9.993199706077575684e-01,1.000000000000000000e+00,-4.350650024414062500e+01,3.060572242736816406e+01,3.467057800292968750e+01,9.290345001220703125e+01,9.872985839843750000e+01,-7.780015945434570312e+00,4.031498432159423828e-01,-6.667009735107421875e+01,-1.826863250732421875e+02,-2.342245101928710938e+00,7.562081146240234375e+01,3.135719108581542969e+01
1.003726959228515625e+00,1.000000000000000000e+00,-4.355059432983398438e+01,3.051947784423828125e+01,3.469428253173828125e+01,9.282565307617187500e+01,9.875150299072265625e+01,-7.804972648620605469e+00,4.031498432159423828e-01,-6.667009735107421875e+01,-1.826863250732421875e+02,-2.342245101928710938e+00,7.562065887451171875e+01,3.135697174072265625e+01
1.008074045181274414e+00,1.000000000000000000e+00,-4.359468841552734375e+01,3.043334960937500000e+01,3.471782684326171875e+01,9.274784851074218750e+01,9.877410888671875000e+01,-7.829318523406982422e+00,4.031498432159423828e-01,-6.667009735107421875e+01,-1.826863250732421875e+02,-2.342245101928710938e+00,7.562065887451171875e+01,3.135697174072265625e+01
1.011317014694213867e+00,1.000000000000000000e+00,-4.363875198364257812e+01,3.034749031066894531e+01,3.474137115478515625e+01,9.266978454589843750e+01,9.879751586914062500e+01,-7.853461742401123047e+00,4.031498432159423828e-01,-6.667009735107421875e+01,-1.826863250732421875e+02,-2.342245101928710938e+00,7.562065887451171875e+01,3.135697174072265625e+01
1.015336036682128906e+00,1.000000000000000000e+00,-4.368324661254882812e+01,3.026206588745117188e+01,3.476506042480468750e+01,9.259236145019531250e+01,9.882112884521484375e+01,-7.877943515777587891e+00,4.031498432159423828e-01,-6.667019653320312500e+01,-1.826863250732421875e+02,-2.342245101928710938e+00,7.562065887451171875e+01,3.135697174072265625e+01
1.019394040107727051e+00,1.000000000000000000e+00,-4.372748565673828125e+01,3.017641067504882812e+01,3.478896713256835938e+01,9.251461029052734375e+01,9.884379577636718750e+01,-7.902560710906982422e+00,4.031498432159423828e-01,-6.667009735107421875e+01,-1.826863250732421875e+02,-2.342245101928710938e+00,7.562065887451171875e+01,3.135719108581542969e+01
1.023314952850341797e+00,1.000000000000000000e+00,-4.377194976806640625e+01,3.009100341796875000e+01,3.481263351440429688e+01,9.243649291992187500e+01,9.886533355712890625e+01,-7.927517414093017578e+00,4.031498432159423828e-01,-6.667009735107421875e+01,-1.826863250732421875e+02,-2.342173099517822266e+00,7.562065887451171875e+01,3.135719108581542969e+01
1.028347015380859375e+00,1.000000000000000000e+00,-4.381624603271484375e+01,3.000539779663085938e+01,3.483634185791015625e+01,9.235848999023437500e+01,9.888745880126953125e+01,-7.953219890594482422e+00,4.031498432159423828e-01,-6.667009735107421875e+01,-1.826863250732421875e+02,-2.342245101928710938e+00,7.562065887451171875e+01,3.135697174072265625e+01
1.032078981399536133e+00,1.000000000000000000e+00,-4.386071395874023438e+01,2.991915130615234375e+01,3.485982513427734375e+01,9.228031921386718750e+01,9.890995788574218750e+01,-7.978515625000000000e+00,4.031498432159423828e-01,-6.667009735107421875e+01,-1.826863250732421875e+02,-2.342245101928710938e+00,7.562065887451171875e+01,3.135719108581542969e+01
1.035334944725036621e+00,1.000000000000000000e+00,-4.390503692626953125e+01,2.983236694335937500e+01,3.488346862792968750e+01,9.220230865478515625e+01,9.893294525146484375e+01,-8.003065109252929688e+00,4.031498432159423828e-01,-6.667009735107421875e+01,-1.826863250732421875e+02,-2.342245101928710938e+00,7.562065887451171875e+01,3.135697174072265625e+01
1.039345026016235352e+00,1.000000000000000000e+00,-4.394953155517578125e+01,2.974574089050292969e+01,3.490752410888671875e+01,9.212351226806640625e+01,9.895645141601562500e+01,-8.027276039123535156e+00,4.031498432159423828e-01,-6.667009735107421875e+01,-1.826863250732421875e+02,-2.342245101928710938e+00,7.562065887451171875e+01,3.135697174072265625e+01
1.043421030044555664e+00,1.000000000000000000e+00,-4.399379730224609375e+01,2.965920257568359375e+01,3.493141555786132812e+01,9.204534149169921875e+01,9.897969055175781250e+01,-8.051690101623535156e+00,4.031498432159423828e-01,-6.667009735107421875e+01,-1.826863250732421875e+02,-2.342245101928710938e+00,7.562065887451171875e+01,3.135697174072265625e+01
1.047446012496948242e+00,1.000000000000000000e+00,-4.403832244873046875e+01,2.957302856445312500e+01,3.495532226562500000e+01,9.196706390380859375e+01,9.900203704833984375e+01,-8.076239585876464844e+00,4.031498432159423828e-01,-6.667009735107421875e+01,-1.826863250732421875e+02,-2.342245101928710938e+00,7.562051391601562500e+01,3.135697174072265625e+01
1.052178025245666504e+00,1.000000000000000000e+00,-4.408246994018554688e+01,2.948762512207031250e+01,3.497901153564453125e+01,9.188937377929687500e+01,9.902362823486328125e+01,-8.101400375366210938e+00,4.031498432159423828e-01,-6.667009735107421875e+01,-1.826863250732421875e+02,-2.342245101928710938e+00,7.562065887451171875e+01,3.135697174072265625e+01
1.056311011314392090e+00,1.000000000000000000e+00,-4.412667846679687500e+01,2.940210342407226562e+01,3.500279617309570312e+01,9.181067657470703125e+01,9.904554748535156250e+01,-8.126560211181640625e+00,4.031498432159423828e-01,-6.667009735107421875e+01,-1.826863250732421875e+02,-2.342245101928710938e+00,7.562065887451171875e+01,3.135697174072265625e+01
1.059489011764526367e+00,1.000000000000000000e+00,-4.417111968994140625e+01,2.931617927551269531e+01,3.502666854858398438e+01,9.173256683349609375e+01,9.906809997558593750e+01,-8.151991844177246094e+00,4.031498432159423828e-01,-6.667009735107421875e+01,-1.826862182617187500e+02,-2.342316627502441406e+00,7.562065887451171875e+01,3.135697174072265625e+01
1.063398003578186035e+00,1.000000000000000000e+00,-4.421553039550781250e+01,2.922991371154785156e+01,3.505037689208984375e+01,9.165396881103515625e+01,9.909165954589843750e+01,-8.177354812622070312e+00,4.031498432159423828e-01,-6.667009735107421875e+01,-1.826863250732421875e+02,-2.342245101928710938e+00,7.562065887451171875e+01,3.135719108581542969e+01
1.067612051963806152e+00,1.000000000000000000e+00,-4.425973892211914062e+01,2.914333152770996094e+01,3.507414245605468750e+01,9.157601165771484375e+01,9.911549377441406250e+01,-8.201633453369140625e+00,4.031498432159423828e-01,-6.667009735107421875e+01,-1.826863250732421875e+02,-2.342245101928710938e+00,7.562065887451171875e+01,3.135697174072265625e+01
1.071658968925476074e+00,1.000000000000000000e+00,-4.430403137207031250e+01,2.905634307861328125e+01,3.509809494018554688e+01,9.149726104736328125e+01,9.913804626464843750e+01,-8.225979804992675781e+00,4.031498432159423828e-01,-6.667019653320312500e+01,-1.826863250732421875e+02,-2.342316627502441406e+00,7.562065887451171875e+01,3.135697174072265625e+01
1.076074004173278809e+00,1.000000000000000000e+00,-4.434838485717773438e+01,2.896917152404785156e+01,3.512204360961914062e+01,9.141878509521484375e+01,9.916006469726562500e+01,-8.250461578369140625e+00,4.031498432159423828e-01,-6.667009735107421875e+01,-1.826863250732421875e+02,-2.342316627502441406e+00,7.562065887451171875e+01,3.135697174072265625e+01
1.080983996391296387e+00,1.000000000000000000e+00,-4.439256668090820312e+01,2.888252067565917969e+01,3.514609909057617188e+01,9.134008789062500000e+01,9.918208312988281250e+01,-8.275553703308105469e+00,4.031498432159423828e-01,-6.667009735107421875e+01,-1.826863250732421875e+02,-2.342245101928710938e+00,7.562065887451171875e+01,3.135697174072265625e+01
1.084303975105285645e+00,1.000000000000000000e+00,-4.443691635131835938e+01,2.879621124267578125e+01,3.516990280151367188e+01,9.126113128662109375e+01,9.920479583740234375e+01,-8.300848960876464844e+00,4.031498432159423828e-01,-6.667009735107421875e+01,-1.826863250732421875e+02,-2.342173099517822266e+00,7.562065887451171875e+01,3.135697174072265625e+01
1.087582945823669434e+00,1.000000000000000000e+00,-4.448135375976562500e+01,2.870976448059082031e+01,3.519367218017578125e+01,9.118222045898437500e+01,9.922772216796875000e+01,-8.326483726501464844e+00,4.031498432159423828e-01,-6.667019653320312500e+01,-1.826863250732421875e+02,-2.342316627502441406e+00,7.562065887451171875e+01,3.135697174072265625e+01
1.091686010360717773e+00,1.000000000000000000e+00,-4.452550506591796875e+01,2.862356758117675781e+01,3.521752166748046875e+01,9.110342407226562500e+01,9.925182342529296875e+01,-8.351712226867675781e+00,4.031498432159423828e-01,-6.667009735107421875e+01,-1.826863250732421875e+02,-2.342245101928710938e+00,7.562065887451171875e+01,3.135697174072265625e+01
1.095734000205993652e+00,1.000000000000000000e+00,-4.456994247436523438e+01,2.853707504272460938e+01,3.524135208129882812e+01,9.102514648437500000e+01,9.927544403076171875e+01,-8.376532554626464844e+00,4.031498432159423828e-01,-6.667009735107421875e+01,-1.826863250732421875e+02,-2.342245101928710938e+00,7.562065887451171875e+01,3.135697174072265625e+01
1.100525975227355957e+00,1.000000000000000000e+00,-4.461395263671875000e+01,2.845010757446289062e+01,3.526530075073242188e+01,9.094629669189453125e+01,9.929751586914062500e+01,-8.400878906250000000e+00,4.031498432159423828e-01,-6.667009735107421875e+01,-1.826863250732421875e+02,-2.342245101928710938e+00,7.562065887451171875e+01,3.135697174072265625e+01
1.103793978691101074e+00,1.000000000000000000e+00,-4.465850067138671875e+01,2.836248588562011719e+01,3.528949737548828125e+01,9.086749267578125000e+01,9.931937408447265625e+01,-8.425564765930175781e+00,4.031498432159423828e-01,-6.667009735107421875e+01,-1.826863250732421875e+02,-2.342245101928710938e+00,7.562081146240234375e+01,3.135697174072265625e+01
1.107813000679016113e+00,1.000000000000000000e+00,-4.470294189453125000e+01,2.827456855773925781e+01,3.531348800659179688e+01,9.078842926025390625e+01,9.934160614013671875e+01,-8.450317382812500000e+00,4.031498432159423828e-01,-6.667009735107421875e+01,-1.826863250732421875e+02,-2.342316627502441406e+00,7.562065887451171875e+01,3.135697174072265625e+01
1.111765027046203613e+00,1.000000000000000000e+00,-4.474706649780273438e+01,2.818689918518066406e+01,3.533764266967773438e+01,9.070963287353515625e+01,9.936458587646484375e+01,-8.475069999694824219e+00,4.031498432159423828e-01,-6.667009735107421875e+01,-1.826863250732421875e+02,-2.342316627502441406e+00,7.562065887451171875e+01,3.135697174072265625e+01
1.115875959396362305e+00,1.000000000000000000e+00,-4.479141616821289062e+01,2.809966087341308594e+01,3.536161422729492188e+01,9.063072204589843750e+01,9.938836669921875000e+01,-8.500705718994140625e+00,4.031498432159423828e-01,-6.667009735107421875e+01,-1.826863250732421875e+02,-2.342316627502441406e+00,7.562051391601562500e+01,3.135697174072265625e+01
