rpiRobotics/ARM-21-02-F-19-Robot-Motion-Program/data_performance_abb/curve_1/curve_pose_opt1/greedy0.02/realrobot/run_1.csv
timestamp,cmd_num,J1,J2,J3,J4,J5,J6
1.480000064475461841e-04,-1.000000000000000000e+00,-3.460023880004882812e+01,4.793048858642578125e+01,2.988683128356933594e+01,1.086465072631835938e+02,9.417926788330078125e+01,-2.775200843811035156e+00,4.031498432159423828e-01,-6.667009735107421875e+01,-1.826863250732421875e+02,-2.342245101928710938e+00,7.562088012695312500e+01,3.135675048828125000e+01
6.188000086694955826e-03,1.000000000000000000e+00,-3.460023880004882812e+01,4.793051147460937500e+01,2.988686943054199219e+01,1.086463546752929688e+02,9.417926788330078125e+01,-2.774997472763061523e+00,4.031498432159423828e-01,-6.667009735107421875e+01,-1.826863250732421875e+02,-2.342173099517822266e+00,7.562081146240234375e+01,3.135675048828125000e+01
9.881000034511089325e-03,1.000000000000000000e+00,-3.460020828247070312e+01,4.793055725097656250e+01,2.988683128356933594e+01,1.086464538574218750e+02,9.417916107177734375e+01,-2.775336503982543945e+00,4.031498432159423828e-01,-6.667009735107421875e+01,-1.826863250732421875e+02,-2.342245101928710938e+00,7.562081146240234375e+01,3.135675048828125000e+01
1.465499959886074066e-02,1.000000000000000000e+00,-3.460020828247070312e+01,4.793048858642578125e+01,2.988683128356933594e+01,1.086462936401367188e+02,9.417926788330078125e+01,-2.775200843811035156e+00,4.031498432159423828e-01,-6.667009735107421875e+01,-1.826863250732421875e+02,-2.342245101928710938e+00,7.562081146240234375e+01,3.135675048828125000e+01
4.028800129890441895e-02,1.000000000000000000e+00,-3.460015487670898438e+01,4.793048858642578125e+01,2.988686943054199219e+01,1.086465072631835938e+02,9.417937469482421875e+01,-2.775200843811035156e+00,4.031498432159423828e-01,-6.667009735107421875e+01,-1.826863250732421875e+02,-2.342245101928710938e+00,7.562081146240234375e+01,3.135675048828125000e+01
4.171099886298179626e-02,1.000000000000000000e+00,-3.460020828247070312e+01,4.793048858642578125e+01,2.988686943054199219e+01,1.086465072631835938e+02,9.417926788330078125e+01,-2.775336503982543945e+00,4.031498432159423828e-01,-6.667009735107421875e+01,-1.826863250732421875e+02,-2.342245101928710938e+00,7.562081146240234375e+01,3.135675048828125000e+01
4.297799989581108093e-02,1.000000000000000000e+00,-3.460020828247070312e+01,4.793048858642578125e+01,2.988686943054199219e+01,1.086465072631835938e+02,9.417926788330078125e+01,-2.775336503982543945e+00,4.031498432159423828e-01,-6.667009735107421875e+01,-1.826863250732421875e+02,-2.342245101928710938e+00,7.562081146240234375e+01,3.135675048828125000e+01
5.253300070762634277e-02,1.000000000000000000e+00,-3.460015487670898438e+01,4.793051147460937500e+01,2.988686943054199219e+01,1.086464538574218750e+02,9.417937469482421875e+01,-2.775336503982543945e+00,4.031498432159423828e-01,-6.667009735107421875e+01,-1.826863250732421875e+02,-2.342173099517822266e+00,7.562088012695312500e+01,3.135675048828125000e+01
5.385899916291236877e-02,1.000000000000000000e+00,-3.460023880004882812e+01,4.793051147460937500e+01,2.988686943054199219e+01,1.086465072631835938e+02,9.417926788330078125e+01,-2.775200843811035156e+00,4.031498432159423828e-01,-6.667009735107421875e+01,-1.826863250732421875e+02,-2.342173099517822266e+00,7.562088012695312500e+01,3.135675048828125000e+01
5.700499936938285828e-02,1.000000000000000000e+00,-3.460023880004882812e+01,4.793051147460937500e+01,2.988686943054199219e+01,1.086465072631835938e+02,9.417926788330078125e+01,-2.775200843811035156e+00,4.031498432159423828e-01,-6.667009735107421875e+01,-1.826863250732421875e+02,-2.342173099517822266e+00,7.562088012695312500e+01,3.135675048828125000e+01
5.844400078058242798e-02,1.000000000000000000e+00,-3.460035324096679688e+01,4.793044281005859375e+01,2.988683128356933594e+01,1.086464538574218750e+02,9.417926788330078125e+01,-2.775336503982543945e+00,4.031498432159423828e-01,-6.667009735107421875e+01,-1.826863250732421875e+02,-2.342245101928710938e+00,7.562081146240234375e+01,3.135675048828125000e+01
6.212799996137619019e-02,1.000000000000000000e+00,-3.460058593750000000e+01,4.793026351928710938e+01,2.988683128356933594e+01,1.086464538574218750e+02,9.417926788330078125e+01,-2.775200843811035156e+00,4.031498432159423828e-01,-6.667009735107421875e+01,-1.826863250732421875e+02,-2.342316627502441406e+00,7.562081146240234375e+01,3.135675048828125000e+01
6.589499861001968384e-02,1.000000000000000000e+00,-3.460132980346679688e+01,4.792987823486328125e+01,2.988686943054199219e+01,1.086462936401367188e+02,9.417916107177734375e+01,-2.775200843811035156e+00,4.031498432159423828e-01,-6.667009735107421875e+01,-1.826863250732421875e+02,-2.342245101928710938e+00,7.562081146240234375e+01,3.135697174072265625e+01
6.717500090599060059e-02,1.000000000000000000e+00,-3.460132980346679688e+01,4.792987823486328125e+01,2.988686943054199219e+01,1.086462936401367188e+02,9.417916107177734375e+01,-2.775200843811035156e+00,4.031498432159423828e-01,-6.667009735107421875e+01,-1.826863250732421875e+02,-2.342245101928710938e+00,7.562081146240234375e+01,3.135697174072265625e+01
6.967499852180480957e-02,1.000000000000000000e+00,-3.460267639160156250e+01,4.792879104614257812e+01,2.988683128356933594e+01,1.086463546752929688e+02,9.417926788330078125e+01,-2.775336503982543945e+00,4.031498432159423828e-01,-6.667009735107421875e+01,-1.826863250732421875e+02,-2.342245101928710938e+00,7.562081146240234375e+01,3.135675048828125000e+01
7.292500138282775879e-02,1.000000000000000000e+00,-3.460451507568359375e+01,4.792679977416992188e+01,2.988683128356933594e+01,1.086462936401367188e+02,9.417937469482421875e+01,-2.775200843811035156e+00,4.031498432159423828e-01,-6.667009735107421875e+01,-1.826863250732421875e+02,-2.342316627502441406e+00,7.562081146240234375e+01,3.135675048828125000e+01
7.429300248622894287e-02,1.000000000000000000e+00,-3.460451507568359375e+01,4.792679977416992188e+01,2.988683128356933594e+01,1.086462936401367188e+02,9.417937469482421875e+01,-2.775200843811035156e+00,4.031498432159423828e-01,-6.667009735107421875e+01,-1.826863250732421875e+02,-2.342316627502441406e+00,7.562081146240234375e+01,3.135675048828125000e+01
7.746399939060211182e-02,1.000000000000000000e+00,-3.460451507568359375e+01,4.792679977416992188e+01,2.988683128356933594e+01,1.086462936401367188e+02,9.417937469482421875e+01,-2.775200843811035156e+00,4.031498432159423828e-01,-6.667009735107421875e+01,-1.826863250732421875e+02,-2.342245101928710938e+00,7.562088012695312500e+01,3.135675048828125000e+01
7.876099646091461182e-02,1.000000000000000000e+00,-3.460698318481445312e+01,4.792354202270507812e+01,2.988686943054199219e+01,1.086462936401367188e+02,9.417926788330078125e+01,-2.775336503982543945e+00,4.031498432159423828e-01,-6.667009735107421875e+01,-1.826863250732421875e+02,-2.342245101928710938e+00,7.562088012695312500e+01,3.135675048828125000e+01
8.123999834060668945e-02,1.000000000000000000e+00,-3.461000061035156250e+01,4.791844940185546875e+01,2.988686943054199219e+01,1.086460876464843750e+02,9.417948150634765625e+01,-2.775200843811035156e+00,4.031498432159423828e-01,-6.667009735107421875e+01,-1.826863250732421875e+02,-2.342245101928710938e+00,7.562081146240234375e+01,3.135675048828125000e+01
8.497600257396697998e-02,1.000000000000000000e+00,-3.461361694335937500e+01,4.791159057617187500e+01,2.988703346252441406e+01,1.086451339721679688e+02,9.417974853515625000e+01,-2.775336503982543945e+00,4.031498432159423828e-01,-6.667009735107421875e+01,-1.826863250732421875e+02,-2.342245101928710938e+00,7.562081146240234375e+01,3.135653114318847656e+01
8.639100193977355957e-02,1.000000000000000000e+00,-3.461361694335937500e+01,4.791159057617187500e+01,2.988703346252441406e+01,1.086451339721679688e+02,9.417974853515625000e+01,-2.775336503982543945e+00,4.031498432159423828e-01,-6.667009735107421875e+01,-1.826863250732421875e+02,-2.342245101928710938e+00,7.562081146240234375e+01,3.135653114318847656e+01
8.969900012016296387e-02,1.000000000000000000e+00,-3.461361694335937500e+01,4.790303802490234375e+01,2.988729667663574219e+01,1.086428222656250000e+02,9.418017578125000000e+01,-2.775539875030517578e+00,4.031498432159423828e-01,-6.667009735107421875e+01,-1.826863250732421875e+02,-2.342173099517822266e+00,7.562065887451171875e+01,3.135675048828125000e+01
9.098599851131439209e-02,1.000000000000000000e+00,-3.461800765991210938e+01,4.790303802490234375e+01,2.988729667663574219e+01,1.086428222656250000e+02,9.418017578125000000e+01,-2.775539875030517578e+00,4.031498432159423828e-01,-6.667009735107421875e+01,-1.826863250732421875e+02,-2.342173099517822266e+00,7.562065887451171875e+01,3.135675048828125000e+01
9.445299953222274780e-02,1.000000000000000000e+00,-3.462320327758789062e+01,4.789294433593750000e+01,2.988790702819824219e+01,1.086388168334960938e+02,9.418087005615234375e+01,-2.776014804840087891e+00,4.031498432159423828e-01,-6.667009735107421875e+01,-1.826863250732421875e+02,-2.342245101928710938e+00,7.562088012695312500e+01,3.135675048828125000e+01
9.703499823808670044e-02,1.000000000000000000e+00,-3.462320327758789062e+01,4.789294433593750000e+01,2.988790702819824219e+01,1.086388168334960938e+02,9.418087005615234375e+01,-2.776014804840087891e+00,4.031498432159423828e-01,-6.667009735107421875e+01,-1.826863250732421875e+02,-2.342245101928710938e+00,7.562065887451171875e+01,3.135675048828125000e+01
9.947700053453445435e-02,1.000000000000000000e+00,-3.462920379638671875e+01,4.788068008422851562e+01,2.988894653320312500e+01,1.086332855224609375e+02,9.418203735351562500e+01,-2.777438879013061523e+00,4.031498432159423828e-01,-6.667009735107421875e+01,-1.826863250732421875e+02,-2.342245101928710938e+00,7.562065887451171875e+01,3.135675048828125000e+01
1.045690029859542847e-01,1.000000000000000000e+00,-3.463629531860351562e+01,4.786590194702148438e+01,2.989038658142089844e+01,1.086260147094726562e+02,9.418401336669921875e+01,-2.779608964920043945e+00,4.031498432159423828e-01,-6.667009735107421875e+01,-1.826863250732421875e+02,-2.342245101928710938e+00,7.562081146240234375e+01,3.135675048828125000e+01
1.074990034103393555e-01,1.000000000000000000e+00,-3.464479446411132812e+01,4.784849929809570312e+01,2.989250373840332031e+01,1.086165924072265625e+02,9.418672943115234375e+01,-2.782728672027587891e+00,4.031498432159423828e-01,-6.667009735107421875e+01,-1.826863250732421875e+02,-2.342245101928710938e+00,7.562065887451171875e+01,3.135675048828125000e+01
1.115820035338401794e-01,1.000000000000000000e+00,-3.465460968017578125e+01,4.782872009277343750e+01,2.989549255371093750e+01,1.086043701171875000e+02,9.419046783447265625e+01,-2.786187171936035156e+00,4.031498432159423828e-01,-6.667009735107421875e+01,-1.826863250732421875e+02,-2.342245101928710938e+00,7.562065887451171875e+01,3.135675048828125000e+01
1.166749969124794006e-01,1.000000000000000000e+00,-3.466588973999023438e+01,4.780627059936523438e+01,2.989939498901367188e+01,1.085883560180664062e+02,9.419483947753906250e+01,-2.790459632873535156e+00,4.031498432159423828e-01,-6.667009735107421875e+01,-1.826863250732421875e+02,-2.342316627502441406e+00,7.562081146240234375e+01,3.135653114318847656e+01
1.195330023765563965e-01,1.000000000000000000e+00,-3.467875289916992188e+01,4.778090286254882812e+01,2.990453910827636719e+01,1.085687637329101562e+02,9.420038604736328125e+01,-2.796631097793579102e+00,4.031498432159423828e-01,-6.667009735107421875e+01,-1.826863250732421875e+02,-2.342245101928710938e+00,7.562065887451171875e+01,3.135653114318847656e+01
1.235829964280128479e-01,1.000000000000000000e+00,-3.469324874877929688e+01,4.775250244140625000e+01,2.991092109680175781e+01,1.085452194213867188e+02,9.420673370361328125e+01,-2.803548336029052734e+00,4.031498432159423828e-01,-6.667009735107421875e+01,-1.826863250732421875e+02,-2.342245101928710938e+00,7.562081146240234375e+01,3.135653114318847656e+01
1.275780051946640015e-01,1.000000000000000000e+00,-3.470944213867187500e+01,4.772116088867187500e+01,2.991844558715820312e+01,1.085189819335937500e+02,9.421408843994140625e+01,-2.811279535293579102e+00,4.031498432159423828e-01,-6.667009735107421875e+01,-1.826863250732421875e+02,-2.342245101928710938e+00,7.562088012695312500e+01,3.135653114318847656e+01
1.316040009260177612e-01,1.000000000000000000e+00,-3.472698211669921875e+01,4.768624496459960938e+01,2.992743301391601562e+01,1.084894866943359375e+02,9.422261810302734375e+01,-2.820773839950561523e+00,4.031498432159423828e-01,-6.667009735107421875e+01,-1.826863250732421875e+02,-2.342245101928710938e+00,7.562081146240234375e+01,3.135675048828125000e+01
1.354819983243942261e-01,1.000000000000000000e+00,-3.474575424194335938e+01,4.764781570434570312e+01,2.993771934509277344e+01,1.084554595947265625e+02,9.423263549804687500e+01,-2.831353187561035156e+00,4.031498432159423828e-01,-6.667009735107421875e+01,-1.826863250732421875e+02,-2.342245101928710938e+00,7.562081146240234375e+01,3.135675048828125000e+01
1.394979953765869141e-01,1.000000000000000000e+00,-3.476656341552734375e+01,4.760601806640625000e+01,2.994935226440429688e+01,1.084153213500976562e+02,9.424372863769531250e+01,-2.843424558639526367e+00,4.031498432159423828e-01,-6.667009735107421875e+01,-1.826863250732421875e+02,-2.342245101928710938e+00,7.562081146240234375e+01,3.135675048828125000e+01
1.436060070991516113e-01,1.000000000000000000e+00,-3.478918457031250000e+01,4.756103134155273438e+01,2.996238327026367188e+01,1.083704910278320312e+02,9.425588989257812500e+01,-2.857055902481079102e+00,4.031498432159423828e-01,-6.667009735107421875e+01,-1.826863250732421875e+02,-2.342316627502441406e+00,7.562065887451171875e+01,3.135675048828125000e+01
1.474909931421279907e-01,1.000000000000000000e+00,-3.481332778930664062e+01,4.751300811767578125e+01,2.997692108154296875e+01,1.083239364624023438e+02,9.426974487304687500e+01,-2.871704101562500000e+00,4.031498432159423828e-01,-6.667009735107421875e+01,-1.826863250732421875e+02,-2.342245101928710938e+00,7.562081146240234375e+01,3.135675048828125000e+01
1.515270024538040161e-01,1.000000000000000000e+00,-3.483847808837890625e+01,4.746209335327148438e+01,2.999277877807617188e+01,1.082743148803710938e+02,9.428456878662109375e+01,-2.887505531311035156e+00,4.031498432159423828e-01,-6.667009735107421875e+01,-1.826863250732421875e+02,-2.342173099517822266e+00,7.562081146240234375e+01,3.135697174072265625e+01
1.555379927158355713e-01,1.000000000000000000e+00,-3.486543273925781250e+01,4.740841674804687500e+01,3.000949096679687500e+01,1.082195358276367188e+02,9.430077362060546875e+01,-2.904866695404052734e+00,4.031498432159423828e-01,-6.667009735107421875e+01,-1.826863250732421875e+02,-2.342245101928710938e+00,7.562081146240234375e+01,3.135653114318847656e+01
1.595059931278228760e-01,1.000000000000000000e+00,-3.489367675781250000e+01,4.735211181640625000e+01,3.002693557739257812e+01,1.081619033813476562e+02,9.431725311279296875e+01,-2.923651933670043945e+00,4.031498432159423828e-01,-6.667019653320312500e+01,-1.826863250732421875e+02,-2.342245101928710938e+00,7.562081146240234375e+01,3.135697174072265625e+01
1.636970043182373047e-01,1.000000000000000000e+00,-3.492344665527343750e+01,4.729311370849609375e+01,3.004492950439453125e+01,1.081023330688476562e+02,9.433383178710937500e+01,-2.943454504013061523e+00,4.031498432159423828e-01,-6.667009735107421875e+01,-1.826863250732421875e+02,-2.342316627502441406e+00,7.562065887451171875e+01,3.135653114318847656e+01
1.675779968500137329e-01,1.000000000000000000e+00,-3.495476913452148438e+01,4.723140335083007812e+01,3.006377792358398438e+01,1.080403900146484375e+02,9.435099792480468750e+01,-2.964274168014526367e+00,4.031498432159423828e-01,-6.667009735107421875e+01,-1.826863250732421875e+02,-2.342245101928710938e+00,7.562081146240234375e+01,3.135697174072265625e+01
1.714760065078735352e-01,1.000000000000000000e+00,-3.498726654052734375e+01,4.716765594482421875e+01,3.008333587646484375e+01,1.079761810302734375e+02,9.436881256103515625e+01,-2.984687089920043945e+00,4.031498432159423828e-01,-6.667009735107421875e+01,-1.826863250732421875e+02,-2.342245101928710938e+00,7.562065887451171875e+01,3.135675048828125000e+01
1.754779964685440063e-01,1.000000000000000000e+00,-3.502085113525390625e+01,4.710198211669921875e+01,3.010340309143066406e+01,1.079103393554687500e+02,9.438709259033203125e+01,-3.005235433578491211e+00,4.031498432159423828e-01,-6.667009735107421875e+01,-1.826863250732421875e+02,-2.342245101928710938e+00,7.562081146240234375e+01,3.135675048828125000e+01
1.795410066843032837e-01,1.000000000000000000e+00,-3.505544281005859375e+01,4.703432083129882812e+01,3.012397956848144531e+01,1.078438110351562500e+02,9.440602111816406250e+01,-3.026462078094482422e+00,4.031498432159423828e-01,-6.667009735107421875e+01,-1.826863250732421875e+02,-2.342173099517822266e+00,7.562081146240234375e+01,3.135675048828125000e+01
1.835460066795349121e-01,1.000000000000000000e+00,-3.509081268310546875e+01,4.696491241455078125e+01,3.014443206787109375e+01,1.077761230468750000e+02,9.442596435546875000e+01,-3.047960281372070312e+00,4.031498432159423828e-01,-6.667009735107421875e+01,-1.826863250732421875e+02,-2.342316627502441406e+00,7.562081146240234375e+01,3.135675048828125000e+01
1.874780058860778809e-01,1.000000000000000000e+00,-3.512720870971679688e+01,4.689365005493164062e+01,3.016498756408691406e+01,1.077079086303710938e+02,9.444628143310546875e+01,-3.069458007812500000e+00,4.031498432159423828e-01,-6.667009735107421875e+01,-1.826863250732421875e+02,-2.342245101928710938e+00,7.562065887451171875e+01,3.135675048828125000e+01
1.915470063686370850e-01,1.000000000000000000e+00,-3.516403961181640625e+01,4.682069396972656250e+01,3.018572807312011719e+01,1.076382751464843750e+02,9.446659088134765625e+01,-3.091227293014526367e+00,4.031498432159423828e-01,-6.667009735107421875e+01,-1.826863250732421875e+02,-2.342245101928710938e+00,7.562065887451171875e+01,3.135675048828125000e+01
1.955489963293075562e-01,1.000000000000000000e+00,-3.520190429687500000e+01,4.674649047851562500e+01,3.020658683776855469e+01,1.075694808959960938e+02,9.448573303222656250e+01,-3.113742351531982422e+00,4.031498432159423828e-01,-6.667009735107421875e+01,-1.826863250732421875e+02,-2.342173099517822266e+00,7.562065887451171875e+01,3.135697174072265625e+01
1.995330005884170532e-01,1.000000000000000000e+00,-3.524051666259765625e+01,4.667133712768554688e+01,3.022767257690429688e+01,1.074997940063476562e+02,9.450513458251953125e+01,-3.136461019515991211e+00,4.031498432159423828e-01,-6.667009735107421875e+01,-1.826863250732421875e+02,-2.342245101928710938e+00,7.562081146240234375e+01,3.135697174072265625e+01
2.035669982433319092e-01,1.000000000000000000e+00,-3.527967071533203125e+01,4.659602355957031250e+01,3.024871635437011719e+01,1.074308471679687500e+02,9.452502441406250000e+01,-3.159518718719482422e+00,4.031498432159423828e-01,-6.667009735107421875e+01,-1.826863250732421875e+02,-2.342245101928710938e+00,7.562081146240234375e+01,3.135675048828125000e+01
2.075099945068359375e-01,1.000000000000000000e+00,-3.531902694702148438e+01,4.651993942260742188e+01,3.026959609985351562e+01,1.073614730834960938e+02,9.454496765136718750e+01,-3.181559324264526367e+00,4.031498432159423828e-01,-6.667009735107421875e+01,-1.826863250732421875e+02,-2.342316627502441406e+00,7.562081146240234375e+01,3.135675048828125000e+01
2.114759981632232666e-01,1.000000000000000000e+00,-3.535858535766601562e+01,4.644395065307617188e+01,3.029053688049316406e+01,1.072924194335937500e+02,9.456543731689453125e+01,-3.203192949295043945e+00,4.031498432159423828e-01,-6.667009735107421875e+01,-1.826863250732421875e+02,-2.342245101928710938e+00,7.562081146240234375e+01,3.135675048828125000e+01
2.155809998512268066e-01,1.000000000000000000e+00,-3.539840316772460938e+01,4.636773300170898438e+01,3.031142044067382812e+01,1.072227859497070312e+02,9.458628082275390625e+01,-3.225165605545043945e+00,4.031498432159423828e-01,-6.667009735107421875e+01,-1.826863250732421875e+02,-2.342316627502441406e+00,7.562081146240234375e+01,3.135675048828125000e+01
2.195329964160919189e-01,1.000000000000000000e+00,-3.543830871582031250e+01,4.629126739501953125e+01,3.033244323730468750e+01,1.071534118652343750e+02,9.460713195800781250e+01,-3.247341871261596680e+00,4.031498432159423828e-01,-6.667009735107421875e+01,-1.826863250732421875e+02,-2.342316627502441406e+00,7.562081146240234375e+01,3.135675048828125000e+01
2.235530018806457520e-01,1.000000000000000000e+00,-3.547843933105468750e+01,4.621468734741210938e+01,3.035360717773437500e+01,1.070839843750000000e+02,9.462690734863281250e+01,-3.269585609436035156e+00,4.031498432159423828e-01,-6.667009735107421875e+01,-1.826863250732421875e+02,-2.342245101928710938e+00,7.562081146240234375e+01,3.135675048828125000e+01
2.275100052356719971e-01,1.000000000000000000e+00,-3.551851272583007812e+01,4.613783645629882812e+01,3.037460899353027344e+01,1.070145568847656250e+02,9.464642333984375000e+01,-3.291965007781982422e+00,4.031498432159423828e-01,-6.667009735107421875e+01,-1.826863250732421875e+02,-2.342245101928710938e+00,7.562081146240234375e+01,3.135697174072265625e+01
2.324929982423782349e-01,1.000000000000000000e+00,-3.555844497680664062e+01,4.606125640869140625e+01,3.039555168151855469e+01,1.069446640014648438e+02,9.466599273681640625e+01,-3.314819335937500000e+00,4.031498432159423828e-01,-6.667009735107421875e+01,-1.826863250732421875e+02,-2.342245101928710938e+00,7.562081146240234375e+01,3.135675048828125000e+01
2.364729940891265869e-01,1.000000000000000000e+00,-3.559805679321289062e+01,4.598501586914062500e+01,3.041665649414062500e+01,1.068746109008789062e+02,9.468561553955078125e+01,-3.337809324264526367e+00,4.031498432159423828e-01,-6.667009735107421875e+01,-1.826863250732421875e+02,-2.342245101928710938e+00,7.562081146240234375e+01,3.135653114318847656e+01
2.395029962062835693e-01,1.000000000000000000e+00,-3.563784790039062500e+01,4.590909194946289062e+01,3.043792152404785156e+01,1.068046493530273438e+02,9.470587158203125000e+01,-3.360053300857543945e+00,4.031498432159423828e-01,-6.667009735107421875e+01,-1.826863250732421875e+02,-2.342245101928710938e+00,7.562081146240234375e+01,3.135675048828125000e+01
2.445109933614730835e-01,1.000000000000000000e+00,-3.563784790039062500e+01,4.590909194946289062e+01,3.043792152404785156e+01,1.068046493530273438e+02,9.470587158203125000e+01,-3.360053300857543945e+00,4.031498432159423828e-01,-6.667009735107421875e+01,-1.826863250732421875e+02,-2.342316627502441406e+00,7.562065887451171875e+01,3.135675048828125000e+01
2.477679997682571411e-01,1.000000000000000000e+00,-3.571759414672851562e+01,4.575722503662109375e+01,3.048066139221191406e+01,1.066652832031250000e+02,9.474794006347656250e+01,-3.403795242309570312e+00,4.031498432159423828e-01,-6.667009735107421875e+01,-1.826863250732421875e+02,-2.342245101928710938e+00,7.562081146240234375e+01,3.135697174072265625e+01
2.515450119972229004e-01,1.000000000000000000e+00,-3.575724029541015625e+01,4.568114089965820312e+01,3.050172615051269531e+01,1.065951690673828125e+02,9.476787567138671875e+01,-3.425835609436035156e+00,4.031498432159423828e-01,-6.667009735107421875e+01,-1.826863250732421875e+02,-2.342245101928710938e+00,7.562065887451171875e+01,3.135675048828125000e+01
2.565279901027679443e-01,1.000000000000000000e+00,-3.575724029541015625e+01,4.568114089965820312e+01,3.050172615051269531e+01,1.065951690673828125e+02,9.476787567138671875e+01,-3.425835609436035156e+00,4.031498432159423828e-01,-6.667001342773437500e+01,-1.826863250732421875e+02,-2.342173099517822266e+00,7.562065887451171875e+01,3.135697174072265625e+01
2.600030004978179932e-01,1.000000000000000000e+00,-3.583609771728515625e+01,4.552818679809570312e+01,3.054405593872070312e+01,1.064549026489257812e+02,9.480690765380859375e+01,-3.470594882965087891e+00,4.031498432159423828e-01,-6.667009735107421875e+01,-1.826863250732421875e+02,-2.342245101928710938e+00,7.562081146240234375e+01,3.135675048828125000e+01
2.635219991207122803e-01,1.000000000000000000e+00,-3.587559509277343750e+01,4.545156097412109375e+01,3.056562614440917969e+01,1.063855819702148438e+02,9.482706451416015625e+01,-3.493245363235473633e+00,4.031498432159423828e-01,-6.667009735107421875e+01,-1.826863250732421875e+02,-2.342245101928710938e+00,7.562081146240234375e+01,3.135697174072265625e+01
2.684989869594573975e-01,1.000000000000000000e+00,-3.587559509277343750e+01,4.545156097412109375e+01,3.056562614440917969e+01,1.063855819702148438e+02,9.482706451416015625e+01,-3.493245363235473633e+00,4.031498432159423828e-01,-6.667009735107421875e+01,-1.826863250732421875e+02,-2.342245101928710938e+00,7.562081146240234375e+01,3.135697174072265625e+01
2.717590034008026123e-01,1.000000000000000000e+00,-3.595388031005859375e+01,4.529769897460937500e+01,3.060836601257324219e+01,1.062450942993164062e+02,9.486848449707031250e+01,-3.539157629013061523e+00,4.031498432159423828e-01,-6.667009735107421875e+01,-1.826863250732421875e+02,-2.342245101928710938e+00,7.562065887451171875e+01,3.135675048828125000e+01
2.765690088272094727e-01,1.000000000000000000e+00,-3.595388031005859375e+01,4.529769897460937500e+01,3.060836601257324219e+01,1.062450942993164062e+02,9.486848449707031250e+01,-3.539157629013061523e+00,4.031498432159423828e-01,-6.667009735107421875e+01,-1.826863250732421875e+02,-2.342245101928710938e+00,7.562065887451171875e+01,3.135675048828125000e+01
2.795520126819610596e-01,1.000000000000000000e+00,-3.603245162963867188e+01,4.514419937133789062e+01,3.065069580078125000e+01,1.061052017211914062e+02,9.491028594970703125e+01,-3.582492351531982422e+00,4.031498432159423828e-01,-6.667009735107421875e+01,-1.826863250732421875e+02,-2.342245101928710938e+00,7.562081146240234375e+01,3.135653114318847656e+01
2.835809886455535889e-01,1.000000000000000000e+00,-3.603245162963867188e+01,4.514419937133789062e+01,3.065069580078125000e+01,1.061052017211914062e+02,9.491028594970703125e+01,-3.582492351531982422e+00,4.031498432159423828e-01,-6.667009735107421875e+01,-1.826863250732421875e+02,-2.342245101928710938e+00,7.562081146240234375e+01,3.135653114318847656e+01
2.875190079212188721e-01,1.000000000000000000e+00,-3.607149124145507812e+01,4.506760025024414062e+01,3.067208480834960938e+01,1.060350341796875000e+02,9.492996215820312500e+01,-3.604804515838623047e+00,4.031498432159423828e-01,-6.667009735107421875e+01,-1.826863250732421875e+02,-2.342173099517822266e+00,7.562065887451171875e+01,3.135675048828125000e+01
2.915920019149780273e-01,1.000000000000000000e+00,-3.611061859130859375e+01,4.499077224731445312e+01,3.069343185424804688e+01,1.059643478393554688e+02,9.494963836669921875e+01,-3.627048254013061523e+00,4.031498432159423828e-01,-6.667009735107421875e+01,-1.826863250732421875e+02,-2.342245101928710938e+00,7.562081146240234375e+01,3.135675048828125000e+01
2.955369949340820312e-01,1.000000000000000000e+00,-3.614971923828125000e+01,4.491389846801757812e+01,3.071468162536621094e+01,1.058935012817382812e+02,9.496962738037109375e+01,-3.649291992187500000e+00,4.031498432159423828e-01,-6.667009735107421875e+01,-1.826863250732421875e+02,-2.342316627502441406e+00,7.562065887451171875e+01,3.135675048828125000e+01
2.995789945125579834e-01,1.000000000000000000e+00,-3.618881607055664062e+01,4.483670425415039062e+01,3.073592758178710938e+01,1.058236541748046875e+02,9.499021148681640625e+01,-3.671739339828491211e+00,4.031498432159423828e-01,-6.667009735107421875e+01,-1.826863250732421875e+02,-2.342245101928710938e+00,7.562081146240234375e+01,3.135697174072265625e+01
3.036450147628784180e-01,1.000000000000000000e+00,-3.622777175903320312e+01,4.475885772705078125e+01,3.075727462768554688e+01,1.057532272338867188e+02,9.501121520996093750e+01,-3.694593667984008789e+00,4.031498432159423828e-01,-6.667009735107421875e+01,-1.826863250732421875e+02,-2.342245101928710938e+00,7.562065887451171875e+01,3.135675048828125000e+01
3.075880110263824463e-01,1.000000000000000000e+00,-3.626692962646484375e+01,4.468096542358398438e+01,3.077890968322753906e+01,1.056830139160156250e+02,9.503253936767578125e+01,-3.717447996139526367e+00,4.031498432159423828e-01,-6.667009735107421875e+01,-1.826863250732421875e+02,-2.342245101928710938e+00,7.562065887451171875e+01,3.135675048828125000e+01
3.116109967231750488e-01,1.000000000000000000e+00,-3.630614089965820312e+01,4.460314559936523438e+01,3.080060195922851562e+01,1.056125411987304688e+02,9.505300903320312500e+01,-3.740031003952026367e+00,4.031498432159423828e-01,-6.667009735107421875e+01,-1.826863250732421875e+02,-2.342245101928710938e+00,7.562081146240234375e+01,3.135675048828125000e+01
3.156189918518066406e-01,1.000000000000000000e+00,-3.634555435180664062e+01,4.452554702758789062e+01,3.082217407226562500e+01,1.055426940917968750e+02,9.507295227050781250e+01,-3.761732339859008789e+00,4.031498432159423828e-01,-6.667009735107421875e+01,-1.826863250732421875e+02,-2.342245101928710938e+00,7.562081146240234375e+01,3.135675048828125000e+01
3.195179998874664307e-01,1.000000000000000000e+00,-3.638502502441406250e+01,4.444810485839843750e+01,3.084342002868652344e+01,1.054722671508789062e+02,9.509284210205078125e+01,-3.783501863479614258e+00,4.031498432159423828e-01,-6.667009735107421875e+01,-1.826863250732421875e+02,-2.342245101928710938e+00,7.562081146240234375e+01,3.135675048828125000e+01
3.235740065574645996e-01,1.000000000000000000e+00,-3.642449951171875000e+01,4.437050628662109375e+01,3.086454582214355469e+01,1.054020004272460938e+02,9.511310577392578125e+01,-3.805677652359008789e+00,4.031498432159423828e-01,-6.667009735107421875e+01,-1.826864318847656250e+02,-2.342245101928710938e+00,7.562081146240234375e+01,3.135675048828125000e+01
3.275380134582519531e-01,1.000000000000000000e+00,-3.646428680419921875e+01,4.429295349121093750e+01,3.088581275939941406e+01,1.053311996459960938e+02,9.513378906250000000e+01,-3.828057289123535156e+00,4.031498432159423828e-01,-6.667009735107421875e+01,-1.826863250732421875e+02,-2.342245101928710938e+00,7.562065887451171875e+01,3.135675048828125000e+01
3.315970003604888916e-01,1.000000000000000000e+00,-3.650421905517578125e+01,4.421522140502929688e+01,3.090744590759277344e+01,1.052610473632812500e+02,9.515479278564453125e+01,-3.850504636764526367e+00,4.031498432159423828e-01,-6.667019653320312500e+01,-1.826863250732421875e+02,-2.342245101928710938e+00,7.562081146240234375e+01,3.135675048828125000e+01
3.355309963226318359e-01,1.000000000000000000e+00,-3.654420852661132812e+01,4.413741683959960938e+01,3.092897796630859375e+01,1.051900939941406250e+02,9.517617034912109375e+01,-3.873630523681640625e+00,4.031498432159423828e-01,-6.667009735107421875e+01,-1.826863250732421875e+02,-2.342245101928710938e+00,7.562065887451171875e+01,3.135675048828125000e+01
3.395209908485412598e-01,1.000000000000000000e+00,-3.658411026000976562e+01,4.405948257446289062e+01,3.095056915283203125e+01,1.051197662353515625e+02,9.519707489013671875e+01,-3.896620035171508789e+00,4.031498432159423828e-01,-6.667009735107421875e+01,-1.826863250732421875e+02,-2.342245101928710938e+00,7.562081146240234375e+01,3.135675048828125000e+01
3.435699939727783203e-01,1.000000000000000000e+00,-3.662421417236328125e+01,4.398156738281250000e+01,3.097210121154785156e+01,1.050485000610351562e+02,9.521701812744140625e+01,-3.919135332107543945e+00,4.031498432159423828e-01,-6.667009735107421875e+01,-1.826863250732421875e+02,-2.342245101928710938e+00,7.562081146240234375e+01,3.135675048828125000e+01
3.475939929485321045e-01,1.000000000000000000e+00,-3.666454315185546875e+01,4.390356063842773438e+01,3.099357223510742188e+01,1.049778671264648438e+02,9.523674011230468750e+01,-3.940701246261596680e+00,4.031498432159423828e-01,-6.667009735107421875e+01,-1.826862182617187500e+02,-2.342245101928710938e+00,7.562065887451171875e+01,3.135675048828125000e+01
3.515520095825195312e-01,1.000000000000000000e+00,-3.670490646362304688e+01,4.382548904418945312e+01,3.101524353027343750e+01,1.049070205688476562e+02,9.525668334960937500e+01,-3.962470293045043945e+00,4.031498432159423828e-01,-6.667009735107421875e+01,-1.826863250732421875e+02,-2.342245101928710938e+00,7.562065887451171875e+01,3.135675048828125000e+01
3.555670082569122314e-01,1.000000000000000000e+00,-3.674515533447265625e+01,4.374782180786132812e+01,3.103687858581542969e+01,1.048366470336914062e+02,9.527731323242187500e+01,-3.984849691390991211e+00,4.031498432159423828e-01,-6.667009735107421875e+01,-1.826863250732421875e+02,-2.342316627502441406e+00,7.562081146240234375e+01,3.135675048828125000e+01
3.595550060272216797e-01,1.000000000000000000e+00,-3.678542709350585938e+01,4.367026901245117188e+01,3.105832862854003906e+01,1.047658538818359375e+02,9.529853820800781250e+01,-4.006890296936035156e+00,4.031498432159423828e-01,-6.667009735107421875e+01,-1.826863250732421875e+02,-2.342173099517822266e+00,7.562065887451171875e+01,3.135675048828125000e+01
3.635739982128143311e-01,1.000000000000000000e+00,-3.682590866088867188e+01,4.359300994873046875e+01,3.107988166809082031e+01,1.046951599121093750e+02,9.532012939453125000e+01,-4.029270172119140625e+00,4.031498432159423828e-01,-6.667009735107421875e+01,-1.826863250732421875e+02,-2.342316627502441406e+00,7.562081146240234375e+01,3.135675048828125000e+01
3.675679862499237061e-01,1.000000000000000000e+00,-3.686643981933593750e+01,4.351556777954101562e+01,3.110153388977050781e+01,1.046242141723632812e+02,9.534097290039062500e+01,-4.052395343780517578e+00,4.031498432159423828e-01,-6.667009735107421875e+01,-1.826863250732421875e+02,-2.342173099517822266e+00,7.562065887451171875e+01,3.135675048828125000e+01
3.715490102767944336e-01,1.000000000000000000e+00,-3.690689086914062500e+01,4.343801879882812500e+01,3.112324714660644531e+01,1.045537948608398438e+02,9.536064910888671875e+01,-4.075588703155517578e+00,4.031498432159423828e-01,-6.667009735107421875e+01,-1.826863250732421875e+02,-2.342245101928710938e+00,7.562065887451171875e+01,3.135675048828125000e+01
3.755689859390258789e-01,1.000000000000000000e+00,-3.694750976562500000e+01,4.336030578613281250e+01,3.114490127563476562e+01,1.044825744628906250e+02,9.538069915771484375e+01,-4.098646163940429688e+00,4.031498432159423828e-01,-6.667009735107421875e+01,-1.826863250732421875e+02,-2.342316627502441406e+00,7.562081146240234375e+01,3.135653114318847656e+01
3.797950148582458496e-01,1.000000000000000000e+00,-3.698804473876953125e+01,4.328218841552734375e+01,3.116651153564453125e+01,1.044117813110351562e+02,9.540100860595703125e+01,-4.120890617370605469e+00,4.031498432159423828e-01,-6.667009735107421875e+01,-1.826863250732421875e+02,-2.342245101928710938e+00,7.562081146240234375e+01,3.135675048828125000e+01
3.836719989776611328e-01,1.000000000000000000e+00,-3.702854919433593750e+01,4.320380020141601562e+01,3.118810653686523438e+01,1.043403015136718750e+02,9.542159271240234375e+01,-4.142523765563964844e+00,4.031498432159423828e-01,-6.667019653320312500e+01,-1.826863250732421875e+02,-2.342245101928710938e+00,7.562081146240234375e+01,3.135675048828125000e+01
3.875229954719543457e-01,1.000000000000000000e+00,-3.706893920898437500e+01,4.312540817260742188e+01,3.120977783203125000e+01,1.042694549560546875e+02,9.544281005859375000e+01,-4.165174961090087891e+00,4.031498432159423828e-01,-6.667009735107421875e+01,-1.826863250732421875e+02,-2.342316627502441406e+00,7.562065887451171875e+01,3.135675048828125000e+01
3.917799890041351318e-01,1.000000000000000000e+00,-3.710950088500976562e+01,4.304713058471679688e+01,3.123153495788574219e+01,1.041978149414062500e+02,9.546440124511718750e+01,-4.187554359436035156e+00,4.031498432159423828e-01,-6.667009735107421875e+01,-1.826863250732421875e+02,-2.342245101928710938e+00,7.562065887451171875e+01,3.135675048828125000e+01
3.955560028553009033e-01,1.000000000000000000e+00,-3.715000534057617188e+01,4.296901321411132812e+01,3.125320816040039062e+01,1.041269149780273438e+02,9.548556518554687500e+01,-4.210137367248535156e+00,4.031498432159423828e-01,-6.667009735107421875e+01,-1.826863250732421875e+02,-2.342245101928710938e+00,7.562065887451171875e+01,3.135675048828125000e+01
3.996790051460266113e-01,1.000000000000000000e+00,-3.719048309326171875e+01,4.289125442504882812e+01,3.127502250671386719e+01,1.040553359985351562e+02,9.550561523437500000e+01,-4.233127117156982422e+00,4.031498432159423828e-01,-6.667009735107421875e+01,-1.826863250732421875e+02,-2.342245101928710938e+00,7.562081146240234375e+01,3.135675048828125000e+01
4.042980074882507324e-01,1.000000000000000000e+00,-3.723078918457031250e+01,4.281349945068359375e+01,3.129663658142089844e+01,1.039842758178710938e+02,9.552518463134765625e+01,-4.256320953369140625e+00,4.031498432159423828e-01,-6.667009735107421875e+01,-1.826863250732421875e+02,-2.342245101928710938e+00,7.562088012695312500e+01,3.135675048828125000e+01
4.075570106506347656e-01,1.000000000000000000e+00,-3.727129364013671875e+01,4.273535919189453125e+01,3.131834983825683594e+01,1.039131698608398438e+02,9.554538726806640625e+01,-4.279039382934570312e+00,4.031498432159423828e-01,-6.667009735107421875e+01,-1.826863250732421875e+02,-2.342173099517822266e+00,7.562081146240234375e+01,3.135675048828125000e+01
4.115430116653442383e-01,1.000000000000000000e+00,-3.731182861328125000e+01,4.265697097778320312e+01,3.134018707275390625e+01,1.038422164916992188e+02,9.556601715087890625e+01,-4.301622390747070312e+00,4.031498432159423828e-01,-6.667009735107421875e+01,-1.826863250732421875e+02,-2.342245101928710938e+00,7.562081146240234375e+01,3.135675048828125000e+01
4.159219861030578613e-01,1.000000000000000000e+00,-3.735247421264648438e+01,4.257810592651367188e+01,3.136192321777343750e+01,1.037706298828125000e+02,9.558697509765625000e+01,-4.323730468750000000e+00,4.031498432159423828e-01,-6.667009735107421875e+01,-1.826863250732421875e+02,-2.342316627502441406e+00,7.562081146240234375e+01,3.135697174072265625e+01
4.195559918880462646e-01,1.000000000000000000e+00,-3.739301300048828125e+01,4.249925994873046875e+01,3.138361740112304688e+01,1.036995773315429688e+02,9.560861968994140625e+01,-4.346109867095947266e+00,4.031498432159423828e-01,-6.667009735107421875e+01,-1.826863250732421875e+02,-2.342245101928710938e+00,7.562065887451171875e+01,3.135675048828125000e+01
4.237250089645385742e-01,1.000000000000000000e+00,-3.743357086181640625e+01,4.242021560668945312e+01,3.140549278259277344e+01,1.036281509399414062e+02,9.562968444824218750e+01,-4.368896484375000000e+00,4.031498432159423828e-01,-6.667009735107421875e+01,-1.826863250732421875e+02,-2.342245101928710938e+00,7.562065887451171875e+01,3.135675048828125000e+01
4.275589883327484131e-01,1.000000000000000000e+00,-3.747410583496093750e+01,4.234105682373046875e+01,3.142726898193359375e+01,1.035569839477539062e+02,9.564994049072265625e+01,-4.391547679901123047e+00,4.031498432159423828e-01,-6.667009735107421875e+01,-1.826863250732421875e+02,-2.342245101928710938e+00,7.562065887451171875e+01,3.135653114318847656e+01
4.316070079803466797e-01,1.000000000000000000e+00,-3.751472473144531250e+01,4.226218795776367188e+01,3.144926834106445312e+01,1.034850311279296875e+02,9.566977691650390625e+01,-4.414401531219482422e+00,4.031498432159423828e-01,-6.667009735107421875e+01,-1.826863250732421875e+02,-2.342245101928710938e+00,7.562088012695312500e+01,3.135675048828125000e+01
4.356450140476226807e-01,1.000000000000000000e+00,-3.755531692504882812e+01,4.218346023559570312e+01,3.147116661071777344e+01,1.034134521484375000e+02,9.568992614746093750e+01,-4.438069343566894531e+00,4.031498432159423828e-01,-6.667009735107421875e+01,-1.826863250732421875e+02,-2.342173099517822266e+00,7.562065887451171875e+01,3.135675048828125000e+01
4.401530027389526367e-01,1.000000000000000000e+00,-3.759599304199218750e+01,4.210473251342773438e+01,3.149277687072753906e+01,1.033414459228515625e+02,9.571077728271484375e+01,-4.461534023284912109e+00,4.031498432159423828e-01,-6.667009735107421875e+01,-1.826863250732421875e+02,-2.342245101928710938e+00,7.562081146240234375e+01,3.135675048828125000e+01
4.436210095882415771e-01,1.000000000000000000e+00,-3.763655853271484375e+01,4.202600097656250000e+01,3.151432991027832031e+01,1.032700195312500000e+02,9.573188781738281250e+01,-4.484253406524658203e+00,4.031498432159423828e-01,-6.667009735107421875e+01,-1.826863250732421875e+02,-2.342173099517822266e+00,7.562065887451171875e+01,3.135653114318847656e+01
4.477399885654449463e-01,1.000000000000000000e+00,-3.767697525024414062e+01,4.194715881347656250e+01,3.153600502014160156e+01,1.031983795166015625e+02,9.575374603271484375e+01,-4.506496906280517578e+00,4.031498432159423828e-01,-6.667009735107421875e+01,-1.826863250732421875e+02,-2.342173099517822266e+00,7.562081146240234375e+01,3.135675048828125000e+01
4.525240063667297363e-01,1.000000000000000000e+00,-3.771742630004882812e+01,4.186813354492187500e+01,3.155792045593261719e+01,1.031265335083007812e+02,9.577534484863281250e+01,-4.528740882873535156e+00,4.031498432159423828e-01,-6.667009735107421875e+01,-1.826863250732421875e+02,-2.342316627502441406e+00,7.562065887451171875e+01,3.135653114318847656e+01
4.556080102920532227e-01,1.000000000000000000e+00,-3.775807571411132812e+01,4.178868103027343750e+01,3.157998085021972656e+01,1.030548477172851562e+02,9.579566192626953125e+01,-4.551391601562500000e+00,4.031498432159423828e-01,-6.667009735107421875e+01,-1.826863250732421875e+02,-2.342173099517822266e+00,7.562065887451171875e+01,3.135675048828125000e+01
4.597530066967010498e-01,1.000000000000000000e+00,-3.779877853393554688e+01,4.170902633666992188e+01,3.160187911987304688e+01,1.029830551147460938e+02,9.581565093994140625e+01,-4.574314117431640625e+00,4.031498432159423828e-01,-6.667009735107421875e+01,-1.826863250732421875e+02,-2.342173099517822266e+00,7.562081146240234375e+01,3.135675048828125000e+01
4.645319879055023193e-01,1.000000000000000000e+00,-3.783931350708007812e+01,4.162934494018554688e+01,3.162379646301269531e+01,1.029114685058593750e+02,9.583575439453125000e+01,-4.597371578216552734e+00,4.031498432159423828e-01,-6.667009735107421875e+01,-1.826863250732421875e+02,-2.342245101928710938e+00,7.562081146240234375e+01,3.135675048828125000e+01
4.677279889583587646e-01,1.000000000000000000e+00,-3.787999343872070312e+01,4.154989242553710938e+01,3.164575576782226562e+01,1.028396224975585938e+02,9.585643005371093750e+01,-4.620903968811035156e+00,4.031498432159423828e-01,-6.667009735107421875e+01,-1.826863250732421875e+02,-2.342245101928710938e+00,7.562081146240234375e+01,3.135675048828125000e+01
4.717890024185180664e-01,1.000000000000000000e+00,-3.792072677612304688e+01,4.147089004516601562e+01,3.166775321960449219e+01,1.027675018310546875e+02,9.587786865234375000e+01,-4.644368648529052734e+00,4.031498432159423828e-01,-6.667009735107421875e+01,-1.826863250732421875e+02,-2.342245101928710938e+00,7.562081146240234375e+01,3.135675048828125000e+01
4.765389859676361084e-01,1.000000000000000000e+00,-3.796134948730468750e+01,4.139211654663085938e+01,3.168979263305664062e+01,1.026959228515625000e+02,9.589962005615234375e+01,-4.666748046875000000e+00,4.031498432159423828e-01,-6.667009735107421875e+01,-1.826863250732421875e+02,-2.342245101928710938e+00,7.562065887451171875e+01,3.135675048828125000e+01
4.799329936504364014e-01,1.000000000000000000e+00,-3.800196838378906250e+01,4.131354522705078125e+01,3.171156883239746094e+01,1.026239166259765625e+02,9.592073059082031250e+01,-4.688992023468017578e+00,4.031498432159423828e-01,-6.667009735107421875e+01,-1.826863250732421875e+02,-2.342245101928710938e+00,7.562065887451171875e+01,3.135653114318847656e+01
4.839729964733123779e-01,1.000000000000000000e+00,-3.804264450073242188e+01,4.123465347290039062e+01,3.173320198059082031e+01,1.025516967773437500e+02,9.594147491455078125e+01,-4.711575031280517578e+00,4.031498432159423828e-01,-6.667009735107421875e+01,-1.826863250732421875e+02,-2.342245101928710938e+00,7.562065887451171875e+01,3.135675048828125000e+01
4.864929914474487305e-01,1.000000000000000000e+00,-3.808335113525390625e+01,4.115531539916992188e+01,3.175507926940917969e+01,1.024789581298828125e+02,9.596157836914062500e+01,-4.734565258026123047e+00,4.031498432159423828e-01,-6.667009735107421875e+01,-1.826863250732421875e+02,-2.342173099517822266e+00,7.562081146240234375e+01,3.135675048828125000e+01
4.918499886989593506e-01,1.000000000000000000e+00,-3.812414169311523438e+01,4.107586288452148438e+01,3.177726173400878906e+01,1.024068984985351562e+02,9.598220825195312500e+01,-4.757080554962158203e+00,4.031498432159423828e-01,-6.667009735107421875e+01,-1.826863250732421875e+02,-2.342245101928710938e+00,7.562081146240234375e+01,3.135675048828125000e+01
4.960150122642517090e-01,1.000000000000000000e+00,-3.816487884521484375e+01,4.099607086181640625e+01,3.179948234558105469e+01,1.023348388671875000e+02,9.600284576416015625e+01,-4.779866695404052734e+00,4.031498432159423828e-01,-6.667009735107421875e+01,-1.826863250732421875e+02,-2.342245101928710938e+00,7.562081146240234375e+01,3.135675048828125000e+01
5.011370182037353516e-01,1.000000000000000000e+00,-3.820558547973632812e+01,4.091625213623046875e+01,3.182160568237304688e+01,1.022629928588867188e+02,9.602443695068359375e+01,-4.803466796875000000e+00,4.031498432159423828e-01,-6.667009735107421875e+01,-1.826863250732421875e+02,-2.342245101928710938e+00,7.562065887451171875e+01,3.135675048828125000e+01
5.040320158004760742e-01,1.000000000000000000e+00,-3.824649047851562500e+01,4.083646011352539062e+01,3.184337997436523438e+01,1.021905212402343750e+02,9.604640197753906250e+01,-4.826999187469482422e+00,4.031498432159423828e-01,-6.667001342773437500e+01,-1.826863250732421875e+02,-2.342245101928710938e+00,7.562065887451171875e+01,3.135675048828125000e+01
5.065730214118957520e-01,1.000000000000000000e+00,-3.828717041015625000e+01,4.075704956054687500e+01,3.186519622802734375e+01,1.021185607910156250e+02,9.606799316406250000e+01,-4.849853515625000000e+00,4.031498432159423828e-01,-6.667009735107421875e+01,-1.826863250732421875e+02,-2.342245101928710938e+00,7.562081146240234375e+01,3.135675048828125000e+01
5.127549767494201660e-01,1.000000000000000000e+00,-3.832790374755859375e+01,4.067793655395507812e+01,3.188723373413085938e+01,1.020463485717773438e+02,9.608852386474609375e+01,-4.872165203094482422e+00,4.031498432159423828e-01,-6.667009735107421875e+01,-1.826863250732421875e+02,-2.342173099517822266e+00,7.562065887451171875e+01,3.135675048828125000e+01
5.160560011863708496e-01,1.000000000000000000e+00,-3.836883926391601562e+01,4.059850311279296875e+01,3.190941810607910156e+01,1.019743423461914062e+02,9.610862731933593750e+01,-4.894409656524658203e+00,4.031498432159423828e-01,-6.667019653320312500e+01,-1.826863250732421875e+02,-2.342245101928710938e+00,7.562081146240234375e+01,3.135697174072265625e+01
5.200769901275634766e-01,1.000000000000000000e+00,-3.840980529785156250e+01,4.051900863647460938e+01,3.193157958984375000e+01,1.019016036987304688e+02,9.612893676757812500e+01,-4.917670726776123047e+00,4.031498432159423828e-01,-6.667009735107421875e+01,-1.826863250732421875e+02,-2.342245101928710938e+00,7.562065887451171875e+01,3.135675048828125000e+01
5.242339968681335449e-01,1.000000000000000000e+00,-3.845048141479492188e+01,4.043941879272460938e+01,3.195363998413085938e+01,1.018296432495117188e+02,9.614988708496093750e+01,-4.940660476684570312e+00,4.031498432159423828e-01,-6.667009735107421875e+01,-1.826863250732421875e+02,-2.342173099517822266e+00,7.562081146240234375e+01,3.135675048828125000e+01
5.284519791603088379e-01,1.000000000000000000e+00,-3.849127578735351562e+01,4.035953521728515625e+01,3.197553825378417969e+01,1.017569580078125000e+02,9.617127227783203125e+01,-4.963785648345947266e+00,4.031498432159423828e-01,-6.667009735107421875e+01,-1.826863250732421875e+02,-2.342245101928710938e+00,7.562065887451171875e+01,3.135697174072265625e+01
5.322549939155578613e-01,1.000000000000000000e+00,-3.853226852416992188e+01,4.027931213378906250e+01,3.199771881103515625e+01,1.016845779418945312e+02,9.619323730468750000e+01,-4.986979484558105469e+00,4.031498432159423828e-01,-6.667009735107421875e+01,-1.826863250732421875e+02,-2.342245101928710938e+00,7.562081146240234375e+01,3.135675048828125000e+01
5.369250178337097168e-01,1.000000000000000000e+00,-3.857323455810546875e+01,4.019870376586914062e+01,3.202000045776367188e+01,1.016117324829101562e+02,9.621450805664062500e+01,-5.010986328125000000e+00,4.031498432159423828e-01,-6.667009735107421875e+01,-1.826863250732421875e+02,-2.342245101928710938e+00,7.562081146240234375e+01,3.135653114318847656e+01
5.402730107307434082e-01,1.000000000000000000e+00,-3.861396789550781250e+01,4.011834716796875000e+01,3.204212188720703125e+01,1.015390396118164062e+02,9.623471832275390625e+01,-5.034044265747070312e+00,4.031498432159423828e-01,-6.667009735107421875e+01,-1.826863250732421875e+02,-2.342245101928710938e+00,7.562065887451171875e+01,3.135675048828125000e+01
5.446069836616516113e-01,1.000000000000000000e+00,-3.865478897094726562e+01,4.003802871704101562e+01,3.206416320800781250e+01,1.014664077758789062e+02,9.625518798828125000e+01,-5.056152820587158203e+00,4.031498432159423828e-01,-6.667009735107421875e+01,-1.826863250732421875e+02,-2.342245101928710938e+00,7.562065887451171875e+01,3.135675048828125000e+01
5.496119856834411621e-01,1.000000000000000000e+00,-3.873709106445312500e+01,3.987849044799804688e+01,3.210836410522460938e+01,1.013214416503906250e+02,9.629672241210937500e+01,-5.101521968841552734e+00,4.031498432159423828e-01,-6.667009735107421875e+01,-1.826863250732421875e+02,-2.342245101928710938e+00,7.562065887451171875e+01,3.135675048828125000e+01
5.526270270347595215e-01,1.000000000000000000e+00,-3.873709106445312500e+01,3.987849044799804688e+01,3.210836410522460938e+01,1.013214416503906250e+02,9.629672241210937500e+01,-5.101521968841552734e+00,4.031498432159423828e-01,-6.667009735107421875e+01,-1.826863250732421875e+02,-2.342245101928710938e+00,7.562065887451171875e+01,3.135675048828125000e+01
5.565019845962524414e-01,1.000000000000000000e+00,-3.877817153930664062e+01,3.979872131347656250e+01,3.213071060180664062e+01,1.012487564086914062e+02,9.631820678710937500e+01,-5.124308586120605469e+00,4.031498432159423828e-01,-6.667009735107421875e+01,-1.826863250732421875e+02,-2.342173099517822266e+00,7.562081146240234375e+01,3.135675048828125000e+01
5.610470175743103027e-01,1.000000000000000000e+00,-3.881936645507812500e+01,3.971863174438476562e+01,3.215285110473632812e+01,1.011762771606445312e+02,9.634006500244140625e+01,-5.147569656372070312e+00,4.031498432159423828e-01,-6.667009735107421875e+01,-1.826863250732421875e+02,-2.342245101928710938e+00,7.562081146240234375e+01,3.135675048828125000e+01
5.645390152931213379e-01,1.000000000000000000e+00,-3.886070251464843750e+01,3.963820266723632812e+01,3.217502975463867188e+01,1.011034317016601562e+02,9.636154937744140625e+01,-5.171237468719482422e+00,4.031498432159423828e-01,-6.667009735107421875e+01,-1.826863250732421875e+02,-2.342245101928710938e+00,7.562081146240234375e+01,3.135675048828125000e+01
5.686249732971191406e-01,1.000000000000000000e+00,-3.890192794799804688e+01,3.955775451660156250e+01,3.219713211059570312e+01,1.010305252075195312e+02,9.638208007812500000e+01,-5.194973468780517578e+00,4.031498432159423828e-01,-6.667009735107421875e+01,-1.826863250732421875e+02,-2.342245101928710938e+00,7.562081146240234375e+01,3.135675048828125000e+01
5.734149813652038574e-01,1.000000000000000000e+00,-3.894320678710937500e+01,3.947703552246093750e+01,3.221935653686523438e+01,1.009577865600585938e+02,9.640229034423828125e+01,-5.218438148498535156e+00,4.031498432159423828e-01,-6.667009735107421875e+01,-1.826863250732421875e+02,-2.342245101928710938e+00,7.562065887451171875e+01,3.135675048828125000e+01
5.767390131950378418e-01,1.000000000000000000e+00,-3.898454666137695312e+01,3.939622497558593750e+01,3.224178314208984375e+01,1.008845214843750000e+02,9.642286682128906250e+01,-5.240952968597412109e+00,4.031498432159423828e-01,-6.667009735107421875e+01,-1.826863250732421875e+02,-2.342245101928710938e+00,7.562065887451171875e+01,3.135675048828125000e+01
5.807030200958251953e-01,1.000000000000000000e+00,-3.902614212036132812e+01,3.931566238403320312e+01,3.226416778564453125e+01,1.008116149902343750e+02,9.644387054443359375e+01,-5.263332843780517578e+00,4.031498432159423828e-01,-6.667009735107421875e+01,-1.826863250732421875e+02,-2.342245101928710938e+00,7.562065887451171875e+01,3.135675048828125000e+01
5.853400230407714844e-01,1.000000000000000000e+00,-3.906771087646484375e+01,3.923537063598632812e+01,3.228659057617187500e+01,1.007380752563476562e+02,9.646541595458984375e+01,-5.286729335784912109e+00,4.031498432159423828e-01,-6.667009735107421875e+01,-1.826863250732421875e+02,-2.342173099517822266e+00,7.562065887451171875e+01,3.135675048828125000e+01
5.886030197143554688e-01,1.000000000000000000e+00,-3.910913085937500000e+01,3.915534973144531250e+01,3.230873489379882812e+01,1.006653900146484375e+02,9.648732757568359375e+01,-5.310126304626464844e+00,4.031498432159423828e-01,-6.667009735107421875e+01,-1.826863250732421875e+02,-2.342245101928710938e+00,7.562081146240234375e+01,3.135675048828125000e+01
5.926880240440368652e-01,1.000000000000000000e+00,-3.915067291259765625e+01,3.907503890991210938e+01,3.233091735839843750e+01,1.005917587280273438e+02,9.650871276855468750e+01,-5.333184242248535156e+00,4.031498432159423828e-01,-6.667009735107421875e+01,-1.826863250732421875e+02,-2.342245101928710938e+00,7.562081146240234375e+01,3.135675048828125000e+01
5.973899960517883301e-01,1.000000000000000000e+00,-3.919240951538085938e+01,3.899488067626953125e+01,3.235326004028320312e+01,1.005189590454101562e+02,9.652933502197265625e+01,-5.356716632843017578e+00,4.031498432159423828e-01,-6.667001342773437500e+01,-1.826863250732421875e+02,-2.342245101928710938e+00,7.562081146240234375e+01,3.135675048828125000e+01
6.004809737205505371e-01,1.000000000000000000e+00,-3.923411941528320312e+01,3.891447830200195312e+01,3.237544250488281250e+01,1.004457397460937500e+02,9.654965209960937500e+01,-5.380588531494140625e+00,4.031498432159423828e-01,-6.667009735107421875e+01,-1.826863250732421875e+02,-2.342245101928710938e+00,7.562065887451171875e+01,3.135675048828125000e+01
6.034770011901855469e-01,1.000000000000000000e+00,-3.927577209472656250e+01,3.883359909057617188e+01,3.239764404296875000e+01,1.003727874755859375e+02,9.657044982910156250e+01,-5.403917312622070312e+00,4.031498432159423828e-01,-6.667001342773437500e+01,-1.826863250732421875e+02,-2.342245101928710938e+00,7.562081146240234375e+01,3.135675048828125000e+01
6.093729734420776367e-01,1.000000000000000000e+00,-3.931748580932617188e+01,3.875238037109375000e+01,3.241998672485351562e+01,1.002994079589843750e+02,9.659177398681640625e+01,-5.426568031311035156e+00,4.031498432159423828e-01,-6.667009735107421875e+01,-1.826863250732421875e+02,-2.342245101928710938e+00,7.562065887451171875e+01,3.135675048828125000e+01
6.115620136260986328e-01,1.000000000000000000e+00,-3.935928344726562500e+01,3.867116165161132812e+01,3.244243621826171875e+01,1.002264556884765625e+02,9.661352539062500000e+01,-5.449151039123535156e+00,4.031498432159423828e-01,-6.667009735107421875e+01,-1.826863250732421875e+02,-2.342245101928710938e+00,7.562081146240234375e+01,3.135675048828125000e+01
6.155359745025634766e-01,1.000000000000000000e+00,-3.940113830566406250e+01,3.858996582031250000e+01,3.246494293212890625e+01,1.001527633666992188e+02,9.663559722900390625e+01,-5.472683429718017578e+00,4.031498432159423828e-01,-6.667009735107421875e+01,-1.826863250732421875e+02,-2.342173099517822266e+00,7.562065887451171875e+01,3.135675048828125000e+01
6.194630265235900879e-01,1.000000000000000000e+00,-3.944282150268554688e+01,3.850908660888671875e+01,3.248740768432617188e+01,1.000797653198242188e+02,9.665718841552734375e+01,-5.496419429779052734e+00,4.031498432159423828e-01,-6.667009735107421875e+01,-1.826863250732421875e+02,-2.342316627502441406e+00,7.562081146240234375e+01,3.135675048828125000e+01
6.234610080718994141e-01,1.000000000000000000e+00,-3.948453140258789062e+01,3.842861557006835938e+01,3.250967407226562500e+01,1.000058059692382812e+02,9.667771911621093750e+01,-5.519680500030517578e+00,4.031498432159423828e-01,-6.667009735107421875e+01,-1.826863250732421875e+02,-2.342173099517822266e+00,7.562065887451171875e+01,3.135675048828125000e+01
6.275479793548583984e-01,1.000000000000000000e+00,-3.952635574340820312e+01,3.834825515747070312e+01,3.253179550170898438e+01,9.993254089355468750e+01,9.669802856445312500e+01,-5.543416500091552734e+00,4.031498432159423828e-01,-6.667009735107421875e+01,-1.826863250732421875e+02,-2.342245101928710938e+00,7.562081146240234375e+01,3.135653114318847656e+01
6.314640045166015625e-01,1.000000000000000000e+00,-3.956800842285156250e+01,3.826757812500000000e+01,3.255417633056640625e+01,9.985826873779296875e+01,9.671882629394531250e+01,-5.567559242248535156e+00,4.031498432159423828e-01,-6.667009735107421875e+01,-1.826863250732421875e+02,-2.342245101928710938e+00,7.562065887451171875e+01,3.135675048828125000e+01
6.355260014533996582e-01,1.000000000000000000e+00,-3.960983657836914062e+01,3.818640518188476562e+01,3.257662582397460938e+01,9.978500366210937500e+01,9.674031066894531250e+01,-5.591362953186035156e+00,4.031498432159423828e-01,-6.667009735107421875e+01,-1.826863250732421875e+02,-2.342173099517822266e+00,7.562065887451171875e+01,3.135675048828125000e+01
6.395239830017089844e-01,1.000000000000000000e+00,-3.965169143676757812e+01,3.810512161254882812e+01,3.259907150268554688e+01,9.971109771728515625e+01,9.676216888427734375e+01,-5.614013671875000000e+00,4.031498432159423828e-01,-6.667009735107421875e+01,-1.826863250732421875e+02,-2.342173099517822266e+00,7.562081146240234375e+01,3.135675048828125000e+01
6.435019969940185547e-01,1.000000000000000000e+00,-3.969357299804687500e+01,3.802362823486328125e+01,3.262157821655273438e+01,9.963766479492187500e+01,9.678434753417968750e+01,-5.636732578277587891e+00,4.031498432159423828e-01,-6.667009735107421875e+01,-1.826863250732421875e+02,-2.342245101928710938e+00,7.562065887451171875e+01,3.135675048828125000e+01
6.476500034332275391e-01,1.000000000000000000e+00,-3.973542785644531250e+01,3.794182205200195312e+01,3.264396286010742188e+01,9.956371307373046875e+01,9.680572509765625000e+01,-5.660061359405517578e+00,4.031498432159423828e-01,-6.667009735107421875e+01,-1.826863250732421875e+02,-2.342316627502441406e+00,7.562065887451171875e+01,3.135675048828125000e+01
6.514570116996765137e-01,1.000000000000000000e+00,-3.977734375000000000e+01,3.786024093627929688e+01,3.266654968261718750e+01,9.949044036865234375e+01,9.682636260986328125e+01,-5.683526039123535156e+00,4.031498432159423828e-01,-6.667009735107421875e+01,-1.826863250732421875e+02,-2.342316627502441406e+00,7.562081146240234375e+01,3.135675048828125000e+01
6.555250287055969238e-01,1.000000000000000000e+00,-3.981913757324218750e+01,3.777895355224609375e+01,3.268904113769531250e+01,9.941664886474609375e+01,9.684699249267578125e+01,-5.707126617431640625e+00,4.031498432159423828e-01,-6.667009735107421875e+01,-1.826863250732421875e+02,-2.342245101928710938e+00,7.562051391601562500e+01,3.135675048828125000e+01
6.594610214233398438e-01,1.000000000000000000e+00,-3.986093521118164062e+01,3.769803237915039062e+01,3.271134567260742188e+01,9.934259033203125000e+01,9.686811065673828125e+01,-5.731472492218017578e+00,4.031498432159423828e-01,-6.667009735107421875e+01,-1.826863250732421875e+02,-2.342316627502441406e+00,7.562065887451171875e+01,3.135675048828125000e+01
6.634770035743713379e-01,1.000000000000000000e+00,-3.990275955200195312e+01,3.761690139770507812e+01,3.273377227783203125e+01,9.926868438720703125e+01,9.688975524902343750e+01,-5.755954742431640625e+00,4.031498432159423828e-01,-6.667009735107421875e+01,-1.826863250732421875e+02,-2.342245101928710938e+00,7.562065887451171875e+01,3.135675048828125000e+01
6.675289869308471680e-01,1.000000000000000000e+00,-3.994470214843750000e+01,3.753572845458984375e+01,3.275623703002929688e+01,9.919499206542968750e+01,9.691209411621093750e+01,-5.779215812683105469e+00,4.031498432159423828e-01,-6.667009735107421875e+01,-1.826863250732421875e+02,-2.342245101928710938e+00,7.562081146240234375e+01,3.135675048828125000e+01
6.715040206909179688e-01,1.000000000000000000e+00,-3.998658370971679688e+01,3.745433044433593750e+01,3.277890777587890625e+01,9.912083435058593750e+01,9.693422698974609375e+01,-5.801934242248535156e+00,4.031498432159423828e-01,-6.667009735107421875e+01,-1.826863250732421875e+02,-2.342245101928710938e+00,7.562081146240234375e+01,3.135675048828125000e+01
6.754670143127441406e-01,1.000000000000000000e+00,-4.002849960327148438e+01,3.737258911132812500e+01,3.280157852172851562e+01,9.904629516601562500e+01,9.695571136474609375e+01,-5.824720859527587891e+00,4.031498432159423828e-01,-6.667009735107421875e+01,-1.826863250732421875e+02,-2.342245101928710938e+00,7.562065887451171875e+01,3.135675048828125000e+01
6.795279979705810547e-01,1.000000000000000000e+00,-4.007017898559570312e+01,3.729064559936523438e+01,3.282412338256835938e+01,9.897181701660156250e+01,9.697608184814453125e+01,-5.848320960998535156e+00,4.031498432159423828e-01,-6.667009735107421875e+01,-1.826863250732421875e+02,-2.342245101928710938e+00,7.562065887451171875e+01,3.135697174072265625e+01
6.835139989852905273e-01,1.000000000000000000e+00,-4.011228942871093750e+01,3.720838546752929688e+01,3.284659194946289062e+01,9.889791870117187500e+01,9.699670410156250000e+01,-5.871785640716552734e+00,4.031498432159423828e-01,-6.667009735107421875e+01,-1.826863250732421875e+02,-2.342316627502441406e+00,7.562081146240234375e+01,3.135675048828125000e+01
6.875410079956054688e-01,1.000000000000000000e+00,-4.015408706665039062e+01,3.712641906738281250e+01,3.286920166015625000e+01,9.882411956787109375e+01,9.701787567138671875e+01,-5.895725250244140625e+00,4.031498432159423828e-01,-6.667009735107421875e+01,-1.826863250732421875e+02,-2.342316627502441406e+00,7.562065887451171875e+01,3.135675048828125000e+01
6.915789842605590820e-01,1.000000000000000000e+00,-4.019611358642578125e+01,3.704463577270507812e+01,3.289178848266601562e+01,9.874974060058593750e+01,9.703973388671875000e+01,-5.919393062591552734e+00,4.031498432159423828e-01,-6.667009735107421875e+01,-1.826863250732421875e+02,-2.342245101928710938e+00,7.562065887451171875e+01,3.135675048828125000e+01
6.955069899559020996e-01,1.000000000000000000e+00,-4.023814392089843750e+01,3.696312332153320312e+01,3.291455841064453125e+01,9.867562866210937500e+01,9.706201934814453125e+01,-5.943738937377929688e+00,4.031498432159423828e-01,-6.667009735107421875e+01,-1.826863250732421875e+02,-2.342245101928710938e+00,7.562081146240234375e+01,3.135675048828125000e+01
6.995239853858947754e-01,1.000000000000000000e+00,-4.028028106689453125e+01,3.688192749023437500e+01,3.293710708618164062e+01,9.860140991210937500e+01,9.708393096923828125e+01,-5.967000484466552734e+00,4.031498432159423828e-01,-6.667009735107421875e+01,-1.826863250732421875e+02,-2.342245101928710938e+00,7.562081146240234375e+01,3.135653114318847656e+01
7.034739851951599121e-01,1.000000000000000000e+00,-4.032233810424804688e+01,3.680045700073242188e+01,3.295967483520507812e+01,9.852751159667968750e+01,9.710510253906250000e+01,-5.989922523498535156e+00,4.031498432159423828e-01,-6.667009735107421875e+01,-1.826863250732421875e+02,-2.342245101928710938e+00,7.562065887451171875e+01,3.135675048828125000e+01
7.074699997901916504e-01,1.000000000000000000e+00,-4.036456680297851562e+01,3.671867370605468750e+01,3.298222732543945312e+01,9.845313262939453125e+01,9.712546539306640625e+01,-6.013048171997070312e+00,4.031498432159423828e-01,-6.667009735107421875e+01,-1.826863250732421875e+02,-2.342316627502441406e+00,7.562081146240234375e+01,3.135653114318847656e+01
7.115439772605895996e-01,1.000000000000000000e+00,-4.040673828125000000e+01,3.663668823242187500e+01,3.300499725341796875e+01,9.837886047363281250e+01,9.714673614501953125e+01,-6.036716461181640625e+00,4.031498432159423828e-01,-6.667009735107421875e+01,-1.826863250732421875e+02,-2.342245101928710938e+00,7.562081146240234375e+01,3.135675048828125000e+01
7.155089974403381348e-01,1.000000000000000000e+00,-4.044899368286132812e+01,3.655438232421875000e+01,3.302778625488281250e+01,9.830417633056640625e+01,9.716838836669921875e+01,-6.060520172119140625e+00,4.031498432159423828e-01,-6.667009735107421875e+01,-1.826863250732421875e+02,-2.342316627502441406e+00,7.562081146240234375e+01,3.135697174072265625e+01
7.195060253143310547e-01,1.000000000000000000e+00,-4.049110794067382812e+01,3.647196578979492188e+01,3.305035781860351562e+01,9.822995758056640625e+01,9.719013977050781250e+01,-6.084459304809570312e+00,4.031498432159423828e-01,-6.667009735107421875e+01,-1.826863250732421875e+02,-2.342316627502441406e+00,7.562081146240234375e+01,3.135675048828125000e+01
7.234820127487182617e-01,1.000000000000000000e+00,-4.053333282470703125e+01,3.638938522338867188e+01,3.307292556762695312e+01,9.815479278564453125e+01,9.721237945556640625e+01,-6.108330726623535156e+00,4.031498432159423828e-01,-6.667009735107421875e+01,-1.826863250732421875e+02,-2.342245101928710938e+00,7.562065887451171875e+01,3.135675048828125000e+01
7.275500297546386719e-01,1.000000000000000000e+00,-4.057576370239257812e+01,3.630728530883789062e+01,3.309567642211914062e+01,9.808009338378906250e+01,9.723471069335937500e+01,-6.132541179656982422e+00,4.031498432159423828e-01,-6.667009735107421875e+01,-1.826863250732421875e+02,-2.342245101928710938e+00,7.562081146240234375e+01,3.135675048828125000e+01
7.314689755439758301e-01,1.000000000000000000e+00,-4.061830520629882812e+01,3.622554397583007812e+01,3.311854934692382812e+01,9.800550842285156250e+01,9.725572204589843750e+01,-6.156005859375000000e+00,4.031498432159423828e-01,-6.667009735107421875e+01,-1.826863250732421875e+02,-2.342245101928710938e+00,7.562081146240234375e+01,3.135675048828125000e+01
7.365289926528930664e-01,1.000000000000000000e+00,-4.061830520629882812e+01,3.622554397583007812e+01,3.311854934692382812e+01,9.800550842285156250e+01,9.725572204589843750e+01,-6.156005859375000000e+00,4.031498432159423828e-01,-6.667009735107421875e+01,-1.826863250732421875e+02,-2.342245101928710938e+00,7.562065887451171875e+01,3.135675048828125000e+01
7.395340204238891602e-01,1.000000000000000000e+00,-4.070313644409179688e+01,3.606167984008789062e+01,3.316403198242187500e+01,9.785655212402343750e+01,9.729725646972656250e+01,-6.202121257781982422e+00,4.031498432159423828e-01,-6.667009735107421875e+01,-1.826863250732421875e+02,-2.342245101928710938e+00,7.562065887451171875e+01,3.135675048828125000e+01
7.445499897003173828e-01,1.000000000000000000e+00,-4.070313644409179688e+01,3.606167984008789062e+01,3.316403198242187500e+01,9.785655212402343750e+01,9.729725646972656250e+01,-6.202121257781982422e+00,4.031498432159423828e-01,-6.667009735107421875e+01,-1.826863250732421875e+02,-2.342245101928710938e+00,7.562065887451171875e+01,3.135675048828125000e+01
7.475180029869079590e-01,1.000000000000000000e+00,-4.078816604614257812e+01,3.589686965942382812e+01,3.320908737182617188e+01,9.770706176757812500e+01,9.734086608886718750e+01,-6.249457359313964844e+00,4.031498432159423828e-01,-6.667009735107421875e+01,-1.826863250732421875e+02,-2.342245101928710938e+00,7.562065887451171875e+01,3.135675048828125000e+01
7.525150179862976074e-01,1.000000000000000000e+00,-4.083056259155273438e+01,3.581420135498046875e+01,3.323214340209960938e+01,9.763253021240234375e+01,9.736347198486328125e+01,-6.273600578308105469e+00,4.031498432159423828e-01,-6.667009735107421875e+01,-1.826863250732421875e+02,-2.342245101928710938e+00,7.562065887451171875e+01,3.135653114318847656e+01
7.557839751243591309e-01,1.000000000000000000e+00,-4.087305068969726562e+01,3.573115158081054688e+01,3.325501632690429688e+01,9.755757141113281250e+01,9.738527679443359375e+01,-6.297811031341552734e+00,4.031498432159423828e-01,-6.667009735107421875e+01,-1.826863250732421875e+02,-2.342173099517822266e+00,7.562065887451171875e+01,3.135675048828125000e+01
7.594739794731140137e-01,1.000000000000000000e+00,-4.091574096679687500e+01,3.564814376831054688e+01,3.327796936035156250e+01,9.748271942138671875e+01,9.740638732910156250e+01,-6.322495937347412109e+00,4.031498432159423828e-01,-6.667009735107421875e+01,-1.826863250732421875e+02,-2.342245101928710938e+00,7.562065887451171875e+01,3.135675048828125000e+01
7.645230293273925781e-01,1.000000000000000000e+00,-4.091574096679687500e+01,3.564814376831054688e+01,3.327796936035156250e+01,9.748271942138671875e+01,9.740638732910156250e+01,-6.322495937347412109e+00,4.031498432159423828e-01,-6.667009735107421875e+01,-1.826863250732421875e+02,-2.342245101928710938e+00,7.562065887451171875e+01,3.135675048828125000e+01
7.680349946022033691e-01,1.000000000000000000e+00,-4.100077056884765625e+01,3.548303604125976562e+01,3.332341384887695312e+01,9.733238983154296875e+01,9.744845581054687500e+01,-6.369086742401123047e+00,4.031498432159423828e-01,-6.667009735107421875e+01,-1.826863250732421875e+02,-2.342245101928710938e+00,7.562081146240234375e+01,3.135675048828125000e+01
7.714660167694091797e-01,1.000000000000000000e+00,-4.104325103759765625e+01,3.540093612670898438e+01,3.334634780883789062e+01,9.725701141357421875e+01,9.747020721435546875e+01,-6.392415523529052734e+00,4.031498432159423828e-01,-6.667009735107421875e+01,-1.826863250732421875e+02,-2.342245101928710938e+00,7.562065887451171875e+01,3.135675048828125000e+01
7.755720019340515137e-01,1.000000000000000000e+00,-4.104325103759765625e+01,3.540093612670898438e+01,3.334634780883789062e+01,9.725701141357421875e+01,9.747020721435546875e+01,-6.392415523529052734e+00,4.031498432159423828e-01,-6.667009735107421875e+01,-1.826863250732421875e+02,-2.342245101928710938e+00,7.562065887451171875e+01,3.135675048828125000e+01
7.795199751853942871e-01,1.000000000000000000e+00,-4.108573913574218750e+01,3.531853866577148438e+01,3.336915969848632812e+01,9.718199920654296875e+01,9.749297332763671875e+01,-6.417100906372070312e+00,4.031498432159423828e-01,-6.667009735107421875e+01,-1.826863250732421875e+02,-2.342316627502441406e+00,7.562065887451171875e+01,3.135675048828125000e+01
7.835670113563537598e-01,1.000000000000000000e+00,-4.112837219238281250e+01,3.523578262329101562e+01,3.339186859130859375e+01,9.710662841796875000e+01,9.751564025878906250e+01,-6.440904617309570312e+00,4.031498432159423828e-01,-6.667009735107421875e+01,-1.826863250732421875e+02,-2.342245101928710938e+00,7.562065887451171875e+01,3.135675048828125000e+01
7.875789999961853027e-01,1.000000000000000000e+00,-4.117085266113281250e+01,3.515266036987304688e+01,3.341464233398437500e+01,9.703162384033203125e+01,9.753722381591796875e+01,-6.465183258056640625e+00,4.031498432159423828e-01,-6.667009735107421875e+01,-1.826863250732421875e+02,-2.342245101928710938e+00,7.562081146240234375e+01,3.135675048828125000e+01
7.915130257606506348e-01,1.000000000000000000e+00,-4.121342849731445312e+01,3.506949615478515625e+01,3.343761444091796875e+01,9.695661163330078125e+01,9.755812835693359375e+01,-6.489800453186035156e+00,4.031498432159423828e-01,-6.667009735107421875e+01,-1.826863250732421875e+02,-2.342245101928710938e+00,7.562065887451171875e+01,3.135675048828125000e+01
7.955030202865600586e-01,1.000000000000000000e+00,-4.125588607788085938e+01,3.498590087890625000e+01,3.346087646484375000e+01,9.688155364990234375e+01,9.757907867431640625e+01,-6.514078617095947266e+00,4.031498432159423828e-01,-6.667009735107421875e+01,-1.826863250732421875e+02,-2.342316627502441406e+00,7.562081146240234375e+01,3.135675048828125000e+01
7.995870113372802734e-01,1.000000000000000000e+00,-4.129816818237304688e+01,3.490242004394531250e+01,3.348395156860351562e+01,9.680633544921875000e+01,9.760046386718750000e+01,-6.537136554718017578e+00,4.031498432159423828e-01,-6.667009735107421875e+01,-1.826863250732421875e+02,-2.342245101928710938e+00,7.562081146240234375e+01,3.135675048828125000e+01
8.035119771957397461e-01,1.000000000000000000e+00,-4.134057235717773438e+01,3.481943893432617188e+01,3.350678253173828125e+01,9.673095703125000000e+01,9.762263488769531250e+01,-6.560804843902587891e+00,4.031498432159423828e-01,-6.667009735107421875e+01,-1.826863250732421875e+02,-2.342245101928710938e+00,7.562065887451171875e+01,3.135675048828125000e+01
8.075309991836547852e-01,1.000000000000000000e+00,-4.138331222534179688e+01,3.473679351806640625e+01,3.352953720092773438e+01,9.665557861328125000e+01,9.764535522460937500e+01,-6.584811687469482422e+00,4.031498432159423828e-01,-6.667009735107421875e+01,-1.826863250732421875e+02,-2.342245101928710938e+00,7.562065887451171875e+01,3.135675048828125000e+01
8.115569949150085449e-01,1.000000000000000000e+00,-4.142576980590820312e+01,3.465392303466796875e+01,3.355234909057617188e+01,9.657994079589843750e+01,9.766790771484375000e+01,-6.608751296997070312e+00,4.031498432159423828e-01,-6.667009735107421875e+01,-1.826863250732421875e+02,-2.342316627502441406e+00,7.562065887451171875e+01,3.135675048828125000e+01
8.155590295791625977e-01,1.000000000000000000e+00,-4.146837234497070312e+01,3.457109451293945312e+01,3.357550811767578125e+01,9.650446319580078125e+01,9.768944549560546875e+01,-6.633165359497070312e+00,4.031498432159423828e-01,-6.667009735107421875e+01,-1.826863250732421875e+02,-2.342173099517822266e+00,7.562081146240234375e+01,3.135697174072265625e+01
8.195160031318664551e-01,1.000000000000000000e+00,-4.151062774658203125e+01,3.448808670043945312e+01,3.359856033325195312e+01,9.642845153808593750e+01,9.771045684814453125e+01,-6.657850742340087891e+00,4.031498432159423828e-01,-6.667009735107421875e+01,-1.826863250732421875e+02,-2.342245101928710938e+00,7.562081146240234375e+01,3.135675048828125000e+01
8.235059976577758789e-01,1.000000000000000000e+00,-4.155308532714843750e+01,3.440472030639648438e+01,3.362160110473632812e+01,9.635292053222656250e+01,9.773171997070312500e+01,-6.682739734649658203e+00,4.031498432159423828e-01,-6.667009735107421875e+01,-1.826863250732421875e+02,-2.342245101928710938e+00,7.562081146240234375e+01,3.135675048828125000e+01
8.275210261344909668e-01,1.000000000000000000e+00,-4.159560394287109375e+01,3.432117080688476562e+01,3.364457321166992188e+01,9.627717590332031250e+01,9.775358581542968750e+01,-6.706678867340087891e+00,4.031498432159423828e-01,-6.667009735107421875e+01,-1.826863250732421875e+02,-2.342245101928710938e+00,7.562081146240234375e+01,3.135675048828125000e+01
8.315029740333557129e-01,1.000000000000000000e+00,-4.163811874389648438e+01,3.423732757568359375e+01,3.366754913330078125e+01,9.620163726806640625e+01,9.777619171142578125e+01,-6.730550289154052734e+00,4.031498432159423828e-01,-6.667009735107421875e+01,-1.826863250732421875e+02,-2.342316627502441406e+00,7.562065887451171875e+01,3.135675048828125000e+01
8.355619907379150391e-01,1.000000000000000000e+00,-4.168083190917968750e+01,3.415350341796875000e+01,3.369078445434570312e+01,9.612541961669921875e+01,9.779906463623046875e+01,-6.754014492034912109e+00,4.031498432159423828e-01,-6.667009735107421875e+01,-1.826863250732421875e+02,-2.342245101928710938e+00,7.562065887451171875e+01,3.135675048828125000e+01
8.395270109176635742e-01,1.000000000000000000e+00,-4.172331619262695312e+01,3.407006835937500000e+01,3.371384429931640625e+01,9.605009460449218750e+01,9.782118988037109375e+01,-6.777547359466552734e+00,4.031498432159423828e-01,-6.667009735107421875e+01,-1.826863250732421875e+02,-2.342245101928710938e+00,7.562081146240234375e+01,3.135653114318847656e+01
8.435009717941284180e-01,1.000000000000000000e+00,-4.176606369018554688e+01,3.398696899414062500e+01,3.373683929443359375e+01,9.597456359863281250e+01,9.784241485595703125e+01,-6.802232742309570312e+00,4.031498432159423828e-01,-6.667009735107421875e+01,-1.826863250732421875e+02,-2.342173099517822266e+00,7.562065887451171875e+01,3.135675048828125000e+01
8.475649952888488770e-01,1.000000000000000000e+00,-4.180880737304687500e+01,3.390416717529296875e+01,3.375983428955078125e+01,9.589839172363281250e+01,9.786347198486328125e+01,-6.826714515686035156e+00,4.031498432159423828e-01,-6.667009735107421875e+01,-1.826863250732421875e+02,-2.342245101928710938e+00,7.562065887451171875e+01,3.135675048828125000e+01
8.515279889106750488e-01,1.000000000000000000e+00,-4.185158157348632812e+01,3.382109451293945312e+01,3.378295135498046875e+01,9.582227325439453125e+01,9.788452911376953125e+01,-6.851603031158447266e+00,4.031498432159423828e-01,-6.667009735107421875e+01,-1.826863250732421875e+02,-2.342245101928710938e+00,7.562065887451171875e+01,3.135675048828125000e+01
8.554999828338623047e-01,1.000000000000000000e+00,-4.189452743530273438e+01,3.373756790161132812e+01,3.380609130859375000e+01,9.574668884277343750e+01,9.790644073486328125e+01,-6.876017093658447266e+00,4.031498432159423828e-01,-6.667009735107421875e+01,-1.826863250732421875e+02,-2.342245101928710938e+00,7.562065887451171875e+01,3.135675048828125000e+01
8.595749735832214355e-01,1.000000000000000000e+00,-4.193769836425781250e+01,3.365383911132812500e+01,3.382926940917968750e+01,9.567057800292968750e+01,9.792921447753906250e+01,-6.900092601776123047e+00,4.031498432159423828e-01,-6.667009735107421875e+01,-1.826863250732421875e+02,-2.342245101928710938e+00,7.562065887451171875e+01,3.135675048828125000e+01
8.648869991302490234e-01,1.000000000000000000e+00,-4.198076248168945312e+01,3.356987762451171875e+01,3.385232543945312500e+01,9.559383392333984375e+01,9.795207977294921875e+01,-6.923692703247070312e+00,4.031498432159423828e-01,-6.667009735107421875e+01,-1.826863250732421875e+02,-2.342316627502441406e+00,7.562065887451171875e+01,3.135653114318847656e+01
8.678640127182006836e-01,1.000000000000000000e+00,-4.206728363037109375e+01,3.340135192871093750e+01,3.389847946166992188e+01,9.544139099121093750e+01,9.799478912353515625e+01,-6.971367835998535156e+00,4.031498432159423828e-01,-6.667009735107421875e+01,-1.826863250732421875e+02,-2.342245101928710938e+00,7.562065887451171875e+01,3.135675048828125000e+01
8.715040087699890137e-01,1.000000000000000000e+00,-4.206728363037109375e+01,3.340135192871093750e+01,3.389847946166992188e+01,9.544139099121093750e+01,9.799478912353515625e+01,-6.971367835998535156e+00,4.031498432159423828e-01,-6.667009735107421875e+01,-1.826863250732421875e+02,-2.342245101928710938e+00,7.562065887451171875e+01,3.135675048828125000e+01
8.755059838294982910e-01,1.000000000000000000e+00,-4.211048507690429688e+01,3.331760025024414062e+01,3.392159652709960938e+01,9.536564636230468750e+01,9.801632690429687500e+01,-6.995646476745605469e+00,4.031498432159423828e-01,-6.667009735107421875e+01,-1.826863250732421875e+02,-2.342245101928710938e+00,7.562081146240234375e+01,3.135675048828125000e+01
8.795840144157409668e-01,1.000000000000000000e+00,-4.215397644042968750e+01,3.323407363891601562e+01,3.394489288330078125e+01,9.528910827636718750e+01,9.803818511962890625e+01,-7.020399570465087891e+00,4.031498432159423828e-01,-6.667009735107421875e+01,-1.826863250732421875e+02,-2.342316627502441406e+00,7.562065887451171875e+01,3.135653114318847656e+01
8.835089802742004395e-01,1.000000000000000000e+00,-4.219729614257812500e+01,3.315034484863281250e+01,3.396809005737304688e+01,9.521315002441406250e+01,9.806047058105468750e+01,-7.045355796813964844e+00,4.031498432159423828e-01,-6.667009735107421875e+01,-1.826863250732421875e+02,-2.342245101928710938e+00,7.562081146240234375e+01,3.135675048828125000e+01
8.878099918365478516e-01,1.000000000000000000e+00,-4.224078750610351562e+01,3.306658935546875000e+01,3.399131011962890625e+01,9.513667297363281250e+01,9.808371734619140625e+01,-7.069566249847412109e+00,4.031498432159423828e-01,-6.667009735107421875e+01,-1.826863250732421875e+02,-2.342316627502441406e+00,7.562065887451171875e+01,3.135675048828125000e+01
8.924729824066162109e-01,1.000000000000000000e+00,-4.232788467407226562e+01,3.289824676513671875e+01,3.403766632080078125e+01,9.498423004150390625e+01,9.812786865234375000e+01,-7.117106437683105469e+00,4.031498432159423828e-01,-6.667019653320312500e+01,-1.826863250732421875e+02,-2.342173099517822266e+00,7.562081146240234375e+01,3.135675048828125000e+01
8.956779837608337402e-01,1.000000000000000000e+00,-4.232788467407226562e+01,3.289824676513671875e+01,3.403766632080078125e+01,9.498423004150390625e+01,9.812786865234375000e+01,-7.117106437683105469e+00,4.031498432159423828e-01,-6.667019653320312500e+01,-1.826863250732421875e+02,-2.342173099517822266e+00,7.562081146240234375e+01,3.135675048828125000e+01
8.995159864425659180e-01,1.000000000000000000e+00,-4.237137603759765625e+01,3.281336212158203125e+01,3.406090545654296875e+01,9.490795898437500000e+01,9.814907836914062500e+01,-7.141384601593017578e+00,4.031498432159423828e-01,-6.667009735107421875e+01,-1.826863250732421875e+02,-2.342245101928710938e+00,7.562081146240234375e+01,3.135675048828125000e+01
9.035750031471252441e-01,1.000000000000000000e+00,-4.241489410400390625e+01,3.272822952270507812e+01,3.408416748046875000e+01,9.483084869384765625e+01,9.817051696777343750e+01,-7.165730953216552734e+00,4.031498432159423828e-01,-6.667009735107421875e+01,-1.826863250732421875e+02,-2.342245101928710938e+00,7.562081146240234375e+01,3.135653114318847656e+01
9.075739979743957520e-01,1.000000000000000000e+00,-4.245867156982421875e+01,3.264340972900390625e+01,3.410766983032226562e+01,9.475483703613281250e+01,9.819248199462890625e+01,-7.190076828002929688e+00,4.031498432159423828e-01,-6.667009735107421875e+01,-1.826863250732421875e+02,-2.342316627502441406e+00,7.562065887451171875e+01,3.135675048828125000e+01
9.119110107421875000e-01,1.000000000000000000e+00,-4.250225067138671875e+01,3.255886840820312500e+01,3.413111495971679688e+01,9.467740631103515625e+01,9.821519470214843750e+01,-7.215372562408447266e+00,4.031498432159423828e-01,-6.667009735107421875e+01,-1.826863250732421875e+02,-2.342245101928710938e+00,7.562081146240234375e+01,3.135697174072265625e+01
9.174699783325195312e-01,1.000000000000000000e+00,-4.254574203491210938e+01,3.247492980957031250e+01,3.415435409545898438e+01,9.460124206542968750e+01,9.823838806152343750e+01,-7.240057945251464844e+00,4.031498432159423828e-01,-6.667009735107421875e+01,-1.826863250732421875e+02,-2.342316627502441406e+00,7.562065887451171875e+01,3.135675048828125000e+01
9.201740026473999023e-01,1.000000000000000000e+00,-4.263303756713867188e+01,3.230676651000976562e+01,3.420066833496093750e+01,9.444779968261718750e+01,9.828200531005859375e+01,-7.287665843963623047e+00,4.031498432159423828e-01,-6.667009735107421875e+01,-1.826863250732421875e+02,-2.342173099517822266e+00,7.562065887451171875e+01,3.135675048828125000e+01
9.235039949417114258e-01,1.000000000000000000e+00,-4.263303756713867188e+01,3.230676651000976562e+01,3.420066833496093750e+01,9.444779968261718750e+01,9.828200531005859375e+01,-7.287665843963623047e+00,4.031498432159423828e-01,-6.667009735107421875e+01,-1.826863250732421875e+02,-2.342173099517822266e+00,7.562065887451171875e+01,3.135675048828125000e+01
9.276239871978759766e-01,1.000000000000000000e+00,-4.267652893066406250e+01,3.222206497192382812e+01,3.422404861450195312e+01,9.437105560302734375e+01,9.830332946777343750e+01,-7.311673164367675781e+00,4.031498432159423828e-01,-6.667009735107421875e+01,-1.826863250732421875e+02,-2.342316627502441406e+00,7.562081146240234375e+01,3.135675048828125000e+01
9.316350221633911133e-01,1.000000000000000000e+00,-4.271998977661132812e+01,3.213729476928710938e+01,3.424757385253906250e+01,9.429467773437500000e+01,9.832529449462890625e+01,-7.335747718811035156e+00,4.031498432159423828e-01,-6.667009735107421875e+01,-1.826863250732421875e+02,-2.342245101928710938e+00,7.562065887451171875e+01,3.135675048828125000e+01
9.361789822578430176e-01,1.000000000000000000e+00,-4.276371383666992188e+01,3.205218124389648438e+01,3.427089309692382812e+01,9.421788024902343750e+01,9.834790039062500000e+01,-7.360025882720947266e+00,4.031498432159423828e-01,-6.667009735107421875e+01,-1.826863250732421875e+02,-2.342245101928710938e+00,7.562065887451171875e+01,3.135675048828125000e+01
9.395369887351989746e-01,1.000000000000000000e+00,-4.280725860595703125e+01,3.196682167053222656e+01,3.429433441162109375e+01,9.414070892333984375e+01,9.837120056152343750e+01,-7.385186672210693359e+00,4.031498432159423828e-01,-6.667009735107421875e+01,-1.826863250732421875e+02,-2.342316627502441406e+00,7.562065887451171875e+01,3.135675048828125000e+01
9.436960220336914062e-01,1.000000000000000000e+00,-4.285063171386718750e+01,3.188191223144531250e+01,3.431784057617187500e+01,9.406386566162109375e+01,9.839417266845703125e+01,-7.410074710845947266e+00,4.031498432159423828e-01,-6.667009735107421875e+01,-1.826863250732421875e+02,-2.342173099517822266e+00,7.562065887451171875e+01,3.135675048828125000e+01
9.476839900016784668e-01,1.000000000000000000e+00,-4.289406967163085938e+01,3.179716491699218750e+01,3.434140777587890625e+01,9.398674774169921875e+01,9.841630554199218750e+01,-7.434964179992675781e+00,4.031498432159423828e-01,-6.667009735107421875e+01,-1.826863250732421875e+02,-2.342245101928710938e+00,7.562081146240234375e+01,3.135675048828125000e+01
9.516299962997436523e-01,1.000000000000000000e+00,-4.293781661987304688e+01,3.171286964416503906e+01,3.436488723754882812e+01,9.390984344482421875e+01,9.843762969970703125e+01,-7.459241867065429688e+00,4.031498432159423828e-01,-6.667009735107421875e+01,-1.826863250732421875e+02,-2.342245101928710938e+00,7.562065887451171875e+01,3.135675048828125000e+01
9.556249976158142090e-01,1.000000000000000000e+00,-4.298142623901367188e+01,3.162854957580566406e+01,3.438808822631835938e+01,9.383219909667968750e+01,9.845932769775390625e+01,-7.483181953430175781e+00,4.031498432159423828e-01,-6.667009735107421875e+01,-1.826863250732421875e+02,-2.342245101928710938e+00,7.562081146240234375e+01,3.135675048828125000e+01
9.615240097045898438e-01,1.000000000000000000e+00,-4.302488708496093750e+01,3.154407119750976562e+01,3.441136932373046875e+01,9.375514221191406250e+01,9.848172760009765625e+01,-7.507120609283447266e+00,4.031498432159423828e-01,-6.667009735107421875e+01,-1.826863250732421875e+02,-2.342245101928710938e+00,7.562081146240234375e+01,3.135675048828125000e+01
9.642829895019531250e-01,1.000000000000000000e+00,-4.311206817626953125e+01,3.137387275695800781e+01,3.445857620239257812e+01,9.360086059570312500e+01,9.852837371826171875e+01,-7.556762695312500000e+00,4.031498432159423828e-01,-6.667019653320312500e+01,-1.826863250732421875e+02,-2.342245101928710938e+00,7.562081146240234375e+01,3.135697174072265625e+01
9.678210020065307617e-01,1.000000000000000000e+00,-4.311206817626953125e+01,3.137387275695800781e+01,3.445857620239257812e+01,9.360086059570312500e+01,9.852837371826171875e+01,-7.556762695312500000e+00,4.031498432159423828e-01,-6.667019653320312500e+01,-1.826863250732421875e+02,-2.342245101928710938e+00,7.562081146240234375e+01,3.135697174072265625e+01
9.716359972953796387e-01,1.000000000000000000e+00,-4.315558624267578125e+01,3.128815078735351562e+01,3.448216247558593750e+01,9.352342224121093750e+01,9.855076599121093750e+01,-7.581516265869140625e+00,4.031498432159423828e-01,-6.667009735107421875e+01,-1.826863250732421875e+02,-2.342245101928710938e+00,7.562065887451171875e+01,3.135675048828125000e+01
9.756979942321777344e-01,1.000000000000000000e+00,-4.319930648803710938e+01,3.120247268676757812e+01,3.450564575195312500e+01,9.344652557373046875e+01,9.857268524169921875e+01,-7.606744289398193359e+00,4.031498432159423828e-01,-6.667009735107421875e+01,-1.826864318847656250e+02,-2.342245101928710938e+00,7.562065887451171875e+01,3.135675048828125000e+01
9.797629714012145996e-01,1.000000000000000000e+00,-4.324296951293945312e+01,3.111700057983398438e+01,3.452898788452148438e+01,9.336908721923828125e+01,9.859438323974609375e+01,-7.631090641021728516e+00,4.031498432159423828e-01,-6.667009735107421875e+01,-1.826862182617187500e+02,-2.342245101928710938e+00,7.562081146240234375e+01,3.135675048828125000e+01
9.844269752502441406e-01,1.000000000000000000e+00,-4.328663635253906250e+01,3.103202629089355469e+01,3.455250930786132812e+01,9.329166412353515625e+01,9.861666870117187500e+01,-7.655097484588623047e+00,4.031498432159423828e-01,-6.667001342773437500e+01,-1.826863250732421875e+02,-2.342245101928710938e+00,7.562065887451171875e+01,3.135675048828125000e+01
9.878450036048889160e-01,1.000000000000000000e+00,-4.333038330078125000e+01,3.094738960266113281e+01,3.457607269287109375e+01,9.321443939208984375e+01,9.863948822021484375e+01,-7.679375648498535156e+00,4.031498432159423828e-01,-6.667009735107421875e+01,-1.826863250732421875e+02,-2.342316627502441406e+00,7.562081146240234375e+01,3.135653114318847656e+01
9.919480085372924805e-01,1.000000000000000000e+00,-4.337424468994140625e+01,3.086250305175781250e+01,3.459973907470703125e+01,9.313674926757812500e+01,9.866300201416015625e+01,-7.703857421875000000e+00,4.031498432159423828e-01,-6.667009735107421875e+01,-1.826863250732421875e+02,-2.342245101928710938e+00,7.562065887451171875e+01,3.135653114318847656e+01
9.958660006523132324e-01,1.000000000000000000e+00,-4.341831207275390625e+01,3.077716827392578125e+01,3.462326431274414062e+01,9.305884552001953125e+01,9.868614196777343750e+01,-7.728746891021728516e+00,4.031498432159423828e-01,-6.667009735107421875e+01,-1.826863250732421875e+02,-2.342245101928710938e+00,7.562051391601562500e+01,3.135675048828125000e+01
9.997640252113342285e-01,1.000000000000000000e+00,-4.346255111694335938e+01,3.069149017333984375e+01,3.464677047729492188e+01,9.298093414306640625e+01,9.870832061767578125e+01,-7.753973960876464844e+00,4.031498432159423828e-01,-6.667009735107421875e+01,-1.826863250732421875e+02,-2.342245101928710938e+00,7.562081146240234375e+01,3.135697174072265625e+01
1.004039049148559570e+00,1.000000000000000000e+00,-4.350650024414062500e+01,3.060556221008300781e+01,3.467047500610351562e+01,9.290345001220703125e+01,9.872985839843750000e+01,-7.779405593872070312e+00,4.031498432159423828e-01,-6.667009735107421875e+01,-1.826863250732421875e+02,-2.342173099517822266e+00,7.562065887451171875e+01,3.135675048828125000e+01
1.008824944496154785e+00,1.000000000000000000e+00,-4.355056381225585938e+01,3.051932144165039062e+01,3.469422149658203125e+01,9.282565307617187500e+01,9.875160980224609375e+01,-7.804362297058105469e+00,4.031498432159423828e-01,-6.667009735107421875e+01,-1.826863250732421875e+02,-2.342245101928710938e+00,7.562065887451171875e+01,3.135675048828125000e+01
1.012524962425231934e+00,1.000000000000000000e+00,-4.359462738037109375e+01,3.043312454223632812e+01,3.471778869628906250e+01,9.274769592285156250e+01,9.877410888671875000e+01,-7.829115390777587891e+00,4.031498432159423828e-01,-6.667009735107421875e+01,-1.826863250732421875e+02,-2.342245101928710938e+00,7.562065887451171875e+01,3.135675048828125000e+01
1.016011953353881836e+00,1.000000000000000000e+00,-4.363883590698242188e+01,3.034726524353027344e+01,3.474137115478515625e+01,9.266978454589843750e+01,9.879751586914062500e+01,-7.853122711181640625e+00,4.031498432159423828e-01,-6.667009735107421875e+01,-1.826863250732421875e+02,-2.342245101928710938e+00,7.562065887451171875e+01,3.135675048828125000e+01
1.020027041435241699e+00,1.000000000000000000e+00,-4.368313217163085938e+01,3.026172447204589844e+01,3.476501846313476562e+01,9.259236145019531250e+01,9.882112884521484375e+01,-7.877469062805175781e+00,4.031498432159423828e-01,-6.667009735107421875e+01,-1.826863250732421875e+02,-2.342245101928710938e+00,7.562065887451171875e+01,3.135675048828125000e+01
1.024041056632995605e+00,1.000000000000000000e+00,-4.372753906250000000e+01,3.017616271972656250e+01,3.478886795043945312e+01,9.251461029052734375e+01,9.884363555908203125e+01,-7.902153968811035156e+00,4.031498432159423828e-01,-6.667009735107421875e+01,-1.826863250732421875e+02,-2.342245101928710938e+00,7.562065887451171875e+01,3.135697174072265625e+01
1.028247952461242676e+00,1.000000000000000000e+00,-4.377194976806640625e+01,3.009077835083007812e+01,3.481263351440429688e+01,9.243649291992187500e+01,9.886533355712890625e+01,-7.927178382873535156e+00,4.031498432159423828e-01,-6.667009735107421875e+01,-1.826863250732421875e+02,-2.342245101928710938e+00,7.562065887451171875e+01,3.135675048828125000e+01
1.032879948616027832e+00,1.000000000000000000e+00,-4.381633377075195312e+01,3.000512313842773438e+01,3.483634185791015625e+01,9.235837554931640625e+01,9.888729858398437500e+01,-7.952745437622070312e+00,4.031498432159423828e-01,-6.667009735107421875e+01,-1.826863250732421875e+02,-2.342245101928710938e+00,7.562051391601562500e+01,3.135697174072265625e+01
1.036537051200866699e+00,1.000000000000000000e+00,-4.386065292358398438e+01,2.991899490356445312e+01,3.485988616943359375e+01,9.228052520751953125e+01,9.890979766845703125e+01,-7.978041172027587891e+00,4.031498432159423828e-01,-6.667001342773437500e+01,-1.826863250732421875e+02,-2.342316627502441406e+00,7.562065887451171875e+01,3.135675048828125000e+01
1.040171980857849121e+00,1.000000000000000000e+00,-4.390495300292968750e+01,2.983232307434082031e+01,3.488346862792968750e+01,9.220230865478515625e+01,9.893294525146484375e+01,-8.002997398376464844e+00,4.031498432159423828e-01,-6.667009735107421875e+01,-1.826863250732421875e+02,-2.342245101928710938e+00,7.562065887451171875e+01,3.135675048828125000e+01
1.044201016426086426e+00,1.000000000000000000e+00,-4.394939041137695312e+01,2.974567222595214844e+01,3.490746307373046875e+01,9.212339782714843750e+01,9.895655822753906250e+01,-8.027276039123535156e+00,4.031498432159423828e-01,-6.667009735107421875e+01,-1.826863250732421875e+02,-2.342245101928710938e+00,7.562065887451171875e+01,3.135675048828125000e+01
1.048496961593627930e+00,1.000000000000000000e+00,-4.399391174316406250e+01,2.965906906127929688e+01,3.493141555786132812e+01,9.204523468017578125e+01,9.897995758056640625e+01,-8.051554679870605469e+00,4.031498432159423828e-01,-6.667009735107421875e+01,-1.826863250732421875e+02,-2.342173099517822266e+00,7.562065887451171875e+01,3.135653114318847656e+01
1.052451014518737793e+00,1.000000000000000000e+00,-4.403832244873046875e+01,2.957295989990234375e+01,3.495528411865234375e+01,9.196685028076171875e+01,9.900187683105468750e+01,-8.076104164123535156e+00,4.031498432159423828e-01,-6.667009735107421875e+01,-1.826863250732421875e+02,-2.342245101928710938e+00,7.562065887451171875e+01,3.135675048828125000e+01
1.057132959365844727e+00,1.000000000000000000e+00,-4.408246994018554688e+01,2.948733139038085938e+01,3.497901153564453125e+01,9.188911437988281250e+01,9.902362823486328125e+01,-8.101060867309570312e+00,4.031498432159423828e-01,-6.667009735107421875e+01,-1.826863250732421875e+02,-2.342245101928710938e+00,7.562065887451171875e+01,3.135675048828125000e+01
1.061491012573242188e+00,1.000000000000000000e+00,-4.412673950195312500e+01,2.940187835693359375e+01,3.500275802612304688e+01,9.181051635742187500e+01,9.904554748535156250e+01,-8.126423835754394531e+00,4.031498432159423828e-01,-6.667009735107421875e+01,-1.826863250732421875e+02,-2.342173099517822266e+00,7.562065887451171875e+01,3.135675048828125000e+01
1.064586043357849121e+00,1.000000000000000000e+00,-4.417111968994140625e+01,2.931597518920898438e+01,3.502662658691406250e+01,9.173271942138671875e+01,9.906809997558593750e+01,-8.151855468750000000e+00,4.031498432159423828e-01,-6.667009735107421875e+01,-1.826863250732421875e+02,-2.342245101928710938e+00,7.562051391601562500e+01,3.135675048828125000e+01
1.068506002426147461e+00,1.000000000000000000e+00,-4.421558380126953125e+01,2.922964096069335938e+01,3.505039596557617188e+01,9.165396881103515625e+01,9.909187316894531250e+01,-8.177015304565429688e+00,4.031498432159423828e-01,-6.667009735107421875e+01,-1.826863250732421875e+02,-2.342245101928710938e+00,7.562081146240234375e+01,3.135697174072265625e+01
1.072461009025573730e+00,1.000000000000000000e+00,-4.425973892211914062e+01,2.914305877685546875e+01,3.507422256469726562e+01,9.157601165771484375e+01,9.911549377441406250e+01,-8.201497077941894531e+00,4.031498432159423828e-01,-6.667009735107421875e+01,-1.826863250732421875e+02,-2.342173099517822266e+00,7.562051391601562500e+01,3.135675048828125000e+01
1.076643943786621094e+00,1.000000000000000000e+00,-4.430411911010742188e+01,2.905622863769531250e+01,3.509809494018554688e+01,9.149742889404296875e+01,9.913793945312500000e+01,-8.225640296936035156e+00,4.031498432159423828e-01,-6.667009735107421875e+01,-1.826863250732421875e+02,-2.342245101928710938e+00,7.562065887451171875e+01,3.135675048828125000e+01
1.082613945007324219e+00,1.000000000000000000e+00,-4.434846878051757812e+01,2.896907997131347656e+01,3.512204360961914062e+01,9.141878509521484375e+01,9.915985107421875000e+01,-8.250325202941894531e+00,4.031498432159423828e-01,-6.667009735107421875e+01,-1.826863250732421875e+02,-2.342316627502441406e+00,7.562081146240234375e+01,3.135675048828125000e+01
1.085247039794921875e+00,1.000000000000000000e+00,-4.443697357177734375e+01,2.879605484008789062e+01,3.516990280151367188e+01,9.126123046875000000e+01,9.920464324951171875e+01,-8.300510406494140625e+00,4.031498432159423828e-01,-6.667009735107421875e+01,-1.826863250732421875e+02,-2.342245101928710938e+00,7.562051391601562500e+01,3.135653114318847656e+01
1.088822007179260254e+00,1.000000000000000000e+00,-4.443697357177734375e+01,2.879605484008789062e+01,3.516990280151367188e+01,9.126123046875000000e+01,9.920464324951171875e+01,-8.300510406494140625e+00,4.031498432159423828e-01,-6.667009735107421875e+01,-1.826863250732421875e+02,-2.342245101928710938e+00,7.562051391601562500e+01,3.135653114318847656e+01
1.092617034912109375e+00,1.000000000000000000e+00,-4.448155593872070312e+01,2.870953941345214844e+01,3.519367218017578125e+01,9.118196105957031250e+01,9.922793579101562500e+01,-8.326280593872070312e+00,4.031498432159423828e-01,-6.667009735107421875e+01,-1.826863250732421875e+02,-2.342245101928710938e+00,7.562065887451171875e+01,3.135675048828125000e+01
1.096541047096252441e+00,1.000000000000000000e+00,-4.452576446533203125e+01,2.862329673767089844e+01,3.521746444702148438e+01,9.110331726074218750e+01,9.925187683105468750e+01,-8.351508140563964844e+00,4.031498432159423828e-01,-6.667009735107421875e+01,-1.826863250732421875e+02,-2.342245101928710938e+00,7.562081146240234375e+01,3.135697174072265625e+01
1.100671052932739258e+00,1.000000000000000000e+00,-4.456999969482421875e+01,2.853691864013671875e+01,3.524135208129882812e+01,9.102514648437500000e+01,9.927523040771484375e+01,-8.376532554626464844e+00,4.031498432159423828e-01,-6.667009735107421875e+01,-1.826863250732421875e+02,-2.342245101928710938e+00,7.562065887451171875e+01,3.135675048828125000e+01
1.105265021324157715e+00,1.000000000000000000e+00,-4.461412429809570312e+01,2.844983673095703125e+01,3.526534271240234375e+01,9.094618988037109375e+01,9.929756164550781250e+01,-8.400878906250000000e+00,4.031498432159423828e-01,-6.667009735107421875e+01,-1.826863250732421875e+02,-2.342245101928710938e+00,7.562065887451171875e+01,3.135653114318847656e+01
1.109004974365234375e+00,1.000000000000000000e+00,-4.465864562988281250e+01,2.836228179931640625e+01,3.528941726684570312e+01,9.086749267578125000e+01,9.931932067871093750e+01,-8.425361633300781250e+00,4.031498432159423828e-01,-6.667009735107421875e+01,-1.826863250732421875e+02,-2.342316627502441406e+00,7.562065887451171875e+01,3.135675048828125000e+01
1.111492991447448730e+00,1.000000000000000000e+00,-4.470302963256835938e+01,2.827454757690429688e+01,3.531348800659179688e+01,9.078858947753906250e+01,9.934149932861328125e+01,-8.449978828430175781e+00,4.031498432159423828e-01,-6.667009735107421875e+01,-1.826863250732421875e+02,-2.342316627502441406e+00,7.562065887451171875e+01,3.135675048828125000e+01
1.115532994270324707e+00,1.000000000000000000e+00,-4.474726486206054688e+01,2.818667411804199219e+01,3.533768463134765625e+01,9.070952606201171875e+01,9.936474609375000000e+01,-8.474934577941894531e+00,4.031498432159423828e-01,-6.667009735107421875e+01,-1.826863250732421875e+02,-2.342173099517822266e+00,7.562065887451171875e+01,3.135675048828125000e+01
