rpiRobotics/ARM-21-02-F-19-Robot-Motion-Program/data_performance_abb/curve_1/curve_pose_opt1/greedy0.02/realrobot/run_0.csv
timestamp,cmd_num,J1,J2,J3,J4,J5,J6
1.489999995101243258e-04,-1.000000000000000000e+00,-3.460044097900390625e+01,4.793003463745117188e+01,2.988646316528320312e+01,1.086465606689453125e+02,9.417937469482421875e+01,-2.774997472763061523e+00,4.031498432159423828e-01,-6.667009735107421875e+01,-1.826863250732421875e+02,-2.342245101928710938e+00,7.562088012695312500e+01,3.135675048828125000e+01
5.045999772846698761e-03,1.000000000000000000e+00,-3.460044097900390625e+01,4.793012619018554688e+01,2.988646316528320312e+01,1.086465072631835938e+02,9.417937469482421875e+01,-2.775200843811035156e+00,4.031498432159423828e-01,-6.667009735107421875e+01,-1.826863250732421875e+02,-2.342316627502441406e+00,7.562088012695312500e+01,3.135697174072265625e+01
8.909000083804130554e-03,1.000000000000000000e+00,-3.460044097900390625e+01,4.793008041381835938e+01,2.988646316528320312e+01,1.086465072631835938e+02,9.417926788330078125e+01,-2.775200843811035156e+00,4.031498432159423828e-01,-6.667009735107421875e+01,-1.826863250732421875e+02,-2.342173099517822266e+00,7.562081146240234375e+01,3.135675048828125000e+01
1.272299978882074356e-02,1.000000000000000000e+00,-3.460049438476562500e+01,4.793003463745117188e+01,2.988646316528320312e+01,1.086465072631835938e+02,9.417937469482421875e+01,-2.774997472763061523e+00,4.031498432159423828e-01,-6.667009735107421875e+01,-1.826863250732421875e+02,-2.342173099517822266e+00,7.562088012695312500e+01,3.135675048828125000e+01
3.666700050234794617e-02,1.000000000000000000e+00,-3.460044097900390625e+01,4.793008041381835938e+01,2.988652420043945312e+01,1.086466674804687500e+02,9.417926788330078125e+01,-2.774997472763061523e+00,4.031498432159423828e-01,-6.667009735107421875e+01,-1.826863250732421875e+02,-2.342245101928710938e+00,7.562088012695312500e+01,3.135675048828125000e+01
3.815999999642372131e-02,1.000000000000000000e+00,-3.460044097900390625e+01,4.793008041381835938e+01,2.988652420043945312e+01,1.086466674804687500e+02,9.417926788330078125e+01,-2.774997472763061523e+00,4.031498432159423828e-01,-6.667009735107421875e+01,-1.826863250732421875e+02,-2.342245101928710938e+00,7.562088012695312500e+01,3.135675048828125000e+01
4.197400063276290894e-02,1.000000000000000000e+00,-3.460044097900390625e+01,4.793008041381835938e+01,2.988652420043945312e+01,1.086465072631835938e+02,9.417926788330078125e+01,-2.775200843811035156e+00,4.031498432159423828e-01,-6.667009735107421875e+01,-1.826863250732421875e+02,-2.342245101928710938e+00,7.562088012695312500e+01,3.135697174072265625e+01
4.845400154590606689e-02,1.000000000000000000e+00,-3.460044097900390625e+01,4.793008041381835938e+01,2.988646316528320312e+01,1.086465606689453125e+02,9.417937469482421875e+01,-2.774997472763061523e+00,4.031498432159423828e-01,-6.667009735107421875e+01,-1.826863250732421875e+02,-2.342245101928710938e+00,7.562088012695312500e+01,3.135675048828125000e+01
4.981200024485588074e-02,1.000000000000000000e+00,-3.460044097900390625e+01,4.793008041381835938e+01,2.988646316528320312e+01,1.086465606689453125e+02,9.417937469482421875e+01,-2.774997472763061523e+00,4.031498432159423828e-01,-6.667009735107421875e+01,-1.826863250732421875e+02,-2.342245101928710938e+00,7.562088012695312500e+01,3.135675048828125000e+01
5.307000130414962769e-02,1.000000000000000000e+00,-3.460044097900390625e+01,4.793008041381835938e+01,2.988646316528320312e+01,1.086465606689453125e+02,9.417937469482421875e+01,-2.774997472763061523e+00,4.031498432159423828e-01,-6.667009735107421875e+01,-1.826863250732421875e+02,-2.342245101928710938e+00,7.562088012695312500e+01,3.135675048828125000e+01
5.443299934267997742e-02,1.000000000000000000e+00,-3.460055541992187500e+01,4.793001174926757812e+01,2.988646316528320312e+01,1.086465606689453125e+02,9.417937469482421875e+01,-2.774997472763061523e+00,4.031498432159423828e-01,-6.667009735107421875e+01,-1.826863250732421875e+02,-2.342245101928710938e+00,7.562081146240234375e+01,3.135675048828125000e+01
5.733300000429153442e-02,1.000000000000000000e+00,-3.460072708129882812e+01,4.792987823486328125e+01,2.988646316528320312e+01,1.086466674804687500e+02,9.417926788330078125e+01,-2.774997472763061523e+00,4.031498432159423828e-01,-6.667019653320312500e+01,-1.826863250732421875e+02,-2.342245101928710938e+00,7.562081146240234375e+01,3.135675048828125000e+01
5.864699929952621460e-02,1.000000000000000000e+00,-3.460072708129882812e+01,4.792987823486328125e+01,2.988646316528320312e+01,1.086466674804687500e+02,9.417926788330078125e+01,-2.774997472763061523e+00,4.031498432159423828e-01,-6.667019653320312500e+01,-1.826863250732421875e+02,-2.342245101928710938e+00,7.562081146240234375e+01,3.135675048828125000e+01
6.240800023078918457e-02,1.000000000000000000e+00,-3.460121536254882812e+01,4.792933273315429688e+01,2.988642120361328125e+01,1.086466674804687500e+02,9.417937469482421875e+01,-2.774997472763061523e+00,4.031498432159423828e-01,-6.667009735107421875e+01,-1.826863250732421875e+02,-2.342245101928710938e+00,7.562088012695312500e+01,3.135675048828125000e+01
6.497599929571151733e-02,1.000000000000000000e+00,-3.460239028930664062e+01,4.792813491821289062e+01,2.988652420043945312e+01,1.086465072631835938e+02,9.417937469482421875e+01,-2.774997472763061523e+00,4.031498432159423828e-01,-6.667009735107421875e+01,-1.826863250732421875e+02,-2.342245101928710938e+00,7.562088012695312500e+01,3.135675048828125000e+01
6.866999715566635132e-02,1.000000000000000000e+00,-3.460414123535156250e+01,4.792607498168945312e+01,2.988652420043945312e+01,1.086466674804687500e+02,9.417948150634765625e+01,-2.774997472763061523e+00,4.031498432159423828e-01,-6.667009735107421875e+01,-1.826863250732421875e+02,-2.342173099517822266e+00,7.562088012695312500e+01,3.135675048828125000e+01
7.004299759864807129e-02,1.000000000000000000e+00,-3.460414123535156250e+01,4.792607498168945312e+01,2.988652420043945312e+01,1.086466674804687500e+02,9.417948150634765625e+01,-2.774997472763061523e+00,4.031498432159423828e-01,-6.667009735107421875e+01,-1.826863250732421875e+02,-2.342173099517822266e+00,7.562088012695312500e+01,3.135675048828125000e+01
7.329899817705154419e-02,1.000000000000000000e+00,-3.460414123535156250e+01,4.792607498168945312e+01,2.988652420043945312e+01,1.086466674804687500e+02,9.417948150634765625e+01,-2.774997472763061523e+00,4.031498432159423828e-01,-6.667009735107421875e+01,-1.826863250732421875e+02,-2.342245101928710938e+00,7.562102508544921875e+01,3.135675048828125000e+01
7.462300360202789307e-02,1.000000000000000000e+00,-3.460655212402343750e+01,4.792281723022460938e+01,2.988646316528320312e+01,1.086465072631835938e+02,9.417937469482421875e+01,-2.774997472763061523e+00,4.031498432159423828e-01,-6.667009735107421875e+01,-1.826863250732421875e+02,-2.342245101928710938e+00,7.562102508544921875e+01,3.135675048828125000e+01
7.823300361633300781e-02,1.000000000000000000e+00,-3.460968399047851562e+01,4.791788101196289062e+01,2.988656616210937500e+01,1.086463546752929688e+02,9.417948150634765625e+01,-2.774997472763061523e+00,4.031498432159423828e-01,-6.667009735107421875e+01,-1.826863250732421875e+02,-2.342245101928710938e+00,7.562088012695312500e+01,3.135675048828125000e+01
8.067400008440017700e-02,1.000000000000000000e+00,-3.461333084106445312e+01,4.791109466552734375e+01,2.988666725158691406e+01,1.086461410522460938e+02,9.417974853515625000e+01,-2.775200843811035156e+00,4.031498432159423828e-01,-6.667009735107421875e+01,-1.826863250732421875e+02,-2.342245101928710938e+00,7.562081146240234375e+01,3.135697174072265625e+01
8.205100148916244507e-02,1.000000000000000000e+00,-3.461333084106445312e+01,4.791109466552734375e+01,2.988666725158691406e+01,1.086461410522460938e+02,9.417974853515625000e+01,-2.775200843811035156e+00,4.031498432159423828e-01,-6.667009735107421875e+01,-1.826863250732421875e+02,-2.342245101928710938e+00,7.562081146240234375e+01,3.135697174072265625e+01
8.476100116968154907e-02,1.000000000000000000e+00,-3.461333084106445312e+01,4.791109466552734375e+01,2.988666725158691406e+01,1.086461410522460938e+02,9.417974853515625000e+01,-2.775200843811035156e+00,4.031498432159423828e-01,-6.667009735107421875e+01,-1.826863250732421875e+02,-2.342245101928710938e+00,7.562081146240234375e+01,3.135697174072265625e+01
8.855699747800827026e-02,1.000000000000000000e+00,-3.461763763427734375e+01,4.790262985229492188e+01,2.988703346252441406e+01,1.086448211669921875e+02,9.418006896972656250e+01,-2.775200843811035156e+00,4.031498432159423828e-01,-6.667009735107421875e+01,-1.826863250732421875e+02,-2.342245101928710938e+00,7.562088012695312500e+01,3.135675048828125000e+01
9.105899930000305176e-02,1.000000000000000000e+00,-3.462262725830078125e+01,4.789242172241210938e+01,2.988776397705078125e+01,1.086413421630859375e+02,9.418076324462890625e+01,-2.775336503982543945e+00,4.031498432159423828e-01,-6.667009735107421875e+01,-1.826863250732421875e+02,-2.342173099517822266e+00,7.562081146240234375e+01,3.135675048828125000e+01
9.506999701261520386e-02,1.000000000000000000e+00,-3.462865829467773438e+01,4.788016128540039062e+01,2.988884353637695312e+01,1.086356048583984375e+02,9.418183135986328125e+01,-2.775675535202026367e+00,4.031498432159423828e-01,-6.667009735107421875e+01,-1.826863250732421875e+02,-2.342245101928710938e+00,7.562088012695312500e+01,3.135675048828125000e+01
1.007639989256858826e-01,1.000000000000000000e+00,-3.463574981689453125e+01,4.786536026000976562e+01,2.989034652709960938e+01,1.086282348632812500e+02,9.418379974365234375e+01,-2.776557207107543945e+00,4.031498432159423828e-01,-6.667009735107421875e+01,-1.826863250732421875e+02,-2.342316627502441406e+00,7.562088012695312500e+01,3.135675048828125000e+01
1.049560010433197021e-01,1.000000000000000000e+00,-3.464413070678710938e+01,4.784800338745117188e+01,2.989250373840332031e+01,1.086193771362304688e+02,9.418684387207031250e+01,-2.778591632843017578e+00,4.031498432159423828e-01,-6.667009735107421875e+01,-1.826863250732421875e+02,-2.342316627502441406e+00,7.562088012695312500e+01,3.135653114318847656e+01
1.070350036025047302e-01,1.000000000000000000e+00,-3.465398025512695312e+01,4.782813262939453125e+01,2.989549255371093750e+01,1.086072692871093750e+02,9.419024658203125000e+01,-2.783067464828491211e+00,4.031498432159423828e-01,-6.667009735107421875e+01,-1.826863250732421875e+02,-2.342245101928710938e+00,7.562088012695312500e+01,3.135675048828125000e+01
1.110709980130195618e-01,1.000000000000000000e+00,-3.466520309448242188e+01,4.780568313598632812e+01,2.989943695068359375e+01,1.085914077758789062e+02,9.419473266601562500e+01,-2.788085937500000000e+00,4.031498432159423828e-01,-6.667009735107421875e+01,-1.826863250732421875e+02,-2.342245101928710938e+00,7.562065887451171875e+01,3.135675048828125000e+01
1.151250004768371582e-01,1.000000000000000000e+00,-3.467791748046875000e+01,4.778029251098632812e+01,2.990453910827636719e+01,1.085719223022460938e+02,9.419995880126953125e+01,-2.793375730514526367e+00,4.031498432159423828e-01,-6.667009735107421875e+01,-1.826863250732421875e+02,-2.342173099517822266e+00,7.562088012695312500e+01,3.135675048828125000e+01
1.216130033135414124e-01,1.000000000000000000e+00,-3.469244384765625000e+01,4.775198364257812500e+01,2.991108512878417969e+01,1.085484848022460938e+02,9.420641326904296875e+01,-2.799953937530517578e+00,4.031498432159423828e-01,-6.667009735107421875e+01,-1.826863250732421875e+02,-2.342316627502441406e+00,7.562088012695312500e+01,3.135675048828125000e+01
1.250630021095275879e-01,1.000000000000000000e+00,-3.470863342285156250e+01,4.772070693969726562e+01,2.991871261596679688e+01,1.085219345092773438e+02,9.421387481689453125e+01,-2.808227539062500000e+00,4.031498432159423828e-01,-6.667009735107421875e+01,-1.826863250732421875e+02,-2.342316627502441406e+00,7.562081146240234375e+01,3.135675048828125000e+01
1.270689964294433594e-01,1.000000000000000000e+00,-3.472606277465820312e+01,4.768579101562500000e+01,2.992763519287109375e+01,1.084924850463867188e+02,9.422239685058593750e+01,-2.817518711090087891e+00,4.031498432159423828e-01,-6.667009735107421875e+01,-1.826863250732421875e+02,-2.342316627502441406e+00,7.562088012695312500e+01,3.135675048828125000e+01
1.310240030288696289e-01,1.000000000000000000e+00,-3.474483489990234375e+01,4.764736557006835938e+01,2.993802452087402344e+01,1.084586181640625000e+02,9.423231506347656250e+01,-2.828030109405517578e+00,4.031498432159423828e-01,-6.667009735107421875e+01,-1.826863250732421875e+02,-2.342245101928710938e+00,7.562081146240234375e+01,3.135675048828125000e+01
1.350000053644180298e-01,1.000000000000000000e+00,-3.476544952392578125e+01,4.760540771484375000e+01,2.994971656799316406e+01,1.084188537597656250e+02,9.424335479736328125e+01,-2.839626789093017578e+00,4.031498432159423828e-01,-6.667009735107421875e+01,-1.826863250732421875e+02,-2.342245101928710938e+00,7.562081146240234375e+01,3.135675048828125000e+01
1.390700042247772217e-01,1.000000000000000000e+00,-3.478809738159179688e+01,4.756042098999023438e+01,2.996268844604492188e+01,1.083738174438476562e+02,9.425588989257812500e+01,-2.853257894515991211e+00,4.031498432159423828e-01,-6.667009735107421875e+01,-1.826863250732421875e+02,-2.342245101928710938e+00,7.562081146240234375e+01,3.135697174072265625e+01
1.430010050535202026e-01,1.000000000000000000e+00,-3.481209564208984375e+01,4.751242065429687500e+01,2.997720527648925781e+01,1.083270416259765625e+02,9.426985168457031250e+01,-2.868109703063964844e+00,4.031498432159423828e-01,-6.667019653320312500e+01,-1.826863250732421875e+02,-2.342245101928710938e+00,7.562088012695312500e+01,3.135697174072265625e+01
1.491270065307617188e-01,1.000000000000000000e+00,-3.483741378784179688e+01,4.746127700805664062e+01,2.999312400817871094e+01,1.082773742675781250e+02,9.428456878662109375e+01,-2.884114742279052734e+00,4.031498432159423828e-01,-6.667009735107421875e+01,-1.826863250732421875e+02,-2.342245101928710938e+00,7.562081146240234375e+01,3.135675048828125000e+01
1.510269939899444580e-01,1.000000000000000000e+00,-3.486417007446289062e+01,4.740757751464843750e+01,3.000991821289062500e+01,1.082227401733398438e+02,9.430056762695312500e+01,-2.901272296905517578e+00,4.031498432159423828e-01,-6.667009735107421875e+01,-1.826863250732421875e+02,-2.342245101928710938e+00,7.562088012695312500e+01,3.135675048828125000e+01
1.550450026988983154e-01,1.000000000000000000e+00,-3.489236068725585938e+01,4.735120391845703125e+01,3.002738380432128906e+01,1.081651687622070312e+02,9.431698608398437500e+01,-2.919854164123535156e+00,4.031498432159423828e-01,-6.667009735107421875e+01,-1.826863250732421875e+02,-2.342245101928710938e+00,7.562088012695312500e+01,3.135675048828125000e+01
1.611129939556121826e-01,1.000000000000000000e+00,-3.492210006713867188e+01,4.729205322265625000e+01,3.004548072814941406e+01,1.081054992675781250e+02,9.433356475830078125e+01,-2.939588785171508789e+00,4.031498432159423828e-01,-6.667009735107421875e+01,-1.826863250732421875e+02,-2.342245101928710938e+00,7.562081146240234375e+01,3.135675048828125000e+01
1.630489975214004517e-01,1.000000000000000000e+00,-3.495353317260742188e+01,4.723031997680664062e+01,3.006428718566894531e+01,1.080434417724609375e+02,9.435083770751953125e+01,-2.960069656372070312e+00,4.031498432159423828e-01,-6.667009735107421875e+01,-1.826863250732421875e+02,-2.342245101928710938e+00,7.562081146240234375e+01,3.135675048828125000e+01
1.670719981193542480e-01,1.000000000000000000e+00,-3.498596954345703125e+01,4.716645431518554688e+01,3.008380508422851562e+01,1.079792861938476562e+02,9.436881256103515625e+01,-2.980889320373535156e+00,4.031498432159423828e-01,-6.667009735107421875e+01,-1.826863250732421875e+02,-2.342316627502441406e+00,7.562088012695312500e+01,3.135675048828125000e+01
1.710249930620193481e-01,1.000000000000000000e+00,-3.501935577392578125e+01,4.710064697265625000e+01,3.010380935668945312e+01,1.079133911132812500e+02,9.438698577880859375e+01,-3.001980543136596680e+00,4.031498432159423828e-01,-6.667009735107421875e+01,-1.826863250732421875e+02,-2.342316627502441406e+00,7.562081146240234375e+01,3.135697174072265625e+01
1.751119941473007202e-01,1.000000000000000000e+00,-3.505383682250976562e+01,4.703298187255859375e+01,3.012436485290527344e+01,1.078471221923828125e+02,9.440575408935546875e+01,-3.022935628890991211e+00,4.031498432159423828e-01,-6.667009735107421875e+01,-1.826863250732421875e+02,-2.342245101928710938e+00,7.562088012695312500e+01,3.135675048828125000e+01
1.790660023689270020e-01,1.000000000000000000e+00,-3.508943176269531250e+01,4.696348953247070312e+01,3.014489936828613281e+01,1.077791213989257812e+02,9.442569732666015625e+01,-3.044297933578491211e+00,4.031498432159423828e-01,-6.667009735107421875e+01,-1.826863250732421875e+02,-2.342173099517822266e+00,7.562088012695312500e+01,3.135653114318847656e+01
1.830040067434310913e-01,1.000000000000000000e+00,-3.512562942504882812e+01,4.689220428466796875e+01,3.016547584533691406e+01,1.077106475830078125e+02,9.444628143310546875e+01,-3.066067218780517578e+00,4.031498432159423828e-01,-6.667009735107421875e+01,-1.826863250732421875e+02,-2.342245101928710938e+00,7.562088012695312500e+01,3.135653114318847656e+01
1.892029941082000732e-01,1.000000000000000000e+00,-3.512562942504882812e+01,4.689220428466796875e+01,3.016547584533691406e+01,1.077106475830078125e+02,9.444628143310546875e+01,-3.066067218780517578e+00,4.031498432159423828e-01,-6.667009735107421875e+01,-1.826863250732421875e+02,-2.342245101928710938e+00,7.562081146240234375e+01,3.135675048828125000e+01
1.910679936408996582e-01,1.000000000000000000e+00,-3.520046997070312500e+01,4.674481582641601562e+01,3.020711708068847656e+01,1.075723266601562500e+02,9.448561859130859375e+01,-3.110351562500000000e+00,4.031498432159423828e-01,-6.667009735107421875e+01,-1.826863250732421875e+02,-2.342245101928710938e+00,7.562081146240234375e+01,3.135675048828125000e+01
1.975540071725845337e-01,1.000000000000000000e+00,-3.520046997070312500e+01,4.674481582641601562e+01,3.020711708068847656e+01,1.075723266601562500e+02,9.448561859130859375e+01,-3.110351562500000000e+00,4.031498432159423828e-01,-6.667009735107421875e+01,-1.826863250732421875e+02,-2.342245101928710938e+00,7.562081146240234375e+01,3.135675048828125000e+01
1.990119963884353638e-01,1.000000000000000000e+00,-3.527803802490234375e+01,4.659419250488281250e+01,3.024926567077636719e+01,1.074335250854492188e+02,9.452491760253906250e+01,-3.155856609344482422e+00,4.031498432159423828e-01,-6.667009735107421875e+01,-1.826863250732421875e+02,-2.342245101928710938e+00,7.562081146240234375e+01,3.135675048828125000e+01
2.040169984102249146e-01,1.000000000000000000e+00,-3.527803802490234375e+01,4.659419250488281250e+01,3.024926567077636719e+01,1.074335250854492188e+02,9.452491760253906250e+01,-3.155856609344482422e+00,4.031498432159423828e-01,-6.667009735107421875e+01,-1.826863250732421875e+02,-2.342245101928710938e+00,7.562088012695312500e+01,3.135675048828125000e+01
2.075420022010803223e-01,1.000000000000000000e+00,-3.535726547241210938e+01,4.644202423095703125e+01,3.029106712341308594e+01,1.072947845458984375e+02,9.456528472900390625e+01,-3.200005531311035156e+00,4.031498432159423828e-01,-6.667009735107421875e+01,-1.826863250732421875e+02,-2.342173099517822266e+00,7.562081146240234375e+01,3.135697174072265625e+01
2.120780050754547119e-01,1.000000000000000000e+00,-3.539710998535156250e+01,4.636571884155273438e+01,3.031202888488769531e+01,1.072254104614257812e+02,9.458618164062500000e+01,-3.222045898437500000e+00,4.031498432159423828e-01,-6.667009735107421875e+01,-1.826863250732421875e+02,-2.342245101928710938e+00,7.562088012695312500e+01,3.135675048828125000e+01
2.150810062885284424e-01,1.000000000000000000e+00,-3.543672561645507812e+01,4.628924942016601562e+01,3.033305168151855469e+01,1.071559371948242188e+02,9.460713195800781250e+01,-3.244222164154052734e+00,4.031498432159423828e-01,-6.667009735107421875e+01,-1.826863250732421875e+02,-2.342245101928710938e+00,7.562088012695312500e+01,3.135675048828125000e+01
2.190500050783157349e-01,1.000000000000000000e+00,-3.543672561645507812e+01,4.628924942016601562e+01,3.033305168151855469e+01,1.071559371948242188e+02,9.460713195800781250e+01,-3.244222164154052734e+00,4.031498432159423828e-01,-6.667009735107421875e+01,-1.826863250732421875e+02,-2.342245101928710938e+00,7.562088012695312500e+01,3.135675048828125000e+01
2.230830043554306030e-01,1.000000000000000000e+00,-3.547703170776367188e+01,4.621255874633789062e+01,3.035415649414062500e+01,1.070863037109375000e+02,9.462690734863281250e+01,-3.266533851623535156e+00,4.031498432159423828e-01,-6.667009735107421875e+01,-1.826863250732421875e+02,-2.342245101928710938e+00,7.562081146240234375e+01,3.135675048828125000e+01
2.280219942331314087e-01,1.000000000000000000e+00,-3.551710891723632812e+01,4.613575363159179688e+01,3.037517929077148438e+01,1.070169830322265625e+02,9.464627075195312500e+01,-3.289116859436035156e+00,4.031498432159423828e-01,-6.667009735107421875e+01,-1.826863250732421875e+02,-2.342173099517822266e+00,7.562081146240234375e+01,3.135675048828125000e+01
2.323209941387176514e-01,1.000000000000000000e+00,-3.559676742553710938e+01,4.598295974731445312e+01,3.041722679138183594e+01,1.068767623901367188e+02,9.468550872802734375e+01,-3.334961175918579102e+00,4.031498432159423828e-01,-6.667009735107421875e+01,-1.826863250732421875e+02,-2.342245101928710938e+00,7.562065887451171875e+01,3.135675048828125000e+01
2.350050061941146851e-01,1.000000000000000000e+00,-3.563652420043945312e+01,4.590687179565429688e+01,3.043857383728027344e+01,1.068069229125976562e+02,9.470587158203125000e+01,-3.357679605484008789e+00,4.031498432159423828e-01,-6.667009735107421875e+01,-1.826863250732421875e+02,-2.342245101928710938e+00,7.562081146240234375e+01,3.135675048828125000e+01
2.401349991559982300e-01,1.000000000000000000e+00,-3.563652420043945312e+01,4.590687179565429688e+01,3.043857383728027344e+01,1.068069229125976562e+02,9.470587158203125000e+01,-3.357679605484008789e+00,4.031498432159423828e-01,-6.667009735107421875e+01,-1.826863250732421875e+02,-2.342245101928710938e+00,7.562081146240234375e+01,3.135675048828125000e+01
2.434760034084320068e-01,1.000000000000000000e+00,-3.571618652343750000e+01,4.575500488281250000e+01,3.048122978210449219e+01,1.066673355102539062e+02,9.474783325195312500e+01,-3.401489257812500000e+00,4.031498432159423828e-01,-6.667009735107421875e+01,-1.826863250732421875e+02,-2.342245101928710938e+00,7.562081146240234375e+01,3.135675048828125000e+01
2.500320076942443848e-01,1.000000000000000000e+00,-3.571618652343750000e+01,4.575500488281250000e+01,3.048122978210449219e+01,1.066673355102539062e+02,9.474783325195312500e+01,-3.401489257812500000e+00,4.031498432159423828e-01,-6.667009735107421875e+01,-1.826863250732421875e+02,-2.342245101928710938e+00,7.562081146240234375e+01,3.135675048828125000e+01
2.514730095863342285e-01,1.000000000000000000e+00,-3.579541778564453125e+01,4.560236740112304688e+01,3.052339935302734375e+01,1.065270156860351562e+02,9.478729248046875000e+01,-3.445841550827026367e+00,4.031498432159423828e-01,-6.667009735107421875e+01,-1.826863250732421875e+02,-2.342245101928710938e+00,7.562081146240234375e+01,3.135675048828125000e+01
2.579360008239746094e-01,1.000000000000000000e+00,-3.583483505249023438e+01,4.552589797973632812e+01,3.054468536376953125e+01,1.064569015502929688e+02,9.480680084228515625e+01,-3.468356609344482422e+00,4.031498432159423828e-01,-6.667019653320312500e+01,-1.826863250732421875e+02,-2.342245101928710938e+00,7.562088012695312500e+01,3.135675048828125000e+01
2.600539922714233398e-01,1.000000000000000000e+00,-3.587438964843750000e+01,4.544923019409179688e+01,3.056627845764160156e+01,1.063875808715820312e+02,9.482711791992187500e+01,-3.491075277328491211e+00,4.031498432159423828e-01,-6.667009735107421875e+01,-1.826863250732421875e+02,-2.342245101928710938e+00,7.562088012695312500e+01,3.135675048828125000e+01
2.630659937858581543e-01,1.000000000000000000e+00,-3.591363525390625000e+01,4.537231063842773438e+01,3.058766746520996094e+01,1.063174209594726562e+02,9.484758758544921875e+01,-3.514065265655517578e+00,4.031498432159423828e-01,-6.667009735107421875e+01,-1.826863250732421875e+02,-2.342245101928710938e+00,7.562081146240234375e+01,3.135675048828125000e+01
2.671850025653839111e-01,1.000000000000000000e+00,-3.591363525390625000e+01,4.537231063842773438e+01,3.058766746520996094e+01,1.063174209594726562e+02,9.484758758544921875e+01,-3.514065265655517578e+00,4.031498432159423828e-01,-6.667009735107421875e+01,-1.826863250732421875e+02,-2.342245101928710938e+00,7.562081146240234375e+01,3.135675048828125000e+01
2.710539996623992920e-01,1.000000000000000000e+00,-3.595284652709960938e+01,4.529525756835937500e+01,3.060907554626464844e+01,1.062471008300781250e+02,9.486854553222656250e+01,-3.536987543106079102e+00,4.031498432159423828e-01,-6.667009735107421875e+01,-1.826863250732421875e+02,-2.342316627502441406e+00,7.562088012695312500e+01,3.135675048828125000e+01
2.750430107116699219e-01,1.000000000000000000e+00,-3.599200439453125000e+01,4.521836090087890625e+01,3.063022232055664062e+01,1.061766815185546875e+02,9.488980865478515625e+01,-3.558892250061035156e+00,4.031498432159423828e-01,-6.667009735107421875e+01,-1.826863250732421875e+02,-2.342173099517822266e+00,7.562081146240234375e+01,3.135653114318847656e+01
2.798230051994323730e-01,1.000000000000000000e+00,-3.603136062622070312e+01,4.514166641235351562e+01,3.065136528015136719e+01,1.061070404052734375e+02,9.491028594970703125e+01,-3.580661296844482422e+00,4.031498432159423828e-01,-6.667009735107421875e+01,-1.826863250732421875e+02,-2.342245101928710938e+00,7.562088012695312500e+01,3.135675048828125000e+01
2.839980125427246094e-01,1.000000000000000000e+00,-3.610952758789062500e+01,4.498825836181640625e+01,3.069412612915039062e+01,1.059660797119140625e+02,9.494969177246093750e+01,-3.625081539154052734e+00,4.031498432159423828e-01,-6.667009735107421875e+01,-1.826863250732421875e+02,-2.342245101928710938e+00,7.562088012695312500e+01,3.135653114318847656e+01
2.869960069656372070e-01,1.000000000000000000e+00,-3.614862823486328125e+01,4.491122817993164062e+01,3.071533012390136719e+01,1.058952407836914062e+02,9.496952056884765625e+01,-3.647528886795043945e+00,4.031498432159423828e-01,-6.667009735107421875e+01,-1.826863250732421875e+02,-2.342245101928710938e+00,7.562088012695312500e+01,3.135653114318847656e+01
2.911460101604461670e-01,1.000000000000000000e+00,-3.614862823486328125e+01,4.491122817993164062e+01,3.071533012390136719e+01,1.058952407836914062e+02,9.496952056884765625e+01,-3.647528886795043945e+00,4.031498432159423828e-01,-6.667009735107421875e+01,-1.826863250732421875e+02,-2.342245101928710938e+00,7.562088012695312500e+01,3.135653114318847656e+01
2.950449883937835693e-01,1.000000000000000000e+00,-3.618772506713867188e+01,4.483396530151367188e+01,3.073663711547851562e+01,1.058252410888671875e+02,9.499021148681640625e+01,-3.669636964797973633e+00,4.031498432159423828e-01,-6.667009735107421875e+01,-1.826863250732421875e+02,-2.342245101928710938e+00,7.562088012695312500e+01,3.135675048828125000e+01
2.990649938583374023e-01,1.000000000000000000e+00,-3.622679519653320312e+01,4.475616836547851562e+01,3.075798797607421875e+01,1.057547607421875000e+02,9.501121520996093750e+01,-3.692626953125000000e+00,4.031498432159423828e-01,-6.667009735107421875e+01,-1.826863250732421875e+02,-2.342316627502441406e+00,7.562081146240234375e+01,3.135675048828125000e+01
3.037619888782501221e-01,1.000000000000000000e+00,-3.626603698730468750e+01,4.467825317382812500e+01,3.077961921691894531e+01,1.056847534179687500e+02,9.503253936767578125e+01,-3.715752840042114258e+00,4.031498432159423828e-01,-6.667009735107421875e+01,-1.826863250732421875e+02,-2.342245101928710938e+00,7.562081146240234375e+01,3.135675048828125000e+01
3.090069890022277832e-01,1.000000000000000000e+00,-3.630516433715820312e+01,4.460056304931640625e+01,3.080123329162597656e+01,1.056139068603515625e+02,9.505317687988281250e+01,-3.738267660140991211e+00,4.031498432159423828e-01,-6.667009735107421875e+01,-1.826863250732421875e+02,-2.342245101928710938e+00,7.562088012695312500e+01,3.135675048828125000e+01
3.115249872207641602e-01,1.000000000000000000e+00,-3.638416671752929688e+01,4.444529724121093750e+01,3.084409332275390625e+01,1.054733200073242188e+02,9.509294891357421875e+01,-3.781806230545043945e+00,4.031498432159423828e-01,-6.667009735107421875e+01,-1.826863250732421875e+02,-2.342173099517822266e+00,7.562081146240234375e+01,3.135653114318847656e+01
3.151449859142303467e-01,1.000000000000000000e+00,-3.638416671752929688e+01,4.444529724121093750e+01,3.084409332275390625e+01,1.054733200073242188e+02,9.509294891357421875e+01,-3.781806230545043945e+00,4.031498432159423828e-01,-6.667009735107421875e+01,-1.826863250732421875e+02,-2.342173099517822266e+00,7.562081146240234375e+01,3.135653114318847656e+01
3.191109895706176758e-01,1.000000000000000000e+00,-3.642372512817382812e+01,4.436776733398437500e+01,3.086527633666992188e+01,1.054036331176757812e+02,9.511310577392578125e+01,-3.804185628890991211e+00,4.031498432159423828e-01,-6.667009735107421875e+01,-1.826863250732421875e+02,-2.342245101928710938e+00,7.562088012695312500e+01,3.135675048828125000e+01
3.230620026588439941e-01,1.000000000000000000e+00,-3.646334075927734375e+01,4.429026031494140625e+01,3.088664436340332031e+01,1.053326263427734375e+02,9.513368225097656250e+01,-3.826700925827026367e+00,4.031498432159423828e-01,-6.667009735107421875e+01,-1.826863250732421875e+02,-2.342245101928710938e+00,7.562088012695312500e+01,3.135675048828125000e+01
3.277580142021179199e-01,1.000000000000000000e+00,-3.650329971313476562e+01,4.421261596679687500e+01,3.090815734863281250e+01,1.052622528076171875e+02,9.515479278564453125e+01,-3.848944902420043945e+00,4.031498432159423828e-01,-6.667009735107421875e+01,-1.826863250732421875e+02,-2.342245101928710938e+00,7.562088012695312500e+01,3.135675048828125000e+01
3.320420086383819580e-01,1.000000000000000000e+00,-3.654328918457031250e+01,4.413472747802734375e+01,3.092971038818359375e+01,1.051912536621093750e+02,9.517628479003906250e+01,-3.871731281280517578e+00,4.031498432159423828e-01,-6.667009735107421875e+01,-1.826863250732421875e+02,-2.342245101928710938e+00,7.562081146240234375e+01,3.135675048828125000e+01
3.360329866409301758e-01,1.000000000000000000e+00,-3.658333206176757812e+01,4.405672073364257812e+01,3.095126152038574219e+01,1.051208724975585938e+02,9.519723510742187500e+01,-3.895195960998535156e+00,4.031498432159423828e-01,-6.667009735107421875e+01,-1.826863250732421875e+02,-2.342316627502441406e+00,7.562081146240234375e+01,3.135675048828125000e+01
3.410350084304809570e-01,1.000000000000000000e+00,-3.662340927124023438e+01,4.397866821289062500e+01,3.097277069091796875e+01,1.050496597290039062e+02,9.521711730957031250e+01,-3.917778968811035156e+00,4.031498432159423828e-01,-6.667009735107421875e+01,-1.826863250732421875e+02,-2.342245101928710938e+00,7.562088012695312500e+01,3.135675048828125000e+01
3.437150120735168457e-01,1.000000000000000000e+00,-3.670401763916015625e+01,4.382279586791992188e+01,3.101593780517578125e+01,1.049081802368164062e+02,9.525695037841796875e+01,-3.961249351501464844e+00,4.031498432159423828e-01,-6.667009735107421875e+01,-1.826863250732421875e+02,-2.342245101928710938e+00,7.562088012695312500e+01,3.135675048828125000e+01
3.480390012264251709e-01,1.000000000000000000e+00,-3.670401763916015625e+01,4.382279586791992188e+01,3.101593780517578125e+01,1.049081802368164062e+02,9.525695037841796875e+01,-3.961249351501464844e+00,4.031498432159423828e-01,-6.667009735107421875e+01,-1.826863250732421875e+02,-2.342245101928710938e+00,7.562088012695312500e+01,3.135675048828125000e+01
3.521220088005065918e-01,1.000000000000000000e+00,-3.674426269531250000e+01,4.374508285522460938e+01,3.103754806518554688e+01,1.048376998901367188e+02,9.527742767333984375e+01,-3.983696699142456055e+00,4.031498432159423828e-01,-6.667009735107421875e+01,-1.826863250732421875e+02,-2.342173099517822266e+00,7.562081146240234375e+01,3.135675048828125000e+01
3.552620112895965576e-01,1.000000000000000000e+00,-3.678462600708007812e+01,4.366746139526367188e+01,3.105895805358886719e+01,1.047668075561523438e+02,9.529869079589843750e+01,-4.005533695220947266e+00,4.031498432159423828e-01,-6.667009735107421875e+01,-1.826863250732421875e+02,-2.342245101928710938e+00,7.562081146240234375e+01,3.135697174072265625e+01
3.590629994869232178e-01,1.000000000000000000e+00,-3.682504653930664062e+01,4.359011459350585938e+01,3.108050918579101562e+01,1.046962203979492188e+02,9.531996917724609375e+01,-4.028116703033447266e+00,4.031498432159423828e-01,-6.667009735107421875e+01,-1.826863250732421875e+02,-2.342245101928710938e+00,7.562088012695312500e+01,3.135675048828125000e+01
3.634440004825592041e-01,1.000000000000000000e+00,-3.686566543579101562e+01,4.351269912719726562e+01,3.110212326049804688e+01,1.046253204345703125e+02,9.534097290039062500e+01,-4.051174640655517578e+00,4.031498432159423828e-01,-6.667009735107421875e+01,-1.826863250732421875e+02,-2.342245101928710938e+00,7.562081146240234375e+01,3.135675048828125000e+01
3.671160042285919189e-01,1.000000000000000000e+00,-3.690597152709960938e+01,4.343525695800781250e+01,3.112389945983886719e+01,1.045546875000000000e+02,9.536075592041015625e+01,-4.074571609497070312e+00,4.031498432159423828e-01,-6.667009735107421875e+01,-1.826863250732421875e+02,-2.342245101928710938e+00,7.562088012695312500e+01,3.135675048828125000e+01
3.710590004920959473e-01,1.000000000000000000e+00,-3.694670486450195312e+01,4.335757064819335938e+01,3.114557075500488281e+01,1.044834671020507812e+02,9.538085174560546875e+01,-4.097629070281982422e+00,4.031498432159423828e-01,-6.667009735107421875e+01,-1.826863250732421875e+02,-2.342245101928710938e+00,7.562081146240234375e+01,3.135675048828125000e+01
3.757529854774475098e-01,1.000000000000000000e+00,-3.698720932006835938e+01,4.327936172485351562e+01,3.116716384887695312e+01,1.044126281738281250e+02,9.540116882324218750e+01,-4.119805335998535156e+00,4.031498432159423828e-01,-6.667009735107421875e+01,-1.826863250732421875e+02,-2.342245101928710938e+00,7.562102508544921875e+01,3.135675048828125000e+01
3.800399899482727051e-01,1.000000000000000000e+00,-3.702774429321289062e+01,4.320087814331054688e+01,3.118867683410644531e+01,1.043411941528320312e+02,9.542174530029296875e+01,-4.141710281372070312e+00,4.031498432159423828e-01,-6.667009735107421875e+01,-1.826863250732421875e+02,-2.342316627502441406e+00,7.562088012695312500e+01,3.135675048828125000e+01
3.830470144748687744e-01,1.000000000000000000e+00,-3.706796264648437500e+01,4.312248992919921875e+01,3.121028709411621094e+01,1.042704010009765625e+02,9.544291687011718750e+01,-4.164089679718017578e+00,4.031498432159423828e-01,-6.667009735107421875e+01,-1.826863250732421875e+02,-2.342245101928710938e+00,7.562081146240234375e+01,3.135675048828125000e+01
3.876929879188537598e-01,1.000000000000000000e+00,-3.710863876342773438e+01,4.304425811767578125e+01,3.123216438293457031e+01,1.041987075805664062e+02,9.546440124511718750e+01,-4.186740398406982422e+00,4.031498432159423828e-01,-6.667009735107421875e+01,-1.826863250732421875e+02,-2.342245101928710938e+00,7.562081146240234375e+01,3.135675048828125000e+01
3.920519948005676270e-01,1.000000000000000000e+00,-3.714911651611328125e+01,4.296630096435546875e+01,3.125379943847656250e+01,1.041276016235351562e+02,9.548546600341796875e+01,-4.209391593933105469e+00,4.031498432159423828e-01,-6.667009735107421875e+01,-1.826863250732421875e+02,-2.342173099517822266e+00,7.562081146240234375e+01,3.135675048828125000e+01
3.952200114727020264e-01,1.000000000000000000e+00,-3.718970870971679688e+01,4.288833618164062500e+01,3.127553176879882812e+01,1.040560684204101562e+02,9.550561523437500000e+01,-4.231906890869140625e+00,4.031498432159423828e-01,-6.667009735107421875e+01,-1.826863250732421875e+02,-2.342245101928710938e+00,7.562088012695312500e+01,3.135675048828125000e+01
3.999679982662200928e-01,1.000000000000000000e+00,-3.722998428344726562e+01,4.281064987182617188e+01,3.129728698730468750e+01,1.039851684570312500e+02,9.552539062500000000e+01,-4.255303382873535156e+00,4.031498432159423828e-01,-6.667009735107421875e+01,-1.826863250732421875e+02,-2.342316627502441406e+00,7.562081146240234375e+01,3.135675048828125000e+01
4.040380120277404785e-01,1.000000000000000000e+00,-3.727043151855468750e+01,4.273259735107421875e+01,3.131894111633300781e+01,1.039138488769531250e+02,9.554549407958984375e+01,-4.278496742248535156e+00,4.031498432159423828e-01,-6.667009735107421875e+01,-1.826863250732421875e+02,-2.342245101928710938e+00,7.562081146240234375e+01,3.135697174072265625e+01
4.071959853172302246e-01,1.000000000000000000e+00,-3.731108093261718750e+01,4.265407562255859375e+01,3.134073638916015625e+01,1.038428955078125000e+02,9.556601715087890625e+01,-4.301012039184570312e+00,4.031498432159423828e-01,-6.667009735107421875e+01,-1.826863250732421875e+02,-2.342173099517822266e+00,7.562088012695312500e+01,3.135675048828125000e+01
4.119150042533874512e-01,1.000000000000000000e+00,-3.735164642333984375e+01,4.257545471191406250e+01,3.136247062683105469e+01,1.037714767456054688e+02,9.558687591552734375e+01,-4.322984695434570312e+00,4.031498432159423828e-01,-6.667009735107421875e+01,-1.826863250732421875e+02,-2.342245101928710938e+00,7.562088012695312500e+01,3.135675048828125000e+01
4.160349965095520020e-01,1.000000000000000000e+00,-3.739212036132812500e+01,4.249654769897460938e+01,3.138418769836425781e+01,1.037002563476562500e+02,9.560861968994140625e+01,-4.345364093780517578e+00,4.031498432159423828e-01,-6.667009735107421875e+01,-1.826863250732421875e+02,-2.342245101928710938e+00,7.562081146240234375e+01,3.135697174072265625e+01
4.191739857196807861e-01,1.000000000000000000e+00,-3.743273925781250000e+01,4.241743087768554688e+01,3.140598106384277344e+01,1.036287231445312500e+02,9.562968444824218750e+01,-4.368421554565429688e+00,4.031498432159423828e-01,-6.667019653320312500e+01,-1.826863250732421875e+02,-2.342316627502441406e+00,7.562081146240234375e+01,3.135675048828125000e+01
4.233149886131286621e-01,1.000000000000000000e+00,-3.747321701049804688e+01,4.233827209472656250e+01,3.142783927917480469e+01,1.035575103759765625e+02,9.565015411376953125e+01,-4.391140460968017578e+00,4.031498432159423828e-01,-6.667009735107421875e+01,-1.826863250732421875e+02,-2.342245101928710938e+00,7.562088012695312500e+01,3.135675048828125000e+01
4.273720085620880127e-01,1.000000000000000000e+00,-3.751383590698242188e+01,4.225947189331054688e+01,3.144981765747070312e+01,1.034857177734375000e+02,9.566967010498046875e+01,-4.413655757904052734e+00,4.031498432159423828e-01,-6.667009735107421875e+01,-1.826863250732421875e+02,-2.342245101928710938e+00,7.562088012695312500e+01,3.135675048828125000e+01
4.311349987983703613e-01,1.000000000000000000e+00,-3.755451583862304688e+01,4.218070220947265625e+01,3.147167396545410156e+01,1.034141311645507812e+02,9.569019317626953125e+01,-4.437052726745605469e+00,4.031498432159423828e-01,-6.667009735107421875e+01,-1.826863250732421875e+02,-2.342245101928710938e+00,7.562088012695312500e+01,3.135675048828125000e+01
4.361639916896820068e-01,1.000000000000000000e+00,-3.759510803222656250e+01,4.210208129882812500e+01,3.149322319030761719e+01,1.033421859741210938e+02,9.571093750000000000e+01,-4.460991859436035156e+00,4.031498432159423828e-01,-6.667009735107421875e+01,-1.826863250732421875e+02,-2.342245101928710938e+00,7.562081146240234375e+01,3.135675048828125000e+01
4.394370019435882568e-01,1.000000000000000000e+00,-3.763566970825195312e+01,4.202328491210937500e+01,3.151487922668457031e+01,1.032703857421875000e+02,9.573210144042968750e+01,-4.483710765838623047e+00,4.031498432159423828e-01,-6.667009735107421875e+01,-1.826863250732421875e+02,-2.342245101928710938e+00,7.562081146240234375e+01,3.135675048828125000e+01
4.434719979763031006e-01,1.000000000000000000e+00,-3.767625808715820312e+01,4.194457626342773438e+01,3.153657150268554688e+01,1.031991195678710938e+02,9.575406646728515625e+01,-4.505683422088623047e+00,4.031498432159423828e-01,-6.667009735107421875e+01,-1.826863250732421875e+02,-2.342245101928710938e+00,7.562088012695312500e+01,3.135653114318847656e+01
4.483009874820709229e-01,1.000000000000000000e+00,-3.771662139892578125e+01,4.186557769775390625e+01,3.155838775634765625e+01,1.031272201538085938e+02,9.577529144287109375e+01,-4.528062820434570312e+00,4.031498432159423828e-01,-6.667009735107421875e+01,-1.826863250732421875e+02,-2.342173099517822266e+00,7.562088012695312500e+01,3.135675048828125000e+01
4.514339864253997803e-01,1.000000000000000000e+00,-3.775712585449218750e+01,4.178610229492187500e+01,3.158042907714843750e+01,1.030553741455078125e+02,9.579576110839843750e+01,-4.550849437713623047e+00,4.031498432159423828e-01,-6.667009735107421875e+01,-1.826863250732421875e+02,-2.342245101928710938e+00,7.562088012695312500e+01,3.135653114318847656e+01
4.554040133953094482e-01,1.000000000000000000e+00,-3.779783248901367188e+01,4.170639801025390625e+01,3.160240745544433594e+01,1.029834136962890625e+02,9.581570434570312500e+01,-4.573635578155517578e+00,4.031498432159423828e-01,-6.667009735107421875e+01,-1.826863250732421875e+02,-2.342245101928710938e+00,7.562088012695312500e+01,3.135675048828125000e+01
4.602360129356384277e-01,1.000000000000000000e+00,-3.783848190307617188e+01,4.162678527832031250e+01,3.162434577941894531e+01,1.029121017456054688e+02,9.583580780029296875e+01,-4.596693515777587891e+00,4.031498432159423828e-01,-6.667009735107421875e+01,-1.826863250732421875e+02,-2.342245101928710938e+00,7.562088012695312500e+01,3.135675048828125000e+01
4.636310040950775146e-01,1.000000000000000000e+00,-3.787916183471679688e+01,4.154737854003906250e+01,3.164620399475097656e+01,1.028403015136718750e+02,9.585654449462890625e+01,-4.620022296905517578e+00,4.031498432159423828e-01,-6.667009735107421875e+01,-1.826863250732421875e+02,-2.342245101928710938e+00,7.562088012695312500e+01,3.135675048828125000e+01
4.680390059947967529e-01,1.000000000000000000e+00,-3.791983795166015625e+01,4.146830749511718750e+01,3.166824150085449219e+01,1.027680282592773438e+02,9.587792205810546875e+01,-4.643622398376464844e+00,4.031498432159423828e-01,-6.667009735107421875e+01,-1.826863250732421875e+02,-2.342173099517822266e+00,7.562088012695312500e+01,3.135675048828125000e+01
4.716300070285797119e-01,1.000000000000000000e+00,-3.796057128906250000e+01,4.138957977294921875e+01,3.169021987915039062e+01,1.026963958740234375e+02,9.589978790283203125e+01,-4.666612625122070312e+00,4.031498432159423828e-01,-6.667009735107421875e+01,-1.826863250732421875e+02,-2.342245101928710938e+00,7.562088012695312500e+01,3.135653114318847656e+01
4.756700098514556885e-01,1.000000000000000000e+00,-3.800116348266601562e+01,4.131105422973632812e+01,3.171199417114257812e+01,1.026244964599609375e+02,9.592111206054687500e+01,-4.688517093658447266e+00,4.031498432159423828e-01,-6.667009735107421875e+01,-1.826863250732421875e+02,-2.342316627502441406e+00,7.562081146240234375e+01,3.135675048828125000e+01
4.800769984722137451e-01,1.000000000000000000e+00,-3.804175567626953125e+01,4.123218917846679688e+01,3.173369026184082031e+01,1.025523910522460938e+02,9.594136810302734375e+01,-4.710625648498535156e+00,4.031498432159423828e-01,-6.667009735107421875e+01,-1.826863250732421875e+02,-2.342316627502441406e+00,7.562088012695312500e+01,3.135675048828125000e+01
4.844799935817718506e-01,1.000000000000000000e+00,-3.808243560791015625e+01,4.115278244018554688e+01,3.175556755065917969e+01,1.024794387817382812e+02,9.596179199218750000e+01,-4.733683586120605469e+00,4.031498432159423828e-01,-6.667009735107421875e+01,-1.826863250732421875e+02,-2.342245101928710938e+00,7.562065887451171875e+01,3.135675048828125000e+01
4.878950119018554688e-01,1.000000000000000000e+00,-3.812328338623046875e+01,4.107334899902343750e+01,3.177768707275390625e+01,1.024073791503906250e+02,9.598220825195312500e+01,-4.756808757781982422e+00,4.031498432159423828e-01,-6.667009735107421875e+01,-1.826863250732421875e+02,-2.342173099517822266e+00,7.562081146240234375e+01,3.135675048828125000e+01
4.920539855957031250e-01,1.000000000000000000e+00,-3.816407394409179688e+01,4.099371719360351562e+01,3.179988861083984375e+01,1.023353652954101562e+02,9.600294494628906250e+01,-4.779595375061035156e+00,4.031498432159423828e-01,-6.667001342773437500e+01,-1.826863250732421875e+02,-2.342245101928710938e+00,7.562088012695312500e+01,3.135697174072265625e+01
4.972020089626312256e-01,1.000000000000000000e+00,-3.820481109619140625e+01,4.091381072998046875e+01,3.182199096679687500e+01,1.022635192871093750e+02,9.602454376220703125e+01,-4.802856922149658203e+00,4.031498432159423828e-01,-6.667009735107421875e+01,-1.826863250732421875e+02,-2.342245101928710938e+00,7.562081146240234375e+01,3.135697174072265625e+01
5.010740160942077637e-01,1.000000000000000000e+00,-3.828639221191406250e+01,4.075444793701171875e+01,3.186566352844238281e+01,1.021190872192382812e+02,9.606815338134765625e+01,-4.849379062652587891e+00,4.031498432159423828e-01,-6.667009735107421875e+01,-1.826863250732421875e+02,-2.342245101928710938e+00,7.562088012695312500e+01,3.135675048828125000e+01
5.038759708404541016e-01,1.000000000000000000e+00,-3.828639221191406250e+01,4.075444793701171875e+01,3.186566352844238281e+01,1.021190872192382812e+02,9.606815338134765625e+01,-4.849379062652587891e+00,4.031498432159423828e-01,-6.667009735107421875e+01,-1.826863250732421875e+02,-2.342245101928710938e+00,7.562088012695312500e+01,3.135675048828125000e+01
5.086629986763000488e-01,1.000000000000000000e+00,-3.832712936401367188e+01,4.067540359497070312e+01,3.188764381408691406e+01,1.020469818115234375e+02,9.608835601806640625e+01,-4.871690750122070312e+00,4.031498432159423828e-01,-6.667009735107421875e+01,-1.826863250732421875e+02,-2.342245101928710938e+00,7.562088012695312500e+01,3.135697174072265625e+01
5.121269822120666504e-01,1.000000000000000000e+00,-3.836809158325195312e+01,4.059606170654296875e+01,3.190988540649414062e+01,1.019749221801757812e+02,9.610845947265625000e+01,-4.894273757934570312e+00,4.031498432159423828e-01,-6.667009735107421875e+01,-1.826862182617187500e+02,-2.342316627502441406e+00,7.562081146240234375e+01,3.135653114318847656e+01
5.160179734230041504e-01,1.000000000000000000e+00,-3.840896987915039062e+01,4.051672363281250000e+01,3.193202590942382812e+01,1.019021301269531250e+02,9.612893676757812500e+01,-4.916992187500000000e+00,4.031498432159423828e-01,-6.667009735107421875e+01,-1.826863250732421875e+02,-2.342316627502441406e+00,7.562102508544921875e+01,3.135675048828125000e+01
5.200790166854858398e-01,1.000000000000000000e+00,-3.844968032836914062e+01,4.043715667724609375e+01,3.195400619506835938e+01,1.018301696777343750e+02,9.614988708496093750e+01,-4.940186023712158203e+00,4.031498432159423828e-01,-6.667009735107421875e+01,-1.826863250732421875e+02,-2.342173099517822266e+00,7.562088012695312500e+01,3.135675048828125000e+01
5.241879820823669434e-01,1.000000000000000000e+00,-3.849050140380859375e+01,4.035718154907226562e+01,3.197590255737304688e+01,1.017574310302734375e+02,9.617127227783203125e+01,-4.963108062744140625e+00,4.031498432159423828e-01,-6.667009735107421875e+01,-1.826863250732421875e+02,-2.342245101928710938e+00,7.562081146240234375e+01,3.135653114318847656e+01
5.280759930610656738e-01,1.000000000000000000e+00,-3.853152084350585938e+01,4.027689361572265625e+01,3.199808502197265625e+01,1.016851119995117188e+02,9.619306945800781250e+01,-4.986775875091552734e+00,4.031498432159423828e-01,-6.667009735107421875e+01,-1.826863250732421875e+02,-2.342245101928710938e+00,7.562088012695312500e+01,3.135675048828125000e+01
5.327579975128173828e-01,1.000000000000000000e+00,-3.857242965698242188e+01,4.019635009765625000e+01,3.202040863037109375e+01,1.016121520996093750e+02,9.621434783935546875e+01,-5.010443687438964844e+00,4.031498432159423828e-01,-6.667009735107421875e+01,-1.826863250732421875e+02,-2.342245101928710938e+00,7.562081146240234375e+01,3.135675048828125000e+01
5.362439751625061035e-01,1.000000000000000000e+00,-3.861325073242187500e+01,4.011612701416015625e+01,3.204248809814453125e+01,1.015394134521484375e+02,9.623487091064453125e+01,-5.033501625061035156e+00,4.031498432159423828e-01,-6.667009735107421875e+01,-1.826863250732421875e+02,-2.342245101928710938e+00,7.562088012695312500e+01,3.135697174072265625e+01
5.402969717979431152e-01,1.000000000000000000e+00,-3.865407180786132812e+01,4.003585815429687500e+01,3.206456756591796875e+01,1.014666671752929688e+02,9.625508117675781250e+01,-5.055813312530517578e+00,4.031498432159423828e-01,-6.667009735107421875e+01,-1.826863250732421875e+02,-2.342245101928710938e+00,7.562088012695312500e+01,3.135675048828125000e+01
5.442529916763305664e-01,1.000000000000000000e+00,-3.869514846801757812e+01,3.995586395263671875e+01,3.208658981323242188e+01,1.013942947387695312e+02,9.627587890625000000e+01,-5.078260421752929688e+00,4.031498432159423828e-01,-6.667009735107421875e+01,-1.826863250732421875e+02,-2.342173099517822266e+00,7.562088012695312500e+01,3.135675048828125000e+01
5.482090115547180176e-01,1.000000000000000000e+00,-3.873643112182617188e+01,3.987625122070312500e+01,3.210877227783203125e+01,1.013218688964843750e+02,9.629672241210937500e+01,-5.101182937622070312e+00,4.031498432159423828e-01,-6.667009735107421875e+01,-1.826863250732421875e+02,-2.342316627502441406e+00,7.562081146240234375e+01,3.135675048828125000e+01
5.520079731941223145e-01,1.000000000000000000e+00,-3.877756881713867188e+01,3.979670715332031250e+01,3.213107299804687500e+01,1.012490158081054688e+02,9.631820678710937500e+01,-5.123833656311035156e+00,4.031498432159423828e-01,-6.667009735107421875e+01,-1.826863250732421875e+02,-2.342245101928710938e+00,7.562065887451171875e+01,3.135675048828125000e+01
5.570049881935119629e-01,1.000000000000000000e+00,-3.881867599487304688e+01,3.971661758422851562e+01,3.215327453613281250e+01,1.011767578125000000e+02,9.634006500244140625e+01,-5.147230625152587891e+00,4.031498432159423828e-01,-6.667009735107421875e+01,-1.826863250732421875e+02,-2.342245101928710938e+00,7.562088012695312500e+01,3.135675048828125000e+01
5.590100288391113281e-01,1.000000000000000000e+00,-3.886007308959960938e+01,3.963614654541015625e+01,3.217539978027343750e+01,1.011039581298828125e+02,9.636154937744140625e+01,-5.170898437500000000e+00,4.031498432159423828e-01,-6.667009735107421875e+01,-1.826863250732421875e+02,-2.342245101928710938e+00,7.562088012695312500e+01,3.135675048828125000e+01
5.630409717559814453e-01,1.000000000000000000e+00,-3.890121078491210938e+01,3.955565261840820312e+01,3.219747924804687500e+01,1.010307388305664062e+02,9.638191986083984375e+01,-5.194499015808105469e+00,4.031498432159423828e-01,-6.667009735107421875e+01,-1.826863250732421875e+02,-2.342245101928710938e+00,7.562081146240234375e+01,3.135675048828125000e+01
5.683490037918090820e-01,1.000000000000000000e+00,-3.894260406494140625e+01,3.947481918334960938e+01,3.221971893310546875e+01,1.009582061767578125e+02,9.640229034423828125e+01,-5.218166828155517578e+00,4.031498432159423828e-01,-6.667009735107421875e+01,-1.826863250732421875e+02,-2.342245101928710938e+00,7.562081146240234375e+01,3.135675048828125000e+01
5.709850192070007324e-01,1.000000000000000000e+00,-3.898397064208984375e+01,3.939393997192382812e+01,3.224218750000000000e+01,1.008847274780273438e+02,9.642276000976562500e+01,-5.240478515625000000e+00,4.031498432159423828e-01,-6.667009735107421875e+01,-1.826863250732421875e+02,-2.342173099517822266e+00,7.562081146240234375e+01,3.135653114318847656e+01
5.750010013580322266e-01,1.000000000000000000e+00,-3.902548217773437500e+01,3.931344223022460938e+01,3.226459503173828125e+01,1.008120346069335938e+02,9.644387054443359375e+01,-5.263061523437500000e+00,4.031498432159423828e-01,-6.667009735107421875e+01,-1.826863250732421875e+02,-2.342245101928710938e+00,7.562088012695312500e+01,3.135675048828125000e+01
5.790449976921081543e-01,1.000000000000000000e+00,-3.906699371337890625e+01,3.923326492309570312e+01,3.228685760498046875e+01,1.007385025024414062e+02,9.646541595458984375e+01,-5.286458492279052734e+00,4.031498432159423828e-01,-6.667009735107421875e+01,-1.826863250732421875e+02,-2.342245101928710938e+00,7.562065887451171875e+01,3.135675048828125000e+01
5.845270156860351562e-01,1.000000000000000000e+00,-3.910838699340820312e+01,3.915338516235351562e+01,3.230901718139648438e+01,1.006657638549804688e+02,9.648743438720703125e+01,-5.309651851654052734e+00,4.031498432159423828e-01,-6.667009735107421875e+01,-1.826863250732421875e+02,-2.342316627502441406e+00,7.562081146240234375e+01,3.135675048828125000e+01
5.887439846992492676e-01,1.000000000000000000e+00,-3.915003967285156250e+01,3.907315826416015625e+01,3.233115768432617188e+01,1.005921249389648438e+02,9.650871276855468750e+01,-5.333048343658447266e+00,4.031498432159423828e-01,-6.667009735107421875e+01,-1.826863250732421875e+02,-2.342316627502441406e+00,7.562088012695312500e+01,3.135653114318847656e+01
5.926049947738647461e-01,1.000000000000000000e+00,-3.919172286987304688e+01,3.899282455444335938e+01,3.235354614257812500e+01,1.005192184448242188e+02,9.652933502197265625e+01,-5.356716632843017578e+00,4.031498432159423828e-01,-6.667009735107421875e+01,-1.826863250732421875e+02,-2.342316627502441406e+00,7.562088012695312500e+01,3.135697174072265625e+01
5.949820280075073242e-01,1.000000000000000000e+00,-3.923354721069335938e+01,3.891237258911132812e+01,3.237578582763671875e+01,1.004460067749023438e+02,9.654965209960937500e+01,-5.380316734313964844e+00,4.031498432159423828e-01,-6.667009735107421875e+01,-1.826863250732421875e+02,-2.342245101928710938e+00,7.562088012695312500e+01,3.135675048828125000e+01
5.989770293235778809e-01,1.000000000000000000e+00,-3.927523040771484375e+01,3.883140563964843750e+01,3.239799118041992188e+01,1.003733139038085938e+02,9.657044982910156250e+01,-5.403374671936035156e+00,4.031498432159423828e-01,-6.667019653320312500e+01,-1.826863250732421875e+02,-2.342245101928710938e+00,7.562081146240234375e+01,3.135675048828125000e+01
6.030589938163757324e-01,1.000000000000000000e+00,-3.931697082519531250e+01,3.875023269653320312e+01,3.242035293579101562e+01,1.002996215820312500e+02,9.659177398681640625e+01,-5.426432609558105469e+00,4.031498432159423828e-01,-6.667009735107421875e+01,-1.826863250732421875e+02,-2.342245101928710938e+00,7.562081146240234375e+01,3.135675048828125000e+01
6.089149713516235352e-01,1.000000000000000000e+00,-3.935873794555664062e+01,3.866894149780273438e+01,3.244280242919921875e+01,1.002267761230468750e+02,9.661357879638671875e+01,-5.449286937713623047e+00,4.031498432159423828e-01,-6.667009735107421875e+01,-1.826863250732421875e+02,-2.342245101928710938e+00,7.562088012695312500e+01,3.135653114318847656e+01
6.126819849014282227e-01,1.000000000000000000e+00,-3.940042114257812500e+01,3.858795166015625000e+01,3.246522903442382812e+01,1.001533432006835938e+02,9.663565063476562500e+01,-5.472479820251464844e+00,4.031498432159423828e-01,-6.667009735107421875e+01,-1.826863250732421875e+02,-2.342316627502441406e+00,7.562102508544921875e+01,3.135675048828125000e+01
6.168059706687927246e-01,1.000000000000000000e+00,-3.944233322143554688e+01,3.850713729858398438e+01,3.248765563964843750e+01,1.000801849365234375e+02,9.665713500976562500e+01,-5.496080398559570312e+00,4.031498432159423828e-01,-6.667009735107421875e+01,-1.826863250732421875e+02,-2.342245101928710938e+00,7.562088012695312500e+01,3.135675048828125000e+01
6.207299828529357910e-01,1.000000000000000000e+00,-3.948406982421875000e+01,3.842657470703125000e+01,3.250991821289062500e+01,1.000060729980468750e+02,9.667771911621093750e+01,-5.519477367401123047e+00,4.031498432159423828e-01,-6.667009735107421875e+01,-1.826863250732421875e+02,-2.342245101928710938e+00,7.562088012695312500e+01,3.135675048828125000e+01
6.247789859771728516e-01,1.000000000000000000e+00,-3.952592468261718750e+01,3.834628677368164062e+01,3.253210067749023438e+01,9.993280029296875000e+01,9.669813537597656250e+01,-5.543281078338623047e+00,4.031498432159423828e-01,-6.667009735107421875e+01,-1.826863250732421875e+02,-2.342245101928710938e+00,7.562088012695312500e+01,3.135675048828125000e+01
6.296629905700683594e-01,1.000000000000000000e+00,-3.956766510009765625e+01,3.826552200317382812e+01,3.255444335937500000e+01,9.985858154296875000e+01,9.671892547607421875e+01,-5.567559242248535156e+00,4.031498432159423828e-01,-6.667009735107421875e+01,-1.826863250732421875e+02,-2.342245101928710938e+00,7.562081146240234375e+01,3.135653114318847656e+01
6.329969763755798340e-01,1.000000000000000000e+00,-3.960931777954101562e+01,3.818434906005859375e+01,3.257686996459960938e+01,9.978546905517578125e+01,9.674031066894531250e+01,-5.591430664062500000e+00,4.031498432159423828e-01,-6.667009735107421875e+01,-1.826863250732421875e+02,-2.342245101928710938e+00,7.562088012695312500e+01,3.135675048828125000e+01
6.350060105323791504e-01,1.000000000000000000e+00,-3.965111541748046875e+01,3.810313034057617188e+01,3.259931564331054688e+01,9.971162414550781250e+01,9.676216888427734375e+01,-5.614284992218017578e+00,4.031498432159423828e-01,-6.667009735107421875e+01,-1.826863250732421875e+02,-2.342245101928710938e+00,7.562088012695312500e+01,3.135675048828125000e+01
6.390669941902160645e-01,1.000000000000000000e+00,-3.969300079345703125e+01,3.802156829833984375e+01,3.262190628051757812e+01,9.963777923583984375e+01,9.678440093994140625e+01,-5.636800289154052734e+00,4.031498432159423828e-01,-6.667009735107421875e+01,-1.826862182617187500e+02,-2.342245101928710938e+00,7.562081146240234375e+01,3.135675048828125000e+01
6.451079845428466797e-01,1.000000000000000000e+00,-3.973497009277343750e+01,3.793985366821289062e+01,3.264437103271484375e+01,9.956387329101562500e+01,9.680583953857421875e+01,-5.660061359405517578e+00,4.031498432159423828e-01,-6.667009735107421875e+01,-1.826863250732421875e+02,-2.342316627502441406e+00,7.562081146240234375e+01,3.135675048828125000e+01
6.470220088958740234e-01,1.000000000000000000e+00,-3.977688217163085938e+01,3.785826873779296875e+01,3.266687774658203125e+01,9.949065399169921875e+01,9.682636260986328125e+01,-5.683661937713623047e+00,4.031498432159423828e-01,-6.667009735107421875e+01,-1.826863250732421875e+02,-2.342245101928710938e+00,7.562065887451171875e+01,3.135675048828125000e+01
6.510019898414611816e-01,1.000000000000000000e+00,-3.981873703002929688e+01,3.777700805664062500e+01,3.268932342529296875e+01,9.941691589355468750e+01,9.684699249267578125e+01,-5.707465171813964844e+00,4.031498432159423828e-01,-6.667009735107421875e+01,-1.826863250732421875e+02,-2.342245101928710938e+00,7.562088012695312500e+01,3.135675048828125000e+01
6.572139859199523926e-01,1.000000000000000000e+00,-3.986059188842773438e+01,3.769615173339843750e+01,3.271158599853515625e+01,9.934280395507812500e+01,9.686832427978515625e+01,-5.731608390808105469e+00,4.031498432159423828e-01,-6.667009735107421875e+01,-1.826863250732421875e+02,-2.342245101928710938e+00,7.562088012695312500e+01,3.135675048828125000e+01
6.590089797973632812e-01,1.000000000000000000e+00,-3.990238952636718750e+01,3.761497879028320312e+01,3.273405456542968750e+01,9.926899719238281250e+01,9.688986206054687500e+01,-5.755751132965087891e+00,4.031498432159423828e-01,-6.667009735107421875e+01,-1.826863250732421875e+02,-2.342245101928710938e+00,7.562081146240234375e+01,3.135675048828125000e+01
6.630489826202392578e-01,1.000000000000000000e+00,-3.994432830810546875e+01,3.753387069702148438e+01,3.275650024414062500e+01,9.919520568847656250e+01,9.691209411621093750e+01,-5.779215812683105469e+00,4.031498432159423828e-01,-6.667009735107421875e+01,-1.826863250732421875e+02,-2.342316627502441406e+00,7.562081146240234375e+01,3.135675048828125000e+01
6.670339703559875488e-01,1.000000000000000000e+00,-3.998624038696289062e+01,3.745254135131835938e+01,3.277923202514648438e+01,9.912109375000000000e+01,9.693422698974609375e+01,-5.802069664001464844e+00,4.031498432159423828e-01,-6.667009735107421875e+01,-1.826863250732421875e+02,-2.342316627502441406e+00,7.562088012695312500e+01,3.135675048828125000e+01
6.710280179977416992e-01,1.000000000000000000e+00,-4.002820968627929688e+01,3.737075424194335938e+01,3.280194473266601562e+01,9.904656219482421875e+01,9.695554351806640625e+01,-5.824856281280517578e+00,4.031498432159423828e-01,-6.667009735107421875e+01,-1.826863250732421875e+02,-2.342245101928710938e+00,7.562081146240234375e+01,3.135675048828125000e+01
6.750550270080566406e-01,1.000000000000000000e+00,-4.006989288330078125e+01,3.728881454467773438e+01,3.282447052001953125e+01,9.897219085693359375e+01,9.697623443603515625e+01,-5.848456859588623047e+00,4.031498432159423828e-01,-6.667009735107421875e+01,-1.826863250732421875e+02,-2.342245101928710938e+00,7.562088012695312500e+01,3.135675048828125000e+01
6.812239885330200195e-01,1.000000000000000000e+00,-4.011191940307617188e+01,3.720666885375976562e+01,3.284693527221679688e+01,9.889817810058593750e+01,9.699681854248046875e+01,-5.871921539306640625e+00,4.031498432159423828e-01,-6.667009735107421875e+01,-1.826863250732421875e+02,-2.342245101928710938e+00,7.562081146240234375e+01,3.135675048828125000e+01
6.829890012741088867e-01,1.000000000000000000e+00,-4.015377426147460938e+01,3.712461090087890625e+01,3.286944580078125000e+01,9.882427215576171875e+01,9.701787567138671875e+01,-5.895860671997070312e+00,4.031498432159423828e-01,-6.667009735107421875e+01,-1.826863250732421875e+02,-2.342316627502441406e+00,7.562088012695312500e+01,3.135675048828125000e+01
6.870650053024291992e-01,1.000000000000000000e+00,-4.019574356079101562e+01,3.704275512695312500e+01,3.289213562011718750e+01,9.875000762939453125e+01,9.703984069824218750e+01,-5.919732093811035156e+00,4.031498432159423828e-01,-6.667009735107421875e+01,-1.826863250732421875e+02,-2.342245101928710938e+00,7.562081146240234375e+01,3.135675048828125000e+01
6.931149959564208984e-01,1.000000000000000000e+00,-4.023780059814453125e+01,3.696140289306640625e+01,3.291484451293945312e+01,9.867589569091796875e+01,9.706191253662109375e+01,-5.943738937377929688e+00,4.031498432159423828e-01,-6.667009735107421875e+01,-1.826863250732421875e+02,-2.342245101928710938e+00,7.562088012695312500e+01,3.135675048828125000e+01
6.949840188026428223e-01,1.000000000000000000e+00,-4.027988433837890625e+01,3.688025283813476562e+01,3.293743515014648438e+01,9.860178375244140625e+01,9.708393096923828125e+01,-5.967271804809570312e+00,4.031498432159423828e-01,-6.667009735107421875e+01,-1.826863250732421875e+02,-2.342245101928710938e+00,7.562081146240234375e+01,3.135675048828125000e+01
6.999949812889099121e-01,1.000000000000000000e+00,-4.027988433837890625e+01,3.688025283813476562e+01,3.293743515014648438e+01,9.860178375244140625e+01,9.708393096923828125e+01,-5.967271804809570312e+00,4.031498432159423828e-01,-6.667009735107421875e+01,-1.826863250732421875e+02,-2.342173099517822266e+00,7.562081146240234375e+01,3.135675048828125000e+01
7.039999961853027344e-01,1.000000000000000000e+00,-4.036413574218750000e+01,3.671695709228515625e+01,3.298250961303710938e+01,9.845334625244140625e+01,9.712562561035156250e+01,-6.013048171997070312e+00,4.031498432159423828e-01,-6.667009735107421875e+01,-1.826863250732421875e+02,-2.342173099517822266e+00,7.562088012695312500e+01,3.135675048828125000e+01
7.069820165634155273e-01,1.000000000000000000e+00,-4.040642166137695312e+01,3.663487243652343750e+01,3.300534439086914062e+01,9.837886047363281250e+01,9.714673614501953125e+01,-6.036716461181640625e+00,4.031498432159423828e-01,-6.667009735107421875e+01,-1.826863250732421875e+02,-2.342245101928710938e+00,7.562081146240234375e+01,3.135675048828125000e+01
7.136890292167663574e-01,1.000000000000000000e+00,-4.040642166137695312e+01,3.663487243652343750e+01,3.300534439086914062e+01,9.837886047363281250e+01,9.714673614501953125e+01,-6.036716461181640625e+00,4.031498432159423828e-01,-6.667009735107421875e+01,-1.826863250732421875e+02,-2.342245101928710938e+00,7.562081146240234375e+01,3.135675048828125000e+01
7.159950137138366699e-01,1.000000000000000000e+00,-4.049076080322265625e+01,3.647019958496093750e+01,3.305062103271484375e+01,9.823000335693359375e+01,9.719013977050781250e+01,-6.084594726562500000e+00,4.031498432159423828e-01,-6.667009735107421875e+01,-1.826863250732421875e+02,-2.342245101928710938e+00,7.562081146240234375e+01,3.135697174072265625e+01
7.190170288085937500e-01,1.000000000000000000e+00,-4.053304672241210938e+01,3.638771438598632812e+01,3.307323074340820312e+01,9.815505218505859375e+01,9.721263885498046875e+01,-6.108669757843017578e+00,4.031498432159423828e-01,-6.667009735107421875e+01,-1.826863250732421875e+02,-2.342245101928710938e+00,7.562088012695312500e+01,3.135675048828125000e+01
7.240179777145385742e-01,1.000000000000000000e+00,-4.053304672241210938e+01,3.638771438598632812e+01,3.307323074340820312e+01,9.815505218505859375e+01,9.721263885498046875e+01,-6.108669757843017578e+00,4.031498432159423828e-01,-6.667009735107421875e+01,-1.826863250732421875e+02,-2.342245101928710938e+00,7.562088012695312500e+01,3.135675048828125000e+01
7.279840111732482910e-01,1.000000000000000000e+00,-4.061810684204101562e+01,3.622400665283203125e+01,3.311885452270507812e+01,9.800561523437500000e+01,9.725572204589843750e+01,-6.156344890594482422e+00,4.031498432159423828e-01,-6.667009735107421875e+01,-1.826863250732421875e+02,-2.342316627502441406e+00,7.562088012695312500e+01,3.135675048828125000e+01
7.309799790382385254e-01,1.000000000000000000e+00,-4.066041946411132812e+01,3.614190673828125000e+01,3.314168548583984375e+01,9.793135070800781250e+01,9.727640533447265625e+01,-6.178996086120605469e+00,4.031498432159423828e-01,-6.667009735107421875e+01,-1.826863250732421875e+02,-2.342316627502441406e+00,7.562081146240234375e+01,3.135653114318847656e+01
7.360429763793945312e-01,1.000000000000000000e+00,-4.066041946411132812e+01,3.614190673828125000e+01,3.314168548583984375e+01,9.793135070800781250e+01,9.727640533447265625e+01,-6.178996086120605469e+00,4.031498432159423828e-01,-6.667009735107421875e+01,-1.826863250732421875e+02,-2.342316627502441406e+00,7.562081146240234375e+01,3.135653114318847656e+01
7.395539879798889160e-01,1.000000000000000000e+00,-4.074544906616210938e+01,3.597790527343750000e+01,3.318674087524414062e+01,9.778206634521484375e+01,9.731868743896484375e+01,-6.226196289062500000e+00,4.031498432159423828e-01,-6.667009735107421875e+01,-1.826863250732421875e+02,-2.342245101928710938e+00,7.562081146240234375e+01,3.135675048828125000e+01
7.440569996833801270e-01,1.000000000000000000e+00,-4.078787994384765625e+01,3.589537811279296875e+01,3.320941162109375000e+01,9.770721435546875000e+01,9.734086608886718750e+01,-6.250000000000000000e+00,4.031498432159423828e-01,-6.667009735107421875e+01,-1.826863250732421875e+02,-2.342245101928710938e+00,7.562088012695312500e+01,3.135675048828125000e+01
7.470520138740539551e-01,1.000000000000000000e+00,-4.083024978637695312e+01,3.581250762939453125e+01,3.323238754272460938e+01,9.763274383544921875e+01,9.736357879638671875e+01,-6.273939609527587891e+00,4.031498432159423828e-01,-6.667009735107421875e+01,-1.826863250732421875e+02,-2.342245101928710938e+00,7.562081146240234375e+01,3.135675048828125000e+01
7.510380148887634277e-01,1.000000000000000000e+00,-4.083024978637695312e+01,3.581250762939453125e+01,3.323238754272460938e+01,9.763274383544921875e+01,9.736357879638671875e+01,-6.273939609527587891e+00,4.031498432159423828e-01,-6.667009735107421875e+01,-1.826863250732421875e+02,-2.342245101928710938e+00,7.562081146240234375e+01,3.135675048828125000e+01
7.550830245018005371e-01,1.000000000000000000e+00,-4.087287902832031250e+01,3.572943115234375000e+01,3.325526046752929688e+01,9.755773162841796875e+01,9.738527679443359375e+01,-6.298421382904052734e+00,4.031498432159423828e-01,-6.667009735107421875e+01,-1.826863250732421875e+02,-2.342245101928710938e+00,7.562088012695312500e+01,3.135697174072265625e+01
7.590900063514709473e-01,1.000000000000000000e+00,-4.091533660888671875e+01,3.564662933349609375e+01,3.327819442749023438e+01,9.748303222656250000e+01,9.740617370605468750e+01,-6.322699546813964844e+00,4.031498432159423828e-01,-6.667009735107421875e+01,-1.826863250732421875e+02,-2.342245101928710938e+00,7.562081146240234375e+01,3.135653114318847656e+01
7.630419731140136719e-01,1.000000000000000000e+00,-4.095808029174804688e+01,3.556389236450195312e+01,3.330088424682617188e+01,9.740782165527343750e+01,9.742713165283203125e+01,-6.346571445465087891e+00,4.031498432159423828e-01,-6.667009735107421875e+01,-1.826863250732421875e+02,-2.342245101928710938e+00,7.562088012695312500e+01,3.135653114318847656e+01
7.670609951019287109e-01,1.000000000000000000e+00,-4.100045013427734375e+01,3.548154067993164062e+01,3.332361602783203125e+01,9.733265686035156250e+01,9.744845581054687500e+01,-6.369357585906982422e+00,4.031498432159423828e-01,-6.667009735107421875e+01,-1.826863250732421875e+02,-2.342245101928710938e+00,7.562081146240234375e+01,3.135675048828125000e+01
7.710949778556823730e-01,1.000000000000000000e+00,-4.104302215576171875e+01,3.539939498901367188e+01,3.334654998779296875e+01,9.725727844238281250e+01,9.747032165527343750e+01,-6.392890453338623047e+00,4.031498432159423828e-01,-6.667009735107421875e+01,-1.826863250732421875e+02,-2.342245101928710938e+00,7.562081146240234375e+01,3.135675048828125000e+01
7.750539779663085938e-01,1.000000000000000000e+00,-4.108553695678710938e+01,3.531706619262695312e+01,3.336938095092773438e+01,9.718221282958984375e+01,9.749308013916015625e+01,-6.417100906372070312e+00,4.031498432159423828e-01,-6.667009735107421875e+01,-1.826863250732421875e+02,-2.342245101928710938e+00,7.562081146240234375e+01,3.135675048828125000e+01
7.790250182151794434e-01,1.000000000000000000e+00,-4.112813949584960938e+01,3.523419570922851562e+01,3.339221572875976562e+01,9.710688781738281250e+01,9.751542663574218750e+01,-6.441175937652587891e+00,4.031498432159423828e-01,-6.667009735107421875e+01,-1.826863250732421875e+02,-2.342245101928710938e+00,7.562081146240234375e+01,3.135675048828125000e+01
7.830330133438110352e-01,1.000000000000000000e+00,-4.117065429687500000e+01,3.515116882324218750e+01,3.341492462158203125e+01,9.703188323974609375e+01,9.753728485107421875e+01,-6.465318202972412109e+00,4.031498432159423828e-01,-6.667009735107421875e+01,-1.826863250732421875e+02,-2.342245101928710938e+00,7.562088012695312500e+01,3.135675048828125000e+01
7.870370149612426758e-01,1.000000000000000000e+00,-4.121322631835937500e+01,3.506798171997070312e+01,3.343794250488281250e+01,9.695687866210937500e+01,9.755812835693359375e+01,-6.489800453186035156e+00,4.031498432159423828e-01,-6.667009735107421875e+01,-1.826863250732421875e+02,-2.342245101928710938e+00,7.562088012695312500e+01,3.135675048828125000e+01
7.910940051078796387e-01,1.000000000000000000e+00,-4.125559997558593750e+01,3.498451995849609375e+01,3.346110153198242188e+01,9.688166046142578125e+01,9.757919311523437500e+01,-6.514078617095947266e+00,4.031498432159423828e-01,-6.667009735107421875e+01,-1.826863250732421875e+02,-2.342245101928710938e+00,7.562088012695312500e+01,3.135675048828125000e+01
7.950379848480224609e-01,1.000000000000000000e+00,-4.129796981811523438e+01,3.490108489990234375e+01,3.348415756225585938e+01,9.680654907226562500e+01,9.760046386718750000e+01,-6.537272453308105469e+00,4.031498432159423828e-01,-6.667009735107421875e+01,-1.826863250732421875e+02,-2.342245101928710938e+00,7.562081146240234375e+01,3.135675048828125000e+01
7.990649938583374023e-01,1.000000000000000000e+00,-4.134042739868164062e+01,3.481810379028320312e+01,3.350698852539062500e+01,9.673106384277343750e+01,9.762263488769531250e+01,-6.560872554779052734e+00,4.031498432159423828e-01,-6.667009735107421875e+01,-1.826863250732421875e+02,-2.342245101928710938e+00,7.562081146240234375e+01,3.135675048828125000e+01
8.030840158462524414e-01,1.000000000000000000e+00,-4.138305664062500000e+01,3.473543167114257812e+01,3.352970123291015625e+01,9.665584564208984375e+01,9.764530181884765625e+01,-6.584676265716552734e+00,4.031498432159423828e-01,-6.667009735107421875e+01,-1.826863250732421875e+02,-2.342245101928710938e+00,7.562102508544921875e+01,3.135675048828125000e+01
8.070939779281616211e-01,1.000000000000000000e+00,-4.142554092407226562e+01,3.465258789062500000e+01,3.355255508422851562e+01,9.658015441894531250e+01,9.766801452636718750e+01,-6.608683109283447266e+00,4.031498432159423828e-01,-6.667001342773437500e+01,-1.826863250732421875e+02,-2.342245101928710938e+00,7.562081146240234375e+01,3.135675048828125000e+01
8.111900091171264648e-01,1.000000000000000000e+00,-4.146802902221679688e+01,3.456987380981445312e+01,3.357571029663085938e+01,9.650472259521484375e+01,9.768955230712890625e+01,-6.633165359497070312e+00,4.031498432159423828e-01,-6.667009735107421875e+01,-1.826863250732421875e+02,-2.342245101928710938e+00,7.562081146240234375e+01,3.135675048828125000e+01
8.150370121002197266e-01,1.000000000000000000e+00,-4.151048660278320312e+01,3.448684310913085938e+01,3.359870529174804688e+01,9.642865753173828125e+01,9.771055603027343750e+01,-6.658122062683105469e+00,4.031498432159423828e-01,-6.667009735107421875e+01,-1.826863250732421875e+02,-2.342245101928710938e+00,7.562088012695312500e+01,3.135697174072265625e+01
8.190249800682067871e-01,1.000000000000000000e+00,-4.155294036865234375e+01,3.440347671508789062e+01,3.362178039550781250e+01,9.635301971435546875e+01,9.773171997070312500e+01,-6.682739734649658203e+00,4.031498432159423828e-01,-6.667009735107421875e+01,-1.826863250732421875e+02,-2.342245101928710938e+00,7.562081146240234375e+01,3.135653114318847656e+01
8.231089711189270020e-01,1.000000000000000000e+00,-4.159542846679687500e+01,3.431988143920898438e+01,3.364473724365234375e+01,9.627743530273437500e+01,9.775358581542968750e+01,-6.706950187683105469e+00,4.031498432159423828e-01,-6.667009735107421875e+01,-1.826863250732421875e+02,-2.342245101928710938e+00,7.562081146240234375e+01,3.135675048828125000e+01
8.270469903945922852e-01,1.000000000000000000e+00,-4.163806152343750000e+01,3.423596954345703125e+01,3.366773223876953125e+01,9.620173645019531250e+01,9.777619171142578125e+01,-6.730346679687500000e+00,4.031498432159423828e-01,-6.667009735107421875e+01,-1.826863250732421875e+02,-2.342316627502441406e+00,7.562081146240234375e+01,3.135675048828125000e+01
8.310250043869018555e-01,1.000000000000000000e+00,-4.168069076538085938e+01,3.415219116210937500e+01,3.369097137451171875e+01,9.612573242187500000e+01,9.779895782470703125e+01,-6.754218101501464844e+00,4.031498432159423828e-01,-6.667009735107421875e+01,-1.826863250732421875e+02,-2.342245101928710938e+00,7.562088012695312500e+01,3.135697174072265625e+01
8.351519703865051270e-01,1.000000000000000000e+00,-4.172323226928710938e+01,3.406871032714843750e+01,3.371400451660156250e+01,9.605025482177734375e+01,9.782118988037109375e+01,-6.777954101562500000e+00,4.031498432159423828e-01,-6.667009735107421875e+01,-1.826863250732421875e+02,-2.342316627502441406e+00,7.562081146240234375e+01,3.135675048828125000e+01
8.390709757804870605e-01,1.000000000000000000e+00,-4.176586151123046875e+01,3.398572921752929688e+01,3.373704528808593750e+01,9.597456359863281250e+01,9.784241485595703125e+01,-6.802165031433105469e+00,4.031498432159423828e-01,-6.667009735107421875e+01,-1.826863250732421875e+02,-2.342245101928710938e+00,7.562102508544921875e+01,3.135675048828125000e+01
8.430290222167968750e-01,1.000000000000000000e+00,-4.180880737304687500e+01,3.390294647216796875e+01,3.376001739501953125e+01,9.589870452880859375e+01,9.786357116699218750e+01,-6.826849937438964844e+00,4.031498432159423828e-01,-6.667009735107421875e+01,-1.826863250732421875e+02,-2.342173099517822266e+00,7.562088012695312500e+01,3.135675048828125000e+01
8.473479747772216797e-01,1.000000000000000000e+00,-4.185158157348632812e+01,3.381987380981445312e+01,3.378311157226562500e+01,9.582244110107421875e+01,9.788468933105468750e+01,-6.851671218872070312e+00,4.031498432159423828e-01,-6.667009735107421875e+01,-1.826863250732421875e+02,-2.342245101928710938e+00,7.562081146240234375e+01,3.135697174072265625e+01
8.510289788246154785e-01,1.000000000000000000e+00,-4.189461135864257812e+01,3.373629760742187500e+01,3.380619430541992188e+01,9.574668884277343750e+01,9.790654754638671875e+01,-6.876152992248535156e+00,4.031498432159423828e-01,-6.667009735107421875e+01,-1.826863250732421875e+02,-2.342245101928710938e+00,7.562081146240234375e+01,3.135675048828125000e+01
8.550419807434082031e-01,1.000000000000000000e+00,-4.193761444091796875e+01,3.365256881713867188e+01,3.382937240600585938e+01,9.567073059082031250e+01,9.792910003662109375e+01,-6.900228023529052734e+00,4.031498432159423828e-01,-6.667009735107421875e+01,-1.826863250732421875e+02,-2.342173099517822266e+00,7.562088012695312500e+01,3.135653114318847656e+01
8.608459830284118652e-01,1.000000000000000000e+00,-4.198076248168945312e+01,3.356856536865234375e+01,3.385232543945312500e+01,9.559414672851562500e+01,9.795191955566406250e+01,-6.923692703247070312e+00,4.031498432159423828e-01,-6.667009735107421875e+01,-1.826863250732421875e+02,-2.342245101928710938e+00,7.562081146240234375e+01,3.135653114318847656e+01
8.634610176086425781e-01,1.000000000000000000e+00,-4.206708145141601562e+01,3.340019989013671875e+01,3.389857864379882812e+01,9.544165802001953125e+01,9.799494171142578125e+01,-6.971232414245605469e+00,4.031498432159423828e-01,-6.667009735107421875e+01,-1.826863250732421875e+02,-2.342173099517822266e+00,7.562088012695312500e+01,3.135675048828125000e+01
8.670290112495422363e-01,1.000000000000000000e+00,-4.206708145141601562e+01,3.340019989013671875e+01,3.389857864379882812e+01,9.544165802001953125e+01,9.799494171142578125e+01,-6.971232414245605469e+00,4.031498432159423828e-01,-6.667009735107421875e+01,-1.826863250732421875e+02,-2.342173099517822266e+00,7.562088012695312500e+01,3.135675048828125000e+01
8.710309863090515137e-01,1.000000000000000000e+00,-4.211048507690429688e+01,3.331637954711914062e+01,3.392165756225585938e+01,9.536575317382812500e+01,9.801648712158203125e+01,-6.995917320251464844e+00,4.031498432159423828e-01,-6.667009735107421875e+01,-1.826863250732421875e+02,-2.342316627502441406e+00,7.562081146240234375e+01,3.135675048828125000e+01
8.751109838485717773e-01,1.000000000000000000e+00,-4.215397644042968750e+01,3.323285293579101562e+01,3.394499588012695312e+01,9.528948211669921875e+01,9.803829956054687500e+01,-7.020534992218017578e+00,4.031498432159423828e-01,-6.667001342773437500e+01,-1.826863250732421875e+02,-2.342173099517822266e+00,7.562088012695312500e+01,3.135697174072265625e+01
8.790670037269592285e-01,1.000000000000000000e+00,-4.219729614257812500e+01,3.314905166625976562e+01,3.396813201904296875e+01,9.521331787109375000e+01,9.806063079833984375e+01,-7.045559406280517578e+00,4.031498432159423828e-01,-6.667009735107421875e+01,-1.826863250732421875e+02,-2.342245101928710938e+00,7.562081146240234375e+01,3.135675048828125000e+01
8.836240172386169434e-01,1.000000000000000000e+00,-4.224078750610351562e+01,3.306543350219726562e+01,3.399135208129882812e+01,9.513688659667968750e+01,9.808355712890625000e+01,-7.069702148437500000e+00,4.031498432159423828e-01,-6.667009735107421875e+01,-1.826863250732421875e+02,-2.342245101928710938e+00,7.562065887451171875e+01,3.135675048828125000e+01
8.890169858932495117e-01,1.000000000000000000e+00,-4.228430938720703125e+01,3.298157119750976562e+01,3.401453018188476562e+01,9.506108856201171875e+01,9.810632324218750000e+01,-7.093302726745605469e+00,4.031498432159423828e-01,-6.667009735107421875e+01,-1.826863250732421875e+02,-2.342245101928710938e+00,7.562088012695312500e+01,3.135675048828125000e+01
8.915860056877136230e-01,1.000000000000000000e+00,-4.237152099609375000e+01,3.281207275390625000e+01,3.406086730957031250e+01,9.490817260742187500e+01,9.814919281005859375e+01,-7.141384601593017578e+00,4.031498432159423828e-01,-6.667009735107421875e+01,-1.826863250732421875e+02,-2.342173099517822266e+00,7.562081146240234375e+01,3.135675048828125000e+01
8.960880041122436523e-01,1.000000000000000000e+00,-4.237152099609375000e+01,3.281207275390625000e+01,3.406086730957031250e+01,9.490817260742187500e+01,9.814919281005859375e+01,-7.141384601593017578e+00,4.031498432159423828e-01,-6.667009735107421875e+01,-1.826863250732421875e+02,-2.342173099517822266e+00,7.562081146240234375e+01,3.135675048828125000e+01
8.991389870643615723e-01,1.000000000000000000e+00,-4.241503906250000000e+01,3.272707366943359375e+01,3.408422851562500000e+01,9.483105468750000000e+01,9.817041015625000000e+01,-7.165391921997070312e+00,4.031498432159423828e-01,-6.667009735107421875e+01,-1.826863250732421875e+02,-2.342245101928710938e+00,7.562088012695312500e+01,3.135675048828125000e+01
9.031800031661987305e-01,1.000000000000000000e+00,-4.245875930786132812e+01,3.264223098754882812e+01,3.410766983032226562e+01,9.475499725341796875e+01,9.819248199462890625e+01,-7.190076828002929688e+00,4.031498432159423828e-01,-6.667009735107421875e+01,-1.826863250732421875e+02,-2.342173099517822266e+00,7.562102508544921875e+01,3.135653114318847656e+01
9.077600240707397461e-01,1.000000000000000000e+00,-4.250236511230468750e+01,3.255778121948242188e+01,3.413107299804687500e+01,9.467761993408203125e+01,9.821530151367187500e+01,-7.215033531188964844e+00,4.031498432159423828e-01,-6.667009735107421875e+01,-1.826863250732421875e+02,-2.342245101928710938e+00,7.562081146240234375e+01,3.135675048828125000e+01
9.120060205459594727e-01,1.000000000000000000e+00,-4.254579925537109375e+01,3.247384262084960938e+01,3.415429306030273438e+01,9.460124206542968750e+01,9.823838806152343750e+01,-7.239718914031982422e+00,4.031498432159423828e-01,-6.667009735107421875e+01,-1.826863250732421875e+02,-2.342173099517822266e+00,7.562088012695312500e+01,3.135653114318847656e+01
9.160289764404296875e-01,1.000000000000000000e+00,-4.258934402465820312e+01,3.238995742797851562e+01,3.417742919921875000e+01,9.452449798583984375e+01,9.826067352294921875e+01,-7.263861656188964844e+00,4.031498432159423828e-01,-6.667009735107421875e+01,-1.826863250732421875e+02,-2.342245101928710938e+00,7.562081146240234375e+01,3.135675048828125000e+01
9.191989898681640625e-01,1.000000000000000000e+00,-4.263309478759765625e+01,3.230570602416992188e+01,3.420063018798828125e+01,9.444795989990234375e+01,9.828200531005859375e+01,-7.287530422210693359e+00,4.031498432159423828e-01,-6.667009735107421875e+01,-1.826863250732421875e+02,-2.342173099517822266e+00,7.562081146240234375e+01,3.135675048828125000e+01
9.235200285911560059e-01,1.000000000000000000e+00,-4.267670059204101562e+01,3.222100067138671875e+01,3.422398757934570312e+01,9.437116241455078125e+01,9.830321502685546875e+01,-7.311673164367675781e+00,4.031498432159423828e-01,-6.667009735107421875e+01,-1.826863250732421875e+02,-2.342245101928710938e+00,7.562088012695312500e+01,3.135675048828125000e+01
9.273139834403991699e-01,1.000000000000000000e+00,-4.271993255615234375e+01,3.213627243041992188e+01,3.424747467041015625e+01,9.429478454589843750e+01,9.832540130615234375e+01,-7.335612297058105469e+00,4.031498432159423828e-01,-6.667009735107421875e+01,-1.826863250732421875e+02,-2.342245101928710938e+00,7.562081146240234375e+01,3.135675048828125000e+01
9.320619702339172363e-01,1.000000000000000000e+00,-4.276351165771484375e+01,3.205107116699218750e+01,3.427089309692382812e+01,9.421808624267578125e+01,9.834800720214843750e+01,-7.360025882720947266e+00,4.031498432159423828e-01,-6.667009735107421875e+01,-1.826863250732421875e+02,-2.342245101928710938e+00,7.562081146240234375e+01,3.135675048828125000e+01
9.352959990501403809e-01,1.000000000000000000e+00,-4.280725860595703125e+01,3.196562004089355469e+01,3.429433441162109375e+01,9.414092254638671875e+01,9.837120056152343750e+01,-7.385050773620605469e+00,4.031498432159423828e-01,-6.667001342773437500e+01,-1.826863250732421875e+02,-2.342245101928710938e+00,7.562081146240234375e+01,3.135675048828125000e+01
9.392529726028442383e-01,1.000000000000000000e+00,-4.285069274902343750e+01,3.188078308105468750e+01,3.431776046752929688e+01,9.406412506103515625e+01,9.839428710937500000e+01,-7.410074710845947266e+00,4.031498432159423828e-01,-6.667009735107421875e+01,-1.826863250732421875e+02,-2.342245101928710938e+00,7.562088012695312500e+01,3.135675048828125000e+01
9.433730244636535645e-01,1.000000000000000000e+00,-4.289415359497070312e+01,3.179619026184082031e+01,3.434136581420898438e+01,9.398690032958984375e+01,9.841646575927734375e+01,-7.434624195098876953e+00,4.031498432159423828e-01,-6.667009735107421875e+01,-1.826862182617187500e+02,-2.342245101928710938e+00,7.562081146240234375e+01,3.135697174072265625e+01
9.474490284919738770e-01,1.000000000000000000e+00,-4.293775939941406250e+01,3.171187210083007812e+01,3.436482620239257812e+01,9.391000366210937500e+01,9.843779754638671875e+01,-7.458971500396728516e+00,4.031498432159423828e-01,-6.667009735107421875e+01,-1.826863250732421875e+02,-2.342245101928710938e+00,7.562088012695312500e+01,3.135675048828125000e+01
9.513049721717834473e-01,1.000000000000000000e+00,-4.298128128051757812e+01,3.162757682800292969e+01,3.438802719116210938e+01,9.383241271972656250e+01,9.845938110351562500e+01,-7.483046054840087891e+00,4.031498432159423828e-01,-6.667009735107421875e+01,-1.826863250732421875e+02,-2.342316627502441406e+00,7.562081146240234375e+01,3.135675048828125000e+01
9.574239850044250488e-01,1.000000000000000000e+00,-4.302482604980468750e+01,3.154305458068847656e+01,3.441132736206054688e+01,9.375550842285156250e+01,9.848178100585937500e+01,-7.507120609283447266e+00,4.031498432159423828e-01,-6.667009735107421875e+01,-1.826863250732421875e+02,-2.342316627502441406e+00,7.562088012695312500e+01,3.135653114318847656e+01
9.600920081138610840e-01,1.000000000000000000e+00,-4.311195373535156250e+01,3.137287521362304688e+01,3.445857620239257812e+01,9.360086059570312500e+01,9.852837371826171875e+01,-7.556287765502929688e+00,4.031498432159423828e-01,-6.667009735107421875e+01,-1.826863250732421875e+02,-2.342316627502441406e+00,7.562081146240234375e+01,3.135675048828125000e+01
9.634889960289001465e-01,1.000000000000000000e+00,-4.311195373535156250e+01,3.137287521362304688e+01,3.445857620239257812e+01,9.360086059570312500e+01,9.852837371826171875e+01,-7.556287765502929688e+00,4.031498432159423828e-01,-6.667009735107421875e+01,-1.826863250732421875e+02,-2.342316627502441406e+00,7.562081146240234375e+01,3.135675048828125000e+01
9.676749706268310547e-01,1.000000000000000000e+00,-4.315544509887695312e+01,3.128713417053222656e+01,3.448220443725585938e+01,9.352342224121093750e+01,9.855076599121093750e+01,-7.581516265869140625e+00,4.031498432159423828e-01,-6.667009735107421875e+01,-1.826863250732421875e+02,-2.342173099517822266e+00,7.562088012695312500e+01,3.135675048828125000e+01
9.720929861068725586e-01,1.000000000000000000e+00,-4.319910812377929688e+01,3.120149993896484375e+01,3.450568389892578125e+01,9.344678497314453125e+01,9.857257080078125000e+01,-7.606608390808105469e+00,4.031498432159423828e-01,-6.667009735107421875e+01,-1.826863250732421875e+02,-2.342245101928710938e+00,7.562088012695312500e+01,3.135675048828125000e+01
9.757789969444274902e-01,1.000000000000000000e+00,-4.324285888671875000e+01,3.111605072021484375e+01,3.452894592285156250e+01,9.336930084228515625e+01,9.859427642822265625e+01,-7.630818843841552734e+00,4.031498432159423828e-01,-6.667009735107421875e+01,-1.826863250732421875e+02,-2.342245101928710938e+00,7.562081146240234375e+01,3.135675048828125000e+01
9.803709983825683594e-01,1.000000000000000000e+00,-4.328657531738281250e+01,3.103100395202636719e+01,3.455246734619140625e+01,9.329197692871093750e+01,9.861677551269531250e+01,-7.654893398284912109e+00,4.031498432159423828e-01,-6.667009735107421875e+01,-1.826863250732421875e+02,-2.342245101928710938e+00,7.562088012695312500e+01,3.135675048828125000e+01
9.840679764747619629e-01,1.000000000000000000e+00,-4.333032608032226562e+01,3.094652938842773438e+01,3.457611465454101562e+01,9.321454620361328125e+01,9.863938140869140625e+01,-7.679103851318359375e+00,4.031498432159423828e-01,-6.667009735107421875e+01,-1.826863250732421875e+02,-2.342245101928710938e+00,7.562088012695312500e+01,3.135675048828125000e+01
9.876289963722229004e-01,1.000000000000000000e+00,-4.337416076660156250e+01,3.086164283752441406e+01,3.459963989257812500e+01,9.313696289062500000e+01,9.866300201416015625e+01,-7.703654289245605469e+00,4.031498432159423828e-01,-6.667009735107421875e+01,-1.826863250732421875e+02,-2.342245101928710938e+00,7.562081146240234375e+01,3.135675048828125000e+01
9.920279979705810547e-01,1.000000000000000000e+00,-4.341825485229492188e+01,3.077617073059082031e+01,3.462322235107421875e+01,9.305899810791015625e+01,9.868614196777343750e+01,-7.728475093841552734e+00,4.031498432159423828e-01,-6.667009735107421875e+01,-1.826863250732421875e+02,-2.342245101928710938e+00,7.562081146240234375e+01,3.135675048828125000e+01
9.957730174064636230e-01,1.000000000000000000e+00,-4.346240615844726562e+01,3.069049263000488281e+01,3.464672851562500000e+01,9.298114776611328125e+01,9.870832061767578125e+01,-7.753770828247070312e+00,4.031498432159423828e-01,-6.667009735107421875e+01,-1.826863250732421875e+02,-2.342245101928710938e+00,7.562088012695312500e+01,3.135675048828125000e+01
1.000023961067199707e+00,1.000000000000000000e+00,-4.350650024414062500e+01,3.060452461242675781e+01,3.467047500610351562e+01,9.290355682373046875e+01,9.872996520996093750e+01,-7.779201984405517578e+00,4.031498432159423828e-01,-6.667009735107421875e+01,-1.826863250732421875e+02,-2.342245101928710938e+00,7.562088012695312500e+01,3.135675048828125000e+01
1.004521012306213379e+00,1.000000000000000000e+00,-4.355056381225585938e+01,3.051821136474609375e+01,3.469422149658203125e+01,9.282575225830078125e+01,9.875177001953125000e+01,-7.804090499877929688e+00,4.031498432159423828e-01,-6.667009735107421875e+01,-1.826863250732421875e+02,-2.342245101928710938e+00,7.562081146240234375e+01,3.135675048828125000e+01
1.008998036384582520e+00,1.000000000000000000e+00,-4.359468841552734375e+01,3.043197059631347656e+01,3.471776580810546875e+01,9.274784851074218750e+01,9.877421569824218750e+01,-7.828844070434570312e+00,4.031498432159423828e-01,-6.667009735107421875e+01,-1.826863250732421875e+02,-2.342245101928710938e+00,7.562081146240234375e+01,3.135675048828125000e+01
1.011862039566040039e+00,1.000000000000000000e+00,-4.363889694213867188e+01,3.034609031677246094e+01,3.474137115478515625e+01,9.266989898681640625e+01,9.879751586914062500e+01,-7.852918624877929688e+00,4.031498432159423828e-01,-6.667009735107421875e+01,-1.826863250732421875e+02,-2.342245101928710938e+00,7.562081146240234375e+01,3.135675048828125000e+01
1.016057968139648438e+00,1.000000000000000000e+00,-4.368324661254882812e+01,3.026077461242675781e+01,3.476501846313476562e+01,9.259262084960937500e+01,9.882124328613281250e+01,-7.876994132995605469e+00,4.031498432159423828e-01,-6.667009735107421875e+01,-1.826863250732421875e+02,-2.342316627502441406e+00,7.562081146240234375e+01,3.135697174072265625e+01
1.020151972770690918e+00,1.000000000000000000e+00,-4.372753906250000000e+01,3.017525672912597656e+01,3.478886795043945312e+01,9.251471710205078125e+01,9.884379577636718750e+01,-7.901950836181640625e+00,4.031498432159423828e-01,-6.667009735107421875e+01,-1.826863250732421875e+02,-2.342245101928710938e+00,7.562088012695312500e+01,3.135675048828125000e+01
1.024176955223083496e+00,1.000000000000000000e+00,-4.377194976806640625e+01,3.008987236022949219e+01,3.481263351440429688e+01,9.243670654296875000e+01,9.886533355712890625e+01,-7.927110671997070312e+00,4.031498432159423828e-01,-6.667009735107421875e+01,-1.826863250732421875e+02,-2.342316627502441406e+00,7.562065887451171875e+01,3.135675048828125000e+01
1.029646039009094238e+00,1.000000000000000000e+00,-4.381624603271484375e+01,3.000421905517578125e+01,3.483628082275390625e+01,9.235848999023437500e+01,9.888745880126953125e+01,-7.952542304992675781e+00,4.031498432159423828e-01,-6.667009735107421875e+01,-1.826863250732421875e+02,-2.342173099517822266e+00,7.562088012695312500e+01,3.135675048828125000e+01
1.032992005348205566e+00,1.000000000000000000e+00,-4.390509414672851562e+01,2.983112144470214844e+01,3.488346862792968750e+01,9.220241546630859375e+01,9.893294525146484375e+01,-8.002590179443359375e+00,4.031498432159423828e-01,-6.667009735107421875e+01,-1.826863250732421875e+02,-2.342245101928710938e+00,7.562081146240234375e+01,3.135675048828125000e+01
1.035984992980957031e+00,1.000000000000000000e+00,-4.390509414672851562e+01,2.983112144470214844e+01,3.488346862792968750e+01,9.220241546630859375e+01,9.893294525146484375e+01,-8.002590179443359375e+00,4.031498432159423828e-01,-6.667009735107421875e+01,-1.826863250732421875e+02,-2.342245101928710938e+00,7.562081146240234375e+01,3.135675048828125000e+01
1.040243983268737793e+00,1.000000000000000000e+00,-4.394953155517578125e+01,2.974442481994628906e+01,3.490746307373046875e+01,9.212361145019531250e+01,9.895655822753906250e+01,-8.026936531066894531e+00,4.031498432159423828e-01,-6.667009735107421875e+01,-1.826863250732421875e+02,-2.342245101928710938e+00,7.562081146240234375e+01,3.135675048828125000e+01
1.044175028800964355e+00,1.000000000000000000e+00,-4.399391174316406250e+01,2.965793418884277344e+01,3.493141555786132812e+01,9.204544830322265625e+01,9.897985839843750000e+01,-8.051147460937500000e+00,4.031498432159423828e-01,-6.667009735107421875e+01,-1.826863250732421875e+02,-2.342245101928710938e+00,7.562081146240234375e+01,3.135675048828125000e+01
1.048017024993896484e+00,1.000000000000000000e+00,-4.403835296630859375e+01,2.957187461853027344e+01,3.495528411865234375e+01,9.196706390380859375e+01,9.900203704833984375e+01,-8.075561523437500000e+00,4.031498432159423828e-01,-6.667009735107421875e+01,-1.826863250732421875e+02,-2.342245101928710938e+00,7.562088012695312500e+01,3.135675048828125000e+01
1.053663015365600586e+00,1.000000000000000000e+00,-4.408256149291992188e+01,2.948649024963378906e+01,3.497901153564453125e+01,9.188937377929687500e+01,9.902362823486328125e+01,-8.100653648376464844e+00,4.031498432159423828e-01,-6.667009735107421875e+01,-1.826863250732421875e+02,-2.342316627502441406e+00,7.562088012695312500e+01,3.135675048828125000e+01
1.056990981101989746e+00,1.000000000000000000e+00,-4.412679672241210938e+01,2.940101814270019531e+01,3.500271987915039062e+01,9.181067657470703125e+01,9.904554748535156250e+01,-8.126152992248535156e+00,4.031498432159423828e-01,-6.667009735107421875e+01,-1.826863250732421875e+02,-2.342316627502441406e+00,7.562081146240234375e+01,3.135697174072265625e+01
1.060191988945007324e+00,1.000000000000000000e+00,-4.417111968994140625e+01,2.931513786315917969e+01,3.502658843994140625e+01,9.173282623291015625e+01,9.906830596923828125e+01,-8.151720046997070312e+00,4.031498432159423828e-01,-6.667009735107421875e+01,-1.826863250732421875e+02,-2.342245101928710938e+00,7.562088012695312500e+01,3.135675048828125000e+01
1.062968015670776367e+00,1.000000000000000000e+00,-4.421558380126953125e+01,2.922884941101074219e+01,3.505033493041992188e+01,9.165418243408203125e+01,9.909187316894531250e+01,-8.176744461059570312e+00,4.031498432159423828e-01,-6.667009735107421875e+01,-1.826863250732421875e+02,-2.342316627502441406e+00,7.562088012695312500e+01,3.135675048828125000e+01
1.066974043846130371e+00,1.000000000000000000e+00,-4.425982284545898438e+01,2.914224624633789062e+01,3.507418441772460938e+01,9.157601165771484375e+01,9.911560058593750000e+01,-8.201158523559570312e+00,4.031498432159423828e-01,-6.667009735107421875e+01,-1.826863250732421875e+02,-2.342245101928710938e+00,7.562081146240234375e+01,3.135675048828125000e+01
1.071045994758605957e+00,1.000000000000000000e+00,-4.430403137207031250e+01,2.905525588989257812e+01,3.509805297851562500e+01,9.149726104736328125e+01,9.913804626464843750e+01,-8.225301742553710938e+00,4.031498432159423828e-01,-6.667009735107421875e+01,-1.826863250732421875e+02,-2.342245101928710938e+00,7.562081146240234375e+01,3.135675048828125000e+01
1.074978947639465332e+00,1.000000000000000000e+00,-4.434846878051757812e+01,2.896813011169433594e+01,3.512198257446289062e+01,9.141904449462890625e+01,9.916006469726562500e+01,-8.249986648559570312e+00,4.031498432159423828e-01,-6.667009735107421875e+01,-1.826863250732421875e+02,-2.342245101928710938e+00,7.562088012695312500e+01,3.135653114318847656e+01
1.080772995948791504e+00,1.000000000000000000e+00,-4.443703079223632812e+01,2.879526138305664062e+01,3.516986465454101562e+01,9.126123046875000000e+01,9.920469665527343750e+01,-8.300170898437500000e+00,4.031498432159423828e-01,-6.667019653320312500e+01,-1.826863250732421875e+02,-2.342245101928710938e+00,7.562088012695312500e+01,3.135675048828125000e+01
1.084444046020507812e+00,1.000000000000000000e+00,-4.443703079223632812e+01,2.879526138305664062e+01,3.516986465454101562e+01,9.126123046875000000e+01,9.920469665527343750e+01,-8.300170898437500000e+00,4.031498432159423828e-01,-6.667019653320312500e+01,-1.826863250732421875e+02,-2.342245101928710938e+00,7.562088012695312500e+01,3.135675048828125000e+01
1.087062954902648926e+00,1.000000000000000000e+00,-4.448141098022460938e+01,2.870886039733886719e+01,3.519357299804687500e+01,9.118232727050781250e+01,9.922788238525390625e+01,-8.325942039489746094e+00,4.031498432159423828e-01,-6.667009735107421875e+01,-1.826863250732421875e+02,-2.342173099517822266e+00,7.562081146240234375e+01,3.135675048828125000e+01
1.091089010238647461e+00,1.000000000000000000e+00,-4.452576446533203125e+01,2.862261581420898438e+01,3.521736145019531250e+01,9.110357666015625000e+01,9.925203704833984375e+01,-8.351372718811035156e+00,4.031498432159423828e-01,-6.667009735107421875e+01,-1.826863250732421875e+02,-2.342245101928710938e+00,7.562081146240234375e+01,3.135675048828125000e+01
1.096526026725769043e+00,1.000000000000000000e+00,-4.457003021240234375e+01,2.853617095947265625e+01,3.524124908447265625e+01,9.102514648437500000e+01,9.927532958984375000e+01,-8.376194000244140625e+00,4.031498432159423828e-01,-6.667009735107421875e+01,-1.826863250732421875e+02,-2.342316627502441406e+00,7.562088012695312500e+01,3.135675048828125000e+01
1.099035978317260742e+00,1.000000000000000000e+00,-4.461418151855468750e+01,2.844909095764160156e+01,3.526530075073242188e+01,9.094645690917968750e+01,9.929762268066406250e+01,-8.400540351867675781e+00,4.031498432159423828e-01,-6.667009735107421875e+01,-1.826863250732421875e+02,-2.342245101928710938e+00,7.562081146240234375e+01,3.135697174072265625e+01
1.104601979255676270e+00,1.000000000000000000e+00,-4.465864562988281250e+01,2.836135482788085938e+01,3.528933334350585938e+01,9.086749267578125000e+01,9.931926727294921875e+01,-8.425022125244140625e+00,4.031498432159423828e-01,-6.667009735107421875e+01,-1.826863250732421875e+02,-2.342245101928710938e+00,7.562081146240234375e+01,3.135675048828125000e+01
1.108626961708068848e+00,1.000000000000000000e+00,-4.470302963256835938e+01,2.827359580993652344e+01,3.531340789794921875e+01,9.078880310058593750e+01,9.934149932861328125e+01,-8.449639320373535156e+00,4.031498432159423828e-01,-6.667001342773437500e+01,-1.826863250732421875e+02,-2.342173099517822266e+00,7.562088012695312500e+01,3.135675048828125000e+01
1.112776994705200195e+00,1.000000000000000000e+00,-4.474721145629882812e+01,2.818590545654296875e+01,3.533750152587890625e+01,9.070984649658203125e+01,9.936469268798828125e+01,-8.474596023559570312e+00,4.031498432159423828e-01,-6.667009735107421875e+01,-1.826863250732421875e+02,-2.342245101928710938e+00,7.562081146240234375e+01,3.135675048828125000e+01
1.116701006889343262e+00,1.000000000000000000e+00,-4.479156112670898438e+01,2.809869003295898438e+01,3.536153411865234375e+01,9.063077545166015625e+01,9.938868713378906250e+01,-8.500366210937500000e+00,4.031498432159423828e-01,-6.667009735107421875e+01,-1.826863250732421875e+02,-2.342245101928710938e+00,7.562081146240234375e+01,3.135697174072265625e+01
