rpiRobotics/ARM-21-02-F-19-Robot-Motion-Program/data_performance_abb/curve_2/baseline/80L/curve_exe_v459.9609375_z10.csv
timestamp, cmd_num, J1, J2, J3, J4, J5, J6
0, -1, 39.5918, 32.7252, 11.7628, 12.6522, 114.035, -48.5935
0.002, -1, 39.5918, 32.7252, 11.7628, 12.6522, 114.035, -48.5935
0.006, -1, 39.5918, 32.7252, 11.7628, 12.6522, 114.035, -48.5935
0.008, -1, 39.5918, 32.7252, 11.7628, 12.6522, 114.035, -48.5935
0.011, -1, 39.5918, 32.7252, 11.7628, 12.6522, 114.035, -48.5935
0.016, -1, 39.5918, 32.7252, 11.7628, 12.6522, 114.035, -48.5935
0.02, -1, 39.5918, 32.7252, 11.7628, 12.6522, 114.035, -48.5935
0.024, -1, 39.5918, 32.7252, 11.7628, 12.6522, 114.035, -48.5935
0.028, -1, 39.5918, 32.7252, 11.7628, 12.6522, 114.035, -48.5935
0.032, -1, 39.5918, 32.7252, 11.7628, 12.6522, 114.035, -48.5935
0.036, -1, 39.5917, 32.7252, 11.7628, 12.6522, 114.035, -48.5935
0.04, -1, 39.5914, 32.7252, 11.7628, 12.6522, 114.035, -48.5935
0.044, -1, 39.5908, 32.725, 11.7627, 12.6521, 114.035, -48.5935
0.048, -1, 39.5897, 32.7248, 11.7626, 12.6521, 114.035, -48.5936
0.052, -1, 39.588, 32.7243, 11.7624, 12.6521, 114.035, -48.5938
0.056, -1, 39.5855, 32.7236, 11.7622, 12.6521, 114.035, -48.5941
0.06, -1, 39.5822, 32.7225, 11.7619, 12.6521, 114.035, -48.5947
0.064, -1, 39.578, 32.7211, 11.7616, 12.6521, 114.034, -48.5958
0.068, -1, 39.5729, 32.7192, 11.7613, 12.652, 114.034, -48.5975
0.072, -1, 39.5666, 32.7168, 11.761, 12.652, 114.033, -48.6001
0.076, -1, 39.559, 32.7136, 11.7608, 12.652, 114.031, -48.604
0.08, -1, 39.5499, 32.7096, 11.7607, 12.652, 114.029, -48.6094
0.084, -1, 39.5388, 32.7047, 11.7607, 12.652, 114.026, -48.6167
0.088, -1, 39.5257, 32.6987, 11.7611, 12.652, 114.023, -48.6264
0.092, -1, 39.5102, 32.6915, 11.7618, 12.652, 114.018, -48.6389
0.096, -1, 39.4924, 32.683, 11.763, 12.6521, 114.012, -48.6548
0.1, -1, 39.4719, 32.6732, 11.7649, 12.6523, 114.004, -48.6745
0.104, -1, 39.4486, 32.6618, 11.7674, 12.6525, 113.995, -48.6985
0.108, -1, 39.4222, 32.6488, 11.7708, 12.6527, 113.983, -48.7273
0.112, -1, 39.3927, 32.6341, 11.775, 12.6531, 113.97, -48.7613
0.116, -1, 39.3597, 32.6175, 11.7803, 12.6535, 113.954, -48.8009
0.12, -1, 39.3233, 32.599, 11.7865, 12.654, 113.936, -48.8463
0.124, -1, 39.2833, 32.5785, 11.7939, 12.6546, 113.916, -48.8979
0.128, -1, 39.2398, 32.5561, 11.8024, 12.6553, 113.893, -48.9558
0.131, -1, 39.1926, 32.5317, 11.8121, 12.656, 113.868, -49.0201
0.136, -1, 39.1418, 32.5053, 11.823, 12.6569, 113.84, -49.0908
0.139, -1, 39.0874, 32.4769, 11.835, 12.6579, 113.809, -49.1678
0.144, -1, 39.0293, 32.4465, 11.8481, 12.6589, 113.776, -49.251
0.148, -1, 38.9677, 32.4142, 11.8622, 12.6601, 113.741, -49.3402
0.152, -1, 38.9028, 32.38, 11.8774, 12.6613, 113.703, -49.4349
0.156, -1, 38.8346, 32.3442, 11.8934, 12.6626, 113.664, -49.535
0.16, -1, 38.7634, 32.3067, 11.9103, 12.664, 113.622, -49.6399
0.164, -1, 38.6892, 32.2677, 11.9279, 12.6654, 113.579, -49.7493
0.168, -1, 38.6123, 32.2273, 11.946, 12.6669, 113.534, -49.8625
0.172, -1, 38.5327, 32.1855, 11.9647, 12.6684, 113.487, -49.9792
0.176, -1, 38.4508, 32.1425, 11.9837, 12.6699, 113.44, -50.0988
0.18, -1, 38.3668, 32.0984, 12.003, 12.6715, 113.392, -50.221
0.184, -1, 38.2811, 32.0533, 12.0226, 12.6731, 113.342, -50.3452
0.188, -1, 38.1939, 32.0074, 12.0423, 12.6747, 113.292, -50.4711
0.192, -1, 38.1053, 31.9608, 12.0621, 12.6763, 113.242, -50.5983
0.196, -1, 38.0155, 31.9136, 12.0819, 12.6779, 113.191, -50.7265
0.2, -1, 37.9245, 31.8659, 12.1017, 12.6795, 113.14, -50.8556
0.204, -1, 37.8324, 31.8177, 12.1215, 12.6811, 113.089, -50.9851
0.208, -1, 37.7392, 31.7691, 12.1412, 12.6827, 113.037, -51.1151
0.212, -1, 37.6452, 31.7203, 12.1609, 12.6843, 112.986, -51.2454
0.216, -1, 37.5505, 31.6712, 12.1806, 12.6859, 112.934, -51.3759
0.22, -1, 37.4554, 31.6221, 12.2003, 12.6875, 112.882, -51.5065
0.224, -1, 37.36, 31.5728, 12.2199, 12.6891, 112.831, -51.6372
0.228, -1, 37.2643, 31.5234, 12.2395, 12.6907, 112.779, -51.768
0.232, -1, 37.1685, 31.474, 12.2592, 12.6923, 112.727, -51.8988
0.236, -1, 37.0725, 31.4246, 12.2788, 12.6939, 112.675, -52.0297
0.24, -1, 36.9765, 31.3752, 12.2984, 12.6955, 112.624, -52.1606
0.244, -1, 36.8805, 31.3257, 12.318, 12.697, 112.572, -52.2916
0.248, -1, 36.7844, 31.2762, 12.3377, 12.6986, 112.52, -52.4226
0.252, -1, 36.6882, 31.2267, 12.3573, 12.7002, 112.468, -52.5536
0.256, -1, 36.5921, 31.1772, 12.3769, 12.7018, 112.416, -52.6846
0.26, -1, 36.4959, 31.1276, 12.3966, 12.7034, 112.364, -52.8156
0.264, -1, 36.3997, 31.0781, 12.4162, 12.705, 112.313, -52.9467
0.268, -1, 36.3034, 31.0286, 12.4358, 12.7066, 112.261, -53.0778
0.272, -1, 36.2072, 30.979, 12.4555, 12.7082, 112.209, -53.2089
0.276, -1, 36.1109, 30.9295, 12.4751, 12.7098, 112.157, -53.34
0.28, -1, 36.0147, 30.8799, 12.4947, 12.7114, 112.105, -53.4711
0.284, -1, 35.9184, 30.8303, 12.5144, 12.7129, 112.053, -53.6023
0.288, -1, 35.8221, 30.7808, 12.534, 12.7145, 112.001, -53.7334
0.292, -1, 35.7258, 30.7312, 12.5537, 12.7161, 111.949, -53.8646
0.296, -1, 35.6295, 30.6816, 12.5733, 12.7177, 111.897, -53.9958
0.3, -1, 35.5332, 30.632, 12.593, 12.7193, 111.846, -54.127
0.304, -1, 35.4368, 30.5824, 12.6126, 12.7209, 111.794, -54.2582
0.308, -1, 35.3405, 30.5328, 12.6323, 12.7225, 111.742, -54.3895
0.312, -1, 35.2441, 30.4832, 12.652, 12.7241, 111.69, -54.5207
0.316, -1, 35.1477, 30.4336, 12.6716, 12.7257, 111.638, -54.652
0.32, -1, 35.0514, 30.384, 12.6913, 12.7273, 111.586, -54.7833
0.324, -1, 34.955, 30.3343, 12.711, 12.7289, 111.534, -54.9146
0.328, -1, 34.8586, 30.2847, 12.7306, 12.7305, 111.482, -55.0459
0.332, -1, 34.7621, 30.2351, 12.7503, 12.7321, 111.43, -55.1772
0.336, -1, 34.6657, 30.1854, 12.77, 12.7336, 111.378, -55.3086
0.34, -1, 34.5693, 30.1358, 12.7897, 12.7352, 111.326, -55.4399
0.344, -1, 34.4728, 30.0861, 12.8093, 12.7368, 111.274, -55.5713
0.348, -1, 34.3764, 30.0365, 12.829, 12.7384, 111.222, -55.7027
0.352, -1, 34.2799, 29.9868, 12.8487, 12.74, 111.17, -55.8341
0.356, -1, 34.1834, 29.9371, 12.8684, 12.7416, 111.118, -55.9655
0.36, -1, 34.0869, 29.8875, 12.8881, 12.7432, 111.066, -56.0969
0.364, -1, 33.9904, 29.8378, 12.9078, 12.7448, 111.014, -56.2284
0.368, -1, 33.8939, 29.7881, 12.9274, 12.7464, 110.962, -56.3598
0.372, -1, 33.7974, 29.7384, 12.9471, 12.748, 110.91, -56.4913
0.376, -1, 33.7009, 29.6887, 12.9668, 12.7496, 110.858, -56.6227
0.38, -1, 33.6044, 29.639, 12.9865, 12.7512, 110.806, -56.7542
0.384, -1, 33.5078, 29.5893, 13.0062, 12.7528, 110.754, -56.8857
0.388, -1, 33.4113, 29.5396, 13.0259, 12.7544, 110.702, -57.0173
0.392, -1, 33.3147, 29.4899, 13.0456, 12.756, 110.65, -57.1488
0.396, -1, 33.2181, 29.4402, 13.0653, 12.7576, 110.598, -57.2803
0.4, -1, 33.1216, 29.3905, 13.085, 12.7592, 110.546, -57.4119
0.404, -1, 33.025, 29.3408, 13.1047, 12.7608, 110.494, -57.5434
0.408, -1, 32.9284, 29.291, 13.1245, 12.7624, 110.442, -57.675
0.412, -1, 32.8318, 29.2413, 13.1442, 12.7639, 110.39, -57.8066
0.416, -1, 32.7351, 29.1916, 13.1639, 12.7655, 110.338, -57.9382
0.42, -1, 32.6385, 29.1418, 13.1836, 12.7671, 110.285, -58.0698
0.424, -1, 32.5419, 29.0921, 13.2033, 12.7687, 110.233, -58.2014
0.428, -1, 32.4453, 29.0423, 13.223, 12.7703, 110.181, -58.3331
0.432, -1, 32.3486, 28.9926, 13.2427, 12.7719, 110.129, -58.4647
0.436, -1, 32.2519, 28.9428, 13.2625, 12.7735, 110.077, -58.5964
0.44, -1, 32.1553, 28.893, 13.2822, 12.7751, 110.025, -58.728
0.444, -1, 32.0586, 28.8433, 13.3019, 12.7767, 109.973, -58.8597
0.448, -1, 31.9619, 28.7935, 13.3216, 12.7783, 109.921, -58.9914
0.452, -1, 31.8653, 28.7437, 13.3414, 12.7799, 109.869, -59.1231
0.456, -1, 31.7686, 28.6939, 13.3611, 12.7815, 109.817, -59.2548
0.46, -1, 31.6719, 28.6442, 13.3808, 12.7831, 109.764, -59.3865
0.464, -1, 31.5752, 28.5944, 13.4006, 12.7847, 109.712, -59.5182
0.468, -1, 31.4784, 28.5446, 13.4203, 12.7863, 109.66, -59.6499
0.472, -1, 31.3817, 28.4948, 13.44, 12.7879, 109.608, -59.7817
0.476, -1, 31.285, 28.445, 13.4598, 12.7895, 109.556, -59.9134
0.48, -1, 31.1883, 28.3952, 13.4795, 12.7911, 109.504, -60.0452
0.484, -1, 31.0915, 28.3454, 13.4992, 12.7927, 109.452, -60.177
0.488, -1, 30.9948, 28.2956, 13.519, 12.7943, 109.4, -60.3088
0.492, -1, 30.898, 28.2458, 13.5387, 12.7959, 109.347, -60.4405
0.496, -1, 30.8013, 28.196, 13.5585, 12.7975, 109.295, -60.5723
0.5, -1, 30.7045, 28.1462, 13.5782, 12.7991, 109.243, -60.7041
0.504, -1, 30.6077, 28.0963, 13.5979, 12.8007, 109.191, -60.836
0.508, -1, 30.5109, 28.0465, 13.6177, 12.8023, 109.139, -60.9678
0.512, -1, 30.4142, 27.9967, 13.6374, 12.8039, 109.087, -61.0996
0.516, -1, 30.3174, 27.9469, 13.6572, 12.8055, 109.034, -61.2314
0.52, -1, 30.2206, 27.897, 13.6769, 12.8071, 108.982, -61.3633
0.524, -1, 30.1238, 27.8472, 13.6967, 12.8087, 108.93, -61.4951
0.528, -1, 30.027, 27.7974, 13.7164, 12.8103, 108.878, -61.627
0.532, -1, 29.9302, 27.7475, 13.7362, 12.8119, 108.826, -61.7589
0.536, -1, 29.8333, 27.6977, 13.7559, 12.8135, 108.774, -61.8907
0.54, -1, 29.7365, 27.6478, 13.7757, 12.8151, 108.721, -62.0226
0.544, -1, 29.6397, 27.598, 13.7954, 12.8167, 108.669, -62.1545
0.548, -1, 29.5429, 27.5481, 13.8152, 12.8183, 108.617, -62.2864
0.552, -1, 29.446, 27.4983, 13.835, 12.8199, 108.565, -62.4183
0.556, -1, 29.3492, 27.4484, 13.8547, 12.8215, 108.513, -62.5502
0.56, -1, 29.2523, 27.3986, 13.8745, 12.8231, 108.46, -62.6821
0.564, -1, 29.1555, 27.3487, 13.8942, 12.8247, 108.408, -62.814
0.568, -1, 29.0586, 27.2989, 13.914, 12.8263, 108.356, -62.9459
0.572, -1, 28.9618, 27.249, 13.9338, 12.8279, 108.304, -63.0779
0.576, -1, 28.8649, 27.1991, 13.9535, 12.8295, 108.252, -63.2098
0.58, -1, 28.7681, 27.1493, 13.9733, 12.8311, 108.199, -63.3417
0.584, -1, 28.6712, 27.0994, 13.993, 12.8327, 108.147, -63.4737
0.588, -1, 28.5743, 27.0495, 14.0128, 12.8343, 108.095, -63.6056
0.592, -1, 28.4775, 26.9997, 14.0326, 12.8359, 108.043, -63.7376
0.596, -1, 28.3806, 26.9498, 14.0523, 12.8375, 107.991, -63.8695
0.6, -1, 28.2837, 26.8999, 14.0721, 12.8391, 107.938, -64.0015
0.604, -1, 28.1868, 26.85, 14.0919, 12.8407, 107.886, -64.1335
0.608, -1, 28.0899, 26.8002, 14.1116, 12.8423, 107.834, -64.2654
0.612, -1, 27.993, 26.7503, 14.1314, 12.8439, 107.782, -64.3974
0.616, -1, 27.8961, 26.7004, 14.1512, 12.8455, 107.729, -64.5294
0.62, -1, 27.7992, 26.6505, 14.171, 12.8471, 107.677, -64.6614
0.624, -1, 27.7023, 26.6006, 14.1907, 12.8487, 107.625, -64.7933
0.628, -1, 27.6054, 26.5508, 14.2105, 12.8503, 107.573, -64.9253
0.632, -1, 27.5085, 26.5009, 14.2303, 12.8519, 107.521, -65.0573
0.636, -1, 27.4116, 26.451, 14.25, 12.8535, 107.468, -65.1893
0.64, -1, 27.3147, 26.4011, 14.2698, 12.8551, 107.416, -65.3213
0.644, -1, 27.2178, 26.3512, 14.2896, 12.8567, 107.364, -65.4533
0.648, -1, 27.1209, 26.3013, 14.3094, 12.8583, 107.312, -65.5853
0.652, -1, 27.024, 26.2514, 14.3291, 12.8599, 107.259, -65.7173
0.656, -1, 26.9271, 26.2015, 14.3489, 12.8615, 107.207, -65.8493
0.66, -1, 26.8302, 26.1516, 14.3687, 12.8631, 107.155, -65.9813
0.664, -1, 26.7333, 26.1017, 14.3884, 12.8647, 107.103, -66.1133
0.668, -1, 26.6363, 26.0519, 14.4082, 12.8663, 107.05, -66.2453
0.672, -1, 26.5394, 26.002, 14.428, 12.8679, 106.998, -66.3773
0.676, -1, 26.4425, 25.9521, 14.4478, 12.8695, 106.946, -66.5094
0.68, -1, 26.3456, 25.9022, 14.4675, 12.8711, 106.894, -66.6414
0.684, -1, 26.2486, 25.8523, 14.4873, 12.8727, 106.842, -66.7734
0.688, -1, 26.1517, 25.8024, 14.5071, 12.8743, 106.789, -66.9054
0.692, -1, 26.0548, 25.7525, 14.5269, 12.8759, 106.737, -67.0374
0.696, -1, 25.9579, 25.7026, 14.5466, 12.8775, 106.685, -67.1694
0.7, -1, 25.8609, 25.6527, 14.5664, 12.8791, 106.633, -67.3015
0.704, -1, 25.764, 25.6028, 14.5862, 12.8807, 106.58, -67.4335
0.708, -1, 25.6671, 25.5529, 14.606, 12.8823, 106.528, -67.5655
0.712, -1, 25.5702, 25.503, 14.6257, 12.8839, 106.476, -67.6975
0.716, -1, 25.4732, 25.4531, 14.6455, 12.8855, 106.424, -67.8296
0.72, -1, 25.3763, 25.4032, 14.6653, 12.8871, 106.371, -67.9616
0.724, -1, 25.2794, 25.3533, 14.6851, 12.8887, 106.319, -68.0936
0.728, -1, 25.1825, 25.3034, 14.7048, 12.8903, 106.267, -68.2256
0.732, -1, 25.0855, 25.2535, 14.7246, 12.8919, 106.215, -68.3576
0.736, -1, 24.9886, 25.2036, 14.7444, 12.8935, 106.162, -68.4897
0.74, -1, 24.8917, 25.1537, 14.7642, 12.8951, 106.11, -68.6217
0.744, -1, 24.7948, 25.1038, 14.7839, 12.8967, 106.058, -68.7537
0.748, -1, 24.6978, 25.0539, 14.8037, 12.8983, 106.006, -68.8857
0.752, -1, 24.6009, 25.004, 14.8235, 12.8999, 105.953, -69.0177
0.756, -1, 24.504, 24.9541, 14.8433, 12.9015, 105.901, -69.1497
0.76, -1, 24.4071, 24.9042, 14.863, 12.9031, 105.849, -69.2818
0.764, -1, 24.3101, 24.8543, 14.8828, 12.9047, 105.797, -69.4138
0.768, -1, 24.2132, 24.8044, 14.9026, 12.9063, 105.745, -69.5458
0.772, -1, 24.1163, 24.7545, 14.9224, 12.9079, 105.692, -69.6778
0.776, -1, 24.0194, 24.7046, 14.9421, 12.9095, 105.64, -69.8098
0.78, -1, 23.9225, 24.6547, 14.9619, 12.9111, 105.588, -69.9418
0.784, -1, 23.8256, 24.6049, 14.9817, 12.9127, 105.536, -70.0738
0.788, -1, 23.7287, 24.555, 15.0015, 12.9144, 105.483, -70.2058
0.792, -1, 23.6318, 24.5051, 15.0212, 12.916, 105.431, -70.3378
0.796, -1, 23.5349, 24.4552, 15.041, 12.9176, 105.379, -70.4698
0.8, -1, 23.438, 24.4053, 15.0608, 12.9192, 105.327, -70.6018
0.804, -1, 23.3411, 24.3554, 15.0805, 12.9208, 105.274, -70.7337
0.808, -1, 23.2442, 24.3055, 15.1003, 12.9224, 105.222, -70.8657
0.812, -1, 23.1473, 24.2557, 15.1201, 12.924, 105.17, -70.9977
0.816, -1, 23.0504, 24.2058, 15.1398, 12.9256, 105.118, -71.1297
0.82, -1, 22.9535, 24.1559, 15.1596, 12.9272, 105.066, -71.2616
0.824, -1, 22.8566, 24.106, 15.1794, 12.9288, 105.013, -71.3936
0.828, -1, 22.7597, 24.0561, 15.1991, 12.9304, 104.961, -71.5256
0.832, -1, 22.6628, 24.0063, 15.2189, 12.932, 104.909, -71.6575
0.836, -1, 22.5659, 23.9564, 15.2387, 12.9336, 104.857, -71.7895
0.84, -1, 22.4691, 23.9065, 15.2584, 12.9352, 104.804, -71.9214
0.844, -1, 22.3722, 23.8567, 15.2782, 12.9368, 104.752, -72.0534
0.848, -1, 22.2753, 23.8068, 15.298, 12.9384, 104.7, -72.1853
0.852, -1, 22.1785, 23.7569, 15.3177, 12.94, 104.648, -72.3173
0.856, -1, 22.0816, 23.7071, 15.3375, 12.9416, 104.596, -72.4492
0.86, -1, 21.9848, 23.6572, 15.3572, 12.9432, 104.543, -72.5811
0.864, -1, 21.8879, 23.6073, 15.377, 12.9448, 104.491, -72.713
0.868, -1, 21.7911, 23.5575, 15.3968, 12.9464, 104.439, -72.8449
0.872, -1, 21.6942, 23.5076, 15.4165, 12.948, 104.387, -72.9768
0.876, -1, 21.5974, 23.4578, 15.4363, 12.9496, 104.335, -73.1087
0.88, -1, 21.5006, 23.4079, 15.456, 12.9512, 104.283, -73.2406
0.884, -1, 21.4037, 23.3581, 15.4758, 12.9528, 104.23, -73.3725
0.888, -1, 21.3069, 23.3082, 15.4955, 12.9544, 104.178, -73.5044
0.892, -1, 21.2101, 23.2584, 15.5153, 12.956, 104.126, -73.6363
0.896, -1, 21.1133, 23.2086, 15.5351, 12.9576, 104.074, -73.7681
0.9, -1, 21.0165, 23.1587, 15.5548, 12.9592, 104.022, -73.9
0.904, -1, 20.9196, 23.1089, 15.5746, 12.9608, 103.969, -74.0318
0.908, -1, 20.8228, 23.0591, 15.5943, 12.9624, 103.917, -74.1637
0.912, -1, 20.7261, 23.0092, 15.6141, 12.964, 103.865, -74.2955
0.916, -1, 20.6293, 22.9594, 15.6338, 12.9656, 103.813, -74.4274
0.92, -1, 20.5325, 22.9096, 15.6535, 12.9672, 103.761, -74.5592
0.924, -1, 20.4357, 22.8598, 15.6733, 12.9688, 103.709, -74.691
0.928, -1, 20.3389, 22.8099, 15.693, 12.9704, 103.656, -74.8228
0.932, -1, 20.2422, 22.7601, 15.7128, 12.972, 103.604, -74.9546
0.936, -1, 20.1454, 22.7103, 15.7325, 12.9736, 103.552, -75.0864
0.94, -1, 20.0487, 22.6605, 15.7523, 12.9752, 103.5, -75.2182
0.944, -1, 19.9519, 22.6107, 15.772, 12.9767, 103.448, -75.35
0.948, -1, 19.8552, 22.5609, 15.7917, 12.9783, 103.396, -75.4817
0.952, -1, 19.7584, 22.5111, 15.8115, 12.9799, 103.344, -75.6135
0.956, -1, 19.6617, 22.4613, 15.8312, 12.9815, 103.291, -75.7452
0.96, -1, 19.565, 22.4115, 15.8509, 12.9831, 103.239, -75.877
0.964, -1, 19.4683, 22.3617, 15.8707, 12.9847, 103.187, -76.0087
0.968, -1, 19.3716, 22.312, 15.8904, 12.9863, 103.135, -76.1404
0.972, -1, 19.2749, 22.2622, 15.9101, 12.9879, 103.083, -76.2721
0.976, -1, 19.1782, 22.2124, 15.9298, 12.9895, 103.031, -76.4038
0.98, -1, 19.0815, 22.1626, 15.9496, 12.9911, 102.979, -76.5355
0.984, -1, 18.9848, 22.1129, 15.9693, 12.9927, 102.927, -76.6672
0.988, -1, 18.8881, 22.0631, 15.989, 12.9943, 102.875, -76.7988
0.992, -1, 18.7915, 22.0133, 16.0087, 12.9959, 102.822, -76.9305
0.996, -1, 18.6948, 21.9636, 16.0285, 12.9975, 102.77, -77.0621
1, -1, 18.5982, 21.9138, 16.0482, 12.9991, 102.718, -77.1938
1.004, -1, 18.5015, 21.8641, 16.0679, 13.0007, 102.666, -77.3254
1.008, -1, 18.4049, 21.8143, 16.0876, 13.0023, 102.614, -77.457
1.012, -1, 18.3083, 21.7646, 16.1073, 13.0039, 102.562, -77.5886
1.016, -1, 18.2117, 21.7149, 16.127, 13.0055, 102.51, -77.7202
1.02, -1, 18.1151, 21.6651, 16.1467, 13.0071, 102.458, -77.8518
1.024, -1, 18.0185, 21.6154, 16.1664, 13.0087, 102.406, -77.9834
1.027, -1, 17.9219, 21.5657, 16.1862, 13.0103, 102.354, -78.1149
1.032, -1, 17.8253, 21.516, 16.2059, 13.0119, 102.302, -78.2465
1.036, -1, 17.7287, 21.4663, 16.2256, 13.0135, 102.25, -78.378
1.04, -1, 17.6322, 21.4165, 16.2453, 13.0151, 102.198, -78.5095
1.044, -1, 17.5356, 21.3668, 16.265, 13.0167, 102.146, -78.641
1.048, -1, 17.4391, 21.3171, 16.2847, 13.0183, 102.094, -78.7725
1.052, -1, 17.3425, 21.2674, 16.3043, 13.0199, 102.042, -78.904
1.055, -1, 17.246, 21.2178, 16.324, 13.0215, 101.99, -79.0355
1.06, -1, 17.1495, 21.1681, 16.3437, 13.0231, 101.938, -79.167
1.064, -1, 17.053, 21.1184, 16.3634, 13.0246, 101.886, -79.2984
1.068, -1, 16.9565, 21.0687, 16.3831, 13.0262, 101.834, -79.4298
1.072, -1, 16.86, 21.019, 16.4028, 13.0278, 101.782, -79.5613
1.076, -1, 16.7635, 20.9694, 16.4225, 13.0294, 101.73, -79.6927
1.08, -1, 16.667, 20.9197, 16.4422, 13.031, 101.678, -79.8241
1.084, -1, 16.5706, 20.8701, 16.4618, 13.0326, 101.626, -79.9555
1.088, -1, 16.4741, 20.8204, 16.4815, 13.0342, 101.574, -80.0868
1.091, -1, 16.3777, 20.7708, 16.5012, 13.0358, 101.522, -80.2182
1.096, -1, 16.2812, 20.7211, 16.5209, 13.0374, 101.47, -80.3495
1.1, -1, 16.1848, 20.6715, 16.5405, 13.039, 101.418, -80.4809
1.104, -1, 16.0884, 20.6219, 16.5602, 13.0406, 101.366, -80.6122
1.108, -1, 15.992, 20.5722, 16.5799, 13.0422, 101.314, -80.7435
1.112, -1, 15.8956, 20.5226, 16.5995, 13.0438, 101.262, -80.8748
1.116, -1, 15.7992, 20.473, 16.6192, 13.0454, 101.21, -81.006
1.119, -1, 15.7028, 20.4234, 16.6389, 13.047, 101.158, -81.1373
1.124, -1, 15.6065, 20.3738, 16.6585, 13.0485, 101.106, -81.2685
1.128, -1, 15.5101, 20.3242, 16.6782, 13.0501, 101.054, -81.3998
1.132, -1, 15.4138, 20.2746, 16.6978, 13.0517, 101.002, -81.531
1.136, -1, 15.3175, 20.225, 16.7175, 13.0533, 100.95, -81.6622
1.14, -1, 15.2212, 20.1754, 16.7371, 13.0549, 100.898, -81.7934
1.144, -1, 15.1248, 20.1258, 16.7568, 13.0565, 100.846, -81.9245
1.147, -1, 15.0286, 20.0763, 16.7764, 13.0581, 100.794, -82.0557
1.152, -1, 14.9323, 20.0267, 16.7961, 13.0597, 100.743, -82.1868
1.156, -1, 14.836, 19.9772, 16.8157, 13.0613, 100.691, -82.318
1.16, -1, 14.7397, 19.9276, 16.8354, 13.0629, 100.639, -82.4491
1.164, -1, 14.6435, 19.8781, 16.855, 13.0645, 100.587, -82.5802
1.168, -1, 14.5473, 19.8285, 16.8746, 13.066, 100.535, -82.7112
1.172, -1, 14.451, 19.779, 16.8943, 13.0676, 100.483, -82.8423
1.175, -1, 14.3548, 19.7295, 16.9139, 13.0692, 100.431, -82.9733
1.18, -1, 14.2586, 19.6799, 16.9335, 13.0708, 100.38, -83.1044
1.184, -1, 14.1624, 19.6304, 16.9531, 13.0724, 100.328, -83.2354
1.188, -1, 14.0663, 19.5809, 16.9728, 13.074, 100.276, -83.3664
1.192, -1, 13.9701, 19.5314, 16.9924, 13.0756, 100.224, -83.4973
1.196, -1, 13.8739, 19.4819, 17.012, 13.0772, 100.172, -83.6283
1.2, -1, 13.7778, 19.4324, 17.0316, 13.0788, 100.12, -83.7592
1.204, -1, 13.6817, 19.3829, 17.0512, 13.0803, 100.069, -83.8902
1.208, -1, 13.5856, 19.3335, 17.0708, 13.0819, 100.017, -84.0211
1.212, -1, 13.4895, 19.284, 17.0904, 13.0835, 99.965, -84.152
1.216, -1, 13.3934, 19.2345, 17.11, 13.0851, 99.9132, -84.2828
1.22, -1, 13.2973, 19.1851, 17.1296, 13.0867, 99.8614, -84.4137
1.224, -1, 13.2012, 19.1356, 17.1492, 13.0883, 99.8097, -84.5445
1.228, -1, 13.1052, 19.0862, 17.1688, 13.0899, 99.7579, -84.6754
1.232, -1, 13.0091, 19.0367, 17.1884, 13.0915, 99.7061, -84.8062
1.236, -1, 12.9131, 18.9873, 17.208, 13.093, 99.6544, -84.9369
1.24, -1, 12.8171, 18.9379, 17.2276, 13.0946, 99.6027, -85.0677
1.244, -1, 12.7211, 18.8885, 17.2472, 13.0962, 99.5509, -85.1985
1.248, -1, 12.6251, 18.8391, 17.2668, 13.0978, 99.4992, -85.3292
1.252, -1, 12.5292, 18.7897, 17.2863, 13.0994, 99.4475, -85.4599
1.256, -1, 12.4332, 18.7403, 17.3059, 13.101, 99.3958, -85.5906
1.26, -1, 12.3373, 18.6909, 17.3255, 13.1026, 99.344, -85.7213
1.264, -1, 12.2414, 18.6415, 17.3451, 13.1041, 99.2924, -85.8519
1.267, -1, 12.1454, 18.5921, 17.3646, 13.1057, 99.2407, -85.9826
1.272, -1, 12.0495, 18.5428, 17.3842, 13.1073, 99.189, -86.1132
1.276, -1, 11.9537, 18.4934, 17.4037, 13.1089, 99.1373, -86.2438
1.28, -1, 11.8578, 18.4441, 17.4233, 13.1105, 99.0856, -86.3743
1.284, -1, 11.7619, 18.3947, 17.4429, 13.1121, 99.034, -86.5049
1.288, -1, 11.6661, 18.3454, 17.4624, 13.1136, 98.9823, -86.6354
1.292, -1, 11.5703, 18.2961, 17.482, 13.1152, 98.9307, -86.7659
1.295, -1, 11.4745, 18.2467, 17.5015, 13.1168, 98.8791, -86.8964
1.3, -1, 11.3787, 18.1974, 17.521, 13.1184, 98.8274, -87.0269
1.304, -1, 11.2829, 18.1481, 17.5406, 13.12, 98.7758, -87.1574
1.308, -1, 11.1871, 18.0988, 17.5601, 13.1216, 98.7242, -87.2878
1.312, -1, 11.0914, 18.0495, 17.5797, 13.1231, 98.6726, -87.4182
1.316, -1, 10.9956, 18.0002, 17.5992, 13.1247, 98.621, -87.5486
1.32, -1, 10.8999, 17.951, 17.6187, 13.1263, 98.5694, -87.679
1.324, -1, 10.8042, 17.9017, 17.6382, 13.1279, 98.5178, -87.8093
1.328, -1, 10.7085, 17.8524, 17.6578, 13.1295, 98.4663, -87.9397
1.332, -1, 10.6128, 17.8032, 17.6773, 13.131, 98.4147, -88.07
1.336, -1, 10.5172, 17.754, 17.6968, 13.1326, 98.3631, -88.2003
1.34, -1, 10.4215, 17.7047, 17.7163, 13.1342, 98.3116, -88.3305
1.344, -1, 10.3259, 17.6555, 17.7358, 13.1358, 98.2601, -88.4608
1.348, -1, 10.2303, 17.6063, 17.7553, 13.1374, 98.2085, -88.591
1.352, -1, 10.1347, 17.5571, 17.7748, 13.1389, 98.157, -88.7212
1.356, -1, 10.0391, 17.5079, 17.7943, 13.1405, 98.1055, -88.8514
1.36, -1, 9.94355, 17.4587, 17.8138, 13.1421, 98.054, -88.9815
1.364, -1, 9.848, 17.4095, 17.8333, 13.1437, 98.0025, -89.1117
1.368, -1, 9.75247, 17.3603, 17.8528, 13.1453, 97.951, -89.2418
1.372, -1, 9.65695, 17.3111, 17.8723, 13.1468, 97.8995, -89.3719
1.376, -1, 9.56145, 17.262, 17.8918, 13.1484, 97.8481, -89.502
1.38, -1, 9.46597, 17.2128, 17.9113, 13.15, 97.7966, -89.632
1.384, -1, 9.3705, 17.1637, 17.9307, 13.1516, 97.7452, -89.762
1.388, -1, 9.27505, 17.1146, 17.9502, 13.1531, 97.6937, -89.892
1.392, -1, 9.17961, 17.0654, 17.9697, 13.1547, 97.6423, -90.022
1.396, -1, 9.08419, 17.0163, 17.9891, 13.1563, 97.5909, -90.152
1.4, -1, 8.98879, 16.9672, 18.0086, 13.1579, 97.5395, -90.2819
1.404, -1, 8.89341, 16.9181, 18.0281, 13.1594, 97.4881, -90.4118
1.408, -1, 8.79804, 16.869, 18.0475, 13.161, 97.4366, -90.5417
1.412, -1, 8.70269, 16.8199, 18.067, 13.1626, 97.3853, -90.6716
1.416, -1, 8.60735, 16.7709, 18.0864, 13.1642, 97.3339, -90.8014
1.42, -1, 8.51203, 16.7218, 18.1059, 13.1658, 97.2825, -90.9312
1.424, -1, 8.41673, 16.6727, 18.1253, 13.1673, 97.2312, -91.061
1.428, -1, 8.32145, 16.6237, 18.1447, 13.1689, 97.1798, -91.1908
1.432, -1, 8.22618, 16.5746, 18.1642, 13.1705, 97.1285, -91.3206
1.436, -1, 8.13094, 16.5256, 18.1836, 13.172, 97.0771, -91.4503
1.44, -1, 8.0357, 16.4766, 18.203, 13.1736, 97.0258, -91.58
1.444, -1, 7.94049, 16.4276, 18.2225, 13.1752, 96.9745, -91.7097
1.448, -1, 7.84529, 16.3786, 18.2419, 13.1768, 96.9232, -91.8393
1.452, -1, 7.75011, 16.3296, 18.2613, 13.1783, 96.8719, -91.969
1.456, -1, 7.65495, 16.2806, 18.2807, 13.1799, 96.8206, -92.0986
1.46, -1, 7.55981, 16.2316, 18.3001, 13.1815, 96.7693, -92.2282
1.464, -1, 7.46468, 16.1826, 18.3195, 13.1831, 96.7181, -92.3577
1.468, -1, 7.36957, 16.1337, 18.3389, 13.1846, 96.6668, -92.4873
1.472, -1, 7.27448, 16.0847, 18.3583, 13.1862, 96.6156, -92.6168
1.476, -1, 7.17941, 16.0358, 18.3777, 13.1878, 96.5643, -92.7463
1.48, -1, 7.08435, 15.9869, 18.3971, 13.1893, 96.5131, -92.8757
1.484, -1, 6.98931, 15.9379, 18.4165, 13.1909, 96.4619, -93.0052
1.488, -1, 6.89429, 15.889, 18.4359, 13.1925, 96.4107, -93.1346
1.492, -1, 6.79929, 15.8401, 18.4553, 13.194, 96.3595, -93.264
1.496, -1, 6.70431, 15.7912, 18.4746, 13.1956, 96.3083, -93.3933
1.5, -1, 6.60934, 15.7424, 18.494, 13.1972, 96.2571, -93.5227
1.504, -1, 6.5144, 15.6935, 18.5134, 13.1988, 96.2059, -93.652
1.508, -1, 6.41947, 15.6446, 18.5328, 13.2003, 96.1548, -93.7813
1.512, -1, 6.32456, 15.5958, 18.5521, 13.2019, 96.1036, -93.9106
1.516, -1, 6.22967, 15.5469, 18.5715, 13.2035, 96.0525, -94.0398
1.52, -1, 6.13479, 15.4981, 18.5908, 13.205, 96.0014, -94.169
1.524, -1, 6.03994, 15.4493, 18.6102, 13.2066, 95.9502, -94.2982
1.528, -1, 5.9451, 15.4004, 18.6295, 13.2082, 95.8991, -94.4274
1.532, -1, 5.85029, 15.3516, 18.6489, 13.2097, 95.848, -94.5565
1.536, -1, 5.75549, 15.3028, 18.6682, 13.2113, 95.7969, -94.6856
1.54, -1, 5.66071, 15.254, 18.6875, 13.2129, 95.7459, -94.8147
1.544, -1, 5.56595, 15.2053, 18.7069, 13.2144, 95.6948, -94.9438
1.548, -1, 5.47121, 15.1565, 18.7262, 13.216, 95.6437, -95.0728
1.552, -1, 5.37649, 15.1077, 18.7455, 13.2176, 95.5927, -95.2018
1.556, -1, 5.28179, 15.059, 18.7649, 13.2191, 95.5417, -95.3308
1.56, -1, 5.1871, 15.0102, 18.7842, 13.2207, 95.4906, -95.4598
1.564, -1, 5.09244, 14.9615, 18.8035, 13.2222, 95.4396, -95.5887
1.568, -1, 4.9978, 14.9128, 18.8228, 13.2238, 95.3886, -95.7176
1.572, -1, 4.90317, 14.8641, 18.8421, 13.2254, 95.3376, -95.8465
1.576, -1, 4.80857, 14.8154, 18.8614, 13.2269, 95.2866, -95.9753
1.58, -1, 4.71398, 14.7667, 18.8807, 13.2285, 95.2357, -96.1041
1.584, -1, 4.61941, 14.718, 18.9, 13.2301, 95.1847, -96.2329
1.588, -1, 4.52487, 14.6694, 18.9193, 13.2316, 95.1337, -96.3617
1.592, -1, 4.43034, 14.6207, 18.9385, 13.2332, 95.0828, -96.4905
1.596, -1, 4.33583, 14.5721, 18.9578, 13.2347, 95.0319, -96.6192
1.6, -1, 4.24135, 14.5234, 18.9771, 13.2363, 94.9809, -96.7479
1.604, -1, 4.14688, 14.4748, 18.9964, 13.2379, 94.93, -96.8765
1.608, -1, 4.05243, 14.4262, 19.0156, 13.2394, 94.8791, -97.0052
1.612, -1, 3.95801, 14.3776, 19.0349, 13.241, 94.8282, -97.1338
1.616, -1, 3.8636, 14.329, 19.0542, 13.2425, 94.7774, -97.2624
1.62, -1, 3.76921, 14.2804, 19.0734, 13.2441, 94.7265, -97.3909
1.624, -1, 3.67485, 14.2318, 19.0927, 13.2457, 94.6756, -97.5194
1.628, -1, 3.5805, 14.1832, 19.1119, 13.2472, 94.6248, -97.6479
1.632, -1, 3.48618, 14.1347, 19.1312, 13.2488, 94.574, -97.7764
1.636, -1, 3.39187, 14.0861, 19.1504, 13.2503, 94.5231, -97.9048
1.64, -1, 3.29759, 14.0376, 19.1696, 13.2519, 94.4723, -98.0332
1.644, -1, 3.20332, 13.9891, 19.1889, 13.2535, 94.4215, -98.1616
1.648, -1, 3.10908, 13.9406, 19.2081, 13.255, 94.3707, -98.29
1.652, -1, 3.01486, 13.8921, 19.2273, 13.2566, 94.32, -98.4183
1.656, -1, 2.92066, 13.8436, 19.2465, 13.2581, 94.2692, -98.5466
1.66, -1, 2.82647, 13.7951, 19.2657, 13.2597, 94.2184, -98.6749
1.664, -1, 2.73231, 13.7466, 19.285, 13.2612, 94.1677, -98.8031
1.668, -1, 2.63818, 13.6982, 19.3042, 13.2628, 94.117, -98.9314
1.672, -1, 2.54406, 13.6497, 19.3234, 13.2643, 94.0662, -99.0595
1.676, -1, 2.44996, 13.6013, 19.3426, 13.2659, 94.0155, -99.1877
1.68, -1, 2.35588, 13.5529, 19.3617, 13.2675, 93.9648, -99.3158
1.684, -1, 2.26183, 13.5044, 19.3809, 13.269, 93.9141, -99.4439
1.688, -1, 2.1678, 13.456, 19.4001, 13.2706, 93.8634, -99.572
1.692, -1, 2.07378, 13.4076, 19.4193, 13.2721, 93.8128, -99.7
1.696, -1, 1.97979, 13.3593, 19.4385, 13.2737, 93.7621, -99.8281
1.7, -1, 1.88582, 13.3109, 19.4576, 13.2752, 93.7115, -99.956
1.704, -1, 1.79188, 13.2625, 19.4768, 13.2768, 93.6609, -100.084
1.708, -1, 1.69795, 13.2142, 19.496, 13.2783, 93.6102, -100.212
1.712, -1, 1.60404, 13.1658, 19.5151, 13.2799, 93.5596, -100.34
1.716, -1, 1.51016, 13.1175, 19.5343, 13.2814, 93.509, -100.468
1.72, -1, 1.41629, 13.0692, 19.5534, 13.283, 93.4585, -100.596
1.724, -1, 1.32245, 13.0209, 19.5726, 13.2845, 93.4079, -100.723
1.728, -1, 1.22863, 12.9726, 19.5917, 13.2861, 93.3573, -100.851
1.732, -1, 1.13483, 12.9243, 19.6108, 13.2876, 93.3068, -100.979
1.736, -1, 1.04106, 12.8761, 19.63, 13.2892, 93.2562, -101.107
1.74, -1, 0.947302, 12.8278, 19.6491, 13.2907, 93.2057, -101.234
1.744, -1, 0.853568, 12.7795, 19.6682, 13.2923, 93.1552, -101.362
1.748, -1, 0.759857, 12.7313, 19.6873, 13.2938, 93.1047, -101.49
1.752, -1, 0.666167, 12.6831, 19.7064, 13.2954, 93.0542, -101.617
1.756, -1, 0.572498, 12.6349, 19.7256, 13.2969, 93.0037, -101.745
1.76, -1, 0.478852, 12.5867, 19.7447, 13.2985, 92.9533, -101.872
1.764, -1, 0.385227, 12.5385, 19.7638, 13.3, 92.9028, -102
1.768, -1, 0.291625, 12.4903, 19.7829, 13.3016, 92.8524, -102.127
1.772, -1, 0.198044, 12.4421, 19.8019, 13.3031, 92.8019, -102.255
1.776, -1, 0.104485, 12.394, 19.821, 13.3046, 92.7515, -102.382
1.78, -1, 0.0109476, 12.3458, 19.8401, 13.3062, 92.7011, -102.51
1.784, -1, -0.0825676, 12.2977, 19.8592, 13.3077, 92.6507, -102.637
1.788, -1, -0.176061, 12.2495, 19.8783, 13.3093, 92.6003, -102.764
1.792, -1, -0.269532, 12.2014, 19.8973, 13.3108, 92.5499, -102.892
1.796, -1, -0.362981, 12.1533, 19.9164, 13.3124, 92.4996, -103.019
1.8, -1, -0.456408, 12.1052, 19.9355, 13.3139, 92.4492, -103.146
1.804, -1, -0.549814, 12.0572, 19.9545, 13.3155, 92.3989, -103.273
1.808, -1, -0.643197, 12.0091, 19.9736, 13.317, 92.3486, -103.4
1.812, -1, -0.736557, 11.961, 19.9926, 13.3185, 92.2983, -103.528
1.816, -1, -0.829896, 11.913, 20.0116, 13.3201, 92.248, -103.655
1.82, -1, -0.923212, 11.8649, 20.0307, 13.3216, 92.1977, -103.782
1.824, -1, -1.01651, 11.8169, 20.0497, 13.3232, 92.1474, -103.909
1.828, -1, -1.10978, 11.7689, 20.0687, 13.3247, 92.0971, -104.036
1.832, -1, -1.20303, 11.7209, 20.0878, 13.3262, 92.0469, -104.163
1.836, -1, -1.29626, 11.6729, 20.1068, 13.3278, 91.9966, -104.29
1.84, -1, -1.38946, 11.6249, 20.1258, 13.3293, 91.9464, -104.417
1.844, -1, -1.48264, 11.577, 20.1448, 13.3309, 91.8962, -104.544
1.848, -1, -1.5758, 11.529, 20.1638, 13.3324, 91.846, -104.671
1.852, -1, -1.66894, 11.4811, 20.1828, 13.3339, 91.7958, -104.797
1.856, -1, -1.76205, 11.4332, 20.2018, 13.3355, 91.7456, -104.924
1.86, -1, -1.85515, 11.3852, 20.2208, 13.337, 91.6954, -105.051
1.864, -1, -1.94822, 11.3373, 20.2398, 13.3386, 91.6453, -105.178
1.868, -1, -2.04126, 11.2894, 20.2588, 13.3401, 91.5951, -105.305
1.872, -1, -2.13429, 11.2416, 20.2777, 13.3416, 91.545, -105.431
1.876, -1, -2.22729, 11.1937, 20.2967, 13.3432, 91.4949, -105.558
1.88, -1, -2.32027, 11.1458, 20.3157, 13.3447, 91.4448, -105.685
1.884, -1, -2.41322, 11.098, 20.3346, 13.3462, 91.3947, -105.811
1.888, -1, -2.50615, 11.0501, 20.3536, 13.3478, 91.3446, -105.938
1.892, -1, -2.59906, 11.0023, 20.3726, 13.3493, 91.2945, -106.064
1.896, -1, -2.69195, 10.9545, 20.3915, 13.3508, 91.2445, -106.191
1.9, -1, -2.78481, 10.9067, 20.4104, 13.3524, 91.1944, -106.317
1.904, -1, -2.87766, 10.8589, 20.4294, 13.3539, 91.1444, -106.444
1.908, -1, -2.97047, 10.8111, 20.4483, 13.3554, 91.0944, -106.57
1.912, -1, -3.06327, 10.7634, 20.4673, 13.357, 91.0444, -106.696
1.916, -1, -3.15604, 10.7156, 20.4862, 13.3585, 90.9944, -106.823
1.92, -1, -3.24879, 10.6679, 20.5051, 13.36, 90.9444, -106.949
1.924, -1, -3.34151, 10.6201, 20.524, 13.3616, 90.8944, -107.075
1.928, -1, -3.43422, 10.5724, 20.5429, 13.3631, 90.8445, -107.202
1.932, -1, -3.52689, 10.5247, 20.5618, 13.3646, 90.7945, -107.328
1.936, -1, -3.61955, 10.477, 20.5807, 13.3662, 90.7446, -107.454
1.94, -1, -3.71218, 10.4293, 20.5996, 13.3677, 90.6946, -107.58
1.944, -1, -3.80479, 10.3817, 20.6185, 13.3692, 90.6447, -107.706
1.948, -1, -3.89738, 10.334, 20.6374, 13.3708, 90.5949, -107.833
1.952, -1, -3.98994, 10.2864, 20.6563, 13.3723, 90.545, -107.959
1.956, -1, -4.08248, 10.2387, 20.6752, 13.3738, 90.4951, -108.085
1.96, -1, -4.17499, 10.1911, 20.694, 13.3753, 90.4452, -108.211
1.964, -1, -4.26749, 10.1435, 20.7129, 13.3769, 90.3954, -108.337
1.968, -1, -4.35995, 10.0959, 20.7318, 13.3784, 90.3456, -108.463
1.972, -1, -4.4524, 10.0483, 20.7506, 13.3799, 90.2957, -108.588
1.976, -1, -4.54482, 10.0007, 20.7695, 13.3815, 90.2459, -108.714
1.98, -1, -4.63722, 9.95318, 20.7883, 13.383, 90.1961, -108.84
1.984, -1, -4.72959, 9.90563, 20.8072, 13.3845, 90.1464, -108.966
1.988, -1, -4.82194, 9.85809, 20.826, 13.386, 90.0966, -109.092
1.992, -1, -4.91427, 9.81057, 20.8449, 13.3876, 90.0468, -109.217
1.996, -1, -5.00657, 9.76306, 20.8637, 13.3891, 89.9971, -109.343
1.999, -1, -5.09885, 9.71556, 20.8825, 13.3906, 89.9474, -109.469
2.004, -1, -5.1911, 9.66807, 20.9013, 13.3921, 89.8977, -109.594
2.008, -1, -5.28334, 9.62059, 20.9201, 13.3937, 89.8479, -109.72
2.012, -1, -5.37554, 9.57313, 20.939, 13.3952, 89.7983, -109.846
2.015, -1, -5.46773, 9.52568, 20.9578, 13.3967, 89.7486, -109.971
2.019, -1, -5.55989, 9.47824, 20.9766, 13.3982, 89.6989, -110.097
2.024, -1, -5.65202, 9.43081, 20.9954, 13.3997, 89.6493, -110.222
2.028, -1, -5.74413, 9.3834, 21.0141, 13.4013, 89.5996, -110.348
2.031, -1, -5.83622, 9.336, 21.0329, 13.4028, 89.55, -110.473
2.036, -1, -5.92828, 9.28861, 21.0517, 13.4043, 89.5004, -110.599
2.04, -1, -6.02032, 9.24123, 21.0705, 13.4058, 89.4508, -110.724
2.044, -1, -6.11234, 9.19387, 21.0893, 13.4074, 89.4012, -110.849
2.048, -1, -6.20433, 9.14652, 21.108, 13.4089, 89.3516, -110.974
2.051, -1, -6.2963, 9.09918, 21.1268, 13.4104, 89.3021, -111.1
2.055, -1, -6.38824, 9.05185, 21.1455, 13.4119, 89.2525, -111.225
2.06, -1, -6.48016, 9.00454, 21.1643, 13.4134, 89.203, -111.35
2.064, -1, -6.57205, 8.95724, 21.183, 13.4149, 89.1535, -111.475
2.068, -1, -6.66392, 8.90995, 21.2018, 13.4165, 89.1039, -111.6
2.071, -1, -6.75577, 8.86267, 21.2205, 13.418, 89.0544, -111.725
2.076, -1, -6.84759, 8.8154, 21.2392, 13.4195, 89.005, -111.851
2.08, -1, -6.93939, 8.76815, 21.258, 13.421, 88.9555, -111.976
2.084, -1, -7.03117, 8.72091, 21.2767, 13.4225, 88.906, -112.101
2.087, -1, -7.12292, 8.67369, 21.2954, 13.424, 88.8566, -112.226
2.092, -1, -7.21464, 8.62647, 21.3141, 13.4256, 88.8072, -112.35
2.096, -1, -7.30635, 8.57927, 21.3328, 13.4271, 88.7577, -112.475
2.1, -1, -7.39802, 8.53208, 21.3515, 13.4286, 88.7083, -112.6
2.104, -1, -7.48968, 8.4849, 21.3702, 13.4301, 88.6589, -112.725
2.107, -1, -7.58131, 8.43774, 21.3889, 13.4316, 88.6096, -112.85
2.111, -1, -7.67291, 8.39058, 21.4076, 13.4331, 88.5602, -112.975
2.116, -1, -7.7645, 8.34344, 21.4263, 13.4346, 88.5108, -113.099
2.12, -1, -7.85605, 8.29631, 21.445, 13.4362, 88.4615, -113.224
2.124, -1, -7.94759, 8.2492, 21.4636, 13.4377, 88.4122, -113.349
2.127, -1, -8.03909, 8.2021, 21.4823, 13.4392, 88.3629, -113.473
2.132, -1, -8.13058, 8.15501, 21.501, 13.4407, 88.3136, -113.598
2.136, -1, -8.22204, 8.10793, 21.5196, 13.4422, 88.2643, -113.722
2.14, -1, -8.31348, 8.06086, 21.5383, 13.4437, 88.215, -113.847
2.143, -1, -8.40489, 8.01381, 21.5569, 13.4452, 88.1657, -113.971
2.148, -1, -8.49628, 7.96677, 21.5756, 13.4467, 88.1165, -114.096
2.152, -1, -8.58764, 7.91974, 21.5942, 13.4482, 88.0672, -114.22
2.156, -1, -8.67899, 7.87272, 21.6128, 13.4498, 88.018, -114.345
2.16, -1, -8.7703, 7.82572, 21.6315, 13.4513, 87.9688, -114.469
2.163, -1, -8.86159, 7.77872, 21.6501, 13.4528, 87.9196, -114.593
2.168, -1, -8.95286, 7.73175, 21.6687, 13.4543, 87.8704, -114.718
2.172, -1, -9.04411, 7.68478, 21.6873, 13.4558, 87.8213, -114.842
2.176, -1, -9.13533, 7.63782, 21.7059, 13.4573, 87.7721, -114.966
2.179, -1, -9.22652, 7.59088, 21.7245, 13.4588, 87.7229, -115.09
2.184, -1, -9.3177, 7.54395, 21.7431, 13.4603, 87.6738, -115.215
2.188, -1, -9.40884, 7.49704, 21.7617, 13.4618, 87.6247, -115.339
2.192, -1, -9.49997, 7.45013, 21.7803, 13.4633, 87.5756, -115.463
2.196, -1, -9.59107, 7.40324, 21.7989, 13.4648, 87.5265, -115.587
2.199, -1, -9.68214, 7.35636, 21.8175, 13.4663, 87.4774, -115.711
2.204, -1, -9.77319, 7.30949, 21.8361, 13.4678, 87.4283, -115.835
2.208, -1, -9.86422, 7.26264, 21.8546, 13.4693, 87.3793, -115.959
2.212, -1, -9.95522, 7.21579, 21.8732, 13.4708, 87.3302, -116.083
2.216, -1, -10.0462, 7.16896, 21.8917, 13.4723, 87.2812, -116.207
2.219, -1, -10.1372, 7.12215, 21.9103, 13.4738, 87.2322, -116.331
2.224, -1, -10.2281, 7.07534, 21.9288, 13.4753, 87.1832, -116.455
2.228, -1, -10.319, 7.02855, 21.9474, 13.4768, 87.1342, -116.578
2.232, -1, -10.4099, 6.98177, 21.9659, 13.4783, 87.0852, -116.702
2.235, -1, -10.5007, 6.935, 21.9845, 13.4798, 87.0363, -116.826
2.24, -1, -10.5916, 6.88824, 22.003, 13.4813, 86.9873, -116.95
2.244, -1, -10.6824, 6.8415, 22.0215, 13.4828, 86.9384, -117.073
2.248, -1, -10.7732, 6.79477, 22.04, 13.4843, 86.8895, -117.197
2.252, -1, -10.8639, 6.74805, 22.0586, 13.4858, 86.8406, -117.32
2.255, -1, -10.9546, 6.70135, 22.0771, 13.4873, 86.7917, -117.444
2.259, -1, -11.0454, 6.65466, 22.0956, 13.4888, 86.7428, -117.568
2.264, -1, -11.136, 6.60798, 22.1141, 13.4903, 86.6939, -117.691
2.268, -1, -11.2267, 6.56131, 22.1326, 13.4918, 86.645, -117.815
2.272, -1, -11.3174, 6.51465, 22.1511, 13.4933, 86.5962, -117.938
2.275, -1, -11.408, 6.46801, 22.1695, 13.4948, 86.5474, -118.061
2.28, -1, -11.4986, 6.42138, 22.188, 13.4963, 86.4985, -118.185
2.284, -1, -11.5891, 6.37476, 22.2065, 13.4978, 86.4497, -118.308
2.288, -1, -11.6797, 6.32816, 22.225, 13.4993, 86.4009, -118.431
2.291, -1, -11.7702, 6.28157, 22.2434, 13.5008, 86.3522, -118.555
2.296, -1, -11.8607, 6.23499, 22.2619, 13.5023, 86.3034, -118.678
2.3, -1, -11.9511, 6.18842, 22.2803, 13.5038, 86.2546, -118.801
2.304, -1, -12.0416, 6.14186, 22.2988, 13.5053, 86.2059, -118.924
2.308, -1, -12.132, 6.09532, 22.3172, 13.5068, 86.1572, -119.048
2.311, -1, -12.2224, 6.04879, 22.3357, 13.5083, 86.1085, -119.171
2.316, -1, -12.3128, 6.00227, 22.3541, 13.5098, 86.0598, -119.294
2.32, -1, -12.4031, 5.95577, 22.3725, 13.5113, 86.0111, -119.417
2.324, -1, -12.4934, 5.90928, 22.391, 13.5128, 85.9624, -119.54
2.328, -1, -12.5837, 5.8628, 22.4094, 13.5143, 85.9137, -119.663
2.331, -1, -12.674, 5.81633, 22.4278, 13.5157, 85.8651, -119.786
2.336, -1, -12.7643, 5.76988, 22.4462, 13.5172, 85.8164, -119.909
2.34, -1, -12.8545, 5.72344, 22.4646, 13.5187, 85.7678, -120.032
2.344, -1, -12.9447, 5.67701, 22.483, 13.5202, 85.7192, -120.154
2.347, -1, -13.0349, 5.63059, 22.5014, 13.5217, 85.6706, -120.277
2.352, -1, -13.125, 5.58419, 22.5198, 13.5232, 85.622, -120.4
2.356, -1, -13.2151, 5.53779, 22.5382, 13.5247, 85.5735, -120.523
2.36, -1, -13.3052, 5.49142, 22.5566, 13.5262, 85.5249, -120.645
2.364, -1, -13.3953, 5.44505, 22.5749, 13.5277, 85.4764, -120.768
2.367, -1, -13.4854, 5.3987, 22.5933, 13.5292, 85.4278, -120.891
2.372, -1, -13.5754, 5.35236, 22.6117, 13.5306, 85.3793, -121.013
2.376, -1, -13.6654, 5.30603, 22.63, 13.5321, 85.3308, -121.136
2.38, -1, -13.7554, 5.25971, 22.6484, 13.5336, 85.2823, -121.258
2.383, -1, -13.8453, 5.21341, 22.6667, 13.5351, 85.2339, -121.381
2.388, -1, -13.9353, 5.16712, 22.6851, 13.5366, 85.1854, -121.503
2.392, -1, -14.0252, 5.12084, 22.7034, 13.5381, 85.1369, -121.626
2.396, -1, -14.115, 5.07458, 22.7218, 13.5396, 85.0885, -121.748
2.4, -1, -14.2049, 5.02832, 22.7401, 13.541, 85.0401, -121.871
2.403, -1, -14.2947, 4.98208, 22.7584, 13.5425, 84.9917, -121.993
2.408, -1, -14.3845, 4.93585, 22.7767, 13.544, 84.9433, -122.115
2.412, -1, -14.4743, 4.88964, 22.7951, 13.5455, 84.8949, -122.238
2.416, -1, -14.5641, 4.84344, 22.8134, 13.547, 84.8465, -122.36
2.42, -1, -14.6538, 4.79725, 22.8317, 13.5485, 84.7982, -122.482
2.423, -1, -14.7435, 4.75107, 22.85, 13.5499, 84.7498, -122.604
2.428, -1, -14.8332, 4.70491, 22.8683, 13.5514, 84.7015, -122.726
2.432, -1, -14.9229, 4.65876, 22.8866, 13.5529, 84.6532, -122.848
2.436, -1, -15.0125, 4.61262, 22.9048, 13.5544, 84.6049, -122.971
2.439, -1, -15.1021, 4.56649, 22.9231, 13.5559, 84.5566, -123.093
2.444, -1, -15.1917, 4.52038, 22.9414, 13.5573, 84.5083, -123.215
2.448, -1, -15.2813, 4.47428, 22.9597, 13.5588, 84.46, -123.337
2.452, -1, -15.3708, 4.42819, 22.9779, 13.5603, 84.4118, -123.459
2.456, -1, -15.4603, 4.38211, 22.9962, 13.5618, 84.3635, -123.58
2.459, -1, -15.5498, 4.33605, 23.0145, 13.5633, 84.3153, -123.702
2.464, -1, -15.6393, 4.29, 23.0327, 13.5647, 84.2671, -123.824
2.468, -1, -15.7287, 4.24396, 23.0509, 13.5662, 84.2189, -123.946
2.472, -1, -15.8181, 4.19793, 23.0692, 13.5677, 84.1707, -124.068
2.476, -1, -15.9075, 4.15192, 23.0874, 13.5692, 84.1225, -124.19
2.479, -1, -15.9969, 4.10592, 23.1057, 13.5706, 84.0744, -124.311
2.484, -1, -16.0862, 4.05993, 23.1239, 13.5721, 84.0262, -124.433
2.488, -1, -16.1756, 4.01395, 23.1421, 13.5736, 83.9781, -124.555
2.492, -1, -16.2649, 3.96798, 23.1603, 13.5751, 83.93, -124.676
2.495, -1, -16.3541, 3.92203, 23.1785, 13.5765, 83.8819, -124.798
2.5, -1, -16.4434, 3.87609, 23.1967, 13.578, 83.8338, -124.919
2.504, -1, -16.5326, 3.83016, 23.2149, 13.5795, 83.7857, -125.041
2.508, -1, -16.6218, 3.78425, 23.2331, 13.581, 83.7376, -125.162
2.512, -1, -16.711, 3.73834, 23.2513, 13.5824, 83.6896, -125.284
2.515, -1, -16.8001, 3.69245, 23.2695, 13.5839, 83.6415, -125.405
2.52, -1, -16.8893, 3.64657, 23.2877, 13.5854, 83.5935, -125.527
2.524, -1, -16.9784, 3.60071, 23.3059, 13.5869, 83.5455, -125.648
2.528, -1, -17.0675, 3.55485, 23.324, 13.5883, 83.4974, -125.769
2.531, -1, -17.1565, 3.50901, 23.3422, 13.5898, 83.4495, -125.891
2.536, -1, -17.2456, 3.46318, 23.3604, 13.5913, 83.4015, -126.012
2.54, -1, -17.3346, 3.41736, 23.3785, 13.5927, 83.3535, -126.133
2.544, -1, -17.4236, 3.37156, 23.3967, 13.5942, 83.3055, -126.254
2.548, -1, -17.5125, 3.32577, 23.4148, 13.5957, 83.2576, -126.375
2.551, -1, -17.6015, 3.27998, 23.433, 13.5971, 83.2097, -126.497
2.556, -1, -17.6904, 3.23422, 23.4511, 13.5986, 83.1618, -126.618
2.56, -1, -17.7793, 3.18846, 23.4693, 13.6001, 83.1139, -126.739
2.564, -1, -17.8681, 3.14271, 23.4874, 13.6016, 83.066, -126.86
2.568, -1, -17.957, 3.09698, 23.5055, 13.603, 83.0181, -126.981
2.571, -1, -18.0458, 3.05126, 23.5236, 13.6045, 82.9702, -127.102
2.576, -1, -18.1346, 3.00555, 23.5417, 13.606, 82.9224, -127.223
2.58, -1, -18.2234, 2.95986, 23.5598, 13.6074, 82.8745, -127.344
2.584, -1, -18.3121, 2.91418, 23.578, 13.6089, 82.8267, -127.464
2.587, -1, -18.4009, 2.86851, 23.5961, 13.6104, 82.7789, -127.585
2.592, -1, -18.4896, 2.82285, 23.6141, 13.6118, 82.7311, -127.706
2.596, -1, -18.5782, 2.7772, 23.6322, 13.6133, 82.6833, -127.827
2.6, -1, -18.6669, 2.73157, 23.6503, 13.6147, 82.6355, -127.948
2.604, -1, -18.7555, 2.68594, 23.6684, 13.6162, 82.5877, -128.068
2.607, -1, -18.8441, 2.64033, 23.6865, 13.6177, 82.54, -128.189
2.612, -1, -18.9327, 2.59473, 23.7046, 13.6191, 82.4922, -128.31
2.616, -1, -19.0213, 2.54915, 23.7226, 13.6206, 82.4445, -128.43
2.62, -1, -19.1098, 2.50357, 23.7407, 13.6221, 82.3968, -128.551
2.624, -1, -19.1984, 2.45801, 23.7587, 13.6235, 82.3491, -128.671
2.627, -1, -19.2868, 2.41245, 23.7768, 13.625, 82.3014, -128.792
2.632, -1, -19.3753, 2.36691, 23.7948, 13.6265, 82.2537, -128.912
2.636, -1, -19.4638, 2.32139, 23.8129, 13.6279, 82.2061, -129.033
2.64, -1, -19.5522, 2.27587, 23.8309, 13.6294, 82.1584, -129.153
2.643, -1, -19.6406, 2.23037, 23.849, 13.6308, 82.1108, -129.274
2.648, -1, -19.729, 2.18488, 23.867, 13.6323, 82.0632, -129.394
2.652, -1, -19.8173, 2.1394, 23.885, 13.6338, 82.0155, -129.514
2.656, -1, -19.9056, 2.09393, 23.903, 13.6352, 81.9679, -129.635
2.66, -1, -19.9939, 2.04848, 23.921, 13.6367, 81.9204, -129.755
2.663, -1, -20.0822, 2.00304, 23.939, 13.6381, 81.8728, -129.875
2.668, -1, -20.1705, 1.95761, 23.957, 13.6396, 81.8252, -129.995
2.672, -1, -20.2587, 1.91219, 23.975, 13.641, 81.7777, -130.116
2.676, -1, -20.3469, 1.86679, 23.993, 13.6425, 81.7301, -130.236
2.679, -1, -20.4351, 1.8214, 24.011, 13.644, 81.6826, -130.356
2.684, -1, -20.5233, 1.77601, 24.029, 13.6454, 81.6351, -130.476
2.688, -1, -20.6114, 1.73064, 24.047, 13.6469, 81.5876, -130.596
2.692, -1, -20.6995, 1.68529, 24.065, 13.6483, 81.5401, -130.716
2.696, -1, -20.7876, 1.63994, 24.0829, 13.6498, 81.4926, -130.836
2.699, -1, -20.8757, 1.59461, 24.1009, 13.6512, 81.4452, -130.956
2.704, -1, -20.9637, 1.54929, 24.1189, 13.6527, 81.3977, -131.076
2.708, -1, -21.0518, 1.50398, 24.1368, 13.6541, 81.3503, -131.196
2.712, -1, -21.1398, 1.45868, 24.1548, 13.6556, 81.3029, -131.315
2.716, -1, -21.2278, 1.41339, 24.1727, 13.6571, 81.2555, -131.435
2.719, -1, -21.3157, 1.36812, 24.1907, 13.6585, 81.2081, -131.555
2.724, -1, -21.4036, 1.32286, 24.2086, 13.66, 81.1607, -131.675
2.728, -1, -21.4915, 1.27761, 24.2265, 13.6614, 81.1133, -131.795
2.732, -1, -21.5794, 1.23237, 24.2445, 13.6629, 81.0659, -131.914
2.735, -1, -21.6673, 1.18714, 24.2624, 13.6643, 81.0186, -132.034
2.74, -1, -21.7551, 1.14193, 24.2803, 13.6658, 80.9713, -132.154
2.744, -1, -21.843, 1.09673, 24.2982, 13.6672, 80.9239, -132.273
2.748, -1, -21.9307, 1.05153, 24.3161, 13.6687, 80.8766, -132.393
2.752, -1, -22.0185, 1.00636, 24.334, 13.6701, 80.8293, -132.512
2.755, -1, -22.1063, 0.961189, 24.3519, 13.6716, 80.782, -132.632
2.76, -1, -22.194, 0.916035, 24.3698, 13.673, 80.7348, -132.751
2.764, -1, -22.2817, 0.870892, 24.3877, 13.6745, 80.6875, -132.871
2.768, -1, -22.3694, 0.825761, 24.4056, 13.6759, 80.6402, -132.99
2.772, -1, -22.457, 0.780641, 24.4235, 13.6774, 80.593, -133.109
2.775, -1, -22.5446, 0.735534, 24.4414, 13.6788, 80.5458, -133.229
2.78, -1, -22.6323, 0.690439, 24.4592, 13.6803, 80.4986, -133.348
2.784, -1, -22.7198, 0.645356, 24.4771, 13.6817, 80.4514, -133.467
2.788, -1, -22.8074, 0.600284, 24.495, 13.6831, 80.4042, -133.587
2.791, -1, -22.8949, 0.555225, 24.5128, 13.6846, 80.357, -133.706
2.796, -1, -22.9825, 0.510177, 24.5307, 13.686, 80.3098, -133.825
2.8, -1, -23.07, 0.46514, 24.5485, 13.6875, 80.2627, -133.944
2.804, -1, -23.1574, 0.420116, 24.5664, 13.6889, 80.2156, -134.063
2.808, -1, -23.2449, 0.375102, 24.5842, 13.6904, 80.1684, -134.182
2.811, -1, -23.3323, 0.330101, 24.602, 13.6918, 80.1213, -134.302
2.816, -1, -23.4197, 0.285111, 24.6199, 13.6933, 80.0742, -134.421
2.82, -1, -23.5071, 0.240134, 24.6377, 13.6947, 80.0271, -134.54
2.824, -1, -23.5944, 0.195167, 24.6555, 13.6962, 79.98, -134.659
2.828, -1, -23.6818, 0.150213, 24.6733, 13.6976, 79.933, -134.777
2.831, -1, -23.7691, 0.10527, 24.6911, 13.699, 79.8859, -134.896
2.836, -1, -23.8564, 0.0603383, 24.709, 13.7005, 79.8389, -135.015
2.84, -1, -23.9436, 0.0154184, 24.7268, 13.7019, 79.7919, -135.134
2.844, -1, -24.0309, -0.02949, 24.7446, 13.7034, 79.7449, -135.253
2.847, -1, -24.1181, -0.0743869, 24.7623, 13.7048, 79.6978, -135.372
2.852, -1, -24.2053, -0.119272, 24.7801, 13.7062, 79.6508, -135.49
2.856, -1, -24.2925, -0.164146, 24.7979, 13.7077, 79.6039, -135.609
2.86, -1, -24.3796, -0.209009, 24.8157, 13.7091, 79.5569, -135.728
2.864, -1, -24.4668, -0.25386, 24.8335, 13.7106, 79.5099, -135.847
2.867, -1, -24.5539, -0.2987, 24.8512, 13.712, 79.463, -135.965
2.872, -1, -24.641, -0.343529, 24.869, 13.7134, 79.4161, -136.084
2.876, -1, -24.7281, -0.388346, 24.8868, 13.7149, 79.3691, -136.202
2.88, -1, -24.8151, -0.433152, 24.9045, 13.7163, 79.3222, -136.321
2.883, -1, -24.9021, -0.477946, 24.9223, 13.7178, 79.2753, -136.439
2.888, -1, -24.9891, -0.52273, 24.94, 13.7192, 79.2285, -136.558
2.892, -1, -25.0761, -0.567502, 24.9578, 13.7206, 79.1816, -136.676
2.896, -1, -25.1631, -0.612263, 24.9755, 13.7221, 79.1347, -136.795
2.9, -1, -25.25, -0.657013, 24.9932, 13.7235, 79.0879, -136.913
2.903, -1, -25.3369, -0.701752, 25.011, 13.7249, 79.041, -137.032
2.908, -1, -25.4238, -0.746479, 25.0287, 13.7264, 78.9942, -137.15
2.912, -1, -25.5107, -0.791195, 25.0464, 13.7278, 78.9474, -137.268
2.916, -1, -25.5975, -0.8359, 25.0641, 13.7292, 78.9006, -137.387
2.92, -1, -25.6844, -0.880594, 25.0819, 13.7307, 78.8538, -137.505
2.923, -1, -25.7712, -0.925277, 25.0996, 13.7321, 78.807, -137.623
2.928, -1, -25.858, -0.969949, 25.1173, 13.7335, 78.7602, -137.741
2.932, -1, -25.9447, -1.01461, 25.135, 13.735, 78.7135, -137.859
2.936, -1, -26.0315, -1.05926, 25.1527, 13.7364, 78.6667, -137.978
2.939, -1, -26.1182, -1.1039, 25.1704, 13.7378, 78.62, -138.096
2.944, -1, -26.2049, -1.14852, 25.188, 13.7393, 78.5733, -138.214
2.948, -1, -26.2916, -1.19314, 25.2057, 13.7407, 78.5266, -138.332
2.952, -1, -26.3782, -1.23775, 25.2234, 13.7421, 78.4799, -138.45
2.956, -1, -26.4648, -1.28234, 25.2411, 13.7436, 78.4332, -138.568
2.959, -1, -26.5515, -1.32692, 25.2587, 13.745, 78.3865, -138.686
2.964, -1, -26.6381, -1.3715, 25.2764, 13.7464, 78.3398, -138.804
2.968, -1, -26.7246, -1.41606, 25.2941, 13.7479, 78.2932, -138.922
2.972, -1, -26.8112, -1.46061, 25.3117, 13.7493, 78.2466, -139.039
2.976, -1, -26.8977, -1.50515, 25.3294, 13.7507, 78.1999, -139.157
2.98, -1, -26.9842, -1.54968, 25.347, 13.7521, 78.1533, -139.275
2.984, -1, -27.0707, -1.59419, 25.3647, 13.7536, 78.1067, -139.393
2.988, -1, -27.1572, -1.6387, 25.3823, 13.755, 78.0601, -139.511
2.992, -1, -27.2436, -1.68319, 25.3999, 13.7564, 78.0135, -139.628
2.995, -1, -27.33, -1.72768, 25.4176, 13.7579, 77.9669, -139.746
3, -1, -27.4164, -1.77215, 25.4352, 13.7593, 77.9204, -139.864
3.004, -1, -27.5028, -1.81662, 25.4528, 13.7607, 77.8738, -139.981
3.008, -1, -27.5892, -1.86107, 25.4704, 13.7621, 77.8273, -140.099
3.012, -1, -27.6755, -1.90551, 25.488, 13.7636, 77.7808, -140.217
3.015, -1, -27.7618, -1.94994, 25.5056, 13.765, 77.7343, -140.334
3.02, -1, -27.8481, -1.99436, 25.5233, 13.7664, 77.6877, -140.452
3.024, -1, -27.9344, -2.03877, 25.5409, 13.7678, 77.6413, -140.569
3.028, -1, -28.0206, -2.08317, 25.5584, 13.7693, 77.5948, -140.687
3.031, -1, -28.1069, -2.12755, 25.576, 13.7707, 77.5483, -140.804
3.036, -1, -28.1931, -2.17193, 25.5936, 13.7721, 77.5018, -140.922
3.04, -1, -28.2793, -2.21629, 25.6112, 13.7735, 77.4554, -141.039
3.044, -1, -28.3654, -2.26065, 25.6288, 13.775, 77.409, -141.156
3.048, -1, -28.4516, -2.30499, 25.6464, 13.7764, 77.3625, -141.274
3.051, -1, -28.5377, -2.34933, 25.6639, 13.7778, 77.3161, -141.391
3.056, -1, -28.6238, -2.39365, 25.6815, 13.7792, 77.2697, -141.508
3.06, -1, -28.7099, -2.43796, 25.6991, 13.7807, 77.2233, -141.625
3.064, -1, -28.796, -2.48226, 25.7166, 13.7821, 77.1769, -141.743
3.068, -1, -28.882, -2.52655, 25.7342, 13.7835, 77.1306, -141.86
3.071, -1, -28.968, -2.57083, 25.7517, 13.7849, 77.0842, -141.977
3.076, -1, -29.054, -2.6151, 25.7693, 13.7863, 77.0379, -142.094
3.08, -1, -29.14, -2.65936, 25.7868, 13.7878, 76.9915, -142.211
3.084, -1, -29.226, -2.70361, 25.8043, 13.7892, 76.9452, -142.328
3.087, -1, -29.3119, -2.74785, 25.8219, 13.7906, 76.8989, -142.445
3.092, -1, -29.3978, -2.79207, 25.8394, 13.792, 76.8526, -142.562
3.096, -1, -29.4837, -2.83629, 25.8569, 13.7934, 76.8063, -142.679
3.1, -1, -29.5696, -2.88049, 25.8744, 13.7949, 76.76, -142.796
3.104, -1, -29.6555, -2.92469, 25.892, 13.7963, 76.7137, -142.913
3.107, -1, -29.7413, -2.96887, 25.9095, 13.7977, 76.6675, -143.03
3.112, -1, -29.8271, -3.01305, 25.927, 13.7991, 76.6212, -143.147
3.116, -1, -29.9129, -3.05721, 25.9445, 13.8005, 76.575, -143.264
3.12, -1, -29.9987, -3.10136, 25.962, 13.8019, 76.5288, -143.381
3.124, -1, -30.0845, -3.1455, 25.9795, 13.8034, 76.4826, -143.497
3.128, -1, -30.1702, -3.18964, 25.997, 13.8048, 76.4364, -143.614
3.132, -1, -30.2559, -3.23376, 26.0144, 13.8062, 76.3902, -143.731
3.136, -1, -30.3416, -3.27787, 26.0319, 13.8076, 76.344, -143.848
3.14, -1, -30.4273, -3.32197, 26.0494, 13.809, 76.2978, -143.964
3.143, -1, -30.5129, -3.36606, 26.0669, 13.8104, 76.2517, -144.081
3.148, -1, -30.5986, -3.41014, 26.0843, 13.8119, 76.2055, -144.198
3.152, -1, -30.6842, -3.45421, 26.1018, 13.8133, 76.1594, -144.314
3.156, -1, -30.7698, -3.49826, 26.1193, 13.8147, 76.1133, -144.431
3.16, -1, -30.8553, -3.54231, 26.1367, 13.8161, 76.0671, -144.547
3.163, -1, -30.9409, -3.58635, 26.1542, 13.8175, 76.021, -144.664
3.168, -1, -31.0264, -3.63038, 26.1716, 13.8189, 75.9749, -144.78
3.172, -1, -31.1119, -3.67439, 26.1891, 13.8203, 75.9288, -144.897
3.176, -1, -31.1974, -3.7184, 26.2065, 13.8217, 75.8828, -145.013
3.179, -1, -31.2829, -3.7624, 26.2239, 13.8232, 75.8367, -145.13
3.184, -1, -31.3684, -3.80638, 26.2414, 13.8246, 75.7907, -145.246
3.188, -1, -31.4538, -3.85036, 26.2588, 13.826, 75.7446, -145.362
3.192, -1, -31.5392, -3.89432, 26.2762, 13.8274, 75.6986, -145.479
3.196, -1, -31.6246, -3.93828, 26.2936, 13.8288, 75.6526, -145.595
3.199, -1, -31.71, -3.98222, 26.3111, 13.8302, 75.6066, -145.711
3.204, -1, -31.7953, -4.02616, 26.3285, 13.8316, 75.5606, -145.828
3.208, -1, -31.8807, -4.07008, 26.3459, 13.833, 75.5146, -145.944
3.212, -1, -31.966, -4.114, 26.3633, 13.8344, 75.4686, -146.06
3.216, -1, -32.0513, -4.1579, 26.3807, 13.8359, 75.4226, -146.176
3.22, -1, -32.1366, -4.2018, 26.3981, 13.8373, 75.3767, -146.292
3.224, -1, -32.2218, -4.24568, 26.4155, 13.8387, 75.3307, -146.408
3.228, -1, -32.307, -4.28956, 26.4329, 13.8401, 75.2848, -146.524
3.232, -1, -32.3923, -4.33342, 26.4502, 13.8415, 75.2389, -146.641
3.235, -1, -32.4775, -4.37728, 26.4676, 13.8429, 75.193, -146.757
3.24, -1, -32.5626, -4.42112, 26.485, 13.8443, 75.1471, -146.873
3.244, -1, -32.6478, -4.46496, 26.5024, 13.8457, 75.1012, -146.989
3.248, -1, -32.7329, -4.50878, 26.5197, 13.8471, 75.0553, -147.104
3.252, -1, -32.8181, -4.5526, 26.5371, 13.8485, 75.0094, -147.22
3.255, -1, -32.9032, -4.5964, 26.5545, 13.8499, 74.9636, -147.336
3.26, -1, -32.9882, -4.6402, 26.5718, 13.8513, 74.9177, -147.452
3.264, -1, -33.0733, -4.68399, 26.5892, 13.8527, 74.8719, -147.568
3.268, -1, -33.1584, -4.72776, 26.6065, 13.8541, 74.826, -147.684
3.272, -1, -33.2434, -4.77153, 26.6239, 13.8555, 74.7802, -147.8
3.276, -1, -33.3284, -4.81529, 26.6412, 13.857, 74.7344, -147.915
3.28, -1, -33.4134, -4.85904, 26.6586, 13.8584, 74.6886, -148.031
3.284, -1, -33.4984, -4.90277, 26.6759, 13.8598, 74.6428, -148.147
3.288, -1, -33.5833, -4.9465, 26.6932, 13.8612, 74.597, -148.263
3.291, -1, -33.6682, -4.99022, 26.7105, 13.8626, 74.5513, -148.378
3.296, -1, -33.7532, -5.03393, 26.7279, 13.864, 74.5055, -148.494
3.3, -1, -33.838, -5.07763, 26.7452, 13.8654, 74.4598, -148.61
3.304, -1, -33.9229, -5.12132, 26.7625, 13.8668, 74.414, -148.725
3.308, -1, -34.0078, -5.165, 26.7798, 13.8682, 74.3683, -148.841
3.312, -1, -34.0926, -5.20867, 26.7971, 13.8696, 74.3226, -148.956
3.316, -1, -34.1774, -5.25233, 26.8144, 13.871, 74.2768, -149.072
3.32, -1, -34.2623, -5.29599, 26.8317, 13.8724, 74.2311, -149.187
3.324, -1, -34.347, -5.33963, 26.849, 13.8738, 74.1855, -149.303
3.328, -1, -34.4318, -5.38326, 26.8663, 13.8752, 74.1398, -149.418
3.332, -1, -34.5166, -5.42689, 26.8836, 13.8766, 74.0941, -149.534
3.336, -1, -34.6013, -5.4705, 26.9009, 13.878, 74.0484, -149.649
3.34, -1, -34.686, -5.51411, 26.9182, 13.8794, 74.0028, -149.764
3.344, -1, -34.7707, -5.5577, 26.9354, 13.8808, 73.9571, -149.88
3.347, -1, -34.8554, -5.60129, 26.9527, 13.8822, 73.9115, -149.995
3.352, -1, -34.94, -5.64487, 26.97, 13.8836, 73.8659, -150.11
3.356, -1, -35.0247, -5.68844, 26.9873, 13.885, 73.8203, -150.226
3.36, -1, -35.1093, -5.732, 27.0045, 13.8864, 73.7747, -150.341
3.364, -1, -35.1939, -5.77555, 27.0218, 13.8878, 73.7291, -150.456
3.368, -1, -35.2785, -5.81909, 27.039, 13.8892, 73.6835, -150.571
3.372, -1, -35.3631, -5.86262, 27.0563, 13.8906, 73.6379, -150.687
3.376, -1, -35.4476, -5.90614, 27.0735, 13.892, 73.5924, -150.802
3.38, -1, -35.5321, -5.94965, 27.0908, 13.8934, 73.5468, -150.917
3.383, -1, -35.6167, -5.99316, 27.108, 13.8948, 73.5013, -151.032
3.388, -1, -35.7012, -6.03665, 27.1253, 13.8962, 73.4557, -151.147
3.392, -1, -35.7856, -6.08014, 27.1425, 13.8975, 73.4102, -151.262
3.396, -1, -35.8701, -6.12361, 27.1597, 13.8989, 73.3647, -151.377
3.4, -1, -35.9545, -6.16708, 27.1769, 13.9003, 73.3192, -151.492
3.403, -1, -36.039, -6.21054, 27.1942, 13.9017, 73.2737, -151.607
3.408, -1, -36.1234, -6.25398, 27.2114, 13.9031, 73.2282, -151.722
3.412, -1, -36.2078, -6.29742, 27.2286, 13.9045, 73.1827, -151.837
3.416, -1, -36.2921, -6.34085, 27.2458, 13.9059, 73.1372, -151.952
3.42, -1, -36.3765, -6.38428, 27.263, 13.9073, 73.0918, -152.067
3.424, -1, -36.4608, -6.42769, 27.2802, 13.9087, 73.0463, -152.182
3.428, -1, -36.5451, -6.47109, 27.2974, 13.9101, 73.0009, -152.296
3.432, -1, -36.6294, -6.51449, 27.3146, 13.9115, 72.9555, -152.411
3.436, -1, -36.7137, -6.55787, 27.3318, 13.9129, 72.91, -152.526
3.439, -1, -36.798, -6.60125, 27.349, 13.9143, 72.8646, -152.641
3.444, -1, -36.8823, -6.64462, 27.3662, 13.9157, 72.8192, -152.756
3.448, -1, -36.9665, -6.68797, 27.3834, 13.9171, 72.7738, -152.87
3.452, -1, -37.0507, -6.73132, 27.4006, 13.9184, 72.7284, -152.985
3.456, -1, -37.1349, -6.77466, 27.4177, 13.9198, 72.6831, -153.1
3.46, -1, -37.2191, -6.818, 27.4349, 13.9212, 72.6377, -153.214
3.464, -1, -37.3032, -6.86132, 27.4521, 13.9226, 72.5923, -153.329
3.468, -1, -37.3874, -6.90463, 27.4692, 13.924, 72.547, -153.444
3.472, -1, -37.4715, -6.94794, 27.4864, 13.9254, 72.5017, -153.558
3.476, -1, -37.5556, -6.99123, 27.5036, 13.9268, 72.4563, -153.673
3.48, -1, -37.6397, -7.03452, 27.5207, 13.9282, 72.411, -153.787
3.484, -1, -37.7238, -7.0778, 27.5379, 13.9296, 72.3657, -153.902
3.488, -1, -37.8079, -7.12107, 27.555, 13.931, 72.3204, -154.016
3.492, -1, -37.8919, -7.16433, 27.5722, 13.9323, 72.2751, -154.131
3.495, -1, -37.9759, -7.20758, 27.5893, 13.9337, 72.2298, -154.245
3.5, -1, -38.0599, -7.25083, 27.6064, 13.9351, 72.1846, -154.359
3.504, -1, -38.1439, -7.29406, 27.6236, 13.9365, 72.1393, -154.474
3.508, -1, -38.2279, -7.33729, 27.6407, 13.9379, 72.094, -154.588
3.512, -1, -38.3119, -7.3805, 27.6578, 13.9393, 72.0488, -154.703
3.516, -1, -38.3958, -7.42371, 27.675, 13.9407, 72.0036, -154.817
3.52, -1, -38.4797, -7.46691, 27.6921, 13.9421, 71.9583, -154.931
3.524, -1, -38.5636, -7.5101, 27.7092, 13.9434, 71.9131, -155.046
3.528, -1, -38.6475, -7.55329, 27.7263, 13.9448, 71.8679, -155.16
3.531, -1, -38.7314, -7.59646, 27.7434, 13.9462, 71.8227, -155.274
3.536, -1, -38.8153, -7.63963, 27.7605, 13.9476, 71.7775, -155.388
3.54, -1, -38.8991, -7.68278, 27.7776, 13.949, 71.7323, -155.502
3.544, -1, -38.9829, -7.72593, 27.7947, 13.9504, 71.6871, -155.617
3.548, -1, -39.0667, -7.76907, 27.8118, 13.9517, 71.642, -155.731
3.552, -1, -39.1505, -7.8122, 27.8289, 13.9531, 71.5968, -155.845
3.556, -1, -39.2343, -7.85532, 27.846, 13.9545, 71.5517, -155.959
3.56, -1, -39.3181, -7.89844, 27.8631, 13.9559, 71.5065, -156.073
3.564, -1, -39.4018, -7.94154, 27.8802, 13.9573, 71.4614, -156.187
3.568, -1, -39.4855, -7.98464, 27.8973, 13.9587, 71.4163, -156.301
3.572, -1, -39.5692, -8.02773, 27.9143, 13.96, 71.3712, -156.415
3.576, -1, -39.6529, -8.07081, 27.9314, 13.9614, 71.3261, -156.529
3.58, -1, -39.7366, -8.11388, 27.9485, 13.9628, 71.281, -156.643
3.584, -1, -39.8203, -8.15694, 27.9656, 13.9642, 71.2359, -156.757
3.587, -1, -39.9039, -8.2, 27.9826, 13.9656, 71.1908, -156.871
3.592, -1, -39.9875, -8.24305, 27.9997, 13.967, 71.1458, -156.985
3.596, -1, -40.0711, -8.28609, 28.0167, 13.9683, 71.1007, -157.099
3.6, -1, -40.1547, -8.32912, 28.0338, 13.9697, 71.0557, -157.212
3.604, -1, -40.2383, -8.37214, 28.0508, 13.9711, 71.0106, -157.326
3.608, -1, -40.3219, -8.41515, 28.0679, 13.9725, 70.9656, -157.44
3.612, -1, -40.4054, -8.45816, 28.0849, 13.9739, 70.9206, -157.554
3.616, -1, -40.489, -8.50115, 28.102, 13.9752, 70.8755, -157.668
3.62, -1, -40.5725, -8.54414, 28.119, 13.9766, 70.8305, -157.781
3.624, -1, -40.656, -8.58712, 28.136, 13.978, 70.7855, -157.895
3.628, -1, -40.7395, -8.6301, 28.1531, 13.9794, 70.7406, -158.009
3.632, -1, -40.8229, -8.67306, 28.1701, 13.9808, 70.6956, -158.122
3.636, -1, -40.9064, -8.71602, 28.1871, 13.9821, 70.6506, -158.236
3.64, -1, -40.9898, -8.75897, 28.2041, 13.9835, 70.6056, -158.35
3.644, -1, -41.0732, -8.80191, 28.2212, 13.9849, 70.5607, -158.463
3.648, -1, -41.1566, -8.84484, 28.2382, 13.9863, 70.5157, -158.577
3.652, -1, -41.24, -8.88777, 28.2552, 13.9877, 70.4708, -158.691
3.656, -1, -41.3234, -8.93069, 28.2722, 13.989, 70.4259, -158.804
3.66, -1, -41.4068, -8.9736, 28.2892, 13.9904, 70.3809, -158.918
3.664, -1, -41.4901, -9.0165, 28.3062, 13.9918, 70.336, -159.031
3.668, -1, -41.5735, -9.05939, 28.3232, 13.9932, 70.2911, -159.145
3.672, -1, -41.6568, -9.10228, 28.3402, 13.9945, 70.2462, -159.258
3.676, -1, -41.7401, -9.14516, 28.3572, 13.9959, 70.2013, -159.372
3.679, -1, -41.8234, -9.18803, 28.3742, 13.9973, 70.1564, -159.485
3.684, -1, -41.9066, -9.23089, 28.3912, 13.9987, 70.1116, -159.598
3.688, -1, -41.9899, -9.27375, 28.4082, 14, 70.0667, -159.712
3.692, -1, -42.0731, -9.3166, 28.4251, 14.0014, 70.0218, -159.825
3.696, -1, -42.1563, -9.35943, 28.4421, 14.0028, 69.977, -159.939
3.7, -1, -42.2396, -9.40227, 28.4591, 14.0042, 69.9321, -160.052
3.704, -1, -42.3228, -9.44509, 28.4761, 14.0055, 69.8873, -160.165
3.708, -1, -42.4059, -9.48791, 28.493, 14.0069, 69.8425, -160.278
3.712, -1, -42.4891, -9.53072, 28.51, 14.0083, 69.7977, -160.392
3.716, -1, -42.5723, -9.57352, 28.527, 14.0097, 69.7529, -160.505
3.72, -1, -42.6554, -9.61632, 28.5439, 14.011, 69.7081, -160.618
3.724, -1, -42.7385, -9.6591, 28.5609, 14.0124, 69.6633, -160.731
3.728, -1, -42.8216, -9.70188, 28.5778, 14.0138, 69.6185, -160.845
3.732, -1, -42.9047, -9.74465, 28.5948, 14.0152, 69.5737, -160.958
3.735, -1, -42.9878, -9.78742, 28.6117, 14.0165, 69.5289, -161.071
3.74, -1, -43.0709, -9.83018, 28.6287, 14.0179, 69.4842, -161.184
3.744, -1, -43.1539, -9.87292, 28.6456, 14.0193, 69.4394, -161.297
3.748, -1, -43.2369, -9.91567, 28.6626, 14.0206, 69.3947, -161.41
3.752, -1, -43.32, -9.9584, 28.6795, 14.022, 69.3499, -161.523
3.756, -1, -43.403, -10.0011, 28.6964, 14.0234, 69.3052, -161.636
3.76, -1, -43.486, -10.0438, 28.7134, 14.0248, 69.2605, -161.749
3.764, -1, -43.5689, -10.0866, 28.7303, 14.0261, 69.2157, -161.862
3.768, -1, -43.6519, -10.1293, 28.7472, 14.0275, 69.171, -161.975
3.772, -1, -43.7348, -10.172, 28.7641, 14.0289, 69.1263, -162.088
3.776, -1, -43.8178, -10.2147, 28.781, 14.0302, 69.0816, -162.201
3.78, -1, -43.9007, -10.2573, 28.798, 14.0316, 69.0369, -162.314
3.784, -1, -43.9836, -10.3, 28.8149, 14.033, 68.9923, -162.427
3.788, -1, -44.0665, -10.3427, 28.8318, 14.0343, 68.9476, -162.54
3.792, -1, -44.1494, -10.3853, 28.8487, 14.0357, 68.9029, -162.653
3.796, -1, -44.2322, -10.428, 28.8656, 14.0371, 68.8583, -162.766
3.8, -1, -44.3151, -10.4706, 28.8825, 14.0385, 68.8136, -162.879
3.804, -1, -44.3979, -10.5133, 28.8994, 14.0398, 68.769, -162.991
3.808, -1, -44.4807, -10.5559, 28.9163, 14.0412, 68.7243, -163.104
3.812, -1, -44.5636, -10.5985, 28.9332, 14.0426, 68.6797, -163.217
3.816, -1, -44.6463, -10.6412, 28.9501, 14.0439, 68.6351, -163.33
3.82, -1, -44.7291, -10.6838, 28.967, 14.0453, 68.5905, -163.443
3.824, -1, -44.8119, -10.7264, 28.9838, 14.0467, 68.5459, -163.555
3.828, -1, -44.8946, -10.769, 29.0007, 14.048, 68.5013, -163.668
3.832, -1, -44.9774, -10.8116, 29.0176, 14.0494, 68.4567, -163.781
3.836, -1, -45.0601, -10.8541, 29.0345, 14.0508, 68.4121, -163.893
3.84, -1, -45.1428, -10.8967, 29.0514, 14.0521, 68.3676, -164.006
3.844, -1, -45.2255, -10.9393, 29.0682, 14.0535, 68.323, -164.119
3.848, -1, -45.3082, -10.9818, 29.0851, 14.0549, 68.2784, -164.231
3.852, -1, -45.3909, -11.0244, 29.102, 14.0562, 68.2339, -164.344
3.856, -1, -45.4735, -11.067, 29.1188, 14.0576, 68.1893, -164.456
3.86, -1, -45.5562, -11.1095, 29.1357, 14.059, 68.1448, -164.569
3.864, -1, -45.6388, -11.152, 29.1525, 14.0603, 68.1003, -164.681
3.868, -1, -45.7214, -11.1946, 29.1694, 14.0617, 68.0557, -164.794
3.872, -1, -45.804, -11.2371, 29.1862, 14.063, 68.0112, -164.906
3.876, -1, -45.8866, -11.2796, 29.2031, 14.0644, 67.9667, -165.019
3.88, -1, -45.969, -11.322, 29.22, 14.0658, 67.9222, -165.131
3.884, -1, -46.0511, -11.3643, 29.2368, 14.0671, 67.8777, -165.244
3.888, -1, -46.133, -11.4065, 29.2537, 14.0685, 67.8333, -165.356
3.892, -1, -46.2144, -11.4485, 29.2706, 14.0699, 67.7889, -165.468
3.896, -1, -46.2952, -11.49, 29.2876, 14.0713, 67.7445, -165.58
3.9, -1, -46.375, -11.5309, 29.3045, 14.0727, 67.7004, -165.692
3.904, -1, -46.4535, -11.5711, 29.3215, 14.0741, 67.6565, -165.803
3.908, -1, -46.5306, -11.6103, 29.3385, 14.0755, 67.6129, -165.913
3.912, -1, -46.606, -11.6484, 29.3553, 14.0769, 67.57, -166.021
3.916, -1, -46.6795, -11.6853, 29.3719, 14.0783, 67.5278, -166.128
3.92, -1, -46.7508, -11.7209, 29.3882, 14.0796, 67.4867, -166.232
3.924, -1, -46.8195, -11.755, 29.404, 14.081, 67.447, -166.332
3.928, -1, -46.8855, -11.7877, 29.4191, 14.0822, 67.4088, -166.428
3.932, -1, -46.9483, -11.8187, 29.4335, 14.0835, 67.3726, -166.52
3.936, -1, -47.0075, -11.8478, 29.447, 14.0846, 67.3386, -166.606
3.94, -1, -47.0628, -11.875, 29.4594, 14.0856, 67.3069, -166.685
3.944, -1, -47.1141, -11.9003, 29.4708, 14.0866, 67.2779, -166.759
3.948, -1, -47.1614, -11.9239, 29.481, 14.0874, 67.2517, -166.825
3.952, -1, -47.2045, -11.9459, 29.4898, 14.0881, 67.2283, -166.884
3.956, -1, -47.2436, -11.9663, 29.4974, 14.0887, 67.2078, -166.936
3.96, -1, -47.2786, -11.9851, 29.5037, 14.0892, 67.1901, -166.981
3.964, -1, -47.3097, -12.0021, 29.5089, 14.0896, 67.1751, -167.019
3.968, -1, -47.3369, -12.0173, 29.5129, 14.0899, 67.1627, -167.05
3.972, -1, -47.3602, -12.0306, 29.5161, 14.0901, 67.1525, -167.076
3.976, -1, -47.38, -12.042, 29.5185, 14.0903, 67.1442, -167.097
3.98, -1, -47.3967, -12.0516, 29.5203, 14.0904, 67.1378, -167.113
3.984, -1, -47.4105, -12.0597, 29.5215, 14.0904, 67.1328, -167.126
3.988, -1, -47.4221, -12.0664, 29.5222, 14.0904, 67.1291, -167.135
3.992, -1, -47.4315, -12.0718, 29.5227, 14.0904, 67.1263, -167.142
3.996, -1, -47.4391, -12.0762, 29.523, 14.0904, 67.1244, -167.147
3.999, -1, -47.4451, -12.0795, 29.5231, 14.0904, 67.123, -167.151
4.004, 2, -47.4497, -12.082, 29.5231, 14.0904, 67.122, -167.153
4.008, 2, -47.4531, -12.0839, 29.5231, 14.0904, 67.1214, -167.155
4.012, 2, -47.4554, -12.0851, 29.5231, 14.0904, 67.1209, -167.156
4.016, 2, -47.4571, -12.086, 29.5231, 14.0904, 67.1206, -167.157
4.02, 2, -47.4582, -12.0866, 29.5231, 14.0904, 67.1204, -167.157
4.024, 2, -47.4589, -12.087, 29.5231, 14.0903, 67.1203, -167.158
4.028, 2, -47.4594, -12.0872, 29.5231, 14.0903, 67.1202, -167.158
4.032, 2, -47.4598, -12.0874, 29.5231, 14.0903, 67.1201, -167.158
4.036, 2, -47.46, -12.0876, 29.5231, 14.0903, 67.1201, -167.158
4.04, 2, -47.4601, -12.0876, 29.5231, 14.0903, 67.1201, -167.158
4.044, 2, -47.4602, -12.0877, 29.5231, 14.0903, 67.12, -167.158
4.048, 2, -47.4603, -12.0877, 29.5231, 14.0903, 67.12, -167.158
4.052, 2, -47.4604, -12.0878, 29.5231, 14.0903, 67.12, -167.158
4.056, 2, -47.4604, -12.0878, 29.5231, 14.0903, 67.12, -167.159
4.06, 2, -47.4604, -12.0878, 29.5231, 14.0903, 67.12, -167.159
4.064, 2, -47.4604, -12.0878, 29.5231, 14.0903, 67.12, -167.159
4.068, 2, -47.4604, -12.0878, 29.5231, 14.0903, 67.12, -167.159
4.072, 2, -47.4605, -12.0878, 29.5231, 14.0903, 67.12, -167.159
4.076, 2, -47.4605, -12.0878, 29.5231, 14.0903, 67.12, -167.159
4.08, 2, -47.4605, -12.0878, 29.5231, 14.0903, 67.12, -167.159
4.084, 2, -47.4605, -12.0878, 29.5231, 14.0903, 67.12, -167.159
4.088, 2, -47.4605, -12.0878, 29.5231, 14.0903, 67.12, -167.159
4.092, 2, -47.4605, -12.0878, 29.5231, 14.0903, 67.12, -167.159
4.096, 2, -47.4605, -12.0878, 29.5231, 14.0903, 67.12, -167.159
4.1, 2, -47.4605, -12.0878, 29.5231, 14.0903, 67.12, -167.159
4.104, 2, -47.4605, -12.0878, 29.5231, 14.0903, 67.12, -167.159
4.108, 2, -47.4605, -12.0878, 29.5231, 14.0903, 67.12, -167.159
4.112, 2, -47.4605, -12.0878, 29.5231, 14.0903, 67.12, -167.159
4.116, 2, -47.4605, -12.0878, 29.5231, 14.0903, 67.12, -167.159
4.12, 2, -47.4605, -12.0878, 29.5231, 14.0903, 67.12, -167.159
4.124, 2, -47.4605, -12.0878, 29.5231, 14.0903, 67.12, -167.159
4.128, 2, -47.4605, -12.0878, 29.5231, 14.0903, 67.12, -167.159
4.132, 2, -47.4605, -12.0878, 29.5231, 14.0903, 67.12, -167.159
4.136, 2, -47.4605, -12.0878, 29.5231, 14.0903, 67.12, -167.159
4.14, 2, -47.4605, -12.0878, 29.5231, 14.0903, 67.12, -167.159
4.144, 2, -47.4605, -12.0878, 29.5231, 14.0903, 67.12, -167.159
4.148, 2, -47.4605, -12.0878, 29.5231, 14.0903, 67.12, -167.159
4.152, 2, -47.4605, -12.0878, 29.5231, 14.0903, 67.12, -167.159
4.156, 2, -47.4605, -12.0878, 29.5231, 14.0903, 67.12, -167.159
4.16, 2, -47.4605, -12.0878, 29.5231, 14.0903, 67.12, -167.159
4.164, 2, -47.4605, -12.0878, 29.5231, 14.0903, 67.12, -167.159
4.168, 2, -47.4605, -12.0878, 29.5231, 14.0903, 67.12, -167.159
4.172, 2, -47.4605, -12.0878, 29.5231, 14.0903, 67.12, -167.159
4.176, 2, -47.4605, -12.0878, 29.5231, 14.0903, 67.12, -167.159
4.18, 2, -47.4605, -12.0878, 29.5231, 14.0903, 67.12, -167.159
4.184, 2, -47.4605, -12.0878, 29.5231, 14.0903, 67.12, -167.159
4.188, 2, -47.4605, -12.0878, 29.5231, 14.0903, 67.12, -167.159
4.192, 2, -47.4605, -12.0878, 29.5231, 14.0903, 67.12, -167.159
4.196, 2, -47.4605, -12.0878, 29.5231, 14.0903, 67.12, -167.159
4.2, 2, -47.4605, -12.0878, 29.5231, 14.0903, 67.12, -167.159
4.204, 2, -47.4605, -12.0878, 29.5231, 14.0903, 67.12, -167.159
4.208, 2, -47.4605, -12.0878, 29.5231, 14.0903, 67.12, -167.159
4.212, 2, -47.4605, -12.0878, 29.5231, 14.0903, 67.12, -167.159
4.216, 2, -47.4605, -12.0878, 29.5231, 14.0903, 67.12, -167.159
4.22, 2, -47.4605, -12.0878, 29.5231, 14.0903, 67.12, -167.159
4.224, 2, -47.4605, -12.0878, 29.5231, 14.0903, 67.12, -167.159
4.228, 2, -47.4605, -12.0878, 29.5231, 14.0903, 67.12, -167.159
4.232, 2, -47.4605, -12.0878, 29.5231, 14.0903, 67.12, -167.159
4.236, 2, -47.4605, -12.0878, 29.5231, 14.0903, 67.12, -167.159
4.24, 2, -47.4605, -12.0878, 29.5231, 14.0903, 67.12, -167.159
4.244, 2, -47.4605, -12.0878, 29.5231, 14.0903, 67.12, -167.159
4.248, 2, -47.4605, -12.0878, 29.5231, 14.0903, 67.12, -167.159
4.252, 2, -47.4605, -12.0878, 29.5231, 14.0903, 67.12, -167.159
4.256, 2, -47.4605, -12.0878, 29.5231, 14.0903, 67.12, -167.159
4.26, 2, -47.4605, -12.0878, 29.5231, 14.0903, 67.12, -167.159
4.264, 2, -47.4605, -12.0878, 29.5231, 14.0903, 67.12, -167.159
4.268, 2, -47.4605, -12.0878, 29.5231, 14.0903, 67.12, -167.159
4.272, 2, -47.4605, -12.0878, 29.5231, 14.0903, 67.12, -167.159
4.276, 2, -47.4605, -12.0878, 29.5231, 14.0903, 67.12, -167.159
4.28, 2, -47.4605, -12.0878, 29.5231, 14.0903, 67.12, -167.159
4.284, 2, -47.4605, -12.0878, 29.5231, 14.0903, 67.12, -167.159
4.288, 2, -47.4605, -12.0878, 29.5231, 14.0903, 67.12, -167.159
4.292, 2, -47.4605, -12.0878, 29.5231, 14.0903, 67.12, -167.159
4.296, 2, -47.4605, -12.0878, 29.5231, 14.0903, 67.12, -167.159
4.3, 2, -47.4605, -12.0878, 29.5231, 14.0903, 67.12, -167.159
4.304, 2, -47.4605, -12.0878, 29.5231, 14.0903, 67.12, -167.159
4.308, 2, -47.4605, -12.0878, 29.5231, 14.0903, 67.12, -167.159
4.312, 2, -47.4605, -12.0878, 29.5231, 14.0903, 67.12, -167.159
4.316, 2, -47.4605, -12.0878, 29.5231, 14.0903, 67.12, -167.159
4.32, 2, -47.4605, -12.0878, 29.5231, 14.0903, 67.12, -167.159
4.324, 2, -47.4605, -12.0878, 29.5231, 14.0903, 67.12, -167.159
4.328, 2, -47.4605, -12.0878, 29.5231, 14.0903, 67.12, -167.159
4.332, 2, -47.4605, -12.0878, 29.5231, 14.0903, 67.12, -167.159
4.336, 2, -47.4605, -12.0878, 29.5231, 14.0903, 67.12, -167.159
4.34, 2, -47.4605, -12.0878, 29.5231, 14.0903, 67.12, -167.159
4.344, 2, -47.4605, -12.0878, 29.5231, 14.0903, 67.12, -167.159
4.348, 2, -47.4605, -12.0878, 29.5231, 14.0903, 67.12, -167.159
4.352, 2, -47.4605, -12.0878, 29.5231, 14.0903, 67.12, -167.159
4.356, 2, -47.4605, -12.0878, 29.5231, 14.0903, 67.12, -167.159
4.36, 2, -47.4605, -12.0878, 29.5231, 14.0903, 67.12, -167.159
4.364, 2, -47.4605, -12.0878, 29.5231, 14.0903, 67.12, -167.159
4.368, 2, -47.4605, -12.0878, 29.5231, 14.0903, 67.12, -167.159
4.372, 2, -47.4605, -12.0878, 29.5231, 14.0903, 67.12, -167.159
4.376, 2, -47.4605, -12.0878, 29.5231, 14.0903, 67.12, -167.159
4.38, 2, -47.4605, -12.0878, 29.5231, 14.0903, 67.12, -167.159
4.384, 2, -47.4605, -12.0878, 29.5231, 14.0903, 67.12, -167.159
4.388, 2, -47.4605, -12.0878, 29.5231, 14.0903, 67.12, -167.159
4.392, 2, -47.4605, -12.0878, 29.5231, 14.0903, 67.12, -167.159
4.396, 2, -47.4605, -12.0878, 29.5231, 14.0903, 67.12, -167.159
4.4, 2, -47.4605, -12.0878, 29.5231, 14.0903, 67.12, -167.159
4.404, 2, -47.4605, -12.0878, 29.5231, 14.0903, 67.12, -167.159
4.408, 2, -47.4605, -12.0878, 29.5231, 14.0903, 67.12, -167.159
4.412, 2, -47.4605, -12.0878, 29.5231, 14.0903, 67.12, -167.159
4.416, 2, -47.4605, -12.0878, 29.5231, 14.0903, 67.12, -167.159
4.42, 2, -47.4605, -12.0878, 29.5231, 14.0903, 67.12, -167.159
4.424, 2, -47.4605, -12.0878, 29.5231, 14.0903, 67.12, -167.159
4.428, 2, -47.4605, -12.0878, 29.5231, 14.0903, 67.12, -167.159
4.432, 2, -47.4605, -12.0878, 29.5231, 14.0903, 67.12, -167.159
4.436, 2, -47.4605, -12.0878, 29.5231, 14.0903, 67.12, -167.159
4.44, 2, -47.4605, -12.0878, 29.5231, 14.0903, 67.12, -167.159
4.444, 2, -47.4605, -12.0878, 29.5231, 14.0903, 67.12, -167.159
4.448, 2, -47.4605, -12.0878, 29.5231, 14.0903, 67.12, -167.159
4.452, 2, -47.4605, -12.0878, 29.5231, 14.0903, 67.12, -167.159
4.456, 2, -47.4605, -12.0878, 29.5231, 14.0903, 67.12, -167.159
4.46, 2, -47.4605, -12.0878, 29.5231, 14.0903, 67.12, -167.159
4.464, 2, -47.4605, -12.0878, 29.5231, 14.0903, 67.12, -167.159
4.468, 2, -47.4605, -12.0878, 29.5231, 14.0903, 67.12, -167.159
4.472, 2, -47.4605, -12.0878, 29.5231, 14.0903, 67.12, -167.159
4.476, 2, -47.4605, -12.0878, 29.5231, 14.0903, 67.12, -167.159
4.48, 2, -47.4605, -12.0878, 29.5231, 14.0903, 67.12, -167.159
4.484, 2, -47.4605, -12.0878, 29.5231, 14.0903, 67.12, -167.159
4.488, 2, -47.4605, -12.0878, 29.5231, 14.0903, 67.12, -167.159
4.492, 2, -47.4605, -12.0878, 29.5231, 14.0903, 67.12, -167.159
4.496, 2, -47.4605, -12.0878, 29.5231, 14.0903, 67.12, -167.159
4.5, 2, -47.4605, -12.0878, 29.5231, 14.0903, 67.12, -167.159
4.504, 2, -47.4605, -12.0878, 29.5231, 14.0903, 67.12, -167.159
4.508, 2, -47.4605, -12.0878, 29.5231, 14.0903, 67.12, -167.159
4.512, 2, -47.4605, -12.0878, 29.5231, 14.0903, 67.12, -167.159
4.516, 2, -47.4605, -12.0878, 29.5231, 14.0903, 67.12, -167.159
4.52, 2, -47.4605, -12.0878, 29.5231, 14.0903, 67.12, -167.159
4.524, 2, -47.4605, -12.0878, 29.5231, 14.0903, 67.12, -167.159
4.528, 2, -47.4605, -12.0878, 29.5231, 14.0903, 67.12, -167.159
4.532, 2, -47.4605, -12.0878, 29.5231, 14.0903, 67.12, -167.159
4.536, 2, -47.4605, -12.0878, 29.5231, 14.0903, 67.12, -167.159
4.54, 2, -47.4605, -12.0878, 29.5231, 14.0903, 67.12, -167.159
4.544, 2, -47.4605, -12.0878, 29.5231, 14.0903, 67.12, -167.159
4.548, 2, -47.4605, -12.0878, 29.5231, 14.0903, 67.12, -167.159
4.552, 2, -47.4605, -12.0878, 29.5231, 14.0903, 67.12, -167.159
4.556, 2, -47.4605, -12.0878, 29.5231, 14.0903, 67.12, -167.159
4.56, 2, -47.4605, -12.0878, 29.5231, 14.0903, 67.12, -167.159
4.564, 2, -47.4605, -12.0878, 29.5231, 14.0903, 67.12, -167.159
4.568, 2, -47.4605, -12.0878, 29.5231, 14.0903, 67.12, -167.159
4.572, 2, -47.4605, -12.0878, 29.5231, 14.0903, 67.12, -167.159
4.576, 2, -47.4605, -12.0878, 29.5231, 14.0903, 67.12, -167.159
4.58, 2, -47.4605, -12.0878, 29.5231, 14.0903, 67.12, -167.159
4.584, 2, -47.4605, -12.0878, 29.5231, 14.0903, 67.12, -167.159
4.588, 2, -47.4605, -12.0878, 29.5231, 14.0903, 67.12, -167.159
4.592, 2, -47.4605, -12.0878, 29.5231, 14.0903, 67.12, -167.159
4.596, 2, -47.4605, -12.0878, 29.5231, 14.0903, 67.12, -167.159
4.6, 2, -47.4605, -12.0878, 29.5231, 14.0903, 67.12, -167.159
4.604, 2, -47.4605, -12.0878, 29.5231, 14.0903, 67.12, -167.159
4.608, 2, -47.4605, -12.0878, 29.5231, 14.0903, 67.12, -167.159
4.612, 2, -47.4605, -12.0878, 29.5231, 14.0903, 67.12, -167.159
4.616, 2, -47.4605, -12.0878, 29.5231, 14.0903, 67.12, -167.159
4.62, 2, -47.4605, -12.0878, 29.5231, 14.0903, 67.12, -167.159
4.624, 2, -47.4605, -12.0878, 29.5231, 14.0903, 67.12, -167.159
4.628, 2, -47.4605, -12.0878, 29.5231, 14.0903, 67.12, -167.159
4.632, 2, -47.4605, -12.0878, 29.5231, 14.0903, 67.12, -167.159
4.636, 2, -47.4605, -12.0878, 29.5231, 14.0903, 67.12, -167.159
4.64, 2, -47.4605, -12.0878, 29.5231, 14.0903, 67.12, -167.159
4.644, 2, -47.4605, -12.0878, 29.5231, 14.0903, 67.12, -167.159
4.648, 2, -47.4605, -12.0878, 29.5231, 14.0903, 67.12, -167.159
4.652, 2, -47.4605, -12.0878, 29.5231, 14.0903, 67.12, -167.159
4.656, 2, -47.4605, -12.0878, 29.5231, 14.0903, 67.12, -167.159
4.66, 2, -47.4605, -12.0878, 29.5231, 14.0903, 67.12, -167.159
4.664, 2, -47.4605, -12.0878, 29.5231, 14.0903, 67.12, -167.159
4.668, 2, -47.4605, -12.0878, 29.5231, 14.0903, 67.12, -167.159
4.672, 2, -47.4605, -12.0878, 29.5231, 14.0903, 67.12, -167.159
4.676, 2, -47.4605, -12.0878, 29.5231, 14.0903, 67.12, -167.159
4.68, 2, -47.4605, -12.0878, 29.5231, 14.0903, 67.12, -167.159
4.684, 2, -47.4605, -12.0878, 29.5231, 14.0903, 67.12, -167.159
4.688, 2, -47.4605, -12.0878, 29.5231, 14.0903, 67.12, -167.159
4.692, 2, -47.4605, -12.0878, 29.5231, 14.0903, 67.12, -167.159
4.696, 2, -47.4605, -12.0878, 29.5231, 14.0903, 67.12, -167.159
4.7, 2, -47.4605, -12.0878, 29.5231, 14.0903, 67.12, -167.159
4.704, 2, -47.4605, -12.0878, 29.5231, 14.0903, 67.12, -167.159
4.708, 2, -47.4605, -12.0878, 29.5231, 14.0903, 67.12, -167.159
4.712, 2, -47.4605, -12.0878, 29.5231, 14.0903, 67.12, -167.159
4.716, 2, -47.4605, -12.0878, 29.5231, 14.0903, 67.12, -167.159
4.72, 2, -47.4605, -12.0878, 29.5231, 14.0903, 67.12, -167.159
4.724, 2, -47.4605, -12.0878, 29.5231, 14.0903, 67.12, -167.159
4.728, 2, -47.4605, -12.0878, 29.5231, 14.0903, 67.12, -167.159
4.732, 2, -47.4605, -12.0878, 29.5231, 14.0903, 67.12, -167.159
4.736, 2, -47.4605, -12.0878, 29.5231, 14.0903, 67.12, -167.159
4.74, 2, -47.4605, -12.0878, 29.5231, 14.0903, 67.12, -167.159
4.744, 2, -47.4605, -12.0878, 29.5231, 14.0903, 67.12, -167.159
4.748, 2, -47.4605, -12.0878, 29.5231, 14.0903, 67.12, -167.159
4.752, 2, -47.4605, -12.0878, 29.5231, 14.0903, 67.12, -167.159
4.756, 2, -47.4605, -12.0878, 29.5231, 14.0903, 67.12, -167.159
4.76, 2, -47.4605, -12.0878, 29.5231, 14.0903, 67.12, -167.159
4.764, 2, -47.4605, -12.0878, 29.5231, 14.0903, 67.12, -167.159
4.768, 2, -47.4605, -12.0878, 29.5231, 14.0903, 67.12, -167.159
4.772, 2, -47.4605, -12.0878, 29.5231, 14.0903, 67.12, -167.159
4.776, 2, -47.4605, -12.0878, 29.5231, 14.0903, 67.12, -167.159
4.78, 2, -47.4605, -12.0878, 29.5231, 14.0903, 67.12, -167.159
4.784, 2, -47.4605, -12.0878, 29.5231, 14.0903, 67.12, -167.159
4.788, 2, -47.4605, -12.0878, 29.5231, 14.0903, 67.12, -167.159
4.792, 2, -47.4605, -12.0878, 29.5231, 14.0903, 67.12, -167.159
4.796, 2, -47.4605, -12.0878, 29.5231, 14.0903, 67.12, -167.159
4.8, 2, -47.4605, -12.0878, 29.5231, 14.0903, 67.12, -167.159
4.804, 2, -47.4605, -12.0878, 29.5231, 14.0903, 67.12, -167.159
4.808, 2, -47.4605, -12.0878, 29.5231, 14.0903, 67.12, -167.159
4.812, 2, -47.4605, -12.0878, 29.5231, 14.0903, 67.12, -167.159
4.816, 2, -47.4605, -12.0878, 29.5231, 14.0903, 67.12, -167.159
4.82, 2, -47.4605, -12.0878, 29.5231, 14.0903, 67.12, -167.159
4.824, 2, -47.4605, -12.0878, 29.5231, 14.0903, 67.12, -167.159
4.828, 2, -47.4605, -12.0878, 29.5231, 14.0903, 67.12, -167.159
4.832, 2, -47.4605, -12.0878, 29.5231, 14.0903, 67.12, -167.159
4.836, 2, -47.4605, -12.0878, 29.5231, 14.0903, 67.12, -167.159
4.84, 2, -47.4605, -12.0878, 29.5231, 14.0903, 67.12, -167.159
4.844, 2, -47.4605, -12.0878, 29.5231, 14.0903, 67.12, -167.159
4.848, 2, -47.4605, -12.0878, 29.5231, 14.0903, 67.12, -167.159
4.852, 2, -47.4605, -12.0878, 29.5231, 14.0903, 67.12, -167.159
4.856, 2, -47.4605, -12.0878, 29.5231, 14.0903, 67.12, -167.159
4.86, 2, -47.4605, -12.0878, 29.5231, 14.0903, 67.12, -167.159
4.864, 2, -47.4605, -12.0878, 29.5231, 14.0903, 67.12, -167.159
4.868, 2, -47.4605, -12.0878, 29.5231, 14.0903, 67.12, -167.159
4.872, 2, -47.4605, -12.0878, 29.5231, 14.0903, 67.12, -167.159
4.876, 2, -47.4605, -12.0878, 29.5231, 14.0903, 67.12, -167.159
4.88, 2, -47.4605, -12.0878, 29.5231, 14.0903, 67.12, -167.159
4.884, 2, -47.4605, -12.0878, 29.5231, 14.0903, 67.12, -167.159
4.888, 2, -47.4605, -12.0878, 29.5231, 14.0903, 67.12, -167.159
4.892, 2, -47.4605, -12.0878, 29.5231, 14.0903, 67.12, -167.159
4.896, 2, -47.4605, -12.0878, 29.5231, 14.0903, 67.12, -167.159
4.9, 2, -47.4605, -12.0878, 29.5231, 14.0903, 67.12, -167.159
4.904, 2, -47.4605, -12.0878, 29.5231, 14.0903, 67.12, -167.159
4.908, 2, -47.4605, -12.0878, 29.5231, 14.0903, 67.12, -167.159
4.912, 2, -47.4605, -12.0878, 29.5231, 14.0903, 67.12, -167.159
4.916, 2, -47.4605, -12.0878, 29.5231, 14.0903, 67.12, -167.159
4.92, 2, -47.4605, -12.0878, 29.5231, 14.0903, 67.12, -167.159
4.924, 2, -47.4605, -12.0878, 29.5231, 14.0903, 67.12, -167.159
4.928, 2, -47.4605, -12.0878, 29.5231, 14.0903, 67.12, -167.159
4.932, 2, -47.4605, -12.0878, 29.5231, 14.0903, 67.12, -167.159
4.936, 2, -47.4605, -12.0878, 29.5231, 14.0903, 67.12, -167.159
4.94, 2, -47.4605, -12.0878, 29.5231, 14.0903, 67.12, -167.159
4.944, 2, -47.4605, -12.0878, 29.5231, 14.0903, 67.12, -167.159
4.948, 2, -47.4605, -12.0878, 29.5231, 14.0903, 67.12, -167.159
4.952, 2, -47.4605, -12.0878, 29.5231, 14.0903, 67.12, -167.159
4.956, 2, -47.4605, -12.0878, 29.5231, 14.0903, 67.12, -167.159
4.96, 2, -47.4605, -12.0878, 29.5231, 14.0903, 67.12, -167.159
4.964, 2, -47.4605, -12.0878, 29.5231, 14.0903, 67.12, -167.159
4.968, 2, -47.4605, -12.0878, 29.5231, 14.0903, 67.12, -167.159
4.972, 2, -47.4605, -12.0878, 29.5231, 14.0903, 67.12, -167.159
4.976, 2, -47.4605, -12.0878, 29.5231, 14.0903, 67.12, -167.159
4.98, 2, -47.4605, -12.0878, 29.5231, 14.0903, 67.12, -167.159
4.984, 2, -47.4605, -12.0878, 29.5231, 14.0903, 67.12, -167.159
4.988, 2, -47.4605, -12.0878, 29.5231, 14.0903, 67.12, -167.159
4.992, 2, -47.4605, -12.0878, 29.5231, 14.0903, 67.12, -167.159
4.996, 2, -47.4605, -12.0878, 29.5231, 14.0903, 67.12, -167.159
5, 2, -47.4605, -12.0878, 29.5231, 14.0903, 67.12, -167.159
5.004, 2, -47.4605, -12.0878, 29.5231, 14.0903, 67.12, -167.159
5.008, 2, -47.4605, -12.0878, 29.5231, 14.0903, 67.12, -167.159
5.012, 2, -47.4605, -12.0878, 29.5231, 14.0903, 67.12, -167.159
5.016, 2, -47.4605, -12.0878, 29.5231, 14.0903, 67.12, -167.159
5.02, 2, -47.4605, -12.0878, 29.5231, 14.0903, 67.12, -167.159
5.024, 2, -47.4605, -12.0878, 29.5231, 14.0903, 67.12, -167.159
5.028, 2, -47.4605, -12.0878, 29.5231, 14.0903, 67.12, -167.159
5.032, 2, -47.4605, -12.0878, 29.5231, 14.0903, 67.12, -167.159
5.036, 2, -47.4605, -12.0878, 29.5231, 14.0903, 67.12, -167.159
5.04, 2, -47.4605, -12.0878, 29.5231, 14.0903, 67.12, -167.159
5.044, 2, -47.4605, -12.0878, 29.5231, 14.0903, 67.12, -167.159
5.048, 2, -47.4605, -12.0878, 29.5231, 14.0903, 67.12, -167.159
5.052, 2, -47.4605, -12.0878, 29.5231, 14.0903, 67.12, -167.159
5.056, 2, -47.4605, -12.0878, 29.5231, 14.0903, 67.12, -167.159
5.06, 2, -47.4605, -12.0878, 29.5231, 14.0903, 67.12, -167.159
5.064, 2, -47.4605, -12.0878, 29.5231, 14.0903, 67.12, -167.159
5.068, 2, -47.4605, -12.0878, 29.5231, 14.0903, 67.12, -167.159
5.072, 2, -47.4605, -12.0878, 29.5231, 14.0903, 67.12, -167.159
5.076, 2, -47.4605, -12.0878, 29.5231, 14.0903, 67.12, -167.159
5.08, 4, -47.4605, -12.0878, 29.5231, 14.0903, 67.12, -167.159
5.084, 4, -47.4605, -12.0878, 29.5231, 14.0903, 67.12, -167.159
5.088, 4, -47.4605, -12.0878, 29.5231, 14.0903, 67.12, -167.159
5.092, 4, -47.4605, -12.0878, 29.5231, 14.0903, 67.12, -167.159
5.096, 4, -47.4605, -12.0878, 29.5231, 14.0903, 67.12, -167.159
5.1, 4, -47.4605, -12.0878, 29.5231, 14.0903, 67.12, -167.159
5.104, 4, -47.4605, -12.0878, 29.5231, 14.0903, 67.12, -167.159
5.108, 4, -47.4605, -12.0878, 29.5231, 14.0903, 67.12, -167.159
5.112, 4, -47.4605, -12.0878, 29.5231, 14.0903, 67.12, -167.159
5.116, 4, -47.4605, -12.0878, 29.5231, 14.0903, 67.12, -167.159
5.12, 4, -47.4605, -12.0878, 29.5231, 14.0903, 67.12, -167.159
5.124, 4, -47.4605, -12.0878, 29.5231, 14.0903, 67.12, -167.159
5.128, 4, -47.4605, -12.0878, 29.5231, 14.0903, 67.12, -167.159
5.132, 4, -47.4605, -12.0878, 29.5231, 14.0903, 67.12, -167.159
5.136, 4, -47.4605, -12.0878, 29.5231, 14.0903, 67.12, -167.159
5.14, 4, -47.4605, -12.0878, 29.5231, 14.0903, 67.12, -167.159
5.144, 4, -47.4605, -12.0878, 29.5231, 14.0903, 67.12, -167.159
5.148, 4, -47.4605, -12.0878, 29.5231, 14.0903, 67.12, -167.159
5.152, 4, -47.4605, -12.0878, 29.5231, 14.0903, 67.12, -167.159
5.156, 4, -47.4605, -12.0878, 29.5231, 14.0903, 67.12, -167.159
5.16, 4, -47.4605, -12.0878, 29.5231, 14.0903, 67.12, -167.159
5.164, 4, -47.4605, -12.0878, 29.5231, 14.0903, 67.12, -167.159
5.168, 4, -47.4605, -12.0878, 29.5231, 14.0903, 67.12, -167.159
5.172, 4, -47.4605, -12.0878, 29.5231, 14.0903, 67.12, -167.159
5.176, 4, -47.4605, -12.0878, 29.5231, 14.0903, 67.12, -167.159
5.18, 4, -47.4605, -12.0878, 29.5231, 14.0903, 67.12, -167.159
5.186, 4, -47.4605, -12.0878, 29.5231, 14.0903, 67.12, -167.159
5.19, 4, -47.4605, -12.0878, 29.5231, 14.0903, 67.12, -167.159
5.194, 4, -47.4605, -12.0878, 29.5231, 14.0903, 67.12, -167.159
5.197, 4, -47.4605, -12.0878, 29.5231, 14.0903, 67.12, -167.159
5.202, 4, -47.4605, -12.0878, 29.5231, 14.0903, 67.12, -167.159
5.206, 4, -47.4605, -12.0878, 29.5231, 14.0903, 67.12, -167.159
5.21, 4, -47.4605, -12.0878, 29.5231, 14.0903, 67.12, -167.159
5.214, 4, -47.4605, -12.0878, 29.5231, 14.0903, 67.12, -167.159
5.217, 4, -47.4605, -12.0878, 29.5231, 14.0903, 67.12, -167.159
5.22, 4, -47.4605, -12.0878, 29.5231, 14.0903, 67.12, -167.159
5.224, 4, -47.4606, -12.0879, 29.5231, 14.0904, 67.12, -167.159
5.228, 4, -47.4608, -12.0881, 29.5233, 14.0905, 67.1201, -167.158
5.232, 4, -47.4613, -12.0885, 29.5237, 14.0908, 67.1202, -167.158
5.236, 4, -47.462, -12.0892, 29.5243, 14.0915, 67.1205, -167.158
5.24, 4, -47.463, -12.0904, 29.5255, 14.0929, 67.121, -167.158
5.244, 4, -47.4645, -12.092, 29.5275, 14.0956, 67.122, -167.157
5.248, 4, -47.4664, -12.0943, 29.5304, 14.1002, 67.1236, -167.155
5.252, 5, -47.4687, -12.0974, 29.5347, 14.1075, 67.1261, -167.153
5.256, 5, -47.4715, -12.1012, 29.5407, 14.1183, 67.1298, -167.149
5.26, 5, -47.475, -12.106, 29.5487, 14.1337, 67.1349, -167.144
5.264, 5, -47.4791, -12.1119, 29.5592, 14.1545, 67.1418, -167.137
5.268, 5, -47.4841, -12.1191, 29.5725, 14.1818, 67.1508, -167.128
5.272, 5, -47.49, -12.1275, 29.5891, 14.2164, 67.162, -167.117
5.276, 5, -47.4969, -12.1374, 29.6091, 14.259, 67.1759, -167.103
5.28, 5, -47.5049, -12.1487, 29.633, 14.3104, 67.1925, -167.086
5.284, 5, -47.514, -12.1615, 29.6608, 14.3709, 67.2119, -167.065
5.288, 5, -47.5243, -12.1758, 29.6926, 14.4408, 67.2342, -167.042
5.292, 5, -47.5356, -12.1915, 29.7284, 14.5199, 67.2594, -167.016
5.296, 5, -47.5481, -12.2087, 29.7681, 14.6081, 67.2874, -166.987
5.3, 5, -47.5617, -12.2273, 29.8116, 14.7046, 67.3179, -166.955
5.304, 5, -47.5762, -12.2474, 29.8586, 14.8089, 67.3508, -166.92
5.308, 5, -47.5918, -12.2689, 29.9089, 14.9201, 67.3857, -166.883
5.312, 5, -47.6082, -12.2916, 29.962, 15.0373, 67.4224, -166.845
5.316, 5, -47.6254, -12.3155, 30.0178, 15.1596, 67.4605, -166.805
5.32, 5, -47.6432, -12.3404, 30.0757, 15.2862, 67.4998, -166.763
5.324, 5, -47.6617, -12.3663, 30.1355, 15.4162, 67.5401, -166.72
5.328, 5, -47.6806, -12.3929, 30.197, 15.549, 67.581, -166.677
5.332, 5, -47.7, -12.4202, 30.2597, 15.6839, 67.6225, -166.633
5.336, 5, -47.7199, -12.448, 30.3235, 15.8203, 67.6642, -166.589
5.34, 5, -47.7401, -12.4764, 30.3882, 15.9579, 67.7061, -166.544
5.344, 5, -47.7606, -12.5051, 30.4537, 16.0962, 67.748, -166.499
5.348, 5, -47.7815, -12.5341, 30.5197, 16.2352, 67.7899, -166.454
5.352, 5, -47.8025, -12.5634, 30.5863, 16.3745, 67.8317, -166.409
5.356, 5, -47.8236, -12.5929, 30.6533, 16.5141, 67.8735, -166.364
5.36, 5, -47.8449, -12.6225, 30.7207, 16.6539, 67.915, -166.32
5.364, 5, -47.8664, -12.6523, 30.7885, 16.7939, 67.9564, -166.275
5.368, 5, -47.8879, -12.6822, 30.8565, 16.934, 67.9976, -166.23
5.372, 5, -47.9094, -12.7122, 30.9249, 17.0741, 68.0386, -166.186
5.376, 5, -47.9311, -12.7423, 30.9937, 17.2144, 68.0795, -166.141
5.38, 5, -47.9528, -12.7724, 31.0627, 17.3547, 68.1201, -166.097
5.384, 5, -47.9746, -12.8027, 31.132, 17.495, 68.1605, -166.053
5.388, 5, -47.9965, -12.833, 31.2016, 17.6354, 68.2008, -166.008
5.392, 5, -48.0184, -12.8635, 31.2715, 17.7759, 68.2408, -165.964
5.396, 5, -48.0404, -12.894, 31.3417, 17.9164, 68.2807, -165.921
5.4, 5, -48.0624, -12.9246, 31.4122, 18.0569, 68.3203, -165.877
5.404, 5, -48.0845, -12.9553, 31.4829, 18.1975, 68.3598, -165.833
5.408, 5, -48.1066, -12.9861, 31.554, 18.3381, 68.399, -165.789
5.412, 5, -48.1289, -13.0169, 31.6254, 18.4788, 68.4381, -165.746
5.416, 5, -48.1511, -13.0478, 31.697, 18.6195, 68.477, -165.703
5.42, 5, -48.1734, -13.0789, 31.7689, 18.7602, 68.5156, -165.659
5.424, 5, -48.1958, -13.11, 31.8411, 18.901, 68.5541, -165.616
5.428, 5, -48.2182, -13.1411, 31.9136, 19.0418, 68.5924, -165.573
5.432, 5, -48.2407, -13.1724, 31.9864, 19.1826, 68.6305, -165.53
5.436, 5, -48.2632, -13.2037, 32.0595, 19.3235, 68.6684, -165.488
5.44, 5, -48.2858, -13.2352, 32.1328, 19.4644, 68.7062, -165.445
5.444, 5, -48.3084, -13.2667, 32.2064, 19.6053, 68.7437, -165.402
5.448, 5, -48.3311, -13.2982, 32.2804, 19.7463, 68.7811, -165.36
5.452, 5, -48.3539, -13.3299, 32.3546, 19.8874, 68.8182, -165.318
5.456, 5, -48.3767, -13.3617, 32.4291, 20.0284, 68.8552, -165.276
5.46, 5, -48.3995, -13.3935, 32.5038, 20.1695, 68.892, -165.233
5.464, 5, -48.4224, -13.4254, 32.5789, 20.3106, 68.9286, -165.192
5.468, 5, -48.4453, -13.4574, 32.6542, 20.4518, 68.9651, -165.15
5.472, 5, -48.4683, -13.4895, 32.7299, 20.593, 69.0013, -165.108
5.476, 5, -48.4913, -13.5216, 32.8058, 20.7343, 69.0374, -165.066
5.48, 5, -48.5144, -13.5539, 32.882, 20.8755, 69.0733, -165.025
5.484, 5, -48.5374, -13.5862, 32.9584, 21.0168, 69.109, -164.984
5.488, 5, -48.5603, -13.6185, 33.0352, 21.1582, 69.1446, -164.942
5.492, 5, -48.583, -13.6508, 33.1122, 21.2995, 69.18, -164.901
5.496, 5, -48.6054, -13.6832, 33.1894, 21.4408, 69.2152, -164.86
5.5, 5, -48.6274, -13.7154, 33.2668, 21.5819, 69.2504, -164.819
5.504, 5, -48.649, -13.7475, 33.3443, 21.7228, 69.2855, -164.777
5.508, 5, -48.67, -13.7795, 33.4218, 21.8633, 69.3205, -164.734
5.512, 5, -48.6905, -13.8112, 33.4992, 22.003, 69.3557, -164.69
5.516, 5, -48.7103, -13.8426, 33.5764, 22.1418, 69.391, -164.645
5.52, 6, -48.7294, -13.8737, 33.6533, 22.2793, 69.4266, -164.598
5.524, 6, -48.7477, -13.9044, 33.7296, 22.4152, 69.4626, -164.548
5.528, 6, -48.7649, -13.9346, 33.8052, 22.5491, 69.499, -164.494
5.532, 6, -48.781, -13.9643, 33.88, 22.6807, 69.536, -164.437
5.536, 6, -48.7958, -13.9935, 33.9537, 22.8095, 69.5737, -164.376
5.54, 6, -48.8092, -14.0219, 34.0263, 22.9354, 69.6121, -164.31
5.544, 6, -48.8213, -14.0498, 34.0975, 23.0579, 69.6514, -164.239
5.548, 6, -48.8318, -14.0769, 34.1674, 23.1769, 69.6915, -164.163
5.552, 6, -48.8408, -14.1034, 34.2357, 23.2924, 69.7326, -164.081
5.556, 6, -48.8482, -14.1291, 34.3026, 23.4042, 69.7745, -163.994
5.56, 6, -48.854, -14.1541, 34.3679, 23.5124, 69.8173, -163.901
5.564, 6, -48.8582, -14.1782, 34.4317, 23.6172, 69.861, -163.803
5.568, 7, -48.8607, -14.2016, 34.4941, 23.7188, 69.9055, -163.7
5.572, 7, -48.8616, -14.2241, 34.5551, 23.8173, 69.9507, -163.592
5.576, 7, -48.861, -14.246, 34.6147, 23.9129, 69.9967, -163.48
5.58, 7, -48.859, -14.267, 34.6731, 24.0061, 70.0434, -163.364
5.584, 7, -48.8556, -14.2874, 34.7304, 24.0969, 70.0907, -163.245
5.588, 7, -48.851, -14.3071, 34.7866, 24.1857, 70.1385, -163.122
5.592, 7, -48.8452, -14.3263, 34.8418, 24.2727, 70.1869, -162.997
5.596, 7, -48.8384, -14.3448, 34.8961, 24.358, 70.2358, -162.868
5.6, 7, -48.8305, -14.3628, 34.9496, 24.442, 70.2852, -162.738
5.604, 7, -48.8218, -14.3803, 35.0023, 24.5247, 70.3349, -162.605
5.608, 7, -48.8123, -14.3973, 35.0543, 24.6062, 70.3851, -162.47
5.612, 7, -48.8021, -14.4139, 35.1056, 24.6868, 70.4356, -162.334
5.616, 8, -48.7913, -14.4302, 35.1563, 24.7666, 70.4865, -162.196
5.62, 8, -48.7799, -14.4461, 35.2065, 24.8456, 70.5377, -162.056
5.624, 8, -48.7681, -14.4616, 35.2561, 24.924, 70.5892, -161.916
5.628, 8, -48.7558, -14.4769, 35.3053, 25.0019, 70.6409, -161.774
5.632, 8, -48.7431, -14.4919, 35.354, 25.0794, 70.6929, -161.632
5.636, 8, -48.7301, -14.5067, 35.4024, 25.1566, 70.7451, -161.489
5.64, 8, -48.7167, -14.5212, 35.4504, 25.2337, 70.7974, -161.345
5.644, 8, -48.703, -14.5355, 35.4982, 25.3105, 70.8499, -161.201
5.648, 8, -48.689, -14.5496, 35.5456, 25.3874, 70.9025, -161.056
5.652, 8, -48.6748, -14.5635, 35.5928, 25.4642, 70.9553, -160.911
5.656, 8, -48.6603, -14.5772, 35.6398, 25.5411, 71.0082, -160.766
5.66, 8, -48.6457, -14.5908, 35.6865, 25.6181, 71.0611, -160.621
5.664, 9, -48.6309, -14.6043, 35.7331, 25.6952, 71.1142, -160.476
5.668, 9, -48.616, -14.6177, 35.7795, 25.7725, 71.1673, -160.331
5.672, 9, -48.601, -14.631, 35.8258, 25.85, 71.2205, -160.186
5.676, 9, -48.5859, -14.6443, 35.872, 25.9276, 71.2737, -160.041
5.68, 9, -48.5707, -14.6574, 35.918, 26.0055, 71.3269, -159.896
5.684, 9, -48.5554, -14.6705, 35.9639, 26.0837, 71.3802, -159.751
5.688, 9, -48.54, -14.6835, 36.0097, 26.1622, 71.4334, -159.607
5.692, 9, -48.5246, -14.6965, 36.0554, 26.2409, 71.4867, -159.463
5.696, 9, -48.5091, -14.7094, 36.1011, 26.32, 71.5399, -159.319
5.7, 9, -48.4935, -14.7222, 36.1467, 26.3993, 71.5932, -159.175
5.704, 9, -48.4778, -14.7351, 36.1922, 26.479, 71.6464, -159.031
5.708, 9, -48.4621, -14.7479, 36.2376, 26.5589, 71.6996, -158.888
5.712, 10, -48.4464, -14.7607, 36.283, 26.6392, 71.7527, -158.746
5.716, 10, -48.4306, -14.7734, 36.3284, 26.7197, 71.8059, -158.603
5.72, 10, -48.4148, -14.7862, 36.3736, 26.8006, 71.859, -158.461
5.724, 10, -48.3989, -14.7989, 36.4188, 26.8817, 71.912, -158.319
5.728, 10, -48.383, -14.8117, 36.464, 26.963, 71.965, -158.178
5.732, 10, -48.367, -14.8244, 36.5091, 27.0447, 72.018, -158.036
5.736, 10, -48.3509, -14.8371, 36.5541, 27.1266, 72.0709, -157.895
5.74, 10, -48.3348, -14.8498, 36.5991, 27.2087, 72.1237, -157.755
5.744, 10, -48.3186, -14.8625, 36.644, 27.2911, 72.1765, -157.614
5.748, 10, -48.3023, -14.8752, 36.6889, 27.3737, 72.2292, -157.474
5.752, 10, -48.2859, -14.8879, 36.7337, 27.4565, 72.2819, -157.334
5.756, 11, -48.2695, -14.9006, 36.7784, 27.5394, 72.3345, -157.195
5.76, 11, -48.2529, -14.9132, 36.823, 27.6226, 72.3871, -157.055
5.764, 11, -48.2363, -14.9259, 36.8675, 27.7059, 72.4396, -156.916
5.768, 11, -48.2195, -14.9385, 36.912, 27.7894, 72.492, -156.777
5.772, 11, -48.2026, -14.9512, 36.9564, 27.873, 72.5444, -156.639
5.776, 11, -48.1856, -14.9638, 37.0007, 27.9568, 72.5967, -156.5
5.78, 11, -48.1685, -14.9764, 37.0449, 28.0406, 72.6489, -156.362
5.784, 11, -48.1513, -14.9891, 37.089, 28.1245, 72.7011, -156.224
5.788, 11, -48.1339, -15.0017, 37.133, 28.2086, 72.7532, -156.086
5.792, 11, -48.1164, -15.0143, 37.1769, 28.2926, 72.8052, -155.949
5.796, 11, -48.0987, -15.0268, 37.2207, 28.3768, 72.8572, -155.811
5.8, 11, -48.0809, -15.0394, 37.2643, 28.461, 72.9091, -155.674
5.804, 12, -48.0629, -15.052, 37.3079, 28.5452, 72.9609, -155.536
5.808, 12, -48.0448, -15.0645, 37.3513, 28.6295, 73.0126, -155.399
5.812, 12, -48.0264, -15.077, 37.3947, 28.7138, 73.0643, -155.262
5.816, 12, -48.0079, -15.0895, 37.4379, 28.7981, 73.1159, -155.126
5.82, 12, -47.9893, -15.102, 37.4809, 28.8824, 73.1674, -154.989
5.824, 12, -47.9704, -15.1145, 37.5239, 28.9667, 73.2189, -154.852
5.828, 12, -47.9514, -15.127, 37.5667, 29.0509, 73.2703, -154.716
5.832, 12, -47.9321, -15.1394, 37.6094, 29.1351, 73.3216, -154.58
5.836, 12, -47.9127, -15.1519, 37.6519, 29.2193, 73.3728, -154.444
5.84, 12, -47.8931, -15.1643, 37.6943, 29.3035, 73.4239, -154.308
5.844, 12, -47.8733, -15.1767, 37.7366, 29.3876, 73.4749, -154.172
5.848, 12, -47.8533, -15.1891, 37.7787, 29.4717, 73.5259, -154.036
5.852, 13, -47.833, -15.2015, 37.8207, 29.5557, 73.5767, -153.9
5.856, 13, -47.8126, -15.2139, 37.8625, 29.6396, 73.6275, -153.765
5.86, 13, -47.7919, -15.2262, 37.9043, 29.7235, 73.6782, -153.629
5.864, 13, -47.7711, -15.2386, 37.9458, 29.8073, 73.7288, -153.494
5.868, 13, -47.75, -15.251, 37.9873, 29.891, 73.7792, -153.359
5.872, 13, -47.7287, -15.2633, 38.0286, 29.9747, 73.8296, -153.224
5.876, 13, -47.7072, -15.2757, 38.0697, 30.0583, 73.8799, -153.089
5.88, 13, -47.6855, -15.288, 38.1107, 30.1418, 73.93, -152.954
5.884, 13, -47.6636, -15.3004, 38.1516, 30.2252, 73.98, -152.819
5.888, 13, -47.6414, -15.3127, 38.1924, 30.3085, 74.03, -152.685
5.892, 13, -47.619, -15.3251, 38.233, 30.3918, 74.0798, -152.55
5.896, 13, -47.5964, -15.3375, 38.2734, 30.4749, 74.1294, -152.416
5.9, 14, -47.5736, -15.3499, 38.3138, 30.558, 74.179, -152.282
5.904, 14, -47.5506, -15.3623, 38.354, 30.641, 74.2284, -152.149
5.908, 14, -47.5273, -15.3747, 38.3941, 30.7239, 74.2777, -152.015
5.912, 14, -47.5038, -15.3872, 38.434, 30.8067, 74.3268, -151.881
5.916, 14, -47.4801, -15.3996, 38.4739, 30.8894, 74.3758, -151.748
5.92, 14, -47.4562, -15.4121, 38.5136, 30.9721, 74.4247, -151.615
5.924, 14, -47.4321, -15.4247, 38.5532, 31.0546, 74.4734, -151.482
5.928, 14, -47.4077, -15.4372, 38.5927, 31.1371, 74.5219, -151.35
5.932, 14, -47.3832, -15.4499, 38.632, 31.2195, 74.5703, -151.217
5.936, 14, -47.3584, -15.4625, 38.6713, 31.3018, 74.6185, -151.085
5.94, 14, -47.3334, -15.4752, 38.7104, 31.384, 74.6666, -150.953
5.944, 14, -47.3081, -15.4879, 38.7494, 31.4662, 74.7145, -150.822
5.948, 15, -47.2827, -15.5007, 38.7884, 31.5482, 74.7622, -150.69
5.952, 15, -47.257, -15.5136, 38.8272, 31.6302, 74.8097, -150.559
5.956, 15, -47.2311, -15.5265, 38.8659, 31.7121, 74.857, -150.428
5.96, 15, -47.205, -15.5394, 38.9045, 31.794, 74.9042, -150.298
5.964, 15, -47.1787, -15.5525, 38.943, 31.8757, 74.9512, -150.168
5.968, 15, -47.1522, -15.5656, 38.9815, 31.9574, 74.998, -150.038
5.972, 15, -47.1255, -15.5787, 39.0198, 32.039, 75.0445, -149.908
5.976, 15, -47.0985, -15.592, 39.058, 32.1205, 75.0909, -149.778
