rpiRobotics/ARM-21-02-F-19-Robot-Motion-Program/data_performance_abb/curve_2/baseline/0.9/curve_exe_v327.57568359375_z10.csv
timestamp, cmd_num, J1, J2, J3, J4, J5, J6
0, -1, 39.5819, 33.7762, 11.4097, 12.8476, 115.273, -47.749
0.003, -1, 39.5819, 33.7762, 11.4097, 12.8476, 115.273, -47.749
0.006, -1, 39.5819, 33.7762, 11.4097, 12.8476, 115.273, -47.749
0.008, -1, 39.5819, 33.7762, 11.4097, 12.8476, 115.273, -47.749
0.011, -1, 39.5819, 33.7762, 11.4097, 12.8476, 115.273, -47.749
0.016, -1, 39.5819, 33.7762, 11.4097, 12.8476, 115.273, -47.749
0.02, -1, 39.5819, 33.7762, 11.4097, 12.8476, 115.273, -47.749
0.024, -1, 39.5819, 33.7762, 11.4097, 12.8476, 115.273, -47.749
0.028, -1, 39.5819, 33.7762, 11.4097, 12.8476, 115.273, -47.749
0.032, -1, 39.5819, 33.7762, 11.4097, 12.8476, 115.273, -47.749
0.036, -1, 39.5818, 33.7762, 11.4097, 12.8476, 115.273, -47.749
0.04, -1, 39.5816, 33.7762, 11.4096, 12.8476, 115.273, -47.749
0.044, -1, 39.581, 33.776, 11.4096, 12.8476, 115.273, -47.749
0.048, -1, 39.5799, 33.7757, 11.4095, 12.8476, 115.273, -47.749
0.052, -1, 39.5782, 33.7753, 11.4093, 12.8476, 115.273, -47.7492
0.056, -1, 39.5757, 33.7745, 11.4091, 12.8476, 115.273, -47.7495
0.06, -1, 39.5724, 33.7735, 11.4088, 12.8476, 115.273, -47.7502
0.064, -1, 39.5683, 33.772, 11.4085, 12.8476, 115.273, -47.7512
0.068, -1, 39.5632, 33.7701, 11.4083, 12.8476, 115.272, -47.753
0.072, -1, 39.557, 33.7677, 11.408, 12.8476, 115.271, -47.7556
0.076, -1, 39.5496, 33.7645, 11.4078, 12.8477, 115.27, -47.7595
0.08, -1, 39.5405, 33.7605, 11.4078, 12.8478, 115.267, -47.7649
0.084, -1, 39.5297, 33.7556, 11.4079, 12.8481, 115.265, -47.7723
0.088, -1, 39.5167, 33.7496, 11.4084, 12.8483, 115.261, -47.7821
0.092, -1, 39.5015, 33.7424, 11.4093, 12.8487, 115.256, -47.7948
0.096, -1, 39.484, 33.7339, 11.4107, 12.8493, 115.25, -47.8109
0.1, -1, 39.4638, 33.724, 11.4127, 12.85, 115.242, -47.8308
0.104, -1, 39.4409, 33.7126, 11.4155, 12.8508, 115.232, -47.855
0.108, -1, 39.415, 33.6996, 11.4192, 12.8519, 115.221, -47.8841
0.112, -1, 39.3859, 33.6848, 11.4238, 12.8531, 115.207, -47.9185
0.116, -1, 39.3534, 33.6682, 11.4293, 12.8546, 115.192, -47.9584
0.12, -1, 39.3175, 33.6496, 11.436, 12.8564, 115.174, -48.0043
0.124, -1, 39.278, 33.629, 11.4439, 12.8584, 115.153, -48.0564
0.128, -1, 39.2349, 33.6064, 11.4529, 12.8606, 115.13, -48.115
0.131, -1, 39.188, 33.5817, 11.4631, 12.8632, 115.104, -48.1801
0.136, -1, 39.1375, 33.5549, 11.4746, 12.866, 115.076, -48.2517
0.139, -1, 39.0832, 33.526, 11.4872, 12.8691, 115.044, -48.3299
0.144, -1, 39.0252, 33.4951, 11.5011, 12.8724, 115.011, -48.4145
0.148, -1, 38.9636, 33.4622, 11.5161, 12.876, 114.975, -48.5054
0.152, -1, 38.8986, 33.4274, 11.5322, 12.8798, 114.936, -48.6023
0.156, -1, 38.8303, 33.3908, 11.5493, 12.8839, 114.896, -48.7048
0.16, -1, 38.7589, 33.3524, 11.5674, 12.8882, 114.853, -48.8125
0.164, -1, 38.6845, 33.3125, 11.5863, 12.8927, 114.808, -48.9251
0.168, -1, 38.6072, 33.271, 11.6059, 12.8973, 114.761, -49.042
0.172, -1, 38.5271, 33.2281, 11.6261, 12.9022, 114.713, -49.1628
0.176, -1, 38.4446, 33.1838, 11.6468, 12.9071, 114.664, -49.2869
0.18, -1, 38.3599, 33.1384, 11.6679, 12.9121, 114.614, -49.4138
0.184, -1, 38.2735, 33.0919, 11.6893, 12.9173, 114.562, -49.5432
0.188, -1, 38.1853, 33.0446, 11.7109, 12.9225, 114.51, -49.6746
0.192, -1, 38.0958, 32.9964, 11.7326, 12.9277, 114.457, -49.8075
0.196, -1, 38.0048, 32.9475, 11.7545, 12.933, 114.404, -49.9417
0.2, -1, 37.9125, 32.8981, 11.7763, 12.9383, 114.35, -50.0768
0.204, -1, 37.819, 32.8481, 11.7981, 12.9437, 114.296, -50.2126
0.208, -1, 37.7243, 32.7976, 11.8199, 12.949, 114.242, -50.3488
0.212, -1, 37.6287, 32.7469, 11.8417, 12.9544, 114.188, -50.4855
0.216, -1, 37.5323, 32.6959, 11.8634, 12.9597, 114.134, -50.6223
0.22, -1, 37.4353, 32.6447, 11.8851, 12.9651, 114.08, -50.7594
0.224, -1, 37.338, 32.5934, 11.9067, 12.9704, 114.025, -50.8965
0.228, -1, 37.2404, 32.542, 11.9284, 12.9758, 113.971, -51.0338
0.232, -1, 37.1427, 32.4906, 11.9501, 12.9812, 113.916, -51.1711
0.236, -1, 37.0448, 32.4391, 11.9718, 12.9865, 113.862, -51.3085
0.24, -1, 36.9468, 32.3876, 11.9934, 12.9919, 113.807, -51.446
0.244, -1, 36.8488, 32.3361, 12.0151, 12.9973, 113.753, -51.5834
0.248, -1, 36.7507, 32.2845, 12.0368, 13.0026, 113.698, -51.721
0.252, -1, 36.6526, 32.2329, 12.0584, 13.008, 113.644, -51.8585
0.256, -1, 36.5544, 32.1813, 12.0801, 13.0134, 113.589, -51.9961
0.26, -1, 36.4562, 32.1297, 12.1018, 13.0187, 113.534, -52.1337
0.264, -1, 36.358, 32.0781, 12.1235, 13.0241, 113.48, -52.2714
0.268, -1, 36.2597, 32.0265, 12.1452, 13.0295, 113.425, -52.4091
0.272, -1, 36.1615, 31.9748, 12.1669, 13.0348, 113.371, -52.5468
0.276, -1, 36.0632, 31.9232, 12.1886, 13.0402, 113.316, -52.6845
0.28, -1, 35.9648, 31.8715, 12.2103, 13.0456, 113.261, -52.8223
0.284, -1, 35.8665, 31.8198, 12.232, 13.051, 113.207, -52.9601
0.288, -1, 35.7682, 31.7681, 12.2537, 13.0563, 113.152, -53.0979
0.292, -1, 35.6698, 31.7164, 12.2754, 13.0617, 113.097, -53.2357
0.296, -1, 35.5714, 31.6647, 12.2971, 13.0671, 113.043, -53.3736
0.3, -1, 35.473, 31.613, 12.3188, 13.0725, 112.988, -53.5115
0.304, -1, 35.3745, 31.5613, 12.3406, 13.0779, 112.933, -53.6494
0.308, -1, 35.2761, 31.5095, 12.3623, 13.0832, 112.879, -53.7873
0.312, -1, 35.1776, 31.4578, 12.384, 13.0886, 112.824, -53.9253
0.316, -1, 35.0791, 31.406, 12.4058, 13.094, 112.769, -54.0633
0.32, -1, 34.9806, 31.3543, 12.4275, 13.0994, 112.714, -54.2013
0.324, -1, 34.8821, 31.3025, 12.4493, 13.1048, 112.66, -54.3394
0.328, -1, 34.7836, 31.2507, 12.471, 13.1102, 112.605, -54.4774
0.332, -1, 34.685, 31.1989, 12.4928, 13.1156, 112.55, -54.6155
0.336, -1, 34.5865, 31.1471, 12.5145, 13.121, 112.495, -54.7537
0.34, -1, 34.4879, 31.0953, 12.5363, 13.1263, 112.441, -54.8918
0.344, -1, 34.3893, 31.0435, 12.5581, 13.1317, 112.386, -55.03
0.348, -1, 34.2906, 30.9917, 12.5798, 13.1371, 112.331, -55.1682
0.352, -1, 34.192, 30.9398, 12.6016, 13.1425, 112.276, -55.3064
0.356, -1, 34.0933, 30.888, 12.6234, 13.1479, 112.221, -55.4446
0.36, -1, 33.9947, 30.8361, 12.6452, 13.1533, 112.166, -55.5829
0.364, -1, 33.896, 30.7843, 12.6669, 13.1587, 112.112, -55.7211
0.368, -1, 33.7973, 30.7324, 12.6887, 13.1641, 112.057, -55.8594
0.372, -1, 33.6985, 30.6805, 12.7105, 13.1695, 112.002, -55.9978
0.376, -1, 33.5998, 30.6286, 12.7323, 13.1749, 111.947, -56.1361
0.38, -1, 33.5011, 30.5767, 12.7541, 13.1803, 111.892, -56.2745
0.384, -1, 33.4023, 30.5248, 12.7759, 13.1857, 111.837, -56.4129
0.388, -1, 33.3035, 30.4729, 12.7977, 13.1911, 111.782, -56.5513
0.392, -1, 33.2047, 30.421, 12.8195, 13.1965, 111.728, -56.6897
0.396, -1, 33.1059, 30.3691, 12.8413, 13.2019, 111.673, -56.8282
0.4, -1, 33.007, 30.3171, 12.8632, 13.2073, 111.618, -56.9667
0.404, -1, 32.9082, 30.2652, 12.885, 13.2127, 111.563, -57.1052
0.408, -1, 32.8093, 30.2132, 12.9068, 13.2181, 111.508, -57.2437
0.412, -1, 32.7105, 30.1613, 12.9286, 13.2235, 111.453, -57.3822
0.416, -1, 32.6116, 30.1093, 12.9504, 13.2289, 111.398, -57.5208
0.42, -1, 32.5127, 30.0573, 12.9723, 13.2343, 111.343, -57.6594
0.424, -1, 32.4137, 30.0053, 12.9941, 13.2397, 111.288, -57.798
0.428, -1, 32.3148, 29.9533, 13.016, 13.2452, 111.233, -57.9366
0.432, -1, 32.2159, 29.9013, 13.0378, 13.2506, 111.178, -58.0752
0.436, -1, 32.1169, 29.8493, 13.0596, 13.256, 111.123, -58.2139
0.44, -1, 32.0179, 29.7973, 13.0815, 13.2614, 111.068, -58.3526
0.444, -1, 31.9189, 29.7453, 13.1033, 13.2668, 111.013, -58.4913
0.448, -1, 31.8199, 29.6933, 13.1252, 13.2722, 110.958, -58.63
0.452, -1, 31.7209, 29.6412, 13.147, 13.2776, 110.903, -58.7687
0.456, -1, 31.6219, 29.5892, 13.1689, 13.283, 110.848, -58.9075
0.46, -1, 31.5229, 29.5372, 13.1908, 13.2885, 110.793, -59.0463
0.464, -1, 31.4238, 29.4851, 13.2126, 13.2939, 110.738, -59.1851
0.468, -1, 31.3247, 29.433, 13.2345, 13.2993, 110.683, -59.3239
0.472, -1, 31.2256, 29.381, 13.2564, 13.3047, 110.628, -59.4627
0.476, -1, 31.1265, 29.3289, 13.2782, 13.3101, 110.573, -59.6016
0.48, -1, 31.0274, 29.2768, 13.3001, 13.3155, 110.518, -59.7404
0.484, -1, 30.9283, 29.2247, 13.322, 13.321, 110.463, -59.8793
0.488, -1, 30.8292, 29.1726, 13.3439, 13.3264, 110.407, -60.0182
0.492, -1, 30.73, 29.1205, 13.3658, 13.3318, 110.352, -60.1571
0.496, -1, 30.6309, 29.0684, 13.3876, 13.3372, 110.297, -60.2961
0.5, -1, 30.5317, 29.0163, 13.4095, 13.3426, 110.242, -60.435
0.504, -1, 30.4325, 28.9642, 13.4314, 13.3481, 110.187, -60.574
0.508, -1, 30.3334, 28.9121, 13.4533, 13.3535, 110.132, -60.713
0.512, -1, 30.2342, 28.8599, 13.4752, 13.3589, 110.077, -60.852
0.516, -1, 30.1349, 28.8078, 13.4971, 13.3643, 110.022, -60.991
0.52, -1, 30.0357, 28.7556, 13.519, 13.3698, 109.966, -61.13
0.524, -1, 29.9365, 28.7035, 13.5409, 13.3752, 109.911, -61.269
0.528, -1, 29.8372, 28.6513, 13.5628, 13.3806, 109.856, -61.4081
0.532, -1, 29.738, 28.5992, 13.5847, 13.386, 109.801, -61.5472
0.536, -1, 29.6387, 28.547, 13.6066, 13.3915, 109.746, -61.6863
0.54, -1, 29.5394, 28.4949, 13.6286, 13.3969, 109.691, -61.8254
0.544, -1, 29.4401, 28.4427, 13.6505, 13.4023, 109.636, -61.9645
0.548, -1, 29.3408, 28.3905, 13.6724, 13.4077, 109.58, -62.1036
0.552, -1, 29.2415, 28.3383, 13.6943, 13.4132, 109.525, -62.2427
0.556, -1, 29.1422, 28.2861, 13.7162, 13.4186, 109.47, -62.3819
0.56, -1, 29.0429, 28.2339, 13.7382, 13.424, 109.415, -62.5211
0.564, -1, 28.9436, 28.1817, 13.7601, 13.4295, 109.36, -62.6603
0.568, -1, 28.8442, 28.1295, 13.782, 13.4349, 109.304, -62.7995
0.572, -1, 28.7449, 28.0773, 13.8039, 13.4403, 109.249, -62.9387
0.576, -1, 28.6455, 28.0251, 13.8259, 13.4458, 109.194, -63.0779
0.58, -1, 28.5461, 27.9729, 13.8478, 13.4512, 109.139, -63.2171
0.584, -1, 28.4468, 27.9206, 13.8697, 13.4566, 109.084, -63.3564
0.588, -1, 28.3474, 27.8684, 13.8917, 13.4621, 109.028, -63.4956
0.592, -1, 28.248, 27.8162, 13.9136, 13.4675, 108.973, -63.6349
0.596, -1, 28.1486, 27.7639, 13.9356, 13.4729, 108.918, -63.7742
0.6, -1, 28.0492, 27.7117, 13.9575, 13.4784, 108.863, -63.9135
0.604, -1, 27.9497, 27.6595, 13.9795, 13.4838, 108.807, -64.0528
0.608, -1, 27.8503, 27.6072, 14.0014, 13.4892, 108.752, -64.1921
0.612, -1, 27.7509, 27.5549, 14.0233, 13.4947, 108.697, -64.3314
0.616, -1, 27.6514, 27.5027, 14.0453, 13.5001, 108.642, -64.4707
0.62, -1, 27.552, 27.4504, 14.0673, 13.5055, 108.586, -64.6101
0.624, -1, 27.4525, 27.3982, 14.0892, 13.511, 108.531, -64.7494
0.628, -1, 27.353, 27.3459, 14.1112, 13.5164, 108.476, -64.8888
0.632, -1, 27.2536, 27.2936, 14.1331, 13.5219, 108.42, -65.0282
0.636, -1, 27.1541, 27.2413, 14.1551, 13.5273, 108.365, -65.1676
0.64, -1, 27.0546, 27.1891, 14.177, 13.5327, 108.31, -65.307
0.644, -1, 26.9551, 27.1368, 14.199, 13.5382, 108.255, -65.4464
0.648, -1, 26.8556, 27.0845, 14.221, 13.5436, 108.199, -65.5858
0.652, -1, 26.7561, 27.0322, 14.2429, 13.5491, 108.144, -65.7252
0.656, -1, 26.6566, 26.9799, 14.2649, 13.5545, 108.089, -65.8646
0.66, -1, 26.5571, 26.9276, 14.2868, 13.5599, 108.033, -66.0041
0.664, -1, 26.4576, 26.8753, 14.3088, 13.5654, 107.978, -66.1435
0.668, -1, 26.358, 26.823, 14.3308, 13.5708, 107.923, -66.283
0.672, -1, 26.2585, 26.7707, 14.3527, 13.5763, 107.868, -66.4224
0.676, -1, 26.159, 26.7184, 14.3747, 13.5817, 107.812, -66.5619
0.68, -1, 26.0594, 26.6661, 14.3967, 13.5871, 107.757, -66.7014
0.684, -1, 25.9599, 26.6138, 14.4187, 13.5926, 107.702, -66.8408
0.688, -1, 25.8603, 26.5615, 14.4406, 13.598, 107.646, -66.9803
0.692, -1, 25.7608, 26.5091, 14.4626, 13.6035, 107.591, -67.1198
0.696, -1, 25.6612, 26.4568, 14.4846, 13.6089, 107.536, -67.2593
0.7, -1, 25.5616, 26.4045, 14.5066, 13.6144, 107.48, -67.3988
0.704, -1, 25.4621, 26.3522, 14.5285, 13.6198, 107.425, -67.5384
0.708, -1, 25.3625, 26.2998, 14.5505, 13.6253, 107.37, -67.6779
0.712, -1, 25.2629, 26.2475, 14.5725, 13.6307, 107.314, -67.8174
0.716, -1, 25.1633, 26.1952, 14.5945, 13.6361, 107.259, -67.9569
0.72, -1, 25.0637, 26.1429, 14.6165, 13.6416, 107.204, -68.0965
0.724, -1, 24.9641, 26.0905, 14.6384, 13.647, 107.148, -68.236
0.728, -1, 24.8645, 26.0382, 14.6604, 13.6525, 107.093, -68.3756
0.732, -1, 24.7649, 25.9858, 14.6824, 13.6579, 107.038, -68.5151
0.736, -1, 24.6653, 25.9335, 14.7044, 13.6634, 106.982, -68.6547
0.74, -1, 24.5657, 25.8812, 14.7264, 13.6688, 106.927, -68.7942
0.744, -1, 24.4661, 25.8288, 14.7484, 13.6743, 106.872, -68.9338
0.748, -1, 24.3665, 25.7765, 14.7704, 13.6797, 106.816, -69.0733
0.752, -1, 24.2669, 25.7241, 14.7923, 13.6851, 106.761, -69.2129
0.756, -1, 24.1673, 25.6718, 14.8143, 13.6906, 106.705, -69.3525
0.76, -1, 24.0677, 25.6194, 14.8363, 13.696, 106.65, -69.4921
0.764, -1, 23.9681, 25.5671, 14.8583, 13.7015, 106.595, -69.6316
0.768, -1, 23.8684, 25.5147, 14.8803, 13.7069, 106.539, -69.7712
0.772, -1, 23.7688, 25.4624, 14.9023, 13.7124, 106.484, -69.9108
0.776, -1, 23.6692, 25.41, 14.9243, 13.7178, 106.429, -70.0504
0.78, -1, 23.5696, 25.3577, 14.9463, 13.7233, 106.373, -70.19
0.784, -1, 23.4699, 25.3053, 14.9682, 13.7287, 106.318, -70.3296
0.788, -1, 23.3703, 25.253, 14.9902, 13.7342, 106.263, -70.4692
0.792, -1, 23.2707, 25.2006, 15.0122, 13.7396, 106.207, -70.6088
0.796, -1, 23.171, 25.1482, 15.0342, 13.7451, 106.152, -70.7484
0.8, -1, 23.0714, 25.0959, 15.0562, 13.7505, 106.096, -70.888
0.804, -1, 22.9718, 25.0435, 15.0782, 13.756, 106.041, -71.0276
0.808, -1, 22.8721, 24.9912, 15.1002, 13.7614, 105.986, -71.1672
0.812, -1, 22.7725, 24.9388, 15.1222, 13.7668, 105.93, -71.3067
0.816, -1, 22.6729, 24.8865, 15.1442, 13.7723, 105.875, -71.4463
0.82, -1, 22.5733, 24.8341, 15.1662, 13.7777, 105.82, -71.5859
0.824, -1, 22.4736, 24.7817, 15.1882, 13.7832, 105.764, -71.7255
0.828, -1, 22.374, 24.7294, 15.2101, 13.7886, 105.709, -71.8651
0.832, -1, 22.2744, 24.677, 15.2321, 13.7941, 105.654, -72.0047
0.836, -1, 22.1747, 24.6247, 15.2541, 13.7995, 105.598, -72.1443
0.84, -1, 22.0751, 24.5723, 15.2761, 13.805, 105.543, -72.2839
0.844, -1, 21.9755, 24.52, 15.2981, 13.8104, 105.487, -72.4235
0.848, -1, 21.8758, 24.4676, 15.3201, 13.8159, 105.432, -72.5631
0.852, -1, 21.7762, 24.4152, 15.3421, 13.8213, 105.377, -72.7027
0.856, -1, 21.6766, 24.3629, 15.3641, 13.8268, 105.321, -72.8423
0.86, -1, 21.577, 24.3105, 15.3861, 13.8322, 105.266, -72.9819
0.864, -1, 21.4773, 24.2582, 15.4081, 13.8377, 105.211, -73.1215
0.868, -1, 21.3777, 24.2058, 15.43, 13.8431, 105.155, -73.261
0.872, -1, 21.2781, 24.1535, 15.452, 13.8486, 105.1, -73.4006
0.876, -1, 21.1785, 24.1011, 15.474, 13.854, 105.045, -73.5402
0.88, -1, 21.0789, 24.0488, 15.496, 13.8594, 104.989, -73.6797
0.884, -1, 20.9793, 23.9965, 15.518, 13.8649, 104.934, -73.8193
0.888, -1, 20.8797, 23.9441, 15.54, 13.8703, 104.879, -73.9589
0.892, -1, 20.7801, 23.8918, 15.562, 13.8758, 104.823, -74.0984
0.896, -1, 20.6805, 23.8394, 15.5839, 13.8812, 104.768, -74.238
0.9, -1, 20.5809, 23.7871, 15.6059, 13.8867, 104.713, -74.3775
0.904, -1, 20.4813, 23.7348, 15.6279, 13.8921, 104.657, -74.5171
0.908, -1, 20.3817, 23.6824, 15.6499, 13.8976, 104.602, -74.6566
0.912, -1, 20.2821, 23.6301, 15.6719, 13.903, 104.546, -74.7962
0.916, -1, 20.1825, 23.5778, 15.6938, 13.9084, 104.491, -74.9357
0.92, -1, 20.0829, 23.5254, 15.7158, 13.9139, 104.436, -75.0752
0.924, -1, 19.9833, 23.4731, 15.7378, 13.9193, 104.38, -75.2147
0.928, -1, 19.8838, 23.4208, 15.7598, 13.9248, 104.325, -75.3543
0.932, -1, 19.7842, 23.3684, 15.7818, 13.9302, 104.27, -75.4938
0.936, -1, 19.6846, 23.3161, 15.8037, 13.9357, 104.215, -75.6333
0.94, -1, 19.5851, 23.2638, 15.8257, 13.9411, 104.159, -75.7728
0.944, -1, 19.4855, 23.2115, 15.8477, 13.9466, 104.104, -75.9123
0.948, -1, 19.386, 23.1592, 15.8697, 13.952, 104.049, -76.0517
0.952, -1, 19.2864, 23.1069, 15.8916, 13.9574, 103.993, -76.1912
0.956, -1, 19.1869, 23.0546, 15.9136, 13.9629, 103.938, -76.3307
0.96, -1, 19.0873, 23.0023, 15.9356, 13.9683, 103.883, -76.4701
0.964, -1, 18.9878, 22.95, 15.9575, 13.9738, 103.827, -76.6096
0.968, -1, 18.8883, 22.8977, 15.9795, 13.9792, 103.772, -76.749
0.972, -1, 18.7887, 22.8454, 16.0015, 13.9846, 103.717, -76.8885
0.976, -1, 18.6892, 22.7931, 16.0234, 13.9901, 103.661, -77.0279
0.98, -1, 18.5897, 22.7408, 16.0454, 13.9955, 103.606, -77.1673
0.984, -1, 18.4902, 22.6885, 16.0674, 14.001, 103.551, -77.3067
0.988, -1, 18.3907, 22.6362, 16.0893, 14.0064, 103.496, -77.4461
0.992, -1, 18.2912, 22.5839, 16.1113, 14.0118, 103.44, -77.5855
0.996, -1, 18.1918, 22.5317, 16.1332, 14.0173, 103.385, -77.7249
1, -1, 18.0923, 22.4794, 16.1552, 14.0227, 103.33, -77.8643
1.004, -1, 17.9928, 22.4271, 16.1771, 14.0282, 103.274, -78.0036
1.008, -1, 17.8933, 22.3748, 16.1991, 14.0336, 103.219, -78.143
1.012, -1, 17.7939, 22.3226, 16.221, 14.039, 103.164, -78.2823
1.016, -1, 17.6944, 22.2703, 16.243, 14.0445, 103.109, -78.4217
1.02, -1, 17.595, 22.2181, 16.2649, 14.0499, 103.053, -78.561
1.024, -1, 17.4956, 22.1658, 16.2869, 14.0553, 102.998, -78.7003
1.027, -1, 17.3961, 22.1136, 16.3088, 14.0608, 102.943, -78.8396
1.032, -1, 17.2967, 22.0613, 16.3308, 14.0662, 102.888, -78.9789
1.036, -1, 17.1973, 22.0091, 16.3527, 14.0716, 102.832, -79.1182
1.04, -1, 17.0979, 21.9569, 16.3747, 14.0771, 102.777, -79.2575
1.044, -1, 16.9985, 21.9046, 16.3966, 14.0825, 102.722, -79.3967
1.048, -1, 16.8991, 21.8524, 16.4185, 14.0879, 102.667, -79.536
1.052, -1, 16.7997, 21.8002, 16.4405, 14.0934, 102.611, -79.6752
1.055, -1, 16.7004, 21.748, 16.4624, 14.0988, 102.556, -79.8144
1.06, -1, 16.601, 21.6958, 16.4843, 14.1042, 102.501, -79.9537
1.064, -1, 16.5017, 21.6436, 16.5062, 14.1097, 102.446, -80.0929
1.068, -1, 16.4023, 21.5914, 16.5282, 14.1151, 102.391, -80.232
1.072, -1, 16.303, 21.5392, 16.5501, 14.1205, 102.335, -80.3712
1.076, -1, 16.2037, 21.487, 16.572, 14.126, 102.28, -80.5104
1.08, -1, 16.1043, 21.4348, 16.5939, 14.1314, 102.225, -80.6495
1.084, -1, 16.005, 21.3826, 16.6159, 14.1368, 102.17, -80.7887
1.088, -1, 15.9057, 21.3304, 16.6378, 14.1423, 102.115, -80.9278
1.091, -1, 15.8064, 21.2782, 16.6597, 14.1477, 102.06, -81.0669
1.096, -1, 15.7072, 21.2261, 16.6816, 14.1531, 102.004, -81.206
1.1, -1, 15.6079, 21.1739, 16.7035, 14.1585, 101.949, -81.3451
1.104, -1, 15.5086, 21.1218, 16.7254, 14.164, 101.894, -81.4841
1.108, -1, 15.4094, 21.0696, 16.7473, 14.1694, 101.839, -81.6232
1.112, -1, 15.3102, 21.0175, 16.7692, 14.1748, 101.784, -81.7622
1.116, -1, 15.2109, 20.9653, 16.7911, 14.1802, 101.729, -81.9013
1.119, -1, 15.1117, 20.9132, 16.813, 14.1857, 101.673, -82.0403
1.124, -1, 15.0125, 20.8611, 16.8349, 14.1911, 101.618, -82.1793
1.128, -1, 14.9133, 20.8089, 16.8568, 14.1965, 101.563, -82.3182
1.132, -1, 14.8141, 20.7568, 16.8787, 14.2019, 101.508, -82.4572
1.136, -1, 14.715, 20.7047, 16.9006, 14.2074, 101.453, -82.5962
1.14, -1, 14.6158, 20.6526, 16.9225, 14.2128, 101.398, -82.7351
1.144, -1, 14.5167, 20.6005, 16.9444, 14.2182, 101.343, -82.874
1.147, -1, 14.4175, 20.5484, 16.9662, 14.2236, 101.288, -83.0129
1.152, -1, 14.3184, 20.4963, 16.9881, 14.229, 101.233, -83.1518
1.156, -1, 14.2193, 20.4442, 17.01, 14.2345, 101.178, -83.2906
1.16, -1, 14.1202, 20.3922, 17.0319, 14.2399, 101.123, -83.4295
1.164, -1, 14.0211, 20.3401, 17.0537, 14.2453, 101.067, -83.5683
1.168, -1, 13.922, 20.288, 17.0756, 14.2507, 101.012, -83.7071
1.172, -1, 13.8229, 20.236, 17.0975, 14.2561, 100.957, -83.8459
1.175, -1, 13.7239, 20.1839, 17.1193, 14.2615, 100.902, -83.9847
1.18, -1, 13.6249, 20.1319, 17.1412, 14.2669, 100.847, -84.1235
1.184, -1, 13.5258, 20.0798, 17.163, 14.2724, 100.792, -84.2622
1.188, -1, 13.4268, 20.0278, 17.1849, 14.2778, 100.737, -84.4009
1.192, -1, 13.3278, 19.9758, 17.2067, 14.2832, 100.682, -84.5396
1.196, -1, 13.2288, 19.9238, 17.2286, 14.2886, 100.627, -84.6783
1.2, -1, 13.1298, 19.8718, 17.2504, 14.294, 100.572, -84.817
1.204, -1, 13.0309, 19.8198, 17.2723, 14.2994, 100.517, -84.9557
1.208, -1, 12.9319, 19.7678, 17.2941, 14.3048, 100.462, -85.0943
1.212, -1, 12.833, 19.7158, 17.3159, 14.3102, 100.407, -85.2329
1.216, -1, 12.7341, 19.6638, 17.3378, 14.3156, 100.352, -85.3715
1.22, -1, 12.6352, 19.6118, 17.3596, 14.3211, 100.297, -85.5101
1.224, -1, 12.5363, 19.5599, 17.3814, 14.3265, 100.242, -85.6486
1.228, -1, 12.4374, 19.5079, 17.4033, 14.3319, 100.187, -85.7872
1.232, -1, 12.3385, 19.456, 17.4251, 14.3373, 100.133, -85.9257
1.236, -1, 12.2397, 19.404, 17.4469, 14.3427, 100.078, -86.0642
1.24, -1, 12.1409, 19.3521, 17.4687, 14.3481, 100.023, -86.2026
1.244, -1, 12.042, 19.3002, 17.4905, 14.3535, 99.9678, -86.3411
1.248, -1, 11.9432, 19.2482, 17.5123, 14.3589, 99.9129, -86.4795
1.252, -1, 11.8444, 19.1963, 17.5341, 14.3643, 99.858, -86.6179
1.256, -1, 11.7457, 19.1444, 17.5559, 14.3697, 99.8031, -86.7563
1.26, -1, 11.6469, 19.0925, 17.5777, 14.3751, 99.7482, -86.8947
1.264, -1, 11.5482, 19.0407, 17.5995, 14.3805, 99.6934, -87.033
1.267, -1, 11.4494, 18.9888, 17.6213, 14.3859, 99.6385, -87.1714
1.272, -1, 11.3507, 18.9369, 17.6431, 14.3913, 99.5836, -87.3097
1.276, -1, 11.252, 18.885, 17.6649, 14.3967, 99.5288, -87.4479
1.28, -1, 11.1533, 18.8332, 17.6867, 14.4021, 99.474, -87.5862
1.284, -1, 11.0547, 18.7813, 17.7084, 14.4075, 99.4191, -87.7244
1.288, -1, 10.956, 18.7295, 17.7302, 14.4129, 99.3643, -87.8626
1.292, -1, 10.8574, 18.6777, 17.752, 14.4182, 99.3095, -88.0008
1.295, -1, 10.7588, 18.6259, 17.7737, 14.4236, 99.2547, -88.139
1.3, -1, 10.6602, 18.5741, 17.7955, 14.429, 99.1999, -88.2772
1.304, -1, 10.5616, 18.5223, 17.8173, 14.4344, 99.1452, -88.4153
1.308, -1, 10.463, 18.4705, 17.839, 14.4398, 99.0904, -88.5534
1.312, -1, 10.3645, 18.4187, 17.8608, 14.4452, 99.0356, -88.6914
1.316, -1, 10.2659, 18.3669, 17.8825, 14.4506, 98.9809, -88.8295
1.32, -1, 10.1674, 18.3151, 17.9042, 14.456, 98.9261, -88.9675
1.324, -1, 10.0689, 18.2634, 17.926, 14.4613, 98.8714, -89.1055
1.328, -1, 9.97044, 18.2116, 17.9477, 14.4667, 98.8167, -89.2435
1.332, -1, 9.87197, 18.1599, 17.9695, 14.4721, 98.762, -89.3815
1.336, -1, 9.77353, 18.1082, 17.9912, 14.4775, 98.7073, -89.5194
1.34, -1, 9.67509, 18.0564, 18.0129, 14.4829, 98.6526, -89.6573
1.344, -1, 9.57668, 18.0047, 18.0346, 14.4883, 98.5979, -89.7952
1.348, -1, 9.47828, 17.953, 18.0563, 14.4936, 98.5432, -89.933
1.352, -1, 9.3799, 17.9013, 18.0781, 14.499, 98.4885, -90.0709
1.356, -1, 9.28154, 17.8496, 18.0998, 14.5044, 98.4339, -90.2087
1.36, -1, 9.1832, 17.798, 18.1215, 14.5098, 98.3792, -90.3465
1.364, -1, 9.08488, 17.7463, 18.1432, 14.5151, 98.3246, -90.4842
1.368, -1, 8.98657, 17.6946, 18.1649, 14.5205, 98.27, -90.6219
1.372, -1, 8.88828, 17.643, 18.1866, 14.5259, 98.2154, -90.7596
1.376, -1, 8.79001, 17.5914, 18.2082, 14.5313, 98.1608, -90.8973
1.38, -1, 8.69176, 17.5397, 18.2299, 14.5366, 98.1062, -91.035
1.384, -1, 8.59352, 17.4881, 18.2516, 14.542, 98.0516, -91.1726
1.388, -1, 8.49531, 17.4365, 18.2733, 14.5474, 97.997, -91.3102
1.392, -1, 8.39711, 17.3849, 18.295, 14.5527, 97.9425, -91.4478
1.396, -1, 8.29893, 17.3333, 18.3166, 14.5581, 97.8879, -91.5853
1.4, -1, 8.20077, 17.2817, 18.3383, 14.5635, 97.8334, -91.7229
1.404, -1, 8.10263, 17.2302, 18.3599, 14.5688, 97.7788, -91.8604
1.408, -1, 8.00451, 17.1786, 18.3816, 14.5742, 97.7243, -91.9978
1.412, -1, 7.90641, 17.1271, 18.4032, 14.5796, 97.6698, -92.1353
1.416, -1, 7.80833, 17.0755, 18.4249, 14.5849, 97.6153, -92.2727
1.42, -1, 7.71026, 17.024, 18.4465, 14.5903, 97.5608, -92.4101
1.424, -1, 7.61222, 16.9725, 18.4682, 14.5956, 97.5063, -92.5474
1.428, -1, 7.5142, 16.921, 18.4898, 14.601, 97.4519, -92.6848
1.432, -1, 7.41619, 16.8695, 18.5114, 14.6064, 97.3974, -92.8221
1.436, -1, 7.31821, 16.818, 18.5331, 14.6117, 97.343, -92.9594
1.44, -1, 7.22024, 16.7665, 18.5547, 14.6171, 97.2885, -93.0966
1.444, -1, 7.1223, 16.7151, 18.5763, 14.6224, 97.2341, -93.2338
1.448, -1, 7.02437, 16.6636, 18.5979, 14.6278, 97.1797, -93.371
1.452, -1, 6.92647, 16.6122, 18.6195, 14.6331, 97.1253, -93.5082
1.456, -1, 6.82858, 16.5607, 18.6411, 14.6385, 97.0709, -93.6453
1.46, -1, 6.73072, 16.5093, 18.6627, 14.6438, 97.0165, -93.7825
1.464, -1, 6.63287, 16.4579, 18.6843, 14.6492, 96.9622, -93.9195
1.468, -1, 6.53505, 16.4065, 18.7059, 14.6545, 96.9078, -94.0566
1.472, -1, 6.43725, 16.3551, 18.7275, 14.6599, 96.8535, -94.1936
1.476, -1, 6.33947, 16.3037, 18.7491, 14.6652, 96.7991, -94.3306
1.48, -1, 6.24171, 16.2524, 18.7706, 14.6706, 96.7448, -94.4676
1.484, -1, 6.14397, 16.201, 18.7922, 14.6759, 96.6905, -94.6045
1.488, -1, 6.04625, 16.1496, 18.8138, 14.6813, 96.6362, -94.7414
1.492, -1, 5.94855, 16.0983, 18.8353, 14.6866, 96.5819, -94.8783
1.496, -1, 5.85087, 16.047, 18.8569, 14.6919, 96.5276, -95.0151
1.5, -1, 5.75322, 15.9957, 18.8785, 14.6973, 96.4734, -95.152
1.504, -1, 5.65558, 15.9444, 18.9, 14.7026, 96.4191, -95.2887
1.508, -1, 5.55797, 15.8931, 18.9215, 14.7079, 96.3649, -95.4255
1.512, -1, 5.46038, 15.8418, 18.9431, 14.7133, 96.3107, -95.5622
1.516, -1, 5.36281, 15.7905, 18.9646, 14.7186, 96.2565, -95.6989
1.52, -1, 5.26526, 15.7393, 18.9861, 14.7239, 96.2023, -95.8356
1.524, -1, 5.16774, 15.688, 19.0077, 14.7293, 96.1481, -95.9722
1.528, -1, 5.07023, 15.6368, 19.0292, 14.7346, 96.0939, -96.1088
1.532, -1, 4.97275, 15.5856, 19.0507, 14.7399, 96.0397, -96.2454
1.536, -1, 4.87529, 15.5344, 19.0722, 14.7453, 95.9856, -96.382
1.54, -1, 4.77785, 15.4832, 19.0937, 14.7506, 95.9314, -96.5185
1.544, -1, 4.68044, 15.432, 19.1152, 14.7559, 95.8773, -96.6549
1.548, -1, 4.58305, 15.3808, 19.1367, 14.7612, 95.8232, -96.7914
1.552, -1, 4.48568, 15.3296, 19.1582, 14.7666, 95.7691, -96.9278
1.556, -1, 4.38833, 15.2785, 19.1797, 14.7719, 95.715, -97.0642
1.56, -1, 4.29101, 15.2274, 19.2012, 14.7772, 95.6609, -97.2006
1.564, -1, 4.1937, 15.1762, 19.2226, 14.7825, 95.6068, -97.3369
1.568, -1, 4.09642, 15.1251, 19.2441, 14.7878, 95.5528, -97.4732
1.572, -1, 3.99917, 15.074, 19.2656, 14.7932, 95.4987, -97.6094
1.576, -1, 3.90194, 15.0229, 19.287, 14.7985, 95.4447, -97.7457
1.58, -1, 3.80473, 14.9718, 19.3085, 14.8038, 95.3907, -97.8818
1.584, -1, 3.70754, 14.9208, 19.3299, 14.8091, 95.3367, -98.018
1.588, -1, 3.61038, 14.8697, 19.3514, 14.8144, 95.2827, -98.1541
1.592, -1, 3.51324, 14.8187, 19.3728, 14.8197, 95.2287, -98.2902
1.596, -1, 3.41612, 14.7677, 19.3942, 14.825, 95.1748, -98.4263
1.6, -1, 3.31903, 14.7166, 19.4157, 14.8303, 95.1208, -98.5623
1.604, -1, 3.22196, 14.6656, 19.4371, 14.8357, 95.0669, -98.6983
1.608, -1, 3.12491, 14.6146, 19.4585, 14.841, 95.013, -98.8343
1.612, -1, 3.02789, 14.5637, 19.4799, 14.8463, 94.9591, -98.9702
1.616, -1, 2.9309, 14.5127, 19.5013, 14.8516, 94.9052, -99.1061
1.62, -1, 2.83392, 14.4617, 19.5227, 14.8569, 94.8513, -99.242
1.624, -1, 2.73697, 14.4108, 19.5441, 14.8622, 94.7974, -99.3778
1.628, -1, 2.64005, 14.3599, 19.5655, 14.8675, 94.7436, -99.5136
1.632, -1, 2.54314, 14.309, 19.5869, 14.8728, 94.6897, -99.6493
1.636, -1, 2.44627, 14.258, 19.6083, 14.8781, 94.6359, -99.7851
1.64, -1, 2.34941, 14.2072, 19.6296, 14.8833, 94.5821, -99.9207
1.644, -1, 2.25258, 14.1563, 19.651, 14.8886, 94.5283, -100.056
1.648, -1, 2.15578, 14.1054, 19.6724, 14.8939, 94.4745, -100.192
1.652, -1, 2.059, 14.0546, 19.6937, 14.8992, 94.4207, -100.328
1.656, -1, 1.96224, 14.0037, 19.7151, 14.9045, 94.3669, -100.463
1.66, -1, 1.86551, 13.9529, 19.7364, 14.9098, 94.3132, -100.599
1.664, -1, 1.7688, 13.9021, 19.7578, 14.9151, 94.2595, -100.734
1.668, -1, 1.67212, 13.8513, 19.7791, 14.9204, 94.2058, -100.87
1.672, -1, 1.57546, 13.8005, 19.8005, 14.9257, 94.152, -101.005
1.676, -1, 1.47883, 13.7497, 19.8218, 14.9309, 94.0984, -101.14
1.68, -1, 1.38222, 13.699, 19.8431, 14.9362, 94.0447, -101.276
1.684, -1, 1.28564, 13.6482, 19.8644, 14.9415, 93.991, -101.411
1.688, -1, 1.18908, 13.5975, 19.8857, 14.9468, 93.9374, -101.546
1.692, -1, 1.09255, 13.5468, 19.907, 14.9521, 93.8837, -101.682
1.696, -1, 0.996044, 13.496, 19.9283, 14.9573, 93.8301, -101.817
1.7, -1, 0.899561, 13.4454, 19.9496, 14.9626, 93.7765, -101.952
1.704, -1, 0.803103, 13.3947, 19.9709, 14.9679, 93.7229, -102.087
1.708, -1, 0.706671, 13.344, 19.9922, 14.9732, 93.6693, -102.222
1.712, -1, 0.610263, 13.2933, 20.0135, 14.9784, 93.6157, -102.357
1.716, -1, 0.513881, 13.2427, 20.0347, 14.9837, 93.5622, -102.492
1.72, -1, 0.417525, 13.1921, 20.056, 14.989, 93.5087, -102.627
1.724, -1, 0.321193, 13.1415, 20.0773, 14.9942, 93.4551, -102.762
1.728, -1, 0.224887, 13.0909, 20.0985, 14.9995, 93.4016, -102.897
1.732, -1, 0.128607, 13.0403, 20.1198, 15.0048, 93.3481, -103.032
1.736, -1, 0.0323521, 12.9897, 20.141, 15.01, 93.2946, -103.167
1.74, -1, -0.0638772, 12.9391, 20.1622, 15.0153, 93.2412, -103.302
1.744, -1, -0.160081, 12.8886, 20.1835, 15.0205, 93.1877, -103.437
1.748, -1, -0.256259, 12.838, 20.2047, 15.0258, 93.1343, -103.571
1.752, -1, -0.352411, 12.7875, 20.2259, 15.031, 93.0808, -103.706
1.756, -1, -0.448537, 12.737, 20.2471, 15.0363, 93.0274, -103.841
1.76, -1, -0.544638, 12.6865, 20.2683, 15.0416, 92.974, -103.975
1.764, -1, -0.640712, 12.636, 20.2895, 15.0468, 92.9207, -104.11
1.768, -1, -0.73676, 12.5856, 20.3107, 15.0521, 92.8673, -104.244
1.772, -1, -0.832783, 12.5351, 20.3319, 15.0573, 92.8139, -104.379
1.776, -1, -0.928779, 12.4847, 20.3531, 15.0626, 92.7606, -104.513
1.78, -1, -1.02475, 12.4342, 20.3743, 15.0678, 92.7073, -104.648
1.784, -1, -1.12069, 12.3838, 20.3955, 15.073, 92.654, -104.782
1.788, -1, -1.21661, 12.3334, 20.4166, 15.0783, 92.6007, -104.917
1.792, -1, -1.3125, 12.2831, 20.4378, 15.0835, 92.5474, -105.051
1.796, -1, -1.40837, 12.2327, 20.459, 15.0888, 92.4941, -105.185
1.8, -1, -1.50421, 12.1823, 20.4801, 15.094, 92.4409, -105.32
1.804, -1, -1.60002, 12.132, 20.5012, 15.0992, 92.3876, -105.454
1.808, -1, -1.6958, 12.0817, 20.5224, 15.1045, 92.3344, -105.588
1.812, -1, -1.79156, 12.0313, 20.5435, 15.1097, 92.2812, -105.722
1.816, -1, -1.8873, 11.981, 20.5646, 15.115, 92.228, -105.856
1.82, -1, -1.983, 11.9307, 20.5858, 15.1202, 92.1748, -105.99
1.824, -1, -2.07868, 11.8805, 20.6069, 15.1254, 92.1217, -106.124
1.828, -1, -2.17433, 11.8302, 20.628, 15.1306, 92.0685, -106.258
1.832, -1, -2.26996, 11.78, 20.6491, 15.1359, 92.0154, -106.392
1.836, -1, -2.36556, 11.7297, 20.6702, 15.1411, 91.9623, -106.526
1.84, -1, -2.46113, 11.6795, 20.6913, 15.1463, 91.9092, -106.66
1.844, -1, -2.55667, 11.6293, 20.7124, 15.1515, 91.8561, -106.794
1.848, -1, -2.65219, 11.5791, 20.7334, 15.1568, 91.803, -106.928
1.852, -1, -2.74768, 11.529, 20.7545, 15.162, 91.75, -107.062
1.856, -1, -2.84315, 11.4788, 20.7756, 15.1672, 91.6969, -107.195
1.86, -1, -2.93858, 11.4287, 20.7966, 15.1724, 91.6439, -107.329
1.864, -1, -3.03399, 11.3785, 20.8177, 15.1776, 91.5909, -107.463
1.868, -1, -3.12937, 11.3284, 20.8388, 15.1828, 91.5379, -107.596
1.872, -1, -3.22473, 11.2783, 20.8598, 15.1881, 91.4849, -107.73
1.876, -1, -3.32005, 11.2282, 20.8808, 15.1933, 91.4319, -107.864
1.88, -1, -3.41535, 11.1781, 20.9019, 15.1985, 91.379, -107.997
1.884, -1, -3.51063, 11.1281, 20.9229, 15.2037, 91.326, -108.131
1.888, -1, -3.60587, 11.078, 20.9439, 15.2089, 91.2731, -108.264
1.892, -1, -3.70109, 11.028, 20.9649, 15.2141, 91.2202, -108.397
1.896, -1, -3.79628, 10.978, 20.9859, 15.2193, 91.1673, -108.531
1.9, -1, -3.89144, 10.928, 21.0069, 15.2245, 91.1144, -108.664
1.904, -1, -3.98657, 10.878, 21.0279, 15.2297, 91.0616, -108.797
1.908, -1, -4.08168, 10.828, 21.0489, 15.2349, 91.0088, -108.931
1.912, -1, -4.17675, 10.7781, 21.0699, 15.2401, 90.9559, -109.064
1.916, -1, -4.2718, 10.7281, 21.0909, 15.2453, 90.9031, -109.197
1.92, -1, -4.36683, 10.6782, 21.1118, 15.2505, 90.8503, -109.33
1.924, -1, -4.46182, 10.6283, 21.1328, 15.2557, 90.7975, -109.463
1.928, -1, -4.55679, 10.5784, 21.1538, 15.2609, 90.7448, -109.596
1.932, -1, -4.65172, 10.5285, 21.1747, 15.2661, 90.692, -109.729
1.936, -1, -4.74663, 10.4786, 21.1957, 15.2713, 90.6393, -109.862
1.94, -1, -4.84152, 10.4288, 21.2166, 15.2764, 90.5866, -109.995
1.944, -1, -4.93637, 10.379, 21.2375, 15.2816, 90.5339, -110.128
1.948, -1, -5.03119, 10.3291, 21.2585, 15.2868, 90.4812, -110.261
1.952, -1, -5.12599, 10.2793, 21.2794, 15.292, 90.4285, -110.394
1.956, -1, -5.22076, 10.2295, 21.3003, 15.2972, 90.3758, -110.526
1.96, -1, -5.3155, 10.1797, 21.3212, 15.3024, 90.3232, -110.659
1.964, -1, -5.41021, 10.13, 21.3421, 15.3075, 90.2706, -110.792
1.968, -1, -5.50489, 10.0802, 21.363, 15.3127, 90.218, -110.925
1.972, -1, -5.59955, 10.0305, 21.3839, 15.3179, 90.1654, -111.057
1.976, -1, -5.69418, 9.98077, 21.4048, 15.3231, 90.1128, -111.19
1.98, -1, -5.78878, 9.93107, 21.4256, 15.3282, 90.0602, -111.322
1.984, -1, -5.88335, 9.88138, 21.4465, 15.3334, 90.0077, -111.455
1.988, -1, -5.97789, 9.83171, 21.4674, 15.3386, 89.9552, -111.587
1.992, -1, -6.0724, 9.78205, 21.4882, 15.3437, 89.9027, -111.72
1.996, -1, -6.16689, 9.7324, 21.5091, 15.3489, 89.8502, -111.852
1.999, -1, -6.26134, 9.68277, 21.5299, 15.3541, 89.7977, -111.984
2.004, -1, -6.35577, 9.63316, 21.5508, 15.3592, 89.7452, -112.117
2.008, -1, -6.45017, 9.58356, 21.5716, 15.3644, 89.6928, -112.249
2.012, -1, -6.54454, 9.53397, 21.5924, 15.3695, 89.6403, -112.381
2.015, -1, -6.63889, 9.4844, 21.6133, 15.3747, 89.5879, -112.513
2.019, -1, -6.7332, 9.43485, 21.6341, 15.3799, 89.5355, -112.645
2.024, -1, -6.82748, 9.38531, 21.6549, 15.385, 89.4831, -112.777
2.028, -1, -6.92174, 9.33578, 21.6757, 15.3902, 89.4307, -112.909
2.031, -1, -7.01597, 9.28627, 21.6965, 15.3953, 89.3784, -113.041
2.036, -1, -7.11017, 9.23678, 21.7173, 15.4005, 89.326, -113.173
2.04, -1, -7.20434, 9.1873, 21.738, 15.4056, 89.2737, -113.305
2.044, -1, -7.29848, 9.13783, 21.7588, 15.4108, 89.2214, -113.437
2.048, -1, -7.3926, 9.08838, 21.7796, 15.4159, 89.1691, -113.569
2.051, -1, -7.48668, 9.03895, 21.8003, 15.421, 89.1168, -113.701
2.055, -1, -7.58074, 8.98953, 21.8211, 15.4262, 89.0646, -113.833
2.06, -1, -7.67477, 8.94012, 21.8419, 15.4313, 89.0123, -113.964
2.064, -1, -7.76877, 8.89073, 21.8626, 15.4365, 88.9601, -114.096
2.068, -1, -7.86274, 8.84136, 21.8833, 15.4416, 88.9079, -114.228
2.071, -1, -7.95668, 8.792, 21.9041, 15.4467, 88.8557, -114.359
2.076, -1, -8.05059, 8.74265, 21.9248, 15.4519, 88.8035, -114.491
2.08, -1, -8.14448, 8.69332, 21.9455, 15.457, 88.7514, -114.622
2.084, -1, -8.23834, 8.64401, 21.9662, 15.4621, 88.6992, -114.754
2.087, -1, -8.33216, 8.59471, 21.9869, 15.4673, 88.6471, -114.885
2.092, -1, -8.42596, 8.54542, 22.0076, 15.4724, 88.595, -115.017
2.096, -1, -8.51973, 8.49616, 22.0283, 15.4775, 88.5429, -115.148
2.1, -1, -8.61347, 8.4469, 22.049, 15.4826, 88.4908, -115.28
2.104, -1, -8.70719, 8.39766, 22.0697, 15.4878, 88.4387, -115.411
2.107, -1, -8.80087, 8.34844, 22.0904, 15.4929, 88.3867, -115.542
2.111, -1, -8.89453, 8.29923, 22.111, 15.498, 88.3346, -115.673
2.116, -1, -8.98815, 8.25004, 22.1317, 15.5031, 88.2826, -115.804
2.12, -1, -9.08175, 8.20086, 22.1523, 15.5082, 88.2306, -115.936
2.124, -1, -9.17532, 8.15169, 22.173, 15.5133, 88.1786, -116.067
2.127, -1, -9.26886, 8.10254, 22.1936, 15.5185, 88.1266, -116.198
2.132, -1, -9.36237, 8.05341, 22.2143, 15.5236, 88.0747, -116.329
2.136, -1, -9.45585, 8.00429, 22.2349, 15.5287, 88.0227, -116.46
2.14, -1, -9.5493, 7.95519, 22.2555, 15.5338, 87.9708, -116.591
2.143, -1, -9.64273, 7.9061, 22.2761, 15.5389, 87.9189, -116.721
2.148, -1, -9.73612, 7.85703, 22.2968, 15.544, 87.867, -116.852
2.152, -1, -9.82949, 7.80797, 22.3174, 15.5491, 87.8151, -116.983
2.156, -1, -9.92283, 7.75893, 22.338, 15.5542, 87.7633, -117.114
2.16, -1, -10.0161, 7.70991, 22.3586, 15.5593, 87.7114, -117.245
2.163, -1, -10.1094, 7.66089, 22.3791, 15.5644, 87.6596, -117.375
2.168, -1, -10.2027, 7.6119, 22.3997, 15.5695, 87.6078, -117.506
2.172, -1, -10.2959, 7.56292, 22.4203, 15.5746, 87.556, -117.637
2.176, -1, -10.3891, 7.51395, 22.4409, 15.5797, 87.5042, -117.767
2.179, -1, -10.4822, 7.465, 22.4614, 15.5848, 87.4524, -117.898
2.184, -1, -10.5754, 7.41607, 22.482, 15.5899, 87.4007, -118.028
2.188, -1, -10.6685, 7.36715, 22.5025, 15.595, 87.349, -118.159
2.192, -1, -10.7616, 7.31824, 22.5231, 15.6001, 87.2972, -118.289
2.196, -1, -10.8546, 7.26935, 22.5436, 15.6051, 87.2455, -118.419
2.199, -1, -10.9476, 7.22048, 22.5641, 15.6102, 87.1939, -118.55
2.204, -1, -11.0406, 7.17162, 22.5846, 15.6153, 87.1422, -118.68
2.208, -1, -11.1336, 7.12278, 22.6052, 15.6204, 87.0906, -118.81
2.212, -1, -11.2265, 7.07395, 22.6257, 15.6255, 87.0389, -118.94
2.216, -1, -11.3194, 7.02514, 22.6462, 15.6306, 86.9873, -119.07
2.219, -1, -11.4123, 6.97634, 22.6667, 15.6356, 86.9357, -119.201
2.224, -1, -11.5051, 6.92756, 22.6871, 15.6407, 86.8841, -119.331
2.228, -1, -11.5979, 6.87879, 22.7076, 15.6458, 86.8325, -119.461
2.232, -1, -11.6907, 6.83004, 22.7281, 15.6508, 86.781, -119.591
2.235, -1, -11.7835, 6.7813, 22.7486, 15.6559, 86.7295, -119.721
2.24, -1, -11.8762, 6.73258, 22.769, 15.661, 86.6779, -119.85
2.244, -1, -11.9689, 6.68388, 22.7895, 15.6661, 86.6264, -119.98
2.248, -1, -12.0616, 6.63519, 22.8099, 15.6711, 86.5749, -120.11
2.252, -1, -12.1542, 6.58651, 22.8304, 15.6762, 86.5235, -120.24
2.255, -1, -12.2468, 6.53786, 22.8508, 15.6812, 86.472, -120.37
2.259, -1, -12.3394, 6.48921, 22.8713, 15.6863, 86.4206, -120.499
2.264, -1, -12.4319, 6.44058, 22.8917, 15.6914, 86.3691, -120.629
2.268, -1, -12.5244, 6.39197, 22.9121, 15.6964, 86.3177, -120.759
2.272, -1, -12.6169, 6.34337, 22.9325, 15.7015, 86.2664, -120.888
2.275, -1, -12.7094, 6.29479, 22.9529, 15.7065, 86.215, -121.018
2.28, -1, -12.8018, 6.24623, 22.9733, 15.7116, 86.1636, -121.147
2.284, -1, -12.8942, 6.19768, 22.9937, 15.7166, 86.1123, -121.277
2.288, -1, -12.9866, 6.14914, 23.0141, 15.7217, 86.061, -121.406
2.291, -1, -13.079, 6.10062, 23.0345, 15.7267, 86.0097, -121.535
2.296, -1, -13.1713, 6.05212, 23.0548, 15.7318, 85.9584, -121.665
2.3, -1, -13.2636, 6.00363, 23.0752, 15.7368, 85.9071, -121.794
2.304, -1, -13.3558, 5.95515, 23.0956, 15.7419, 85.8558, -121.923
2.308, -1, -13.448, 5.9067, 23.1159, 15.7469, 85.8046, -122.053
2.311, -1, -13.5402, 5.85825, 23.1363, 15.752, 85.7534, -122.182
2.316, -1, -13.6324, 5.80983, 23.1566, 15.757, 85.7021, -122.311
2.32, -1, -13.7245, 5.76142, 23.1769, 15.762, 85.651, -122.44
2.324, -1, -13.8167, 5.71302, 23.1973, 15.7671, 85.5998, -122.569
2.328, -1, -13.9087, 5.66464, 23.2176, 15.7721, 85.5486, -122.698
2.331, -1, -14.0008, 5.61627, 23.2379, 15.7771, 85.4975, -122.827
2.336, -1, -14.0928, 5.56792, 23.2582, 15.7822, 85.4463, -122.956
2.34, -1, -14.1848, 5.51959, 23.2785, 15.7872, 85.3952, -123.085
2.344, -1, -14.2768, 5.47127, 23.2988, 15.7922, 85.3441, -123.214
2.347, -1, -14.3687, 5.42296, 23.3191, 15.7972, 85.2931, -123.342
2.352, -1, -14.4606, 5.37468, 23.3394, 15.8023, 85.242, -123.471
2.356, -1, -14.5525, 5.3264, 23.3596, 15.8073, 85.1909, -123.6
2.36, -1, -14.6443, 5.27814, 23.3799, 15.8123, 85.1399, -123.728
2.364, -1, -14.7361, 5.2299, 23.4002, 15.8173, 85.0889, -123.857
2.367, -1, -14.8279, 5.18167, 23.4204, 15.8223, 85.0379, -123.986
2.372, -1, -14.9197, 5.13346, 23.4407, 15.8274, 84.9869, -124.114
2.376, -1, -15.0114, 5.08527, 23.4609, 15.8324, 84.9359, -124.243
2.38, -1, -15.1031, 5.03708, 23.4812, 15.8374, 84.885, -124.371
2.383, -1, -15.1948, 4.98892, 23.5014, 15.8424, 84.8341, -124.5
2.388, -1, -15.2864, 4.94076, 23.5216, 15.8474, 84.7831, -124.628
2.392, -1, -15.3781, 4.89263, 23.5418, 15.8524, 84.7322, -124.756
2.396, -1, -15.4696, 4.84451, 23.562, 15.8574, 84.6814, -124.885
2.4, -1, -15.5612, 4.7964, 23.5822, 15.8624, 84.6305, -125.013
2.403, -1, -15.6527, 4.74831, 23.6024, 15.8674, 84.5796, -125.141
2.408, -1, -15.7442, 4.70023, 23.6226, 15.8724, 84.5288, -125.269
2.412, -1, -15.8357, 4.65217, 23.6428, 15.8774, 84.478, -125.397
2.416, -1, -15.9271, 4.60413, 23.663, 15.8824, 84.4272, -125.526
2.42, -1, -16.0186, 4.5561, 23.6832, 15.8874, 84.3764, -125.654
2.423, -1, -16.1099, 4.50808, 23.7033, 15.8924, 84.3256, -125.782
2.428, -1, -16.2013, 4.46008, 23.7235, 15.8974, 84.2748, -125.91
2.432, -1, -16.2926, 4.4121, 23.7437, 15.9024, 84.2241, -126.038
2.436, -1, -16.3839, 4.36413, 23.7638, 15.9074, 84.1734, -126.166
2.439, -1, -16.4752, 4.31617, 23.7839, 15.9124, 84.1227, -126.293
2.444, -1, -16.5664, 4.26823, 23.8041, 15.9174, 84.072, -126.421
2.448, -1, -16.6576, 4.22031, 23.8242, 15.9224, 84.0213, -126.549
2.452, -1, -16.7488, 4.1724, 23.8443, 15.9273, 83.9706, -126.677
2.456, -1, -16.84, 4.1245, 23.8644, 15.9323, 83.92, -126.804
2.459, -1, -16.9311, 4.07662, 23.8846, 15.9373, 83.8693, -126.932
2.464, -1, -17.0222, 4.02876, 23.9047, 15.9423, 83.8187, -127.06
2.468, -1, -17.1133, 3.98091, 23.9248, 15.9473, 83.7681, -127.187
2.472, -1, -17.2043, 3.93307, 23.9449, 15.9522, 83.7176, -127.315
2.476, -1, -17.2953, 3.88525, 23.9649, 15.9572, 83.667, -127.442
2.479, -1, -17.3863, 3.83745, 23.985, 15.9622, 83.6164, -127.57
2.484, -1, -17.4773, 3.78966, 24.0051, 15.9672, 83.5659, -127.697
2.488, -1, -17.5682, 3.74188, 24.0252, 15.9721, 83.5154, -127.825
2.492, -1, -17.6591, 3.69413, 24.0452, 15.9771, 83.4649, -127.952
2.495, -1, -17.75, 3.64638, 24.0653, 15.9821, 83.4144, -128.079
2.5, -1, -17.8408, 3.59865, 24.0853, 15.987, 83.3639, -128.207
2.504, -1, -17.9316, 3.55094, 24.1054, 15.992, 83.3134, -128.334
2.508, -1, -18.0224, 3.50323, 24.1254, 15.997, 83.263, -128.461
2.512, -1, -18.1132, 3.45555, 24.1454, 16.0019, 83.2126, -128.588
2.515, -1, -18.2039, 3.40788, 24.1654, 16.0069, 83.1622, -128.715
2.52, -1, -18.2946, 3.36022, 24.1855, 16.0118, 83.1118, -128.842
2.524, -1, -18.3852, 3.31258, 24.2055, 16.0168, 83.0614, -128.969
2.528, -1, -18.4759, 3.26495, 24.2255, 16.0218, 83.011, -129.096
2.531, -1, -18.5665, 3.21734, 24.2455, 16.0267, 82.9607, -129.223
2.536, -1, -18.6571, 3.16974, 24.2655, 16.0317, 82.9104, -129.35
2.54, -1, -18.7476, 3.12216, 24.2854, 16.0366, 82.86, -129.477
2.544, -1, -18.8382, 3.0746, 24.3054, 16.0416, 82.8097, -129.604
2.548, -1, -18.9287, 3.02705, 24.3254, 16.0465, 82.7595, -129.731
2.551, -1, -19.0191, 2.97951, 24.3454, 16.0514, 82.7092, -129.857
2.556, -1, -19.1096, 2.93199, 24.3653, 16.0564, 82.6589, -129.984
2.56, -1, -19.2, 2.88449, 24.3853, 16.0613, 82.6087, -130.111
2.564, -1, -19.2904, 2.837, 24.4052, 16.0663, 82.5585, -130.237
2.568, -1, -19.3808, 2.78952, 24.4251, 16.0712, 82.5083, -130.364
2.571, -1, -19.4711, 2.74206, 24.4451, 16.0762, 82.4581, -130.49
2.576, -1, -19.5614, 2.69461, 24.465, 16.0811, 82.4079, -130.617
2.58, -1, -19.6517, 2.64718, 24.4849, 16.086, 82.3578, -130.743
2.584, -1, -19.7419, 2.59976, 24.5048, 16.091, 82.3076, -130.87
2.587, -1, -19.8321, 2.55236, 24.5248, 16.0959, 82.2575, -130.996
2.592, -1, -19.9223, 2.50497, 24.5447, 16.1008, 82.2074, -131.123
2.596, -1, -20.0125, 2.4576, 24.5646, 16.1057, 82.1573, -131.249
2.6, -1, -20.1026, 2.41024, 24.5844, 16.1107, 82.1072, -131.375
2.604, -1, -20.1927, 2.3629, 24.6043, 16.1156, 82.0571, -131.501
2.607, -1, -20.2828, 2.31557, 24.6242, 16.1205, 82.0071, -131.628
2.612, -1, -20.3728, 2.26826, 24.6441, 16.1254, 81.9571, -131.754
2.616, -1, -20.4629, 2.22096, 24.6639, 16.1304, 81.9071, -131.88
2.62, -1, -20.5528, 2.17367, 24.6838, 16.1353, 81.857, -132.006
2.624, -1, -20.6428, 2.1264, 24.7037, 16.1402, 81.8071, -132.132
2.627, -1, -20.7327, 2.07915, 24.7235, 16.1451, 81.7571, -132.258
2.632, -1, -20.8227, 2.03191, 24.7434, 16.15, 81.7071, -132.384
2.636, -1, -20.9125, 1.98468, 24.7632, 16.1549, 81.6572, -132.51
2.64, -1, -21.0024, 1.93747, 24.783, 16.1599, 81.6073, -132.636
2.643, -1, -21.0922, 1.89028, 24.8028, 16.1648, 81.5574, -132.762
2.648, -1, -21.182, 1.8431, 24.8227, 16.1697, 81.5075, -132.887
2.652, -1, -21.2718, 1.79593, 24.8425, 16.1746, 81.4576, -133.013
2.656, -1, -21.3615, 1.74878, 24.8623, 16.1795, 81.4077, -133.139
2.66, -1, -21.4512, 1.70164, 24.8821, 16.1844, 81.3579, -133.265
2.663, -1, -21.5409, 1.65452, 24.9019, 16.1893, 81.3081, -133.39
2.668, -1, -21.6306, 1.60741, 24.9216, 16.1942, 81.2582, -133.516
2.672, -1, -21.7202, 1.56032, 24.9414, 16.1991, 81.2085, -133.641
2.676, -1, -21.8098, 1.51324, 24.9612, 16.204, 81.1587, -133.767
2.679, -1, -21.8994, 1.46618, 24.981, 16.2089, 81.1089, -133.892
2.684, -1, -21.9889, 1.41913, 25.0007, 16.2138, 81.0591, -134.018
2.688, -1, -22.0784, 1.37209, 25.0205, 16.2187, 81.0094, -134.143
2.692, -1, -22.1679, 1.32508, 25.0402, 16.2236, 80.9597, -134.269
2.696, -1, -22.2574, 1.27807, 25.06, 16.2285, 80.91, -134.394
2.699, -1, -22.3468, 1.23108, 25.0797, 16.2333, 80.8603, -134.519
2.704, -1, -22.4362, 1.1841, 25.0994, 16.2382, 80.8106, -134.644
2.708, -1, -22.5256, 1.13714, 25.1192, 16.2431, 80.761, -134.77
2.712, -1, -22.615, 1.09019, 25.1389, 16.248, 80.7113, -134.895
2.716, -1, -22.7043, 1.04326, 25.1586, 16.2529, 80.6617, -135.02
2.719, -1, -22.7936, 0.996339, 25.1783, 16.2578, 80.6121, -135.145
2.724, -1, -22.8829, 0.949434, 25.198, 16.2626, 80.5625, -135.27
2.728, -1, -22.9721, 0.902543, 25.2177, 16.2675, 80.5129, -135.395
2.732, -1, -23.0613, 0.855667, 25.2374, 16.2724, 80.4633, -135.52
2.735, -1, -23.1505, 0.808805, 25.2571, 16.2773, 80.4137, -135.645
2.74, -1, -23.2397, 0.761957, 25.2767, 16.2822, 80.3642, -135.77
2.744, -1, -23.3288, 0.715123, 25.2964, 16.287, 80.3147, -135.895
2.748, -1, -23.4179, 0.668303, 25.3161, 16.2919, 80.2652, -136.02
2.752, -1, -23.507, 0.621497, 25.3357, 16.2968, 80.2157, -136.145
2.755, -1, -23.596, 0.574705, 25.3554, 16.3016, 80.1662, -136.269
2.76, -1, -23.6851, 0.527928, 25.375, 16.3065, 80.1167, -136.394
2.764, -1, -23.7741, 0.481164, 25.3947, 16.3114, 80.0673, -136.519
2.768, -1, -23.8631, 0.434414, 25.4143, 16.3162, 80.0178, -136.643
2.772, -1, -23.952, 0.387679, 25.4339, 16.3211, 79.9684, -136.768
2.775, -1, -24.0409, 0.340957, 25.4536, 16.326, 79.919, -136.893
2.78, -1, -24.1298, 0.29425, 25.4732, 16.3308, 79.8696, -137.017
2.784, -1, -24.2187, 0.247556, 25.4928, 16.3357, 79.8203, -137.142
2.788, -1, -24.3075, 0.200876, 25.5124, 16.3405, 79.7709, -137.266
2.791, -1, -24.3963, 0.15421, 25.532, 16.3454, 79.7215, -137.39
2.796, -1, -24.4851, 0.107558, 25.5516, 16.3502, 79.6722, -137.515
2.8, -1, -24.5739, 0.0609201, 25.5712, 16.3551, 79.6229, -137.639
2.804, -1, -24.6626, 0.0142959, 25.5908, 16.3599, 79.5736, -137.764
2.808, -1, -24.7513, -0.0323145, 25.6103, 16.3648, 79.5243, -137.888
2.811, -1, -24.84, -0.0789111, 25.6299, 16.3696, 79.475, -138.012
2.816, -1, -24.9287, -0.125494, 25.6495, 16.3745, 79.4258, -138.136
2.82, -1, -25.0173, -0.172063, 25.669, 16.3793, 79.3765, -138.26
2.824, -1, -25.1059, -0.218618, 25.6886, 16.3842, 79.3273, -138.385
2.828, -1, -25.1945, -0.265159, 25.7081, 16.389, 79.2781, -138.509
2.831, -1, -25.2831, -0.311687, 25.7277, 16.3939, 79.2289, -138.633
2.836, -1, -25.3716, -0.358201, 25.7472, 16.3987, 79.1797, -138.757
2.84, -1, -25.4601, -0.404701, 25.7667, 16.4035, 79.1305, -138.881
2.844, -1, -25.5485, -0.451187, 25.7863, 16.4084, 79.0814, -139.005
2.847, -1, -25.637, -0.49766, 25.8058, 16.4132, 79.0322, -139.129
2.852, -1, -25.7254, -0.544119, 25.8253, 16.418, 78.9831, -139.252
2.856, -1, -25.8138, -0.590564, 25.8448, 16.4229, 78.934, -139.376
2.86, -1, -25.9022, -0.636996, 25.8643, 16.4277, 78.8849, -139.5
2.864, -1, -25.9905, -0.683414, 25.8838, 16.4325, 78.8358, -139.624
2.867, -1, -26.0788, -0.729819, 25.9033, 16.4374, 78.7867, -139.748
2.872, -1, -26.1671, -0.77621, 25.9228, 16.4422, 78.7377, -139.871
2.876, -1, -26.2554, -0.822587, 25.9423, 16.447, 78.6886, -139.995
2.88, -1, -26.3436, -0.868951, 25.9617, 16.4518, 78.6396, -140.119
2.883, -1, -26.4319, -0.915301, 25.9812, 16.4566, 78.5906, -140.242
2.888, -1, -26.5201, -0.961637, 26.0007, 16.4615, 78.5416, -140.366
2.892, -1, -26.6082, -1.00796, 26.0201, 16.4663, 78.4926, -140.489
2.896, -1, -26.6964, -1.05427, 26.0396, 16.4711, 78.4436, -140.613
2.9, -1, -26.7845, -1.10057, 26.059, 16.4759, 78.3947, -140.736
2.903, -1, -26.8725, -1.14685, 26.0785, 16.4807, 78.3457, -140.86
2.908, -1, -26.9606, -1.19312, 26.0979, 16.4856, 78.2968, -140.983
2.912, -1, -27.0486, -1.23937, 26.1173, 16.4904, 78.2479, -141.106
2.916, -1, -27.1367, -1.28562, 26.1367, 16.4952, 78.199, -141.23
2.92, -1, -27.2246, -1.33184, 26.1562, 16.5, 78.1501, -141.353
2.923, -1, -27.3126, -1.37806, 26.1756, 16.5048, 78.1012, -141.476
2.928, -1, -27.4005, -1.42426, 26.195, 16.5096, 78.0524, -141.599
2.932, -1, -27.4884, -1.47045, 26.2144, 16.5144, 78.0035, -141.722
2.936, -1, -27.5763, -1.51663, 26.2338, 16.5192, 77.9547, -141.845
2.939, -1, -27.6642, -1.56279, 26.2532, 16.524, 77.9059, -141.969
2.944, -1, -27.752, -1.60894, 26.2725, 16.5288, 77.8571, -142.092
2.948, -1, -27.8398, -1.65507, 26.2919, 16.5336, 77.8083, -142.215
2.952, -1, -27.9276, -1.70119, 26.3113, 16.5384, 77.7595, -142.338
2.956, -1, -28.0153, -1.7473, 26.3307, 16.5432, 77.7108, -142.46
2.959, -1, -28.1031, -1.7934, 26.35, 16.548, 77.662, -142.583
2.964, -1, -28.1908, -1.83948, 26.3694, 16.5528, 77.6133, -142.706
2.968, -1, -28.2785, -1.88555, 26.3887, 16.5576, 77.5646, -142.829
2.972, -1, -28.3661, -1.9316, 26.4081, 16.5624, 77.5159, -142.952
2.976, -1, -28.4537, -1.97765, 26.4274, 16.5672, 77.4672, -143.075
2.98, -1, -28.5413, -2.02368, 26.4467, 16.572, 77.4185, -143.197
2.984, -1, -28.6289, -2.06969, 26.4661, 16.5767, 77.3699, -143.32
2.988, -1, -28.7165, -2.1157, 26.4854, 16.5815, 77.3212, -143.443
2.992, -1, -28.804, -2.16169, 26.5047, 16.5863, 77.2726, -143.565
2.995, -1, -28.8915, -2.20766, 26.524, 16.5911, 77.224, -143.688
3, -1, -28.979, -2.25363, 26.5433, 16.5959, 77.1754, -143.811
3.004, -1, -29.0664, -2.29958, 26.5626, 16.6007, 77.1268, -143.933
3.008, -1, -29.1539, -2.34551, 26.5819, 16.6054, 77.0782, -144.056
3.012, -1, -29.2413, -2.39144, 26.6012, 16.6102, 77.0296, -144.178
3.015, -1, -29.3286, -2.43735, 26.6205, 16.615, 76.9811, -144.3
3.02, -1, -29.416, -2.48325, 26.6398, 16.6198, 76.9325, -144.423
3.024, -1, -29.5033, -2.52913, 26.659, 16.6245, 76.884, -144.545
3.028, -1, -29.5906, -2.57501, 26.6783, 16.6293, 76.8355, -144.667
3.031, -1, -29.6779, -2.62087, 26.6976, 16.6341, 76.787, -144.79
3.036, -1, -29.7652, -2.66671, 26.7168, 16.6389, 76.7385, -144.912
3.04, -1, -29.8524, -2.71255, 26.7361, 16.6436, 76.6901, -145.034
3.044, -1, -29.9396, -2.75837, 26.7553, 16.6484, 76.6416, -145.156
3.048, -1, -30.0268, -2.80417, 26.7745, 16.6532, 76.5932, -145.278
3.051, -1, -30.1139, -2.84997, 26.7938, 16.6579, 76.5448, -145.401
3.056, -1, -30.2011, -2.89575, 26.813, 16.6627, 76.4963, -145.523
3.06, -1, -30.2882, -2.94152, 26.8322, 16.6674, 76.4479, -145.645
3.064, -1, -30.3753, -2.98727, 26.8514, 16.6722, 76.3996, -145.767
3.068, -1, -30.4623, -3.03302, 26.8707, 16.677, 76.3512, -145.889
3.071, -1, -30.5494, -3.07875, 26.8899, 16.6817, 76.3028, -146.011
3.076, -1, -30.6364, -3.12447, 26.9091, 16.6865, 76.2545, -146.132
3.08, -1, -30.7234, -3.17017, 26.9283, 16.6912, 76.2061, -146.254
3.084, -1, -30.8103, -3.21586, 26.9475, 16.696, 76.1578, -146.376
3.087, -1, -30.8973, -3.26154, 26.9666, 16.7007, 76.1095, -146.498
3.092, -1, -30.9842, -3.30721, 26.9858, 16.7055, 76.0612, -146.62
3.096, -1, -31.0711, -3.35287, 27.005, 16.7102, 76.013, -146.741
3.1, -1, -31.1579, -3.39851, 27.0242, 16.715, 75.9647, -146.863
3.104, -1, -31.2448, -3.44414, 27.0433, 16.7197, 75.9164, -146.985
3.107, -1, -31.3316, -3.48976, 27.0625, 16.7245, 75.8682, -147.106
3.112, -1, -31.4184, -3.53537, 27.0816, 16.7292, 75.82, -147.228
3.116, -1, -31.5052, -3.58096, 27.1008, 16.734, 75.7718, -147.35
3.12, -1, -31.5919, -3.62654, 27.1199, 16.7387, 75.7236, -147.471
3.124, -1, -31.6787, -3.67211, 27.1391, 16.7435, 75.6754, -147.593
3.128, -1, -31.7654, -3.71767, 27.1582, 16.7482, 75.6272, -147.714
3.132, -1, -31.8521, -3.76321, 27.1773, 16.7529, 75.579, -147.836
3.136, -1, -31.9387, -3.80874, 27.1965, 16.7577, 75.5309, -147.957
3.14, -1, -32.0253, -3.85426, 27.2156, 16.7624, 75.4827, -148.078
3.143, -1, -32.112, -3.89977, 27.2347, 16.7671, 75.4346, -148.2
3.148, -1, -32.1985, -3.94527, 27.2538, 16.7719, 75.3865, -148.321
3.152, -1, -32.2851, -3.99075, 27.2729, 16.7766, 75.3384, -148.442
3.156, -1, -32.3717, -4.03623, 27.292, 16.7813, 75.2903, -148.563
3.16, -1, -32.4582, -4.08169, 27.3111, 16.7861, 75.2423, -148.685
3.163, -1, -32.5447, -4.12713, 27.3302, 16.7908, 75.1942, -148.806
3.168, -1, -32.6311, -4.17257, 27.3493, 16.7955, 75.1462, -148.927
3.172, -1, -32.7176, -4.21799, 27.3684, 16.8002, 75.0981, -149.048
3.176, -1, -32.804, -4.26341, 27.3874, 16.805, 75.0501, -149.169
3.179, -1, -32.8904, -4.30881, 27.4065, 16.8097, 75.0021, -149.29
3.184, -1, -32.9768, -4.3542, 27.4256, 16.8144, 74.9541, -149.411
3.188, -1, -33.0632, -4.39957, 27.4446, 16.8191, 74.9061, -149.532
3.192, -1, -33.1495, -4.44494, 27.4637, 16.8239, 74.8581, -149.653
3.196, -1, -33.2358, -4.49029, 27.4827, 16.8286, 74.8102, -149.774
3.199, -1, -33.3221, -4.53563, 27.5018, 16.8333, 74.7622, -149.895
3.204, -1, -33.4084, -4.58096, 27.5208, 16.838, 74.7143, -150.016
3.208, -1, -33.4946, -4.62628, 27.5398, 16.8427, 74.6664, -150.137
3.212, -1, -33.5809, -4.67158, 27.5589, 16.8474, 74.6185, -150.257
3.216, -1, -33.6671, -4.71688, 27.5779, 16.8522, 74.5706, -150.378
3.22, -1, -33.7533, -4.76216, 27.5969, 16.8569, 74.5227, -150.499
3.224, -1, -33.8394, -4.80743, 27.6159, 16.8616, 74.4748, -150.62
3.228, -1, -33.9255, -4.85269, 27.6349, 16.8663, 74.427, -150.74
3.232, -1, -34.0117, -4.89793, 27.6539, 16.871, 74.3791, -150.861
3.235, -1, -34.0978, -4.94317, 27.6729, 16.8757, 74.3313, -150.982
3.24, -1, -34.1838, -4.98839, 27.6919, 16.8804, 74.2835, -151.102
3.244, -1, -34.2699, -5.0336, 27.7109, 16.8851, 74.2356, -151.223
3.248, -1, -34.3559, -5.0788, 27.7299, 16.8898, 74.1879, -151.343
3.252, -1, -34.4419, -5.12399, 27.7489, 16.8945, 74.1401, -151.464
3.255, -1, -34.5279, -5.16917, 27.7679, 16.8992, 74.0923, -151.584
3.26, -1, -34.6138, -5.21434, 27.7868, 16.9039, 74.0445, -151.705
3.264, -1, -34.6998, -5.25949, 27.8058, 16.9086, 73.9968, -151.825
3.268, -1, -34.7857, -5.30463, 27.8248, 16.9133, 73.9491, -151.945
3.272, -1, -34.8716, -5.34976, 27.8437, 16.918, 73.9013, -152.066
3.276, -1, -34.9575, -5.39488, 27.8627, 16.9227, 73.8536, -152.186
3.28, -1, -35.0433, -5.43999, 27.8816, 16.9274, 73.8059, -152.306
3.284, -1, -35.1291, -5.48509, 27.9006, 16.9321, 73.7582, -152.427
3.288, -1, -35.2149, -5.53017, 27.9195, 16.9368, 73.7105, -152.547
3.291, -1, -35.3007, -5.57525, 27.9384, 16.9415, 73.6629, -152.667
3.296, -1, -35.3865, -5.62031, 27.9573, 16.9461, 73.6152, -152.787
3.3, -1, -35.4722, -5.66536, 27.9763, 16.9508, 73.5676, -152.907
3.304, -1, -35.558, -5.7104, 27.9952, 16.9555, 73.52, -153.027
3.308, -1, -35.6437, -5.75543, 28.0141, 16.9602, 73.4724, -153.147
3.312, -1, -35.7293, -5.80045, 28.033, 16.9649, 73.4247, -153.267
3.316, -1, -35.815, -5.84545, 28.0519, 16.9696, 73.3772, -153.387
3.32, -1, -35.9006, -5.89045, 28.0708, 16.9742, 73.3296, -153.507
3.324, -1, -35.9862, -5.93543, 28.0897, 16.9789, 73.282, -153.627
3.328, -1, -36.0718, -5.98041, 28.1086, 16.9836, 73.2345, -153.747
3.332, -1, -36.1574, -6.02537, 28.1275, 16.9883, 73.1869, -153.867
3.336, -1, -36.2429, -6.07032, 28.1464, 16.993, 73.1394, -153.987
3.34, -1, -36.3285, -6.11526, 28.1652, 16.9976, 73.0919, -154.107
3.344, -1, -36.414, -6.16018, 28.1841, 17.0023, 73.0443, -154.227
3.347, -1, -36.4995, -6.2051, 28.203, 17.007, 72.9968, -154.346
3.352, -1, -36.5849, -6.25001, 28.2218, 17.0117, 72.9494, -154.466
3.356, -1, -36.6704, -6.2949, 28.2407, 17.0163, 72.9019, -154.586
3.36, -1, -36.7558, -6.33978, 28.2595, 17.021, 72.8544, -154.705
3.364, -1, -36.8412, -6.38466, 28.2784, 17.0257, 72.807, -154.825
3.368, -1, -36.9266, -6.42952, 28.2972, 17.0303, 72.7595, -154.945
3.372, -1, -37.0119, -6.47437, 28.3161, 17.035, 72.7121, -155.064
3.376, -1, -37.0973, -6.51921, 28.3349, 17.0397, 72.6647, -155.184
3.38, -1, -37.1826, -6.56404, 28.3537, 17.0443, 72.6173, -155.303
3.383, -1, -37.2679, -6.60885, 28.3725, 17.049, 72.5699, -155.423
3.388, -1, -37.3532, -6.65366, 28.3914, 17.0536, 72.5225, -155.542
3.392, -1, -37.4384, -6.69846, 28.4102, 17.0583, 72.4751, -155.662
3.396, -1, -37.5236, -6.74324, 28.429, 17.063, 72.4278, -155.781
3.4, -1, -37.6089, -6.78801, 28.4478, 17.0676, 72.3804, -155.901
3.403, -1, -37.6941, -6.83278, 28.4666, 17.0723, 72.3331, -156.02
3.408, -1, -37.7792, -6.87753, 28.4854, 17.0769, 72.2858, -156.139
3.412, -1, -37.8644, -6.92227, 28.5042, 17.0816, 72.2385, -156.258
3.416, -1, -37.9495, -6.967, 28.523, 17.0862, 72.1912, -156.378
3.42, -1, -38.0346, -7.01172, 28.5417, 17.0909, 72.1439, -156.497
3.424, -1, -38.1197, -7.05643, 28.5605, 17.0956, 72.0966, -156.616
3.428, -1, -38.2048, -7.10113, 28.5793, 17.1002, 72.0493, -156.735
3.432, -1, -38.2898, -7.14581, 28.5981, 17.1048, 72.0021, -156.855
3.436, -1, -38.3749, -7.19049, 28.6168, 17.1095, 71.9548, -156.974
3.439, -1, -38.4599, -7.23516, 28.6356, 17.1141, 71.9076, -157.093
3.444, -1, -38.5449, -7.27981, 28.6544, 17.1188, 71.8604, -157.212
3.448, -1, -38.6298, -7.32446, 28.6731, 17.1234, 71.8132, -157.331
3.452, -1, -38.7148, -7.3691, 28.6919, 17.1281, 71.766, -157.45
3.456, -1, -38.7997, -7.41372, 28.7106, 17.1327, 71.7188, -157.569
3.46, -1, -38.8846, -7.45833, 28.7293, 17.1374, 71.6716, -157.688
3.464, -1, -38.9695, -7.50294, 28.7481, 17.142, 71.6244, -157.807
3.468, -1, -39.0544, -7.54753, 28.7668, 17.1466, 71.5773, -157.926
3.472, -1, -39.1392, -7.59211, 28.7855, 17.1513, 71.5301, -158.044
3.476, -1, -39.2241, -7.63669, 28.8042, 17.1559, 71.483, -158.163
3.48, -1, -39.3089, -7.68125, 28.823, 17.1606, 71.4359, -158.282
3.484, -1, -39.3937, -7.7258, 28.8417, 17.1652, 71.3888, -158.401
3.488, -1, -39.4784, -7.77035, 28.8604, 17.1698, 71.3417, -158.52
3.492, -1, -39.5632, -7.81488, 28.8791, 17.1745, 71.2946, -158.638
3.495, -1, -39.6479, -7.8594, 28.8978, 17.1791, 71.2475, -158.757
3.5, -1, -39.7326, -7.90391, 28.9165, 17.1837, 71.2004, -158.876
3.504, -1, -39.8173, -7.94842, 28.9352, 17.1883, 71.1534, -158.994
3.508, -1, -39.902, -7.99291, 28.9539, 17.193, 71.1063, -159.113
3.512, -1, -39.9867, -8.03739, 28.9725, 17.1976, 71.0593, -159.232
3.516, -1, -40.0713, -8.08186, 28.9912, 17.2022, 71.0123, -159.35
3.52, -1, -40.1559, -8.12633, 29.0099, 17.2069, 70.9652, -159.469
3.524, -1, -40.2405, -8.17078, 29.0286, 17.2115, 70.9182, -159.587
3.528, -1, -40.3251, -8.21522, 29.0472, 17.2161, 70.8712, -159.706
3.531, -1, -40.4097, -8.25965, 29.0659, 17.2207, 70.8243, -159.824
3.536, -1, -40.4942, -8.30408, 29.0846, 17.2253, 70.7773, -159.943
3.54, -1, -40.5788, -8.34849, 29.1032, 17.23, 70.7303, -160.061
3.544, -1, -40.6633, -8.39289, 29.1219, 17.2346, 70.6834, -160.18
3.548, -1, -40.7478, -8.43729, 29.1405, 17.2392, 70.6364, -160.298
3.552, -1, -40.8322, -8.48167, 29.1591, 17.2438, 70.5895, -160.416
3.556, -1, -40.9167, -8.52605, 29.1778, 17.2484, 70.5426, -160.535
3.56, -1, -41.0011, -8.57041, 29.1964, 17.2531, 70.4956, -160.653
3.564, -1, -41.0855, -8.61477, 29.215, 17.2577, 70.4487, -160.771
3.568, -1, -41.1699, -8.65911, 29.2337, 17.2623, 70.4018, -160.889
3.572, -1, -41.2543, -8.70345, 29.2523, 17.2669, 70.355, -161.008
3.576, -1, -41.3387, -8.74777, 29.2709, 17.2715, 70.3081, -161.126
3.58, -1, -41.423, -8.79209, 29.2895, 17.2761, 70.2612, -161.244
3.584, -1, -41.5073, -8.8364, 29.3081, 17.2807, 70.2144, -161.362
3.587, -1, -41.5916, -8.8807, 29.3267, 17.2853, 70.1675, -161.48
3.592, -1, -41.6759, -8.92498, 29.3453, 17.2899, 70.1207, -161.598
3.596, -1, -41.7602, -8.96926, 29.3639, 17.2946, 70.0739, -161.716
3.6, -1, -41.8445, -9.01353, 29.3825, 17.2992, 70.0271, -161.834
3.604, -1, -41.9287, -9.05779, 29.4011, 17.3038, 69.9803, -161.952
3.608, -1, -42.0129, -9.10204, 29.4197, 17.3084, 69.9335, -162.07
3.612, -1, -42.0971, -9.14628, 29.4383, 17.313, 69.8867, -162.188
3.616, -1, -42.1813, -9.19051, 29.4569, 17.3176, 69.8399, -162.306
3.62, -1, -42.2654, -9.23473, 29.4754, 17.3222, 69.7932, -162.424
3.624, -1, -42.3496, -9.27895, 29.494, 17.3268, 69.7464, -162.542
3.628, -1, -42.4337, -9.32315, 29.5126, 17.3314, 69.6997, -162.66
3.632, -1, -42.5178, -9.36734, 29.5311, 17.336, 69.6529, -162.778
3.636, -1, -42.6019, -9.41153, 29.5497, 17.3406, 69.6062, -162.896
3.64, -1, -42.686, -9.4557, 29.5682, 17.3452, 69.5595, -163.013
3.644, -1, -42.77, -9.49987, 29.5868, 17.3498, 69.5128, -163.131
3.648, -1, -42.8541, -9.54403, 29.6053, 17.3543, 69.4661, -163.249
3.652, -1, -42.9381, -9.58817, 29.6239, 17.3589, 69.4194, -163.367
3.656, -1, -43.0221, -9.63231, 29.6424, 17.3635, 69.3727, -163.484
3.66, -1, -43.1061, -9.67644, 29.661, 17.3681, 69.3261, -163.602
3.664, -1, -43.1901, -9.72056, 29.6795, 17.3727, 69.2794, -163.72
3.668, -1, -43.274, -9.76467, 29.698, 17.3773, 69.2328, -163.837
3.672, -1, -43.3579, -9.80877, 29.7165, 17.3819, 69.1861, -163.955
3.676, -1, -43.4419, -9.85287, 29.7351, 17.3865, 69.1395, -164.072
3.679, -1, -43.5258, -9.89695, 29.7536, 17.3911, 69.0929, -164.19
3.684, -1, -43.6096, -9.94103, 29.7721, 17.3957, 69.0463, -164.307
3.688, -1, -43.6935, -9.98509, 29.7906, 17.4002, 68.9997, -164.425
3.692, -1, -43.7774, -10.0291, 29.8091, 17.4048, 68.9531, -164.542
3.696, -1, -43.8612, -10.0732, 29.8276, 17.4094, 68.9065, -164.66
3.7, -1, -43.945, -10.1172, 29.8461, 17.414, 68.86, -164.777
3.704, -1, -44.0288, -10.1613, 29.8646, 17.4186, 68.8134, -164.895
3.708, -1, -44.1126, -10.2053, 29.8831, 17.4231, 68.7668, -165.012
3.712, -1, -44.1963, -10.2493, 29.9016, 17.4277, 68.7203, -165.129
3.716, -1, -44.2801, -10.2933, 29.92, 17.4323, 68.6738, -165.247
3.72, -1, -44.3638, -10.3373, 29.9385, 17.4369, 68.6273, -165.364
3.724, -1, -44.4475, -10.3813, 29.957, 17.4415, 68.5807, -165.481
3.728, -1, -44.5312, -10.4253, 29.9755, 17.446, 68.5342, -165.598
3.732, -1, -44.6149, -10.4692, 29.9939, 17.4506, 68.4877, -165.716
3.735, -1, -44.6986, -10.5132, 30.0124, 17.4552, 68.4413, -165.833
3.74, -1, -44.7822, -10.5571, 30.0309, 17.4597, 68.3948, -165.95
3.744, -1, -44.8658, -10.6011, 30.0493, 17.4643, 68.3483, -166.067
3.748, -1, -44.9494, -10.645, 30.0678, 17.4689, 68.3019, -166.184
3.752, -1, -45.033, -10.6889, 30.0862, 17.4735, 68.2554, -166.301
3.756, -1, -45.1166, -10.7328, 30.1047, 17.478, 68.209, -166.419
3.76, -1, -45.2002, -10.7768, 30.1231, 17.4826, 68.1625, -166.536
3.764, -1, -45.2837, -10.8206, 30.1415, 17.4872, 68.1161, -166.653
3.768, -1, -45.3673, -10.8645, 30.16, 17.4917, 68.0697, -166.77
3.772, -1, -45.4508, -10.9084, 30.1784, 17.4963, 68.0233, -166.887
3.776, -1, -45.5343, -10.9523, 30.1968, 17.5009, 67.9769, -167.004
3.78, -1, -45.6177, -10.9962, 30.2153, 17.5054, 67.9305, -167.121
3.784, -1, -45.7012, -11.04, 30.2337, 17.51, 67.8842, -167.238
3.788, -1, -45.7847, -11.0839, 30.2521, 17.5145, 67.8378, -167.354
3.792, -1, -45.8681, -11.1277, 30.2705, 17.5191, 67.7914, -167.471
3.796, -1, -45.9515, -11.1715, 30.2889, 17.5237, 67.7451, -167.588
3.8, -1, -46.0349, -11.2153, 30.3073, 17.5282, 67.6988, -167.705
3.804, -1, -46.1183, -11.2592, 30.3257, 17.5328, 67.6524, -167.822
3.808, -1, -46.2017, -11.303, 30.3441, 17.5373, 67.6061, -167.939
3.812, -1, -46.285, -11.3468, 30.3625, 17.5419, 67.5598, -168.055
3.816, -1, -46.3683, -11.3905, 30.3809, 17.5465, 67.5135, -168.172
3.82, -1, -46.4517, -11.4343, 30.3993, 17.551, 67.4672, -168.289
3.824, -1, -46.535, -11.4781, 30.4177, 17.5556, 67.4209, -168.406
3.828, -1, -46.6183, -11.5219, 30.4361, 17.5601, 67.3746, -168.522
3.832, -1, -46.7015, -11.5656, 30.4544, 17.5647, 67.3284, -168.639
3.836, -1, -46.7848, -11.6094, 30.4728, 17.5692, 67.2821, -168.756
3.84, -1, -46.868, -11.6531, 30.4912, 17.5738, 67.2358, -168.872
3.844, -1, -46.9513, -11.6968, 30.5095, 17.5783, 67.1896, -168.989
3.848, -1, -47.0345, -11.7406, 30.5279, 17.5829, 67.1434, -169.105
3.852, -1, -47.1177, -11.7843, 30.5463, 17.5874, 67.0971, -169.222
3.856, -1, -47.2009, -11.828, 30.5646, 17.592, 67.0509, -169.338
3.86, -1, -47.284, -11.8717, 30.583, 17.5965, 67.0047, -169.455
3.864, -1, -47.3672, -11.9154, 30.6013, 17.6011, 66.9585, -169.571
3.868, -1, -47.4503, -11.9591, 30.6197, 17.6056, 66.9123, -169.688
3.872, -1, -47.5334, -12.0027, 30.638, 17.6101, 66.8661, -169.804
3.876, -1, -47.6165, -12.0464, 30.6564, 17.6147, 66.82, -169.921
3.88, -1, -47.6996, -12.09, 30.6747, 17.6192, 66.7738, -170.037
3.884, -1, -47.7825, -12.1336, 30.6931, 17.6238, 66.7276, -170.154
3.888, -1, -47.8653, -12.1772, 30.7114, 17.6283, 66.6815, -170.27
3.892, -1, -47.9479, -12.2206, 30.7298, 17.6329, 66.6354, -170.386
3.896, -1, -48.0301, -12.2638, 30.7481, 17.6374, 66.5893, -170.502
3.9, -1, -48.1118, -12.3067, 30.7665, 17.6419, 66.5433, -170.618
3.904, -1, -48.1926, -12.3491, 30.7849, 17.6465, 66.4974, -170.734
3.908, -1, -48.2724, -12.3908, 30.8033, 17.651, 66.4517, -170.849
3.912, -1, -48.3508, -12.4316, 30.8217, 17.6556, 66.4063, -170.964
3.916, -1, -48.4277, -12.4713, 30.8401, 17.66, 66.3614, -171.077
3.92, -1, -48.5027, -12.5098, 30.8582, 17.6645, 66.3173, -171.188
3.924, -1, -48.5757, -12.5471, 30.876, 17.6688, 66.2741, -171.297
3.928, -1, -48.6463, -12.583, 30.8933, 17.6731, 66.2321, -171.403
3.932, -1, -48.7143, -12.6174, 30.91, 17.6771, 66.1917, -171.505
3.936, -1, -48.7793, -12.6502, 30.9259, 17.681, 66.1531, -171.602
3.94, -1, -48.8409, -12.6811, 30.941, 17.6847, 66.1166, -171.694
3.944, -1, -48.8986, -12.71, 30.955, 17.6882, 66.0826, -171.78
3.948, -1, -48.9523, -12.737, 30.9679, 17.6913, 66.0511, -171.859
3.952, -1, -49.0019, -12.7621, 30.9796, 17.6942, 66.0224, -171.931
3.956, -1, -49.0474, -12.7855, 30.9899, 17.6967, 65.9967, -171.996
3.96, -1, -49.0888, -12.8073, 30.9989, 17.699, 65.9739, -172.053
3.964, -1, -49.126, -12.8274, 31.0065, 17.7009, 65.9541, -172.103
3.968, -1, -49.1592, -12.8458, 31.0128, 17.7025, 65.9372, -172.146
3.972, -1, -49.1884, -12.8624, 31.0179, 17.7038, 65.923, -172.182
3.976, -1, -49.2137, -12.877, 31.0219, 17.7048, 65.9112, -172.211
3.98, -1, -49.2352, -12.8896, 31.0251, 17.7057, 65.9017, -172.236
3.984, -1, -49.2533, -12.9003, 31.0274, 17.7063, 65.8941, -172.255
3.988, -1, -49.2685, -12.9093, 31.0292, 17.7068, 65.8882, -172.27
3.992, -1, -49.2811, -12.9168, 31.0304, 17.7072, 65.8837, -172.281
3.996, -1, -49.2915, -12.923, 31.0311, 17.7074, 65.8804, -172.29
3.999, -1, -49.2999, -12.928, 31.0316, 17.7076, 65.8779, -172.296
4.004, -1, -49.3067, -12.9319, 31.0319, 17.7077, 65.8762, -172.3
4.008, 2, -49.3119, -12.9349, 31.032, 17.7078, 65.875, -172.303
4.012, 2, -49.3158, -12.9371, 31.0321, 17.7078, 65.8742, -172.305
4.016, 2, -49.3186, -12.9386, 31.0321, 17.7078, 65.8736, -172.307
4.02, 2, -49.3205, -12.9397, 31.0321, 17.7078, 65.8732, -172.308
4.024, 2, -49.3219, -12.9405, 31.0322, 17.7078, 65.873, -172.308
4.028, 2, -49.3228, -12.9409, 31.0322, 17.7079, 65.8728, -172.309
4.032, 2, -49.3234, -12.9413, 31.0322, 17.7079, 65.8727, -172.309
4.036, 2, -49.3238, -12.9415, 31.0322, 17.7079, 65.8726, -172.309
4.04, 2, -49.3241, -12.9417, 31.0322, 17.7079, 65.8725, -172.309
4.044, 2, -49.3242, -12.9418, 31.0322, 17.7079, 65.8725, -172.31
4.048, 2, -49.3244, -12.9418, 31.0322, 17.7079, 65.8725, -172.31
4.052, 2, -49.3245, -12.9419, 31.0322, 17.7079, 65.8724, -172.31
4.056, 2, -49.3245, -12.9419, 31.0322, 17.7079, 65.8724, -172.31
4.06, 2, -49.3246, -12.9419, 31.0322, 17.7079, 65.8724, -172.31
4.064, 2, -49.3246, -12.942, 31.0322, 17.7079, 65.8724, -172.31
4.068, 2, -49.3246, -12.942, 31.0322, 17.7079, 65.8724, -172.31
4.072, 2, -49.3246, -12.942, 31.0322, 17.7079, 65.8724, -172.31
4.076, 2, -49.3246, -12.942, 31.0322, 17.7079, 65.8724, -172.31
4.08, 2, -49.3246, -12.942, 31.0322, 17.7079, 65.8724, -172.31
4.084, 2, -49.3246, -12.942, 31.0322, 17.7079, 65.8724, -172.31
4.088, 2, -49.3246, -12.942, 31.0322, 17.7079, 65.8724, -172.31
4.092, 2, -49.3246, -12.942, 31.0322, 17.7079, 65.8724, -172.31
4.096, 2, -49.3246, -12.942, 31.0322, 17.7079, 65.8724, -172.31
4.1, 2, -49.3246, -12.942, 31.0322, 17.7079, 65.8724, -172.31
4.104, 2, -49.3246, -12.942, 31.0322, 17.7079, 65.8724, -172.31
4.108, 2, -49.3246, -12.942, 31.0322, 17.7079, 65.8724, -172.31
4.112, 2, -49.3246, -12.942, 31.0322, 17.7079, 65.8724, -172.31
4.116, 2, -49.3246, -12.942, 31.0322, 17.7079, 65.8724, -172.31
4.12, 2, -49.3246, -12.942, 31.0322, 17.7079, 65.8724, -172.31
4.124, 2, -49.3246, -12.942, 31.0322, 17.7079, 65.8724, -172.31
4.128, 2, -49.3246, -12.942, 31.0322, 17.7079, 65.8724, -172.31
4.132, 2, -49.3246, -12.942, 31.0322, 17.7079, 65.8724, -172.31
4.136, 2, -49.3246, -12.942, 31.0322, 17.7079, 65.8724, -172.31
4.14, 2, -49.3246, -12.942, 31.0322, 17.7079, 65.8724, -172.31
4.144, 2, -49.3246, -12.942, 31.0322, 17.7079, 65.8724, -172.31
4.148, 2, -49.3246, -12.942, 31.0322, 17.7079, 65.8724, -172.31
4.152, 2, -49.3246, -12.942, 31.0322, 17.7079, 65.8724, -172.31
4.156, 2, -49.3246, -12.942, 31.0322, 17.7079, 65.8724, -172.31
4.16, 2, -49.3246, -12.942, 31.0322, 17.7079, 65.8724, -172.31
4.164, 2, -49.3246, -12.942, 31.0322, 17.7079, 65.8724, -172.31
4.168, 2, -49.3246, -12.942, 31.0322, 17.7079, 65.8724, -172.31
4.172, 2, -49.3246, -12.942, 31.0322, 17.7079, 65.8724, -172.31
4.176, 2, -49.3246, -12.942, 31.0322, 17.7079, 65.8724, -172.31
4.18, 2, -49.3246, -12.942, 31.0322, 17.7079, 65.8724, -172.31
4.184, 2, -49.3246, -12.942, 31.0322, 17.7079, 65.8724, -172.31
4.188, 2, -49.3246, -12.942, 31.0322, 17.7079, 65.8724, -172.31
4.192, 2, -49.3246, -12.942, 31.0322, 17.7079, 65.8724, -172.31
4.196, 2, -49.3246, -12.942, 31.0322, 17.7079, 65.8724, -172.31
4.2, 2, -49.3246, -12.942, 31.0322, 17.7079, 65.8724, -172.31
4.204, 2, -49.3246, -12.942, 31.0322, 17.7079, 65.8724, -172.31
4.208, 2, -49.3246, -12.942, 31.0322, 17.7079, 65.8724, -172.31
4.212, 2, -49.3246, -12.942, 31.0322, 17.7079, 65.8724, -172.31
4.216, 2, -49.3246, -12.942, 31.0322, 17.7079, 65.8724, -172.31
4.22, 2, -49.3246, -12.942, 31.0322, 17.7079, 65.8724, -172.31
4.224, 2, -49.3246, -12.942, 31.0322, 17.7079, 65.8724, -172.31
4.228, 2, -49.3246, -12.942, 31.0322, 17.7079, 65.8724, -172.31
4.232, 2, -49.3246, -12.942, 31.0322, 17.7079, 65.8724, -172.31
4.236, 2, -49.3246, -12.942, 31.0322, 17.7079, 65.8724, -172.31
4.24, 2, -49.3246, -12.942, 31.0322, 17.7079, 65.8724, -172.31
4.244, 2, -49.3246, -12.942, 31.0322, 17.7079, 65.8724, -172.31
4.248, 2, -49.3246, -12.942, 31.0322, 17.7079, 65.8724, -172.31
4.252, 2, -49.3246, -12.942, 31.0322, 17.7079, 65.8724, -172.31
4.256, 2, -49.3246, -12.942, 31.0322, 17.7079, 65.8724, -172.31
4.26, 2, -49.3246, -12.942, 31.0322, 17.7079, 65.8724, -172.31
4.264, 2, -49.3246, -12.942, 31.0322, 17.7079, 65.8724, -172.31
4.268, 2, -49.3246, -12.942, 31.0322, 17.7079, 65.8724, -172.31
4.272, 2, -49.3246, -12.942, 31.0322, 17.7079, 65.8724, -172.31
4.276, 2, -49.3246, -12.942, 31.0322, 17.7079, 65.8724, -172.31
4.28, 2, -49.3246, -12.942, 31.0322, 17.7079, 65.8724, -172.31
4.284, 2, -49.3246, -12.942, 31.0322, 17.7079, 65.8724, -172.31
4.288, 2, -49.3246, -12.942, 31.0322, 17.7079, 65.8724, -172.31
4.292, 2, -49.3246, -12.942, 31.0322, 17.7079, 65.8724, -172.31
4.296, 2, -49.3246, -12.942, 31.0322, 17.7079, 65.8724, -172.31
4.3, 2, -49.3246, -12.942, 31.0322, 17.7079, 65.8724, -172.31
4.304, 2, -49.3246, -12.942, 31.0322, 17.7079, 65.8724, -172.31
4.308, 2, -49.3246, -12.942, 31.0322, 17.7079, 65.8724, -172.31
4.312, 2, -49.3246, -12.942, 31.0322, 17.7079, 65.8724, -172.31
4.316, 2, -49.3246, -12.942, 31.0322, 17.7079, 65.8724, -172.31
4.32, 2, -49.3246, -12.942, 31.0322, 17.7079, 65.8724, -172.31
4.324, 2, -49.3246, -12.942, 31.0322, 17.7079, 65.8724, -172.31
4.328, 2, -49.3246, -12.942, 31.0322, 17.7079, 65.8724, -172.31
4.332, 2, -49.3246, -12.942, 31.0322, 17.7079, 65.8724, -172.31
4.336, 2, -49.3246, -12.942, 31.0322, 17.7079, 65.8724, -172.31
4.34, 2, -49.3246, -12.942, 31.0322, 17.7079, 65.8724, -172.31
4.344, 2, -49.3246, -12.942, 31.0322, 17.7079, 65.8724, -172.31
4.348, 2, -49.3246, -12.942, 31.0322, 17.7079, 65.8724, -172.31
4.352, 2, -49.3246, -12.942, 31.0322, 17.7079, 65.8724, -172.31
4.356, 2, -49.3246, -12.942, 31.0322, 17.7079, 65.8724, -172.31
4.36, 2, -49.3246, -12.942, 31.0322, 17.7079, 65.8724, -172.31
4.364, 2, -49.3246, -12.942, 31.0322, 17.7079, 65.8724, -172.31
4.368, 2, -49.3246, -12.942, 31.0322, 17.7079, 65.8724, -172.31
4.372, 2, -49.3246, -12.942, 31.0322, 17.7079, 65.8724, -172.31
4.376, 2, -49.3246, -12.942, 31.0322, 17.7079, 65.8724, -172.31
4.38, 2, -49.3246, -12.942, 31.0322, 17.7079, 65.8724, -172.31
4.384, 2, -49.3246, -12.942, 31.0322, 17.7079, 65.8724, -172.31
4.388, 2, -49.3246, -12.942, 31.0322, 17.7079, 65.8724, -172.31
4.392, 2, -49.3246, -12.942, 31.0322, 17.7079, 65.8724, -172.31
4.396, 2, -49.3246, -12.942, 31.0322, 17.7079, 65.8724, -172.31
4.4, 2, -49.3246, -12.942, 31.0322, 17.7079, 65.8724, -172.31
4.404, 2, -49.3246, -12.942, 31.0322, 17.7079, 65.8724, -172.31
4.408, 2, -49.3246, -12.942, 31.0322, 17.7079, 65.8724, -172.31
4.412, 2, -49.3246, -12.942, 31.0322, 17.7079, 65.8724, -172.31
4.416, 2, -49.3246, -12.942, 31.0322, 17.7079, 65.8724, -172.31
4.42, 2, -49.3246, -12.942, 31.0322, 17.7079, 65.8724, -172.31
4.424, 2, -49.3246, -12.942, 31.0322, 17.7079, 65.8724, -172.31
4.428, 2, -49.3246, -12.942, 31.0322, 17.7079, 65.8724, -172.31
4.432, 2, -49.3246, -12.942, 31.0322, 17.7079, 65.8724, -172.31
4.436, 2, -49.3246, -12.942, 31.0322, 17.7079, 65.8724, -172.31
4.44, 2, -49.3246, -12.942, 31.0322, 17.7079, 65.8724, -172.31
4.444, 2, -49.3246, -12.942, 31.0322, 17.7079, 65.8724, -172.31
4.448, 2, -49.3246, -12.942, 31.0322, 17.7079, 65.8724, -172.31
4.452, 2, -49.3246, -12.942, 31.0322, 17.7079, 65.8724, -172.31
4.456, 2, -49.3246, -12.942, 31.0322, 17.7079, 65.8724, -172.31
4.46, 2, -49.3246, -12.942, 31.0322, 17.7079, 65.8724, -172.31
4.464, 2, -49.3246, -12.942, 31.0322, 17.7079, 65.8724, -172.31
4.468, 2, -49.3246, -12.942, 31.0322, 17.7079, 65.8724, -172.31
4.472, 2, -49.3246, -12.942, 31.0322, 17.7079, 65.8724, -172.31
4.476, 2, -49.3246, -12.942, 31.0322, 17.7079, 65.8724, -172.31
4.48, 2, -49.3246, -12.942, 31.0322, 17.7079, 65.8724, -172.31
4.484, 2, -49.3246, -12.942, 31.0322, 17.7079, 65.8724, -172.31
4.488, 2, -49.3246, -12.942, 31.0322, 17.7079, 65.8724, -172.31
4.492, 2, -49.3246, -12.942, 31.0322, 17.7079, 65.8724, -172.31
4.496, 2, -49.3246, -12.942, 31.0322, 17.7079, 65.8724, -172.31
4.5, 2, -49.3246, -12.942, 31.0322, 17.7079, 65.8724, -172.31
4.504, 2, -49.3246, -12.942, 31.0322, 17.7079, 65.8724, -172.31
4.508, 2, -49.3246, -12.942, 31.0322, 17.7079, 65.8724, -172.31
4.512, 2, -49.3246, -12.942, 31.0322, 17.7079, 65.8724, -172.31
4.516, 2, -49.3246, -12.942, 31.0322, 17.7079, 65.8724, -172.31
4.52, 2, -49.3246, -12.942, 31.0322, 17.7079, 65.8724, -172.31
4.524, 2, -49.3246, -12.942, 31.0322, 17.7079, 65.8724, -172.31
4.528, 2, -49.3246, -12.942, 31.0322, 17.7079, 65.8724, -172.31
4.532, 2, -49.3246, -12.942, 31.0322, 17.7079, 65.8724, -172.31
4.536, 2, -49.3246, -12.942, 31.0322, 17.7079, 65.8724, -172.31
4.54, 2, -49.3246, -12.942, 31.0322, 17.7079, 65.8724, -172.31
4.544, 2, -49.3246, -12.942, 31.0322, 17.7079, 65.8724, -172.31
4.548, 2, -49.3246, -12.942, 31.0322, 17.7079, 65.8724, -172.31
4.552, 2, -49.3246, -12.942, 31.0322, 17.7079, 65.8724, -172.31
4.556, 2, -49.3246, -12.942, 31.0322, 17.7079, 65.8724, -172.31
4.56, 2, -49.3246, -12.942, 31.0322, 17.7079, 65.8724, -172.31
4.564, 2, -49.3246, -12.942, 31.0322, 17.7079, 65.8724, -172.31
4.568, 2, -49.3246, -12.942, 31.0322, 17.7079, 65.8724, -172.31
4.572, 2, -49.3246, -12.942, 31.0322, 17.7079, 65.8724, -172.31
4.576, 2, -49.3246, -12.942, 31.0322, 17.7079, 65.8724, -172.31
4.58, 2, -49.3246, -12.942, 31.0322, 17.7079, 65.8724, -172.31
4.584, 2, -49.3246, -12.942, 31.0322, 17.7079, 65.8724, -172.31
4.588, 2, -49.3246, -12.942, 31.0322, 17.7079, 65.8724, -172.31
4.592, 2, -49.3246, -12.942, 31.0322, 17.7079, 65.8724, -172.31
4.596, 2, -49.3246, -12.942, 31.0322, 17.7079, 65.8724, -172.31
4.6, 2, -49.3246, -12.942, 31.0322, 17.7079, 65.8724, -172.31
4.604, 2, -49.3246, -12.942, 31.0322, 17.7079, 65.8724, -172.31
4.608, 2, -49.3246, -12.942, 31.0322, 17.7079, 65.8724, -172.31
4.612, 2, -49.3246, -12.942, 31.0322, 17.7079, 65.8724, -172.31
4.616, 2, -49.3246, -12.942, 31.0322, 17.7079, 65.8724, -172.31
4.62, 2, -49.3246, -12.942, 31.0322, 17.7079, 65.8724, -172.31
4.624, 2, -49.3246, -12.942, 31.0322, 17.7079, 65.8724, -172.31
4.628, 2, -49.3246, -12.942, 31.0322, 17.7079, 65.8724, -172.31
4.632, 2, -49.3246, -12.942, 31.0322, 17.7079, 65.8724, -172.31
4.636, 2, -49.3246, -12.942, 31.0322, 17.7079, 65.8724, -172.31
4.64, 2, -49.3246, -12.942, 31.0322, 17.7079, 65.8724, -172.31
4.644, 2, -49.3246, -12.942, 31.0322, 17.7079, 65.8724, -172.31
4.648, 2, -49.3246, -12.942, 31.0322, 17.7079, 65.8724, -172.31
4.652, 2, -49.3246, -12.942, 31.0322, 17.7079, 65.8724, -172.31
4.656, 2, -49.3246, -12.942, 31.0322, 17.7079, 65.8724, -172.31
4.66, 2, -49.3246, -12.942, 31.0322, 17.7079, 65.8724, -172.31
4.664, 2, -49.3246, -12.942, 31.0322, 17.7079, 65.8724, -172.31
4.668, 2, -49.3246, -12.942, 31.0322, 17.7079, 65.8724, -172.31
4.672, 2, -49.3246, -12.942, 31.0322, 17.7079, 65.8724, -172.31
4.676, 2, -49.3246, -12.942, 31.0322, 17.7079, 65.8724, -172.31
4.68, 2, -49.3246, -12.942, 31.0322, 17.7079, 65.8724, -172.31
4.684, 2, -49.3246, -12.942, 31.0322, 17.7079, 65.8724, -172.31
4.688, 2, -49.3246, -12.942, 31.0322, 17.7079, 65.8724, -172.31
4.692, 2, -49.3246, -12.942, 31.0322, 17.7079, 65.8724, -172.31
4.696, 2, -49.3246, -12.942, 31.0322, 17.7079, 65.8724, -172.31
4.7, 2, -49.3246, -12.942, 31.0322, 17.7079, 65.8724, -172.31
4.704, 2, -49.3246, -12.942, 31.0322, 17.7079, 65.8724, -172.31
4.708, 2, -49.3246, -12.942, 31.0322, 17.7079, 65.8724, -172.31
4.712, 2, -49.3246, -12.942, 31.0322, 17.7079, 65.8724, -172.31
4.716, 2, -49.3246, -12.942, 31.0322, 17.7079, 65.8724, -172.31
4.72, 2, -49.3246, -12.942, 31.0322, 17.7079, 65.8724, -172.31
4.724, 2, -49.3246, -12.942, 31.0322, 17.7079, 65.8724, -172.31
4.728, 2, -49.3246, -12.942, 31.0322, 17.7079, 65.8724, -172.31
4.732, 2, -49.3246, -12.942, 31.0322, 17.7079, 65.8724, -172.31
4.736, 2, -49.3246, -12.942, 31.0322, 17.7079, 65.8724, -172.31
4.74, 2, -49.3246, -12.942, 31.0322, 17.7079, 65.8724, -172.31
4.744, 2, -49.3246, -12.942, 31.0322, 17.7079, 65.8724, -172.31
4.748, 2, -49.3246, -12.942, 31.0322, 17.7079, 65.8724, -172.31
4.752, 2, -49.3246, -12.942, 31.0322, 17.7079, 65.8724, -172.31
4.756, 2, -49.3246, -12.942, 31.0322, 17.7079, 65.8724, -172.31
4.76, 2, -49.3246, -12.942, 31.0322, 17.7079, 65.8724, -172.31
4.764, 2, -49.3246, -12.942, 31.0322, 17.7079, 65.8724, -172.31
4.768, 2, -49.3246, -12.942, 31.0322, 17.7079, 65.8724, -172.31
4.772, 2, -49.3246, -12.942, 31.0322, 17.7079, 65.8724, -172.31
4.776, 2, -49.3246, -12.942, 31.0322, 17.7079, 65.8724, -172.31
4.78, 2, -49.3246, -12.942, 31.0322, 17.7079, 65.8724, -172.31
4.784, 2, -49.3246, -12.942, 31.0322, 17.7079, 65.8724, -172.31
4.788, 2, -49.3246, -12.942, 31.0322, 17.7079, 65.8724, -172.31
4.792, 2, -49.3246, -12.942, 31.0322, 17.7079, 65.8724, -172.31
4.796, 2, -49.3246, -12.942, 31.0322, 17.7079, 65.8724, -172.31
4.8, 2, -49.3246, -12.942, 31.0322, 17.7079, 65.8724, -172.31
4.804, 2, -49.3246, -12.942, 31.0322, 17.7079, 65.8724, -172.31
4.808, 2, -49.3246, -12.942, 31.0322, 17.7079, 65.8724, -172.31
4.812, 2, -49.3246, -12.942, 31.0322, 17.7079, 65.8724, -172.31
4.816, 2, -49.3246, -12.942, 31.0322, 17.7079, 65.8724, -172.31
4.82, 2, -49.3246, -12.942, 31.0322, 17.7079, 65.8724, -172.31
4.824, 2, -49.3246, -12.942, 31.0322, 17.7079, 65.8724, -172.31
4.828, 2, -49.3246, -12.942, 31.0322, 17.7079, 65.8724, -172.31
4.832, 2, -49.3246, -12.942, 31.0322, 17.7079, 65.8724, -172.31
4.836, 2, -49.3246, -12.942, 31.0322, 17.7079, 65.8724, -172.31
4.84, 2, -49.3246, -12.942, 31.0322, 17.7079, 65.8724, -172.31
4.844, 2, -49.3246, -12.942, 31.0322, 17.7079, 65.8724, -172.31
4.848, 2, -49.3246, -12.942, 31.0322, 17.7079, 65.8724, -172.31
4.852, 2, -49.3246, -12.942, 31.0322, 17.7079, 65.8724, -172.31
4.856, 2, -49.3246, -12.942, 31.0322, 17.7079, 65.8724, -172.31
4.86, 2, -49.3246, -12.942, 31.0322, 17.7079, 65.8724, -172.31
4.864, 2, -49.3246, -12.942, 31.0322, 17.7079, 65.8724, -172.31
4.868, 2, -49.3246, -12.942, 31.0322, 17.7079, 65.8724, -172.31
4.872, 2, -49.3246, -12.942, 31.0322, 17.7079, 65.8724, -172.31
4.876, 2, -49.3246, -12.942, 31.0322, 17.7079, 65.8724, -172.31
4.88, 2, -49.3246, -12.942, 31.0322, 17.7079, 65.8724, -172.31
4.884, 2, -49.3246, -12.942, 31.0322, 17.7079, 65.8724, -172.31
4.888, 2, -49.3246, -12.942, 31.0322, 17.7079, 65.8724, -172.31
4.892, 2, -49.3246, -12.942, 31.0322, 17.7079, 65.8724, -172.31
4.896, 2, -49.3246, -12.942, 31.0322, 17.7079, 65.8724, -172.31
4.9, 2, -49.3246, -12.942, 31.0322, 17.7079, 65.8724, -172.31
4.904, 2, -49.3246, -12.942, 31.0322, 17.7079, 65.8724, -172.31
4.908, 2, -49.3246, -12.942, 31.0322, 17.7079, 65.8724, -172.31
4.912, 2, -49.3246, -12.942, 31.0322, 17.7079, 65.8724, -172.31
4.916, 2, -49.3246, -12.942, 31.0322, 17.7079, 65.8724, -172.31
4.92, 2, -49.3246, -12.942, 31.0322, 17.7079, 65.8724, -172.31
4.924, 2, -49.3246, -12.942, 31.0322, 17.7079, 65.8724, -172.31
4.928, 2, -49.3246, -12.942, 31.0322, 17.7079, 65.8724, -172.31
4.932, 2, -49.3246, -12.942, 31.0322, 17.7079, 65.8724, -172.31
4.936, 2, -49.3246, -12.942, 31.0322, 17.7079, 65.8724, -172.31
4.94, 2, -49.3246, -12.942, 31.0322, 17.7079, 65.8724, -172.31
4.944, 2, -49.3246, -12.942, 31.0322, 17.7079, 65.8724, -172.31
4.948, 2, -49.3246, -12.942, 31.0322, 17.7079, 65.8724, -172.31
4.952, 2, -49.3246, -12.942, 31.0322, 17.7079, 65.8724, -172.31
4.956, 2, -49.3246, -12.942, 31.0322, 17.7079, 65.8724, -172.31
4.96, 2, -49.3246, -12.942, 31.0322, 17.7079, 65.8724, -172.31
4.964, 2, -49.3246, -12.942, 31.0322, 17.7079, 65.8724, -172.31
4.968, 2, -49.3246, -12.942, 31.0322, 17.7079, 65.8724, -172.31
4.972, 2, -49.3246, -12.942, 31.0322, 17.7079, 65.8724, -172.31
4.976, 2, -49.3246, -12.942, 31.0322, 17.7079, 65.8724, -172.31
4.98, 2, -49.3246, -12.942, 31.0322, 17.7079, 65.8724, -172.31
4.984, 2, -49.3246, -12.942, 31.0322, 17.7079, 65.8724, -172.31
4.988, 2, -49.3246, -12.942, 31.0322, 17.7079, 65.8724, -172.31
4.992, 2, -49.3246, -12.942, 31.0322, 17.7079, 65.8724, -172.31
4.996, 2, -49.3246, -12.942, 31.0322, 17.7079, 65.8724, -172.31
5, 2, -49.3246, -12.942, 31.0322, 17.7079, 65.8724, -172.31
5.004, 2, -49.3246, -12.942, 31.0322, 17.7079, 65.8724, -172.31
5.008, 2, -49.3246, -12.942, 31.0322, 17.7079, 65.8724, -172.31
5.012, 2, -49.3246, -12.942, 31.0322, 17.7079, 65.8724, -172.31
5.016, 2, -49.3246, -12.942, 31.0322, 17.7079, 65.8724, -172.31
5.02, 2, -49.3246, -12.942, 31.0322, 17.7079, 65.8724, -172.31
5.024, 2, -49.3246, -12.942, 31.0322, 17.7079, 65.8724, -172.31
5.028, 2, -49.3246, -12.942, 31.0322, 17.7079, 65.8724, -172.31
5.032, 2, -49.3246, -12.942, 31.0322, 17.7079, 65.8724, -172.31
5.036, 2, -49.3246, -12.942, 31.0322, 17.7079, 65.8724, -172.31
5.04, 2, -49.3246, -12.942, 31.0322, 17.7079, 65.8724, -172.31
5.044, 2, -49.3246, -12.942, 31.0322, 17.7079, 65.8724, -172.31
5.048, 2, -49.3246, -12.942, 31.0322, 17.7079, 65.8724, -172.31
5.052, 2, -49.3246, -12.942, 31.0322, 17.7079, 65.8724, -172.31
5.056, 2, -49.3246, -12.942, 31.0322, 17.7079, 65.8724, -172.31
5.06, 2, -49.3246, -12.942, 31.0322, 17.7079, 65.8724, -172.31
5.064, 2, -49.3246, -12.942, 31.0322, 17.7079, 65.8724, -172.31
5.068, 2, -49.3246, -12.942, 31.0322, 17.7079, 65.8724, -172.31
5.072, 2, -49.3246, -12.942, 31.0322, 17.7079, 65.8724, -172.31
5.076, 2, -49.3246, -12.942, 31.0322, 17.7079, 65.8724, -172.31
5.08, 2, -49.3246, -12.942, 31.0322, 17.7079, 65.8724, -172.31
5.084, 4, -49.3246, -12.942, 31.0322, 17.7079, 65.8724, -172.31
5.088, 4, -49.3246, -12.942, 31.0322, 17.7079, 65.8724, -172.31
5.092, 4, -49.3246, -12.942, 31.0322, 17.7079, 65.8724, -172.31
5.096, 4, -49.3246, -12.942, 31.0322, 17.7079, 65.8724, -172.31
5.1, 4, -49.3246, -12.942, 31.0322, 17.7079, 65.8724, -172.31
5.104, 4, -49.3246, -12.942, 31.0322, 17.7079, 65.8724, -172.31
5.108, 4, -49.3246, -12.942, 31.0322, 17.7079, 65.8724, -172.31
5.112, 4, -49.3246, -12.942, 31.0322, 17.7079, 65.8724, -172.31
5.116, 4, -49.3246, -12.942, 31.0322, 17.7079, 65.8724, -172.31
5.12, 4, -49.3246, -12.942, 31.0322, 17.7079, 65.8724, -172.31
5.124, 4, -49.3246, -12.942, 31.0322, 17.7079, 65.8724, -172.31
5.128, 4, -49.3246, -12.942, 31.0322, 17.7079, 65.8724, -172.31
5.132, 4, -49.3246, -12.942, 31.0322, 17.7079, 65.8724, -172.31
5.136, 4, -49.3246, -12.942, 31.0322, 17.7079, 65.8724, -172.31
5.14, 4, -49.3246, -12.942, 31.0322, 17.7079, 65.8724, -172.31
5.144, 4, -49.3246, -12.942, 31.0322, 17.7079, 65.8724, -172.31
5.148, 4, -49.3246, -12.942, 31.0322, 17.7079, 65.8724, -172.31
5.152, 4, -49.3246, -12.942, 31.0322, 17.7079, 65.8724, -172.31
5.156, 4, -49.3246, -12.942, 31.0322, 17.7079, 65.8724, -172.31
5.16, 4, -49.3246, -12.942, 31.0322, 17.7079, 65.8724, -172.31
5.164, 4, -49.3246, -12.942, 31.0322, 17.7079, 65.8724, -172.31
5.168, 4, -49.3246, -12.942, 31.0322, 17.7079, 65.8724, -172.31
5.172, 4, -49.3246, -12.942, 31.0322, 17.7079, 65.8724, -172.31
5.176, 4, -49.3246, -12.942, 31.0322, 17.7079, 65.8724, -172.31
5.18, 4, -49.3246, -12.942, 31.0322, 17.7079, 65.8724, -172.31
5.184, 4, -49.3246, -12.942, 31.0322, 17.7079, 65.8724, -172.31
5.19, 4, -49.3246, -12.942, 31.0322, 17.7079, 65.8724, -172.31
5.192, 4, -49.3246, -12.942, 31.0322, 17.7079, 65.8724, -172.31
5.196, 4, -49.3246, -12.942, 31.0322, 17.7079, 65.8724, -172.31
5.2, 4, -49.3246, -12.942, 31.0322, 17.7079, 65.8724, -172.31
5.204, 4, -49.3246, -12.942, 31.0322, 17.7079, 65.8724, -172.31
5.208, 4, -49.3246, -12.942, 31.0322, 17.7079, 65.8724, -172.31
5.212, 4, -49.3246, -12.942, 31.0322, 17.7079, 65.8724, -172.31
5.216, 4, -49.3246, -12.942, 31.0322, 17.7079, 65.8724, -172.31
5.22, 4, -49.3246, -12.942, 31.0322, 17.7079, 65.8724, -172.31
5.224, 4, -49.3245, -12.9421, 31.0323, 17.7079, 65.8724, -172.31
5.228, 4, -49.3242, -12.9422, 31.0325, 17.708, 65.8725, -172.31
5.232, 4, -49.3236, -12.9426, 31.0329, 17.7083, 65.8728, -172.309
5.236, 4, -49.3227, -12.9431, 31.0337, 17.7089, 65.8734, -172.308
5.24, 4, -49.3213, -12.944, 31.0351, 17.7101, 65.8745, -172.306
5.244, 4, -49.3195, -12.9453, 31.0372, 17.7124, 65.8766, -172.303
5.248, 4, -49.3174, -12.947, 31.0402, 17.7161, 65.88, -172.296
5.252, 4, -49.3151, -12.9491, 31.0443, 17.7219, 65.8852, -172.287
5.256, 4, -49.3126, -12.9516, 31.0496, 17.7302, 65.8925, -172.273
5.26, 4, -49.3099, -12.9546, 31.0565, 17.7415, 65.9026, -172.253
5.264, 5, -49.3071, -12.9582, 31.065, 17.7563, 65.9156, -172.228
5.268, 5, -49.304, -12.9625, 31.0754, 17.7748, 65.9319, -172.197
5.272, 5, -49.3008, -12.9674, 31.0878, 17.7974, 65.9516, -172.159
5.276, 5, -49.2973, -12.9729, 31.1023, 17.8241, 65.9749, -172.113
5.28, 5, -49.2936, -12.9792, 31.1188, 17.8549, 66.0017, -172.061
5.284, 5, -49.2897, -12.9861, 31.1372, 17.8899, 66.032, -172.002
5.288, 5, -49.2858, -12.9935, 31.1575, 17.9286, 66.0656, -171.936
5.292, 5, -49.2818, -13.0016, 31.1796, 17.971, 66.1021, -171.864
5.296, 5, -49.2777, -13.0101, 31.2032, 18.0163, 66.141, -171.788
5.3, 5, -49.2732, -13.0192, 31.2282, 18.0643, 66.1821, -171.707
5.304, 5, -49.2685, -13.0287, 31.2545, 18.1144, 66.2248, -171.623
5.308, 5, -49.2633, -13.0388, 31.2817, 18.166, 66.2687, -171.536
5.312, 5, -49.2578, -13.0492, 31.3099, 18.2189, 66.3135, -171.448
5.316, 5, -49.2519, -13.06, 31.3387, 18.2726, 66.3588, -171.358
5.32, 5, -49.2458, -13.071, 31.368, 18.327, 66.4044, -171.268
5.324, 5, -49.2395, -13.0822, 31.3977, 18.3819, 66.4503, -171.177
5.328, 5, -49.2331, -13.0935, 31.4277, 18.4372, 66.4962, -171.086
5.332, 5, -49.2266, -13.1049, 31.458, 18.4927, 66.5421, -170.995
5.336, 5, -49.2202, -13.1164, 31.4884, 18.5485, 66.588, -170.904
5.34, 5, -49.2137, -13.1279, 31.519, 18.6045, 66.6338, -170.812
5.344, 5, -49.2073, -13.1395, 31.5498, 18.6606, 66.6795, -170.721
5.348, 5, -49.2009, -13.1512, 31.5807, 18.7169, 66.7251, -170.63
5.352, 5, -49.1946, -13.1628, 31.6117, 18.7734, 66.7706, -170.538
5.356, 5, -49.1882, -13.1745, 31.6429, 18.83, 66.8159, -170.447
5.36, 5, -49.1819, -13.1862, 31.6741, 18.8867, 66.8611, -170.356
5.364, 5, -49.1757, -13.198, 31.7055, 18.9436, 66.9062, -170.265
5.368, 5, -49.1695, -13.2098, 31.737, 19.0006, 66.9511, -170.174
5.372, 5, -49.1634, -13.2216, 31.7686, 19.0577, 66.9959, -170.083
5.376, 5, -49.1573, -13.2334, 31.8004, 19.1149, 67.0406, -169.992
5.38, 5, -49.1512, -13.2453, 31.8322, 19.1723, 67.0851, -169.902
5.384, 5, -49.1452, -13.2571, 31.8642, 19.2297, 67.1294, -169.811
5.388, 5, -49.1393, -13.269, 31.8962, 19.2873, 67.1736, -169.721
5.392, 5, -49.1334, -13.281, 31.9284, 19.345, 67.2177, -169.63
5.396, 5, -49.1275, -13.2929, 31.9607, 19.4028, 67.2616, -169.54
5.4, 5, -49.1217, -13.3049, 31.9931, 19.4608, 67.3054, -169.45
5.404, 5, -49.116, -13.3169, 32.0256, 19.5189, 67.349, -169.36
5.408, 5, -49.1103, -13.329, 32.0583, 19.577, 67.3925, -169.27
5.412, 5, -49.1046, -13.341, 32.091, 19.6353, 67.4358, -169.18
5.416, 5, -49.099, -13.3531, 32.1239, 19.6937, 67.479, -169.09
5.42, 5, -49.0934, -13.3653, 32.1569, 19.7523, 67.522, -169
5.424, 5, -49.0879, -13.3774, 32.1899, 19.8109, 67.565, -168.911
5.428, 5, -49.0824, -13.3896, 32.2231, 19.8697, 67.6077, -168.821
5.432, 5, -49.077, -13.4018, 32.2564, 19.9285, 67.6503, -168.732
5.436, 5, -49.0716, -13.414, 32.2899, 19.9875, 67.6928, -168.642
5.44, 5, -49.0663, -13.4263, 32.3234, 20.0466, 67.7351, -168.553
5.444, 5, -49.061, -13.4385, 32.3571, 20.1058, 67.7773, -168.464
5.448, 5, -49.0558, -13.4509, 32.3908, 20.1652, 67.8193, -168.375
5.452, 5, -49.0506, -13.4632, 32.4247, 20.2246, 67.8612, -168.286
5.456, 5, -49.0454, -13.4756, 32.4587, 20.2842, 67.903, -168.197
5.46, 5, -49.0404, -13.488, 32.4928, 20.3438, 67.9446, -168.109
5.464, 5, -49.0353, -13.5004, 32.527, 20.4036, 67.986, -168.02
5.468, 5, -49.0303, -13.5128, 32.5613, 20.4635, 68.0274, -167.931
5.472, 5, -49.0253, -13.5253, 32.5958, 20.5235, 68.0686, -167.843
5.476, 5, -49.0204, -13.5378, 32.6303, 20.5836, 68.1096, -167.755
5.48, 5, -49.0155, -13.5504, 32.665, 20.6438, 68.1505, -167.666
5.484, 5, -49.0107, -13.5629, 32.6998, 20.7042, 68.1912, -167.578
5.488, 5, -49.0059, -13.5755, 32.7347, 20.7646, 68.2319, -167.49
5.492, 5, -49.0012, -13.5882, 32.7697, 20.8252, 68.2723, -167.402
5.496, 5, -48.9965, -13.6008, 32.8048, 20.8858, 68.3127, -167.314
5.5, 5, -48.9919, -13.6135, 32.84, 20.9466, 68.3529, -167.226
5.504, 5, -48.9872, -13.6262, 32.8754, 21.0075, 68.3929, -167.139
5.508, 5, -48.9827, -13.639, 32.9108, 21.0685, 68.4328, -167.051
5.512, 5, -48.9782, -13.6517, 32.9464, 21.1295, 68.4726, -166.964
5.516, 5, -48.9737, -13.6646, 32.9821, 21.1907, 68.5122, -166.876
5.52, 5, -48.9693, -13.6774, 33.0179, 21.2521, 68.5517, -166.789
5.524, 5, -48.9649, -13.6903, 33.0538, 21.3135, 68.591, -166.702
5.528, 5, -48.9605, -13.7032, 33.0899, 21.375, 68.6303, -166.615
5.532, 5, -48.9562, -13.7161, 33.126, 21.4366, 68.6693, -166.527
5.536, 5, -48.952, -13.729, 33.1623, 21.4983, 68.7083, -166.441
5.54, 5, -48.9478, -13.742, 33.1986, 21.5602, 68.747, -166.354
5.544, 5, -48.9436, -13.7551, 33.2351, 21.6221, 68.7857, -166.267
5.548, 5, -48.9395, -13.7681, 33.2717, 21.6842, 68.8242, -166.18
5.552, 5, -48.9354, -13.7812, 33.3085, 21.7463, 68.8626, -166.094
5.556, 5, -48.9313, -13.7943, 33.3453, 21.8086, 68.9008, -166.007
5.56, 5, -48.9273, -13.8075, 33.3822, 21.8709, 68.9389, -165.921
5.564, 5, -48.9233, -13.8206, 33.4193, 21.9334, 68.9769, -165.835
5.568, 5, -48.9194, -13.8339, 33.4565, 21.996, 69.0147, -165.748
5.572, 5, -48.9155, -13.8471, 33.4938, 22.0586, 69.0524, -165.662
5.576, 5, -48.9117, -13.8604, 33.5312, 22.1214, 69.0899, -165.576
5.58, 5, -48.9079, -13.8737, 33.5687, 22.1843, 69.1273, -165.49
5.584, 5, -48.9041, -13.887, 33.6063, 22.2473, 69.1646, -165.404
5.588, 5, -48.9004, -13.9004, 33.6441, 22.3104, 69.2017, -165.319
5.592, 5, -48.8967, -13.9138, 33.682, 22.3735, 69.2387, -165.233
5.596, 5, -48.8931, -13.9272, 33.7199, 22.4368, 69.2756, -165.147
5.6, 5, -48.8895, -13.9407, 33.758, 22.5002, 69.3123, -165.062
5.604, 5, -48.8859, -13.9542, 33.7963, 22.5637, 69.3489, -164.977
5.608, 5, -48.8824, -13.9678, 33.8346, 22.6273, 69.3853, -164.891
5.612, 5, -48.8789, -13.9813, 33.873, 22.691, 69.4216, -164.806
5.616, 5, -48.8755, -13.995, 33.9116, 22.7547, 69.4578, -164.721
5.62, 5, -48.8721, -14.0086, 33.9503, 22.8186, 69.4938, -164.636
5.624, 5, -48.8687, -14.0223, 33.9891, 22.8826, 69.5297, -164.551
5.628, 5, -48.8654, -14.036, 34.028, 22.9467, 69.5655, -164.466
5.632, 5, -48.8621, -14.0497, 34.067, 23.0109, 69.6011, -164.382
5.636, 5, -48.8589, -14.0635, 34.1061, 23.0752, 69.6366, -164.297
5.64, 5, -48.8557, -14.0773, 34.1454, 23.1395, 69.672, -164.212
5.644, 5, -48.8525, -14.0912, 34.1848, 23.204, 69.7072, -164.128
5.648, 5, -48.8494, -14.1051, 34.2243, 23.2686, 69.7423, -164.044
5.652, 5, -48.8463, -14.119, 34.2639, 23.3333, 69.7772, -163.959
5.656, 5, -48.8433, -14.1329, 34.3036, 23.398, 69.812, -163.875
5.66, 5, -48.8403, -14.1469, 34.3434, 23.4629, 69.8467, -163.791
5.664, 5, -48.8373, -14.1609, 34.3834, 23.5278, 69.8812, -163.707
5.668, 5, -48.8343, -14.175, 34.4235, 23.5929, 69.9156, -163.623
5.672, 5, -48.8314, -14.1891, 34.4637, 23.6581, 69.9499, -163.539
5.676, 5, -48.8286, -14.2032, 34.504, 23.7233, 69.984, -163.456
5.68, 5, -48.8258, -14.2174, 34.5444, 23.7887, 70.018, -163.372
5.684, 5, -48.823, -14.2316, 34.585, 23.8541, 70.0519, -163.288
5.688, 5, -48.8202, -14.2458, 34.6256, 23.9196, 70.0856, -163.205
5.692, 5, -48.8175, -14.2601, 34.6664, 23.9853, 70.1192, -163.122
5.696, 5, -48.8148, -14.2744, 34.7073, 24.051, 70.1527, -163.038
5.7, 5, -48.8122, -14.2888, 34.7483, 24.1168, 70.186, -162.955
5.704, 5, -48.8096, -14.3032, 34.7895, 24.1827, 70.2192, -162.872
5.708, 5, -48.807, -14.3176, 34.8307, 24.2487, 70.2522, -162.789
5.712, 5, -48.8045, -14.3321, 34.8721, 24.3148, 70.2852, -162.706
5.716, 5, -48.802, -14.3466, 34.9136, 24.381, 70.3179, -162.623
5.72, 5, -48.7995, -14.3611, 34.9552, 24.4473, 70.3506, -162.541
5.724, 5, -48.7971, -14.3757, 34.9969, 24.5137, 70.3831, -162.458
5.728, 5, -48.7947, -14.3903, 35.0388, 24.5802, 70.4155, -162.375
5.732, 5, -48.7923, -14.4049, 35.0807, 24.6467, 70.4477, -162.293
5.736, 5, -48.7898, -14.4195, 35.1228, 24.7134, 70.4799, -162.21
5.74, 5, -48.7873, -14.4341, 35.1649, 24.7801, 70.5119, -162.128
5.744, 5, -48.7847, -14.4486, 35.2072, 24.8468, 70.5438, -162.046
5.748, 5, -48.7819, -14.4632, 35.2494, 24.9135, 70.5756, -161.963
5.752, 5, -48.779, -14.4776, 35.2917, 24.9802, 70.6073, -161.881
5.756, 5, -48.7759, -14.492, 35.3339, 25.0469, 70.6391, -161.798
5.76, 5, -48.7726, -14.5063, 35.376, 25.1133, 70.6708, -161.715
5.764, 5, -48.769, -14.5205, 35.418, 25.1796, 70.7026, -161.632
5.768, 5, -48.7653, -14.5345, 35.4597, 25.2456, 70.7346, -161.548
5.772, 5, -48.7613, -14.5484, 35.5012, 25.3112, 70.7667, -161.464
5.776, 5, -48.757, -14.5621, 35.5423, 25.3764, 70.7991, -161.379
5.78, 5, -48.7523, -14.5756, 35.583, 25.4411, 70.8317, -161.293
5.784, 6, -48.7473, -14.5888, 35.6231, 25.5053, 70.8648, -161.206
5.788, 6, -48.7419, -14.6017, 35.6627, 25.5688, 70.8982, -161.117
5.792, 6, -48.7359, -14.6144, 35.7017, 25.6317, 70.932, -161.028
5.796, 6, -48.7295, -14.6267, 35.7399, 25.6939, 70.9664, -160.937
5.8, 6, -48.7226, -14.6388, 35.7775, 25.7553, 71.0013, -160.845
5.804, 6, -48.7151, -14.6504, 35.8142, 25.816, 71.0367, -160.752
5.808, 6, -48.707, -14.6617, 35.8501, 25.8759, 71.0727, -160.657
5.812, 6, -48.6983, -14.6726, 35.8853, 25.935, 71.1093, -160.56
5.816, 6, -48.6891, -14.6831, 35.9196, 25.9933, 71.1464, -160.462
5.82, 6, -48.6793, -14.6933, 35.9531, 26.0508, 71.1841, -160.363
5.824, 6, -48.669, -14.7031, 35.9859, 26.1076, 71.2223, -160.262
5.828, 6, -48.6581, -14.7126, 36.0179, 26.1636, 71.261, -160.16
5.832, 6, -48.6468, -14.7217, 36.0492, 26.2189, 71.3001, -160.057
5.836, 6, -48.635, -14.7306, 36.0798, 26.2736, 71.3398, -159.953
5.84, 6, -48.6228, -14.7392, 36.1099, 26.3277, 71.3797, -159.847
5.844, 6, -48.6102, -14.7475, 36.1395, 26.3813, 71.42, -159.741
5.848, 6, -48.5973, -14.7556, 36.1686, 26.4344, 71.4605, -159.634
5.852, 6, -48.5842, -14.7635, 36.1973, 26.4872, 71.5013, -159.526
5.856, 6, -48.5707, -14.7712, 36.2258, 26.5396, 71.5422, -159.417
5.86, 6, -48.5571, -14.7787, 36.254, 26.5918, 71.5832, -159.308
5.864, 6, -48.5432, -14.7862, 36.2821, 26.6439, 71.6242, -159.199
5.868, 6, -48.5291, -14.7935, 36.3101, 26.6959, 71.6652, -159.09
5.872, 6, -48.5148, -14.8007, 36.338, 26.7478, 71.7062, -158.98
5.876, 6, -48.5003, -14.8078, 36.3659, 26.7998, 71.7471, -158.87
5.88, 6, -48.4858, -14.8149, 36.3938, 26.8518, 71.7879, -158.761
5.884, 6, -48.4711, -14.8219, 36.4218, 26.9039, 71.8286, -158.651
5.888, 6, -48.4565, -14.8289, 36.4498, 26.956, 71.8692, -158.541
5.892, 6, -48.4418, -14.8359, 36.478, 27.0083, 71.9097, -158.432
5.896, 6, -48.4271, -14.8429, 36.5062, 27.0608, 71.95, -158.322
5.9, 6, -48.4124, -14.8499, 36.5345, 27.1133, 71.9902, -158.213
5.904, 6, -48.3978, -14.8569, 36.563, 27.166, 72.0302, -158.104
5.908, 6, -48.3831, -14.864, 36.5915, 27.2188, 72.0701, -157.995
5.912, 6, -48.3686, -14.871, 36.6202, 27.2718, 72.1098, -157.885
5.916, 6, -48.354, -14.8781, 36.6489, 27.3249, 72.1494, -157.776
5.92, 6, -48.3395, -14.8852, 36.6778, 27.3781, 72.1888, -157.668
5.924, 6, -48.325, -14.8923, 36.7068, 27.4315, 72.2281, -157.559
5.928, 6, -48.3106, -14.8995, 36.7359, 27.4851, 72.2673, -157.45
5.932, 6, -48.2962, -14.9067, 36.7651, 27.5387, 72.3063, -157.342
5.936, 6, -48.2819, -14.9139, 36.7945, 27.5925, 72.3451, -157.233
5.94, 6, -48.2676, -14.9211, 36.824, 27.6465, 72.3838, -157.125
5.944, 6, -48.2533, -14.9284, 36.8535, 27.7006, 72.4223, -157.017
5.948, 6, -48.2391, -14.9357, 36.8832, 27.7548, 72.4607, -156.909
5.952, 6, -48.2249, -14.943, 36.9131, 27.8092, 72.499, -156.801
5.956, 6, -48.2108, -14.9504, 36.943, 27.8637, 72.5371, -156.693
5.96, 6, -48.1967, -14.9578, 36.973, 27.9183, 72.575, -156.585
5.964, 6, -48.1827, -14.9652, 37.0032, 27.9731, 72.6128, -156.478
5.968, 6, -48.1687, -14.9727, 37.0335, 28.028, 72.6505, -156.37
5.972, 6, -48.1547, -14.9802, 37.0639, 28.0831, 72.688, -156.263
5.976, 6, -48.1408, -14.9877, 37.0944, 28.1383, 72.7253, -156.155
