rpiRobotics/ARM-21-02-F-19-Robot-Motion-Program/data_performance_abb/curve_2/baseline/0.2/curve_exe_v820.3125_z10.csv
timestamp, cmd_num, J1, J2, J3, J4, J5, J6
0, -1, 39.4578, 33.4556, 11.6472, 12.9389, 114.837, -47.7807
0.002, -1, 39.4578, 33.4556, 11.6472, 12.9389, 114.837, -47.7807
0.006, -1, 39.4578, 33.4556, 11.6472, 12.9389, 114.837, -47.7807
0.008, -1, 39.4578, 33.4556, 11.6472, 12.9389, 114.837, -47.7807
0.011, -1, 39.4578, 33.4556, 11.6472, 12.9389, 114.837, -47.7807
0.016, -1, 39.4578, 33.4556, 11.6472, 12.9389, 114.837, -47.7807
0.02, -1, 39.4578, 33.4556, 11.6472, 12.9389, 114.837, -47.7807
0.024, -1, 39.4578, 33.4556, 11.6472, 12.9389, 114.837, -47.7807
0.028, -1, 39.4578, 33.4556, 11.6472, 12.9389, 114.837, -47.7807
0.032, -1, 39.4577, 33.4556, 11.6472, 12.9389, 114.837, -47.7807
0.036, -1, 39.4577, 33.4556, 11.6472, 12.9389, 114.837, -47.7807
0.04, -1, 39.4574, 33.4555, 11.6472, 12.9389, 114.837, -47.7807
0.044, -1, 39.4568, 33.4554, 11.6471, 12.9389, 114.837, -47.7808
0.048, -1, 39.4557, 33.4551, 11.647, 12.9389, 114.837, -47.7808
0.052, -1, 39.454, 33.4546, 11.6469, 12.9389, 114.837, -47.781
0.056, -1, 39.4515, 33.4539, 11.6467, 12.9389, 114.837, -47.7813
0.06, -1, 39.4482, 33.4528, 11.6464, 12.9389, 114.837, -47.7819
0.064, -1, 39.4441, 33.4514, 11.6461, 12.9389, 114.836, -47.783
0.068, -1, 39.439, 33.4495, 11.6458, 12.9388, 114.836, -47.7848
0.072, -1, 39.4328, 33.447, 11.6455, 12.9388, 114.835, -47.7874
0.076, -1, 39.4253, 33.4438, 11.6453, 12.9389, 114.833, -47.7913
0.08, -1, 39.4162, 33.4398, 11.6452, 12.9389, 114.831, -47.7967
0.084, -1, 39.4053, 33.4349, 11.6453, 12.939, 114.828, -47.804
0.088, -1, 39.3923, 33.4288, 11.6457, 12.9391, 114.825, -47.8138
0.092, -1, 39.3771, 33.4216, 11.6465, 12.9393, 114.82, -47.8264
0.096, -1, 39.3594, 33.4131, 11.6477, 12.9395, 114.814, -47.8423
0.1, -1, 39.3392, 33.4032, 11.6497, 12.9398, 114.806, -47.8622
0.104, -1, 39.3161, 33.3918, 11.6523, 12.9403, 114.796, -47.8863
0.108, -1, 39.2901, 33.3787, 11.6557, 12.9408, 114.785, -47.9152
0.112, -1, 39.2608, 33.3639, 11.6601, 12.9415, 114.772, -47.9494
0.116, -1, 39.2282, 33.3472, 11.6654, 12.9423, 114.756, -47.9891
0.12, -1, 39.1921, 33.3286, 11.6718, 12.9432, 114.738, -48.0348
0.124, -1, 39.1525, 33.308, 11.6793, 12.9443, 114.717, -48.0867
0.128, -1, 39.1093, 33.2854, 11.688, 12.9455, 114.694, -48.1449
0.131, -1, 39.0624, 33.2608, 11.6978, 12.9469, 114.669, -48.2096
0.136, -1, 39.0119, 33.2341, 11.7088, 12.9485, 114.64, -48.2808
0.139, -1, 38.9576, 33.2053, 11.721, 12.9502, 114.609, -48.3584
0.144, -1, 38.8997, 33.1745, 11.7343, 12.952, 114.576, -48.4423
0.148, -1, 38.8383, 33.1418, 11.7488, 12.954, 114.54, -48.5324
0.152, -1, 38.7735, 33.1072, 11.7642, 12.9562, 114.502, -48.6282
0.156, -1, 38.7054, 33.0708, 11.7806, 12.9584, 114.462, -48.7296
0.16, -1, 38.6342, 33.0328, 11.7979, 12.9608, 114.42, -48.836
0.164, -1, 38.5601, 32.9931, 11.8159, 12.9633, 114.375, -48.947
0.168, -1, 38.4831, 32.952, 11.8346, 12.9659, 114.33, -49.0622
0.172, -1, 38.4034, 32.9094, 11.8538, 12.9686, 114.282, -49.181
0.176, -1, 38.3214, 32.8656, 11.8735, 12.9713, 114.234, -49.303
0.18, -1, 38.2372, 32.8207, 11.8934, 12.9741, 114.184, -49.4277
0.184, -1, 38.1513, 32.7747, 11.9137, 12.9769, 114.134, -49.5547
0.188, -1, 38.0638, 32.7279, 11.9341, 12.9798, 114.083, -49.6835
0.192, -1, 37.9749, 32.6803, 11.9547, 12.9826, 114.031, -49.8137
0.196, -1, 37.8846, 32.632, 11.9753, 12.9855, 113.979, -49.9451
0.2, -1, 37.7932, 32.5832, 11.9959, 12.9884, 113.926, -50.0773
0.204, -1, 37.7005, 32.5338, 12.0165, 12.9913, 113.873, -50.2102
0.208, -1, 37.6067, 32.4841, 12.037, 12.9942, 113.82, -50.3435
0.212, -1, 37.5121, 32.4341, 12.0575, 12.9971, 113.767, -50.4771
0.216, -1, 37.4167, 32.3838, 12.078, 13, 113.714, -50.611
0.22, -1, 37.3208, 32.3334, 12.0984, 13.0029, 113.661, -50.745
0.224, -1, 37.2245, 32.2829, 12.1189, 13.0058, 113.608, -50.8791
0.228, -1, 37.1281, 32.2323, 12.1393, 13.0087, 113.555, -51.0134
0.232, -1, 37.0314, 32.1816, 12.1597, 13.0116, 113.501, -51.1476
0.236, -1, 36.9347, 32.1309, 12.1801, 13.0145, 113.448, -51.282
0.24, -1, 36.8378, 32.0802, 12.2005, 13.0174, 113.395, -51.4163
0.244, -1, 36.7409, 32.0294, 12.2209, 13.0203, 113.341, -51.5507
0.248, -1, 36.644, 31.9786, 12.2414, 13.0232, 113.288, -51.6852
0.252, -1, 36.547, 31.9279, 12.2618, 13.0262, 113.235, -51.8196
0.256, -1, 36.4499, 31.8771, 12.2822, 13.0291, 113.181, -51.9541
0.26, -1, 36.3529, 31.8262, 12.3026, 13.032, 113.128, -52.0886
0.264, -1, 36.2558, 31.7754, 12.3231, 13.0349, 113.074, -52.2232
0.268, -1, 36.1587, 31.7246, 12.3435, 13.0378, 113.021, -52.3577
0.272, -1, 36.0616, 31.6738, 12.3639, 13.0407, 112.968, -52.4923
0.276, -1, 35.9645, 31.6229, 12.3844, 13.0436, 112.914, -52.6269
0.28, -1, 35.8673, 31.572, 12.4048, 13.0465, 112.861, -52.7616
0.284, -1, 35.7702, 31.5212, 12.4253, 13.0494, 112.807, -52.8962
0.288, -1, 35.673, 31.4703, 12.4457, 13.0523, 112.754, -53.0309
0.292, -1, 35.5758, 31.4194, 12.4661, 13.0552, 112.701, -53.1656
0.296, -1, 35.4786, 31.3685, 12.4866, 13.0581, 112.647, -53.3003
0.3, -1, 35.3814, 31.3176, 12.5071, 13.061, 112.594, -53.435
0.304, -1, 35.2842, 31.2667, 12.5275, 13.0639, 112.54, -53.5697
0.308, -1, 35.1869, 31.2158, 12.548, 13.0668, 112.487, -53.7045
0.312, -1, 35.0896, 31.1649, 12.5684, 13.0697, 112.433, -53.8393
0.316, -1, 34.9924, 31.114, 12.5889, 13.0727, 112.38, -53.9741
0.32, -1, 34.8951, 31.063, 12.6094, 13.0756, 112.326, -54.1089
0.324, -1, 34.7978, 31.0121, 12.6299, 13.0785, 112.273, -54.2438
0.328, -1, 34.7005, 30.9612, 12.6503, 13.0814, 112.219, -54.3786
0.332, -1, 34.6031, 30.9102, 12.6708, 13.0843, 112.166, -54.5135
0.336, -1, 34.5058, 30.8592, 12.6913, 13.0872, 112.112, -54.6484
0.34, -1, 34.4084, 30.8083, 12.7118, 13.0901, 112.059, -54.7833
0.344, -1, 34.3111, 30.7573, 12.7323, 13.093, 112.005, -54.9183
0.348, -1, 34.2137, 30.7063, 12.7527, 13.0959, 111.952, -55.0532
0.352, -1, 34.1163, 30.6553, 12.7732, 13.0989, 111.898, -55.1882
0.356, -1, 34.0189, 30.6043, 12.7937, 13.1018, 111.844, -55.3232
0.36, -1, 33.9215, 30.5533, 12.8142, 13.1047, 111.791, -55.4582
0.364, -1, 33.824, 30.5023, 12.8347, 13.1076, 111.737, -55.5932
0.368, -1, 33.7266, 30.4513, 12.8552, 13.1105, 111.684, -55.7282
0.372, -1, 33.6291, 30.4003, 12.8757, 13.1134, 111.63, -55.8633
0.376, -1, 33.5316, 30.3493, 12.8963, 13.1163, 111.577, -55.9984
0.38, -1, 33.4342, 30.2982, 12.9168, 13.1193, 111.523, -56.1334
0.384, -1, 33.3367, 30.2472, 12.9373, 13.1222, 111.469, -56.2686
0.388, -1, 33.2392, 30.1961, 12.9578, 13.1251, 111.416, -56.4037
0.392, -1, 33.1416, 30.1451, 12.9783, 13.128, 111.362, -56.5388
0.396, -1, 33.0441, 30.094, 12.9988, 13.1309, 111.309, -56.674
0.4, -1, 32.9466, 30.043, 13.0194, 13.1338, 111.255, -56.8091
0.404, -1, 32.849, 29.9919, 13.0399, 13.1368, 111.201, -56.9443
0.408, -1, 32.7515, 29.9408, 13.0604, 13.1397, 111.148, -57.0795
0.412, -1, 32.6539, 29.8897, 13.0809, 13.1426, 111.094, -57.2147
0.416, -1, 32.5563, 29.8386, 13.1015, 13.1455, 111.04, -57.35
0.42, -1, 32.4587, 29.7875, 13.122, 13.1484, 110.987, -57.4852
0.424, -1, 32.3611, 29.7364, 13.1425, 13.1514, 110.933, -57.6205
0.428, -1, 32.2635, 29.6853, 13.1631, 13.1543, 110.879, -57.7558
0.432, -1, 32.1659, 29.6342, 13.1836, 13.1572, 110.826, -57.8911
0.436, -1, 32.0682, 29.5831, 13.2042, 13.1601, 110.772, -58.0264
0.44, -1, 31.9706, 29.532, 13.2247, 13.163, 110.718, -58.1617
0.444, -1, 31.8729, 29.4809, 13.2453, 13.166, 110.665, -58.297
0.448, -1, 31.7752, 29.4297, 13.2658, 13.1689, 110.611, -58.4324
0.452, -1, 31.6776, 29.3786, 13.2864, 13.1718, 110.557, -58.5677
0.456, -1, 31.5799, 29.3275, 13.3069, 13.1747, 110.503, -58.7031
0.46, -1, 31.4822, 29.2763, 13.3275, 13.1776, 110.45, -58.8385
0.464, -1, 31.3845, 29.2252, 13.348, 13.1806, 110.396, -58.9739
0.468, -1, 31.2868, 29.174, 13.3686, 13.1835, 110.342, -59.1093
0.472, -1, 31.189, 29.1228, 13.3891, 13.1864, 110.288, -59.2447
0.476, -1, 31.0913, 29.0717, 13.4097, 13.1893, 110.235, -59.3802
0.48, -1, 30.9935, 29.0205, 13.4303, 13.1923, 110.181, -59.5156
0.484, -1, 30.8958, 28.9693, 13.4508, 13.1952, 110.127, -59.6511
0.488, -1, 30.798, 28.9181, 13.4714, 13.1981, 110.074, -59.7866
0.492, -1, 30.7003, 28.867, 13.492, 13.201, 110.02, -59.9221
0.496, -1, 30.6025, 28.8158, 13.5126, 13.204, 109.966, -60.0576
0.5, -1, 30.5047, 28.7646, 13.5331, 13.2069, 109.912, -60.1931
0.504, -1, 30.4069, 28.7134, 13.5537, 13.2098, 109.858, -60.3286
0.508, -1, 30.3091, 28.6622, 13.5743, 13.2127, 109.805, -60.4641
0.512, -1, 30.2113, 28.611, 13.5949, 13.2157, 109.751, -60.5997
0.516, -1, 30.1135, 28.5598, 13.6154, 13.2186, 109.697, -60.7352
0.52, -1, 30.0156, 28.5085, 13.636, 13.2215, 109.643, -60.8708
0.524, -1, 29.9178, 28.4573, 13.6566, 13.2244, 109.59, -61.0064
0.528, -1, 29.82, 28.4061, 13.6772, 13.2274, 109.536, -61.142
0.532, -1, 29.7221, 28.3549, 13.6978, 13.2303, 109.482, -61.2775
0.536, -1, 29.6242, 28.3036, 13.7184, 13.2332, 109.428, -61.4132
0.54, -1, 29.5264, 28.2524, 13.739, 13.2361, 109.374, -61.5488
0.544, -1, 29.4285, 28.2012, 13.7596, 13.2391, 109.32, -61.6844
0.548, -1, 29.3306, 28.1499, 13.7802, 13.242, 109.267, -61.82
0.552, -1, 29.2327, 28.0987, 13.8007, 13.2449, 109.213, -61.9557
0.556, -1, 29.1349, 28.0474, 13.8213, 13.2479, 109.159, -62.0913
0.56, -1, 29.037, 27.9962, 13.8419, 13.2508, 109.105, -62.227
0.564, -1, 28.9391, 27.9449, 13.8625, 13.2537, 109.051, -62.3627
0.568, -1, 28.8411, 27.8937, 13.8831, 13.2566, 108.998, -62.4984
0.572, -1, 28.7432, 27.8424, 13.9037, 13.2596, 108.944, -62.634
0.576, -1, 28.6453, 27.7912, 13.9243, 13.2625, 108.89, -62.7697
0.58, -1, 28.5474, 27.7399, 13.9449, 13.2654, 108.836, -62.9054
0.584, -1, 28.4494, 27.6886, 13.9656, 13.2684, 108.782, -63.0412
0.588, -1, 28.3515, 27.6374, 13.9862, 13.2713, 108.728, -63.1769
0.592, -1, 28.2536, 27.5861, 14.0068, 13.2742, 108.674, -63.3126
0.596, -1, 28.1556, 27.5348, 14.0274, 13.2771, 108.621, -63.4483
0.6, -1, 28.0577, 27.4835, 14.048, 13.2801, 108.567, -63.5841
0.604, -1, 27.9597, 27.4322, 14.0686, 13.283, 108.513, -63.7198
0.608, -1, 27.8617, 27.381, 14.0892, 13.2859, 108.459, -63.8556
0.612, -1, 27.7638, 27.3297, 14.1098, 13.2889, 108.405, -63.9913
0.616, -1, 27.6658, 27.2784, 14.1304, 13.2918, 108.351, -64.1271
0.62, -1, 27.5678, 27.2271, 14.151, 13.2947, 108.297, -64.2629
0.624, -1, 27.4698, 27.1758, 14.1717, 13.2977, 108.244, -64.3987
0.628, -1, 27.3719, 27.1245, 14.1923, 13.3006, 108.19, -64.5345
0.632, -1, 27.2739, 27.0732, 14.2129, 13.3035, 108.136, -64.6703
0.636, -1, 27.1759, 27.0219, 14.2335, 13.3065, 108.082, -64.8061
0.64, -1, 27.0779, 26.9706, 14.2541, 13.3094, 108.028, -64.9419
0.644, -1, 26.9799, 26.9193, 14.2748, 13.3123, 107.974, -65.0777
0.648, -1, 26.8819, 26.868, 14.2954, 13.3152, 107.92, -65.2135
0.652, -1, 26.7839, 26.8167, 14.316, 13.3182, 107.866, -65.3493
0.656, -1, 26.6858, 26.7654, 14.3366, 13.3211, 107.812, -65.4851
0.66, -1, 26.5878, 26.714, 14.3572, 13.324, 107.759, -65.6209
0.664, -1, 26.4898, 26.6627, 14.3779, 13.327, 107.705, -65.7568
0.668, -1, 26.3918, 26.6114, 14.3985, 13.3299, 107.651, -65.8926
0.672, -1, 26.2938, 26.5601, 14.4191, 13.3328, 107.597, -66.0284
0.676, -1, 26.1957, 26.5088, 14.4397, 13.3358, 107.543, -66.1643
0.68, -1, 26.0977, 26.4575, 14.4604, 13.3387, 107.489, -66.3001
0.684, -1, 25.9997, 26.4061, 14.481, 13.3416, 107.435, -66.436
0.688, -1, 25.9016, 26.3548, 14.5016, 13.3446, 107.381, -66.5718
0.692, -1, 25.8036, 26.3035, 14.5222, 13.3475, 107.327, -66.7077
0.696, -1, 25.7056, 26.2522, 14.5429, 13.3504, 107.273, -66.8435
0.7, -1, 25.6075, 26.2008, 14.5635, 13.3534, 107.22, -66.9794
0.704, -1, 25.5095, 26.1495, 14.5841, 13.3563, 107.166, -67.1153
0.708, -1, 25.4114, 26.0982, 14.6047, 13.3592, 107.112, -67.2511
0.712, -1, 25.3134, 26.0469, 14.6254, 13.3622, 107.058, -67.387
0.716, -1, 25.2153, 25.9955, 14.646, 13.3651, 107.004, -67.5229
0.72, -1, 25.1173, 25.9442, 14.6666, 13.368, 106.95, -67.6587
0.724, -1, 25.0192, 25.8929, 14.6873, 13.371, 106.896, -67.7946
0.728, -1, 24.9212, 25.8415, 14.7079, 13.3739, 106.842, -67.9305
0.732, -1, 24.8231, 25.7902, 14.7285, 13.3768, 106.788, -68.0664
0.736, -1, 24.7251, 25.7389, 14.7491, 13.3798, 106.734, -68.2022
0.74, -1, 24.627, 25.6876, 14.7698, 13.3827, 106.68, -68.3381
0.744, -1, 24.529, 25.6362, 14.7904, 13.3856, 106.627, -68.474
0.748, -1, 24.4309, 25.5849, 14.811, 13.3886, 106.573, -68.6099
0.752, -1, 24.3329, 25.5336, 14.8317, 13.3915, 106.519, -68.7457
0.756, -1, 24.2348, 25.4822, 14.8523, 13.3944, 106.465, -68.8816
0.76, -1, 24.1368, 25.4309, 14.8729, 13.3974, 106.411, -69.0175
0.764, -1, 24.0387, 25.3796, 14.8936, 13.4003, 106.357, -69.1534
0.768, -1, 23.9406, 25.3282, 14.9142, 13.4032, 106.303, -69.2893
0.772, -1, 23.8426, 25.2769, 14.9348, 13.4062, 106.249, -69.4251
0.776, -1, 23.7445, 25.2256, 14.9554, 13.4091, 106.195, -69.561
0.78, -1, 23.6465, 25.1742, 14.9761, 13.412, 106.141, -69.6969
0.784, -1, 23.5484, 25.1229, 14.9967, 13.415, 106.087, -69.8328
0.788, -1, 23.4504, 25.0716, 15.0173, 13.4179, 106.033, -69.9687
0.792, -1, 23.3523, 25.0202, 15.038, 13.4208, 105.98, -70.1045
0.796, -1, 23.2543, 24.9689, 15.0586, 13.4237, 105.926, -70.2404
0.8, -1, 23.1562, 24.9176, 15.0792, 13.4267, 105.872, -70.3763
0.804, -1, 23.0582, 24.8662, 15.0999, 13.4296, 105.818, -70.5121
0.808, -1, 22.9601, 24.8149, 15.1205, 13.4325, 105.764, -70.648
0.812, -1, 22.8621, 24.7636, 15.1411, 13.4355, 105.71, -70.7839
0.816, -1, 22.7641, 24.7123, 15.1617, 13.4384, 105.656, -70.9197
0.82, -1, 22.666, 24.6609, 15.1824, 13.4413, 105.602, -71.0556
0.824, -1, 22.568, 24.6096, 15.203, 13.4443, 105.548, -71.1914
0.828, -1, 22.4699, 24.5583, 15.2236, 13.4472, 105.494, -71.3273
0.832, -1, 22.3719, 24.507, 15.2442, 13.4501, 105.44, -71.4632
0.836, -1, 22.2739, 24.4556, 15.2649, 13.4531, 105.387, -71.599
0.84, -1, 22.1758, 24.4043, 15.2855, 13.456, 105.333, -71.7348
0.844, -1, 22.0778, 24.353, 15.3061, 13.4589, 105.279, -71.8707
0.848, -1, 21.9798, 24.3017, 15.3267, 13.4619, 105.225, -72.0065
0.852, -1, 21.8818, 24.2504, 15.3474, 13.4648, 105.171, -72.1423
0.856, -1, 21.7838, 24.1991, 15.368, 13.4677, 105.117, -72.2782
0.86, -1, 21.6857, 24.1477, 15.3886, 13.4707, 105.063, -72.414
0.864, -1, 21.5877, 24.0964, 15.4092, 13.4736, 105.009, -72.5498
0.868, -1, 21.4897, 24.0451, 15.4298, 13.4765, 104.955, -72.6856
0.872, -1, 21.3917, 23.9938, 15.4505, 13.4795, 104.902, -72.8214
0.876, -1, 21.2937, 23.9425, 15.4711, 13.4824, 104.848, -72.9572
0.88, -1, 21.1957, 23.8912, 15.4917, 13.4853, 104.794, -73.093
0.884, -1, 21.0977, 23.8399, 15.5123, 13.4883, 104.74, -73.2288
0.888, -1, 20.9998, 23.7886, 15.5329, 13.4912, 104.686, -73.3646
0.892, -1, 20.9018, 23.7373, 15.5535, 13.4941, 104.632, -73.5004
0.896, -1, 20.8038, 23.686, 15.5742, 13.497, 104.578, -73.6362
0.9, -1, 20.7058, 23.6347, 15.5948, 13.5, 104.524, -73.7719
0.904, -1, 20.6078, 23.5835, 15.6154, 13.5029, 104.471, -73.9077
0.908, -1, 20.5099, 23.5322, 15.636, 13.5058, 104.417, -74.0434
0.912, -1, 20.4119, 23.4809, 15.6566, 13.5088, 104.363, -74.1792
0.916, -1, 20.314, 23.4296, 15.6772, 13.5117, 104.309, -74.3149
0.92, -1, 20.216, 23.3783, 15.6978, 13.5146, 104.255, -74.4507
0.924, -1, 20.1181, 23.3271, 15.7184, 13.5176, 104.201, -74.5864
0.928, -1, 20.0201, 23.2758, 15.739, 13.5205, 104.147, -74.7221
0.932, -1, 19.9222, 23.2245, 15.7596, 13.5234, 104.094, -74.8578
0.936, -1, 19.8243, 23.1733, 15.7802, 13.5263, 104.04, -74.9935
0.94, -1, 19.7263, 23.122, 15.8008, 13.5293, 103.986, -75.1292
0.944, -1, 19.6284, 23.0707, 15.8214, 13.5322, 103.932, -75.2649
0.948, -1, 19.5305, 23.0195, 15.842, 13.5351, 103.878, -75.4006
0.952, -1, 19.4326, 22.9682, 15.8626, 13.5381, 103.824, -75.5363
0.956, -1, 19.3347, 22.917, 15.8832, 13.541, 103.771, -75.6719
0.96, -1, 19.2368, 22.8657, 15.9038, 13.5439, 103.717, -75.8076
0.964, -1, 19.1389, 22.8145, 15.9244, 13.5468, 103.663, -75.9432
0.968, -1, 19.041, 22.7632, 15.945, 13.5498, 103.609, -76.0788
0.972, -1, 18.9432, 22.712, 15.9656, 13.5527, 103.555, -76.2145
0.976, -1, 18.8453, 22.6608, 15.9862, 13.5556, 103.501, -76.3501
0.98, -1, 18.7475, 22.6096, 16.0068, 13.5585, 103.448, -76.4857
0.984, -1, 18.6496, 22.5583, 16.0274, 13.5615, 103.394, -76.6213
0.988, -1, 18.5518, 22.5071, 16.048, 13.5644, 103.34, -76.7569
0.992, -1, 18.4539, 22.4559, 16.0685, 13.5673, 103.286, -76.8924
0.996, -1, 18.3561, 22.4047, 16.0891, 13.5703, 103.232, -77.028
1, -1, 18.2583, 22.3535, 16.1097, 13.5732, 103.179, -77.1636
1.004, -1, 18.1605, 22.3023, 16.1303, 13.5761, 103.125, -77.2991
1.008, -1, 18.0626, 22.2511, 16.1509, 13.579, 103.071, -77.4346
1.012, -1, 17.9648, 22.1999, 16.1714, 13.582, 103.017, -77.5702
1.016, -1, 17.8671, 22.1487, 16.192, 13.5849, 102.964, -77.7057
1.02, -1, 17.7693, 22.0975, 16.2126, 13.5878, 102.91, -77.8412
1.024, -1, 17.6715, 22.0463, 16.2332, 13.5907, 102.856, -77.9766
1.027, -1, 17.5737, 21.9951, 16.2537, 13.5937, 102.802, -78.1121
1.032, -1, 17.476, 21.9439, 16.2743, 13.5966, 102.749, -78.2476
1.036, -1, 17.3782, 21.8928, 16.2949, 13.5995, 102.695, -78.383
1.04, -1, 17.2805, 21.8416, 16.3154, 13.6024, 102.641, -78.5185
1.044, -1, 17.1827, 21.7905, 16.336, 13.6053, 102.587, -78.6539
1.048, -1, 17.085, 21.7393, 16.3565, 13.6083, 102.534, -78.7893
1.052, -1, 16.9873, 21.6881, 16.3771, 13.6112, 102.48, -78.9247
1.055, -1, 16.8896, 21.637, 16.3976, 13.6141, 102.426, -79.0601
1.06, -1, 16.7919, 21.5859, 16.4182, 13.617, 102.372, -79.1955
1.064, -1, 16.6942, 21.5347, 16.4388, 13.62, 102.319, -79.3308
1.068, -1, 16.5965, 21.4836, 16.4593, 13.6229, 102.265, -79.4662
1.072, -1, 16.4989, 21.4325, 16.4798, 13.6258, 102.211, -79.6015
1.076, -1, 16.4012, 21.3813, 16.5004, 13.6287, 102.158, -79.7369
1.08, -1, 16.3036, 21.3302, 16.5209, 13.6316, 102.104, -79.8722
1.084, -1, 16.2059, 21.2791, 16.5415, 13.6346, 102.05, -80.0075
1.088, -1, 16.1083, 21.228, 16.562, 13.6375, 101.997, -80.1427
1.091, -1, 16.0107, 21.1769, 16.5826, 13.6404, 101.943, -80.278
1.096, -1, 15.9131, 21.1258, 16.6031, 13.6433, 101.889, -80.4133
1.1, -1, 15.8155, 21.0747, 16.6236, 13.6462, 101.836, -80.5485
1.104, -1, 15.7179, 21.0236, 16.6442, 13.6492, 101.782, -80.6837
1.108, -1, 15.6203, 20.9725, 16.6647, 13.6521, 101.728, -80.8189
1.112, -1, 15.5228, 20.9215, 16.6852, 13.655, 101.675, -80.9541
1.116, -1, 15.4252, 20.8704, 16.7057, 13.6579, 101.621, -81.0893
1.119, -1, 15.3277, 20.8193, 16.7262, 13.6608, 101.567, -81.2245
1.124, -1, 15.2301, 20.7683, 16.7468, 13.6637, 101.514, -81.3596
1.128, -1, 15.1326, 20.7172, 16.7673, 13.6667, 101.46, -81.4948
1.132, -1, 15.0351, 20.6662, 16.7878, 13.6696, 101.407, -81.6299
1.136, -1, 14.9376, 20.6152, 16.8083, 13.6725, 101.353, -81.765
1.14, -1, 14.8401, 20.5641, 16.8288, 13.6754, 101.299, -81.9001
1.144, -1, 14.7426, 20.5131, 16.8493, 13.6783, 101.246, -82.0352
1.147, -1, 14.6452, 20.4621, 16.8698, 13.6812, 101.192, -82.1702
1.152, -1, 14.5477, 20.4111, 16.8903, 13.6842, 101.139, -82.3053
1.156, -1, 14.4503, 20.3601, 16.9108, 13.6871, 101.085, -82.4403
1.16, -1, 14.3528, 20.3091, 16.9313, 13.69, 101.031, -82.5753
1.164, -1, 14.2554, 20.2581, 16.9518, 13.6929, 100.978, -82.7103
1.168, -1, 14.158, 20.2071, 16.9723, 13.6958, 100.924, -82.8452
1.172, -1, 14.0606, 20.1561, 16.9928, 13.6987, 100.871, -82.9802
1.175, -1, 13.9633, 20.1051, 17.0133, 13.7016, 100.817, -83.1151
1.18, -1, 13.8659, 20.0541, 17.0338, 13.7046, 100.764, -83.2501
1.184, -1, 13.7685, 20.0032, 17.0543, 13.7075, 100.71, -83.385
1.188, -1, 13.6712, 19.9522, 17.0747, 13.7104, 100.657, -83.5198
1.192, -1, 13.5739, 19.9013, 17.0952, 13.7133, 100.603, -83.6547
1.196, -1, 13.4766, 19.8503, 17.1157, 13.7162, 100.55, -83.7896
1.2, -1, 13.3793, 19.7994, 17.1362, 13.7191, 100.496, -83.9244
1.204, -1, 13.282, 19.7485, 17.1566, 13.722, 100.443, -84.0592
1.208, -1, 13.1847, 19.6975, 17.1771, 13.7249, 100.389, -84.194
1.212, -1, 13.0874, 19.6466, 17.1976, 13.7278, 100.336, -84.3288
1.216, -1, 12.9902, 19.5957, 17.218, 13.7307, 100.282, -84.4635
1.22, -1, 12.8929, 19.5448, 17.2385, 13.7337, 100.229, -84.5983
1.224, -1, 12.7957, 19.4939, 17.2589, 13.7366, 100.175, -84.733
1.228, -1, 12.6985, 19.443, 17.2794, 13.7395, 100.122, -84.8677
1.232, -1, 12.6013, 19.3922, 17.2998, 13.7424, 100.068, -85.0024
1.236, -1, 12.5041, 19.3413, 17.3203, 13.7453, 100.015, -85.137
1.24, -1, 12.407, 19.2904, 17.3407, 13.7482, 99.9615, -85.2717
1.244, -1, 12.3098, 19.2396, 17.3611, 13.7511, 99.9081, -85.4063
1.248, -1, 12.2127, 19.1887, 17.3816, 13.754, 99.8547, -85.5409
1.252, -1, 12.1156, 19.1379, 17.402, 13.7569, 99.8013, -85.6755
1.256, -1, 12.0185, 19.0871, 17.4224, 13.7598, 99.7479, -85.81
1.26, -1, 11.9214, 19.0362, 17.4429, 13.7627, 99.6945, -85.9446
1.264, -1, 11.8243, 18.9854, 17.4633, 13.7656, 99.6412, -86.0791
1.267, -1, 11.7272, 18.9346, 17.4837, 13.7685, 99.5878, -86.2136
1.272, -1, 11.6302, 18.8838, 17.5041, 13.7714, 99.5345, -86.348
1.276, -1, 11.5332, 18.833, 17.5245, 13.7743, 99.4811, -86.4825
1.28, -1, 11.4361, 18.7822, 17.5449, 13.7772, 99.4278, -86.6169
1.284, -1, 11.3391, 18.7314, 17.5654, 13.7801, 99.3744, -86.7513
1.288, -1, 11.2422, 18.6807, 17.5858, 13.783, 99.3211, -86.8857
1.292, -1, 11.1452, 18.6299, 17.6062, 13.7859, 99.2678, -87.0201
1.295, -1, 11.0482, 18.5792, 17.6266, 13.7888, 99.2145, -87.1544
1.3, -1, 10.9513, 18.5284, 17.6469, 13.7917, 99.1612, -87.2888
1.304, -1, 10.8544, 18.4777, 17.6673, 13.7946, 99.1079, -87.4231
1.308, -1, 10.7575, 18.427, 17.6877, 13.7975, 99.0546, -87.5574
1.312, -1, 10.6606, 18.3762, 17.7081, 13.8004, 99.0014, -87.6916
1.316, -1, 10.5637, 18.3255, 17.7285, 13.8033, 98.9481, -87.8259
1.32, -1, 10.4669, 18.2748, 17.7489, 13.8062, 98.8948, -87.9601
1.324, -1, 10.37, 18.2241, 17.7692, 13.8091, 98.8416, -88.0943
1.328, -1, 10.2732, 18.1734, 17.7896, 13.812, 98.7884, -88.2284
1.332, -1, 10.1764, 18.1228, 17.81, 13.8149, 98.7351, -88.3626
1.336, -1, 10.0796, 18.0721, 17.8303, 13.8178, 98.6819, -88.4967
1.34, -1, 9.98281, 18.0214, 17.8507, 13.8207, 98.6287, -88.6308
1.344, -1, 9.88605, 17.9708, 17.871, 13.8236, 98.5755, -88.7649
1.348, -1, 9.78931, 17.9201, 17.8914, 13.8265, 98.5223, -88.8989
1.352, -1, 9.69258, 17.8695, 17.9117, 13.8294, 98.4692, -89.0329
1.356, -1, 9.59587, 17.8189, 17.9321, 13.8323, 98.416, -89.1669
1.36, -1, 9.49918, 17.7683, 17.9524, 13.8352, 98.3628, -89.3009
1.364, -1, 9.40251, 17.7177, 17.9728, 13.838, 98.3097, -89.4349
1.368, -1, 9.30585, 17.6671, 17.9931, 13.8409, 98.2565, -89.5688
1.372, -1, 9.20922, 17.6165, 18.0134, 13.8438, 98.2034, -89.7027
1.376, -1, 9.11259, 17.5659, 18.0338, 13.8467, 98.1503, -89.8366
1.38, -1, 9.01599, 17.5153, 18.0541, 13.8496, 98.0972, -89.9705
1.384, -1, 8.9194, 17.4648, 18.0744, 13.8525, 98.0441, -90.1043
1.388, -1, 8.82283, 17.4142, 18.0947, 13.8554, 97.991, -90.2381
1.392, -1, 8.72628, 17.3637, 18.115, 13.8583, 97.9379, -90.3719
1.396, -1, 8.62975, 17.3132, 18.1353, 13.8612, 97.8848, -90.5057
1.4, -1, 8.53324, 17.2626, 18.1556, 13.864, 97.8317, -90.6394
1.404, -1, 8.43674, 17.2121, 18.1759, 13.8669, 97.7787, -90.7731
1.408, -1, 8.34026, 17.1616, 18.1962, 13.8698, 97.7256, -90.9068
1.412, -1, 8.2438, 17.1111, 18.2165, 13.8727, 97.6726, -91.0405
1.416, -1, 8.14735, 17.0606, 18.2368, 13.8756, 97.6196, -91.1741
1.42, -1, 8.05093, 17.0102, 18.2571, 13.8785, 97.5666, -91.3077
1.424, -1, 7.95452, 16.9597, 18.2774, 13.8813, 97.5136, -91.4413
1.428, -1, 7.85813, 16.9092, 18.2977, 13.8842, 97.4606, -91.5749
1.432, -1, 7.76177, 16.8588, 18.3179, 13.8871, 97.4076, -91.7084
1.436, -1, 7.66541, 16.8084, 18.3382, 13.89, 97.3546, -91.8419
1.44, -1, 7.56908, 16.7579, 18.3585, 13.8929, 97.3017, -91.9754
1.444, -1, 7.47277, 16.7075, 18.3787, 13.8958, 97.2487, -92.1088
1.448, -1, 7.37647, 16.6571, 18.399, 13.8986, 97.1957, -92.2423
1.452, -1, 7.2802, 16.6067, 18.4192, 13.9015, 97.1428, -92.3757
1.456, -1, 7.18394, 16.5563, 18.4395, 13.9044, 97.0899, -92.5091
1.46, -1, 7.0877, 16.506, 18.4597, 13.9073, 97.037, -92.6424
1.464, -1, 6.99148, 16.4556, 18.48, 13.9102, 96.9841, -92.7757
1.468, -1, 6.89528, 16.4052, 18.5002, 13.913, 96.9312, -92.909
1.472, -1, 6.7991, 16.3549, 18.5205, 13.9159, 96.8783, -93.0423
1.476, -1, 6.70294, 16.3045, 18.5407, 13.9188, 96.8254, -93.1756
1.48, -1, 6.6068, 16.2542, 18.5609, 13.9217, 96.7726, -93.3088
1.484, -1, 6.51068, 16.2039, 18.5811, 13.9245, 96.7197, -93.442
1.488, -1, 6.41458, 16.1536, 18.6014, 13.9274, 96.6669, -93.5751
1.492, -1, 6.3185, 16.1033, 18.6216, 13.9303, 96.6141, -93.7083
1.496, -1, 6.22243, 16.053, 18.6418, 13.9332, 96.5613, -93.8414
1.5, -1, 6.12639, 16.0027, 18.662, 13.936, 96.5085, -93.9745
1.504, -1, 6.03037, 15.9525, 18.6822, 13.9389, 96.4557, -94.1075
1.508, -1, 5.93436, 15.9022, 18.7024, 13.9418, 96.4029, -94.2405
1.512, -1, 5.83838, 15.852, 18.7226, 13.9446, 96.3501, -94.3735
1.516, -1, 5.74242, 15.8017, 18.7428, 13.9475, 96.2973, -94.5065
1.52, -1, 5.64648, 15.7515, 18.7629, 13.9504, 96.2446, -94.6395
1.524, -1, 5.55056, 15.7013, 18.7831, 13.9532, 96.1919, -94.7724
1.528, -1, 5.45465, 15.6511, 18.8033, 13.9561, 96.1391, -94.9053
1.532, -1, 5.35877, 15.6009, 18.8235, 13.959, 96.0864, -95.0381
1.536, -1, 5.26291, 15.5507, 18.8436, 13.9619, 96.0337, -95.1709
1.54, -1, 5.16707, 15.5006, 18.8638, 13.9647, 95.981, -95.3037
1.544, -1, 5.07125, 15.4504, 18.8839, 13.9676, 95.9283, -95.4365
1.548, -1, 4.97546, 15.4003, 18.9041, 13.9704, 95.8757, -95.5693
1.552, -1, 4.87968, 15.3501, 18.9242, 13.9733, 95.823, -95.702
1.556, -1, 4.78392, 15.3, 18.9444, 13.9762, 95.7704, -95.8347
1.56, -1, 4.68819, 15.2499, 18.9645, 13.979, 95.7177, -95.9673
1.564, -1, 4.59247, 15.1998, 18.9847, 13.9819, 95.6651, -96.0999
1.568, -1, 4.49678, 15.1497, 19.0048, 13.9848, 95.6125, -96.2325
1.572, -1, 4.40111, 15.0996, 19.0249, 13.9876, 95.5599, -96.3651
1.576, -1, 4.30546, 15.0496, 19.045, 13.9905, 95.5073, -96.4977
1.58, -1, 4.20983, 14.9995, 19.0652, 13.9933, 95.4547, -96.6302
1.584, -1, 4.11422, 14.9494, 19.0853, 13.9962, 95.4022, -96.7626
1.588, -1, 4.01864, 14.8994, 19.1054, 13.9991, 95.3496, -96.8951
1.592, -1, 3.92307, 14.8494, 19.1255, 14.0019, 95.2971, -97.0275
1.596, -1, 3.82753, 14.7994, 19.1456, 14.0048, 95.2445, -97.1599
1.6, -1, 3.73201, 14.7494, 19.1657, 14.0076, 95.192, -97.2923
1.604, -1, 3.63651, 14.6994, 19.1858, 14.0105, 95.1395, -97.4246
1.608, -1, 3.54103, 14.6494, 19.2059, 14.0133, 95.087, -97.5569
1.612, -1, 3.44558, 14.5994, 19.2259, 14.0162, 95.0345, -97.6891
1.616, -1, 3.35014, 14.5495, 19.246, 14.0191, 94.9821, -97.8214
1.62, -1, 3.25473, 14.4995, 19.2661, 14.0219, 94.9296, -97.9536
1.624, -1, 3.15934, 14.4496, 19.2862, 14.0248, 94.8772, -98.0858
1.628, -1, 3.06398, 14.3997, 19.3062, 14.0276, 94.8247, -98.2179
1.632, -1, 2.96864, 14.3498, 19.3263, 14.0305, 94.7723, -98.35
1.636, -1, 2.87331, 14.2999, 19.3463, 14.0333, 94.7199, -98.4821
1.64, -1, 2.77802, 14.25, 19.3664, 14.0362, 94.6675, -98.6142
1.644, -1, 2.68274, 14.2001, 19.3864, 14.039, 94.6151, -98.7462
1.648, -1, 2.58749, 14.1503, 19.4065, 14.0419, 94.5628, -98.8782
1.652, -1, 2.49226, 14.1004, 19.4265, 14.0447, 94.5104, -99.0101
1.656, -1, 2.39705, 14.0506, 19.4465, 14.0476, 94.4581, -99.142
1.66, -1, 2.30186, 14.0007, 19.4665, 14.0504, 94.4057, -99.2739
1.664, -1, 2.2067, 13.9509, 19.4866, 14.0533, 94.3534, -99.4058
1.668, -1, 2.11156, 13.9011, 19.5066, 14.0561, 94.3011, -99.5376
1.672, -1, 2.01644, 13.8513, 19.5266, 14.0589, 94.2488, -99.6694
1.676, -1, 1.92135, 13.8016, 19.5466, 14.0618, 94.1965, -99.8012
1.68, -1, 1.82627, 13.7518, 19.5666, 14.0646, 94.1443, -99.9329
1.684, -1, 1.73123, 13.702, 19.5866, 14.0675, 94.092, -100.065
1.688, -1, 1.6362, 13.6523, 19.6066, 14.0703, 94.0398, -100.196
1.692, -1, 1.5412, 13.6026, 19.6266, 14.0732, 93.9875, -100.328
1.696, -1, 1.44622, 13.5529, 19.6465, 14.076, 93.9353, -100.46
1.7, -1, 1.35126, 13.5032, 19.6665, 14.0788, 93.8831, -100.591
1.704, -1, 1.25633, 13.4535, 19.6865, 14.0817, 93.8309, -100.723
1.708, -1, 1.16142, 13.4038, 19.7065, 14.0845, 93.7787, -100.854
1.712, -1, 1.06653, 13.3541, 19.7264, 14.0874, 93.7266, -100.986
1.716, -1, 0.971669, 13.3045, 19.7464, 14.0902, 93.6744, -101.117
1.72, -1, 0.87683, 13.2548, 19.7663, 14.093, 93.6223, -101.248
1.724, -1, 0.782014, 13.2052, 19.7863, 14.0959, 93.5701, -101.38
1.728, -1, 0.687222, 13.1556, 19.8062, 14.0987, 93.518, -101.511
1.732, -1, 0.592453, 13.106, 19.8261, 14.1015, 93.4659, -101.643
1.736, -1, 0.497707, 13.0564, 19.8461, 14.1044, 93.4138, -101.774
1.74, -1, 0.402985, 13.0068, 19.866, 14.1072, 93.3617, -101.905
1.744, -1, 0.308287, 12.9572, 19.8859, 14.11, 93.3097, -102.036
1.748, -1, 0.213613, 12.9076, 19.9058, 14.1129, 93.2576, -102.167
1.752, -1, 0.118962, 12.8581, 19.9258, 14.1157, 93.2056, -102.299
1.756, -1, 0.0243345, 12.8086, 19.9457, 14.1185, 93.1536, -102.43
1.76, -1, -0.0702689, 12.759, 19.9656, 14.1214, 93.1016, -102.561
1.764, -1, -0.164849, 12.7095, 19.9855, 14.1242, 93.0496, -102.692
1.768, -1, -0.259404, 12.66, 20.0054, 14.127, 92.9976, -102.823
1.772, -1, -0.353936, 12.6106, 20.0252, 14.1298, 92.9456, -102.954
1.776, -1, -0.448444, 12.5611, 20.0451, 14.1327, 92.8936, -103.085
1.78, -1, -0.542928, 12.5116, 20.065, 14.1355, 92.8417, -103.216
1.784, -1, -0.637388, 12.4622, 20.0849, 14.1383, 92.7898, -103.347
1.788, -1, -0.731824, 12.4128, 20.1047, 14.1411, 92.7379, -103.477
1.792, -1, -0.826235, 12.3633, 20.1246, 14.144, 92.6859, -103.608
1.796, -1, -0.920623, 12.3139, 20.1444, 14.1468, 92.6341, -103.739
1.8, -1, -1.01499, 12.2645, 20.1643, 14.1496, 92.5822, -103.87
1.804, -1, -1.10932, 12.2152, 20.1841, 14.1524, 92.5303, -104.001
1.808, -1, -1.20364, 12.1658, 20.204, 14.1552, 92.4784, -104.131
1.812, -1, -1.29793, 12.1164, 20.2238, 14.1581, 92.4266, -104.262
1.816, -1, -1.3922, 12.0671, 20.2436, 14.1609, 92.3748, -104.393
1.82, -1, -1.48644, 12.0178, 20.2635, 14.1637, 92.323, -104.523
1.824, -1, -1.58065, 11.9684, 20.2833, 14.1665, 92.2712, -104.654
1.828, -1, -1.67485, 11.9191, 20.3031, 14.1693, 92.2194, -104.784
1.832, -1, -1.76902, 11.8698, 20.3229, 14.1722, 92.1676, -104.915
1.836, -1, -1.86316, 11.8206, 20.3427, 14.175, 92.1158, -105.045
1.84, -1, -1.95728, 11.7713, 20.3625, 14.1778, 92.0641, -105.176
1.844, -1, -2.05137, 11.722, 20.3823, 14.1806, 92.0124, -105.306
1.848, -1, -2.14544, 11.6728, 20.4021, 14.1834, 91.9607, -105.436
1.852, -1, -2.23949, 11.6236, 20.4219, 14.1862, 91.909, -105.567
1.856, -1, -2.33351, 11.5744, 20.4417, 14.189, 91.8573, -105.697
1.86, -1, -2.4275, 11.5252, 20.4614, 14.1919, 91.8056, -105.827
1.864, -1, -2.52147, 11.476, 20.4812, 14.1947, 91.7539, -105.957
1.868, -1, -2.61542, 11.4268, 20.501, 14.1975, 91.7023, -106.087
1.872, -1, -2.70934, 11.3776, 20.5207, 14.2003, 91.6506, -106.218
1.876, -1, -2.80323, 11.3285, 20.5405, 14.2031, 91.599, -106.348
1.88, -1, -2.8971, 11.2793, 20.5602, 14.2059, 91.5474, -106.478
1.884, -1, -2.99095, 11.2302, 20.58, 14.2087, 91.4958, -106.608
1.888, -1, -3.08477, 11.1811, 20.5997, 14.2115, 91.4442, -106.738
1.892, -1, -3.17856, 11.132, 20.6194, 14.2143, 91.3927, -106.868
1.896, -1, -3.27233, 11.0829, 20.6392, 14.2171, 91.3411, -106.998
1.9, -1, -3.36608, 11.0339, 20.6589, 14.2199, 91.2896, -107.128
1.904, -1, -3.4598, 10.9848, 20.6786, 14.2227, 91.238, -107.257
1.908, -1, -3.55349, 10.9358, 20.6983, 14.2255, 91.1865, -107.387
1.912, -1, -3.64716, 10.8867, 20.718, 14.2283, 91.135, -107.517
1.916, -1, -3.7408, 10.8377, 20.7377, 14.2311, 91.0835, -107.647
1.92, -1, -3.83442, 10.7887, 20.7574, 14.2339, 91.0321, -107.777
1.924, -1, -3.92801, 10.7397, 20.7771, 14.2367, 90.9806, -107.906
1.928, -1, -4.02158, 10.6907, 20.7968, 14.2395, 90.9292, -108.036
1.932, -1, -4.11512, 10.6418, 20.8165, 14.2423, 90.8778, -108.165
1.936, -1, -4.20863, 10.5928, 20.8361, 14.2451, 90.8263, -108.295
1.94, -1, -4.30212, 10.5439, 20.8558, 14.2479, 90.7749, -108.425
1.944, -1, -4.39559, 10.495, 20.8755, 14.2507, 90.7236, -108.554
1.948, -1, -4.48902, 10.4461, 20.8951, 14.2535, 90.6722, -108.684
1.952, -1, -4.58244, 10.3972, 20.9148, 14.2563, 90.6208, -108.813
1.956, -1, -4.67582, 10.3483, 20.9344, 14.2591, 90.5695, -108.942
1.96, -1, -4.76918, 10.2994, 20.954, 14.2619, 90.5182, -109.072
1.964, -1, -4.86252, 10.2505, 20.9737, 14.2647, 90.4669, -109.201
1.968, -1, -4.95583, 10.2017, 20.9933, 14.2675, 90.4155, -109.33
1.972, -1, -5.04911, 10.1529, 21.0129, 14.2703, 90.3643, -109.46
1.976, -1, -5.14236, 10.1041, 21.0326, 14.273, 90.313, -109.589
1.98, -1, -5.23559, 10.0553, 21.0522, 14.2758, 90.2617, -109.718
1.984, -1, -5.3288, 10.0065, 21.0718, 14.2786, 90.2105, -109.847
1.988, -1, -5.42198, 9.9577, 21.0914, 14.2814, 90.1593, -109.976
1.992, -1, -5.51513, 9.90894, 21.111, 14.2842, 90.108, -110.105
1.996, -1, -5.60826, 9.86019, 21.1306, 14.287, 90.0568, -110.234
1.999, -1, -5.70136, 9.81146, 21.1501, 14.2898, 90.0057, -110.363
2.004, -1, -5.79443, 9.76274, 21.1697, 14.2925, 89.9545, -110.492
2.008, -1, -5.88748, 9.71404, 21.1893, 14.2953, 89.9033, -110.621
2.012, -1, -5.9805, 9.66535, 21.2089, 14.2981, 89.8522, -110.75
2.015, -1, -6.07349, 9.61667, 21.2284, 14.3009, 89.8011, -110.879
2.019, -1, -6.16646, 9.568, 21.248, 14.3037, 89.75, -111.008
2.024, -1, -6.25941, 9.51935, 21.2675, 14.3065, 89.6989, -111.137
2.028, -1, -6.35232, 9.47072, 21.2871, 14.3092, 89.6478, -111.265
2.031, -1, -6.44521, 9.42209, 21.3066, 14.312, 89.5967, -111.394
2.036, -1, -6.53808, 9.37348, 21.3262, 14.3148, 89.5457, -111.523
2.04, -1, -6.63092, 9.32489, 21.3457, 14.3176, 89.4946, -111.651
2.044, -1, -6.72373, 9.27631, 21.3652, 14.3203, 89.4436, -111.78
2.048, -1, -6.81651, 9.22774, 21.3847, 14.3231, 89.3926, -111.909
2.051, -1, -6.90927, 9.17919, 21.4042, 14.3259, 89.3416, -112.037
2.055, -1, -7.00201, 9.13065, 21.4237, 14.3287, 89.2906, -112.166
2.06, -1, -7.09471, 9.08212, 21.4433, 14.3314, 89.2396, -112.294
2.064, -1, -7.18739, 9.03361, 21.4627, 14.3342, 89.1887, -112.422
2.068, -1, -7.28005, 8.98511, 21.4822, 14.337, 89.1377, -112.551
2.071, -1, -7.37267, 8.93662, 21.5017, 14.3397, 89.0868, -112.679
2.076, -1, -7.46528, 8.88815, 21.5212, 14.3425, 89.0359, -112.807
2.08, -1, -7.55785, 8.83969, 21.5407, 14.3453, 88.985, -112.936
2.084, -1, -7.6504, 8.79125, 21.5601, 14.3481, 88.9341, -113.064
2.087, -1, -7.74292, 8.74282, 21.5796, 14.3508, 88.8833, -113.192
2.092, -1, -7.83542, 8.6944, 21.5991, 14.3536, 88.8324, -113.32
2.096, -1, -7.92789, 8.646, 21.6185, 14.3563, 88.7816, -113.448
2.1, -1, -8.02033, 8.59761, 21.638, 14.3591, 88.7307, -113.577
2.104, -1, -8.11275, 8.54924, 21.6574, 14.3619, 88.6799, -113.705
2.107, -1, -8.20514, 8.50087, 21.6768, 14.3646, 88.6291, -113.833
2.111, -1, -8.29751, 8.45253, 21.6963, 14.3674, 88.5784, -113.961
2.116, -1, -8.38985, 8.40419, 21.7157, 14.3702, 88.5276, -114.089
2.12, -1, -8.48216, 8.35587, 21.7351, 14.3729, 88.4768, -114.216
2.124, -1, -8.57445, 8.30756, 21.7545, 14.3757, 88.4261, -114.344
2.127, -1, -8.66671, 8.25927, 21.7739, 14.3784, 88.3754, -114.472
2.132, -1, -8.75894, 8.21099, 21.7933, 14.3812, 88.3247, -114.6
2.136, -1, -8.85115, 8.16273, 21.8127, 14.384, 88.274, -114.728
2.14, -1, -8.94333, 8.11448, 21.8321, 14.3867, 88.2233, -114.855
2.143, -1, -9.03549, 8.06624, 21.8515, 14.3895, 88.1726, -114.983
2.148, -1, -9.12761, 8.01801, 21.8709, 14.3922, 88.122, -115.111
2.152, -1, -9.21972, 7.96981, 21.8903, 14.395, 88.0714, -115.238
2.156, -1, -9.31179, 7.92161, 21.9096, 14.3977, 88.0207, -115.366
2.16, -1, -9.40384, 7.87343, 21.929, 14.4005, 87.9701, -115.494
2.163, -1, -9.49586, 7.82526, 21.9484, 14.4032, 87.9195, -115.621
2.168, -1, -9.58786, 7.7771, 21.9677, 14.406, 87.8689, -115.748
2.172, -1, -9.67983, 7.72896, 21.9871, 14.4087, 87.8184, -115.876
2.176, -1, -9.77177, 7.68084, 22.0064, 14.4115, 87.7678, -116.003
2.179, -1, -9.86369, 7.63272, 22.0257, 14.4142, 87.7173, -116.131
2.184, -1, -9.95558, 7.58462, 22.0451, 14.417, 87.6668, -116.258
2.188, -1, -10.0474, 7.53654, 22.0644, 14.4197, 87.6163, -116.385
2.192, -1, -10.1393, 7.48847, 22.0837, 14.4225, 87.5658, -116.513
2.196, -1, -10.2311, 7.44041, 22.103, 14.4252, 87.5153, -116.64
2.199, -1, -10.3229, 7.39237, 22.1223, 14.428, 87.4649, -116.767
2.204, -1, -10.4146, 7.34434, 22.1416, 14.4307, 87.4144, -116.894
2.208, -1, -10.5064, 7.29632, 22.1609, 14.4335, 87.364, -117.021
2.212, -1, -10.5981, 7.24832, 22.1802, 14.4362, 87.3136, -117.148
2.216, -1, -10.6897, 7.20033, 22.1995, 14.4389, 87.2632, -117.275
2.219, -1, -10.7814, 7.15236, 22.2188, 14.4417, 87.2128, -117.402
2.224, -1, -10.873, 7.1044, 22.2381, 14.4444, 87.1624, -117.529
2.228, -1, -10.9646, 7.05645, 22.2573, 14.4472, 87.112, -117.656
2.232, -1, -11.0562, 7.00852, 22.2766, 14.4499, 87.0617, -117.783
2.235, -1, -11.1477, 6.9606, 22.2958, 14.4526, 87.0114, -117.91
2.24, -1, -11.2393, 6.9127, 22.3151, 14.4554, 86.9611, -118.037
2.244, -1, -11.3308, 6.86481, 22.3343, 14.4581, 86.9108, -118.163
2.248, -1, -11.4222, 6.81693, 22.3536, 14.4609, 86.8605, -118.29
2.252, -1, -11.5137, 6.76907, 22.3728, 14.4636, 86.8102, -118.417
2.255, -1, -11.6051, 6.72122, 22.392, 14.4663, 86.7599, -118.544
2.259, -1, -11.6964, 6.67338, 22.4113, 14.4691, 86.7097, -118.67
2.264, -1, -11.7878, 6.62556, 22.4305, 14.4718, 86.6595, -118.797
2.268, -1, -11.8791, 6.57776, 22.4497, 14.4745, 86.6093, -118.923
2.272, -1, -11.9704, 6.52996, 22.4689, 14.4772, 86.5591, -119.05
2.275, -1, -12.0617, 6.48218, 22.4881, 14.48, 86.5089, -119.176
2.28, -1, -12.153, 6.43442, 22.5073, 14.4827, 86.4587, -119.303
2.284, -1, -12.2442, 6.38667, 22.5265, 14.4854, 86.4086, -119.429
2.288, -1, -12.3354, 6.33893, 22.5457, 14.4882, 86.3584, -119.555
2.291, -1, -12.4266, 6.29121, 22.5649, 14.4909, 86.3083, -119.682
2.296, -1, -12.5177, 6.2435, 22.584, 14.4936, 86.2582, -119.808
2.3, -1, -12.6088, 6.19581, 22.6032, 14.4963, 86.2081, -119.934
2.304, -1, -12.6999, 6.14813, 22.6224, 14.4991, 86.158, -120.061
2.308, -1, -12.791, 6.10046, 22.6415, 14.5018, 86.108, -120.187
2.311, -1, -12.882, 6.05281, 22.6607, 14.5045, 86.0579, -120.313
2.316, -1, -12.973, 6.00517, 22.6798, 14.5072, 86.0079, -120.439
2.32, -1, -13.064, 5.95754, 22.699, 14.51, 85.9579, -120.565
2.324, -1, -13.155, 5.90993, 22.7181, 14.5127, 85.9078, -120.691
2.328, -1, -13.2459, 5.86234, 22.7372, 14.5154, 85.8579, -120.817
2.331, -1, -13.3368, 5.81476, 22.7563, 14.5181, 85.8079, -120.943
2.336, -1, -13.4277, 5.76719, 22.7755, 14.5208, 85.7579, -121.069
2.34, -1, -13.5185, 5.71963, 22.7946, 14.5235, 85.708, -121.195
2.344, -1, -13.6094, 5.67209, 22.8137, 14.5263, 85.658, -121.321
2.347, -1, -13.7001, 5.62457, 22.8328, 14.529, 85.6081, -121.446
2.352, -1, -13.7909, 5.57706, 22.8519, 14.5317, 85.5582, -121.572
2.356, -1, -13.8817, 5.52956, 22.871, 14.5344, 85.5083, -121.698
2.36, -1, -13.9724, 5.48207, 22.89, 14.5371, 85.4585, -121.824
2.364, -1, -14.0631, 5.4346, 22.9091, 14.5398, 85.4086, -121.949
2.367, -1, -14.1537, 5.38715, 22.9282, 14.5425, 85.3588, -122.075
2.372, -1, -14.2444, 5.33971, 22.9473, 14.5452, 85.3089, -122.201
2.376, -1, -14.335, 5.29228, 22.9663, 14.548, 85.2591, -122.326
2.38, -1, -14.4255, 5.24486, 22.9854, 14.5507, 85.2093, -122.452
2.383, -1, -14.5161, 5.19747, 23.0044, 14.5534, 85.1595, -122.577
2.388, -1, -14.6066, 5.15008, 23.0235, 14.5561, 85.1098, -122.702
2.392, -1, -14.6971, 5.10271, 23.0425, 14.5588, 85.06, -122.828
2.396, -1, -14.7876, 5.05535, 23.0615, 14.5615, 85.0103, -122.953
2.4, -1, -14.878, 5.00801, 23.0806, 14.5642, 84.9605, -123.079
2.403, -1, -14.9685, 4.96068, 23.0996, 14.5669, 84.9108, -123.204
2.408, -1, -15.0589, 4.91336, 23.1186, 14.5696, 84.8611, -123.329
2.412, -1, -15.1492, 4.86606, 23.1376, 14.5723, 84.8115, -123.454
2.416, -1, -15.2396, 4.81877, 23.1566, 14.575, 84.7618, -123.579
2.42, -1, -15.3299, 4.7715, 23.1756, 14.5777, 84.7121, -123.705
2.423, -1, -15.4202, 4.72424, 23.1946, 14.5804, 84.6625, -123.83
2.428, -1, -15.5104, 4.67699, 23.2136, 14.5831, 84.6129, -123.955
2.432, -1, -15.6007, 4.62976, 23.2326, 14.5858, 84.5633, -124.08
2.436, -1, -15.6909, 4.58254, 23.2515, 14.5885, 84.5137, -124.205
2.439, -1, -15.7811, 4.53533, 23.2705, 14.5912, 84.4641, -124.33
2.444, -1, -15.8712, 4.48814, 23.2895, 14.5939, 84.4145, -124.455
2.448, -1, -15.9614, 4.44096, 23.3084, 14.5966, 84.365, -124.58
2.452, -1, -16.0515, 4.3938, 23.3274, 14.5993, 84.3154, -124.704
2.456, -1, -16.1415, 4.34665, 23.3463, 14.602, 84.2659, -124.829
2.459, -1, -16.2316, 4.29951, 23.3653, 14.6047, 84.2164, -124.954
2.464, -1, -16.3216, 4.25239, 23.3842, 14.6074, 84.1669, -125.079
2.468, -1, -16.4116, 4.20528, 23.4032, 14.6101, 84.1174, -125.203
2.472, -1, -16.5016, 4.15818, 23.4221, 14.6128, 84.068, -125.328
2.476, -1, -16.5915, 4.1111, 23.441, 14.6154, 84.0185, -125.453
2.479, -1, -16.6815, 4.06403, 23.4599, 14.6181, 83.9691, -125.577
2.484, -1, -16.7714, 4.01698, 23.4788, 14.6208, 83.9197, -125.702
2.488, -1, -16.8612, 3.96993, 23.4977, 14.6235, 83.8702, -125.826
2.492, -1, -16.9511, 3.92291, 23.5166, 14.6262, 83.8209, -125.951
2.495, -1, -17.0409, 3.87589, 23.5355, 14.6289, 83.7715, -126.075
2.5, -1, -17.1307, 3.82889, 23.5544, 14.6316, 83.7221, -126.2
2.504, -1, -17.2204, 3.78191, 23.5733, 14.6343, 83.6728, -126.324
2.508, -1, -17.3102, 3.73493, 23.5922, 14.6369, 83.6234, -126.448
2.512, -1, -17.3999, 3.68797, 23.611, 14.6396, 83.5741, -126.573
2.515, -1, -17.4896, 3.64103, 23.6299, 14.6423, 83.5248, -126.697
2.52, -1, -17.5792, 3.5941, 23.6488, 14.645, 83.4755, -126.821
2.524, -1, -17.6689, 3.54718, 23.6676, 14.6477, 83.4262, -126.945
2.528, -1, -17.7585, 3.50027, 23.6865, 14.6503, 83.377, -127.07
2.531, -1, -17.8481, 3.45338, 23.7053, 14.653, 83.3277, -127.194
2.536, -1, -17.9376, 3.40651, 23.7242, 14.6557, 83.2785, -127.318
2.54, -1, -18.0272, 3.35964, 23.743, 14.6584, 83.2292, -127.442
2.544, -1, -18.1167, 3.31279, 23.7618, 14.6611, 83.18, -127.566
2.548, -1, -18.2061, 3.26596, 23.7807, 14.6637, 83.1308, -127.69
2.551, -1, -18.2956, 3.21913, 23.7995, 14.6664, 83.0817, -127.814
2.556, -1, -18.385, 3.17232, 23.8183, 14.6691, 83.0325, -127.938
2.56, -1, -18.4744, 3.12552, 23.8371, 14.6718, 82.9834, -128.062
2.564, -1, -18.5638, 3.07874, 23.8559, 14.6744, 82.9342, -128.185
2.568, -1, -18.6532, 3.03197, 23.8747, 14.6771, 82.8851, -128.309
2.571, -1, -18.7425, 2.98521, 23.8935, 14.6798, 82.836, -128.433
2.576, -1, -18.8318, 2.93847, 23.9123, 14.6824, 82.7869, -128.557
2.58, -1, -18.9211, 2.89174, 23.931, 14.6851, 82.7378, -128.68
2.584, -1, -19.0103, 2.84502, 23.9498, 14.6878, 82.6887, -128.804
2.587, -1, -19.0995, 2.79832, 23.9686, 14.6904, 82.6397, -128.928
2.592, -1, -19.1887, 2.75163, 23.9873, 14.6931, 82.5907, -129.051
2.596, -1, -19.2779, 2.70496, 24.0061, 14.6958, 82.5416, -129.175
2.6, -1, -19.367, 2.6583, 24.0249, 14.6984, 82.4926, -129.298
2.604, -1, -19.4562, 2.61165, 24.0436, 14.7011, 82.4436, -129.422
2.607, -1, -19.5452, 2.56501, 24.0623, 14.7038, 82.3946, -129.545
2.612, -1, -19.6343, 2.51839, 24.0811, 14.7064, 82.3457, -129.669
2.616, -1, -19.7234, 2.47179, 24.0998, 14.7091, 82.2967, -129.792
2.62, -1, -19.8124, 2.42519, 24.1185, 14.7118, 82.2478, -129.915
2.624, -1, -19.9014, 2.37861, 24.1373, 14.7144, 82.1989, -130.039
2.627, -1, -19.9903, 2.33204, 24.156, 14.7171, 82.15, -130.162
2.632, -1, -20.0793, 2.28549, 24.1747, 14.7197, 82.1011, -130.285
2.636, -1, -20.1682, 2.23895, 24.1934, 14.7224, 82.0522, -130.408
2.64, -1, -20.2571, 2.19242, 24.2121, 14.7251, 82.0033, -130.532
2.643, -1, -20.3459, 2.14591, 24.2308, 14.7277, 81.9545, -130.655
2.648, -1, -20.4348, 2.09941, 24.2495, 14.7304, 81.9056, -130.778
2.652, -1, -20.5236, 2.05292, 24.2681, 14.733, 81.8568, -130.901
2.656, -1, -20.6124, 2.00644, 24.2868, 14.7357, 81.808, -131.024
2.66, -1, -20.7011, 1.95998, 24.3055, 14.7383, 81.7592, -131.147
2.663, -1, -20.7898, 1.91354, 24.3242, 14.741, 81.7104, -131.27
2.668, -1, -20.8786, 1.8671, 24.3428, 14.7437, 81.6616, -131.393
2.672, -1, -20.9672, 1.82068, 24.3615, 14.7463, 81.6129, -131.516
2.676, -1, -21.0559, 1.77428, 24.3801, 14.749, 81.5641, -131.638
2.679, -1, -21.1445, 1.72788, 24.3988, 14.7516, 81.5154, -131.761
2.684, -1, -21.2331, 1.6815, 24.4174, 14.7543, 81.4667, -131.884
2.688, -1, -21.3217, 1.63513, 24.436, 14.7569, 81.418, -132.007
2.692, -1, -21.4103, 1.58878, 24.4547, 14.7596, 81.3693, -132.13
2.696, -1, -21.4988, 1.54244, 24.4733, 14.7622, 81.3206, -132.252
2.699, -1, -21.5873, 1.49611, 24.4919, 14.7648, 81.272, -132.375
2.704, -1, -21.6758, 1.4498, 24.5105, 14.7675, 81.2233, -132.497
2.708, -1, -21.7642, 1.4035, 24.5291, 14.7701, 81.1747, -132.62
2.712, -1, -21.8527, 1.35721, 24.5477, 14.7728, 81.1261, -132.742
2.716, -1, -21.9411, 1.31094, 24.5663, 14.7754, 81.0775, -132.865
2.719, -1, -22.0294, 1.26468, 24.5849, 14.7781, 81.0289, -132.987
2.724, -1, -22.1178, 1.21843, 24.6035, 14.7807, 80.9803, -133.11
2.728, -1, -22.2061, 1.17219, 24.6221, 14.7834, 80.9318, -133.232
2.732, -1, -22.2944, 1.12597, 24.6407, 14.786, 80.8832, -133.355
2.735, -1, -22.3827, 1.07977, 24.6592, 14.7886, 80.8347, -133.477
2.74, -1, -22.471, 1.03357, 24.6778, 14.7913, 80.7862, -133.599
2.744, -1, -22.5592, 0.98739, 24.6964, 14.7939, 80.7377, -133.721
2.748, -1, -22.6474, 0.941222, 24.7149, 14.7966, 80.6892, -133.844
2.752, -1, -22.7356, 0.895067, 24.7335, 14.7992, 80.6407, -133.966
2.755, -1, -22.8237, 0.848925, 24.752, 14.8018, 80.5922, -134.088
2.76, -1, -22.9118, 0.802796, 24.7705, 14.8045, 80.5438, -134.21
2.764, -1, -23, 0.75668, 24.7891, 14.8071, 80.4953, -134.332
2.768, -1, -23.088, 0.710577, 24.8076, 14.8097, 80.4469, -134.454
2.772, -1, -23.1761, 0.664487, 24.8261, 14.8124, 80.3985, -134.576
2.775, -1, -23.2641, 0.61841, 24.8446, 14.815, 80.3501, -134.698
2.78, -1, -23.3521, 0.572346, 24.8632, 14.8176, 80.3017, -134.82
2.784, -1, -23.4401, 0.526294, 24.8817, 14.8203, 80.2534, -134.942
2.788, -1, -23.528, 0.480256, 24.9002, 14.8229, 80.205, -135.064
2.791, -1, -23.616, 0.43423, 24.9187, 14.8255, 80.1567, -135.186
2.796, -1, -23.7039, 0.388217, 24.9372, 14.8281, 80.1083, -135.307
2.8, -1, -23.7918, 0.342217, 24.9556, 14.8308, 80.06, -135.429
2.804, -1, -23.8796, 0.296229, 24.9741, 14.8334, 80.0117, -135.551
2.808, -1, -23.9674, 0.250255, 24.9926, 14.836, 79.9634, -135.673
2.811, -1, -24.0553, 0.204293, 25.0111, 14.8387, 79.9152, -135.794
2.816, -1, -24.143, 0.158343, 25.0295, 14.8413, 79.8669, -135.916
2.82, -1, -24.2308, 0.112407, 25.048, 14.8439, 79.8187, -136.038
2.824, -1, -24.3185, 0.0664825, 25.0665, 14.8465, 79.7704, -136.159
2.828, -1, -24.4062, 0.020571, 25.0849, 14.8492, 79.7222, -136.281
2.831, -1, -24.4939, -0.0253279, 25.1033, 14.8518, 79.674, -136.402
2.836, -1, -24.5816, -0.0712142, 25.1218, 14.8544, 79.6258, -136.524
2.84, -1, -24.6692, -0.117088, 25.1402, 14.857, 79.5776, -136.645
2.844, -1, -24.7568, -0.162949, 25.1587, 14.8596, 79.5294, -136.766
2.847, -1, -24.8444, -0.208798, 25.1771, 14.8623, 79.4813, -136.888
2.852, -1, -24.932, -0.254634, 25.1955, 14.8649, 79.4332, -137.009
2.856, -1, -25.0195, -0.300457, 25.2139, 14.8675, 79.385, -137.13
2.86, -1, -25.1071, -0.346269, 25.2323, 14.8701, 79.3369, -137.252
2.864, -1, -25.1946, -0.392067, 25.2507, 14.8727, 79.2888, -137.373
2.867, -1, -25.282, -0.437853, 25.2691, 14.8753, 79.2407, -137.494
2.872, -1, -25.3695, -0.483627, 25.2875, 14.878, 79.1926, -137.615
2.876, -1, -25.4569, -0.529388, 25.3059, 14.8806, 79.1446, -137.736
2.88, -1, -25.5443, -0.575137, 25.3243, 14.8832, 79.0965, -137.858
2.883, -1, -25.6317, -0.620874, 25.3427, 14.8858, 79.0485, -137.979
2.888, -1, -25.719, -0.666597, 25.3611, 14.8884, 79.0005, -138.1
2.892, -1, -25.8064, -0.712309, 25.3794, 14.891, 78.9525, -138.221
2.896, -1, -25.8937, -0.758008, 25.3978, 14.8936, 78.9044, -138.342
2.9, -1, -25.981, -0.803695, 25.4162, 14.8962, 78.8565, -138.463
2.903, -1, -26.0682, -0.84937, 25.4345, 14.8989, 78.8085, -138.583
2.908, -1, -26.1554, -0.895032, 25.4529, 14.9015, 78.7605, -138.704
2.912, -1, -26.2427, -0.940682, 25.4712, 14.9041, 78.7126, -138.825
2.916, -1, -26.3298, -0.98632, 25.4896, 14.9067, 78.6647, -138.946
2.92, -1, -26.417, -1.03195, 25.5079, 14.9093, 78.6167, -139.067
2.923, -1, -26.5042, -1.07756, 25.5262, 14.9119, 78.5688, -139.187
2.928, -1, -26.5913, -1.12316, 25.5445, 14.9145, 78.5209, -139.308
2.932, -1, -26.6784, -1.16875, 25.5629, 14.9171, 78.4731, -139.429
2.936, -1, -26.7654, -1.21432, 25.5812, 14.9197, 78.4252, -139.55
2.939, -1, -26.8525, -1.25989, 25.5995, 14.9223, 78.3773, -139.67
2.944, -1, -26.9395, -1.30544, 25.6178, 14.9249, 78.3295, -139.791
2.948, -1, -27.0265, -1.35098, 25.6361, 14.9275, 78.2817, -139.911
2.952, -1, -27.1135, -1.39651, 25.6544, 14.9301, 78.2338, -140.032
2.956, -1, -27.2004, -1.44202, 25.6727, 14.9327, 78.186, -140.152
2.959, -1, -27.2874, -1.48753, 25.691, 14.9353, 78.1382, -140.273
2.964, -1, -27.3743, -1.53302, 25.7093, 14.9379, 78.0905, -140.393
2.968, -1, -27.4612, -1.5785, 25.7275, 14.9405, 78.0427, -140.514
2.972, -1, -27.548, -1.62396, 25.7458, 14.9431, 77.9949, -140.634
2.976, -1, -27.6349, -1.66942, 25.7641, 14.9457, 77.9472, -140.754
2.98, -1, -27.7217, -1.71486, 25.7823, 14.9483, 77.8995, -140.874
2.984, -1, -27.8085, -1.76029, 25.8006, 14.9509, 77.8518, -140.995
2.988, -1, -27.8952, -1.80571, 25.8189, 14.9535, 77.804, -141.115
2.992, -1, -27.982, -1.85112, 25.8371, 14.9561, 77.7564, -141.235
2.995, -1, -28.0687, -1.89651, 25.8553, 14.9587, 77.7087, -141.355
3, -1, -28.1554, -1.9419, 25.8736, 14.9613, 77.661, -141.475
3.004, -1, -28.2421, -1.98727, 25.8918, 14.9639, 77.6134, -141.596
3.008, -1, -28.3287, -2.03262, 25.91, 14.9665, 77.5657, -141.716
3.012, -1, -28.4154, -2.07797, 25.9283, 14.969, 77.5181, -141.836
3.015, -1, -28.502, -2.12331, 25.9465, 14.9716, 77.4705, -141.956
3.02, -1, -28.5886, -2.16863, 25.9647, 14.9742, 77.4229, -142.076
3.024, -1, -28.6751, -2.21394, 25.9829, 14.9768, 77.3753, -142.196
3.028, -1, -28.7617, -2.25924, 26.0011, 14.9794, 77.3277, -142.315
3.031, -1, -28.8482, -2.30453, 26.0193, 14.982, 77.2801, -142.435
3.036, -1, -28.9347, -2.3498, 26.0375, 14.9846, 77.2326, -142.555
3.04, -1, -29.0212, -2.39506, 26.0557, 14.9872, 77.185, -142.675
3.044, -1, -29.1076, -2.44032, 26.0739, 14.9898, 77.1375, -142.795
3.048, -1, -29.194, -2.48556, 26.0921, 14.9923, 77.09, -142.915
3.051, -1, -29.2804, -2.53078, 26.1102, 14.9949, 77.0425, -143.034
3.056, -1, -29.3668, -2.576, 26.1284, 14.9975, 76.995, -143.154
3.06, -1, -29.4532, -2.6212, 26.1466, 15.0001, 76.9475, -143.274
3.064, -1, -29.5395, -2.6664, 26.1647, 15.0027, 76.9001, -143.393
3.068, -1, -29.6258, -2.71158, 26.1829, 15.0052, 76.8526, -143.513
3.071, -1, -29.7121, -2.75675, 26.2011, 15.0078, 76.8052, -143.632
3.076, -1, -29.7984, -2.8019, 26.2192, 15.0104, 76.7577, -143.752
3.08, -1, -29.8846, -2.84705, 26.2373, 15.013, 76.7103, -143.871
3.084, -1, -29.9709, -2.89218, 26.2555, 15.0156, 76.6629, -143.991
3.087, -1, -30.0571, -2.9373, 26.2736, 15.0181, 76.6155, -144.11
3.092, -1, -30.1432, -2.98241, 26.2917, 15.0207, 76.5682, -144.23
3.096, -1, -30.2294, -3.02751, 26.3099, 15.0233, 76.5208, -144.349
3.1, -1, -30.3155, -3.0726, 26.328, 15.0259, 76.4734, -144.468
3.104, -1, -30.4016, -3.11767, 26.3461, 15.0285, 76.4261, -144.588
3.107, -1, -30.4877, -3.16274, 26.3642, 15.031, 76.3788, -144.707
3.112, -1, -30.5738, -3.20779, 26.3823, 15.0336, 76.3314, -144.826
3.116, -1, -30.6599, -3.25283, 26.4004, 15.0362, 76.2841, -144.946
3.12, -1, -30.7459, -3.29786, 26.4185, 15.0387, 76.2368, -145.065
3.124, -1, -30.8319, -3.34288, 26.4366, 15.0413, 76.1896, -145.184
3.128, -1, -30.9179, -3.38788, 26.4547, 15.0439, 76.1423, -145.303
3.132, -1, -31.0038, -3.43288, 26.4728, 15.0465, 76.095, -145.422
3.136, -1, -31.0898, -3.47786, 26.4909, 15.049, 76.0478, -145.541
3.14, -1, -31.1757, -3.52283, 26.5089, 15.0516, 76.0005, -145.66
3.143, -1, -31.2616, -3.56779, 26.527, 15.0542, 75.9533, -145.779
3.148, -1, -31.3474, -3.61274, 26.5451, 15.0567, 75.9061, -145.898
3.152, -1, -31.4333, -3.65768, 26.5631, 15.0593, 75.8589, -146.017
3.156, -1, -31.5191, -3.70261, 26.5812, 15.0619, 75.8117, -146.136
3.16, -1, -31.6049, -3.74752, 26.5992, 15.0644, 75.7646, -146.255
3.163, -1, -31.6907, -3.79243, 26.6173, 15.067, 75.7174, -146.374
3.168, -1, -31.7765, -3.83732, 26.6353, 15.0696, 75.6702, -146.493
3.172, -1, -31.8622, -3.8822, 26.6534, 15.0721, 75.6231, -146.612
3.176, -1, -31.9479, -3.92707, 26.6714, 15.0747, 75.576, -146.73
3.179, -1, -32.0336, -3.97193, 26.6894, 15.0773, 75.5289, -146.849
3.184, -1, -32.1193, -4.01678, 26.7074, 15.0798, 75.4818, -146.968
3.188, -1, -32.205, -4.06162, 26.7255, 15.0824, 75.4347, -147.086
3.192, -1, -32.2906, -4.10645, 26.7435, 15.0849, 75.3876, -147.205
3.196, -1, -32.3762, -4.15126, 26.7615, 15.0875, 75.3405, -147.324
3.199, -1, -32.4618, -4.19607, 26.7795, 15.0901, 75.2934, -147.442
3.204, -1, -32.5474, -4.24086, 26.7975, 15.0926, 75.2464, -147.561
3.208, -1, -32.633, -4.28565, 26.8155, 15.0952, 75.1994, -147.679
3.212, -1, -32.7185, -4.33042, 26.8335, 15.0977, 75.1523, -147.798
3.216, -1, -32.804, -4.37518, 26.8515, 15.1003, 75.1053, -147.917
3.22, -1, -32.8895, -4.41993, 26.8695, 15.1029, 75.0583, -148.035
3.224, -1, -32.975, -4.46467, 26.8874, 15.1054, 75.0113, -148.153
3.228, -1, -33.0604, -4.5094, 26.9054, 15.108, 74.9644, -148.272
3.232, -1, -33.1459, -4.55412, 26.9234, 15.1105, 74.9174, -148.39
3.235, -1, -33.2313, -4.59883, 26.9414, 15.1131, 74.8704, -148.508
3.24, -1, -33.3167, -4.64352, 26.9593, 15.1156, 74.8235, -148.627
3.244, -1, -33.402, -4.68821, 26.9773, 15.1182, 74.7766, -148.745
3.248, -1, -33.4874, -4.73289, 26.9952, 15.1207, 74.7296, -148.863
3.252, -1, -33.5727, -4.77755, 27.0132, 15.1233, 74.6827, -148.982
3.255, -1, -33.658, -4.82221, 27.0311, 15.1258, 74.6358, -149.1
3.26, -1, -33.7433, -4.86685, 27.0491, 15.1284, 74.5889, -149.218
3.264, -1, -33.8286, -4.91148, 27.067, 15.1309, 74.542, -149.336
3.268, -1, -33.9138, -4.95611, 27.0849, 15.1335, 74.4952, -149.454
3.272, -1, -33.9991, -5.00072, 27.1029, 15.136, 74.4483, -149.572
3.276, -1, -34.0843, -5.04532, 27.1208, 15.1386, 74.4015, -149.69
3.28, -1, -34.1695, -5.08991, 27.1387, 15.1411, 74.3546, -149.808
3.284, -1, -34.2546, -5.13449, 27.1566, 15.1437, 74.3078, -149.926
3.288, -1, -34.3398, -5.17906, 27.1745, 15.1462, 74.261, -150.044
3.291, -1, -34.4249, -5.22362, 27.1924, 15.1488, 74.2142, -150.162
3.296, -1, -34.51, -5.26817, 27.2104, 15.1513, 74.1674, -150.28
3.3, -1, -34.5951, -5.31271, 27.2283, 15.1539, 74.1206, -150.398
3.304, -1, -34.6802, -5.35724, 27.2461, 15.1564, 74.0739, -150.516
3.308, -1, -34.7652, -5.40176, 27.264, 15.1589, 74.0271, -150.634
3.312, -1, -34.8502, -5.44627, 27.2819, 15.1615, 73.9804, -150.752
3.316, -1, -34.9353, -5.49076, 27.2998, 15.164, 73.9336, -150.87
3.32, -1, -35.0202, -5.53525, 27.3177, 15.1666, 73.8869, -150.987
3.324, -1, -35.1052, -5.57973, 27.3356, 15.1691, 73.8402, -151.105
3.328, -1, -35.1902, -5.62419, 27.3534, 15.1717, 73.7935, -151.223
3.332, -1, -35.2751, -5.66865, 27.3713, 15.1742, 73.7468, -151.34
3.336, -1, -35.36, -5.7131, 27.3892, 15.1767, 73.7001, -151.458
3.34, -1, -35.4449, -5.75753, 27.407, 15.1793, 73.6534, -151.576
3.344, -1, -35.5298, -5.80196, 27.4249, 15.1818, 73.6068, -151.693
3.347, -1, -35.6146, -5.84637, 27.4427, 15.1843, 73.5601, -151.811
3.352, -1, -35.6994, -5.89078, 27.4606, 15.1869, 73.5135, -151.928
3.356, -1, -35.7843, -5.93517, 27.4784, 15.1894, 73.4669, -152.046
3.36, -1, -35.869, -5.97955, 27.4962, 15.192, 73.4202, -152.163
3.364, -1, -35.9538, -6.02393, 27.5141, 15.1945, 73.3736, -152.281
3.368, -1, -36.0386, -6.06829, 27.5319, 15.197, 73.327, -152.398
3.372, -1, -36.1233, -6.11265, 27.5497, 15.1996, 73.2805, -152.516
3.376, -1, -36.208, -6.15699, 27.5676, 15.2021, 73.2339, -152.633
3.38, -1, -36.2927, -6.20132, 27.5854, 15.2046, 73.1873, -152.75
3.383, -1, -36.3774, -6.24565, 27.6032, 15.2072, 73.1408, -152.868
3.388, -1, -36.4621, -6.28996, 27.621, 15.2097, 73.0942, -152.985
3.392, -1, -36.5467, -6.33427, 27.6388, 15.2122, 73.0477, -153.102
3.396, -1, -36.6313, -6.37856, 27.6566, 15.2148, 73.0012, -153.22
3.4, -1, -36.7159, -6.42284, 27.6744, 15.2173, 72.9547, -153.337
3.403, -1, -36.8005, -6.46712, 27.6922, 15.2198, 72.9082, -153.454
3.408, -1, -36.8851, -6.51138, 27.71, 15.2223, 72.8617, -153.571
3.412, -1, -36.9696, -6.55563, 27.7278, 15.2249, 72.8152, -153.688
3.416, -1, -37.0541, -6.59988, 27.7455, 15.2274, 72.7687, -153.805
3.42, -1, -37.1386, -6.64411, 27.7633, 15.2299, 72.7223, -153.922
3.424, -1, -37.2231, -6.68834, 27.7811, 15.2325, 72.6758, -154.04
3.428, -1, -37.3076, -6.73255, 27.7989, 15.235, 72.6294, -154.157
3.432, -1, -37.392, -6.77675, 27.8166, 15.2375, 72.583, -154.274
3.436, -1, -37.4765, -6.82095, 27.8344, 15.24, 72.5365, -154.391
3.439, -1, -37.5609, -6.86513, 27.8521, 15.2426, 72.4901, -154.508
3.444, -1, -37.6453, -6.90931, 27.8699, 15.2451, 72.4437, -154.624
3.448, -1, -37.7296, -6.95347, 27.8876, 15.2476, 72.3973, -154.741
3.452, -1, -37.814, -6.99763, 27.9054, 15.2501, 72.351, -154.858
3.456, -1, -37.8983, -7.04177, 27.9231, 15.2526, 72.3046, -154.975
3.46, -1, -37.9826, -7.08591, 27.9409, 15.2552, 72.2582, -155.092
3.464, -1, -38.0669, -7.13004, 27.9586, 15.2577, 72.2119, -155.209
3.468, -1, -38.1512, -7.17415, 27.9763, 15.2602, 72.1656, -155.326
3.472, -1, -38.2355, -7.21826, 27.9941, 15.2627, 72.1192, -155.442
3.476, -1, -38.3197, -7.26236, 28.0118, 15.2652, 72.0729, -155.559
3.48, -1, -38.4039, -7.30644, 28.0295, 15.2678, 72.0266, -155.676
3.484, -1, -38.4882, -7.35052, 28.0472, 15.2703, 71.9803, -155.792
3.488, -1, -38.5723, -7.39459, 28.0649, 15.2728, 71.934, -155.909
3.492, -1, -38.6565, -7.43865, 28.0826, 15.2753, 71.8878, -156.026
3.495, -1, -38.7407, -7.4827, 28.1003, 15.2778, 71.8415, -156.142
3.5, -1, -38.8248, -7.52674, 28.118, 15.2804, 71.7952, -156.259
3.504, -1, -38.9089, -7.57077, 28.1357, 15.2829, 71.749, -156.375
3.508, -1, -38.993, -7.61479, 28.1534, 15.2854, 71.7028, -156.492
3.512, -1, -39.0771, -7.6588, 28.1711, 15.2879, 71.6565, -156.608
3.516, -1, -39.1611, -7.7028, 28.1888, 15.2904, 71.6103, -156.725
3.52, -1, -39.2452, -7.74679, 28.2065, 15.2929, 71.5641, -156.841
3.524, -1, -39.3292, -7.79077, 28.2241, 15.2954, 71.5179, -156.958
3.528, -1, -39.4132, -7.83475, 28.2418, 15.298, 71.4717, -157.074
3.531, -1, -39.4972, -7.87871, 28.2595, 15.3005, 71.4256, -157.191
3.536, -1, -39.5812, -7.92266, 28.2771, 15.303, 71.3794, -157.307
3.54, -1, -39.6651, -7.96661, 28.2948, 15.3055, 71.3333, -157.423
3.544, -1, -39.7491, -8.01055, 28.3125, 15.308, 71.2871, -157.54
3.548, -1, -39.833, -8.05447, 28.3301, 15.3105, 71.241, -157.656
3.552, -1, -39.9169, -8.09839, 28.3478, 15.313, 71.1948, -157.772
3.556, -1, -40.0008, -8.1423, 28.3654, 15.3155, 71.1487, -157.888
3.56, -1, -40.0846, -8.1862, 28.3831, 15.318, 71.1026, -158.004
3.564, -1, -40.1685, -8.23009, 28.4007, 15.3205, 71.0565, -158.121
3.568, -1, -40.2523, -8.27397, 28.4183, 15.323, 71.0104, -158.237
3.572, -1, -40.3361, -8.31785, 28.436, 15.3256, 70.9643, -158.353
3.576, -1, -40.4199, -8.36171, 28.4536, 15.3281, 70.9183, -158.469
3.58, -1, -40.5037, -8.40557, 28.4712, 15.3306, 70.8722, -158.585
3.584, -1, -40.5875, -8.44941, 28.4888, 15.3331, 70.8262, -158.701
3.587, -1, -40.6712, -8.49325, 28.5065, 15.3356, 70.7801, -158.817
3.592, -1, -40.755, -8.53708, 28.5241, 15.3381, 70.7341, -158.933
3.596, -1, -40.8387, -8.5809, 28.5417, 15.3406, 70.6881, -159.049
3.6, -1, -40.9224, -8.62471, 28.5593, 15.3431, 70.6421, -159.165
3.604, -1, -41.0061, -8.66852, 28.5769, 15.3456, 70.596, -159.281
3.608, -1, -41.0897, -8.71231, 28.5945, 15.3481, 70.55, -159.397
3.612, -1, -41.1734, -8.75609, 28.6121, 15.3506, 70.5041, -159.513
3.616, -1, -41.257, -8.79987, 28.6297, 15.3531, 70.4581, -159.629
3.62, -1, -41.3406, -8.84364, 28.6473, 15.3556, 70.4121, -159.745
3.624, -1, -41.4242, -8.8874, 28.6649, 15.3581, 70.3661, -159.861
3.628, -1, -41.5078, -8.93115, 28.6824, 15.3606, 70.3202, -159.976
3.632, -1, -41.5914, -8.97489, 28.7, 15.3631, 70.2743, -160.092
3.636, -1, -41.6749, -9.01862, 28.7176, 15.3656, 70.2283, -160.208
3.64, -1, -41.7584, -9.06235, 28.7352, 15.3681, 70.1824, -160.324
3.644, -1, -41.842, -9.10606, 28.7527, 15.3706, 70.1365, -160.439
3.648, -1, -41.9255, -9.14977, 28.7703, 15.3731, 70.0906, -160.555
3.652, -1, -42.0089, -9.19347, 28.7879, 15.3756, 70.0447, -160.671
3.656, -1, -42.0924, -9.23716, 28.8054, 15.3781, 69.9988, -160.786
3.66, -1, -42.1759, -9.28084, 28.823, 15.3806, 69.9529, -160.902
3.664, -1, -42.2593, -9.32452, 28.8405, 15.3831, 69.9071, -161.018
3.668, -1, -42.3427, -9.36818, 28.8581, 15.3856, 69.8612, -161.133
3.672, -1, -42.4261, -9.41184, 28.8756, 15.3881, 69.8153, -161.249
3.676, -1, -42.5095, -9.45549, 28.8932, 15.3905, 69.7695, -161.364
3.679, -1, -42.5929, -9.49913, 28.9107, 15.393, 69.7237, -161.48
3.684, -1, -42.6762, -9.54276, 28.9282, 15.3955, 69.6778, -161.595
3.688, -1, -42.7596, -9.58638, 28.9458, 15.398, 69.632, -161.711
3.692, -1, -42.8429, -9.63, 28.9633, 15.4005, 69.5862, -161.826
3.696, -1, -42.9262, -9.6736, 28.9808, 15.403, 69.5404, -161.942
3.7, -1, -43.0095, -9.7172, 28.9983, 15.4055, 69.4946, -162.057
3.704, -1, -43.0927, -9.76079, 29.0159, 15.408, 69.4488, -162.172
3.708, -1, -43.176, -9.80437, 29.0334, 15.4105, 69.4031, -162.288
3.712, -1, -43.2592, -9.84794, 29.0509, 15.413, 69.3573, -162.403
3.716, -1, -43.3425, -9.89151, 29.0684, 15.4155, 69.3115, -162.519
3.72, -1, -43.4257, -9.93507, 29.0859, 15.4179, 69.2658, -162.634
3.724, -1, -43.5089, -9.97861, 29.1034, 15.4204, 69.22, -162.749
3.728, -1, -43.5921, -10.0222, 29.1209, 15.4229, 69.1743, -162.864
3.732, -1, -43.6752, -10.0657, 29.1384, 15.4254, 69.1286, -162.98
3.735, -1, -43.7584, -10.1092, 29.1559, 15.4279, 69.0829, -163.095
3.74, -1, -43.8415, -10.1527, 29.1734, 15.4304, 69.0372, -163.21
3.744, -1, -43.9246, -10.1962, 29.1909, 15.4329, 68.9915, -163.325
3.748, -1, -44.0077, -10.2397, 29.2083, 15.4354, 68.9458, -163.44
3.752, -1, -44.0908, -10.2832, 29.2258, 15.4378, 68.9001, -163.555
3.756, -1, -44.1739, -10.3267, 29.2433, 15.4403, 68.8544, -163.671
3.76, -1, -44.2569, -10.3702, 29.2608, 15.4428, 68.8088, -163.786
3.764, -1, -44.34, -10.4137, 29.2782, 15.4453, 68.7631, -163.901
3.768, -1, -44.423, -10.4571, 29.2957, 15.4478, 68.7175, -164.016
3.772, -1, -44.506, -10.5006, 29.3132, 15.4503, 68.6718, -164.131
3.776, -1, -44.589, -10.544, 29.3306, 15.4527, 68.6262, -164.246
3.78, -1, -44.672, -10.5874, 29.3481, 15.4552, 68.5806, -164.361
3.784, -1, -44.755, -10.6309, 29.3655, 15.4577, 68.535, -164.476
3.788, -1, -44.8379, -10.6743, 29.383, 15.4602, 68.4894, -164.591
3.792, -1, -44.9208, -10.7177, 29.4004, 15.4627, 68.4438, -164.705
3.796, -1, -45.0038, -10.7611, 29.4179, 15.4651, 68.3982, -164.82
3.8, -1, -45.0867, -10.8045, 29.4353, 15.4676, 68.3526, -164.935
3.804, -1, -45.1696, -10.8479, 29.4528, 15.4701, 68.307, -165.05
3.808, -1, -45.2524, -10.8913, 29.4702, 15.4726, 68.2615, -165.165
3.812, -1, -45.3353, -10.9347, 29.4876, 15.4751, 68.2159, -165.28
3.816, -1, -45.4181, -10.978, 29.505, 15.4775, 68.1704, -165.395
3.82, -1, -45.501, -11.0214, 29.5225, 15.48, 68.1248, -165.509
3.824, -1, -45.5838, -11.0647, 29.5399, 15.4825, 68.0793, -165.624
3.828, -1, -45.6666, -11.1081, 29.5573, 15.485, 68.0338, -165.739
3.832, -1, -45.7494, -11.1514, 29.5747, 15.4874, 67.9883, -165.854
3.836, -1, -45.8321, -11.1947, 29.5921, 15.4899, 67.9428, -165.968
3.84, -1, -45.9149, -11.2381, 29.6095, 15.4924, 67.8973, -166.083
3.844, -1, -45.9977, -11.2814, 29.627, 15.4949, 67.8518, -166.198
3.848, -1, -46.0804, -11.3247, 29.6444, 15.4973, 67.8063, -166.312
3.852, -1, -46.1631, -11.368, 29.6618, 15.4998, 67.7608, -166.427
3.856, -1, -46.2458, -11.4113, 29.6792, 15.5023, 67.7153, -166.541
3.86, -1, -46.3285, -11.4545, 29.6966, 15.5048, 67.6699, -166.656
3.864, -1, -46.4112, -11.4978, 29.7139, 15.5072, 67.6244, -166.77
3.868, -1, -46.4938, -11.5411, 29.7313, 15.5097, 67.579, -166.885
3.872, -1, -46.5765, -11.5843, 29.7487, 15.5122, 67.5336, -167
3.876, -1, -46.659, -11.6276, 29.7661, 15.5146, 67.4881, -167.114
3.88, -1, -46.7414, -11.6707, 29.7835, 15.5171, 67.4427, -167.229
3.884, -1, -46.8236, -11.7138, 29.8009, 15.5196, 67.3973, -167.343
3.888, -1, -46.9053, -11.7566, 29.8183, 15.5221, 67.3519, -167.457
3.892, -1, -46.9866, -11.7992, 29.8358, 15.5246, 67.3066, -167.571
3.896, -1, -47.0671, -11.8412, 29.8533, 15.527, 67.2614, -167.685
3.9, -1, -47.1466, -11.8826, 29.8708, 15.5295, 67.2164, -167.799
3.904, -1, -47.2248, -11.9232, 29.8883, 15.532, 67.1717, -167.911
3.908, -1, -47.3014, -11.9627, 29.9057, 15.5345, 67.1275, -168.023
3.912, -1, -47.3763, -12.0011, 29.923, 15.537, 67.0839, -168.133
3.916, -1, -47.4491, -12.0382, 29.94, 15.5394, 67.0412, -168.24
3.92, -1, -47.5196, -12.0739, 29.9565, 15.5418, 66.9997, -168.345
3.924, -1, -47.5876, -12.1082, 29.9726, 15.544, 66.9596, -168.445
3.928, -1, -47.6526, -12.1408, 29.9879, 15.5462, 66.9214, -168.542
3.932, -1, -47.7142, -12.1716, 30.0024, 15.5483, 66.8852, -168.633
3.936, -1, -47.7722, -12.2006, 30.0159, 15.5502, 66.8512, -168.718
3.94, -1, -47.8262, -12.2275, 30.0283, 15.552, 66.8199, -168.797
3.944, -1, -47.8761, -12.2527, 30.0396, 15.5536, 66.7912, -168.87
3.948, -1, -47.9219, -12.2761, 30.0496, 15.555, 66.7654, -168.935
3.952, -1, -47.9636, -12.2979, 30.0583, 15.5563, 66.7426, -168.992
3.956, -1, -48.0013, -12.3181, 30.0657, 15.5573, 66.7227, -169.042
3.96, -1, -48.0349, -12.3366, 30.0718, 15.5582, 66.7057, -169.085
3.964, -1, -48.0645, -12.3533, 30.0767, 15.5589, 66.6914, -169.121
3.968, -1, -48.0902, -12.3681, 30.0806, 15.5594, 66.6795, -169.151
3.972, -1, -48.1122, -12.3809, 30.0836, 15.5599, 66.6698, -169.176
3.976, -1, -48.1308, -12.3918, 30.0858, 15.5602, 66.6621, -169.195
3.98, -1, -48.1464, -12.401, 30.0875, 15.5604, 66.6562, -169.21
3.984, -1, -48.1593, -12.4087, 30.0886, 15.5606, 66.6516, -169.222
3.988, -1, -48.17, -12.415, 30.0893, 15.5607, 66.6481, -169.231
3.992, -1, -48.1787, -12.4201, 30.0897, 15.5607, 66.6457, -169.237
3.996, -1, -48.1857, -12.4241, 30.0899, 15.5607, 66.6439, -169.241
3.999, 2, -48.1911, -12.4272, 30.09, 15.5608, 66.6426, -169.245
4.004, 2, -48.1952, -12.4295, 30.0901, 15.5608, 66.6418, -169.247
4.008, 2, -48.1981, -12.4311, 30.0901, 15.5608, 66.6412, -169.248
4.012, 2, -48.2001, -12.4322, 30.0901, 15.5608, 66.6408, -169.249
4.016, 2, -48.2015, -12.433, 30.0901, 15.5608, 66.6406, -169.25
4.02, 2, -48.2025, -12.4335, 30.0901, 15.5608, 66.6404, -169.25
4.024, 2, -48.2031, -12.4339, 30.0901, 15.5608, 66.6403, -169.251
4.028, 2, -48.2035, -12.4341, 30.0901, 15.5608, 66.6402, -169.251
4.032, 2, -48.2038, -12.4343, 30.0901, 15.5608, 66.6401, -169.251
4.036, 2, -48.204, -12.4344, 30.0901, 15.5608, 66.6401, -169.251
4.04, 2, -48.2042, -12.4344, 30.0901, 15.5608, 66.6401, -169.251
4.044, 2, -48.2043, -12.4345, 30.0901, 15.5608, 66.64, -169.251
4.048, 2, -48.2043, -12.4345, 30.0901, 15.5608, 66.64, -169.251
4.052, 2, -48.2044, -12.4346, 30.0901, 15.5608, 66.64, -169.251
4.056, 2, -48.2044, -12.4346, 30.0901, 15.5608, 66.64, -169.251
4.06, 2, -48.2044, -12.4346, 30.0901, 15.5608, 66.64, -169.251
4.064, 2, -48.2044, -12.4346, 30.0901, 15.5608, 66.64, -169.251
4.068, 2, -48.2044, -12.4346, 30.0901, 15.5608, 66.64, -169.251
4.072, 2, -48.2044, -12.4346, 30.0901, 15.5608, 66.64, -169.251
4.076, 2, -48.2044, -12.4346, 30.0901, 15.5608, 66.64, -169.251
4.08, 2, -48.2044, -12.4346, 30.0901, 15.5608, 66.64, -169.251
4.084, 2, -48.2044, -12.4346, 30.0901, 15.5608, 66.64, -169.251
4.088, 2, -48.2044, -12.4346, 30.0901, 15.5608, 66.64, -169.251
4.092, 2, -48.2045, -12.4346, 30.0901, 15.5608, 66.64, -169.251
4.096, 2, -48.2045, -12.4346, 30.0901, 15.5608, 66.64, -169.251
4.1, 2, -48.2045, -12.4346, 30.0901, 15.5608, 66.64, -169.251
4.104, 2, -48.2045, -12.4346, 30.0901, 15.5608, 66.64, -169.251
4.108, 2, -48.2045, -12.4346, 30.0901, 15.5608, 66.64, -169.251
4.112, 2, -48.2045, -12.4346, 30.0901, 15.5608, 66.64, -169.251
4.116, 2, -48.2045, -12.4346, 30.0901, 15.5608, 66.64, -169.251
4.12, 2, -48.2045, -12.4346, 30.0901, 15.5608, 66.64, -169.251
4.124, 2, -48.2045, -12.4346, 30.0901, 15.5608, 66.64, -169.251
4.128, 2, -48.2045, -12.4346, 30.0901, 15.5608, 66.64, -169.251
4.132, 2, -48.2045, -12.4346, 30.0901, 15.5608, 66.64, -169.251
4.136, 2, -48.2045, -12.4346, 30.0901, 15.5608, 66.64, -169.251
4.14, 2, -48.2045, -12.4346, 30.0901, 15.5608, 66.64, -169.251
4.144, 2, -48.2045, -12.4346, 30.0901, 15.5608, 66.64, -169.251
4.148, 2, -48.2045, -12.4346, 30.0901, 15.5608, 66.64, -169.251
4.152, 2, -48.2045, -12.4346, 30.0901, 15.5608, 66.64, -169.251
4.156, 2, -48.2045, -12.4346, 30.0901, 15.5608, 66.64, -169.251
4.16, 2, -48.2045, -12.4346, 30.0901, 15.5608, 66.64, -169.251
4.164, 2, -48.2045, -12.4346, 30.0901, 15.5608, 66.64, -169.251
4.168, 2, -48.2045, -12.4346, 30.0901, 15.5608, 66.64, -169.251
4.172, 2, -48.2045, -12.4346, 30.0901, 15.5608, 66.64, -169.251
4.176, 2, -48.2045, -12.4346, 30.0901, 15.5608, 66.64, -169.251
4.18, 2, -48.2045, -12.4346, 30.0901, 15.5608, 66.64, -169.251
4.184, 2, -48.2045, -12.4346, 30.0901, 15.5608, 66.64, -169.251
4.188, 2, -48.2045, -12.4346, 30.0901, 15.5608, 66.64, -169.251
4.192, 2, -48.2045, -12.4346, 30.0901, 15.5608, 66.64, -169.251
4.196, 2, -48.2045, -12.4346, 30.0901, 15.5608, 66.64, -169.251
4.2, 2, -48.2045, -12.4346, 30.0901, 15.5608, 66.64, -169.251
4.204, 2, -48.2045, -12.4346, 30.0901, 15.5608, 66.64, -169.251
4.208, 2, -48.2045, -12.4346, 30.0901, 15.5608, 66.64, -169.251
4.212, 2, -48.2045, -12.4346, 30.0901, 15.5608, 66.64, -169.251
4.216, 2, -48.2045, -12.4346, 30.0901, 15.5608, 66.64, -169.251
4.22, 2, -48.2045, -12.4346, 30.0901, 15.5608, 66.64, -169.251
4.224, 2, -48.2045, -12.4346, 30.0901, 15.5608, 66.64, -169.251
4.228, 2, -48.2045, -12.4346, 30.0901, 15.5608, 66.64, -169.251
4.232, 2, -48.2045, -12.4346, 30.0901, 15.5608, 66.64, -169.251
4.236, 2, -48.2045, -12.4346, 30.0901, 15.5608, 66.64, -169.251
4.24, 2, -48.2045, -12.4346, 30.0901, 15.5608, 66.64, -169.251
4.244, 2, -48.2045, -12.4346, 30.0901, 15.5608, 66.64, -169.251
4.248, 2, -48.2045, -12.4346, 30.0901, 15.5608, 66.64, -169.251
4.252, 2, -48.2045, -12.4346, 30.0901, 15.5608, 66.64, -169.251
4.256, 2, -48.2045, -12.4346, 30.0901, 15.5608, 66.64, -169.251
4.26, 2, -48.2045, -12.4346, 30.0901, 15.5608, 66.64, -169.251
4.264, 2, -48.2045, -12.4346, 30.0901, 15.5608, 66.64, -169.251
4.268, 2, -48.2045, -12.4346, 30.0901, 15.5608, 66.64, -169.251
4.272, 2, -48.2045, -12.4346, 30.0901, 15.5608, 66.64, -169.251
4.276, 2, -48.2045, -12.4346, 30.0901, 15.5608, 66.64, -169.251
4.28, 2, -48.2045, -12.4346, 30.0901, 15.5608, 66.64, -169.251
4.284, 2, -48.2045, -12.4346, 30.0901, 15.5608, 66.64, -169.251
4.288, 2, -48.2045, -12.4346, 30.0901, 15.5608, 66.64, -169.251
4.292, 2, -48.2045, -12.4346, 30.0901, 15.5608, 66.64, -169.251
4.296, 2, -48.2045, -12.4346, 30.0901, 15.5608, 66.64, -169.251
4.3, 2, -48.2045, -12.4346, 30.0901, 15.5608, 66.64, -169.251
4.304, 2, -48.2045, -12.4346, 30.0901, 15.5608, 66.64, -169.251
4.308, 2, -48.2045, -12.4346, 30.0901, 15.5608, 66.64, -169.251
4.312, 2, -48.2045, -12.4346, 30.0901, 15.5608, 66.64, -169.251
4.316, 2, -48.2045, -12.4346, 30.0901, 15.5608, 66.64, -169.251
4.32, 2, -48.2045, -12.4346, 30.0901, 15.5608, 66.64, -169.251
4.324, 2, -48.2045, -12.4346, 30.0901, 15.5608, 66.64, -169.251
4.328, 2, -48.2045, -12.4346, 30.0901, 15.5608, 66.64, -169.251
4.332, 2, -48.2045, -12.4346, 30.0901, 15.5608, 66.64, -169.251
4.336, 2, -48.2045, -12.4346, 30.0901, 15.5608, 66.64, -169.251
4.34, 2, -48.2045, -12.4346, 30.0901, 15.5608, 66.64, -169.251
4.344, 2, -48.2045, -12.4346, 30.0901, 15.5608, 66.64, -169.251
4.348, 2, -48.2045, -12.4346, 30.0901, 15.5608, 66.64, -169.251
4.352, 2, -48.2045, -12.4346, 30.0901, 15.5608, 66.64, -169.251
4.356, 2, -48.2045, -12.4346, 30.0901, 15.5608, 66.64, -169.251
4.36, 2, -48.2045, -12.4346, 30.0901, 15.5608, 66.64, -169.251
4.364, 2, -48.2045, -12.4346, 30.0901, 15.5608, 66.64, -169.251
4.368, 2, -48.2045, -12.4346, 30.0901, 15.5608, 66.64, -169.251
4.372, 2, -48.2045, -12.4346, 30.0901, 15.5608, 66.64, -169.251
4.376, 2, -48.2045, -12.4346, 30.0901, 15.5608, 66.64, -169.251
4.38, 2, -48.2045, -12.4346, 30.0901, 15.5608, 66.64, -169.251
4.384, 2, -48.2045, -12.4346, 30.0901, 15.5608, 66.64, -169.251
4.388, 2, -48.2045, -12.4346, 30.0901, 15.5608, 66.64, -169.251
4.392, 2, -48.2045, -12.4346, 30.0901, 15.5608, 66.64, -169.251
4.396, 2, -48.2045, -12.4346, 30.0901, 15.5608, 66.64, -169.251
4.4, 2, -48.2045, -12.4346, 30.0901, 15.5608, 66.64, -169.251
4.404, 2, -48.2045, -12.4346, 30.0901, 15.5608, 66.64, -169.251
4.408, 2, -48.2045, -12.4346, 30.0901, 15.5608, 66.64, -169.251
4.412, 2, -48.2045, -12.4346, 30.0901, 15.5608, 66.64, -169.251
4.416, 2, -48.2045, -12.4346, 30.0901, 15.5608, 66.64, -169.251
4.42, 2, -48.2045, -12.4346, 30.0901, 15.5608, 66.64, -169.251
4.424, 2, -48.2045, -12.4346, 30.0901, 15.5608, 66.64, -169.251
4.428, 2, -48.2045, -12.4346, 30.0901, 15.5608, 66.64, -169.251
4.432, 2, -48.2045, -12.4346, 30.0901, 15.5608, 66.64, -169.251
4.436, 2, -48.2045, -12.4346, 30.0901, 15.5608, 66.64, -169.251
4.44, 2, -48.2045, -12.4346, 30.0901, 15.5608, 66.64, -169.251
4.444, 2, -48.2045, -12.4346, 30.0901, 15.5608, 66.64, -169.251
4.448, 2, -48.2045, -12.4346, 30.0901, 15.5608, 66.64, -169.251
4.452, 2, -48.2045, -12.4346, 30.0901, 15.5608, 66.64, -169.251
4.456, 2, -48.2045, -12.4346, 30.0901, 15.5608, 66.64, -169.251
4.46, 2, -48.2045, -12.4346, 30.0901, 15.5608, 66.64, -169.251
4.464, 2, -48.2045, -12.4346, 30.0901, 15.5608, 66.64, -169.251
4.468, 2, -48.2045, -12.4346, 30.0901, 15.5608, 66.64, -169.251
4.472, 2, -48.2045, -12.4346, 30.0901, 15.5608, 66.64, -169.251
4.476, 2, -48.2045, -12.4346, 30.0901, 15.5608, 66.64, -169.251
4.48, 2, -48.2045, -12.4346, 30.0901, 15.5608, 66.64, -169.251
4.484, 2, -48.2045, -12.4346, 30.0901, 15.5608, 66.64, -169.251
4.488, 2, -48.2045, -12.4346, 30.0901, 15.5608, 66.64, -169.251
4.492, 2, -48.2045, -12.4346, 30.0901, 15.5608, 66.64, -169.251
4.496, 2, -48.2045, -12.4346, 30.0901, 15.5608, 66.64, -169.251
4.5, 2, -48.2045, -12.4346, 30.0901, 15.5608, 66.64, -169.251
4.504, 2, -48.2045, -12.4346, 30.0901, 15.5608, 66.64, -169.251
4.508, 2, -48.2045, -12.4346, 30.0901, 15.5608, 66.64, -169.251
4.512, 2, -48.2045, -12.4346, 30.0901, 15.5608, 66.64, -169.251
4.516, 2, -48.2045, -12.4346, 30.0901, 15.5608, 66.64, -169.251
4.52, 2, -48.2045, -12.4346, 30.0901, 15.5608, 66.64, -169.251
4.524, 2, -48.2045, -12.4346, 30.0901, 15.5608, 66.64, -169.251
4.528, 2, -48.2045, -12.4346, 30.0901, 15.5608, 66.64, -169.251
4.532, 2, -48.2045, -12.4346, 30.0901, 15.5608, 66.64, -169.251
4.536, 2, -48.2045, -12.4346, 30.0901, 15.5608, 66.64, -169.251
4.54, 2, -48.2045, -12.4346, 30.0901, 15.5608, 66.64, -169.251
4.544, 2, -48.2045, -12.4346, 30.0901, 15.5608, 66.64, -169.251
4.548, 2, -48.2045, -12.4346, 30.0901, 15.5608, 66.64, -169.251
4.552, 2, -48.2045, -12.4346, 30.0901, 15.5608, 66.64, -169.251
4.556, 2, -48.2045, -12.4346, 30.0901, 15.5608, 66.64, -169.251
4.56, 2, -48.2045, -12.4346, 30.0901, 15.5608, 66.64, -169.251
4.564, 2, -48.2045, -12.4346, 30.0901, 15.5608, 66.64, -169.251
4.568, 2, -48.2045, -12.4346, 30.0901, 15.5608, 66.64, -169.251
4.572, 2, -48.2045, -12.4346, 30.0901, 15.5608, 66.64, -169.251
4.576, 2, -48.2045, -12.4346, 30.0901, 15.5608, 66.64, -169.251
4.58, 2, -48.2045, -12.4346, 30.0901, 15.5608, 66.64, -169.251
4.584, 2, -48.2045, -12.4346, 30.0901, 15.5608, 66.64, -169.251
4.588, 2, -48.2045, -12.4346, 30.0901, 15.5608, 66.64, -169.251
4.592, 2, -48.2045, -12.4346, 30.0901, 15.5608, 66.64, -169.251
4.596, 2, -48.2045, -12.4346, 30.0901, 15.5608, 66.64, -169.251
4.6, 2, -48.2045, -12.4346, 30.0901, 15.5608, 66.64, -169.251
4.604, 2, -48.2045, -12.4346, 30.0901, 15.5608, 66.64, -169.251
4.608, 2, -48.2045, -12.4346, 30.0901, 15.5608, 66.64, -169.251
4.612, 2, -48.2045, -12.4346, 30.0901, 15.5608, 66.64, -169.251
4.616, 2, -48.2045, -12.4346, 30.0901, 15.5608, 66.64, -169.251
4.62, 2, -48.2045, -12.4346, 30.0901, 15.5608, 66.64, -169.251
4.624, 2, -48.2045, -12.4346, 30.0901, 15.5608, 66.64, -169.251
4.628, 2, -48.2045, -12.4346, 30.0901, 15.5608, 66.64, -169.251
4.632, 2, -48.2045, -12.4346, 30.0901, 15.5608, 66.64, -169.251
4.636, 2, -48.2045, -12.4346, 30.0901, 15.5608, 66.64, -169.251
4.64, 2, -48.2045, -12.4346, 30.0901, 15.5608, 66.64, -169.251
4.644, 2, -48.2045, -12.4346, 30.0901, 15.5608, 66.64, -169.251
4.648, 2, -48.2045, -12.4346, 30.0901, 15.5608, 66.64, -169.251
4.652, 2, -48.2045, -12.4346, 30.0901, 15.5608, 66.64, -169.251
4.656, 2, -48.2045, -12.4346, 30.0901, 15.5608, 66.64, -169.251
4.66, 2, -48.2045, -12.4346, 30.0901, 15.5608, 66.64, -169.251
4.664, 2, -48.2045, -12.4346, 30.0901, 15.5608, 66.64, -169.251
4.668, 2, -48.2045, -12.4346, 30.0901, 15.5608, 66.64, -169.251
4.672, 2, -48.2045, -12.4346, 30.0901, 15.5608, 66.64, -169.251
4.676, 2, -48.2045, -12.4346, 30.0901, 15.5608, 66.64, -169.251
4.68, 2, -48.2045, -12.4346, 30.0901, 15.5608, 66.64, -169.251
4.684, 2, -48.2045, -12.4346, 30.0901, 15.5608, 66.64, -169.251
4.688, 2, -48.2045, -12.4346, 30.0901, 15.5608, 66.64, -169.251
4.692, 2, -48.2045, -12.4346, 30.0901, 15.5608, 66.64, -169.251
4.696, 2, -48.2045, -12.4346, 30.0901, 15.5608, 66.64, -169.251
4.7, 2, -48.2045, -12.4346, 30.0901, 15.5608, 66.64, -169.251
4.704, 2, -48.2045, -12.4346, 30.0901, 15.5608, 66.64, -169.251
4.708, 2, -48.2045, -12.4346, 30.0901, 15.5608, 66.64, -169.251
4.712, 2, -48.2045, -12.4346, 30.0901, 15.5608, 66.64, -169.251
4.716, 2, -48.2045, -12.4346, 30.0901, 15.5608, 66.64, -169.251
4.72, 2, -48.2045, -12.4346, 30.0901, 15.5608, 66.64, -169.251
4.724, 2, -48.2045, -12.4346, 30.0901, 15.5608, 66.64, -169.251
4.728, 2, -48.2045, -12.4346, 30.0901, 15.5608, 66.64, -169.251
4.732, 2, -48.2045, -12.4346, 30.0901, 15.5608, 66.64, -169.251
4.736, 2, -48.2045, -12.4346, 30.0901, 15.5608, 66.64, -169.251
4.74, 2, -48.2045, -12.4346, 30.0901, 15.5608, 66.64, -169.251
4.744, 2, -48.2045, -12.4346, 30.0901, 15.5608, 66.64, -169.251
4.748, 2, -48.2045, -12.4346, 30.0901, 15.5608, 66.64, -169.251
4.752, 2, -48.2045, -12.4346, 30.0901, 15.5608, 66.64, -169.251
4.756, 2, -48.2045, -12.4346, 30.0901, 15.5608, 66.64, -169.251
4.76, 2, -48.2045, -12.4346, 30.0901, 15.5608, 66.64, -169.251
4.764, 2, -48.2045, -12.4346, 30.0901, 15.5608, 66.64, -169.251
4.768, 2, -48.2045, -12.4346, 30.0901, 15.5608, 66.64, -169.251
4.772, 2, -48.2045, -12.4346, 30.0901, 15.5608, 66.64, -169.251
4.776, 2, -48.2045, -12.4346, 30.0901, 15.5608, 66.64, -169.251
4.78, 2, -48.2045, -12.4346, 30.0901, 15.5608, 66.64, -169.251
4.784, 2, -48.2045, -12.4346, 30.0901, 15.5608, 66.64, -169.251
4.788, 2, -48.2045, -12.4346, 30.0901, 15.5608, 66.64, -169.251
4.792, 2, -48.2045, -12.4346, 30.0901, 15.5608, 66.64, -169.251
4.796, 2, -48.2045, -12.4346, 30.0901, 15.5608, 66.64, -169.251
4.8, 2, -48.2045, -12.4346, 30.0901, 15.5608, 66.64, -169.251
4.804, 2, -48.2045, -12.4346, 30.0901, 15.5608, 66.64, -169.251
4.808, 2, -48.2045, -12.4346, 30.0901, 15.5608, 66.64, -169.251
4.812, 2, -48.2045, -12.4346, 30.0901, 15.5608, 66.64, -169.251
4.816, 2, -48.2045, -12.4346, 30.0901, 15.5608, 66.64, -169.251
4.82, 2, -48.2045, -12.4346, 30.0901, 15.5608, 66.64, -169.251
4.824, 2, -48.2045, -12.4346, 30.0901, 15.5608, 66.64, -169.251
4.828, 2, -48.2045, -12.4346, 30.0901, 15.5608, 66.64, -169.251
4.832, 2, -48.2045, -12.4346, 30.0901, 15.5608, 66.64, -169.251
4.836, 2, -48.2045, -12.4346, 30.0901, 15.5608, 66.64, -169.251
4.84, 2, -48.2045, -12.4346, 30.0901, 15.5608, 66.64, -169.251
4.844, 2, -48.2045, -12.4346, 30.0901, 15.5608, 66.64, -169.251
4.848, 2, -48.2045, -12.4346, 30.0901, 15.5608, 66.64, -169.251
4.852, 2, -48.2045, -12.4346, 30.0901, 15.5608, 66.64, -169.251
4.856, 2, -48.2045, -12.4346, 30.0901, 15.5608, 66.64, -169.251
4.86, 2, -48.2045, -12.4346, 30.0901, 15.5608, 66.64, -169.251
4.864, 2, -48.2045, -12.4346, 30.0901, 15.5608, 66.64, -169.251
4.868, 2, -48.2045, -12.4346, 30.0901, 15.5608, 66.64, -169.251
4.872, 2, -48.2045, -12.4346, 30.0901, 15.5608, 66.64, -169.251
4.876, 2, -48.2045, -12.4346, 30.0901, 15.5608, 66.64, -169.251
4.88, 2, -48.2045, -12.4346, 30.0901, 15.5608, 66.64, -169.251
4.884, 2, -48.2045, -12.4346, 30.0901, 15.5608, 66.64, -169.251
4.888, 2, -48.2045, -12.4346, 30.0901, 15.5608, 66.64, -169.251
4.892, 2, -48.2045, -12.4346, 30.0901, 15.5608, 66.64, -169.251
4.896, 2, -48.2045, -12.4346, 30.0901, 15.5608, 66.64, -169.251
4.9, 2, -48.2045, -12.4346, 30.0901, 15.5608, 66.64, -169.251
4.904, 2, -48.2045, -12.4346, 30.0901, 15.5608, 66.64, -169.251
4.908, 2, -48.2045, -12.4346, 30.0901, 15.5608, 66.64, -169.251
4.912, 2, -48.2045, -12.4346, 30.0901, 15.5608, 66.64, -169.251
4.916, 2, -48.2045, -12.4346, 30.0901, 15.5608, 66.64, -169.251
4.92, 2, -48.2045, -12.4346, 30.0901, 15.5608, 66.64, -169.251
4.924, 2, -48.2045, -12.4346, 30.0901, 15.5608, 66.64, -169.251
4.928, 2, -48.2045, -12.4346, 30.0901, 15.5608, 66.64, -169.251
4.932, 2, -48.2045, -12.4346, 30.0901, 15.5608, 66.64, -169.251
4.936, 2, -48.2045, -12.4346, 30.0901, 15.5608, 66.64, -169.251
4.94, 2, -48.2045, -12.4346, 30.0901, 15.5608, 66.64, -169.251
4.944, 2, -48.2045, -12.4346, 30.0901, 15.5608, 66.64, -169.251
4.948, 2, -48.2045, -12.4346, 30.0901, 15.5608, 66.64, -169.251
4.952, 2, -48.2045, -12.4346, 30.0901, 15.5608, 66.64, -169.251
4.956, 2, -48.2045, -12.4346, 30.0901, 15.5608, 66.64, -169.251
4.96, 2, -48.2045, -12.4346, 30.0901, 15.5608, 66.64, -169.251
4.964, 2, -48.2045, -12.4346, 30.0901, 15.5608, 66.64, -169.251
4.968, 2, -48.2045, -12.4346, 30.0901, 15.5608, 66.64, -169.251
4.972, 2, -48.2045, -12.4346, 30.0901, 15.5608, 66.64, -169.251
4.976, 2, -48.2045, -12.4346, 30.0901, 15.5608, 66.64, -169.251
4.98, 2, -48.2045, -12.4346, 30.0901, 15.5608, 66.64, -169.251
4.984, 2, -48.2045, -12.4346, 30.0901, 15.5608, 66.64, -169.251
4.988, 2, -48.2045, -12.4346, 30.0901, 15.5608, 66.64, -169.251
4.992, 2, -48.2045, -12.4346, 30.0901, 15.5608, 66.64, -169.251
4.996, 2, -48.2045, -12.4346, 30.0901, 15.5608, 66.64, -169.251
5, 2, -48.2045, -12.4346, 30.0901, 15.5608, 66.64, -169.251
5.004, 2, -48.2045, -12.4346, 30.0901, 15.5608, 66.64, -169.251
5.008, 2, -48.2045, -12.4346, 30.0901, 15.5608, 66.64, -169.251
5.012, 2, -48.2045, -12.4346, 30.0901, 15.5608, 66.64, -169.251
5.016, 2, -48.2045, -12.4346, 30.0901, 15.5608, 66.64, -169.251
5.02, 2, -48.2045, -12.4346, 30.0901, 15.5608, 66.64, -169.251
5.024, 2, -48.2045, -12.4346, 30.0901, 15.5608, 66.64, -169.251
5.028, 2, -48.2045, -12.4346, 30.0901, 15.5608, 66.64, -169.251
5.032, 2, -48.2045, -12.4346, 30.0901, 15.5608, 66.64, -169.251
5.036, 2, -48.2045, -12.4346, 30.0901, 15.5608, 66.64, -169.251
5.04, 2, -48.2045, -12.4346, 30.0901, 15.5608, 66.64, -169.251
5.044, 2, -48.2045, -12.4346, 30.0901, 15.5608, 66.64, -169.251
5.048, 2, -48.2045, -12.4346, 30.0901, 15.5608, 66.64, -169.251
5.052, 2, -48.2045, -12.4346, 30.0901, 15.5608, 66.64, -169.251
5.056, 2, -48.2045, -12.4346, 30.0901, 15.5608, 66.64, -169.251
5.06, 2, -48.2045, -12.4346, 30.0901, 15.5608, 66.64, -169.251
5.064, 2, -48.2045, -12.4346, 30.0901, 15.5608, 66.64, -169.251
5.068, 2, -48.2045, -12.4346, 30.0901, 15.5608, 66.64, -169.251
5.072, 2, -48.2045, -12.4346, 30.0901, 15.5608, 66.64, -169.251
5.076, 4, -48.2045, -12.4346, 30.0901, 15.5608, 66.64, -169.251
5.08, 4, -48.2045, -12.4346, 30.0901, 15.5608, 66.64, -169.251
5.084, 4, -48.2045, -12.4346, 30.0901, 15.5608, 66.64, -169.251
5.088, 4, -48.2045, -12.4346, 30.0901, 15.5608, 66.64, -169.251
5.092, 4, -48.2045, -12.4346, 30.0901, 15.5608, 66.64, -169.251
5.096, 4, -48.2045, -12.4346, 30.0901, 15.5608, 66.64, -169.251
5.1, 4, -48.2045, -12.4346, 30.0901, 15.5608, 66.64, -169.251
5.104, 4, -48.2045, -12.4346, 30.0901, 15.5608, 66.64, -169.251
5.108, 4, -48.2045, -12.4346, 30.0901, 15.5608, 66.64, -169.251
5.112, 4, -48.2045, -12.4346, 30.0901, 15.5608, 66.64, -169.251
5.116, 4, -48.2045, -12.4346, 30.0901, 15.5608, 66.64, -169.251
5.12, 4, -48.2045, -12.4346, 30.0901, 15.5608, 66.64, -169.251
5.124, 4, -48.2045, -12.4346, 30.0901, 15.5608, 66.64, -169.251
5.128, 4, -48.2045, -12.4346, 30.0901, 15.5608, 66.64, -169.251
5.132, 4, -48.2045, -12.4346, 30.0901, 15.5608, 66.64, -169.251
5.136, 4, -48.2045, -12.4346, 30.0901, 15.5608, 66.64, -169.251
5.14, 4, -48.2045, -12.4346, 30.0901, 15.5608, 66.64, -169.251
5.144, 4, -48.2045, -12.4346, 30.0901, 15.5608, 66.64, -169.251
5.148, 4, -48.2045, -12.4346, 30.0901, 15.5608, 66.64, -169.251
5.152, 4, -48.2045, -12.4346, 30.0901, 15.5608, 66.64, -169.251
5.156, 4, -48.2045, -12.4346, 30.0901, 15.5608, 66.64, -169.251
5.16, 4, -48.2045, -12.4346, 30.0901, 15.5608, 66.64, -169.251
5.164, 4, -48.2045, -12.4346, 30.0901, 15.5608, 66.64, -169.251
5.168, 4, -48.2045, -12.4346, 30.0901, 15.5608, 66.64, -169.251
5.172, 4, -48.2045, -12.4346, 30.0901, 15.5608, 66.64, -169.251
5.176, 4, -48.2045, -12.4346, 30.0901, 15.5608, 66.64, -169.251
5.182, 4, -48.2045, -12.4346, 30.0901, 15.5608, 66.64, -169.251
5.185, 4, -48.2045, -12.4346, 30.0901, 15.5608, 66.64, -169.251
5.19, 4, -48.2045, -12.4346, 30.0901, 15.5608, 66.64, -169.251
5.194, 4, -48.2045, -12.4346, 30.0901, 15.5608, 66.64, -169.251
5.198, 4, -48.2045, -12.4346, 30.0901, 15.5608, 66.64, -169.251
5.202, 4, -48.2045, -12.4346, 30.0901, 15.5608, 66.64, -169.251
5.206, 4, -48.2045, -12.4346, 30.0901, 15.5608, 66.64, -169.251
5.21, 4, -48.2045, -12.4346, 30.0901, 15.5608, 66.64, -169.251
5.214, 4, -48.2045, -12.4346, 30.0901, 15.5608, 66.64, -169.251
5.217, 4, -48.2045, -12.4346, 30.0901, 15.5608, 66.64, -169.251
5.222, 4, -48.2045, -12.4346, 30.0901, 15.5608, 66.64, -169.251
5.226, 4, -48.2045, -12.4346, 30.0901, 15.5608, 66.64, -169.251
5.228, 4, -48.2045, -12.4346, 30.0901, 15.5608, 66.64, -169.251
5.234, 4, -48.2045, -12.4347, 30.0902, 15.5608, 66.64, -169.251
5.235, 4, -48.2045, -12.4347, 30.0902, 15.5608, 66.64, -169.251
5.24, 4, -48.2046, -12.4349, 30.0903, 15.5609, 66.6401, -169.251
5.244, 4, -48.2047, -12.4352, 30.0907, 15.5612, 66.6403, -169.251
5.248, 4, -48.205, -12.4359, 30.0915, 15.5618, 66.6406, -169.251
5.252, 4, -48.2054, -12.4369, 30.0928, 15.5632, 66.6414, -169.25
5.256, 4, -48.206, -12.4385, 30.0948, 15.5658, 66.6427, -169.248
5.26, 4, -48.2068, -12.4407, 30.098, 15.5703, 66.645, -169.245
5.264, 4, -48.2078, -12.4436, 30.1026, 15.5773, 66.6485, -169.24
5.268, 4, -48.209, -12.4476, 30.1092, 15.588, 66.6537, -169.233
5.272, 5, -48.2105, -12.4526, 30.1181, 15.6033, 66.6612, -169.222
5.276, 5, -48.2125, -12.459, 30.1301, 15.6244, 66.6714, -169.207
5.28, 5, -48.2149, -12.467, 30.1455, 15.6527, 66.685, -169.187
5.284, 5, -48.2179, -12.4768, 30.1652, 15.6896, 66.7026, -169.162
5.288, 5, -48.2216, -12.4884, 30.1895, 15.7362, 66.7247, -169.129
5.292, 5, -48.2261, -12.5019, 30.2191, 15.7941, 66.752, -169.089
5.296, 5, -48.2315, -12.5175, 30.2543, 15.8641, 66.7847, -169.04
5.3, 5, -48.2379, -12.5353, 30.2954, 15.9471, 66.8233, -168.982
5.304, 5, -48.2452, -12.5552, 30.3428, 16.0435, 66.8679, -168.914
5.308, 5, -48.2536, -12.5773, 30.3965, 16.1535, 66.9184, -168.838
5.312, 5, -48.263, -12.6017, 30.4565, 16.2769, 66.9747, -168.752
5.316, 5, -48.2734, -12.6284, 30.5226, 16.413, 67.0365, -168.658
5.32, 5, -48.2848, -12.6573, 30.5947, 16.5611, 67.1032, -168.556
5.324, 5, -48.297, -12.6882, 30.6724, 16.7202, 67.1744, -168.446
5.328, 5, -48.3101, -12.7211, 30.7551, 16.8892, 67.2495, -168.33
5.332, 5, -48.3239, -12.7558, 30.8423, 17.0667, 67.3279, -168.208
5.336, 5, -48.3384, -12.7921, 30.9336, 17.2515, 67.4088, -168.082
5.34, 5, -48.3535, -12.8299, 31.0285, 17.4422, 67.4916, -167.952
5.344, 5, -48.3691, -12.8691, 31.1265, 17.6376, 67.5758, -167.82
5.348, 5, -48.3852, -12.9095, 31.2271, 17.8367, 67.6608, -167.685
5.352, 5, -48.4017, -12.9509, 31.3299, 18.0385, 67.7462, -167.55
5.356, 5, -48.4186, -12.9933, 31.4347, 18.2423, 67.8316, -167.413
5.36, 5, -48.4358, -13.0364, 31.541, 18.4477, 67.9168, -167.276
5.364, 5, -48.4534, -13.0801, 31.6486, 18.6541, 68.0016, -167.14
5.368, 5, -48.4712, -13.1243, 31.7575, 18.8615, 68.0859, -167.003
5.372, 5, -48.4893, -13.1689, 31.8674, 19.0695, 68.1696, -166.866
5.376, 5, -48.5077, -13.2138, 31.9783, 19.2781, 68.2527, -166.729
5.38, 5, -48.5262, -13.2591, 32.0902, 19.4872, 68.335, -166.593
5.384, 5, -48.545, -13.3047, 32.203, 19.6967, 68.4167, -166.457
5.388, 5, -48.564, -13.3506, 32.3166, 19.9066, 68.4976, -166.322
5.392, 5, -48.5833, -13.3968, 32.4311, 20.1169, 68.5778, -166.187
5.396, 5, -48.6027, -13.4433, 32.5465, 20.3275, 68.6572, -166.052
5.4, 5, -48.6223, -13.49, 32.6627, 20.5385, 68.7359, -165.918
5.404, 5, -48.6421, -13.537, 32.7798, 20.7498, 68.8139, -165.784
5.408, 5, -48.6621, -13.5843, 32.8976, 20.9614, 68.8911, -165.651
5.412, 5, -48.6821, -13.6317, 33.0162, 21.1733, 68.9676, -165.518
5.416, 5, -48.7019, -13.6792, 33.1356, 21.3854, 69.0433, -165.385
5.42, 5, -48.7213, -13.7267, 33.2555, 21.5976, 69.1183, -165.253
5.424, 5, -48.74, -13.774, 33.3759, 21.8097, 69.1926, -165.12
5.428, 5, -48.7578, -13.821, 33.4966, 22.0213, 69.2662, -164.988
5.432, 5, -48.7744, -13.8674, 33.6172, 22.232, 69.3394, -164.855
5.436, 5, -48.7898, -13.9131, 33.7373, 22.441, 69.4121, -164.72
5.44, 6, -48.8038, -13.958, 33.8566, 22.6475, 69.4847, -164.582
5.444, 6, -48.8162, -14.0019, 33.9746, 22.8506, 69.5574, -164.441
5.448, 6, -48.8269, -14.0449, 34.0909, 23.0494, 69.6303, -164.295
5.452, 6, -48.8356, -14.0868, 34.205, 23.2429, 69.7038, -164.143
5.456, 6, -48.8419, -14.1275, 34.3167, 23.4304, 69.778, -163.985
5.46, 6, -48.8457, -14.1669, 34.4254, 23.6112, 69.8532, -163.818
5.464, 6, -48.8466, -14.2049, 34.5311, 23.785, 69.9297, -163.642
5.468, 6, -48.8446, -14.2416, 34.6336, 23.9516, 70.0075, -163.456
5.472, 6, -48.8398, -14.2767, 34.7327, 24.1111, 70.087, -163.26
5.476, 6, -48.8322, -14.3105, 34.8287, 24.2639, 70.1681, -163.055
5.48, 6, -48.8221, -14.343, 34.9217, 24.4105, 70.2509, -162.839
5.484, 6, -48.8095, -14.3742, 35.012, 24.5518, 70.3353, -162.615
5.488, 7, -48.7948, -14.4042, 35.0999, 24.6887, 70.4214, -162.382
5.492, 7, -48.7782, -14.4331, 35.186, 24.8223, 70.509, -162.142
5.496, 7, -48.7597, -14.461, 35.2705, 24.9537, 70.5979, -161.896
5.5, 7, -48.7395, -14.4879, 35.3538, 25.0841, 70.6881, -161.645
5.504, 7, -48.7179, -14.5139, 35.4364, 25.2143, 70.7792, -161.392
5.508, 7, -48.695, -14.5392, 35.5184, 25.3452, 70.8713, -161.136
5.512, 7, -48.6708, -14.5638, 35.6002, 25.4774, 70.9639, -160.878
5.516, 7, -48.6455, -14.588, 35.6819, 25.611, 71.0572, -160.621
5.52, 7, -48.6194, -14.6118, 35.7636, 25.7464, 71.1507, -160.363
5.524, 7, -48.5925, -14.6355, 35.8454, 25.8836, 71.2446, -160.107
5.528, 7, -48.565, -14.659, 35.9273, 26.0225, 71.3386, -159.851
5.532, 8, -48.5372, -14.6824, 36.0093, 26.1629, 71.4328, -159.596
5.536, 8, -48.5091, -14.7057, 36.0912, 26.3048, 71.527, -159.343
5.54, 8, -48.4809, -14.729, 36.173, 26.4479, 71.6213, -159.09
5.544, 8, -48.4527, -14.7522, 36.2547, 26.592, 71.7156, -158.838
5.548, 8, -48.4245, -14.7753, 36.3362, 26.737, 71.8098, -158.587
5.552, 8, -48.3962, -14.7984, 36.4174, 26.8827, 71.904, -158.336
5.556, 8, -48.3677, -14.8214, 36.4984, 27.0289, 71.9982, -158.086
5.56, 8, -48.3391, -14.8443, 36.579, 27.1756, 72.0922, -157.836
5.564, 8, -48.3102, -14.8671, 36.6593, 27.3227, 72.1862, -157.587
5.568, 8, -48.2809, -14.8899, 36.7392, 27.4701, 72.28, -157.337
5.572, 8, -48.2513, -14.9126, 36.8187, 27.6178, 72.3737, -157.088
5.576, 9, -48.2213, -14.9352, 36.8979, 27.7657, 72.4673, -156.839
5.58, 9, -48.1909, -14.9578, 36.9767, 27.9139, 72.5608, -156.591
5.584, 9, -48.1602, -14.9803, 37.0552, 28.0623, 72.654, -156.343
5.588, 9, -48.129, -15.0027, 37.1333, 28.211, 72.7471, -156.096
5.592, 9, -48.0973, -15.0251, 37.2111, 28.3599, 72.84, -155.849
5.596, 9, -48.0651, -15.0475, 37.2885, 28.509, 72.9326, -155.603
5.6, 9, -48.0323, -15.0698, 37.3657, 28.6583, 73.025, -155.357
5.604, 9, -47.9989, -15.092, 37.4425, 28.8079, 73.1171, -155.112
5.608, 9, -47.965, -15.1143, 37.5189, 28.9576, 73.2089, -154.868
5.612, 9, -47.9306, -15.1365, 37.5951, 29.1074, 73.3004, -154.625
5.616, 9, -47.8955, -15.1587, 37.6709, 29.2574, 73.3916, -154.383
5.62, 10, -47.8599, -15.181, 37.7463, 29.4073, 73.4826, -154.141
5.624, 10, -47.8238, -15.2032, 37.8213, 29.5572, 73.5732, -153.899
5.628, 10, -47.787, -15.2254, 37.896, 29.707, 73.6635, -153.659
5.632, 10, -47.7497, -15.2476, 37.9702, 29.8566, 73.7535, -153.418
5.636, 10, -47.7117, -15.2698, 38.044, 30.0061, 73.8432, -153.178
5.64, 10, -47.673, -15.292, 38.1174, 30.1553, 73.9325, -152.939
5.644, 10, -47.6336, -15.3143, 38.1903, 30.3042, 74.0214, -152.7
5.648, 10, -47.5935, -15.3366, 38.2628, 30.4528, 74.11, -152.461
5.652, 10, -47.5528, -15.359, 38.3348, 30.6011, 74.1982, -152.223
5.656, 10, -47.5113, -15.3814, 38.4064, 30.749, 74.286, -151.985
5.66, 10, -47.4691, -15.4039, 38.4776, 30.8966, 74.3734, -151.747
5.664, 10, -47.4262, -15.4266, 38.5483, 31.0439, 74.4604, -151.51
5.668, 11, -47.3826, -15.4493, 38.6187, 31.1909, 74.5469, -151.273
5.672, 11, -47.3384, -15.4722, 38.6887, 31.3376, 74.6329, -151.038
5.676, 11, -47.2934, -15.4952, 38.7583, 31.484, 74.7183, -150.802
5.68, 11, -47.2477, -15.5183, 38.8276, 31.6302, 74.8033, -150.568
5.684, 11, -47.2013, -15.5416, 38.8966, 31.7761, 74.8876, -150.334
5.688, 11, -47.1543, -15.5651, 38.9653, 31.9218, 74.9713, -150.102
5.692, 11, -47.1065, -15.5889, 39.0338, 32.0673, 75.0544, -149.87
5.696, 11, -47.0581, -15.6128, 39.1019, 32.2126, 75.1368, -149.64
5.7, 11, -47.0089, -15.637, 39.1699, 32.3577, 75.2185, -149.41
5.704, 11, -46.9591, -15.6615, 39.2375, 32.5026, 75.2996, -149.182
5.708, 11, -46.9086, -15.6863, 39.3049, 32.6473, 75.3799, -148.954
5.712, 11, -46.8574, -15.7114, 39.3721, 32.7917, 75.4595, -148.728
5.716, 12, -46.8055, -15.7369, 39.4391, 32.9359, 75.5383, -148.503
5.72, 12, -46.753, -15.7626, 39.5057, 33.0798, 75.6164, -148.279
5.724, 12, -46.6998, -15.7887, 39.5722, 33.2234, 75.6937, -148.056
5.728, 12, -46.6459, -15.8152, 39.6384, 33.3667, 75.7703, -147.835
5.732, 12, -46.5913, -15.842, 39.7043, 33.5097, 75.846, -147.614
5.736, 12, -46.5361, -15.8691, 39.77, 33.6524, 75.921, -147.395
5.74, 12, -46.4801, -15.8965, 39.8354, 33.7947, 75.9951, -147.176
5.744, 12, -46.4234, -15.9243, 39.9006, 33.9367, 76.0685, -146.959
5.748, 12, -46.3661, -15.9525, 39.9655, 34.0783, 76.141, -146.743
5.752, 12, -46.308, -15.981, 40.0302, 34.2196, 76.2127, -146.528
5.756, 12, -46.2491, -16.0099, 40.0945, 34.3605, 76.2836, -146.314
5.76, 12, -46.1895, -16.0392, 40.1586, 34.5009, 76.3536, -146.101
5.764, 13, -46.1291, -16.0689, 40.2225, 34.641, 76.4229, -145.889
5.768, 13, -46.0679, -16.0989, 40.2859, 34.7806, 76.4913, -145.678
5.772, 13, -46.0059, -16.1293, 40.3491, 34.9197, 76.5589, -145.468
5.776, 13, -45.9431, -16.1601, 40.412, 35.0583, 76.6257, -145.258
5.78, 13, -45.8795, -16.1912, 40.4744, 35.1963, 76.6917, -145.05
5.784, 13, -45.8151, -16.2227, 40.5365, 35.3337, 76.7568, -144.843
5.788, 13, -45.7499, -16.2544, 40.5982, 35.4705, 76.8212, -144.637
5.792, 13, -45.6839, -16.2865, 40.6595, 35.6066, 76.8848, -144.431
5.796, 13, -45.6171, -16.3188, 40.7204, 35.7421, 76.9476, -144.226
5.8, 13, -45.5495, -16.3513, 40.7808, 35.8769, 77.0096, -144.022
5.804, 13, -45.4811, -16.3841, 40.8408, 36.0111, 77.0708, -143.819
5.808, 13, -45.4117, -16.4172, 40.9003, 36.1445, 77.1313, -143.617
5.812, 13, -45.3414, -16.4505, 40.9593, 36.2773, 77.191, -143.415
5.816, 13, -45.2702, -16.484, 41.0178, 36.4093, 77.25, -143.214
5.82, 14, -45.1981, -16.5178, 41.0758, 36.5406, 77.3083, -143.013
5.824, 14, -45.1249, -16.5517, 41.1333, 36.6711, 77.3658, -142.814
5.828, 14, -45.0508, -16.5858, 41.1901, 36.8007, 77.4227, -142.614
5.832, 14, -44.9757, -16.6201, 41.2462, 36.9294, 77.4789, -142.415
5.836, 14, -44.8997, -16.6545, 41.3017, 37.0571, 77.5344, -142.217
5.84, 14, -44.8227, -16.689, 41.3565, 37.1838, 77.5893, -142.019
5.844, 14, -44.7448, -16.7236, 41.4106, 37.3093, 77.6436, -141.821
5.848, 14, -44.6659, -16.7582, 41.4639, 37.4338, 77.6973, -141.623
5.852, 14, -44.5861, -16.7928, 41.5164, 37.5572, 77.7504, -141.426
5.856, 14, -44.5054, -16.8274, 41.5682, 37.6795, 77.8029, -141.229
5.86, 14, -44.4237, -16.862, 41.6192, 37.8008, 77.8548, -141.033
5.864, 14, -44.3409, -16.8965, 41.6694, 37.9211, 77.9061, -140.837
5.868, 14, -44.2572, -16.9311, 41.7189, 38.0404, 77.9568, -140.64
5.872, 14, -44.1723, -16.9656, 41.7677, 38.1587, 78.007, -140.445
5.876, 15, -44.0864, -17, 41.8156, 38.2761, 78.0566, -140.249
5.88, 15, -43.9994, -17.0344, 41.8627, 38.3924, 78.1056, -140.054
5.884, 15, -43.9113, -17.0687, 41.909, 38.5077, 78.1542, -139.859
5.888, 15, -43.8222, -17.1029, 41.9544, 38.6218, 78.2022, -139.664
5.892, 15, -43.7319, -17.1369, 41.9989, 38.7348, 78.2497, -139.469
5.896, 15, -43.6407, -17.1708, 42.0424, 38.8464, 78.2968, -139.274
5.9, 15, -43.5484, -17.2045, 42.0849, 38.9567, 78.3435, -139.079
5.904, 15, -43.4552, -17.2379, 42.1263, 39.0656, 78.3897, -138.884
5.908, 15, -43.361, -17.2711, 42.1667, 39.1731, 78.4355, -138.689
5.912, 15, -43.2659, -17.3041, 42.2061, 39.2792, 78.4809, -138.495
5.916, 15, -43.1698, -17.3368, 42.2445, 39.384, 78.5259, -138.3
5.92, 15, -43.0726, -17.3693, 42.2819, 39.4877, 78.5705, -138.105
5.924, 15, -42.9745, -17.4015, 42.3184, 39.5902, 78.6146, -137.911
5.928, 15, -42.8753, -17.4335, 42.354, 39.6917, 78.6583, -137.717
5.932, 15, -42.7751, -17.4652, 42.3887, 39.7922, 78.7016, -137.522
5.936, 15, -42.6738, -17.4967, 42.4225, 39.8918, 78.7443, -137.328
5.94, 16, -42.5715, -17.5279, 42.4555, 39.9905, 78.7867, -137.134
5.944, 16, -42.4681, -17.5589, 42.4876, 40.0882, 78.8285, -136.94
5.948, 16, -42.3637, -17.5895, 42.5187, 40.1848, 78.87, -136.746
5.952, 16, -42.2582, -17.6199, 42.5488, 40.2803, 78.911, -136.552
5.956, 16, -42.1518, -17.6498, 42.5779, 40.3745, 78.9517, -136.358
5.96, 16, -42.0443, -17.6795, 42.6059, 40.4674, 78.9921, -136.165
5.964, 16, -41.9359, -17.7087, 42.6328, 40.5588, 79.0321, -135.971
5.968, 16, -41.8266, -17.7376, 42.6585, 40.6487, 79.0717, -135.777
