rpiRobotics/ARM-21-02-F-19-Robot-Motion-Program/data_performance_abb/curve_2/baseline/50L/curve_exe_v435.05859375_z10.csv
timestamp, cmd_num, J1, J2, J3, J4, J5, J6
0, -1, 39.5884, 33.0783, 11.6506, 12.7091, 114.447, -48.3144
0.002, -1, 39.5884, 33.0783, 11.6506, 12.7091, 114.447, -48.3144
0.006, -1, 39.5884, 33.0783, 11.6506, 12.7091, 114.447, -48.3144
0.008, -1, 39.5884, 33.0783, 11.6506, 12.7091, 114.447, -48.3144
0.011, -1, 39.5884, 33.0783, 11.6506, 12.7091, 114.447, -48.3144
0.016, -1, 39.5884, 33.0783, 11.6506, 12.7091, 114.447, -48.3144
0.02, -1, 39.5884, 33.0783, 11.6506, 12.7091, 114.447, -48.3144
0.024, -1, 39.5884, 33.0783, 11.6506, 12.7091, 114.447, -48.3144
0.028, -1, 39.5884, 33.0783, 11.6506, 12.7091, 114.447, -48.3144
0.032, -1, 39.5884, 33.0782, 11.6506, 12.7091, 114.447, -48.3144
0.036, -1, 39.5883, 33.0782, 11.6506, 12.7091, 114.447, -48.3144
0.04, -1, 39.5881, 33.0782, 11.6506, 12.7091, 114.447, -48.3144
0.044, -1, 39.5875, 33.078, 11.6505, 12.7091, 114.447, -48.3144
0.048, -1, 39.5864, 33.0778, 11.6504, 12.7091, 114.447, -48.3145
0.052, -1, 39.5846, 33.0773, 11.6503, 12.709, 114.447, -48.3146
0.056, -1, 39.5822, 33.0766, 11.65, 12.709, 114.447, -48.315
0.06, -1, 39.5789, 33.0755, 11.6498, 12.709, 114.447, -48.3156
0.064, -1, 39.5747, 33.0741, 11.6495, 12.709, 114.447, -48.3167
0.068, -1, 39.5696, 33.0722, 11.6491, 12.709, 114.446, -48.3184
0.072, -1, 39.5634, 33.0697, 11.6489, 12.709, 114.445, -48.321
0.076, -1, 39.5558, 33.0666, 11.6486, 12.709, 114.444, -48.3249
0.08, -1, 39.5467, 33.0626, 11.6485, 12.709, 114.442, -48.3303
0.084, -1, 39.5357, 33.0577, 11.6486, 12.7091, 114.439, -48.3376
0.088, -1, 39.5226, 33.0516, 11.649, 12.7092, 114.435, -48.3473
0.092, -1, 39.5073, 33.0445, 11.6498, 12.7093, 114.43, -48.3599
0.096, -1, 39.4895, 33.036, 11.6511, 12.7095, 114.424, -48.3758
0.1, -1, 39.4692, 33.0261, 11.653, 12.7098, 114.416, -48.3956
0.104, -1, 39.446, 33.0147, 11.6556, 12.7102, 114.407, -48.4197
0.108, -1, 39.4198, 33.0017, 11.659, 12.7107, 114.395, -48.4485
0.112, -1, 39.3904, 32.9869, 11.6634, 12.7113, 114.382, -48.4826
0.116, -1, 39.3576, 32.9703, 11.6687, 12.7121, 114.366, -48.5223
0.12, -1, 39.3213, 32.9518, 11.6751, 12.7129, 114.348, -48.5678
0.124, -1, 39.2815, 32.9313, 11.6826, 12.7139, 114.328, -48.6195
0.128, -1, 39.2381, 32.9088, 11.6912, 12.7151, 114.305, -48.6776
0.131, -1, 39.1911, 32.8843, 11.7011, 12.7164, 114.279, -48.7421
0.136, -1, 39.1404, 32.8578, 11.7121, 12.7178, 114.251, -48.813
0.139, -1, 39.086, 32.8292, 11.7243, 12.7194, 114.221, -48.8904
0.144, -1, 39.028, 32.7986, 11.7376, 12.7211, 114.187, -48.974
0.148, -1, 38.9665, 32.7661, 11.7519, 12.723, 114.152, -49.0636
0.152, -1, 38.9015, 32.7317, 11.7673, 12.725, 114.114, -49.1589
0.156, -1, 38.8333, 32.6956, 11.7837, 12.7271, 114.074, -49.2597
0.16, -1, 38.7621, 32.6579, 11.8009, 12.7293, 114.032, -49.3654
0.164, -1, 38.6879, 32.6186, 11.8188, 12.7316, 113.988, -49.4757
0.168, -1, 38.6108, 32.5778, 11.8374, 12.734, 113.943, -49.59
0.172, -1, 38.5311, 32.5356, 11.8565, 12.7365, 113.896, -49.7079
0.176, -1, 38.4491, 32.4922, 11.876, 12.739, 113.848, -49.8288
0.18, -1, 38.3649, 32.4477, 11.8958, 12.7415, 113.799, -49.9524
0.184, -1, 38.279, 32.4021, 11.9158, 12.7442, 113.749, -50.0781
0.188, -1, 38.1915, 32.3558, 11.9361, 12.7468, 113.698, -50.2056
0.192, -1, 38.1027, 32.3087, 11.9564, 12.7494, 113.647, -50.3345
0.196, -1, 38.0125, 32.2609, 11.9768, 12.7521, 113.596, -50.4645
0.2, -1, 37.9212, 32.2126, 11.9972, 12.7548, 113.544, -50.5954
0.204, -1, 37.8287, 32.1638, 12.0175, 12.7574, 113.492, -50.7268
0.208, -1, 37.7351, 32.1147, 12.0379, 12.7601, 113.439, -50.8586
0.212, -1, 37.6406, 32.0652, 12.0581, 12.7628, 113.387, -50.9908
0.216, -1, 37.5454, 32.0155, 12.0784, 12.7655, 113.334, -51.1231
0.22, -1, 37.4497, 31.9657, 12.0986, 12.7681, 113.282, -51.2557
0.224, -1, 37.3538, 31.9158, 12.1188, 12.7708, 113.229, -51.3883
0.228, -1, 37.2575, 31.8658, 12.139, 12.7735, 113.177, -51.521
0.232, -1, 37.1611, 31.8157, 12.1592, 12.7761, 113.124, -51.6538
0.236, -1, 37.0646, 31.7656, 12.1794, 12.7788, 113.071, -51.7866
0.24, -1, 36.968, 31.7155, 12.1996, 12.7815, 113.019, -51.9194
0.244, -1, 36.8714, 31.6654, 12.2198, 12.7841, 112.966, -52.0523
0.248, -1, 36.7747, 31.6152, 12.24, 12.7868, 112.914, -52.1852
0.252, -1, 36.678, 31.565, 12.2602, 12.7895, 112.861, -52.3182
0.256, -1, 36.5812, 31.5148, 12.2805, 12.7921, 112.808, -52.4512
0.26, -1, 36.4844, 31.4646, 12.3007, 12.7948, 112.755, -52.5841
0.264, -1, 36.3876, 31.4144, 12.3209, 12.7975, 112.703, -52.7172
0.268, -1, 36.2908, 31.3642, 12.3411, 12.8001, 112.65, -52.8502
0.272, -1, 36.194, 31.314, 12.3613, 12.8028, 112.597, -52.9832
0.276, -1, 36.0971, 31.2638, 12.3815, 12.8055, 112.545, -53.1163
0.28, -1, 36.0003, 31.2135, 12.4017, 12.8081, 112.492, -53.2494
0.284, -1, 35.9034, 31.1633, 12.422, 12.8108, 112.439, -53.3825
0.288, -1, 35.8065, 31.113, 12.4422, 12.8135, 112.386, -53.5157
0.292, -1, 35.7096, 31.0628, 12.4624, 12.8162, 112.334, -53.6488
0.296, -1, 35.6126, 31.0125, 12.4827, 12.8188, 112.281, -53.782
0.3, -1, 35.5157, 30.9622, 12.5029, 12.8215, 112.228, -53.9152
0.304, -1, 35.4188, 30.9119, 12.5231, 12.8242, 112.175, -54.0484
0.308, -1, 35.3218, 30.8617, 12.5434, 12.8269, 112.122, -54.1816
0.312, -1, 35.2248, 30.8114, 12.5636, 12.8295, 112.07, -54.3148
0.316, -1, 35.1278, 30.7611, 12.5839, 12.8322, 112.017, -54.4481
0.32, -1, 35.0308, 30.7108, 12.6041, 12.8349, 111.964, -54.5814
0.324, -1, 34.9338, 30.6604, 12.6244, 12.8376, 111.911, -54.7147
0.328, -1, 34.8368, 30.6101, 12.6446, 12.8402, 111.858, -54.848
0.332, -1, 34.7397, 30.5598, 12.6649, 12.8429, 111.805, -54.9813
0.336, -1, 34.6427, 30.5095, 12.6851, 12.8456, 111.753, -55.1146
0.34, -1, 34.5456, 30.4591, 12.7054, 12.8483, 111.7, -55.248
0.344, -1, 34.4485, 30.4088, 12.7257, 12.8509, 111.647, -55.3814
0.348, -1, 34.3514, 30.3584, 12.7459, 12.8536, 111.594, -55.5148
0.352, -1, 34.2543, 30.308, 12.7662, 12.8563, 111.541, -55.6482
0.356, -1, 34.1572, 30.2577, 12.7865, 12.859, 111.488, -55.7816
0.36, -1, 34.0601, 30.2073, 12.8067, 12.8616, 111.435, -55.9151
0.364, -1, 33.9629, 30.1569, 12.827, 12.8643, 111.383, -56.0485
0.368, -1, 33.8658, 30.1065, 12.8473, 12.867, 111.33, -56.182
0.372, -1, 33.7686, 30.0562, 12.8676, 12.8697, 111.277, -56.3155
0.376, -1, 33.6715, 30.0058, 12.8879, 12.8724, 111.224, -56.449
0.38, -1, 33.5743, 29.9554, 12.9081, 12.875, 111.171, -56.5825
0.384, -1, 33.4771, 29.905, 12.9284, 12.8777, 111.118, -56.7161
0.388, -1, 33.3799, 29.8545, 12.9487, 12.8804, 111.065, -56.8496
0.392, -1, 33.2827, 29.8041, 12.969, 12.8831, 111.012, -56.9832
0.396, -1, 33.1854, 29.7537, 12.9893, 12.8858, 110.959, -57.1168
0.4, -1, 33.0882, 29.7033, 13.0096, 12.8884, 110.906, -57.2504
0.404, -1, 32.9909, 29.6528, 13.0299, 12.8911, 110.853, -57.384
0.408, -1, 32.8937, 29.6024, 13.0502, 12.8938, 110.8, -57.5176
0.412, -1, 32.7964, 29.552, 13.0705, 12.8965, 110.747, -57.6512
0.416, -1, 32.6991, 29.5015, 13.0908, 12.8992, 110.694, -57.7849
0.42, -1, 32.6018, 29.451, 13.1111, 12.9019, 110.641, -57.9185
0.424, -1, 32.5045, 29.4006, 13.1314, 12.9045, 110.589, -58.0522
0.428, -1, 32.4072, 29.3501, 13.1517, 12.9072, 110.536, -58.1859
0.432, -1, 32.3099, 29.2996, 13.1721, 12.9099, 110.483, -58.3196
0.436, -1, 32.2126, 29.2492, 13.1924, 12.9126, 110.43, -58.4533
0.44, -1, 32.1152, 29.1987, 13.2127, 12.9153, 110.377, -58.5871
0.444, -1, 32.0179, 29.1482, 13.233, 12.918, 110.324, -58.7208
0.448, -1, 31.9205, 29.0977, 13.2533, 12.9206, 110.271, -58.8546
0.452, -1, 31.8232, 29.0472, 13.2737, 12.9233, 110.218, -58.9883
0.456, -1, 31.7258, 28.9967, 13.294, 12.926, 110.165, -59.1221
0.46, -1, 31.6284, 28.9462, 13.3143, 12.9287, 110.112, -59.2559
0.464, -1, 31.531, 28.8957, 13.3346, 12.9314, 110.058, -59.3897
0.468, -1, 31.4336, 28.8452, 13.355, 12.9341, 110.005, -59.5236
0.472, -1, 31.3362, 28.7947, 13.3753, 12.9368, 109.952, -59.6574
0.476, -1, 31.2388, 28.7442, 13.3956, 12.9394, 109.899, -59.7912
0.48, -1, 31.1414, 28.6936, 13.416, 12.9421, 109.846, -59.9251
0.484, -1, 31.0439, 28.6431, 13.4363, 12.9448, 109.793, -60.0589
0.488, -1, 30.9465, 28.5926, 13.4567, 12.9475, 109.74, -60.1928
0.492, -1, 30.8491, 28.542, 13.477, 12.9502, 109.687, -60.3267
0.496, -1, 30.7516, 28.4915, 13.4973, 12.9529, 109.634, -60.4606
0.5, -1, 30.6541, 28.4409, 13.5177, 12.9556, 109.581, -60.5945
0.504, -1, 30.5567, 28.3904, 13.538, 12.9583, 109.528, -60.7284
0.508, -1, 30.4592, 28.3398, 13.5584, 12.9609, 109.475, -60.8624
0.512, -1, 30.3617, 28.2893, 13.5787, 12.9636, 109.422, -60.9963
0.516, -1, 30.2642, 28.2387, 13.5991, 12.9663, 109.369, -61.1302
0.52, -1, 30.1667, 28.1881, 13.6194, 12.969, 109.316, -61.2642
0.524, -1, 30.0692, 28.1376, 13.6398, 12.9717, 109.263, -61.3982
0.528, -1, 29.9717, 28.087, 13.6601, 12.9744, 109.209, -61.5321
0.532, -1, 29.8741, 28.0364, 13.6805, 12.9771, 109.156, -61.6661
0.536, -1, 29.7766, 27.9858, 13.7009, 12.9798, 109.103, -61.8001
0.54, -1, 29.6791, 27.9353, 13.7212, 12.9824, 109.05, -61.9341
0.544, -1, 29.5815, 27.8847, 13.7416, 12.9851, 108.997, -62.0681
0.548, -1, 29.484, 27.8341, 13.7619, 12.9878, 108.944, -62.2022
0.552, -1, 29.3864, 27.7835, 13.7823, 12.9905, 108.891, -62.3362
0.556, -1, 29.2889, 27.7329, 13.8027, 12.9932, 108.838, -62.4702
0.56, -1, 29.1913, 27.6823, 13.823, 12.9959, 108.785, -62.6043
0.564, -1, 29.0937, 27.6317, 13.8434, 12.9986, 108.731, -62.7383
0.568, -1, 28.9962, 27.5811, 13.8638, 13.0013, 108.678, -62.8724
0.572, -1, 28.8986, 27.5305, 13.8841, 13.004, 108.625, -63.0064
0.576, -1, 28.801, 27.4799, 13.9045, 13.0067, 108.572, -63.1405
0.58, -1, 28.7034, 27.4293, 13.9249, 13.0093, 108.519, -63.2746
0.584, -1, 28.6058, 27.3787, 13.9452, 13.012, 108.466, -63.4087
0.588, -1, 28.5082, 27.328, 13.9656, 13.0147, 108.413, -63.5428
0.592, -1, 28.4106, 27.2774, 13.986, 13.0174, 108.36, -63.6769
0.596, -1, 28.313, 27.2268, 14.0064, 13.0201, 108.306, -63.811
0.6, -1, 28.2154, 27.1762, 14.0267, 13.0228, 108.253, -63.9451
0.604, -1, 28.1177, 27.1255, 14.0471, 13.0255, 108.2, -64.0792
0.608, -1, 28.0201, 27.0749, 14.0675, 13.0282, 108.147, -64.2133
0.612, -1, 27.9225, 27.0243, 14.0879, 13.0309, 108.094, -64.3475
0.616, -1, 27.8249, 26.9737, 14.1083, 13.0336, 108.041, -64.4816
0.62, -1, 27.7272, 26.923, 14.1286, 13.0363, 107.987, -64.6158
0.624, -1, 27.6296, 26.8724, 14.149, 13.039, 107.934, -64.7499
0.628, -1, 27.5319, 26.8217, 14.1694, 13.0417, 107.881, -64.8841
0.632, -1, 27.4343, 26.7711, 14.1898, 13.0443, 107.828, -65.0182
0.636, -1, 27.3366, 26.7205, 14.2102, 13.047, 107.775, -65.1524
0.64, -1, 27.239, 26.6698, 14.2305, 13.0497, 107.722, -65.2866
0.644, -1, 27.1413, 26.6192, 14.2509, 13.0524, 107.669, -65.4207
0.648, -1, 27.0437, 26.5685, 14.2713, 13.0551, 107.615, -65.5549
0.652, -1, 26.946, 26.5179, 14.2917, 13.0578, 107.562, -65.6891
0.656, -1, 26.8483, 26.4672, 14.3121, 13.0605, 107.509, -65.8233
0.66, -1, 26.7507, 26.4166, 14.3325, 13.0632, 107.456, -65.9574
0.664, -1, 26.653, 26.3659, 14.3529, 13.0659, 107.403, -66.0916
0.668, -1, 26.5553, 26.3153, 14.3733, 13.0686, 107.349, -66.2258
0.672, -1, 26.4576, 26.2646, 14.3936, 13.0713, 107.296, -66.36
0.676, -1, 26.3599, 26.214, 14.414, 13.074, 107.243, -66.4942
0.68, -1, 26.2623, 26.1633, 14.4344, 13.0767, 107.19, -66.6284
0.684, -1, 26.1646, 26.1126, 14.4548, 13.0794, 107.137, -66.7626
0.688, -1, 26.0669, 26.062, 14.4752, 13.082, 107.084, -66.8968
0.692, -1, 25.9692, 26.0113, 14.4956, 13.0847, 107.03, -67.031
0.696, -1, 25.8715, 25.9607, 14.516, 13.0874, 106.977, -67.1653
0.7, -1, 25.7738, 25.91, 14.5364, 13.0901, 106.924, -67.2995
0.704, -1, 25.6761, 25.8593, 14.5568, 13.0928, 106.871, -67.4337
0.708, -1, 25.5784, 25.8087, 14.5772, 13.0955, 106.818, -67.5679
0.712, -1, 25.4807, 25.758, 14.5975, 13.0982, 106.764, -67.7021
0.716, -1, 25.383, 25.7073, 14.6179, 13.1009, 106.711, -67.8364
0.72, -1, 25.2854, 25.6567, 14.6383, 13.1036, 106.658, -67.9706
0.724, -1, 25.1877, 25.606, 14.6587, 13.1063, 106.605, -68.1048
0.728, -1, 25.09, 25.5553, 14.6791, 13.109, 106.552, -68.239
0.732, -1, 24.9923, 25.5047, 14.6995, 13.1117, 106.498, -68.3733
0.736, -1, 24.8946, 25.454, 14.7199, 13.1144, 106.445, -68.5075
0.74, -1, 24.7969, 25.4033, 14.7403, 13.1171, 106.392, -68.6417
0.744, -1, 24.6992, 25.3527, 14.7607, 13.1198, 106.339, -68.7759
0.748, -1, 24.6015, 25.302, 14.7811, 13.1225, 106.286, -68.9102
0.752, -1, 24.5038, 25.2513, 14.8015, 13.1251, 106.233, -69.0444
0.756, -1, 24.4061, 25.2007, 14.8219, 13.1278, 106.179, -69.1786
0.76, -1, 24.3084, 25.15, 14.8423, 13.1305, 106.126, -69.3128
0.764, -1, 24.2107, 25.0993, 14.8626, 13.1332, 106.073, -69.4471
0.768, -1, 24.113, 25.0486, 14.883, 13.1359, 106.02, -69.5813
0.772, -1, 24.0153, 24.998, 14.9034, 13.1386, 105.967, -69.7155
0.776, -1, 23.9176, 24.9473, 14.9238, 13.1413, 105.913, -69.8497
0.78, -1, 23.8199, 24.8966, 14.9442, 13.144, 105.86, -69.984
0.784, -1, 23.7222, 24.846, 14.9646, 13.1467, 105.807, -70.1182
0.788, -1, 23.6245, 24.7953, 14.985, 13.1494, 105.754, -70.2524
0.792, -1, 23.5268, 24.7446, 15.0054, 13.1521, 105.701, -70.3866
0.796, -1, 23.4291, 24.694, 15.0258, 13.1548, 105.647, -70.5209
0.8, -1, 23.3314, 24.6433, 15.0462, 13.1575, 105.594, -70.6551
0.804, -1, 23.2337, 24.5927, 15.0666, 13.1602, 105.541, -70.7893
0.808, -1, 23.136, 24.542, 15.087, 13.1629, 105.488, -70.9235
0.812, -1, 23.0383, 24.4913, 15.1073, 13.1656, 105.435, -71.0577
0.816, -1, 22.9406, 24.4407, 15.1277, 13.1682, 105.381, -71.1919
0.82, -1, 22.843, 24.39, 15.1481, 13.1709, 105.328, -71.3261
0.824, -1, 22.7453, 24.3394, 15.1685, 13.1736, 105.275, -71.4603
0.828, -1, 22.6476, 24.2887, 15.1889, 13.1763, 105.222, -71.5945
0.832, -1, 22.5499, 24.238, 15.2093, 13.179, 105.169, -71.7287
0.836, -1, 22.4523, 24.1874, 15.2297, 13.1817, 105.116, -71.8629
0.84, -1, 22.3546, 24.1367, 15.2501, 13.1844, 105.062, -71.9971
0.844, -1, 22.2569, 24.0861, 15.2704, 13.1871, 105.009, -72.1312
0.848, -1, 22.1593, 24.0354, 15.2908, 13.1898, 104.956, -72.2654
0.852, -1, 22.0616, 23.9848, 15.3112, 13.1925, 104.903, -72.3996
0.856, -1, 21.9639, 23.9342, 15.3316, 13.1952, 104.85, -72.5338
0.86, -1, 21.8663, 23.8835, 15.352, 13.1979, 104.797, -72.6679
0.864, -1, 21.7686, 23.8329, 15.3724, 13.2006, 104.743, -72.8021
0.868, -1, 21.671, 23.7822, 15.3927, 13.2033, 104.69, -72.9362
0.872, -1, 21.5733, 23.7316, 15.4131, 13.2059, 104.637, -73.0704
0.876, -1, 21.4757, 23.681, 15.4335, 13.2086, 104.584, -73.2045
0.88, -1, 21.3781, 23.6303, 15.4539, 13.2113, 104.531, -73.3387
0.884, -1, 21.2804, 23.5797, 15.4743, 13.214, 104.478, -73.4728
0.888, -1, 21.1828, 23.5291, 15.4946, 13.2167, 104.424, -73.6069
0.892, -1, 21.0852, 23.4784, 15.515, 13.2194, 104.371, -73.741
0.896, -1, 20.9876, 23.4278, 15.5354, 13.2221, 104.318, -73.8752
0.9, -1, 20.89, 23.3772, 15.5558, 13.2248, 104.265, -74.0093
0.904, -1, 20.7923, 23.3266, 15.5761, 13.2275, 104.212, -74.1434
0.908, -1, 20.6947, 23.276, 15.5965, 13.2302, 104.159, -74.2775
0.912, -1, 20.5971, 23.2253, 15.6169, 13.2329, 104.106, -74.4116
0.916, -1, 20.4995, 23.1747, 15.6373, 13.2356, 104.052, -74.5456
0.92, -1, 20.402, 23.1241, 15.6576, 13.2382, 103.999, -74.6797
0.924, -1, 20.3044, 23.0735, 15.678, 13.2409, 103.946, -74.8138
0.928, -1, 20.2068, 23.0229, 15.6984, 13.2436, 103.893, -74.9478
0.932, -1, 20.1092, 22.9723, 15.7187, 13.2463, 103.84, -75.0819
0.936, -1, 20.0117, 22.9217, 15.7391, 13.249, 103.787, -75.2159
0.94, -1, 19.9141, 22.8711, 15.7595, 13.2517, 103.734, -75.35
0.944, -1, 19.8165, 22.8205, 15.7798, 13.2544, 103.681, -75.484
0.948, -1, 19.719, 22.7699, 15.8002, 13.2571, 103.627, -75.618
0.952, -1, 19.6214, 22.7193, 15.8205, 13.2598, 103.574, -75.752
0.956, -1, 19.5239, 22.6688, 15.8409, 13.2625, 103.521, -75.886
0.96, -1, 19.4264, 22.6182, 15.8613, 13.2651, 103.468, -76.02
0.964, -1, 19.3288, 22.5676, 15.8816, 13.2678, 103.415, -76.154
0.968, -1, 19.2313, 22.517, 15.902, 13.2705, 103.362, -76.288
0.972, -1, 19.1338, 22.4665, 15.9223, 13.2732, 103.309, -76.4219
0.976, -1, 19.0363, 22.4159, 15.9427, 13.2759, 103.256, -76.5559
0.98, -1, 18.9388, 22.3653, 15.963, 13.2786, 103.203, -76.6898
0.984, -1, 18.8413, 22.3148, 15.9834, 13.2813, 103.15, -76.8238
0.988, -1, 18.7438, 22.2642, 16.0037, 13.284, 103.097, -76.9577
0.992, -1, 18.6464, 22.2137, 16.0241, 13.2867, 103.044, -77.0916
0.996, -1, 18.5489, 22.1631, 16.0444, 13.2893, 102.99, -77.2255
1, -1, 18.4514, 22.1126, 16.0648, 13.292, 102.937, -77.3594
1.004, -1, 18.354, 22.0621, 16.0851, 13.2947, 102.884, -77.4933
1.008, -1, 18.2565, 22.0115, 16.1054, 13.2974, 102.831, -77.6272
1.012, -1, 18.1591, 21.961, 16.1258, 13.3001, 102.778, -77.761
1.016, -1, 18.0617, 21.9105, 16.1461, 13.3028, 102.725, -77.8949
1.02, -1, 17.9642, 21.8599, 16.1664, 13.3055, 102.672, -78.0287
1.024, -1, 17.8668, 21.8094, 16.1868, 13.3081, 102.619, -78.1626
1.027, -1, 17.7694, 21.7589, 16.2071, 13.3108, 102.566, -78.2964
1.032, -1, 17.672, 21.7084, 16.2274, 13.3135, 102.513, -78.4302
1.036, -1, 17.5746, 21.6579, 16.2478, 13.3162, 102.46, -78.564
1.04, -1, 17.4772, 21.6074, 16.2681, 13.3189, 102.407, -78.6978
1.044, -1, 17.3799, 21.5569, 16.2884, 13.3216, 102.354, -78.8316
1.048, -1, 17.2825, 21.5064, 16.3087, 13.3243, 102.301, -78.9653
1.052, -1, 17.1851, 21.4559, 16.329, 13.3269, 102.248, -79.0991
1.055, -1, 17.0878, 21.4054, 16.3494, 13.3296, 102.195, -79.2328
1.06, -1, 16.9905, 21.355, 16.3697, 13.3323, 102.142, -79.3665
1.064, -1, 16.8931, 21.3045, 16.39, 13.335, 102.089, -79.5002
1.068, -1, 16.7958, 21.254, 16.4103, 13.3377, 102.036, -79.6339
1.072, -1, 16.6985, 21.2036, 16.4306, 13.3404, 101.983, -79.7676
1.076, -1, 16.6012, 21.1531, 16.4509, 13.343, 101.93, -79.9013
1.08, -1, 16.5039, 21.1027, 16.4712, 13.3457, 101.877, -80.035
1.084, -1, 16.4066, 21.0522, 16.4915, 13.3484, 101.824, -80.1686
1.088, -1, 16.3094, 21.0018, 16.5118, 13.3511, 101.771, -80.3022
1.091, -1, 16.2121, 20.9513, 16.5321, 13.3538, 101.718, -80.4359
1.096, -1, 16.1148, 20.9009, 16.5524, 13.3565, 101.665, -80.5695
1.1, -1, 16.0176, 20.8505, 16.5727, 13.3591, 101.612, -80.7031
1.104, -1, 15.9204, 20.8001, 16.593, 13.3618, 101.559, -80.8366
1.108, -1, 15.8232, 20.7496, 16.6133, 13.3645, 101.507, -80.9702
1.112, -1, 15.7259, 20.6992, 16.6336, 13.3672, 101.454, -81.1037
1.116, -1, 15.6287, 20.6488, 16.6539, 13.3699, 101.401, -81.2373
1.119, -1, 15.5316, 20.5984, 16.6742, 13.3725, 101.348, -81.3708
1.124, -1, 15.4344, 20.548, 16.6945, 13.3752, 101.295, -81.5043
1.128, -1, 15.3372, 20.4976, 16.7147, 13.3779, 101.242, -81.6378
1.132, -1, 15.2401, 20.4473, 16.735, 13.3806, 101.189, -81.7713
1.136, -1, 15.1429, 20.3969, 16.7553, 13.3832, 101.136, -81.9047
1.14, -1, 15.0458, 20.3465, 16.7756, 13.3859, 101.083, -82.0382
1.144, -1, 14.9486, 20.2961, 16.7958, 13.3886, 101.03, -82.1716
1.147, -1, 14.8515, 20.2458, 16.8161, 13.3913, 100.978, -82.305
1.152, -1, 14.7544, 20.1954, 16.8364, 13.394, 100.925, -82.4384
1.156, -1, 14.6573, 20.1451, 16.8566, 13.3966, 100.872, -82.5718
1.16, -1, 14.5603, 20.0947, 16.8769, 13.3993, 100.819, -82.7052
1.164, -1, 14.4632, 20.0444, 16.8972, 13.402, 100.766, -82.8385
1.168, -1, 14.3661, 19.9941, 16.9174, 13.4047, 100.713, -82.9719
1.172, -1, 14.2691, 19.9437, 16.9377, 13.4073, 100.66, -83.1052
1.175, -1, 14.1721, 19.8934, 16.9579, 13.41, 100.608, -83.2385
1.18, -1, 14.0751, 19.8431, 16.9782, 13.4127, 100.555, -83.3718
1.184, -1, 13.9781, 19.7928, 16.9984, 13.4154, 100.502, -83.505
1.188, -1, 13.8811, 19.7425, 17.0187, 13.418, 100.449, -83.6383
1.192, -1, 13.7841, 19.6922, 17.0389, 13.4207, 100.396, -83.7715
1.196, -1, 13.6871, 19.6419, 17.0591, 13.4234, 100.344, -83.9047
1.2, -1, 13.5902, 19.5917, 17.0794, 13.4261, 100.291, -84.0379
1.204, -1, 13.4932, 19.5414, 17.0996, 13.4287, 100.238, -84.1711
1.208, -1, 13.3963, 19.4911, 17.1198, 13.4314, 100.185, -84.3043
1.212, -1, 13.2994, 19.4409, 17.1401, 13.4341, 100.133, -84.4374
1.216, -1, 13.2025, 19.3906, 17.1603, 13.4367, 100.08, -84.5705
1.22, -1, 13.1056, 19.3404, 17.1805, 13.4394, 100.027, -84.7036
1.224, -1, 13.0087, 19.2901, 17.2007, 13.4421, 99.9743, -84.8367
1.228, -1, 12.9118, 19.2399, 17.221, 13.4448, 99.9215, -84.9698
1.232, -1, 12.815, 19.1897, 17.2412, 13.4474, 99.8688, -85.1029
1.236, -1, 12.7182, 19.1395, 17.2614, 13.4501, 99.8161, -85.2359
1.24, -1, 12.6213, 19.0893, 17.2816, 13.4528, 99.7634, -85.3689
1.244, -1, 12.5245, 19.0391, 17.3018, 13.4554, 99.7107, -85.5019
1.248, -1, 12.4277, 18.9889, 17.322, 13.4581, 99.658, -85.6349
1.252, -1, 12.331, 18.9387, 17.3422, 13.4608, 99.6053, -85.7678
1.256, -1, 12.2342, 18.8885, 17.3624, 13.4634, 99.5526, -85.9008
1.26, -1, 12.1374, 18.8383, 17.3826, 13.4661, 99.4999, -86.0337
1.264, -1, 12.0407, 18.7882, 17.4028, 13.4688, 99.4473, -86.1666
1.267, -1, 11.944, 18.738, 17.423, 13.4714, 99.3946, -86.2995
1.272, -1, 11.8473, 18.6879, 17.4431, 13.4741, 99.342, -86.4323
1.276, -1, 11.7506, 18.6377, 17.4633, 13.4768, 99.2893, -86.5652
1.28, -1, 11.6539, 18.5876, 17.4835, 13.4794, 99.2367, -86.698
1.284, -1, 11.5572, 18.5374, 17.5037, 13.4821, 99.1841, -86.8308
1.288, -1, 11.4606, 18.4873, 17.5239, 13.4848, 99.1314, -86.9635
1.292, -1, 11.364, 18.4372, 17.544, 13.4874, 99.0788, -87.0963
1.295, -1, 11.2673, 18.3871, 17.5642, 13.4901, 99.0262, -87.229
1.3, -1, 11.1707, 18.337, 17.5843, 13.4928, 98.9736, -87.3617
1.304, -1, 11.0742, 18.2869, 17.6045, 13.4954, 98.9211, -87.4944
1.308, -1, 10.9776, 18.2369, 17.6247, 13.4981, 98.8685, -87.6271
1.312, -1, 10.881, 18.1868, 17.6448, 13.5008, 98.8159, -87.7598
1.316, -1, 10.7845, 18.1367, 17.665, 13.5034, 98.7634, -87.8924
1.32, -1, 10.688, 18.0867, 17.6851, 13.5061, 98.7108, -88.025
1.324, -1, 10.5915, 18.0366, 17.7053, 13.5087, 98.6583, -88.1576
1.328, -1, 10.495, 17.9866, 17.7254, 13.5114, 98.6057, -88.2901
1.332, -1, 10.3985, 17.9366, 17.7455, 13.5141, 98.5532, -88.4227
1.336, -1, 10.302, 17.8865, 17.7657, 13.5167, 98.5007, -88.5552
1.34, -1, 10.2056, 17.8365, 17.7858, 13.5194, 98.4482, -88.6877
1.344, -1, 10.1091, 17.7865, 17.8059, 13.522, 98.3957, -88.8202
1.348, -1, 10.0127, 17.7365, 17.826, 13.5247, 98.3432, -88.9526
1.352, -1, 9.91633, 17.6865, 17.8462, 13.5274, 98.2907, -89.085
1.356, -1, 9.81995, 17.6365, 17.8663, 13.53, 98.2383, -89.2174
1.36, -1, 9.72359, 17.5866, 17.8864, 13.5327, 98.1858, -89.3498
1.364, -1, 9.62724, 17.5366, 17.9065, 13.5353, 98.1333, -89.4822
1.368, -1, 9.53091, 17.4867, 17.9266, 13.538, 98.0809, -89.6145
1.372, -1, 9.4346, 17.4367, 17.9467, 13.5406, 98.0285, -89.7468
1.376, -1, 9.3383, 17.3868, 17.9668, 13.5433, 97.976, -89.8791
1.38, -1, 9.24202, 17.3369, 17.9869, 13.5459, 97.9236, -90.0114
1.384, -1, 9.14576, 17.2869, 18.007, 13.5486, 97.8712, -90.1436
1.388, -1, 9.04951, 17.237, 18.0271, 13.5513, 97.8188, -90.2759
1.392, -1, 8.95328, 17.1871, 18.0472, 13.5539, 97.7664, -90.4081
1.396, -1, 8.85707, 17.1372, 18.0672, 13.5566, 97.7141, -90.5402
1.4, -1, 8.76088, 17.0874, 18.0873, 13.5592, 97.6617, -90.6724
1.404, -1, 8.6647, 17.0375, 18.1074, 13.5619, 97.6093, -90.8045
1.408, -1, 8.56854, 16.9876, 18.1275, 13.5645, 97.557, -90.9366
1.412, -1, 8.4724, 16.9378, 18.1475, 13.5672, 97.5046, -91.0687
1.416, -1, 8.37627, 16.8879, 18.1676, 13.5698, 97.4523, -91.2007
1.42, -1, 8.28017, 16.8381, 18.1876, 13.5725, 97.4, -91.3328
1.424, -1, 8.18408, 16.7882, 18.2077, 13.5751, 97.3477, -91.4648
1.428, -1, 8.088, 16.7384, 18.2277, 13.5778, 97.2954, -91.5968
1.432, -1, 7.99195, 16.6886, 18.2478, 13.5804, 97.2431, -91.7287
1.436, -1, 7.89591, 16.6388, 18.2678, 13.5831, 97.1908, -91.8607
1.44, -1, 7.7999, 16.589, 18.2879, 13.5857, 97.1385, -91.9926
1.444, -1, 7.7039, 16.5392, 18.3079, 13.5884, 97.0863, -92.1244
1.448, -1, 7.60791, 16.4895, 18.3279, 13.591, 97.034, -92.2563
1.452, -1, 7.51195, 16.4397, 18.348, 13.5936, 96.9818, -92.3881
1.456, -1, 7.41601, 16.39, 18.368, 13.5963, 96.9295, -92.52
1.46, -1, 7.32008, 16.3402, 18.388, 13.5989, 96.8773, -92.6517
1.464, -1, 7.22417, 16.2905, 18.408, 13.6016, 96.8251, -92.7835
1.468, -1, 7.12828, 16.2408, 18.4281, 13.6042, 96.7729, -92.9152
1.472, -1, 7.03241, 16.191, 18.4481, 13.6069, 96.7207, -93.0469
1.476, -1, 6.93655, 16.1413, 18.4681, 13.6095, 96.6685, -93.1786
1.48, -1, 6.84072, 16.0916, 18.4881, 13.6122, 96.6163, -93.3103
1.484, -1, 6.74491, 16.042, 18.5081, 13.6148, 96.5642, -93.4419
1.488, -1, 6.64911, 15.9923, 18.5281, 13.6174, 96.512, -93.5735
1.492, -1, 6.55333, 15.9426, 18.548, 13.6201, 96.4599, -93.7051
1.496, -1, 6.45757, 15.893, 18.568, 13.6227, 96.4077, -93.8366
1.5, -1, 6.36183, 15.8433, 18.588, 13.6254, 96.3556, -93.9681
1.504, -1, 6.26611, 15.7937, 18.608, 13.628, 96.3035, -94.0996
1.508, -1, 6.17041, 15.744, 18.628, 13.6306, 96.2514, -94.2311
1.512, -1, 6.07473, 15.6944, 18.6479, 13.6333, 96.1993, -94.3626
1.516, -1, 5.97907, 15.6448, 18.6679, 13.6359, 96.1472, -94.494
1.52, -1, 5.88343, 15.5952, 18.6879, 13.6385, 96.0952, -94.6254
1.524, -1, 5.7878, 15.5456, 18.7078, 13.6412, 96.0431, -94.7567
1.528, -1, 5.6922, 15.4961, 18.7278, 13.6438, 95.9911, -94.8881
1.532, -1, 5.59662, 15.4465, 18.7477, 13.6465, 95.939, -95.0194
1.536, -1, 5.50105, 15.3969, 18.7677, 13.6491, 95.887, -95.1507
1.54, -1, 5.40551, 15.3474, 18.7876, 13.6517, 95.835, -95.2819
1.544, -1, 5.30999, 15.2979, 18.8075, 13.6544, 95.783, -95.4132
1.548, -1, 5.21448, 15.2483, 18.8275, 13.657, 95.731, -95.5444
1.552, -1, 5.119, 15.1988, 18.8474, 13.6596, 95.679, -95.6755
1.556, -1, 5.02353, 15.1493, 18.8673, 13.6623, 95.627, -95.8067
1.56, -1, 4.92809, 15.0998, 18.8872, 13.6649, 95.5751, -95.9378
1.564, -1, 4.83267, 15.0503, 18.9072, 13.6675, 95.5231, -96.0689
1.568, -1, 4.73726, 15.0009, 18.9271, 13.6701, 95.4712, -96.2
1.572, -1, 4.64188, 14.9514, 18.947, 13.6728, 95.4193, -96.331
1.576, -1, 4.54652, 14.902, 18.9669, 13.6754, 95.3674, -96.462
1.58, -1, 4.45118, 14.8525, 18.9868, 13.678, 95.3155, -96.593
1.584, -1, 4.35586, 14.8031, 19.0067, 13.6807, 95.2636, -96.7239
1.588, -1, 4.26056, 14.7537, 19.0266, 13.6833, 95.2117, -96.8548
1.592, -1, 4.16528, 14.7043, 19.0465, 13.6859, 95.1598, -96.9857
1.596, -1, 4.07002, 14.6549, 19.0663, 13.6885, 95.1079, -97.1166
1.6, -1, 3.97478, 14.6055, 19.0862, 13.6912, 95.0561, -97.2474
1.604, -1, 3.87957, 14.5561, 19.1061, 13.6938, 95.0043, -97.3782
1.608, -1, 3.78437, 14.5067, 19.126, 13.6964, 94.9524, -97.509
1.612, -1, 3.6892, 14.4574, 19.1458, 13.699, 94.9006, -97.6398
1.616, -1, 3.59404, 14.4081, 19.1657, 13.7017, 94.8488, -97.7705
1.62, -1, 3.49891, 14.3587, 19.1855, 13.7043, 94.797, -97.9012
1.624, -1, 3.4038, 14.3094, 19.2054, 13.7069, 94.7452, -98.0318
1.628, -1, 3.30871, 14.2601, 19.2252, 13.7095, 94.6935, -98.1625
1.632, -1, 3.21364, 14.2108, 19.2451, 13.7122, 94.6417, -98.2931
1.636, -1, 3.1186, 14.1615, 19.2649, 13.7148, 94.59, -98.4236
1.64, -1, 3.02357, 14.1122, 19.2847, 13.7174, 94.5383, -98.5542
1.644, -1, 2.92857, 14.063, 19.3046, 13.72, 94.4865, -98.6847
1.648, -1, 2.83359, 14.0137, 19.3244, 13.7226, 94.4348, -98.8152
1.652, -1, 2.73863, 13.9645, 19.3442, 13.7252, 94.3831, -98.9456
1.656, -1, 2.6437, 13.9152, 19.364, 13.7279, 94.3315, -99.076
1.66, -1, 2.54878, 13.866, 19.3838, 13.7305, 94.2798, -99.2064
1.664, -1, 2.45389, 13.8168, 19.4036, 13.7331, 94.2281, -99.3368
1.668, -1, 2.35902, 13.7676, 19.4234, 13.7357, 94.1765, -99.4671
1.672, -1, 2.26417, 13.7184, 19.4432, 13.7383, 94.1248, -99.5974
1.676, -1, 2.16934, 13.6693, 19.463, 13.7409, 94.0732, -99.7277
1.68, -1, 2.07453, 13.6201, 19.4828, 13.7436, 94.0216, -99.8579
1.684, -1, 1.97975, 13.571, 19.5026, 13.7462, 93.97, -99.9881
1.688, -1, 1.88499, 13.5218, 19.5224, 13.7488, 93.9184, -100.118
1.692, -1, 1.79025, 13.4727, 19.5421, 13.7514, 93.8668, -100.248
1.696, -1, 1.69554, 13.4236, 19.5619, 13.754, 93.8153, -100.379
1.7, -1, 1.60084, 13.3745, 19.5817, 13.7566, 93.7637, -100.509
1.704, -1, 1.50617, 13.3254, 19.6014, 13.7592, 93.7122, -100.639
1.708, -1, 1.41152, 13.2763, 19.6212, 13.7618, 93.6607, -100.769
1.712, -1, 1.31689, 13.2272, 19.6409, 13.7644, 93.6091, -100.899
1.716, -1, 1.22229, 13.1782, 19.6607, 13.7671, 93.5576, -101.029
1.72, -1, 1.12771, 13.1291, 19.6804, 13.7697, 93.5061, -101.159
1.724, -1, 1.03315, 13.0801, 19.7001, 13.7723, 93.4547, -101.289
1.728, -1, 0.938614, 13.0311, 19.7199, 13.7749, 93.4032, -101.418
1.732, -1, 0.8441, 12.9821, 19.7396, 13.7775, 93.3518, -101.548
1.736, -1, 0.749609, 12.9331, 19.7593, 13.7801, 93.3003, -101.678
1.74, -1, 0.655141, 12.8841, 19.779, 13.7827, 93.2489, -101.808
1.744, -1, 0.560696, 12.8351, 19.7987, 13.7853, 93.1975, -101.938
1.748, -1, 0.466274, 12.7861, 19.8185, 13.7879, 93.1461, -102.067
1.752, -1, 0.371874, 12.7372, 19.8382, 13.7905, 93.0947, -102.197
1.756, -1, 0.277497, 12.6883, 19.8579, 13.7931, 93.0433, -102.327
1.76, -1, 0.183144, 12.6393, 19.8775, 13.7957, 92.9919, -102.456
1.764, -1, 0.0888126, 12.5904, 19.8972, 13.7983, 92.9406, -102.586
1.768, -1, -0.00549545, 12.5415, 19.9169, 13.8009, 92.8892, -102.715
1.772, -1, -0.0997805, 12.4926, 19.9366, 13.8035, 92.8379, -102.845
1.776, -1, -0.194042, 12.4437, 19.9563, 13.8061, 92.7866, -102.974
1.78, -1, -0.288281, 12.3949, 19.9759, 13.8087, 92.7353, -103.104
1.784, -1, -0.382497, 12.346, 19.9956, 13.8113, 92.684, -103.233
1.788, -1, -0.47669, 12.2972, 20.0153, 13.8139, 92.6327, -103.363
1.792, -1, -0.570859, 12.2483, 20.0349, 13.8165, 92.5815, -103.492
1.796, -1, -0.665005, 12.1995, 20.0546, 13.8191, 92.5302, -103.621
1.8, -1, -0.759128, 12.1507, 20.0742, 13.8217, 92.479, -103.751
1.804, -1, -0.853228, 12.1019, 20.0938, 13.8243, 92.4277, -103.88
1.808, -1, -0.947304, 12.0531, 20.1135, 13.8269, 92.3765, -104.009
1.812, -1, -1.04136, 12.0044, 20.1331, 13.8295, 92.3253, -104.138
1.816, -1, -1.13539, 11.9556, 20.1527, 13.8321, 92.2741, -104.268
1.82, -1, -1.22939, 11.9069, 20.1723, 13.8346, 92.223, -104.397
1.824, -1, -1.32337, 11.8581, 20.192, 13.8372, 92.1718, -104.526
1.828, -1, -1.41733, 11.8094, 20.2116, 13.8398, 92.1206, -104.655
1.832, -1, -1.51127, 11.7607, 20.2312, 13.8424, 92.0695, -104.784
1.836, -1, -1.60518, 11.712, 20.2508, 13.845, 92.0184, -104.913
1.84, -1, -1.69907, 11.6633, 20.2704, 13.8476, 91.9673, -105.042
1.844, -1, -1.79293, 11.6146, 20.29, 13.8502, 91.9162, -105.171
1.848, -1, -1.88677, 11.566, 20.3095, 13.8528, 91.8651, -105.3
1.852, -1, -1.98059, 11.5173, 20.3291, 13.8554, 91.814, -105.429
1.856, -1, -2.07438, 11.4687, 20.3487, 13.8579, 91.7629, -105.558
1.86, -1, -2.16815, 11.4201, 20.3683, 13.8605, 91.7119, -105.686
1.864, -1, -2.2619, 11.3715, 20.3878, 13.8631, 91.6609, -105.815
1.868, -1, -2.35562, 11.3229, 20.4074, 13.8657, 91.6098, -105.944
1.872, -1, -2.44931, 11.2743, 20.4269, 13.8683, 91.5588, -106.073
1.876, -1, -2.54299, 11.2257, 20.4465, 13.8709, 91.5078, -106.201
1.88, -1, -2.63664, 11.1771, 20.466, 13.8734, 91.4568, -106.33
1.884, -1, -2.73026, 11.1286, 20.4856, 13.876, 91.4059, -106.459
1.888, -1, -2.82386, 11.0801, 20.5051, 13.8786, 91.3549, -106.587
1.892, -1, -2.91744, 11.0315, 20.5246, 13.8812, 91.304, -106.716
1.896, -1, -3.01099, 10.983, 20.5442, 13.8838, 91.2531, -106.844
1.9, -1, -3.10452, 10.9345, 20.5637, 13.8863, 91.2021, -106.973
1.904, -1, -3.19802, 10.886, 20.5832, 13.8889, 91.1512, -107.101
1.908, -1, -3.2915, 10.8376, 20.6027, 13.8915, 91.1003, -107.23
1.912, -1, -3.38495, 10.7891, 20.6222, 13.8941, 91.0495, -107.358
1.916, -1, -3.47838, 10.7407, 20.6417, 13.8967, 90.9986, -107.486
1.92, -1, -3.57179, 10.6922, 20.6612, 13.8992, 90.9478, -107.615
1.924, -1, -3.66517, 10.6438, 20.6807, 13.9018, 90.8969, -107.743
1.928, -1, -3.75853, 10.5954, 20.7002, 13.9044, 90.8461, -107.871
1.932, -1, -3.85186, 10.547, 20.7197, 13.9069, 90.7953, -107.999
1.936, -1, -3.94517, 10.4986, 20.7391, 13.9095, 90.7445, -108.127
1.94, -1, -4.03845, 10.4502, 20.7586, 13.9121, 90.6937, -108.256
1.944, -1, -4.13171, 10.4019, 20.7781, 13.9147, 90.6429, -108.384
1.948, -1, -4.22494, 10.3535, 20.7975, 13.9172, 90.5922, -108.512
1.952, -1, -4.31815, 10.3052, 20.817, 13.9198, 90.5415, -108.64
1.956, -1, -4.41133, 10.2569, 20.8364, 13.9224, 90.4907, -108.768
1.96, -1, -4.50449, 10.2086, 20.8559, 13.9249, 90.44, -108.896
1.964, -1, -4.59762, 10.1603, 20.8753, 13.9275, 90.3893, -109.024
1.968, -1, -4.69073, 10.112, 20.8947, 13.9301, 90.3386, -109.152
1.972, -1, -4.78382, 10.0637, 20.9142, 13.9326, 90.2879, -109.28
1.976, -1, -4.87687, 10.0155, 20.9336, 13.9352, 90.2373, -109.407
1.98, -1, -4.96991, 9.96724, 20.953, 13.9378, 90.1866, -109.535
1.984, -1, -5.06292, 9.91901, 20.9724, 13.9403, 90.136, -109.663
1.988, -1, -5.1559, 9.87079, 20.9918, 13.9429, 90.0854, -109.791
1.992, -1, -5.24886, 9.82259, 21.0112, 13.9455, 90.0348, -109.918
1.996, -1, -5.34179, 9.7744, 21.0306, 13.948, 89.9842, -110.046
1.999, -1, -5.4347, 9.72622, 21.05, 13.9506, 89.9336, -110.174
2.004, -1, -5.52758, 9.67806, 21.0694, 13.9531, 89.883, -110.301
2.008, -1, -5.62044, 9.62991, 21.0888, 13.9557, 89.8325, -110.429
2.012, -1, -5.71327, 9.58177, 21.1081, 13.9583, 89.782, -110.556
2.015, -1, -5.80608, 9.53365, 21.1275, 13.9608, 89.7314, -110.684
2.019, -1, -5.89886, 9.48554, 21.1469, 13.9634, 89.6809, -110.811
2.024, -1, -5.99161, 9.43744, 21.1662, 13.9659, 89.6304, -110.939
2.028, -1, -6.08435, 9.38935, 21.1856, 13.9685, 89.5799, -111.066
2.031, -1, -6.17705, 9.34128, 21.2049, 13.9711, 89.5295, -111.194
2.036, -1, -6.26973, 9.29322, 21.2243, 13.9736, 89.479, -111.321
2.04, -1, -6.36239, 9.24518, 21.2436, 13.9762, 89.4286, -111.448
2.044, -1, -6.45501, 9.19715, 21.2629, 13.9787, 89.3782, -111.575
2.048, -1, -6.54762, 9.14913, 21.2823, 13.9813, 89.3277, -111.703
2.051, -1, -6.6402, 9.10112, 21.3016, 13.9838, 89.2773, -111.83
2.055, -1, -6.73275, 9.05313, 21.3209, 13.9864, 89.227, -111.957
2.06, -1, -6.82528, 9.00515, 21.3402, 13.9889, 89.1766, -112.084
2.064, -1, -6.91778, 8.95718, 21.3595, 13.9915, 89.1262, -112.211
2.068, -1, -7.01026, 8.90923, 21.3788, 13.994, 89.0759, -112.338
2.071, -1, -7.10272, 8.86129, 21.3981, 13.9966, 89.0256, -112.465
2.076, -1, -7.19514, 8.81336, 21.4174, 13.9991, 88.9752, -112.592
2.08, -1, -7.28754, 8.76545, 21.4367, 14.0017, 88.9249, -112.719
2.084, -1, -7.37992, 8.71755, 21.456, 14.0042, 88.8746, -112.846
2.087, -1, -7.47227, 8.66966, 21.4752, 14.0068, 88.8244, -112.973
2.092, -1, -7.5646, 8.62179, 21.4945, 14.0093, 88.7741, -113.1
2.096, -1, -7.6569, 8.57393, 21.5138, 14.0119, 88.7239, -113.226
2.1, -1, -7.74917, 8.52608, 21.533, 14.0144, 88.6736, -113.353
2.104, -1, -7.84142, 8.47825, 21.5523, 14.0169, 88.6234, -113.48
2.107, -1, -7.93365, 8.43042, 21.5715, 14.0195, 88.5732, -113.607
2.111, -1, -8.02584, 8.38262, 21.5908, 14.022, 88.523, -113.733
2.116, -1, -8.11802, 8.33482, 21.61, 14.0246, 88.4729, -113.86
2.12, -1, -8.21017, 8.28704, 21.6292, 14.0271, 88.4227, -113.986
2.124, -1, -8.30229, 8.23927, 21.6485, 14.0296, 88.3725, -114.113
2.127, -1, -8.39438, 8.19151, 21.6677, 14.0322, 88.3224, -114.24
2.132, -1, -8.48646, 8.14377, 21.6869, 14.0347, 88.2723, -114.366
2.136, -1, -8.5785, 8.09604, 21.7061, 14.0373, 88.2222, -114.492
2.14, -1, -8.67052, 8.04833, 21.7253, 14.0398, 88.1721, -114.619
2.143, -1, -8.76252, 8.00062, 21.7445, 14.0423, 88.122, -114.745
2.148, -1, -8.85449, 7.95293, 21.7637, 14.0449, 88.0719, -114.872
2.152, -1, -8.94643, 7.90526, 21.7829, 14.0474, 88.0219, -114.998
2.156, -1, -9.03835, 7.85759, 21.8021, 14.0499, 87.9718, -115.124
2.16, -1, -9.13025, 7.80994, 21.8213, 14.0525, 87.9218, -115.25
2.163, -1, -9.22212, 7.76231, 21.8404, 14.055, 87.8718, -115.377
2.168, -1, -9.31396, 7.71468, 21.8596, 14.0575, 87.8218, -115.503
2.172, -1, -9.40578, 7.66707, 21.8788, 14.0601, 87.7718, -115.629
2.176, -1, -9.49757, 7.61947, 21.8979, 14.0626, 87.7218, -115.755
2.179, -1, -9.58933, 7.57189, 21.9171, 14.0651, 87.6719, -115.881
2.184, -1, -9.68107, 7.52432, 21.9362, 14.0677, 87.6219, -116.007
2.188, -1, -9.77279, 7.47676, 21.9553, 14.0702, 87.572, -116.133
2.192, -1, -9.86448, 7.42922, 21.9745, 14.0727, 87.5221, -116.259
2.196, -1, -9.95614, 7.38169, 21.9936, 14.0752, 87.4722, -116.385
2.199, -1, -10.0478, 7.33417, 22.0127, 14.0778, 87.4223, -116.511
2.204, -1, -10.1394, 7.28666, 22.0319, 14.0803, 87.3724, -116.637
2.208, -1, -10.231, 7.23917, 22.051, 14.0828, 87.3226, -116.762
2.212, -1, -10.3225, 7.1917, 22.0701, 14.0853, 87.2727, -116.888
2.216, -1, -10.4141, 7.14423, 22.0892, 14.0879, 87.2229, -117.014
2.219, -1, -10.5056, 7.09678, 22.1083, 14.0904, 87.1731, -117.14
2.224, -1, -10.5971, 7.04934, 22.1274, 14.0929, 87.1233, -117.265
2.228, -1, -10.6885, 7.00192, 22.1465, 14.0954, 87.0735, -117.391
2.232, -1, -10.78, 6.9545, 22.1655, 14.098, 87.0237, -117.517
2.235, -1, -10.8714, 6.90711, 22.1846, 14.1005, 86.974, -117.642
2.24, -1, -10.9628, 6.85972, 22.2037, 14.103, 86.9242, -117.768
2.244, -1, -11.0541, 6.81235, 22.2228, 14.1055, 86.8745, -117.893
2.248, -1, -11.1454, 6.76499, 22.2418, 14.108, 86.8248, -118.019
2.252, -1, -11.2367, 6.71765, 22.2609, 14.1105, 86.7751, -118.144
2.255, -1, -11.328, 6.67032, 22.2799, 14.1131, 86.7254, -118.27
2.259, -1, -11.4193, 6.623, 22.299, 14.1156, 86.6757, -118.395
2.264, -1, -11.5105, 6.57569, 22.318, 14.1181, 86.626, -118.52
2.268, -1, -11.6017, 6.5284, 22.337, 14.1206, 86.5764, -118.645
2.272, -1, -11.6929, 6.48112, 22.3561, 14.1231, 86.5267, -118.771
2.275, -1, -11.784, 6.43386, 22.3751, 14.1256, 86.4771, -118.896
2.28, -1, -11.8752, 6.38661, 22.3941, 14.1281, 86.4275, -119.021
2.284, -1, -11.9663, 6.33937, 22.4131, 14.1307, 86.3779, -119.146
2.288, -1, -12.0573, 6.29214, 22.4321, 14.1332, 86.3283, -119.271
2.291, -1, -12.1484, 6.24493, 22.4511, 14.1357, 86.2788, -119.396
2.296, -1, -12.2394, 6.19773, 22.4701, 14.1382, 86.2292, -119.521
2.3, -1, -12.3304, 6.15055, 22.4891, 14.1407, 86.1797, -119.646
2.304, -1, -12.4214, 6.10338, 22.5081, 14.1432, 86.1302, -119.771
2.308, -1, -12.5123, 6.05622, 22.5271, 14.1457, 86.0807, -119.896
2.311, -1, -12.6032, 6.00908, 22.5461, 14.1482, 86.0312, -120.021
2.316, -1, -12.6941, 5.96195, 22.565, 14.1507, 85.9817, -120.146
2.32, -1, -12.785, 5.91483, 22.584, 14.1532, 85.9322, -120.271
2.324, -1, -12.8758, 5.86772, 22.6029, 14.1557, 85.8828, -120.396
2.328, -1, -12.9666, 5.82063, 22.6219, 14.1582, 85.8333, -120.521
2.331, -1, -13.0574, 5.77356, 22.6408, 14.1607, 85.7839, -120.645
2.336, -1, -13.1482, 5.72649, 22.6598, 14.1632, 85.7345, -120.77
2.34, -1, -13.2389, 5.67944, 22.6787, 14.1657, 85.6851, -120.895
2.344, -1, -13.3296, 5.6324, 22.6977, 14.1682, 85.6357, -121.019
2.347, -1, -13.4203, 5.58538, 22.7166, 14.1707, 85.5864, -121.144
2.352, -1, -13.511, 5.53837, 22.7355, 14.1732, 85.537, -121.268
2.356, -1, -13.6016, 5.49137, 22.7544, 14.1757, 85.4877, -121.393
2.36, -1, -13.6922, 5.44439, 22.7733, 14.1782, 85.4383, -121.517
2.364, -1, -13.7828, 5.39742, 22.7922, 14.1807, 85.389, -121.642
2.367, -1, -13.8734, 5.35047, 22.8111, 14.1832, 85.3397, -121.766
2.372, -1, -13.9639, 5.30352, 22.83, 14.1857, 85.2905, -121.89
2.376, -1, -14.0544, 5.25659, 22.8489, 14.1882, 85.2412, -122.015
2.38, -1, -14.1449, 5.20968, 22.8678, 14.1907, 85.1919, -122.139
2.383, -1, -14.2353, 5.16278, 22.8867, 14.1932, 85.1427, -122.263
2.388, -1, -14.3257, 5.11589, 22.9055, 14.1957, 85.0935, -122.388
2.392, -1, -14.4161, 5.06901, 22.9244, 14.1982, 85.0443, -122.512
2.396, -1, -14.5065, 5.02215, 22.9433, 14.2007, 84.995, -122.636
2.4, -1, -14.5969, 4.9753, 22.9621, 14.2032, 84.9459, -122.76
2.403, -1, -14.6872, 4.92846, 22.981, 14.2057, 84.8967, -122.884
2.408, -1, -14.7775, 4.88164, 22.9998, 14.2082, 84.8475, -123.008
2.412, -1, -14.8678, 4.83483, 23.0187, 14.2107, 84.7984, -123.132
2.416, -1, -14.958, 4.78804, 23.0375, 14.2131, 84.7493, -123.256
2.42, -1, -15.0482, 4.74126, 23.0563, 14.2156, 84.7001, -123.38
2.423, -1, -15.1384, 4.69449, 23.0751, 14.2181, 84.6511, -123.504
2.428, -1, -15.2286, 4.64773, 23.094, 14.2206, 84.602, -123.628
2.432, -1, -15.3187, 4.60099, 23.1128, 14.2231, 84.5529, -123.752
2.436, -1, -15.4089, 4.55426, 23.1316, 14.2256, 84.5038, -123.875
2.439, -1, -15.4989, 4.50755, 23.1504, 14.2281, 84.4548, -123.999
2.444, -1, -15.589, 4.46084, 23.1692, 14.2305, 84.4058, -124.123
2.448, -1, -15.6791, 4.41416, 23.188, 14.233, 84.3568, -124.247
2.452, -1, -15.7691, 4.36748, 23.2068, 14.2355, 84.3077, -124.37
2.456, -1, -15.8591, 4.32082, 23.2255, 14.238, 84.2588, -124.494
2.459, -1, -15.949, 4.27417, 23.2443, 14.2405, 84.2098, -124.617
2.464, -1, -16.039, 4.22753, 23.2631, 14.2429, 84.1608, -124.741
2.468, -1, -16.1289, 4.18091, 23.2818, 14.2454, 84.1119, -124.865
2.472, -1, -16.2188, 4.1343, 23.3006, 14.2479, 84.0629, -124.988
2.476, -1, -16.3086, 4.0877, 23.3194, 14.2504, 84.014, -125.111
2.479, -1, -16.3985, 4.04112, 23.3381, 14.2529, 83.9651, -125.235
2.484, -1, -16.4883, 3.99454, 23.3568, 14.2553, 83.9162, -125.358
2.488, -1, -16.5781, 3.94799, 23.3756, 14.2578, 83.8673, -125.482
2.492, -1, -16.6678, 3.90144, 23.3943, 14.2603, 83.8185, -125.605
2.495, -1, -16.7576, 3.85491, 23.413, 14.2628, 83.7696, -125.728
2.5, -1, -16.8473, 3.80839, 23.4318, 14.2652, 83.7208, -125.851
2.504, -1, -16.937, 3.76189, 23.4505, 14.2677, 83.672, -125.975
2.508, -1, -17.0266, 3.71539, 23.4692, 14.2702, 83.6232, -126.098
2.512, -1, -17.1163, 3.66891, 23.4879, 14.2726, 83.5744, -126.221
2.515, -1, -17.2059, 3.62245, 23.5066, 14.2751, 83.5256, -126.344
2.52, -1, -17.2955, 3.57599, 23.5253, 14.2776, 83.4768, -126.467
2.524, -1, -17.385, 3.52955, 23.544, 14.2801, 83.4281, -126.59
2.528, -1, -17.4746, 3.48312, 23.5627, 14.2825, 83.3793, -126.713
2.531, -1, -17.5641, 3.43671, 23.5814, 14.285, 83.3306, -126.836
2.536, -1, -17.6536, 3.39031, 23.6, 14.2875, 83.2819, -126.959
2.54, -1, -17.743, 3.34392, 23.6187, 14.2899, 83.2332, -127.082
2.544, -1, -17.8324, 3.29755, 23.6374, 14.2924, 83.1845, -127.205
2.548, -1, -17.9219, 3.25118, 23.656, 14.2949, 83.1358, -127.328
2.551, -1, -18.0112, 3.20484, 23.6747, 14.2973, 83.0872, -127.45
2.556, -1, -18.1006, 3.1585, 23.6933, 14.2998, 83.0385, -127.573
2.56, -1, -18.1899, 3.11218, 23.712, 14.3022, 82.9899, -127.696
2.564, -1, -18.2792, 3.06587, 23.7306, 14.3047, 82.9412, -127.819
2.568, -1, -18.3685, 3.01957, 23.7493, 14.3072, 82.8926, -127.941
2.571, -1, -18.4578, 2.97328, 23.7679, 14.3096, 82.844, -128.064
2.576, -1, -18.547, 2.92701, 23.7865, 14.3121, 82.7955, -128.186
2.58, -1, -18.6362, 2.88075, 23.8051, 14.3145, 82.7469, -128.309
2.584, -1, -18.7254, 2.83451, 23.8237, 14.317, 82.6984, -128.431
2.587, -1, -18.8146, 2.78827, 23.8423, 14.3195, 82.6498, -128.554
2.592, -1, -18.9037, 2.74205, 23.8609, 14.3219, 82.6013, -128.676
2.596, -1, -18.9928, 2.69584, 23.8795, 14.3244, 82.5528, -128.799
2.6, -1, -19.0819, 2.64964, 23.8981, 14.3268, 82.5043, -128.921
2.604, -1, -19.171, 2.60346, 23.9167, 14.3293, 82.4558, -129.044
2.607, -1, -19.26, 2.55729, 23.9353, 14.3317, 82.4073, -129.166
2.612, -1, -19.349, 2.51114, 23.9539, 14.3342, 82.3589, -129.288
2.616, -1, -19.438, 2.46499, 23.9725, 14.3366, 82.3104, -129.41
2.62, -1, -19.527, 2.41886, 23.991, 14.3391, 82.262, -129.533
2.624, -1, -19.6159, 2.37275, 24.0096, 14.3416, 82.2136, -129.655
2.627, -1, -19.7048, 2.32664, 24.0281, 14.344, 82.1652, -129.777
2.632, -1, -19.7937, 2.28055, 24.0467, 14.3465, 82.1168, -129.899
2.636, -1, -19.8826, 2.23448, 24.0652, 14.3489, 82.0684, -130.021
2.64, -1, -19.9714, 2.18841, 24.0838, 14.3514, 82.0201, -130.143
2.643, -1, -20.0602, 2.14236, 24.1023, 14.3538, 81.9717, -130.265
2.648, -1, -20.149, 2.09632, 24.1208, 14.3563, 81.9234, -130.387
2.652, -1, -20.2378, 2.05029, 24.1394, 14.3587, 81.8751, -130.509
2.656, -1, -20.3265, 2.00428, 24.1579, 14.3611, 81.8268, -130.631
2.66, -1, -20.4152, 1.95828, 24.1764, 14.3636, 81.7785, -130.753
2.663, -1, -20.5039, 1.91229, 24.1949, 14.366, 81.7302, -130.875
2.668, -1, -20.5926, 1.86631, 24.2134, 14.3685, 81.6819, -130.996
2.672, -1, -20.6812, 1.82035, 24.2319, 14.3709, 81.6337, -131.118
2.676, -1, -20.7698, 1.7744, 24.2504, 14.3734, 81.5854, -131.24
2.679, -1, -20.8584, 1.72846, 24.2689, 14.3758, 81.5372, -131.362
2.684, -1, -20.947, 1.68254, 24.2874, 14.3783, 81.489, -131.483
2.688, -1, -21.0355, 1.63662, 24.3059, 14.3807, 81.4408, -131.605
2.692, -1, -21.1241, 1.59073, 24.3243, 14.3831, 81.3926, -131.726
2.696, -1, -21.2125, 1.54484, 24.3428, 14.3856, 81.3444, -131.848
2.699, -1, -21.301, 1.49897, 24.3613, 14.388, 81.2963, -131.97
2.704, -1, -21.3895, 1.4531, 24.3797, 14.3904, 81.2481, -132.091
2.708, -1, -21.4779, 1.40726, 24.3982, 14.3929, 81.2, -132.213
2.712, -1, -21.5663, 1.36142, 24.4166, 14.3953, 81.1519, -132.334
2.716, -1, -21.6546, 1.3156, 24.4351, 14.3978, 81.1037, -132.455
2.719, -1, -21.743, 1.26979, 24.4535, 14.4002, 81.0556, -132.577
2.724, -1, -21.8313, 1.22399, 24.4719, 14.4026, 81.0076, -132.698
2.728, -1, -21.9196, 1.17821, 24.4904, 14.4051, 80.9595, -132.819
2.732, -1, -22.0079, 1.13243, 24.5088, 14.4075, 80.9115, -132.941
2.735, -1, -22.0961, 1.08667, 24.5272, 14.4099, 80.8634, -133.062
2.74, -1, -22.1843, 1.04093, 24.5456, 14.4124, 80.8154, -133.183
2.744, -1, -22.2725, 0.995194, 24.564, 14.4148, 80.7674, -133.304
2.748, -1, -22.3607, 0.949473, 24.5824, 14.4172, 80.7194, -133.425
2.752, -1, -22.4489, 0.903765, 24.6008, 14.4197, 80.6714, -133.546
2.755, -1, -22.537, 0.858069, 24.6192, 14.4221, 80.6234, -133.667
2.76, -1, -22.6251, 0.812386, 24.6376, 14.4245, 80.5755, -133.788
2.764, -1, -22.7132, 0.766715, 24.656, 14.4269, 80.5275, -133.909
2.768, -1, -22.8012, 0.721057, 24.6743, 14.4294, 80.4796, -134.03
2.772, -1, -22.8892, 0.675411, 24.6927, 14.4318, 80.4317, -134.151
2.775, -1, -22.9772, 0.629777, 24.7111, 14.4342, 80.3837, -134.272
2.78, -1, -23.0652, 0.584156, 24.7294, 14.4366, 80.3358, -134.393
2.784, -1, -23.1532, 0.538548, 24.7478, 14.4391, 80.288, -134.514
2.788, -1, -23.2411, 0.492952, 24.7661, 14.4415, 80.2401, -134.635
2.791, -1, -23.329, 0.447369, 24.7845, 14.4439, 80.1923, -134.755
2.796, -1, -23.4169, 0.401798, 24.8028, 14.4463, 80.1444, -134.876
2.8, -1, -23.5048, 0.35624, 24.8212, 14.4488, 80.0966, -134.997
2.804, -1, -23.5926, 0.310693, 24.8395, 14.4512, 80.0488, -135.118
2.808, -1, -23.6804, 0.265159, 24.8578, 14.4536, 80.001, -135.238
2.811, -1, -23.7682, 0.219638, 24.8762, 14.456, 79.9532, -135.359
2.816, -1, -23.856, 0.174128, 24.8945, 14.4584, 79.9054, -135.479
2.82, -1, -23.9437, 0.128631, 24.9128, 14.4609, 79.8576, -135.6
2.824, -1, -24.0314, 0.0831463, 24.9311, 14.4633, 79.8099, -135.72
2.828, -1, -24.1191, 0.0376735, 24.9494, 14.4657, 79.7621, -135.841
2.831, -1, -24.2068, -0.00778717, 24.9677, 14.4681, 79.7144, -135.961
2.836, -1, -24.2944, -0.0532357, 24.986, 14.4705, 79.6667, -136.082
2.84, -1, -24.3821, -0.0986721, 25.0043, 14.473, 79.619, -136.202
2.844, -1, -24.4697, -0.144096, 25.0225, 14.4754, 79.5713, -136.322
2.847, -1, -24.5572, -0.189509, 25.0408, 14.4778, 79.5236, -136.443
2.852, -1, -24.6448, -0.234909, 25.0591, 14.4802, 79.476, -136.563
2.856, -1, -24.7323, -0.280297, 25.0774, 14.4826, 79.4283, -136.683
2.86, -1, -24.8198, -0.325673, 25.0956, 14.485, 79.3807, -136.803
2.864, -1, -24.9073, -0.371038, 25.1139, 14.4874, 79.333, -136.924
2.867, -1, -24.9948, -0.41639, 25.1321, 14.4898, 79.2854, -137.044
2.872, -1, -25.0822, -0.46173, 25.1504, 14.4923, 79.2378, -137.164
2.876, -1, -25.1696, -0.507058, 25.1686, 14.4947, 79.1903, -137.284
2.88, -1, -25.257, -0.552375, 25.1869, 14.4971, 79.1427, -137.404
2.883, -1, -25.3444, -0.597679, 25.2051, 14.4995, 79.0951, -137.524
2.888, -1, -25.4318, -0.642971, 25.2233, 14.5019, 79.0476, -137.644
2.892, -1, -25.5191, -0.688252, 25.2416, 14.5043, 79, -137.764
2.896, -1, -25.6064, -0.733521, 25.2598, 14.5067, 78.9525, -137.884
2.9, -1, -25.6937, -0.778777, 25.278, 14.5091, 78.905, -138.004
2.903, -1, -25.7809, -0.824022, 25.2962, 14.5115, 78.8575, -138.124
2.908, -1, -25.8681, -0.869255, 25.3144, 14.5139, 78.81, -138.243
2.912, -1, -25.9553, -0.914477, 25.3326, 14.5163, 78.7625, -138.363
2.916, -1, -26.0425, -0.959686, 25.3508, 14.5187, 78.7151, -138.483
2.92, -1, -26.1297, -1.00488, 25.369, 14.5211, 78.6676, -138.603
2.923, -1, -26.2168, -1.05007, 25.3872, 14.5235, 78.6202, -138.722
2.928, -1, -26.304, -1.09524, 25.4054, 14.5259, 78.5728, -138.842
2.932, -1, -26.3911, -1.14041, 25.4235, 14.5283, 78.5253, -138.962
2.936, -1, -26.4781, -1.18556, 25.4417, 14.5307, 78.4779, -139.081
2.939, -1, -26.5652, -1.23069, 25.4599, 14.5331, 78.4305, -139.201
2.944, -1, -26.6522, -1.27582, 25.478, 14.5355, 78.3832, -139.321
2.948, -1, -26.7392, -1.32094, 25.4962, 14.5379, 78.3358, -139.44
2.952, -1, -26.8262, -1.36604, 25.5143, 14.5403, 78.2885, -139.56
2.956, -1, -26.9132, -1.41113, 25.5325, 14.5427, 78.2411, -139.679
2.959, -1, -27.0001, -1.45621, 25.5506, 14.5451, 78.1938, -139.798
2.964, -1, -27.087, -1.50128, 25.5688, 14.5475, 78.1465, -139.918
2.968, -1, -27.1739, -1.54634, 25.5869, 14.5499, 78.0992, -140.037
2.972, -1, -27.2608, -1.59138, 25.605, 14.5523, 78.0519, -140.157
2.976, -1, -27.3476, -1.63642, 25.6232, 14.5547, 78.0046, -140.276
2.98, -1, -27.4344, -1.68144, 25.6413, 14.5571, 77.9573, -140.395
2.984, -1, -27.5212, -1.72645, 25.6594, 14.5595, 77.9101, -140.514
2.988, -1, -27.608, -1.77145, 25.6775, 14.5619, 77.8628, -140.634
2.992, -1, -27.6948, -1.81644, 25.6956, 14.5643, 77.8156, -140.753
2.995, -1, -27.7815, -1.86141, 25.7137, 14.5667, 77.7684, -140.872
3, -1, -27.8682, -1.90638, 25.7318, 14.5691, 77.7212, -140.991
3.004, -1, -27.9549, -1.95133, 25.7499, 14.5715, 77.674, -141.11
3.008, -1, -28.0416, -1.99627, 25.768, 14.5738, 77.6268, -141.229
3.012, -1, -28.1282, -2.0412, 25.7861, 14.5762, 77.5797, -141.348
3.015, -1, -28.2149, -2.08612, 25.8042, 14.5786, 77.5325, -141.467
3.02, -1, -28.3015, -2.13102, 25.8222, 14.581, 77.4853, -141.586
3.024, -1, -28.388, -2.17592, 25.8403, 14.5834, 77.4382, -141.705
3.028, -1, -28.4746, -2.2208, 25.8584, 14.5858, 77.3911, -141.824
3.031, -1, -28.5611, -2.26567, 25.8764, 14.5882, 77.344, -141.943
3.036, -1, -28.6476, -2.31054, 25.8945, 14.5906, 77.2969, -142.062
3.04, -1, -28.7341, -2.35538, 25.9125, 14.5929, 77.2498, -142.181
3.044, -1, -28.8206, -2.40022, 25.9306, 14.5953, 77.2027, -142.299
3.048, -1, -28.9071, -2.44505, 25.9486, 14.5977, 77.1557, -142.418
3.051, -1, -28.9935, -2.48986, 25.9667, 14.6001, 77.1086, -142.537
3.056, -1, -29.0799, -2.53467, 25.9847, 14.6025, 77.0616, -142.655
3.06, -1, -29.1663, -2.57946, 26.0027, 14.6048, 77.0146, -142.774
3.064, -1, -29.2526, -2.62424, 26.0207, 14.6072, 76.9675, -142.893
3.068, -1, -29.339, -2.66901, 26.0388, 14.6096, 76.9205, -143.011
3.071, -1, -29.4253, -2.71377, 26.0568, 14.612, 76.8736, -143.13
3.076, -1, -29.5116, -2.75852, 26.0748, 14.6144, 76.8266, -143.249
3.08, -1, -29.5978, -2.80325, 26.0928, 14.6167, 76.7796, -143.367
3.084, -1, -29.6841, -2.84798, 26.1108, 14.6191, 76.7327, -143.486
3.087, -1, -29.7703, -2.89269, 26.1288, 14.6215, 76.6857, -143.604
3.092, -1, -29.8565, -2.93739, 26.1468, 14.6239, 76.6388, -143.722
3.096, -1, -29.9427, -2.98208, 26.1648, 14.6263, 76.5919, -143.841
3.1, -1, -30.0289, -3.02676, 26.1827, 14.6286, 76.545, -143.959
3.104, -1, -30.115, -3.07143, 26.2007, 14.631, 76.4981, -144.077
3.107, -1, -30.2012, -3.11609, 26.2187, 14.6334, 76.4512, -144.196
3.112, -1, -30.2873, -3.16074, 26.2367, 14.6358, 76.4043, -144.314
3.116, -1, -30.3733, -3.20537, 26.2546, 14.6381, 76.3575, -144.432
3.12, -1, -30.4594, -3.24999, 26.2726, 14.6405, 76.3106, -144.551
3.124, -1, -30.5454, -3.29461, 26.2905, 14.6429, 76.2638, -144.669
3.128, -1, -30.6314, -3.33921, 26.3085, 14.6452, 76.2169, -144.787
3.132, -1, -30.7174, -3.3838, 26.3264, 14.6476, 76.1701, -144.905
3.136, -1, -30.8034, -3.42838, 26.3444, 14.65, 76.1233, -145.023
3.14, -1, -30.8893, -3.47295, 26.3623, 14.6524, 76.0765, -145.141
3.143, -1, -30.9753, -3.5175, 26.3803, 14.6547, 76.0298, -145.259
3.148, -1, -31.0612, -3.56205, 26.3982, 14.6571, 75.983, -145.377
3.152, -1, -31.1471, -3.60659, 26.4161, 14.6595, 75.9362, -145.495
3.156, -1, -31.2329, -3.65111, 26.434, 14.6618, 75.8895, -145.613
3.16, -1, -31.3188, -3.69562, 26.4519, 14.6642, 75.8428, -145.731
3.163, -1, -31.4046, -3.74013, 26.4699, 14.6666, 75.7961, -145.849
3.168, -1, -31.4904, -3.78462, 26.4878, 14.6689, 75.7493, -145.967
3.172, -1, -31.5762, -3.8291, 26.5057, 14.6713, 75.7026, -146.085
3.176, -1, -31.6619, -3.87357, 26.5236, 14.6737, 75.656, -146.202
3.179, -1, -31.7477, -3.91803, 26.5415, 14.676, 75.6093, -146.32
3.184, -1, -31.8334, -3.96248, 26.5593, 14.6784, 75.5626, -146.438
3.188, -1, -31.9191, -4.00691, 26.5772, 14.6807, 75.516, -146.556
3.192, -1, -32.0048, -4.05134, 26.5951, 14.6831, 75.4693, -146.673
3.196, -1, -32.0904, -4.09576, 26.613, 14.6855, 75.4227, -146.791
3.199, -1, -32.1761, -4.14016, 26.6309, 14.6878, 75.3761, -146.909
3.204, -1, -32.2617, -4.18456, 26.6487, 14.6902, 75.3295, -147.026
3.208, -1, -32.3473, -4.22894, 26.6666, 14.6925, 75.2829, -147.144
3.212, -1, -32.4329, -4.27332, 26.6845, 14.6949, 75.2363, -147.262
3.216, -1, -32.5184, -4.31768, 26.7023, 14.6973, 75.1897, -147.379
3.22, -1, -32.6039, -4.36203, 26.7202, 14.6996, 75.1432, -147.497
3.224, -1, -32.6895, -4.40638, 26.738, 14.702, 75.0966, -147.614
3.228, -1, -32.775, -4.45071, 26.7558, 14.7043, 75.0501, -147.731
3.232, -1, -32.8604, -4.49503, 26.7737, 14.7067, 75.0035, -147.849
3.235, -1, -32.9459, -4.53934, 26.7915, 14.7091, 74.957, -147.966
3.24, -1, -33.0313, -4.58365, 26.8094, 14.7114, 74.9105, -148.084
3.244, -1, -33.1167, -4.62794, 26.8272, 14.7138, 74.864, -148.201
3.248, -1, -33.2021, -4.67222, 26.845, 14.7161, 74.8175, -148.318
3.252, -1, -33.2875, -4.71649, 26.8628, 14.7185, 74.771, -148.436
3.255, -1, -33.3729, -4.76075, 26.8806, 14.7208, 74.7246, -148.553
3.26, -1, -33.4582, -4.805, 26.8984, 14.7232, 74.6781, -148.67
3.264, -1, -33.5435, -4.84924, 26.9163, 14.7255, 74.6317, -148.787
3.268, -1, -33.6288, -4.89347, 26.934, 14.7279, 74.5852, -148.904
3.272, -1, -33.7141, -4.93769, 26.9518, 14.7302, 74.5388, -149.022
3.276, -1, -33.7993, -4.9819, 26.9696, 14.7326, 74.4924, -149.139
3.28, -1, -33.8846, -5.0261, 26.9874, 14.7349, 74.446, -149.256
3.284, -1, -33.9698, -5.07029, 27.0052, 14.7373, 74.3996, -149.373
3.288, -1, -34.055, -5.11447, 27.023, 14.7396, 74.3532, -149.49
3.291, -1, -34.1402, -5.15863, 27.0408, 14.742, 74.3069, -149.607
3.296, -1, -34.2253, -5.20279, 27.0585, 14.7443, 74.2605, -149.724
3.3, -1, -34.3105, -5.24694, 27.0763, 14.7467, 74.2141, -149.841
3.304, -1, -34.3956, -5.29108, 27.0941, 14.749, 74.1678, -149.958
3.308, -1, -34.4807, -5.33521, 27.1118, 14.7514, 74.1215, -150.075
3.312, -1, -34.5658, -5.37933, 27.1296, 14.7537, 74.0752, -150.192
3.316, -1, -34.6508, -5.42344, 27.1473, 14.7561, 74.0289, -150.308
3.32, -1, -34.7359, -5.46753, 27.1651, 14.7584, 73.9826, -150.425
3.324, -1, -34.8209, -5.51162, 27.1828, 14.7607, 73.9363, -150.542
3.328, -1, -34.9059, -5.5557, 27.2006, 14.7631, 73.89, -150.659
3.332, -1, -34.9909, -5.59977, 27.2183, 14.7654, 73.8437, -150.776
3.336, -1, -35.0759, -5.64383, 27.2361, 14.7678, 73.7975, -150.892
3.34, -1, -35.1608, -5.68788, 27.2538, 14.7701, 73.7512, -151.009
3.344, -1, -35.2457, -5.73192, 27.2715, 14.7725, 73.705, -151.126
3.347, -1, -35.3307, -5.77595, 27.2892, 14.7748, 73.6588, -151.242
3.352, -1, -35.4155, -5.81996, 27.3069, 14.7771, 73.6126, -151.359
3.356, -1, -35.5004, -5.86397, 27.3247, 14.7795, 73.5664, -151.475
3.36, -1, -35.5853, -5.90797, 27.3424, 14.7818, 73.5202, -151.592
3.364, -1, -35.6701, -5.95196, 27.3601, 14.7842, 73.474, -151.709
3.368, -1, -35.7549, -5.99594, 27.3778, 14.7865, 73.4278, -151.825
3.372, -1, -35.8397, -6.03991, 27.3955, 14.7888, 73.3816, -151.942
3.376, -1, -35.9245, -6.08387, 27.4132, 14.7912, 73.3355, -152.058
3.38, -1, -36.0093, -6.12783, 27.4308, 14.7935, 73.2894, -152.174
3.383, -1, -36.094, -6.17177, 27.4485, 14.7958, 73.2432, -152.291
3.388, -1, -36.1787, -6.2157, 27.4662, 14.7982, 73.1971, -152.407
3.392, -1, -36.2634, -6.25962, 27.4839, 14.8005, 73.151, -152.524
3.396, -1, -36.3481, -6.30353, 27.5016, 14.8028, 73.1049, -152.64
3.4, -1, -36.4328, -6.34743, 27.5192, 14.8052, 73.0588, -152.756
3.403, -1, -36.5174, -6.39133, 27.5369, 14.8075, 73.0127, -152.873
3.408, -1, -36.602, -6.43521, 27.5546, 14.8098, 72.9667, -152.989
3.412, -1, -36.6866, -6.47908, 27.5722, 14.8122, 72.9206, -153.105
3.416, -1, -36.7712, -6.52295, 27.5899, 14.8145, 72.8745, -153.221
3.42, -1, -36.8558, -6.5668, 27.6075, 14.8168, 72.8285, -153.337
3.424, -1, -36.9404, -6.61065, 27.6252, 14.8192, 72.7825, -153.454
3.428, -1, -37.0249, -6.65448, 27.6428, 14.8215, 72.7365, -153.57
3.432, -1, -37.1094, -6.69831, 27.6605, 14.8238, 72.6904, -153.686
3.436, -1, -37.1939, -6.74212, 27.6781, 14.8262, 72.6444, -153.802
3.439, -1, -37.2784, -6.78593, 27.6957, 14.8285, 72.5985, -153.918
3.444, -1, -37.3629, -6.82973, 27.7134, 14.8308, 72.5525, -154.034
3.448, -1, -37.4473, -6.87352, 27.731, 14.8332, 72.5065, -154.15
3.452, -1, -37.5317, -6.91729, 27.7486, 14.8355, 72.4605, -154.266
3.456, -1, -37.6161, -6.96106, 27.7662, 14.8378, 72.4146, -154.382
3.46, -1, -37.7005, -7.00482, 27.7838, 14.8401, 72.3687, -154.498
3.464, -1, -37.7849, -7.04857, 27.8014, 14.8425, 72.3227, -154.614
3.468, -1, -37.8692, -7.09231, 27.819, 14.8448, 72.2768, -154.73
3.472, -1, -37.9536, -7.13604, 27.8366, 14.8471, 72.2309, -154.845
3.476, -1, -38.0379, -7.17977, 27.8542, 14.8494, 72.185, -154.961
3.48, -1, -38.1222, -7.22348, 27.8718, 14.8518, 72.1391, -155.077
3.484, -1, -38.2065, -7.26718, 27.8894, 14.8541, 72.0932, -155.193
3.488, -1, -38.2907, -7.31088, 27.907, 14.8564, 72.0473, -155.309
3.492, -1, -38.375, -7.35456, 27.9246, 14.8587, 72.0015, -155.424
3.495, -1, -38.4592, -7.39824, 27.9422, 14.861, 71.9556, -155.54
3.5, -1, -38.5434, -7.4419, 27.9597, 14.8634, 71.9098, -155.656
3.504, -1, -38.6276, -7.48556, 27.9773, 14.8657, 71.864, -155.771
3.508, -1, -38.7118, -7.52921, 27.9949, 14.868, 71.8181, -155.887
3.512, -1, -38.7959, -7.57285, 28.0124, 14.8703, 71.7723, -156.003
3.516, -1, -38.8801, -7.61648, 28.03, 14.8727, 71.7265, -156.118
3.52, -1, -38.9642, -7.6601, 28.0476, 14.875, 71.6807, -156.234
3.524, -1, -39.0483, -7.70371, 28.0651, 14.8773, 71.6349, -156.349
3.528, -1, -39.1324, -7.74731, 28.0827, 14.8796, 71.5892, -156.465
3.531, -1, -39.2164, -7.7909, 28.1002, 14.8819, 71.5434, -156.58
3.536, -1, -39.3005, -7.83448, 28.1177, 14.8842, 71.4976, -156.696
3.54, -1, -39.3845, -7.87806, 28.1353, 14.8866, 71.4519, -156.811
3.544, -1, -39.4686, -7.92163, 28.1528, 14.8889, 71.4062, -156.927
3.548, -1, -39.5526, -7.96518, 28.1703, 14.8912, 71.3604, -157.042
3.552, -1, -39.6365, -8.00873, 28.1879, 14.8935, 71.3147, -157.157
3.556, -1, -39.7205, -8.05227, 28.2054, 14.8958, 71.269, -157.273
3.56, -1, -39.8044, -8.0958, 28.2229, 14.8981, 71.2233, -157.388
3.564, -1, -39.8884, -8.13932, 28.2404, 14.9004, 71.1776, -157.503
3.568, -1, -39.9723, -8.18283, 28.2579, 14.9028, 71.1319, -157.619
3.572, -1, -40.0562, -8.22634, 28.2755, 14.9051, 71.0863, -157.734
3.576, -1, -40.1401, -8.26983, 28.293, 14.9074, 71.0406, -157.849
3.58, -1, -40.2239, -8.31332, 28.3105, 14.9097, 70.9949, -157.964
3.584, -1, -40.3078, -8.3568, 28.328, 14.912, 70.9493, -158.079
3.587, -1, -40.3916, -8.40026, 28.3455, 14.9143, 70.9037, -158.195
3.592, -1, -40.4754, -8.44373, 28.3629, 14.9166, 70.858, -158.31
3.596, -1, -40.5592, -8.48718, 28.3804, 14.9189, 70.8124, -158.425
3.6, -1, -40.643, -8.53062, 28.3979, 14.9213, 70.7668, -158.54
3.604, -1, -40.7268, -8.57405, 28.4154, 14.9236, 70.7212, -158.655
3.608, -1, -40.8105, -8.61748, 28.4329, 14.9259, 70.6756, -158.77
3.612, -1, -40.8942, -8.6609, 28.4504, 14.9282, 70.6301, -158.885
3.616, -1, -40.9779, -8.70431, 28.4678, 14.9305, 70.5845, -159
3.62, -1, -41.0616, -8.74771, 28.4853, 14.9328, 70.5389, -159.115
3.624, -1, -41.1453, -8.7911, 28.5028, 14.9351, 70.4934, -159.23
3.628, -1, -41.229, -8.83449, 28.5202, 14.9374, 70.4478, -159.345
3.632, -1, -41.3126, -8.87786, 28.5377, 14.9397, 70.4023, -159.46
3.636, -1, -41.3963, -8.92123, 28.5551, 14.942, 70.3567, -159.575
3.64, -1, -41.4799, -8.96459, 28.5726, 14.9443, 70.3112, -159.69
3.644, -1, -41.5635, -9.00794, 28.59, 14.9466, 70.2657, -159.804
3.648, -1, -41.6471, -9.05128, 28.6075, 14.9489, 70.2202, -159.919
3.652, -1, -41.7306, -9.09462, 28.6249, 14.9512, 70.1747, -160.034
3.656, -1, -41.8142, -9.13794, 28.6424, 14.9535, 70.1292, -160.149
3.66, -1, -41.8977, -9.18126, 28.6598, 14.9558, 70.0838, -160.264
3.664, -1, -41.9813, -9.22457, 28.6772, 14.9581, 70.0383, -160.378
3.668, -1, -42.0648, -9.26787, 28.6946, 14.9605, 69.9928, -160.493
3.672, -1, -42.1482, -9.31117, 28.7121, 14.9628, 69.9474, -160.608
3.676, -1, -42.2317, -9.35445, 28.7295, 14.9651, 69.9019, -160.722
3.679, -1, -42.3152, -9.39773, 28.7469, 14.9674, 69.8565, -160.837
3.684, -1, -42.3986, -9.441, 28.7643, 14.9697, 69.8111, -160.952
3.688, -1, -42.4821, -9.48426, 28.7817, 14.972, 69.7657, -161.066
3.692, -1, -42.5655, -9.52751, 28.7991, 14.9743, 69.7203, -161.181
3.696, -1, -42.6489, -9.57076, 28.8166, 14.9766, 69.6749, -161.295
3.7, -1, -42.7322, -9.61399, 28.834, 14.9789, 69.6295, -161.41
3.704, -1, -42.8156, -9.65722, 28.8514, 14.9812, 69.5841, -161.525
3.708, -1, -42.899, -9.70044, 28.8687, 14.9834, 69.5387, -161.639
3.712, -1, -42.9823, -9.74365, 28.8861, 14.9857, 69.4933, -161.753
3.716, -1, -43.0656, -9.78686, 28.9035, 14.988, 69.448, -161.868
3.72, -1, -43.1489, -9.83006, 28.9209, 14.9903, 69.4026, -161.982
3.724, -1, -43.2322, -9.87324, 28.9383, 14.9926, 69.3573, -162.097
3.728, -1, -43.3155, -9.91643, 28.9557, 14.9949, 69.312, -162.211
3.732, -1, -43.3987, -9.9596, 28.9731, 14.9972, 69.2666, -162.326
3.735, -1, -43.482, -10.0028, 28.9904, 14.9995, 69.2213, -162.44
3.74, -1, -43.5652, -10.0459, 29.0078, 15.0018, 69.176, -162.554
3.744, -1, -43.6484, -10.0891, 29.0252, 15.0041, 69.1307, -162.669
3.748, -1, -43.7316, -10.1322, 29.0425, 15.0064, 69.0854, -162.783
3.752, -1, -43.8148, -10.1753, 29.0599, 15.0087, 69.0401, -162.897
3.756, -1, -43.898, -10.2185, 29.0772, 15.011, 68.9949, -163.011
3.76, -1, -43.9811, -10.2616, 29.0946, 15.0133, 68.9496, -163.126
3.764, -1, -44.0642, -10.3047, 29.1119, 15.0156, 68.9043, -163.24
3.768, -1, -44.1474, -10.3478, 29.1293, 15.0179, 68.8591, -163.354
3.772, -1, -44.2305, -10.3909, 29.1466, 15.0202, 68.8138, -163.468
3.776, -1, -44.3136, -10.434, 29.164, 15.0224, 68.7686, -163.582
3.78, -1, -44.3966, -10.4771, 29.1813, 15.0247, 68.7234, -163.696
3.784, -1, -44.4797, -10.5201, 29.1987, 15.027, 68.6782, -163.811
3.788, -1, -44.5627, -10.5632, 29.216, 15.0293, 68.633, -163.925
3.792, -1, -44.6458, -10.6063, 29.2333, 15.0316, 68.5878, -164.039
3.796, -1, -44.7288, -10.6493, 29.2506, 15.0339, 68.5426, -164.153
3.8, -1, -44.8118, -10.6923, 29.268, 15.0362, 68.4974, -164.267
3.804, -1, -44.8948, -10.7354, 29.2853, 15.0385, 68.4522, -164.381
3.808, -1, -44.9778, -10.7784, 29.3026, 15.0408, 68.407, -164.495
3.812, -1, -45.0607, -10.8214, 29.3199, 15.043, 68.3619, -164.609
3.816, -1, -45.1437, -10.8644, 29.3372, 15.0453, 68.3167, -164.723
3.82, -1, -45.2266, -10.9074, 29.3545, 15.0476, 68.2716, -164.837
3.824, -1, -45.3095, -10.9504, 29.3718, 15.0499, 68.2264, -164.95
3.828, -1, -45.3924, -10.9934, 29.3891, 15.0522, 68.1813, -165.064
3.832, -1, -45.4753, -11.0364, 29.4064, 15.0545, 68.1362, -165.178
3.836, -1, -45.5582, -11.0794, 29.4237, 15.0568, 68.0911, -165.292
3.84, -1, -45.641, -11.1223, 29.441, 15.059, 68.0459, -165.406
3.844, -1, -45.7239, -11.1653, 29.4583, 15.0613, 68.0008, -165.52
3.848, -1, -45.8067, -11.2083, 29.4756, 15.0636, 67.9558, -165.633
3.852, -1, -45.8895, -11.2512, 29.4929, 15.0659, 67.9107, -165.747
3.856, -1, -45.9723, -11.2941, 29.5102, 15.0682, 67.8656, -165.861
3.86, -1, -46.0551, -11.3371, 29.5275, 15.0705, 67.8205, -165.975
3.864, -1, -46.1379, -11.38, 29.5447, 15.0727, 67.7755, -166.088
3.868, -1, -46.2207, -11.4229, 29.562, 15.075, 67.7304, -166.202
3.872, -1, -46.3034, -11.4658, 29.5793, 15.0773, 67.6854, -166.316
3.876, -1, -46.3862, -11.5087, 29.5965, 15.0796, 67.6403, -166.429
3.88, -1, -46.4689, -11.5516, 29.6138, 15.0819, 67.5953, -166.543
3.884, -1, -46.5515, -11.5945, 29.6311, 15.0842, 67.5503, -166.657
3.888, -1, -46.634, -11.6372, 29.6484, 15.0864, 67.5052, -166.77
3.892, -1, -46.7161, -11.6798, 29.6657, 15.0887, 67.4602, -166.884
3.896, -1, -46.7975, -11.7221, 29.683, 15.091, 67.4153, -166.997
3.9, -1, -46.8782, -11.7638, 29.7004, 15.0933, 67.3704, -167.11
3.904, -1, -46.9576, -11.8047, 29.7178, 15.0956, 67.3257, -167.223
3.908, -1, -47.0357, -11.8448, 29.7353, 15.0979, 67.2814, -167.335
3.912, -1, -47.1121, -11.8838, 29.7527, 15.1002, 67.2374, -167.446
3.916, -1, -47.1866, -11.9215, 29.7699, 15.1025, 67.1942, -167.555
3.92, -1, -47.259, -11.958, 29.7868, 15.1048, 67.1519, -167.661
3.924, -1, -47.329, -11.9931, 29.8033, 15.107, 67.1109, -167.765
3.928, -1, -47.3963, -12.0265, 29.8192, 15.1091, 67.0715, -167.864
3.932, -1, -47.4605, -12.0582, 29.8343, 15.1111, 67.0339, -167.959
3.936, -1, -47.5211, -12.0879, 29.8486, 15.113, 66.9984, -168.049
3.94, -1, -47.5779, -12.1158, 29.8618, 15.1148, 66.9654, -168.132
3.944, -1, -47.6307, -12.1418, 29.8739, 15.1164, 66.9351, -168.208
3.948, -1, -47.6793, -12.1661, 29.8847, 15.1178, 66.9076, -168.278
3.952, -1, -47.7237, -12.1888, 29.8941, 15.1191, 66.8831, -168.339
3.956, -1, -47.764, -12.2099, 29.9022, 15.1201, 66.8616, -168.394
3.96, -1, -47.8002, -12.2295, 29.909, 15.121, 66.8431, -168.44
3.964, -1, -47.8322, -12.2474, 29.9144, 15.1217, 66.8274, -168.48
3.968, -1, -47.8603, -12.2633, 29.9188, 15.1223, 66.8143, -168.513
3.972, -1, -47.8844, -12.2773, 29.9222, 15.1227, 66.8037, -168.54
3.976, -1, -47.9049, -12.2893, 29.9247, 15.1231, 66.7952, -168.561
3.98, -1, -47.9221, -12.2995, 29.9265, 15.1233, 66.7885, -168.578
3.984, -1, -47.9365, -12.308, 29.9278, 15.1234, 66.7834, -168.591
3.988, -1, -47.9483, -12.3149, 29.9286, 15.1235, 66.7796, -168.601
3.992, -1, -47.9579, -12.3206, 29.9291, 15.1236, 66.7768, -168.608
3.996, -1, -47.9656, -12.325, 29.9293, 15.1236, 66.7748, -168.613
3.999, -1, -47.9716, -12.3285, 29.9295, 15.1236, 66.7734, -168.617
4.004, 2, -47.9762, -12.331, 29.9295, 15.1236, 66.7724, -168.619
4.008, 2, -47.9796, -12.3329, 29.9295, 15.1236, 66.7717, -168.621
4.012, 2, -47.9819, -12.3342, 29.9295, 15.1236, 66.7713, -168.622
4.016, 2, -47.9835, -12.335, 29.9295, 15.1236, 66.771, -168.623
4.02, 2, -47.9846, -12.3356, 29.9295, 15.1236, 66.7708, -168.623
4.024, 2, -47.9854, -12.336, 29.9295, 15.1236, 66.7706, -168.624
4.028, 2, -47.9859, -12.3363, 29.9295, 15.1236, 66.7705, -168.624
4.032, 2, -47.9862, -12.3365, 29.9295, 15.1236, 66.7705, -168.624
4.036, 2, -47.9865, -12.3366, 29.9295, 15.1236, 66.7704, -168.624
4.04, 2, -47.9866, -12.3367, 29.9295, 15.1236, 66.7704, -168.624
4.044, 2, -47.9867, -12.3368, 29.9295, 15.1236, 66.7704, -168.624
4.048, 2, -47.9868, -12.3368, 29.9295, 15.1236, 66.7704, -168.625
4.052, 2, -47.9868, -12.3368, 29.9295, 15.1236, 66.7704, -168.625
4.056, 2, -47.9869, -12.3369, 29.9295, 15.1236, 66.7703, -168.625
4.06, 2, -47.9869, -12.3369, 29.9295, 15.1236, 66.7703, -168.625
4.064, 2, -47.9869, -12.3369, 29.9295, 15.1236, 66.7703, -168.625
4.068, 2, -47.9869, -12.3369, 29.9295, 15.1236, 66.7703, -168.625
4.072, 2, -47.9869, -12.3369, 29.9295, 15.1236, 66.7703, -168.625
4.076, 2, -47.9869, -12.3369, 29.9295, 15.1236, 66.7703, -168.625
4.08, 2, -47.9869, -12.3369, 29.9295, 15.1236, 66.7703, -168.625
4.084, 2, -47.9869, -12.3369, 29.9295, 15.1236, 66.7703, -168.625
4.088, 2, -47.9869, -12.3369, 29.9295, 15.1236, 66.7703, -168.625
4.092, 2, -47.9869, -12.3369, 29.9295, 15.1236, 66.7703, -168.625
4.096, 2, -47.9869, -12.3369, 29.9295, 15.1236, 66.7703, -168.625
4.1, 2, -47.9869, -12.3369, 29.9295, 15.1236, 66.7703, -168.625
4.104, 2, -47.9869, -12.3369, 29.9295, 15.1236, 66.7703, -168.625
4.108, 2, -47.9869, -12.3369, 29.9295, 15.1236, 66.7703, -168.625
4.112, 2, -47.9869, -12.3369, 29.9295, 15.1236, 66.7703, -168.625
4.116, 2, -47.9869, -12.3369, 29.9295, 15.1236, 66.7703, -168.625
4.12, 2, -47.9869, -12.3369, 29.9295, 15.1236, 66.7703, -168.625
4.124, 2, -47.9869, -12.3369, 29.9295, 15.1236, 66.7703, -168.625
4.128, 2, -47.9869, -12.3369, 29.9295, 15.1236, 66.7703, -168.625
4.132, 2, -47.9869, -12.3369, 29.9295, 15.1236, 66.7703, -168.625
4.136, 2, -47.9869, -12.3369, 29.9295, 15.1236, 66.7703, -168.625
4.14, 2, -47.9869, -12.3369, 29.9295, 15.1236, 66.7703, -168.625
4.144, 2, -47.9869, -12.3369, 29.9295, 15.1236, 66.7703, -168.625
4.148, 2, -47.9869, -12.3369, 29.9295, 15.1236, 66.7703, -168.625
4.152, 2, -47.9869, -12.3369, 29.9295, 15.1236, 66.7703, -168.625
4.156, 2, -47.9869, -12.3369, 29.9295, 15.1236, 66.7703, -168.625
4.16, 2, -47.9869, -12.3369, 29.9295, 15.1236, 66.7703, -168.625
4.164, 2, -47.9869, -12.3369, 29.9295, 15.1236, 66.7703, -168.625
4.168, 2, -47.9869, -12.3369, 29.9295, 15.1236, 66.7703, -168.625
4.172, 2, -47.9869, -12.3369, 29.9295, 15.1236, 66.7703, -168.625
4.176, 2, -47.9869, -12.3369, 29.9295, 15.1236, 66.7703, -168.625
4.18, 2, -47.9869, -12.3369, 29.9295, 15.1236, 66.7703, -168.625
4.184, 2, -47.9869, -12.3369, 29.9295, 15.1236, 66.7703, -168.625
4.188, 2, -47.9869, -12.3369, 29.9295, 15.1236, 66.7703, -168.625
4.192, 2, -47.9869, -12.3369, 29.9295, 15.1236, 66.7703, -168.625
4.196, 2, -47.9869, -12.3369, 29.9295, 15.1236, 66.7703, -168.625
4.2, 2, -47.9869, -12.3369, 29.9295, 15.1236, 66.7703, -168.625
4.204, 2, -47.9869, -12.3369, 29.9295, 15.1236, 66.7703, -168.625
4.208, 2, -47.9869, -12.3369, 29.9295, 15.1236, 66.7703, -168.625
4.212, 2, -47.9869, -12.3369, 29.9295, 15.1236, 66.7703, -168.625
4.216, 2, -47.9869, -12.3369, 29.9295, 15.1236, 66.7703, -168.625
4.22, 2, -47.9869, -12.3369, 29.9295, 15.1236, 66.7703, -168.625
4.224, 2, -47.9869, -12.3369, 29.9295, 15.1236, 66.7703, -168.625
4.228, 2, -47.9869, -12.3369, 29.9295, 15.1236, 66.7703, -168.625
4.232, 2, -47.9869, -12.3369, 29.9295, 15.1236, 66.7703, -168.625
4.236, 2, -47.9869, -12.3369, 29.9295, 15.1236, 66.7703, -168.625
4.24, 2, -47.9869, -12.3369, 29.9295, 15.1236, 66.7703, -168.625
4.244, 2, -47.9869, -12.3369, 29.9295, 15.1236, 66.7703, -168.625
4.248, 2, -47.9869, -12.3369, 29.9295, 15.1236, 66.7703, -168.625
4.252, 2, -47.9869, -12.3369, 29.9295, 15.1236, 66.7703, -168.625
4.256, 2, -47.9869, -12.3369, 29.9295, 15.1236, 66.7703, -168.625
4.26, 2, -47.9869, -12.3369, 29.9295, 15.1236, 66.7703, -168.625
4.264, 2, -47.9869, -12.3369, 29.9295, 15.1236, 66.7703, -168.625
4.268, 2, -47.9869, -12.3369, 29.9295, 15.1236, 66.7703, -168.625
4.272, 2, -47.9869, -12.3369, 29.9295, 15.1236, 66.7703, -168.625
4.276, 2, -47.9869, -12.3369, 29.9295, 15.1236, 66.7703, -168.625
4.28, 2, -47.9869, -12.3369, 29.9295, 15.1236, 66.7703, -168.625
4.284, 2, -47.9869, -12.3369, 29.9295, 15.1236, 66.7703, -168.625
4.288, 2, -47.9869, -12.3369, 29.9295, 15.1236, 66.7703, -168.625
4.292, 2, -47.9869, -12.3369, 29.9295, 15.1236, 66.7703, -168.625
4.296, 2, -47.9869, -12.3369, 29.9295, 15.1236, 66.7703, -168.625
4.3, 2, -47.9869, -12.3369, 29.9295, 15.1236, 66.7703, -168.625
4.304, 2, -47.9869, -12.3369, 29.9295, 15.1236, 66.7703, -168.625
4.308, 2, -47.9869, -12.3369, 29.9295, 15.1236, 66.7703, -168.625
4.312, 2, -47.9869, -12.3369, 29.9295, 15.1236, 66.7703, -168.625
4.316, 2, -47.9869, -12.3369, 29.9295, 15.1236, 66.7703, -168.625
4.32, 2, -47.9869, -12.3369, 29.9295, 15.1236, 66.7703, -168.625
4.324, 2, -47.9869, -12.3369, 29.9295, 15.1236, 66.7703, -168.625
4.328, 2, -47.9869, -12.3369, 29.9295, 15.1236, 66.7703, -168.625
4.332, 2, -47.9869, -12.3369, 29.9295, 15.1236, 66.7703, -168.625
4.336, 2, -47.9869, -12.3369, 29.9295, 15.1236, 66.7703, -168.625
4.34, 2, -47.9869, -12.3369, 29.9295, 15.1236, 66.7703, -168.625
4.344, 2, -47.9869, -12.3369, 29.9295, 15.1236, 66.7703, -168.625
4.348, 2, -47.9869, -12.3369, 29.9295, 15.1236, 66.7703, -168.625
4.352, 2, -47.9869, -12.3369, 29.9295, 15.1236, 66.7703, -168.625
4.356, 2, -47.9869, -12.3369, 29.9295, 15.1236, 66.7703, -168.625
4.36, 2, -47.9869, -12.3369, 29.9295, 15.1236, 66.7703, -168.625
4.364, 2, -47.9869, -12.3369, 29.9295, 15.1236, 66.7703, -168.625
4.368, 2, -47.9869, -12.3369, 29.9295, 15.1236, 66.7703, -168.625
4.372, 2, -47.9869, -12.3369, 29.9295, 15.1236, 66.7703, -168.625
4.376, 2, -47.9869, -12.3369, 29.9295, 15.1236, 66.7703, -168.625
4.38, 2, -47.9869, -12.3369, 29.9295, 15.1236, 66.7703, -168.625
4.384, 2, -47.9869, -12.3369, 29.9295, 15.1236, 66.7703, -168.625
4.388, 2, -47.9869, -12.3369, 29.9295, 15.1236, 66.7703, -168.625
4.392, 2, -47.9869, -12.3369, 29.9295, 15.1236, 66.7703, -168.625
4.396, 2, -47.9869, -12.3369, 29.9295, 15.1236, 66.7703, -168.625
4.4, 2, -47.9869, -12.3369, 29.9295, 15.1236, 66.7703, -168.625
4.404, 2, -47.9869, -12.3369, 29.9295, 15.1236, 66.7703, -168.625
4.408, 2, -47.9869, -12.3369, 29.9295, 15.1236, 66.7703, -168.625
4.412, 2, -47.9869, -12.3369, 29.9295, 15.1236, 66.7703, -168.625
4.416, 2, -47.9869, -12.3369, 29.9295, 15.1236, 66.7703, -168.625
4.42, 2, -47.9869, -12.3369, 29.9295, 15.1236, 66.7703, -168.625
4.424, 2, -47.9869, -12.3369, 29.9295, 15.1236, 66.7703, -168.625
4.428, 2, -47.9869, -12.3369, 29.9295, 15.1236, 66.7703, -168.625
4.432, 2, -47.9869, -12.3369, 29.9295, 15.1236, 66.7703, -168.625
4.436, 2, -47.9869, -12.3369, 29.9295, 15.1236, 66.7703, -168.625
4.44, 2, -47.9869, -12.3369, 29.9295, 15.1236, 66.7703, -168.625
4.444, 2, -47.9869, -12.3369, 29.9295, 15.1236, 66.7703, -168.625
4.448, 2, -47.9869, -12.3369, 29.9295, 15.1236, 66.7703, -168.625
4.452, 2, -47.9869, -12.3369, 29.9295, 15.1236, 66.7703, -168.625
4.456, 2, -47.9869, -12.3369, 29.9295, 15.1236, 66.7703, -168.625
4.46, 2, -47.9869, -12.3369, 29.9295, 15.1236, 66.7703, -168.625
4.464, 2, -47.9869, -12.3369, 29.9295, 15.1236, 66.7703, -168.625
4.468, 2, -47.9869, -12.3369, 29.9295, 15.1236, 66.7703, -168.625
4.472, 2, -47.9869, -12.3369, 29.9295, 15.1236, 66.7703, -168.625
4.476, 2, -47.9869, -12.3369, 29.9295, 15.1236, 66.7703, -168.625
4.48, 2, -47.9869, -12.3369, 29.9295, 15.1236, 66.7703, -168.625
4.484, 2, -47.9869, -12.3369, 29.9295, 15.1236, 66.7703, -168.625
4.488, 2, -47.9869, -12.3369, 29.9295, 15.1236, 66.7703, -168.625
4.492, 2, -47.9869, -12.3369, 29.9295, 15.1236, 66.7703, -168.625
4.496, 2, -47.9869, -12.3369, 29.9295, 15.1236, 66.7703, -168.625
4.5, 2, -47.9869, -12.3369, 29.9295, 15.1236, 66.7703, -168.625
4.504, 2, -47.9869, -12.3369, 29.9295, 15.1236, 66.7703, -168.625
4.508, 2, -47.9869, -12.3369, 29.9295, 15.1236, 66.7703, -168.625
4.512, 2, -47.9869, -12.3369, 29.9295, 15.1236, 66.7703, -168.625
4.516, 2, -47.9869, -12.3369, 29.9295, 15.1236, 66.7703, -168.625
4.52, 2, -47.9869, -12.3369, 29.9295, 15.1236, 66.7703, -168.625
4.524, 2, -47.9869, -12.3369, 29.9295, 15.1236, 66.7703, -168.625
4.528, 2, -47.9869, -12.3369, 29.9295, 15.1236, 66.7703, -168.625
4.532, 2, -47.9869, -12.3369, 29.9295, 15.1236, 66.7703, -168.625
4.536, 2, -47.9869, -12.3369, 29.9295, 15.1236, 66.7703, -168.625
4.54, 2, -47.9869, -12.3369, 29.9295, 15.1236, 66.7703, -168.625
4.544, 2, -47.9869, -12.3369, 29.9295, 15.1236, 66.7703, -168.625
4.548, 2, -47.9869, -12.3369, 29.9295, 15.1236, 66.7703, -168.625
4.552, 2, -47.9869, -12.3369, 29.9295, 15.1236, 66.7703, -168.625
4.556, 2, -47.9869, -12.3369, 29.9295, 15.1236, 66.7703, -168.625
4.56, 2, -47.9869, -12.3369, 29.9295, 15.1236, 66.7703, -168.625
4.564, 2, -47.9869, -12.3369, 29.9295, 15.1236, 66.7703, -168.625
4.568, 2, -47.9869, -12.3369, 29.9295, 15.1236, 66.7703, -168.625
4.572, 2, -47.9869, -12.3369, 29.9295, 15.1236, 66.7703, -168.625
4.576, 2, -47.9869, -12.3369, 29.9295, 15.1236, 66.7703, -168.625
4.58, 2, -47.9869, -12.3369, 29.9295, 15.1236, 66.7703, -168.625
4.584, 2, -47.9869, -12.3369, 29.9295, 15.1236, 66.7703, -168.625
4.588, 2, -47.9869, -12.3369, 29.9295, 15.1236, 66.7703, -168.625
4.592, 2, -47.9869, -12.3369, 29.9295, 15.1236, 66.7703, -168.625
4.596, 2, -47.9869, -12.3369, 29.9295, 15.1236, 66.7703, -168.625
4.6, 2, -47.9869, -12.3369, 29.9295, 15.1236, 66.7703, -168.625
4.604, 2, -47.9869, -12.3369, 29.9295, 15.1236, 66.7703, -168.625
4.608, 2, -47.9869, -12.3369, 29.9295, 15.1236, 66.7703, -168.625
4.612, 2, -47.9869, -12.3369, 29.9295, 15.1236, 66.7703, -168.625
4.616, 2, -47.9869, -12.3369, 29.9295, 15.1236, 66.7703, -168.625
4.62, 2, -47.9869, -12.3369, 29.9295, 15.1236, 66.7703, -168.625
4.624, 2, -47.9869, -12.3369, 29.9295, 15.1236, 66.7703, -168.625
4.628, 2, -47.9869, -12.3369, 29.9295, 15.1236, 66.7703, -168.625
4.632, 2, -47.9869, -12.3369, 29.9295, 15.1236, 66.7703, -168.625
4.636, 2, -47.9869, -12.3369, 29.9295, 15.1236, 66.7703, -168.625
4.64, 2, -47.9869, -12.3369, 29.9295, 15.1236, 66.7703, -168.625
4.644, 2, -47.9869, -12.3369, 29.9295, 15.1236, 66.7703, -168.625
4.648, 2, -47.9869, -12.3369, 29.9295, 15.1236, 66.7703, -168.625
4.652, 2, -47.9869, -12.3369, 29.9295, 15.1236, 66.7703, -168.625
4.656, 2, -47.9869, -12.3369, 29.9295, 15.1236, 66.7703, -168.625
4.66, 2, -47.9869, -12.3369, 29.9295, 15.1236, 66.7703, -168.625
4.664, 2, -47.9869, -12.3369, 29.9295, 15.1236, 66.7703, -168.625
4.668, 2, -47.9869, -12.3369, 29.9295, 15.1236, 66.7703, -168.625
4.672, 2, -47.9869, -12.3369, 29.9295, 15.1236, 66.7703, -168.625
4.676, 2, -47.9869, -12.3369, 29.9295, 15.1236, 66.7703, -168.625
4.68, 2, -47.9869, -12.3369, 29.9295, 15.1236, 66.7703, -168.625
4.684, 2, -47.9869, -12.3369, 29.9295, 15.1236, 66.7703, -168.625
4.688, 2, -47.9869, -12.3369, 29.9295, 15.1236, 66.7703, -168.625
4.692, 2, -47.9869, -12.3369, 29.9295, 15.1236, 66.7703, -168.625
4.696, 2, -47.9869, -12.3369, 29.9295, 15.1236, 66.7703, -168.625
4.7, 2, -47.9869, -12.3369, 29.9295, 15.1236, 66.7703, -168.625
4.704, 2, -47.9869, -12.3369, 29.9295, 15.1236, 66.7703, -168.625
4.708, 2, -47.9869, -12.3369, 29.9295, 15.1236, 66.7703, -168.625
4.712, 2, -47.9869, -12.3369, 29.9295, 15.1236, 66.7703, -168.625
4.716, 2, -47.9869, -12.3369, 29.9295, 15.1236, 66.7703, -168.625
4.72, 2, -47.9869, -12.3369, 29.9295, 15.1236, 66.7703, -168.625
4.724, 2, -47.9869, -12.3369, 29.9295, 15.1236, 66.7703, -168.625
4.728, 2, -47.9869, -12.3369, 29.9295, 15.1236, 66.7703, -168.625
4.732, 2, -47.9869, -12.3369, 29.9295, 15.1236, 66.7703, -168.625
4.736, 2, -47.9869, -12.3369, 29.9295, 15.1236, 66.7703, -168.625
4.74, 2, -47.9869, -12.3369, 29.9295, 15.1236, 66.7703, -168.625
4.744, 2, -47.9869, -12.3369, 29.9295, 15.1236, 66.7703, -168.625
4.748, 2, -47.9869, -12.3369, 29.9295, 15.1236, 66.7703, -168.625
4.752, 2, -47.9869, -12.3369, 29.9295, 15.1236, 66.7703, -168.625
4.756, 2, -47.9869, -12.3369, 29.9295, 15.1236, 66.7703, -168.625
4.76, 2, -47.9869, -12.3369, 29.9295, 15.1236, 66.7703, -168.625
4.764, 2, -47.9869, -12.3369, 29.9295, 15.1236, 66.7703, -168.625
4.768, 2, -47.9869, -12.3369, 29.9295, 15.1236, 66.7703, -168.625
4.772, 2, -47.9869, -12.3369, 29.9295, 15.1236, 66.7703, -168.625
4.776, 2, -47.9869, -12.3369, 29.9295, 15.1236, 66.7703, -168.625
4.78, 2, -47.9869, -12.3369, 29.9295, 15.1236, 66.7703, -168.625
4.784, 2, -47.9869, -12.3369, 29.9295, 15.1236, 66.7703, -168.625
4.788, 2, -47.9869, -12.3369, 29.9295, 15.1236, 66.7703, -168.625
4.792, 2, -47.9869, -12.3369, 29.9295, 15.1236, 66.7703, -168.625
4.796, 2, -47.9869, -12.3369, 29.9295, 15.1236, 66.7703, -168.625
4.8, 2, -47.9869, -12.3369, 29.9295, 15.1236, 66.7703, -168.625
4.804, 2, -47.9869, -12.3369, 29.9295, 15.1236, 66.7703, -168.625
4.808, 2, -47.9869, -12.3369, 29.9295, 15.1236, 66.7703, -168.625
4.812, 2, -47.9869, -12.3369, 29.9295, 15.1236, 66.7703, -168.625
4.816, 2, -47.9869, -12.3369, 29.9295, 15.1236, 66.7703, -168.625
4.82, 2, -47.9869, -12.3369, 29.9295, 15.1236, 66.7703, -168.625
4.824, 2, -47.9869, -12.3369, 29.9295, 15.1236, 66.7703, -168.625
4.828, 2, -47.9869, -12.3369, 29.9295, 15.1236, 66.7703, -168.625
4.832, 2, -47.9869, -12.3369, 29.9295, 15.1236, 66.7703, -168.625
4.836, 2, -47.9869, -12.3369, 29.9295, 15.1236, 66.7703, -168.625
4.84, 2, -47.9869, -12.3369, 29.9295, 15.1236, 66.7703, -168.625
4.844, 2, -47.9869, -12.3369, 29.9295, 15.1236, 66.7703, -168.625
4.848, 2, -47.9869, -12.3369, 29.9295, 15.1236, 66.7703, -168.625
4.852, 2, -47.9869, -12.3369, 29.9295, 15.1236, 66.7703, -168.625
4.856, 2, -47.9869, -12.3369, 29.9295, 15.1236, 66.7703, -168.625
4.86, 2, -47.9869, -12.3369, 29.9295, 15.1236, 66.7703, -168.625
4.864, 2, -47.9869, -12.3369, 29.9295, 15.1236, 66.7703, -168.625
4.868, 2, -47.9869, -12.3369, 29.9295, 15.1236, 66.7703, -168.625
4.872, 2, -47.9869, -12.3369, 29.9295, 15.1236, 66.7703, -168.625
4.876, 2, -47.9869, -12.3369, 29.9295, 15.1236, 66.7703, -168.625
4.88, 2, -47.9869, -12.3369, 29.9295, 15.1236, 66.7703, -168.625
4.884, 2, -47.9869, -12.3369, 29.9295, 15.1236, 66.7703, -168.625
4.888, 2, -47.9869, -12.3369, 29.9295, 15.1236, 66.7703, -168.625
4.892, 2, -47.9869, -12.3369, 29.9295, 15.1236, 66.7703, -168.625
4.896, 2, -47.9869, -12.3369, 29.9295, 15.1236, 66.7703, -168.625
4.9, 2, -47.9869, -12.3369, 29.9295, 15.1236, 66.7703, -168.625
4.904, 2, -47.9869, -12.3369, 29.9295, 15.1236, 66.7703, -168.625
4.908, 2, -47.9869, -12.3369, 29.9295, 15.1236, 66.7703, -168.625
4.912, 2, -47.9869, -12.3369, 29.9295, 15.1236, 66.7703, -168.625
4.916, 2, -47.9869, -12.3369, 29.9295, 15.1236, 66.7703, -168.625
4.92, 2, -47.9869, -12.3369, 29.9295, 15.1236, 66.7703, -168.625
4.924, 2, -47.9869, -12.3369, 29.9295, 15.1236, 66.7703, -168.625
4.928, 2, -47.9869, -12.3369, 29.9295, 15.1236, 66.7703, -168.625
4.932, 2, -47.9869, -12.3369, 29.9295, 15.1236, 66.7703, -168.625
4.936, 2, -47.9869, -12.3369, 29.9295, 15.1236, 66.7703, -168.625
4.94, 2, -47.9869, -12.3369, 29.9295, 15.1236, 66.7703, -168.625
4.944, 2, -47.9869, -12.3369, 29.9295, 15.1236, 66.7703, -168.625
4.948, 2, -47.9869, -12.3369, 29.9295, 15.1236, 66.7703, -168.625
4.952, 2, -47.9869, -12.3369, 29.9295, 15.1236, 66.7703, -168.625
4.956, 2, -47.9869, -12.3369, 29.9295, 15.1236, 66.7703, -168.625
4.96, 2, -47.9869, -12.3369, 29.9295, 15.1236, 66.7703, -168.625
4.964, 2, -47.9869, -12.3369, 29.9295, 15.1236, 66.7703, -168.625
4.968, 2, -47.9869, -12.3369, 29.9295, 15.1236, 66.7703, -168.625
4.972, 2, -47.9869, -12.3369, 29.9295, 15.1236, 66.7703, -168.625
4.976, 2, -47.9869, -12.3369, 29.9295, 15.1236, 66.7703, -168.625
4.98, 2, -47.9869, -12.3369, 29.9295, 15.1236, 66.7703, -168.625
4.984, 2, -47.9869, -12.3369, 29.9295, 15.1236, 66.7703, -168.625
4.988, 2, -47.9869, -12.3369, 29.9295, 15.1236, 66.7703, -168.625
4.992, 2, -47.9869, -12.3369, 29.9295, 15.1236, 66.7703, -168.625
4.996, 2, -47.9869, -12.3369, 29.9295, 15.1236, 66.7703, -168.625
5, 2, -47.9869, -12.3369, 29.9295, 15.1236, 66.7703, -168.625
5.004, 2, -47.9869, -12.3369, 29.9295, 15.1236, 66.7703, -168.625
5.008, 2, -47.9869, -12.3369, 29.9295, 15.1236, 66.7703, -168.625
5.012, 2, -47.9869, -12.3369, 29.9295, 15.1236, 66.7703, -168.625
5.016, 2, -47.9869, -12.3369, 29.9295, 15.1236, 66.7703, -168.625
5.02, 2, -47.9869, -12.3369, 29.9295, 15.1236, 66.7703, -168.625
5.024, 2, -47.9869, -12.3369, 29.9295, 15.1236, 66.7703, -168.625
5.028, 2, -47.9869, -12.3369, 29.9295, 15.1236, 66.7703, -168.625
5.032, 2, -47.9869, -12.3369, 29.9295, 15.1236, 66.7703, -168.625
5.036, 2, -47.9869, -12.3369, 29.9295, 15.1236, 66.7703, -168.625
5.04, 2, -47.9869, -12.3369, 29.9295, 15.1236, 66.7703, -168.625
5.044, 2, -47.9869, -12.3369, 29.9295, 15.1236, 66.7703, -168.625
5.048, 2, -47.9869, -12.3369, 29.9295, 15.1236, 66.7703, -168.625
5.052, 2, -47.9869, -12.3369, 29.9295, 15.1236, 66.7703, -168.625
5.056, 2, -47.9869, -12.3369, 29.9295, 15.1236, 66.7703, -168.625
5.06, 2, -47.9869, -12.3369, 29.9295, 15.1236, 66.7703, -168.625
5.064, 2, -47.9869, -12.3369, 29.9295, 15.1236, 66.7703, -168.625
5.068, 2, -47.9869, -12.3369, 29.9295, 15.1236, 66.7703, -168.625
5.072, 2, -47.9869, -12.3369, 29.9295, 15.1236, 66.7703, -168.625
5.076, 2, -47.9869, -12.3369, 29.9295, 15.1236, 66.7703, -168.625
5.08, 4, -47.9869, -12.3369, 29.9295, 15.1236, 66.7703, -168.625
5.084, 4, -47.9869, -12.3369, 29.9295, 15.1236, 66.7703, -168.625
5.088, 4, -47.9869, -12.3369, 29.9295, 15.1236, 66.7703, -168.625
5.092, 4, -47.9869, -12.3369, 29.9295, 15.1236, 66.7703, -168.625
5.096, 4, -47.9869, -12.3369, 29.9295, 15.1236, 66.7703, -168.625
5.1, 4, -47.9869, -12.3369, 29.9295, 15.1236, 66.7703, -168.625
5.104, 4, -47.9869, -12.3369, 29.9295, 15.1236, 66.7703, -168.625
5.108, 4, -47.9869, -12.3369, 29.9295, 15.1236, 66.7703, -168.625
5.112, 4, -47.9869, -12.3369, 29.9295, 15.1236, 66.7703, -168.625
5.116, 4, -47.9869, -12.3369, 29.9295, 15.1236, 66.7703, -168.625
5.12, 4, -47.9869, -12.3369, 29.9295, 15.1236, 66.7703, -168.625
5.124, 4, -47.9869, -12.3369, 29.9295, 15.1236, 66.7703, -168.625
5.128, 4, -47.9869, -12.3369, 29.9295, 15.1236, 66.7703, -168.625
5.132, 4, -47.9869, -12.3369, 29.9295, 15.1236, 66.7703, -168.625
5.136, 4, -47.9869, -12.3369, 29.9295, 15.1236, 66.7703, -168.625
5.14, 4, -47.9869, -12.3369, 29.9295, 15.1236, 66.7703, -168.625
5.144, 4, -47.9869, -12.3369, 29.9295, 15.1236, 66.7703, -168.625
5.148, 4, -47.9869, -12.3369, 29.9295, 15.1236, 66.7703, -168.625
5.152, 4, -47.9869, -12.3369, 29.9295, 15.1236, 66.7703, -168.625
5.156, 4, -47.9869, -12.3369, 29.9295, 15.1236, 66.7703, -168.625
5.16, 4, -47.9869, -12.3369, 29.9295, 15.1236, 66.7703, -168.625
5.164, 4, -47.9869, -12.3369, 29.9295, 15.1236, 66.7703, -168.625
5.168, 4, -47.9869, -12.3369, 29.9295, 15.1236, 66.7703, -168.625
5.172, 4, -47.9869, -12.3369, 29.9295, 15.1236, 66.7703, -168.625
5.176, 4, -47.9869, -12.3369, 29.9295, 15.1236, 66.7703, -168.625
5.18, 4, -47.9869, -12.3369, 29.9295, 15.1236, 66.7703, -168.625
5.186, 4, -47.9869, -12.3369, 29.9295, 15.1236, 66.7703, -168.625
5.19, 4, -47.9869, -12.3369, 29.9295, 15.1236, 66.7703, -168.625
5.194, 4, -47.9869, -12.3369, 29.9295, 15.1236, 66.7703, -168.625
5.198, 4, -47.9869, -12.3369, 29.9295, 15.1236, 66.7703, -168.625
5.202, 4, -47.9869, -12.3369, 29.9295, 15.1236, 66.7703, -168.625
5.204, 4, -47.9869, -12.3369, 29.9295, 15.1236, 66.7703, -168.625
5.208, 4, -47.9869, -12.3369, 29.9295, 15.1236, 66.7703, -168.625
5.212, 4, -47.987, -12.3369, 29.9295, 15.1236, 66.7703, -168.625
5.216, 4, -47.987, -12.337, 29.9296, 15.1237, 66.7704, -168.625
5.22, 4, -47.9871, -12.3372, 29.9298, 15.1238, 66.7704, -168.625
5.224, 4, -47.9873, -12.3375, 29.9302, 15.124, 66.7706, -168.624
5.228, 4, -47.9877, -12.3382, 29.9309, 15.1247, 66.7709, -168.624
5.232, 4, -47.9883, -12.3393, 29.9322, 15.1262, 66.7717, -168.623
5.236, 4, -47.9891, -12.3408, 29.9342, 15.1288, 66.7729, -168.622
5.24, 4, -47.9901, -12.343, 29.9373, 15.1333, 66.775, -168.619
5.244, 4, -47.9913, -12.3458, 29.9417, 15.1404, 66.7783, -168.614
5.248, 4, -47.9928, -12.3494, 29.9478, 15.151, 66.7832, -168.608
5.252, 5, -47.9947, -12.3538, 29.9559, 15.1658, 66.7899, -168.599
5.256, 5, -47.9969, -12.3591, 29.9663, 15.1858, 66.7989, -168.586
5.26, 5, -47.9995, -12.3655, 29.9795, 15.2118, 66.8104, -168.57
5.264, 5, -48.0027, -12.3729, 29.9956, 15.2444, 66.8249, -168.55
5.268, 5, -48.0064, -12.3816, 30.0149, 15.2841, 66.8424, -168.525
5.272, 5, -48.0107, -12.3915, 30.0376, 15.3315, 66.8632, -168.496
5.276, 5, -48.0156, -12.4026, 30.0637, 15.3865, 66.8873, -168.462
5.28, 5, -48.0212, -12.415, 30.0933, 15.4494, 66.9148, -168.423
5.284, 5, -48.0273, -12.4285, 30.1263, 15.5198, 66.9454, -168.379
5.288, 5, -48.034, -12.4432, 30.1624, 15.5974, 66.979, -168.331
5.292, 5, -48.0412, -12.459, 30.2016, 15.6814, 67.0152, -168.279
5.296, 5, -48.0489, -12.4759, 30.2436, 15.7713, 67.0539, -168.224
5.3, 5, -48.057, -12.4938, 30.288, 15.8661, 67.0945, -168.165
5.304, 5, -48.0655, -12.5127, 30.3347, 15.9652, 67.1368, -168.104
5.308, 5, -48.0744, -12.5325, 30.3832, 16.0677, 67.1804, -168.041
5.312, 5, -48.0836, -12.5531, 30.4334, 16.1729, 67.2251, -167.977
5.316, 5, -48.0931, -12.5742, 30.4849, 16.2804, 67.2704, -167.911
5.32, 5, -48.1028, -12.596, 30.5374, 16.3896, 67.3163, -167.845
5.324, 5, -48.1128, -12.6181, 30.5909, 16.5001, 67.3625, -167.777
5.328, 5, -48.123, -12.6407, 30.6452, 16.6115, 67.4089, -167.71
5.332, 5, -48.1333, -12.6635, 30.7, 16.7237, 67.4553, -167.642
5.336, 5, -48.1438, -12.6866, 30.7554, 16.8364, 67.5017, -167.573
5.34, 5, -48.1544, -12.7099, 30.8112, 16.9495, 67.5481, -167.505
5.344, 5, -48.1651, -12.7333, 30.8673, 17.0629, 67.5943, -167.437
5.348, 5, -48.1759, -12.7569, 30.9238, 17.1765, 67.6404, -167.369
5.352, 5, -48.1868, -12.7806, 30.9806, 17.2903, 67.6863, -167.3
5.356, 5, -48.1978, -12.8044, 31.0377, 17.4042, 67.732, -167.232
5.36, 5, -48.2089, -12.8282, 31.095, 17.5183, 67.7775, -167.164
5.364, 5, -48.22, -12.8522, 31.1527, 17.6325, 67.8228, -167.096
5.368, 5, -48.2312, -12.8763, 31.2105, 17.7468, 67.8679, -167.028
5.372, 5, -48.2425, -12.9004, 31.2686, 17.8612, 67.9127, -166.961
5.376, 5, -48.2538, -12.9246, 31.327, 17.9756, 67.9574, -166.893
5.38, 5, -48.2652, -12.9489, 31.3856, 18.0902, 68.0018, -166.825
5.384, 5, -48.2766, -12.9732, 31.4444, 18.2048, 68.046, -166.758
5.388, 5, -48.2881, -12.9977, 31.5035, 18.3195, 68.09, -166.691
5.392, 5, -48.2997, -13.0222, 31.5628, 18.4343, 68.1338, -166.623
5.396, 5, -48.3113, -13.0468, 31.6224, 18.5492, 68.1774, -166.556
5.4, 5, -48.323, -13.0714, 31.6822, 18.6642, 68.2207, -166.489
5.404, 5, -48.3347, -13.0961, 31.7422, 18.7792, 68.2639, -166.422
5.408, 5, -48.3465, -13.121, 31.8025, 18.8944, 68.3068, -166.356
5.412, 5, -48.3584, -13.1458, 31.863, 19.0096, 68.3495, -166.289
5.416, 5, -48.3703, -13.1708, 31.9237, 19.1248, 68.3921, -166.223
5.42, 5, -48.3823, -13.1958, 31.9847, 19.2402, 68.4343, -166.156
5.424, 5, -48.3943, -13.2209, 32.0459, 19.3556, 68.4764, -166.09
5.428, 5, -48.4064, -13.2461, 32.1074, 19.4712, 68.5183, -166.024
5.432, 5, -48.4186, -13.2713, 32.1691, 19.5868, 68.56, -165.958
5.436, 5, -48.4308, -13.2967, 32.2311, 19.7024, 68.6014, -165.892
5.44, 5, -48.443, -13.3221, 32.2932, 19.8182, 68.6427, -165.826
5.444, 5, -48.4553, -13.3475, 32.3556, 19.934, 68.6837, -165.76
5.448, 5, -48.4677, -13.3731, 32.4183, 20.0499, 68.7246, -165.694
5.452, 5, -48.4801, -13.3987, 32.4812, 20.1659, 68.7652, -165.629
5.456, 5, -48.4926, -13.4244, 32.5443, 20.2819, 68.8056, -165.563
5.46, 5, -48.5051, -13.4502, 32.6077, 20.3981, 68.8458, -165.498
5.464, 5, -48.5177, -13.476, 32.6713, 20.5143, 68.8858, -165.433
5.468, 5, -48.5303, -13.502, 32.7351, 20.6305, 68.9257, -165.368
5.472, 5, -48.543, -13.528, 32.7992, 20.7469, 68.9653, -165.303
5.476, 5, -48.5558, -13.5541, 32.8635, 20.8633, 69.0047, -165.238
5.48, 5, -48.5685, -13.5802, 32.9281, 20.9798, 69.0439, -165.174
5.484, 5, -48.5814, -13.6064, 32.9928, 21.0964, 69.0829, -165.109
5.488, 5, -48.5943, -13.6327, 33.0579, 21.2131, 69.1217, -165.045
5.492, 5, -48.6072, -13.6591, 33.1231, 21.3298, 69.1603, -164.98
5.496, 5, -48.6202, -13.6856, 33.1886, 21.4466, 69.1987, -164.916
5.5, 5, -48.6332, -13.7121, 33.2544, 21.5635, 69.2369, -164.852
5.504, 5, -48.6463, -13.7387, 33.3203, 21.6804, 69.2749, -164.788
5.508, 5, -48.6594, -13.7654, 33.3865, 21.7975, 69.3128, -164.724
5.512, 5, -48.6724, -13.7921, 33.453, 21.9146, 69.3504, -164.66
5.516, 5, -48.6854, -13.8188, 33.5196, 22.0317, 69.3878, -164.597
5.52, 5, -48.6981, -13.8456, 33.5864, 22.1488, 69.4251, -164.533
5.524, 5, -48.7106, -13.8723, 33.6534, 22.2659, 69.4622, -164.469
5.528, 5, -48.7228, -13.8989, 33.7205, 22.3829, 69.4991, -164.406
5.532, 5, -48.7346, -13.9254, 33.7877, 22.4996, 69.536, -164.341
5.536, 5, -48.7461, -13.9517, 33.8548, 22.6159, 69.5729, -164.276
5.54, 5, -48.7571, -13.9779, 33.9218, 22.7317, 69.6098, -164.211
5.544, 5, -48.7677, -14.0039, 33.9886, 22.8467, 69.6468, -164.144
5.548, 5, -48.7778, -14.0296, 34.055, 22.9607, 69.684, -164.075
5.552, 5, -48.7872, -14.055, 34.121, 23.0736, 69.7214, -164.005
5.556, 6, -48.7959, -14.0801, 34.1865, 23.185, 69.7592, -163.932
5.56, 6, -48.8037, -14.1047, 34.2512, 23.2948, 69.7975, -163.856
5.564, 6, -48.8106, -14.1288, 34.315, 23.4027, 69.8363, -163.778
5.568, 6, -48.8164, -14.1524, 34.378, 23.5085, 69.8758, -163.696
5.572, 6, -48.8211, -14.1754, 34.4398, 23.6121, 69.9159, -163.611
5.576, 6, -48.8246, -14.1979, 34.5006, 23.7133, 69.9568, -163.521
5.58, 6, -48.827, -14.2198, 34.5601, 23.812, 69.9984, -163.428
5.584, 6, -48.8282, -14.2411, 34.6184, 23.9081, 70.0408, -163.33
5.588, 6, -48.8281, -14.2617, 34.6754, 24.0017, 70.084, -163.229
5.592, 6, -48.8269, -14.2818, 34.7313, 24.0927, 70.128, -163.123
5.596, 6, -48.8245, -14.3012, 34.7859, 24.1813, 70.1726, -163.014
5.6, 6, -48.8209, -14.3201, 34.8394, 24.2677, 70.218, -162.9
5.604, 6, -48.8162, -14.3383, 34.8918, 24.3519, 70.2639, -162.784
5.608, 6, -48.8105, -14.356, 34.9433, 24.4342, 70.3103, -162.664
5.612, 6, -48.8039, -14.3732, 34.9939, 24.5148, 70.3572, -162.542
5.616, 6, -48.7964, -14.3899, 35.0438, 24.594, 70.4044, -162.417
5.62, 6, -48.7882, -14.4062, 35.093, 24.6719, 70.452, -162.291
5.624, 6, -48.7793, -14.4221, 35.1416, 24.7487, 70.4998, -162.162
5.628, 6, -48.7697, -14.4377, 35.1896, 24.8247, 70.5479, -162.033
5.632, 6, -48.7595, -14.453, 35.2373, 24.9001, 70.5961, -161.902
5.636, 7, -48.7487, -14.4679, 35.2846, 24.975, 70.6445, -161.77
5.64, 7, -48.7373, -14.4825, 35.3315, 25.0496, 70.693, -161.638
5.644, 7, -48.7255, -14.4969, 35.3781, 25.124, 70.7417, -161.505
5.648, 7, -48.7133, -14.511, 35.4244, 25.1982, 70.7905, -161.371
5.652, 7, -48.7007, -14.5249, 35.4705, 25.2723, 70.8395, -161.237
5.656, 7, -48.688, -14.5387, 35.5162, 25.3464, 70.8886, -161.103
5.66, 7, -48.675, -14.5523, 35.5616, 25.4204, 70.938, -160.968
5.664, 7, -48.6619, -14.5657, 35.6068, 25.4944, 70.9875, -160.834
5.668, 7, -48.6486, -14.5789, 35.6516, 25.5684, 71.0372, -160.698
5.672, 7, -48.6353, -14.5921, 35.6962, 25.6424, 71.0871, -160.563
5.676, 7, -48.6218, -14.6051, 35.7406, 25.7165, 71.1371, -160.427
5.68, 7, -48.6082, -14.6179, 35.7847, 25.7905, 71.1872, -160.291
5.684, 7, -48.5944, -14.6307, 35.8287, 25.8646, 71.2375, -160.155
5.688, 7, -48.5805, -14.6434, 35.8724, 25.9388, 71.2878, -160.019
5.692, 7, -48.5665, -14.656, 35.9161, 26.0131, 71.3381, -159.883
5.696, 7, -48.5524, -14.6685, 35.9596, 26.0875, 71.3885, -159.747
5.7, 7, -48.5381, -14.6809, 36.0031, 26.162, 71.4388, -159.611
5.704, 7, -48.5237, -14.6933, 36.0465, 26.2367, 71.4891, -159.475
5.708, 7, -48.5091, -14.7057, 36.0898, 26.3116, 71.5393, -159.339
5.712, 7, -48.4944, -14.718, 36.1331, 26.3866, 71.5895, -159.203
5.716, 8, -48.4797, -14.7303, 36.1764, 26.4619, 71.6396, -159.067
5.72, 8, -48.4648, -14.7425, 36.2196, 26.5373, 71.6897, -158.932
5.724, 8, -48.4498, -14.7547, 36.2627, 26.6129, 71.7398, -158.797
5.728, 8, -48.4347, -14.7669, 36.3057, 26.6888, 71.7898, -158.662
5.732, 8, -48.4196, -14.779, 36.3487, 26.7649, 71.8399, -158.527
5.736, 8, -48.4045, -14.7911, 36.3916, 26.8413, 71.8899, -158.393
5.74, 8, -48.3894, -14.8031, 36.4343, 26.9178, 71.9399, -158.259
5.744, 8, -48.3742, -14.8152, 36.477, 26.9946, 71.99, -158.125
5.748, 8, -48.359, -14.8272, 36.5195, 27.0717, 72.0401, -157.991
5.752, 8, -48.3438, -14.8392, 36.5619, 27.1489, 72.0902, -157.857
5.756, 8, -48.3286, -14.8512, 36.6042, 27.2264, 72.1403, -157.724
5.76, 8, -48.3133, -14.8631, 36.6465, 27.3041, 72.1903, -157.591
5.764, 8, -48.2979, -14.8751, 36.6886, 27.382, 72.2404, -157.459
5.768, 8, -48.2824, -14.887, 36.7308, 27.4602, 72.2903, -157.326
5.772, 8, -48.2668, -14.899, 36.7729, 27.5385, 72.3402, -157.194
5.776, 8, -48.2512, -14.9109, 36.8149, 27.617, 72.39, -157.062
5.78, 8, -48.2354, -14.9229, 36.857, 27.6957, 72.4397, -156.93
5.784, 8, -48.2194, -14.9349, 36.8991, 27.7746, 72.4893, -156.799
5.788, 8, -48.2034, -14.9469, 36.9411, 27.8536, 72.5388, -156.668
5.792, 8, -48.1871, -14.9589, 36.9831, 27.9327, 72.5882, -156.537
5.796, 9, -48.1708, -14.9708, 37.0251, 28.0119, 72.6374, -156.406
5.8, 9, -48.1543, -14.9828, 37.067, 28.0912, 72.6866, -156.275
5.804, 9, -48.1377, -14.9948, 37.1088, 28.1705, 72.7357, -156.145
5.808, 9, -48.121, -15.0068, 37.1505, 28.2499, 72.7848, -156.015
5.812, 9, -48.1042, -15.0187, 37.1921, 28.3293, 72.8338, -155.884
5.816, 9, -48.0872, -15.0306, 37.2336, 28.4087, 72.8828, -155.754
5.82, 9, -48.0702, -15.0425, 37.2748, 28.4881, 72.9318, -155.624
5.824, 9, -48.0531, -15.0544, 37.3159, 28.5675, 72.9808, -155.494
5.828, 9, -48.0358, -15.0662, 37.3568, 28.6469, 73.0297, -155.365
5.832, 9, -48.0185, -15.078, 37.3976, 28.7263, 73.0787, -155.235
5.836, 9, -48.001, -15.0898, 37.4382, 28.8057, 73.1276, -155.105
5.84, 9, -47.9834, -15.1015, 37.4787, 28.8851, 73.1765, -154.976
5.844, 9, -47.9656, -15.1133, 37.519, 28.9645, 73.2253, -154.846
5.848, 9, -47.9476, -15.125, 37.5592, 29.044, 73.274, -154.717
5.852, 9, -47.9294, -15.1367, 37.5994, 29.1234, 73.3227, -154.588
5.856, 9, -47.9111, -15.1485, 37.6395, 29.2029, 73.3712, -154.459
5.86, 9, -47.8925, -15.1602, 37.6795, 29.2824, 73.4196, -154.33
5.864, 9, -47.8737, -15.172, 37.7195, 29.3619, 73.4679, -154.201
5.868, 9, -47.8548, -15.1838, 37.7595, 29.4414, 73.516, -154.073
5.872, 9, -47.8356, -15.1956, 37.7994, 29.5209, 73.5641, -153.945
5.876, 10, -47.8162, -15.2073, 37.8392, 29.6004, 73.6119, -153.817
5.88, 10, -47.7966, -15.2191, 37.879, 29.6798, 73.6597, -153.689
5.884, 10, -47.7768, -15.231, 37.9186, 29.7592, 73.7074, -153.561
5.888, 10, -47.7568, -15.2427, 37.9581, 29.8386, 73.7549, -153.433
5.892, 10, -47.7367, -15.2545, 37.9975, 29.9178, 73.8024, -153.306
5.896, 10, -47.7164, -15.2663, 38.0367, 29.997, 73.8498, -153.178
5.9, 10, -47.6959, -15.2781, 38.0757, 30.076, 73.8972, -153.051
5.904, 10, -47.6753, -15.2898, 38.1145, 30.155, 73.9445, -152.924
5.908, 10, -47.6546, -15.3015, 38.1532, 30.2338, 73.9918, -152.796
5.912, 10, -47.6337, -15.3132, 38.1916, 30.3125, 74.0389, -152.669
5.916, 10, -47.6126, -15.3249, 38.2299, 30.3912, 74.0861, -152.542
5.92, 10, -47.5913, -15.3367, 38.2681, 30.4697, 74.1331, -152.415
5.924, 10, -47.5699, -15.3484, 38.306, 30.5481, 74.1801, -152.289
5.928, 10, -47.5482, -15.3601, 38.3439, 30.6265, 74.2269, -152.162
5.932, 10, -47.5263, -15.3719, 38.3817, 30.7049, 74.2736, -152.035
5.936, 10, -47.5041, -15.3837, 38.4195, 30.7831, 74.3201, -151.909
5.94, 10, -47.4818, -15.3955, 38.4571, 30.8613, 74.3665, -151.783
